takenoko1/special-research/HandMotion_SimilarSearch_自分用/NewProject/handData/tgt/d4_feature_d2/1.csv
,vel_0x_L,vel_0y_L,vel_0x_R,vel_0y_R,posFromWrist_1x_L,posFromWrist_2x_L,posFromWrist_3x_L,posFromWrist_4x_L,posFromWrist_5x_L,posFromWrist_6x_L,posFromWrist_7x_L,posFromWrist_8x_L,posFromWrist_9x_L,posFromWrist_10x_L,posFromWrist_11x_L,posFromWrist_12x_L,posFromWrist_13x_L,posFromWrist_14x_L,posFromWrist_15x_L,posFromWrist_16x_L,posFromWrist_17x_L,posFromWrist_18x_L,posFromWrist_19x_L,posFromWrist_20x_L,posFromWrist_1y_L,posFromWrist_2y_L,posFromWrist_3y_L,posFromWrist_4y_L,posFromWrist_5y_L,posFromWrist_6y_L,posFromWrist_7y_L,posFromWrist_8y_L,posFromWrist_9y_L,posFromWrist_10y_L,posFromWrist_11y_L,posFromWrist_12y_L,posFromWrist_13y_L,posFromWrist_14y_L,posFromWrist_15y_L,posFromWrist_16y_L,posFromWrist_17y_L,posFromWrist_18y_L,posFromWrist_19y_L,posFromWrist_20y_L,posFromWrist_1x_R,posFromWrist_2x_R,posFromWrist_3x_R,posFromWrist_4x_R,posFromWrist_5x_R,posFromWrist_6x_R,posFromWrist_7x_R,posFromWrist_8x_R,posFromWrist_9x_R,posFromWrist_10x_R,posFromWrist_11x_R,posFromWrist_12x_R,posFromWrist_13x_R,posFromWrist_14x_R,posFromWrist_15x_R,posFromWrist_16x_R,posFromWrist_17x_R,posFromWrist_18x_R,posFromWrist_19x_R,posFromWrist_20x_R,posFromWrist_1y_R,posFromWrist_2y_R,posFromWrist_3y_R,posFromWrist_4y_R,posFromWrist_5y_R,posFromWrist_6y_R,posFromWrist_7y_R,posFromWrist_8y_R,posFromWrist_9y_R,posFromWrist_10y_R,posFromWrist_11y_R,posFromWrist_12y_R,posFromWrist_13y_R,posFromWrist_14y_R,posFromWrist_15y_R,posFromWrist_16y_R,posFromWrist_17y_R,posFromWrist_18y_R,posFromWrist_19y_R,posFromWrist_20y_R,posFromBody_0x_L,posFromBody_0y_L,posFromBody_0x_R,posFromBody_0y_R
6,-1.059608,1.518653,-0.009247,-0.086611,-12.866592,-29.273003,-42.932785,-53.601757,-60.836952,-49.335606,-29.916,-15.215241,-59.265965,-45.80864,-23.962212,-3.328056,-52.371769,-42.792801,-22.150452,-4.223969,-42.864945,-44.750542,-40.14988,-34.384117,23.735796,36.731244,44.202649,51.288965,29.842553,45.816792,49.88712,51.310949,21.881814,36.527369,43.407884,45.892535,12.203116,23.893914,31.767524,36.090769,1.52295,6.940894,11.087422,14.462662,26.715569,51.859245,75.236458,94.689446,47.800861,81.243851,99.439659,112.841583,36.734573,75.23346,96.148178,110.246864,27.719467,62.709664,82.34507,95.901169,20.975784,47.100884,62.794396,74.193558,-13.733217,-14.417177,-8.816538,-3.651981,20.333793,36.787055,42.283854,45.183641,37.940379,55.02247,59.712537,60.801222,48.921974,66.694372,70.136155,69.285901,54.304906,69.776755,72.09226,69.866565,34.792179,310.753465,-74.89761,301.440539
7,3.331489,-0.7713,-0.432598,-0.266836,-16.644126,-35.319992,-50.687507,-63.144653,-64.487262,-55.054412,-35.050231,-19.465896,-61.617908,-49.652664,-27.684837,-6.651466,-53.971023,-46.126029,-25.776054,-7.610916,-43.994956,-47.769126,-43.672462,-37.92144,25.975397,38.974106,46.438755,53.214726,31.053442,47.280672,51.595779,52.687007,22.267384,37.606421,44.790155,46.288195,11.699443,23.545938,31.641022,35.164834,0.046164,4.714397,8.640117,11.506473,26.915863,52.154503,75.633053,95.198536,48.087879,81.572399,99.837215,113.331745,37.002388,75.551754,96.521084,110.740871,28.019211,63.047871,82.796528,96.535137,21.30201,47.430645,63.290989,74.962521,-13.649187,-14.265876,-8.572315,-3.366225,20.574756,37.153778,42.690826,45.643978,38.18601,55.226839,59.872422,60.945557,49.175571,66.919329,70.397631,69.566606,54.555575,70.074368,72.476977,70.363002,37.759963,310.218747,-75.693913,301.410285
8,6.212609,-0.734324,-0.329098,-0.19954,-22.166863,-45.934639,-65.551323,-82.63963,-72.120278,-65.515663,-45.063973,-28.088791,-67.409203,-58.252155,-36.729469,-14.859169,-58.337197,-53.352516,-32.968918,-13.931786,-47.221436,-53.070465,-49.595764,-43.807549,30.338323,44.176196,50.684269,57.290217,33.97005,51.063268,56.164186,57.617371,22.831746,39.581446,47.54515,48.982452,9.950684,23.26243,32.15055,35.584021,-4.316872,0.730483,6.049169,9.970321,26.94587,52.250599,75.74643,95.25087,48.387635,81.851853,100.139649,113.734017,37.272778,75.780556,96.754509,111.001786,28.254227,63.273789,82.990563,96.737778,21.494305,47.639775,63.514733,75.187477,-13.518413,-14.121813,-8.365402,-3.184765,20.870688,37.457886,43.008594,45.927882,38.517375,55.544767,60.155831,61.192546,49.488435,67.224302,70.698158,69.836863,54.842393,70.302202,72.717396,70.634357,43.711172,309.643288,-76.284411,301.36961
9,-1.261894,0.498931,-0.439041,-0.224191,-19.841629,-42.392762,-61.052159,-77.468171,-69.90477,-62.838959,-42.754898,-26.804284,-65.959191,-56.613476,-35.476983,-14.237984,-57.417057,-52.549622,-32.222924,-13.48391,-46.609497,-52.692261,-50.781212,-46.592354,27.843953,41.302665,48.04455,55.046726,32.234555,49.837819,54.798501,56.401703,22.871884,39.520634,46.975243,48.977093,11.91242,25.595052,33.910881,37.64856,-0.445912,5.637158,11.502052,16.220339,27.140911,52.532639,76.036423,95.547524,48.724915,82.171005,100.441292,114.101898,37.480202,75.93132,96.883576,111.140419,28.341545,63.284065,82.984429,96.762062,21.452866,47.449997,63.30082,74.959511,-13.43547,-13.933351,-8.065172,-3.005504,21.029016,37.776568,43.370068,46.355503,38.702886,55.936327,60.590628,61.666295,49.643416,67.56362,71.140587,70.324407,54.933031,70.425875,72.960927,70.973169,42.253001,310.259292,-76.919729,301.262492
10,-1.140152,0.786935,-0.415466,-0.199417,-16.838379,-36.779435,-53.124802,-67.193665,-64.967457,-58.589333,-39.593537,-24.862519,-62.189633,-54.224064,-33.943222,-13.873627,-54.871273,-51.294503,-32.087883,-14.421135,-45.213021,-52.242691,-51.292008,-48.082032,24.116018,36.787314,44.089115,50.858516,30.216033,46.939069,51.023773,52.003727,23.199519,38.730735,45.458764,47.209265,14.572134,27.382504,34.8886,38.122062,4.647719,10.799554,16.085167,20.139428,27.247993,52.732395,76.218223,95.65432,49.095772,82.548454,100.811943,114.500564,37.751095,76.164024,97.079979,111.310592,28.499164,63.415832,83.060188,96.804245,21.509582,47.439125,63.233162,74.800209,-13.409349,-13.762574,-7.758297,-2.826884,21.17828,37.907207,43.484183,46.447289,38.885383,56.227813,60.925797,62.036934,49.800534,67.826764,71.470964,70.665134,55.039921,70.515253,73.105226,71.153678,40.964276,311.147321,-77.483768,301.164169
11,0.29013,-1.345875,-0.419563,-0.193612,-18.645973,-39.882431,-57.347042,-72.445335,-65.753116,-60.460991,-41.076782,-25.458709,-63.066089,-55.560825,-34.659988,-13.726181,-56.208698,-52.46735,-32.353981,-13.615745,-47.444858,-52.822357,-48.892639,-43.073913,25.737819,38.659661,46.631552,54.127806,30.206832,47.118813,52.094846,53.407586,23.684432,40.054887,47.81779,49.242125,15.852393,29.261186,37.14396,40.02043,6.814418,13.666293,18.300488,21.522168,27.437049,52.981452,76.425544,95.858367,49.394313,82.759529,101.020431,114.761512,38.028018,76.311744,97.220603,111.54412,28.721351,63.572799,83.15554,96.869316,21.654911,47.50724,63.236114,74.76432,-13.322195,-13.561465,-7.46891,-2.689317,21.334458,38.028127,43.586466,46.51314,38.998028,56.408001,61.176578,62.370324,49.873671,67.934851,71.673456,70.943146,55.117911,70.570001,73.211646,71.336385,41.138019,309.883198,-78.019718,301.052309
12,-4.985321,1.828072,-0.319336,-0.080362,-13.107101,-30.268318,-44.49377,-56.253731,-59.341907,-51.52343,-33.007484,-18.959907,-58.305988,-48.76672,-28.090118,-8.182297,-52.484516,-46.601818,-26.463501,-8.447159,-44.413067,-47.296257,-42.753341,-37.10408,20.840998,32.854035,41.149832,49.053131,27.023252,43.070752,47.496922,49.002941,22.881504,37.744186,44.830243,47.006142,17.371317,29.774739,36.791896,40.051959,10.714845,18.125845,22.369605,25.555136,27.554889,53.22155,76.664177,96.152252,49.653419,83.001091,101.236267,114.975036,38.259704,76.520874,97.394737,111.701156,28.892967,63.809898,83.306945,96.921936,21.788703,47.689476,63.342086,74.759353,-13.238918,-13.406039,-7.266739,-2.625726,21.325727,37.970266,43.545872,46.451142,39.012564,56.542641,61.366868,62.569371,49.900113,68.054166,71.826362,71.075391,55.15217,70.620537,73.28839,71.416698,36.055298,311.782323,-78.436454,301.043
13,-3.041519,-0.917315,-0.395165,-0.084611,-12.219315,-27.74366,-40.937313,-51.653011,-57.431133,-47.93771,-28.872665,-14.867134,-57.594097,-45.54253,-24.281204,-4.231293,-52.628792,-43.785267,-22.999626,-4.658524,-45.500141,-45.568634,-38.309463,-30.542107,17.375899,28.264596,37.661984,46.320503,24.753023,41.423325,45.915457,47.253441,24.188797,39.335914,46.447573,48.207312,22.191097,34.866246,41.017551,43.449455,19.087225,28.542263,31.957271,33.984068,27.788796,53.647144,77.207611,96.869179,49.911621,83.108872,101.293945,114.990326,38.523743,76.680336,97.521584,111.827087,29.203022,64.094124,83.477463,96.98291,22.142864,48.066868,63.642769,75.020302,-13.150071,-13.206153,-7.073497,-2.76359,21.11995,37.909369,43.663939,46.719201,38.832365,56.637824,61.597741,62.852262,49.820467,68.13895,71.934142,71.16987,55.208623,70.712867,73.34961,71.49501,32.944284,310.942918,-78.901114,301.036299
14,-6.195099,3.565938,-0.177177,0.01571,-8.75029,-20.440704,-30.377369,-37.831261,-49.182712,-38.49432,-20.190056,-6.736748,-50.437019,-37.93269,-17.15609,1.955498,-46.730633,-37.271656,-17.2798,0.047493,-40.885265,-39.156853,-30.352501,-21.558082,9.812523,17.435834,25.809956,33.113906,18.993525,33.328908,37.341067,38.914072,21.900932,34.888785,41.311359,42.955896,22.909107,33.647232,38.765167,40.736821,22.554548,31.22664,33.318299,34.11441,27.996299,53.943088,77.53038,97.348068,49.941295,82.99395,101.193535,114.847091,38.645153,76.713936,97.584457,111.898407,29.45113,64.392448,83.709251,97.084991,22.521057,48.565109,64.131454,75.482414,-13.045269,-13.061559,-6.929977,-2.742707,20.926733,37.867711,43.735507,46.787669,38.686695,56.719667,61.734628,62.91868,49.790876,68.17837,71.87538,70.985161,55.360726,70.843308,73.339025,71.389095,26.707311,314.578594,-79.120165,301.121747
15,-2.236473,-1.082225,-0.182579,-0.013042,-10.057617,-22.579285,-33.966122,-42.784561,-50.07106,-37.822277,-18.180542,-3.55204,-52.091263,-36.973835,-14.937149,5.18605,-48.836723,-36.439396,-14.709595,3.858902,-43.58733,-39.453083,-27.482025,-16.025185,8.028158,14.315598,22.657313,30.876885,17.426522,32.709391,37.871762,40.113339,22.569911,36.264695,43.637423,45.290308,25.539414,36.613029,41.798755,43.484837,26.801296,36.351924,37.928597,37.995806,28.131042,54.143818,77.780525,97.747444,49.846366,82.763168,101.013084,114.72084,38.649948,76.661956,97.650398,112.069496,29.63816,64.572097,83.89833,97.228523,22.894226,49.012172,64.575485,75.929145,-12.965536,-12.968204,-6.900732,-2.941987,20.685449,37.77537,43.806804,47.005575,38.530417,56.755298,61.847014,63.042823,49.793593,68.207455,71.853755,70.912271,55.545595,70.995511,73.405938,71.415784,24.440615,313.557227,-79.332967,301.169563
16,-1.329712,0.470587,-0.042675,0.023564,-9.292305,-20.916778,-31.941227,-40.393455,-48.562649,-35.92345,-16.042122,-1.39888,-51.132866,-35.627495,-13.533851,6.475296,-48.236732,-35.416717,-13.61737,4.895989,-43.193561,-38.820671,-26.628387,-15.012955,5.487858,10.695147,18.574759,27.000096,16.488682,31.560352,36.654711,39.079564,22.652855,35.773805,43.293325,45.343007,26.335279,36.723798,41.881254,43.720181,28.204464,37.325518,38.817977,38.865191,28.210064,54.268558,77.943981,98.023624,49.689388,82.522991,100.80186,114.50584,38.528034,76.560482,97.657138,112.080356,29.629406,64.595638,83.942974,97.195987,23.047302,49.220947,64.76691,76.029728,-12.906688,-12.857844,-6.82405,-3.062475,20.412377,37.679521,43.882226,47.229667,38.377227,56.888975,62.014778,63.124556,49.808043,68.391891,71.910405,70.796971,55.70296,71.176131,73.458055,71.303411,23.092472,314.089027,-79.394073,301.25434
17,1.14354,-1.44491,-0.05452,0.049746,-11.162568,-24.456414,-37.794217,-48.5621,-51.064431,-38.413296,-17.32338,-1.54152,-54.719937,-38.466763,-15.689759,5.140136,-52.680188,-38.95467,-16.166886,3.530433,-48.544522,-43.057229,-28.491372,-14.612435,3.195905,6.630167,14.272817,23.663758,14.714111,31.269137,37.316527,40.063309,24.012191,38.205202,46.604963,48.48178,30.72987,41.834854,46.911973,48.068027,35.228375,45.739308,46.85646,46.107859,28.202007,54.246139,77.898228,97.942303,49.655582,82.372066,100.65041,114.362377,38.539387,76.486896,97.621296,112.077015,29.72002,64.55286,83.876736,97.092991,23.214878,49.322765,64.848255,76.113865,-12.968673,-12.952186,-6.893371,-3.185148,20.28175,37.584895,43.902036,47.38655,38.322997,56.905253,62.083099,63.21859,49.833509,68.42063,71.911442,70.768245,55.806157,71.220418,73.455092,71.272042,24.22629,312.702194,-79.458315,301.362163
18,-3.752472,4.629774,0.103455,0.164775,-7.306847,-17.462174,-28.466572,-37.021557,-43.867104,-30.872246,-10.913269,3.854988,-48.476532,-32.969078,-11.170052,8.289093,-47.728798,-35.596951,-14.423653,3.682045,-44.746319,-40.852009,-28.73679,-16.862252,-4.18422,-4.496442,0.853947,7.841376,8.672611,23.070942,28.426308,31.366542,20.661071,32.987441,40.042475,42.218263,29.672209,39.182909,43.37985,44.825933,36.129215,45.145084,45.746743,44.974826,28.061645,53.958961,77.477291,97.426906,49.56911,82.2709,100.570438,114.283229,38.521442,76.451213,97.607425,112.054927,29.722938,64.525783,83.860073,97.04877,23.23994,49.376792,64.930377,76.202785,-13.093434,-13.21323,-7.136668,-3.278502,20.270227,37.514511,43.805372,47.245919,38.358244,56.879478,61.980926,63.026138,49.875536,68.388742,71.80533,70.590058,55.835513,71.17986,73.382572,71.150949,20.466483,317.372522,-79.362195,301.567492
19,4.592903,-3.649783,-0.079903,-0.024861,-10.868798,-24.396034,-38.923737,-50.76574,-50.828259,-38.845185,-17.507904,-1.476975,-55.593132,-40.1288,-17.126885,3.695732,-54.822018,-42.362972,-19.57853,0.278869,-51.925472,-47.931061,-33.821789,-19.905304,-0.72222,0.193971,6.934782,16.123576,11.189422,27.852524,34.164293,37.204821,23.188873,37.415971,45.616932,47.688967,32.378014,43.211988,48.055826,49.292082,38.91248,49.207249,49.821394,48.822112,27.923847,53.732414,77.192173,97.024441,49.637787,82.318714,100.623058,114.378902,38.623627,76.465656,97.611729,112.097912,29.823635,64.46458,83.782276,96.988071,23.313686,49.342609,64.913555,76.283832,-13.181601,-13.354033,-7.278237,-3.393839,20.462222,37.531542,43.831653,47.350266,38.522674,56.841576,61.919176,62.981036,49.992553,68.401117,71.840145,70.653377,55.887507,71.239944,73.530328,71.364297,25.054247,313.761864,-79.447237,301.581756
20,-1.239006,2.803926,0.08884,0.0917,-8.682701,-20.352974,-32.944542,-42.682137,-47.847473,-35.824333,-15.365959,-0.23822,-52.39951,-37.78775,-15.36557,4.62323,-51.64349,-40.439152,-18.839104,-0.219017,-48.636555,-45.402066,-33.140522,-21.014191,-3.681547,-3.966587,1.765716,9.348778,9.508786,24.855628,30.224085,33.051044,21.663341,34.451222,41.477628,43.692579,30.802291,40.678257,44.931539,46.404052,37.171735,46.514684,47.244857,46.779704,27.795914,53.577107,76.945725,96.602646,49.669854,82.361939,100.597962,114.222313,38.663556,76.50634,97.581849,111.969063,29.811482,64.437493,83.6605,96.785889,23.254052,49.264138,64.80336,76.134293,-13.269435,-13.497072,-7.359007,-3.22352,20.49937,37.51934,43.786723,47.246623,38.55177,56.786296,61.830168,62.819348,49.994072,68.39073,71.816223,70.586896,55.849727,71.246415,73.556053,71.34734,23.817272,316.595727,-79.356366,301.703393
21,-0.069214,0.421904,-0.013023,-0.044424,-7.670906,-18.83963,-31.360211,-40.924107,-47.060143,-34.844032,-14.480026,0.470833,-52.328293,-37.615677,-15.170014,4.626526,-52.147225,-40.884899,-19.154801,-0.590332,-49.566067,-46.287003,-33.873196,-21.612557,-5.159457,-6.43674,-1.258276,6.052096,8.144793,23.480001,28.906936,31.674441,21.173463,33.814883,40.78711,42.995762,31.066879,40.727422,44.865527,46.27151,38.088481,47.327998,47.856433,47.17519,27.727638,53.491539,76.798119,96.328949,49.779694,82.532547,100.747559,114.323616,38.731613,76.563377,97.576424,111.903328,29.805462,64.37851,83.526352,96.595528,23.160198,49.145851,64.682098,76.014404,-13.262506,-13.524896,-7.374271,-3.041405,20.738518,37.667208,43.895318,47.318118,38.760376,56.789718,61.830873,62.814014,50.134098,68.409552,71.888052,70.672519,55.908231,71.326456,73.722385,71.542682,23.766089,317.031216,-79.351358,301.672554
22,-5.047096,3.616326,0.006214,-0.054525,-4.733506,-12.984856,-22.46893,-29.430863,-41.339596,-27.312104,-7.793152,6.018631,-46.644047,-30.67915,-8.635872,10.175697,-46.559349,-34.878617,-14.25824,2.885559,-43.977757,-41.227501,-31.292427,-21.342842,-8.501426,-10.883918,-6.505999,-0.820848,5.565416,19.211455,23.67948,26.258696,18.815536,30.118801,35.562346,37.794303,28.710323,37.684288,40.92553,42.493064,35.681722,44.023536,44.148346,43.577105,27.704853,53.479534,76.793965,96.316738,49.81152,82.637776,100.822506,114.312527,38.724861,76.648441,97.616146,111.874935,29.745014,64.38802,83.474522,96.499134,23.051548,49.083126,64.599804,75.869969,-13.211612,-13.44514,-7.314324,-3.017965,20.879148,37.766021,43.905222,47.237583,38.879887,56.804018,61.803715,62.757734,50.227847,68.477329,71.962151,70.769134,55.964275,71.442732,73.862323,71.698119,18.744233,320.651312,-79.319904,301.621799
23,3.98101,-4.612373,-0.045696,-0.095479,-8.404907,-19.814255,-31.74345,-41.055141,-48.374874,-35.100563,-14.314522,0.68486,-53.229641,-37.046356,-13.738563,6.574242,-52.356125,-39.618427,-17.134712,1.822815,-49.061233,-45.200615,-32.643207,-20.361717,-1.80205,-0.873682,5.965843,14.468875,10.416838,26.416555,31.894495,34.519468,21.793524,35.075086,42.064912,44.181234,30.312413,40.999878,45.270857,46.68362,36.287753,46.225605,46.884062,46.373287,27.625831,53.452618,76.816406,96.302673,49.780884,82.800178,101.019813,114.466438,38.66439,76.782806,97.782028,112.011429,29.660808,64.445137,83.566521,96.598228,22.969837,49.07254,64.613479,75.852585,-13.201509,-13.398122,-7.275359,-2.954498,21.064276,37.875418,43.984559,47.300631,39.043403,56.920974,61.925401,62.897389,50.343419,68.598311,72.097953,70.915841,56.01123,71.538655,73.988492,71.812296,22.753263,316.035691,-79.33758,301.523072
24,-3.682548,1.978829,-0.119705,-0.113522,-4.906746,-13.171074,-21.769021,-27.989571,-43.238045,-29.229241,-9.672936,4.174919,-47.728615,-31.52044,-9.127945,10.134727,-46.544003,-33.915516,-12.613106,5.144439,-42.764443,-38.756825,-27.602932,-16.657402,-1.737051,0.006583,6.685063,14.016207,10.78177,25.087822,29.775518,32.260404,20.212182,31.947156,38.365803,40.967261,26.800445,36.346601,40.67449,42.765495,31.157653,39.759473,40.878464,41.223834,27.680523,53.612571,76.999694,96.426155,50.138065,83.230659,101.383392,114.72258,38.925773,77.110176,98.03231,112.176292,29.734714,64.560424,83.628685,96.593696,22.843082,48.92474,64.340137,75.304687,-13.319329,-13.422551,-7.276792,-2.979692,21.105155,37.655327,43.664606,46.942194,39.083306,56.949441,62.036378,63.179934,50.331032,68.635262,72.20677,71.164744,55.917209,71.447388,73.818555,71.54467,19.104847,318.005097,-79.423153,301.400127
25,-10.944478,-0.811339,-0.053353,-0.516517,-1.294441,-5.529018,-11.593494,-17.091213,-32.342628,-16.155475,3.581143,17.160382,-38.152599,-19.420246,3.058194,21.995167,-39.201187,-23.880043,-1.641574,16.518574,-38.101318,-31.988857,-19.003749,-6.618656,-3.961375,-3.4434,2.862972,10.429447,6.808366,21.480845,27.307527,30.419958,18.185719,31.457538,38.659463,41.070829,26.84661,37.480105,41.993973,43.82328,33.262465,42.752207,43.332376,42.555309,27.756375,53.830193,77.32853,96.687035,50.366902,83.368447,101.612,115.095383,39.180485,77.195664,98.176758,112.48423,29.859444,64.546418,83.696686,96.788086,22.706887,48.657578,64.002091,74.906708,-13.089037,-13.076947,-7.150599,-3.092078,21.182318,37.78005,43.929552,47.229889,38.985591,57.220476,62.670468,64.117453,50.107668,68.752415,72.594846,71.749137,55.661685,71.352971,73.776132,71.516894,8.191783,317.186866,-79.445092,300.876718
26,-10.450424,-1.110655,-0.338997,-1.05077,2.152485,1.243664,-1.699894,-6.267894,-22.793586,-4.100223,15.112599,27.906452,-28.193618,-6.8134,15.007565,33.030361,-30.005825,-12.149711,9.655667,26.994519,-30.082752,-21.546421,-8.504871,3.51511,-0.626606,2.639756,10.233748,17.930949,8.254165,23.470084,29.868143,33.441467,17.12502,31.853592,39.650903,42.677081,23.875834,36.376143,41.611355,44.222434,29.007219,39.509952,41.294304,41.683047,28.088814,54.313694,77.859147,97.206482,50.894795,83.437317,101.472519,115.017609,39.772431,77.193306,97.96225,112.388901,30.311406,64.354226,83.457619,96.760964,22.839444,48.225758,63.384339,74.451325,-13.027101,-13.058915,-7.30148,-3.518822,20.409277,37.322764,44.008704,47.846319,38.107217,57.153106,63.644939,65.985564,49.234147,68.624554,73.40274,73.395441,54.939317,71.162731,74.279447,72.71999,-2.226042,316.065075,-79.75149,299.814812
27,7.931465,-6.275188,-0.228538,-2.852153,-3.037639,-8.135799,-14.512744,-22.496109,-32.291004,-18.028873,0.966855,15.216053,-36.408393,-18.441089,3.277165,22.511136,-37.013374,-21.333206,0.447453,19.350483,-36.040397,-28.272857,-13.92778,0.258809,6.964619,13.796253,23.124183,32.782763,12.731984,30.3969,39.599761,44.808236,18.606955,36.213208,47.213155,51.940198,23.130334,38.163842,46.193223,50.205592,26.696272,39.239201,43.288435,45.616277,28.421482,54.825405,78.128792,97.217972,51.304562,82.72435,100.100899,113.218643,40.215843,76.216988,96.458061,110.797211,30.342899,62.975235,81.676163,94.968017,22.030849,46.26226,60.758217,71.631088,-12.598047,-12.269634,-6.217537,-2.870962,19.125227,37.041158,44.79906,49.657533,36.491443,56.924124,65.047329,68.787996,47.850246,68.400388,74.70229,76.023007,54.261088,71.761686,76.122561,75.668004,5.759771,309.773279,-79.92568,296.946051
28,6.088166,-5.657863,-0.100903,-4.578163,-5.218678,-11.330326,-17.877972,-25.429865,-33.611344,-24.584244,-9.652342,2.336466,-35.97353,-23.793703,-6.618805,9.376613,-35.340363,-24.852677,-7.89362,7.767774,-33.377535,-29.079821,-18.261956,-6.786049,6.138578,14.204145,24.027654,33.778118,13.108143,32.372493,43.001851,49.11001,18.972092,39.005827,51.357163,57.5336,23.530668,40.854172,50.548702,55.813931,26.943496,41.214035,46.905879,50.77101,29.137333,55.912068,78.267598,96.459835,49.984635,80.106091,96.781575,109.136273,38.460114,72.447052,91.980481,105.504765,28.109093,59.005211,77.142311,89.763897,19.411263,43.380158,57.642506,68.056652,-12.329507,-11.270796,-4.560527,-0.77146,15.064976,34.219781,43.745351,50.236739,32.12359,54.652486,65.419239,71.432864,44.172565,66.687049,75.269652,78.633703,52.028366,70.363705,75.718368,76.180952,11.953308,304.102612,-79.921212,292.355084
29,13.486107,-11.546018,-2.309841,-10.608412,-12.287488,-23.569508,-33.4315,-42.987208,-39.803284,-39.549386,-30.300883,-21.463892,-39.245236,-36.410655,-26.609986,-15.637219,-36.6083,-34.357178,-24.498219,-13.862486,-33.391223,-34.55575,-28.161782,-20.464096,4.267503,13.684355,24.782145,35.834221,13.990915,37.641409,50.460794,57.136144,22.285038,48.122683,62.40877,69.060068,29.212163,51.635831,63.187913,68.901598,34.33197,52.898176,60.150737,64.594433,32.152989,59.48386,79.998116,95.229561,55.749138,83.502114,96.750641,105.242729,43.246903,74.383679,90.320778,99.802025,31.008465,59.623306,74.733513,84.127224,19.458195,42.627674,55.758122,64.59272,-9.127155,-5.924371,2.062106,8.200084,17.444973,40.516051,52.973703,60.943001,32.154601,58.332193,72.032621,79.198324,42.928022,68.146594,79.072391,83.526114,50.298662,69.831651,76.564793,78.023424,25.51795,292.52436,-82.152518,281.714438
30,24.560611,-13.999312,-3.74675,-13.020951,-22.380649,-41.907005,-56.309486,-67.905287,-55.357475,-66.548984,-62.875013,-56.573747,-50.233669,-59.741598,-56.659343,-49.464866,-43.223968,-52.369594,-49.522293,-42.766359,-36.060694,-45.241968,-44.791443,-41.206936,7.766183,21.896443,36.591861,49.923405,20.434792,47.773589,61.806284,68.285464,27.364368,56.589776,71.560119,78.118828,32.885633,58.510763,70.986569,76.53543,36.653266,57.572706,66.187519,71.486704,31.381474,57.929695,76.632592,91.090451,59.819184,85.70105,97.730988,104.772286,48.359173,77.351017,92.189667,99.90857,36.315502,62.902382,77.515572,85.831936,24.021332,46.085209,59.144577,67.410187,-9.384976,-5.164607,2.706138,8.635412,21.047381,45.085359,58.35966,66.793123,34.894614,61.838307,75.940829,83.073076,44.707582,70.309118,81.600601,86.225731,51.076717,71.103055,78.717659,81.097878,50.170824,278.414972,-85.807005,268.583411
31,22.954285,-13.718941,-5.976905,-16.793123,-28.053429,-52.329163,-69.349136,-80.91144,-67.385479,-87.242855,-86.475432,-81.366823,-61.153587,-80.609327,-80.223003,-74.457436,-52.199066,-70.701977,-71.215645,-66.09807,-42.66897,-58.89255,-61.800064,-60.062016,8.244106,22.844225,37.333274,50.22697,26.069418,52.182964,63.740307,68.253156,31.672138,60.206732,72.100374,76.2532,35.376027,60.451826,70.558083,73.785845,36.834257,57.268969,64.731987,68.652274,30.097972,55.199672,71.469589,83.000038,57.111396,80.157005,90.191562,95.03366,45.659042,71.817855,84.358531,89.572059,33.32191,57.384567,70.406352,76.953495,20.695644,41.026325,52.557392,59.116813,-9.787898,-7.42319,-2.300722,2.105899,13.664699,34.122425,45.913073,53.233548,26.046052,50.287189,63.287602,70.147121,35.721304,58.906484,69.258619,73.868374,42.964195,60.395398,66.921045,69.302166,73.229702,264.491856,-91.679317,251.586113
32,12.808044,-18.376935,-6.556687,-20.843025,-27.435836,-52.010788,-69.374313,-78.850095,-64.551097,-88.566318,-90.536504,-87.306604,-57.982795,-82.758035,-86.070545,-83.001503,-49.182815,-72.607738,-76.069267,-73.556459,-39.66564,-58.867475,-63.548744,-63.494327,-1.109982,9.197458,22.614656,35.787736,19.412255,43.257757,51.599237,53.704031,28.755802,55.25814,63.475681,65.173065,35.598872,58.81765,65.673626,66.635827,39.613754,58.346909,63.505822,64.87573,28.667301,52.112743,66.490242,75.163982,54.519024,73.495686,81.062542,83.717148,43.31052,63.873058,72.761067,75.156143,31.018147,50.616898,60.48048,64.401421,18.42778,35.466934,45.219395,50.404518,-6.68216,-5.46769,-2.965588,-0.354299,7.942474,22.451018,32.214079,38.719386,15.188354,33.639106,45.439918,51.983671,20.959881,37.429803,45.915742,49.887541,25.149918,34.611427,36.907283,36.384961,86.169639,245.925332,-98.104111,230.553499
33,10.158211,-19.830373,-9.954059,-22.311424,-25.070961,-47.876633,-63.223114,-70.532364,-58.323028,-83.801147,-86.997356,-84.791702,-51.266556,-78.151565,-82.385925,-80.253914,-42.625099,-68.059158,-72.47905,-70.9277,-33.444786,-54.149185,-60.345863,-61.416893,-7.813749,-4.136166,3.090374,10.678647,8.867705,29.248515,36.201068,37.771393,19.421048,42.914956,49.175274,49.576677,27.625764,48.293515,53.387455,53.023091,33.227094,49.961456,54.017507,54.175539,28.386234,49.640167,62.016643,68.148731,50.732494,63.794391,68.657135,69.377929,39.05421,58.837268,66.825279,67.561901,27.211097,46.915672,55.287986,57.181789,15.268936,31.978603,40.787864,44.537704,-7.335331,-10.262548,-11.973417,-12.47588,-3.975497,0.868211,4.806202,6.736884,0.984956,15.958048,26.639498,32.22838,6.546433,20.170155,27.140356,30.058285,11.423431,18.664667,20.115691,19.487516,96.415478,225.907488,-107.970542,208.054604
34,8.033364,-18.903172,-7.783608,-18.655985,-24.070679,-45.126389,-59.161171,-64.816315,-50.617241,-70.21978,-71.685219,-69.288884,-43.193505,-68.770546,-71.584328,-68.024804,-35.409829,-60.060174,-62.589936,-59.350136,-27.62558,-47.933533,-53.320679,-53.166092,-10.229647,-12.767898,-9.90631,-4.972353,-7.689742,1.488191,2.750783,0.620802,1.063398,18.985881,25.122081,26.21326,9.624259,26.18094,30.82136,30.92531,17.057872,30.152628,33.793444,34.04772,25.154102,43.411171,54.235245,59.480072,38.717011,47.176815,51.665405,53.211021,27.763229,45.264359,56.030777,59.473423,17.697269,36.080715,46.185436,49.271782,8.582462,23.848698,33.041393,37.027725,-12.293593,-21.01553,-27.906197,-33.670752,-24.048296,-29.851643,-33.658365,-36.844532,-19.423258,-12.901124,-3.283899,3.573626,-12.837472,-5.841224,0.451562,4.706938,-5.680704,-3.171001,-2.140504,-1.555727,104.733971,207.075357,-115.469021,189.46966
35,6.918411,-23.112389,-5.145721,-21.676556,-22.122185,-40.409065,-52.746437,-57.19693,-41.62516,-55.267525,-55.149422,-52.497666,-34.023056,-57.555428,-59.721794,-55.951653,-27.046234,-50.079369,-51.749932,-48.328011,-20.134896,-39.510155,-44.082939,-43.1941,-12.266558,-22.198822,-25.746241,-24.503446,-24.111146,-26.714562,-31.591547,-37.71712,-17.25585,-4.916222,2.096482,4.865951,-8.397284,4.218844,9.854353,11.696825,0.457898,10.526964,14.939759,16.435737,24.825473,41.047954,49.447483,50.87947,26.466545,29.695072,31.846012,32.324432,13.298549,29.520355,39.607383,42.561607,2.75521,20.823223,29.431926,31.203769,-5.714528,9.154655,17.584419,20.664505,-12.831871,-27.009741,-38.011614,-46.188771,-45.969273,-62.170444,-72.094254,-79.600684,-42.905847,-40.563154,-29.320806,-20.368527,-35.378811,-31.408643,-23.858278,-17.62006,-25.624371,-26.340861,-24.993837,-23.282566,112.011412,184.504849,-120.255712,168.334985
36,8.599937,-22.647161,-4.143494,-19.624497,-23.73603,-40.65406,-51.753776,-55.354568,-32.389778,-42.923286,-43.959823,-42.619034,-22.094925,-46.036148,-52.783996,-52.450996,-14.30159,-38.512459,-43.839798,-43.327995,-7.873329,-27.7519,-35.19104,-36.92157,-20.185913,-37.252702,-46.107909,-48.71193,-47.117065,-56.736569,-64.721434,-73.108647,-38.928559,-31.494408,-21.583732,-14.465423,-26.831208,-17.695,-9.172727,-3.259125,-13.30228,-6.390315,-0.451204,3.968452,25.521892,40.616856,47.619953,47.897621,21.344364,21.784756,22.483337,22.52821,7.118259,23.801754,34.963692,38.722172,-3.380917,15.830269,24.685318,26.604549,-11.331345,4.657516,14.365883,18.212952,-14.386839,-31.076722,-43.495279,-53.117068,-57.198727,-78.833923,-93.154127,-104.289826,-55.393787,-55.015751,-41.389078,-30.205887,-47.977507,-45.481883,-36.005628,-27.855166,-37.465611,-39.467454,-36.807352,-33.568135,121.19157,162.837886,-123.818985,149.690686
37,4.205132,-21.872601,-3.738728,-16.047339,-24.405991,-39.145203,-47.169686,-50.147988,-23.452034,-29.506233,-31.272972,-31.637398,-10.456925,-34.820915,-44.441643,-46.674179,-1.742066,-27.125153,-35.392891,-37.367729,4.321129,-16.663742,-26.878739,-31.116761,-18.771149,-38.819372,-52.126672,-59.567251,-59.030757,-76.157604,-87.930858,-99.188909,-53.352171,-49.028271,-36.320289,-26.134337,-41.810358,-34.648872,-23.130834,-14.028063,-27.617124,-22.271583,-14.259467,-7.272315,26.200161,40.44056,45.875851,45.313568,16.19672,15.645436,15.77005,15.744988,0.993645,21.190636,35.456314,40.747857,-9.264278,13.012837,24.302456,27.558792,-16.373371,2.259762,13.942349,18.6125,-20.041361,-40.190305,-54.527954,-65.047297,-69.881743,-95.163646,-113.861418,-129.428233,-65.322642,-65.551174,-50.471989,-37.454348,-54.511948,-50.490761,-38.982498,-28.801948,-39.950892,-39.16371,-32.797724,-25.604635,126.308636,141.978749,-126.645779,134.656811
38,3.899849,-18.318754,-0.170196,-15.270753,-26.221001,-40.365967,-48.040032,-51.768425,-18.931572,-20.229836,-21.509331,-22.411652,-4.879738,-28.345848,-40.415154,-44.491837,3.989113,-21.412606,-31.441544,-34.926659,9.453735,-11.219673,-22.386681,-27.577721,-18.022611,-38.544168,-51.316228,-57.980475,-67.368124,-91.59165,-108.543416,-123.925697,-63.434086,-63.860565,-50.015363,-37.077497,-52.289829,-48.704377,-35.666698,-23.734505,-37.480857,-35.470146,-26.871229,-18.173992,25.420326,39.168285,43.824383,42.551479,14.250606,14.730846,14.55122,14.64727,-0.968102,18.691635,32.999931,39.043899,-11.556851,9.654831,21.531635,25.906654,-19.177746,-1.634136,10.734844,16.493843,-21.518697,-42.527935,-57.563839,-68.629587,-73.611561,-99.257131,-119.255162,-136.155182,-69.277627,-72.598095,-56.654299,-41.990669,-59.305942,-58.070279,-45.273377,-33.293155,-45.252678,-46.587938,-39.398121,-30.832956,131.239134,124.819334,-125.785326,120.545397
39,2.43853,-17.297661,1.034534,-14.822618,-25.613205,-38.775284,-45.68438,-50.418732,-16.951928,-18.083794,-18.991997,-19.571503,-2.946785,-25.036354,-38.224846,-43.611237,6.104965,-18.522309,-29.624771,-34.173455,11.69712,-8.335831,-20.389321,-26.328415,-19.049391,-40.290674,-54.532863,-63.469852,-69.797435,-94.315301,-112.105366,-128.150074,-66.356665,-70.684832,-57.41394,-43.346276,-56.030212,-55.666341,-42.385223,-29.176384,-41.745057,-42.270411,-33.747082,-24.315003,24.785992,38.316834,42.306919,40.571171,12.43198,13.811634,13.871281,14.568844,-3.564457,17.722298,31.218876,36.974327,-14.334938,7.739594,19.535546,24.569401,-22.03165,-3.911247,8.898835,15.487782,-21.015469,-42.875843,-58.326161,-69.469121,-75.456503,-103.235204,-123.711739,-141.164795,-71.184301,-73.87673,-57.367893,-42.333032,-61.173528,-59.423885,-46.24255,-34.100276,-47.167997,-48.250191,-40.819147,-32.197412,134.785595,108.568265,-123.642861,106.769371
40,2.29335,-12.244304,-0.392315,-10.419438,-25.905716,-39.126389,-46.021889,-51.059418,-16.808647,-17.893387,-18.868424,-19.568482,-2.70195,-24.737755,-39.03756,-45.24511,6.489395,-18.333389,-30.21238,-35.430359,11.755188,-8.035561,-21.001053,-27.785477,-20.423164,-41.886255,-56.861897,-67.493879,-72.400036,-97.059878,-115.455251,-131.844793,-69.251327,-76.01756,-63.039847,-47.831764,-59.478694,-61.48139,-47.866851,-33.465382,-45.501186,-48.425926,-40.027753,-29.855435,24.919258,38.610981,43.057801,41.643025,12.580719,14.790551,14.739121,15.292145,-3.508758,18.318982,31.83339,37.808384,-14.339653,8.172593,20.428093,26.051022,-21.913261,-3.530983,9.917622,17.212624,-21.335496,-43.166514,-58.559397,-69.963216,-76.341935,-104.240889,-124.991398,-142.799877,-72.31616,-76.217051,-59.250249,-43.652805,-62.399458,-61.520336,-47.770575,-35.257354,-48.211825,-49.862451,-42.242777,-33.431833,138.236035,97.153692,-122.878086,97.179664
41,-0.081436,-11.547864,1.132313,-8.864679,-25.536438,-38.86702,-45.801865,-51.251473,-16.928696,-17.9263,-19.049698,-19.944992,-2.359978,-24.951714,-38.967476,-44.694008,7.089752,-17.781464,-29.597145,-34.738701,12.471931,-7.477089,-20.500283,-27.178116,-19.378527,-41.104718,-56.46249,-67.371947,-72.702268,-99.320394,-118.432733,-135.316364,-69.477223,-76.578668,-62.941417,-47.464497,-59.860108,-62.545844,-48.141585,-33.457738,-46.262834,-49.478987,-40.505844,-30.504963,24.157826,37.759426,42.332428,40.438545,11.868359,13.681057,13.739479,14.216389,-4.467098,17.44812,30.66243,36.287693,-15.33633,7.34293,19.459557,24.773918,-22.946651,-4.635933,9.040444,16.453114,-20.312662,-42.026731,-57.475474,-68.5981,-76.196278,-104.900575,-125.769935,-143.622992,-72.201595,-76.277684,-58.92307,-43.434579,-62.252356,-61.287135,-47.210796,-34.863288,-48.056986,-49.524614,-41.591805,-32.867002,139.083784,86.227676,-120.816588,88.936833
42,0.21643,-6.388704,1.526379,-6.884244,-26.233772,-40.052581,-47.375198,-52.47361,-17.555191,-18.921409,-20.261924,-21.422195,-2.863884,-26.39907,-40.350563,-45.667923,6.58049,-19.094856,-30.568336,-35.44162,11.718338,-8.468673,-21.278617,-27.710495,-19.501799,-41.206321,-56.724805,-67.950382,-73.835035,-100.960806,-120.358623,-137.450736,-70.842635,-78.001929,-63.791183,-47.931627,-61.479142,-64.047749,-49.152698,-34.399814,-48.004628,-51.195494,-41.761711,-31.679215,23.392856,36.818722,41.450203,38.806549,10.649734,12.140384,12.362308,12.779594,-6.245213,16.507587,29.062362,33.981811,-17.338269,6.501457,18.224979,22.985756,-24.980747,-5.897141,8.123909,15.587482,-19.002665,-40.70631,-56.257306,-66.734356,-75.74715,-105.408454,-126.3604,-144.248895,-71.799242,-75.00612,-56.859391,-41.642101,-61.665475,-60.038895,-45.47133,-33.344772,-47.306374,-48.376786,-40.015194,-31.362115,139.778961,80.487349,-118.811462,82.700966
43,-2.375473,-6.263122,1.300472,-4.222562,-25.076751,-38.871139,-46.179565,-50.984642,-16.355095,-18.069832,-19.472099,-20.91568,-1.524582,-25.984726,-39.626609,-44.782104,7.907273,-18.276809,-29.562515,-34.254387,13.150269,-7.509109,-20.24778,-26.553703,-17.946954,-39.550503,-55.120005,-66.394117,-72.45019,-99.60849,-119.474444,-136.826087,-69.412551,-75.819274,-61.332522,-45.619173,-59.930893,-62.070637,-47.022315,-32.25182,-46.591124,-49.388109,-39.771304,-29.763939,22.505161,35.799786,40.464111,37.342449,9.3013,10.194111,10.669167,11.146889,-7.933983,15.55545,27.644108,32.125729,-19.102375,6.084789,17.339172,21.627319,-26.751892,-6.704063,7.493797,14.929699,-18.062742,-39.811015,-55.407094,-65.184401,-75.373534,-105.77672,-126.602812,-144.266382,-71.466252,-73.78335,-55.458668,-40.655785,-61.127473,-58.499833,-43.769605,-31.912285,-46.610859,-47.171386,-38.390268,-29.767267,137.634298,74.841082,-117.28018,79.095259
44,-2.91774,-4.232466,0.276215,-1.670157,-24.281364,-37.651634,-44.578857,-48.995018,-14.755073,-16.131385,-18.02069,-20.118118,0.167565,-25.394371,-38.558006,-43.248092,9.32515,-17.588951,-28.467567,-32.844406,14.369729,-6.486122,-18.890533,-25.046218,-16.154661,-37.98931,-53.613066,-65.006968,-70.772456,-98.25594,-117.980485,-134.78636,-67.312833,-73.08801,-58.052124,-42.504828,-57.540065,-59.248699,-43.946125,-29.400155,-44.175602,-46.920457,-37.144422,-27.348763,22.024578,35.516853,40.491417,36.97166,8.649765,8.458603,9.653,11.10411,-8.704686,15.591877,27.412548,31.484241,-19.771786,6.734916,17.653106,21.483432,-27.331353,-6.36018,7.91019,15.216831,-17.454421,-39.253631,-54.820601,-63.986845,-75.233231,-106.102948,-126.324707,-143.107586,-71.301157,-73.005573,-54.767496,-40.625417,-60.782653,-57.387455,-42.665657,-31.166137,-46.137314,-46.45862,-37.458516,-28.953761,134.544124,71.103654,-117.176399,77.92014
45,-2.938957,-1.558525,0.786529,0.552308,-23.71138,-36.633247,-43.254707,-47.379867,-13.297233,-13.822838,-16.717781,-20.016884,1.523735,-24.561744,-37.464088,-41.573158,10.280571,-16.913658,-27.62091,-31.523208,15.121125,-5.872513,-17.821014,-23.403122,-14.819648,-36.664183,-51.919184,-63.528385,-69.02411,-96.714433,-115.545277,-130.827288,-65.139132,-71.113596,-55.815629,-40.755975,-55.025563,-56.871203,-41.639352,-27.651914,-41.576997,-44.347182,-34.496429,-25.027071,21.806351,35.254028,40.059185,36.047276,8.093376,6.530811,9.076859,12.437943,-9.513199,15.285462,26.795838,30.404434,-20.547512,6.724995,17.221516,20.640942,-28.103748,-6.37698,7.737145,14.90054,-17.451815,-39.383881,-54.812827,-63.397672,-75.569444,-106.456549,-125.052525,-139.433517,-71.550208,-72.128056,-54.527287,-41.483142,-60.759108,-56.59616,-42.437835,-31.650995,-46.019371,-46.029782,-37.199961,-29.038773,131.149664,69.857558,-116.845373,78.784877
46,-2.590439,0.883525,0.632824,1.906415,-23.448143,-36.184387,-42.739563,-46.385627,-12.087593,-11.836303,-16.204124,-21.18235,2.433472,-24.295005,-37.127952,-40.695076,10.621262,-17.192207,-27.601684,-30.769729,15.0672,-6.35765,-17.612342,-22.321884,-14.060562,-35.907765,-50.711846,-62.265138,-67.774337,-95.302986,-112.654987,-125.752515,-63.666663,-69.559603,-54.35404,-39.978173,-53.232078,-54.625544,-39.643628,-26.369334,-39.56197,-42.073155,-32.413476,-23.345663,21.828598,35.306362,40.11961,35.719883,7.845074,4.854286,9.194309,15.038555,-9.971043,15.256748,26.502285,29.598312,-20.928074,6.992718,17.172306,20.214409,-28.445675,-6.040501,7.821373,14.635666,-17.626631,-39.529113,-54.777488,-63.023206,-76.020087,-106.940932,-123.473074,-134.638894,-71.77821,-71.206031,-54.060282,-41.974843,-60.617299,-55.738627,-41.836195,-31.62737,-45.71517,-45.424635,-36.490394,-28.526752,128.044389,70.841631,-116.727385,80.79184
47,-2.481834,2.470474,0.511345,2.760613,-23.346016,-35.916298,-42.555244,-46.375305,-11.190491,-9.776917,-15.856819,-22.864586,2.939095,-23.591377,-36.845261,-40.316849,10.582924,-17.034439,-27.587128,-30.353439,14.710945,-6.548882,-17.468834,-21.555016,-13.683453,-35.449899,-49.717523,-60.971968,-66.62746,-94.34738,-110.061174,-120.544023,-62.248256,-68.573481,-53.691212,-39.974809,-51.533609,-53.139435,-38.644019,-26.0272,-37.781156,-40.461081,-31.086004,-22.295351,22.07943,35.499069,40.193596,35.489468,7.878639,3.345749,9.810802,18.597267,-10.089684,15.438984,26.595863,29.332123,-20.957005,7.337803,17.312302,20.121334,-28.559692,-5.730789,7.920479,14.46793,-17.988623,-39.935825,-55.068239,-63.172462,-76.621689,-107.404677,-121.556772,-129.042028,-72.198976,-70.164961,-53.520761,-42.402346,-60.707194,-54.749804,-41.113652,-31.517972,-45.622445,-44.648703,-35.585027,-27.855703,125.022606,73.253609,-116.755989,83.493957
48,-0.722305,4.353571,0.306816,2.763751,-24.712784,-37.60714,-44.502663,-47.860222,-12.358338,-9.692688,-17.625778,-26.532555,1.733825,-25.194145,-38.550728,-41.120957,8.9962,-19.145806,-29.403511,-31.279953,12.593605,-8.866173,-19.049492,-22.146355,-14.398116,-36.236847,-50.189556,-61.001485,-67.585419,-96.324098,-110.409836,-118.108494,-62.982185,-69.448009,-54.498882,-41.240828,-52.147266,-53.172737,-38.753991,-26.876231,-38.233886,-40.414003,-30.752848,-22.156598,22.689102,36.137959,40.866909,35.635906,8.36491,2.345753,10.813751,22.333134,-9.742458,15.966122,27.090454,29.474156,-20.52729,7.747913,17.609596,20.28677,-28.12754,-5.188293,8.299072,14.661884,-18.194691,-40.207373,-55.337366,-63.141148,-77.285945,-108.005293,-119.861279,-123.586021,-72.617675,-69.357766,-53.117198,-42.702651,-60.79496,-54.154259,-40.699233,-31.57343,-45.483853,-44.013662,-34.878096,-27.355148,123.825863,77.328099,-116.923611,85.978627
49,-0.230416,4.184282,0.502911,2.385024,-25.857536,-39.199676,-46.440673,-49.486519,-13.924003,-10.49382,-20.065223,-30.674194,0.310089,-27.010826,-40.462623,-42.285713,7.45855,-21.185073,-31.319137,-32.415687,10.750946,-11.354004,-21.068069,-23.270828,-15.43154,-37.308333,-51.12429,-61.162833,-68.846381,-98.29196,-111.072646,-116.325877,-64.211148,-70.112684,-55.207425,-42.388071,-53.218704,-53.471424,-39.221627,-27.917559,-39.138807,-40.486849,-30.607321,-22.200033,23.309601,36.611515,41.343727,35.626419,8.754879,1.547001,11.606254,25.018146,-9.647278,16.41766,27.482025,29.282879,-20.444218,7.956207,17.573993,19.843712,-27.942959,-4.723675,8.579006,14.601677,-18.575661,-40.517978,-55.665107,-63.278402,-77.876872,-108.681695,-118.620973,-118.962873,-73.083645,-68.72233,-52.649921,-42.662718,-60.984392,-53.842136,-40.479285,-31.727881,-45.491319,-43.535159,-34.282125,-26.87604,123.229791,81.164856,-116.786356,88.016126
50,0.297043,3.144361,-0.061627,1.601435,-26.820076,-40.64891,-48.140854,-50.739715,-15.374702,-11.664047,-22.377022,-34.229988,-0.966957,-28.694458,-42.23275,-43.732109,6.187523,-23.077377,-33.102905,-33.848739,9.233162,-13.444015,-22.907753,-24.799438,-16.262786,-38.132954,-52.081526,-61.349411,-70.114116,-100.053964,-111.962771,-115.382904,-65.447687,-70.62896,-55.957463,-43.259732,-54.349365,-53.680275,-39.571294,-28.507491,-40.12932,-40.634358,-30.621844,-22.358904,23.897713,37.311688,42.298256,36.19812,9.468407,1.537617,12.644348,27.168194,-8.996601,17.57428,28.498593,29.737667,-19.756656,8.82209,18.147812,19.976681,-27.173824,-3.668529,9.433388,15.028038,-18.770075,-40.583266,-55.771916,-63.253207,-78.275786,-109.430561,-118.339762,-116.593102,-73.440858,-68.232952,-51.968542,-41.948654,-61.255526,-53.716258,-40.174744,-31.521066,-45.684468,-43.277919,-33.729668,-26.312826,123.289381,83.895323,-117.085436,89.203667
51,0.731438,1.985881,0.213959,1.226585,-27.736405,-41.895561,-49.536255,-51.780167,-16.937073,-12.831368,-24.058502,-36.535401,-2.28566,-30.260101,-43.584709,-44.551575,4.945679,-24.78067,-34.482536,-34.648773,7.84758,-15.297066,-24.399994,-25.747879,-16.871589,-38.758418,-52.839389,-61.574966,-71.263347,-101.617089,-112.93066,-115.064371,-66.659199,-70.984673,-56.302667,-43.907272,-55.449591,-53.908721,-39.861194,-29.271751,-41.151277,-40.704865,-30.639819,-22.769711,24.290062,37.724545,42.829674,36.768036,9.743568,1.50452,13.282562,28.548363,-8.682129,18.151634,29.181416,30.250248,-19.350037,9.267082,18.523258,20.170429,-26.667309,-3.07251,9.983894,15.357594,-19.105516,-40.997117,-56.242917,-63.618985,-78.865971,-110.248963,-118.524093,-115.57262,-74.013006,-68.453141,-52.16655,-42.034049,-61.796206,-54.193026,-40.560826,-31.792558,-46.146824,-43.596995,-33.893517,-26.374391,123.81419,85.479841,-117.078106,90.028889
52,1.215546,1.364394,0.014259,0.641179,-28.509293,-42.773644,-50.53331,-52.633873,-18.134469,-14.256203,-25.799103,-38.435738,-3.337967,-32.168267,-45.117165,-45.416954,3.885932,-26.707901,-35.978737,-35.574898,6.571952,-17.33574,-26.102211,-26.985558,-17.66636,-39.602169,-53.873579,-62.39085,-72.512891,-102.919696,-114.023099,-115.807951,-67.94152,-71.471372,-56.39076,-44.207064,-56.690774,-54.614015,-40.255075,-29.868081,-42.329901,-41.433446,-31.102373,-23.397657,24.713562,38.177914,43.557553,37.619969,10.300633,1.831021,14.047245,29.758473,-8.128955,19.062264,30.049107,30.867062,-18.755424,10.150566,19.189694,20.527119,-25.949867,-2.040298,10.856129,15.911454,-19.434349,-41.405855,-56.720476,-64.140307,-79.440472,-111.116457,-119.000447,-115.113253,-74.613547,-68.744041,-52.238687,-41.854978,-62.427925,-54.697971,-40.812354,-31.859983,-46.778765,-44.009111,-34.009212,-26.33437,124.906741,86.495963,-117.186842,90.321796
53,1.259834,0.790578,0.275425,0.383971,-29.16108,-43.523415,-51.441445,-53.484055,-18.962334,-15.447579,-27.315445,-40.260155,-4.0467,-33.726128,-46.334999,-46.182083,3.111648,-28.300347,-37.11969,-36.300064,5.566612,-19.1204,-27.655564,-28.25885,-18.45868,-40.543721,-55.048429,-63.386026,-73.668507,-104.072038,-114.965848,-116.571705,-69.156243,-71.880153,-56.431256,-44.329713,-57.756024,-55.247229,-40.702129,-30.515651,-43.20985,-42.004297,-31.643214,-24.144732,24.925621,38.263356,43.733631,38.061505,10.451203,1.806713,14.432728,30.559742,-8.094635,19.322651,30.363865,30.883232,-18.652622,10.357121,19.398949,20.446553,-25.622474,-1.642524,11.165486,15.912781,-19.626233,-41.510103,-56.730499,-64.40405,-79.890448,-111.83958,-119.458506,-114.940531,-75.040984,-69.201884,-52.484189,-42.152437,-62.768164,-55.202893,-41.248071,-32.402492,-47.021253,-44.325527,-34.298581,-26.655961,126.09367,87.010721,-116.984322,90.429947
54,1.093437,0.550894,0.245007,0.202825,-29.68998,-44.223747,-52.379837,-54.241241,-19.564178,-16.337585,-28.324768,-41.270668,-4.614716,-34.959366,-47.19033,-46.413918,2.480576,-29.547615,-37.941513,-36.604752,4.759895,-20.599846,-28.825356,-28.946228,-18.954437,-41.11193,-55.672164,-63.793171,-74.585723,-105.047355,-115.804166,-117.396826,-70.074781,-72.217983,-56.399763,-44.425846,-58.577657,-55.733038,-41.036236,-31.132643,-43.91015,-42.393189,-31.986194,-24.744748,25.061153,38.366604,44.003311,38.496025,10.471035,1.756325,14.80616,31.343559,-8.056847,20.016048,31.081444,31.263279,-18.458061,11.00695,19.917217,20.570972,-25.272686,-1.056084,11.574875,15.892845,-19.845489,-41.650455,-56.796189,-64.626425,-80.256553,-112.390968,-119.865256,-115.045618,-75.303917,-69.267543,-52.394669,-42.223808,-62.944832,-55.371045,-41.334213,-32.679343,-47.150262,-44.423086,-34.331772,-26.805823,127.16478,87.32679,-116.761642,90.397947
55,1.019165,0.624587,0.4762,0.367878,-30.085167,-44.870499,-53.420311,-55.313461,-20.11322,-17.173325,-29.263618,-42.102379,-5.172935,-36.035545,-47.938271,-46.417488,1.823708,-30.688019,-38.663521,-36.571106,3.93409,-22.01001,-29.931999,-29.350227,-19.289896,-41.44427,-56.005796,-64.222058,-75.38557,-105.964837,-116.649745,-118.246691,-70.885095,-72.74264,-56.478359,-44.716233,-59.288577,-56.383776,-41.464592,-31.946186,-44.534415,-42.902204,-32.425246,-25.477701,25.108887,38.379032,44.115109,38.665272,10.297794,1.798874,15.198269,31.983913,-8.180122,20.430668,31.587776,31.413895,-18.37151,11.443176,20.32616,20.545738,-24.924499,-0.49966,12.012028,15.924099,-20.182863,-41.912085,-56.985213,-64.809583,-80.72992,-112.857196,-120.269283,-115.369937,-75.587704,-69.499539,-52.59093,-42.679168,-63.04914,-55.567244,-41.596874,-33.212144,-47.102627,-44.495519,-34.565849,-27.265684,128.203777,87.782147,-116.26561,90.596595
56,0.903877,0.667812,0.452351,0.431741,-30.375732,-45.406562,-54.293129,-56.152084,-20.286186,-17.594696,-29.948639,-42.897857,-5.39772,-36.663002,-48.477859,-46.614029,1.520829,-31.302337,-39.162895,-36.860435,3.524323,-22.694687,-30.609352,-29.961937,-19.892691,-42.116207,-56.714715,-64.75762,-76.116311,-106.858322,-117.532652,-119.166272,-71.430128,-73.27239,-56.700024,-44.926104,-59.764401,-57.204266,-42.101041,-32.55922,-44.907956,-43.648087,-33.137432,-26.191752,25.29412,38.623718,44.430061,38.624107,10.453708,1.920398,15.541603,32.537315,-8.026509,21.545322,32.46389,31.644527,-18.059086,12.417389,20.942939,20.505569,-24.409996,0.518863,12.780441,16.172355,-20.415415,-42.094139,-57.178486,-64.833388,-81.015905,-113.220542,-120.553051,-115.4271,-75.79613,-69.103763,-51.98842,-42.314798,-63.116017,-55.287336,-41.407591,-33.402818,-47.084387,-44.145142,-34.298149,-27.279881,129.16274,88.346561,-115.758173,90.924938
57,0.725212,0.659729,0.462364,0.624309,-30.528122,-45.883026,-54.947296,-56.493347,-20.522552,-17.720718,-30.364448,-43.606819,-5.632644,-36.472732,-48.624847,-47.012443,1.343468,-31.096,-39.198944,-37.153358,3.355614,-22.612472,-30.792137,-30.568542,-20.289351,-42.512342,-57.148808,-64.962149,-76.669873,-107.748368,-118.269551,-119.552891,-71.819644,-74.084927,-57.678145,-45.765076,-60.102787,-58.183634,-43.199081,-33.496795,-45.174508,-44.430427,-34.134602,-27.205341,25.382526,38.926277,44.773258,38.472553,10.790348,2.327282,16.106438,33.224968,-7.675289,22.426849,33.143143,31.872036,-17.593517,13.217525,21.459858,20.556885,-23.803425,1.357361,13.399967,16.446144,-20.484644,-42.17237,-57.292897,-64.635108,-81.134534,-113.589087,-120.782133,-115.316573,-75.892708,-68.745184,-51.535962,-42.083795,-63.102499,-54.99044,-41.276909,-33.553797,-47.000487,-43.809769,-34.051481,-27.214414,129.965086,88.941718,-115.218675,91.484675
58,0.663117,0.70545,0.422195,0.650355,-30.734917,-46.347153,-55.548294,-56.809387,-20.789932,-17.869217,-30.646362,-43.955315,-5.868279,-36.362595,-48.736565,-47.19088,1.209045,-30.909096,-39.248291,-37.335846,3.328171,-22.352898,-30.743591,-30.790627,-20.540231,-42.752978,-57.387227,-65.052151,-77.20964,-108.477517,-118.870556,-119.88472,-72.196501,-74.693984,-58.361698,-46.482975,-60.385395,-58.865118,-43.983022,-34.31208,-45.319616,-44.792193,-34.665015,-27.88716,25.581528,39.342385,45.169544,38.307209,11.083901,2.619999,16.511753,33.763516,-7.287105,23.178807,33.895352,32.52705,-17.053127,14.072331,22.131661,20.989689,-23.129677,2.27718,14.152806,16.996926,-20.67016,-42.392535,-57.658095,-64.682211,-81.260128,-113.889922,-120.961493,-115.1913,-76.023464,-68.514182,-51.402933,-42.02709,-63.186585,-54.826351,-41.231281,-33.549808,-47.045793,-43.585429,-33.808505,-26.964664,130.719944,89.625086,-114.704739,92.112948
59,0.5961,0.645162,0.244286,0.828073,-30.820839,-46.549942,-55.839638,-56.987458,-20.960587,-18.066101,-30.948784,-44.316674,-5.993958,-36.289192,-48.884606,-47.520081,1.154754,-30.740181,-39.341927,-37.700455,3.33094,-22.069382,-30.788636,-31.340699,-20.812872,-43.000579,-57.675632,-65.312423,-77.648204,-109.084283,-119.396812,-120.2236,-72.509884,-75.307752,-59.032128,-47.047652,-60.641122,-59.57371,-44.728343,-34.940816,-45.473275,-45.343655,-35.421648,-28.690446,25.873993,39.808571,45.668266,38.707752,11.4837,3.148498,17.019367,34.248939,-6.821068,23.740642,34.606808,33.440632,-16.501808,14.702682,22.781158,21.734253,-22.486485,2.9832,14.939426,17.952564,-20.892054,-42.63485,-58.026807,-65.04345,-81.498682,-114.184891,-121.132424,-115.14219,-76.350723,-68.655257,-51.613434,-42.069179,-63.494423,-55.007094,-41.45546,-33.538637,-47.25575,-43.699884,-33.956058,-26.972129,131.401755,90.272526,-114.374742,92.943299
60,0.370559,0.474403,0.146129,0.627656,-30.87799,-46.647285,-55.984085,-57.078529,-21.013366,-18.111351,-31.006393,-44.397628,-5.971412,-36.154129,-48.791748,-47.553588,1.278511,-30.426521,-39.193245,-37.862159,3.568085,-21.51638,-30.505073,-31.5737,-21.055649,-43.243338,-57.929901,-65.534619,-77.976716,-109.463862,-119.748912,-120.557299,-72.758139,-75.593168,-59.369007,-47.280765,-60.874371,-60.017522,-45.195089,-35.243325,-45.611145,-45.793525,-36.015761,-29.226957,26.167077,40.22485,46.127518,39.208477,12.049393,3.609456,17.382992,34.617302,-6.23711,24.066639,35.069848,34.358712,-15.962951,15.090397,23.282605,22.679718,-22.044216,3.268399,15.44093,18.965447,-21.032166,-42.822886,-58.383959,-65.47177,-81.573468,-114.393244,-121.226976,-115.056184,-76.574241,-68.796461,-51.85426,-41.982599,-63.785199,-55.161433,-41.56671,-33.209026,-47.512805,-43.910082,-34.079775,-26.78618,131.829797,90.755932,-114.17113,93.579958
61,0.320115,0.326425,-0.107986,0.293154,-30.90429,-46.604371,-55.865799,-57.032776,-21.036576,-18.230187,-31.019806,-44.349907,-5.900963,-36.082467,-48.866204,-47.975396,1.428772,-30.110848,-39.1531,-38.3779,3.752769,-21.023941,-30.449799,-32.307335,-21.072445,-43.186237,-57.891906,-65.742637,-78.237531,-109.628069,-119.891259,-120.675032,-73.059648,-75.841139,-59.73439,-47.466109,-61.212337,-60.448664,-45.692927,-35.480835,-45.954539,-46.273702,-36.673347,-29.786533,26.361454,40.559738,46.468655,39.355637,12.549019,4.139637,17.885399,35.093067,-5.670959,24.427494,35.477348,34.974232,-15.41296,15.607819,23.775021,23.284595,-21.558987,3.816765,15.987934,19.608639,-21.084012,-42.930128,-58.655222,-65.628227,-81.499491,-114.431881,-121.130022,-114.690103,-76.61767,-68.720638,-51.78544,-41.69189,-63.93035,-55.16512,-41.468576,-32.809631,-47.708826,-43.983788,-34.033752,-26.53577,132.166146,91.105255,-114.262882,93.89601
62,0.108673,0.036773,-0.180084,0.246174,-30.916443,-46.427536,-55.540169,-56.766999,-20.87732,-18.146736,-30.828987,-44.114411,-5.658326,-35.942322,-48.738648,-48.016159,1.711212,-29.893319,-39.044518,-38.560868,4.037063,-20.718087,-30.366944,-32.616898,-21.070414,-43.155838,-57.893265,-65.909803,-78.351856,-109.642852,-119.954757,-120.885694,-73.239484,-75.839831,-59.728296,-47.361875,-61.385146,-60.418147,-45.665504,-35.329455,-46.098461,-46.27482,-36.75781,-29.821207,26.530151,40.727714,46.637546,39.664913,12.754314,4.329574,18.041404,35.331928,-5.43433,24.938644,36.065746,35.70417,-15.185852,16.033161,24.15802,23.712158,-21.410534,4.101791,16.269104,19.921119,-21.192884,-43.079422,-58.881908,-66.083247,-81.48911,-114.321181,-121.074027,-114.732358,-76.62884,-68.501832,-51.541673,-41.371374,-63.992421,-55.120629,-41.39521,-32.63484,-47.769779,-44.007987,-34.073896,-26.557685,132.273566,91.173878,-114.444219,94.174034
63,0.215995,-0.055539,-0.299332,0.098949,-30.87355,-46.14141,-55.112777,-56.636421,-20.773635,-18.103523,-30.724777,-44.015625,-5.492591,-35.802223,-48.558952,-47.956237,1.911164,-29.732872,-38.886703,-38.625663,4.243882,-20.496528,-30.30043,-32.875122,-20.935384,-42.987586,-57.748231,-66.087328,-78.26036,-109.573055,-119.974505,-121.004464,-73.297918,-75.871669,-59.794412,-47.345387,-61.565241,-60.439685,-45.690735,-35.261424,-46.400006,-46.562817,-37.027072,-29.996232,26.586594,40.844044,47.003529,40.295803,13.086846,4.745052,18.351299,35.496918,-5.062248,25.535763,36.508438,35.995331,-14.872513,16.574959,24.601582,24.022854,-21.194733,4.493248,16.653454,20.265885,-21.294803,-43.155603,-58.956941,-66.317102,-81.384079,-114.147588,-120.948365,-114.670312,-76.57852,-68.175493,-51.04252,-40.83275,-63.982776,-54.895345,-41.093183,-32.361403,-47.751619,-43.864554,-33.881229,-26.417654,132.466987,91.137865,-114.766125,94.292509
64,0.224465,-0.168288,-0.381409,0.039378,-30.935188,-46.051346,-54.807106,-56.216538,-20.649056,-18.027855,-30.563988,-43.843277,-5.331574,-35.782517,-48.338127,-47.66462,2.11029,-29.685288,-38.654617,-38.360619,4.455414,-20.388542,-30.152825,-32.760887,-20.90964,-43.04565,-57.950168,-66.412167,-78.244138,-109.466975,-119.987522,-121.254128,-73.360971,-75.781958,-59.633429,-47.096811,-61.733708,-60.374483,-45.569908,-35.073833,-46.676556,-46.734712,-37.125768,-29.978633,26.6055,40.938412,47.155598,40.349167,13.296273,5.019299,18.614502,35.773705,-4.802524,26.056939,36.834011,36.129776,-14.663704,16.979588,24.850972,24.127121,-21.128219,4.714486,16.81326,20.315152,-21.336002,-43.288786,-59.151454,-66.393061,-81.275868,-114.00111,-120.8121,-114.542402,-76.491686,-67.934944,-50.722974,-40.580704,-63.951018,-54.823053,-41.011042,-32.326625,-47.74645,-43.90994,-33.946276,-26.537906,132.668163,90.989572,-115.170823,94.351882
65,0.420502,-0.131158,-0.274326,0.064863,-31.028939,-45.965149,-54.523407,-55.962456,-20.617264,-18.149071,-30.669548,-43.963646,-5.333588,-36.040032,-48.485596,-47.828522,2.076965,-29.994095,-38.762307,-38.439766,4.367866,-20.758942,-30.425423,-33.026345,-20.937465,-43.229407,-58.373992,-66.924053,-78.241792,-109.457588,-120.157657,-121.667386,-73.508005,-75.869057,-59.688843,-46.958064,-62.025281,-60.40881,-45.501248,-34.81705,-47.08535,-47.077656,-37.324357,-29.955816,26.584522,40.881706,47.150757,40.421414,13.160706,4.963051,18.55703,35.718407,-4.881409,26.505581,37.0196,35.91592,-14.664333,17.399757,24.983997,23.815762,-21.085819,5.099854,16.936752,19.994911,-21.315712,-43.361992,-59.228235,-66.475295,-81.208782,-113.817464,-120.737129,-114.575642,-76.425472,-67.480968,-50.142434,-40.284617,-63.8856,-54.58127,-40.788068,-32.452757,-47.692919,-43.660012,-33.716065,-26.565219,133.071059,90.877436,-115.462755,94.435767
66,0.243438,0.0582,-0.425354,0.383686,-31.159378,-46.036468,-54.481453,-55.732818,-20.560981,-18.150055,-30.715828,-43.984314,-5.361282,-36.13726,-48.59745,-47.878898,2.044853,-30.129066,-38.840355,-38.366134,4.379631,-20.875053,-30.43293,-32.843422,-21.097905,-43.589313,-58.957935,-67.40302,-78.336783,-109.56793,-120.339691,-121.938983,-73.618094,-76.079465,-59.909818,-47.017881,-62.171871,-60.454543,-45.484149,-34.658549,-47.224362,-47.260128,-37.366422,-29.807171,26.53862,40.790554,47.255276,40.990288,13.153416,4.856999,18.488972,35.718807,-4.92144,26.872398,37.37764,36.159176,-14.667149,17.638641,25.150314,23.896603,-21.044495,5.292343,17.107945,20.137905,-21.250991,-43.287792,-59.03077,-66.537113,-81.264043,-113.832315,-120.862025,-114.809904,-76.447634,-67.389083,-50.039854,-40.345855,-63.885099,-54.597312,-40.882447,-32.744113,-47.666181,-43.694604,-33.839763,-26.804329,133.31805,90.937985,-115.884556,94.821802
67,0.332657,0.657277,-0.165298,0.704671,-31.488075,-46.29174,-54.747528,-56.538322,-20.841476,-18.349846,-31.028938,-44.183098,-5.788856,-36.42849,-49.198288,-48.592781,1.652458,-30.405968,-39.425217,-39.010025,4.138619,-21.029663,-30.734848,-33.193611,-21.2028,-43.973561,-59.48687,-68.248339,-78.204,-109.637362,-120.353757,-121.673122,-73.537454,-76.274189,-60.337025,-47.187546,-62.188296,-60.521029,-45.64596,-34.601886,-47.280876,-47.369389,-37.352855,-29.586314,26.527954,40.645031,47.122272,41.236061,12.558151,4.419857,18.053352,35.305847,-5.378483,26.026691,37.009735,36.407867,-14.91877,17.151706,25.04544,24.268901,-21.059258,4.910442,16.885482,20.249473,-21.507101,-43.563409,-59.285867,-66.897142,-81.525803,-113.946035,-121.164448,-115.472276,-76.513732,-67.953118,-51.014844,-41.40254,-63.801477,-54.822319,-41.246484,-32.966211,-47.440038,-43.86251,-34.232743,-27.081582,133.596113,91.577336,-116.104448,95.508547
68,0.073952,1.710654,-1.205658,1.579724,-31.937554,-46.773811,-55.38208,-58.407166,-21.222336,-19.41536,-32.220406,-44.976059,-6.487908,-37.400482,-50.98851,-50.840881,0.855972,-31.40078,-41.401932,-41.482613,3.516632,-22.07135,-32.476547,-35.398293,-21.457972,-44.7813,-60.498163,-69.309527,-78.384633,-109.272943,-119.508351,-120.212646,-73.603317,-75.900606,-60.115533,-46.670752,-61.967267,-59.987765,-44.981223,-33.466995,-46.638555,-46.408485,-36.222922,-28.161689,26.703827,40.921611,47.634212,42.96928,12.667499,4.81541,18.323753,35.691066,-4.923764,26.381492,38.512161,39.373455,-14.265953,17.772445,26.806274,27.483398,-20.396542,5.121517,17.847175,22.386966,-22.119634,-44.282351,-60.248951,-68.347549,-81.751464,-114.270589,-122.07397,-117.441182,-76.598614,-69.206917,-52.400641,-42.170024,-63.903328,-55.659963,-42.111293,-33.086476,-47.511323,-44.780479,-35.636052,-28.219636,133.499514,93.236787,-117.480657,97.037068
69,-0.229317,3.252258,-1.641781,2.480464,-32.518638,-47.489845,-56.515571,-61.491943,-23.002968,-23.142357,-36.523453,-48.590423,-8.705543,-39.900421,-54.23259,-54.666092,-1.314239,-33.529289,-44.645737,-45.592369,2.032906,-24.280357,-35.813736,-39.573326,-21.648639,-45.362236,-61.254359,-70.358098,-78.171082,-108.19504,-116.998456,-115.853474,-73.241997,-74.22226,-58.585852,-45.006022,-61.090109,-58.211422,-43.348419,-31.499145,-45.09485,-43.997576,-33.841856,-25.45812,27.284569,41.487568,48.847492,46.210853,13.747764,6.759178,19.413368,35.932159,-3.338574,27.329109,41.094406,44.03706,-12.393757,19.29443,29.909683,32.329033,-18.396183,6.519825,20.118107,26.076473,-23.672378,-45.645262,-61.722575,-70.378575,-82.000762,-114.264932,-123.123535,-120.547956,-76.552819,-70.303282,-53.800713,-42.912102,-63.591402,-55.53564,-42.117998,-32.622557,-46.845591,-44.243145,-35.693961,-28.364422,132.838211,96.509892,-119.554424,99.538379
70,0.230026,5.132676,-2.141487,3.48507,-32.667984,-48.193176,-57.950981,-65.018348,-26.218368,-30.172187,-44.823303,-56.022171,-12.653068,-44.306533,-59.773475,-60.949585,-5.468147,-37.775596,-50.416374,-52.234085,-1.736366,-28.630897,-40.959182,-45.190589,-21.85441,-45.299775,-60.498367,-69.360107,-77.126339,-105.602844,-110.831356,-106.798338,-71.736652,-71.99412,-56.10674,-42.381994,-58.867409,-55.635578,-40.817146,-28.870498,-42.135307,-40.659047,-30.810955,-22.458224,28.551326,42.847023,50.963676,50.838226,15.862667,10.126774,22.098243,37.773868,-0.846073,30.038269,45.837318,50.998008,-9.643307,22.493122,35.000335,39.309391,-15.352902,9.572262,24.477058,32.280121,-25.571,-47.427929,-63.489205,-72.682544,-81.768525,-113.676889,-123.376125,-122.727567,-75.963227,-70.895944,-54.697403,-43.019431,-62.478585,-54.720084,-41.526985,-31.624868,-45.16117,-42.997751,-35.313875,-28.26945,132.329778,101.766942,-122.43437,103.147823
71,0.691063,6.898046,-2.527382,4.527979,-32.221252,-49.253425,-60.741439,-70.659782,-30.745742,-40.362098,-56.499435,-67.558891,-18.279808,-51.430572,-68.242653,-71.347526,-11.392501,-44.530059,-58.864494,-62.453453,-7.313324,-35.533676,-48.721916,-54.003547,-22.141191,-44.890821,-59.057026,-67.829691,-74.901311,-99.957523,-102.047083,-95.729089,-69.019479,-67.285756,-51.227358,-37.58555,-55.593909,-50.678576,-35.560593,-23.316468,-38.51162,-35.434011,-25.759734,-17.380685,30.286308,44.742084,53.844051,56.600075,18.785305,14.983623,27.047619,42.04319,2.80125,34.50016,52.263336,59.275692,-5.423779,27.64048,42.152778,48.156612,-10.429882,14.879722,30.736542,39.768207,-26.946398,-48.960531,-64.856162,-74.64141,-80.698248,-112.160077,-121.977862,-122.131898,-74.509585,-70.926178,-55.212612,-43.200403,-60.429905,-53.330058,-40.530945,-30.613817,-42.581356,-40.823124,-34.02985,-27.637737,132.029194,108.790691,-125.953399,107.801505
72,1.022942,8.050327,-3.472355,5.45161,-30.824387,-50.158974,-64.287827,-76.80716,-37.070526,-54.046784,-71.871918,-83.258308,-26.137436,-61.806427,-80.08049,-85.995552,-19.617806,-54.587654,-70.729591,-76.792122,-15.246597,-45.1222,-59.430359,-66.583534,-22.263914,-43.667385,-55.243265,-61.460519,-70.564858,-90.135354,-88.518209,-79.930178,-63.771442,-59.848623,-43.678012,-30.303774,-49.879161,-43.059563,-27.75602,-15.560425,-32.616809,-27.427051,-18.015584,-9.988623,31.883251,47.216194,58.100361,64.307121,23.184643,23.385097,36.76617,51.036037,8.395054,40.938332,60.157345,68.581261,0.990703,35.604607,52.248138,59.839611,-3.08218,23.633514,40.35807,50.37973,-27.820852,-49.456257,-64.428169,-74.073207,-78.504416,-108.88741,-116.66375,-115.679609,-71.692994,-69.802931,-55.050301,-43.334278,-56.940882,-50.218535,-38.09194,-28.65731,-38.617954,-36.688186,-30.686367,-25.304189,131.980385,116.84873,-130.497505,113.260827
73,0.680946,9.505759,-2.16671,6.423673,-28.729728,-51.597839,-69.356277,-84.040832,-44.8022,-68.723556,-88.182129,-100.150154,-35.44059,-73.1548,-93.068641,-102.080085,-28.933937,-65.837288,-83.695472,-92.315025,-24.132522,-55.261322,-70.447769,-79.591942,-23.040468,-42.154672,-50.464159,-53.37663,-63.73494,-76.450357,-70.7822,-60.051405,-55.468826,-49.600932,-33.810604,-20.577744,-41.168987,-33.207716,-18.593808,-6.644307,-24.196936,-18.009044,-8.931876,-1.093544,32.295547,48.956417,61.779087,70.232643,26.918461,33.512203,48.34631,61.377056,13.490662,48.06221,68.113358,77.019939,7.133331,43.112057,61.039055,69.190544,4.390537,32.308582,48.975826,58.953644,-28.92598,-50.352076,-64.130915,-72.684384,-75.634134,-102.036517,-106.175418,-103.231097,-67.24605,-65.472745,-51.780981,-40.84129,-51.338829,-44.727139,-33.391782,-24.933748,-32.31081,-29.818724,-24.45701,-20.246151,131.578674,126.22238,-133.746872,119.552391
74,-4.030014,10.136936,-1.992451,6.813985,-27.07251,-53.074287,-73.688644,-89.897987,-51.434326,-82.402748,-101.85807,-112.967846,-43.434929,-83.815498,-104.097908,-114.063469,-36.796737,-75.581749,-94.385879,-104.072685,-31.356949,-62.924721,-78.10453,-87.796737,-22.717279,-37.964327,-42.027948,-41.569254,-53.066958,-56.967652,-47.851691,-37.196392,-43.027823,-34.507539,-19.578302,-7.889462,-28.554231,-19.040067,-5.284212,5.527767,-12.312119,-4.674105,3.531574,10.073635,31.425488,50.440384,66.002701,76.475132,31.356995,45.04057,61.619831,74.351303,19.189156,56.02533,77.277237,87.394615,13.466343,50.838925,70.375443,79.80336,11.662445,40.471779,57.290245,67.854973,-28.623607,-49.277619,-61.301912,-68.490587,-70.601278,-91.319047,-90.960561,-85.071696,-60.591628,-58.426912,-45.616153,-35.154559,-43.814924,-37.624625,-26.976569,-19.321889,-24.553433,-21.626643,-16.653098,-13.227383,126.628538,135.958507,-136.659445,125.965567
75,-3.841095,11.307562,-0.685444,7.444136,-26.410858,-55.176201,-78.252067,-95.121528,-57.456482,-92.626831,-111.735008,-123.552429,-50.494789,-92.373092,-113.314224,-125.674919,-43.551773,-83.315231,-103.179702,-115.178764,-37.276176,-68.625892,-84.430275,-96.073127,-22.980799,-34.603683,-34.620869,-30.663241,-41.957639,-38.510373,-28.455806,-18.581458,-29.912153,-18.641202,-4.901556,5.805422,-15.168001,-4.016716,8.561361,18.417647,0.295544,9.402655,17.325826,23.242164,30.103226,52.306538,70.870743,83.588379,35.680607,56.563649,75.062783,87.868561,24.930245,62.596539,84.897938,96.51146,19.421791,56.893067,78.135006,89.619278,17.785321,46.76619,63.722935,75.015313,-27.512421,-46.978973,-56.990931,-63.152245,-63.487581,-76.944428,-72.005569,-63.324004,-51.546539,-48.040011,-36.051614,-26.450005,-34.28373,-28.115463,-18.359836,-11.636705,-15.010334,-11.566346,-7.06752,-4.290876,121.939218,146.556801,-138.193114,132.700435
76,-4.645019,12.46358,1.071293,8.756585,-27.038979,-57.475914,-81.403382,-97.589653,-62.989197,-99.303223,-118.002594,-130.184326,-56.557022,-97.998276,-119.264672,-133.114357,-49.354615,-88.96669,-109.455117,-122.958092,-42.346436,-72.745903,-88.947052,-102.152001,-22.743146,-30.617664,-26.423168,-18.477125,-31.065904,-21.836595,-10.161037,-0.078973,-17.021958,-4.140643,9.299087,19.91373,-1.85439,9.847554,21.438323,30.449103,13.086159,22.664513,30.542248,36.278848,29.047291,54.664181,75.8913,90.285096,39.552807,66.045491,85.475521,98.864342,29.583,66.596947,89.883282,103.841561,23.473709,60.026493,82.419709,96.156601,20.814595,49.081101,66.265663,78.627251,-25.984079,-43.125166,-51.314401,-56.530804,-54.864988,-60.759269,-52.27554,-42.393103,-41.39274,-36.090986,-24.625379,-15.289316,-24.112103,-17.113225,-7.910734,-1.636448,-5.186701,-0.748094,3.581098,6.197605,116.650938,158.07211,-137.765082,140.508749
77,-9.305123,15.674836,2.246647,9.783636,-29.001205,-60.791313,-84.487289,-99.014007,-66.822944,-103.805511,-120.712337,-130.577385,-60.541488,-101.350456,-121.743816,-133.778377,-52.80677,-91.48748,-111.557533,-124.233009,-44.571075,-73.612198,-89.482315,-102.124305,-21.849099,-26.287064,-19.688446,-9.998454,-20.686475,-7.714127,3.177515,11.355357,-4.600023,10.800319,22.216563,30.662735,11.012654,23.901855,33.605623,40.708316,24.99916,34.988647,42.219633,47.425996,29.106938,57.891255,81.286102,96.570213,43.959091,73.189419,92.117603,106.095886,33.769535,69.742436,93.562512,109.631367,26.171093,60.598618,83.274719,98.904534,21.460201,47.762112,64.844158,78.188805,-24.026727,-38.418951,-44.99721,-49.50533,-44.935027,-43.807471,-33.502278,-23.570811,-30.411355,-21.808356,-9.588029,0.442281,-13.644198,-5.290849,4.351824,11.200037,4.295791,10.232958,15.102027,18.403834,106.839935,172.815571,-136.024315,149.36101
78,-8.279525,15.240853,2.969914,11.486911,-32.26133,-63.611206,-85.987931,-98.024208,-69.054566,-105.587174,-121.574593,-130.914975,-62.786866,-102.280152,-122.681958,-134.844281,-54.82029,-91.684136,-111.654602,-124.387391,-45.722695,-73.14077,-88.843392,-101.419098,-19.264535,-20.792919,-12.749904,-2.768863,-10.283666,2.947101,11.343428,16.560275,6.632995,21.973687,30.994224,36.405833,22.092532,35.652725,44.426878,49.748207,34.888106,46.240833,53.497779,58.117166,30.548721,61.433075,85.863441,102.608013,50.330074,79.31353,97.660469,112.546623,39.643764,72.741703,96.380985,114.441799,30.265697,62.215999,84.513336,101.676418,22.904079,47.290043,63.894619,77.927101,-20.633413,-31.388772,-36.161017,-40.496593,-33.746712,-26.782667,-15.270642,-4.861808,-19.561345,-7.693663,5.101436,15.55767,-4.025083,6.522918,16.584012,23.841303,12.344006,20.485983,26.141926,30.390922,98.13608,187.172208,-133.478731,159.963705
79,-3.992134,15.62924,6.735649,15.937176,-35.30127,-66.601845,-87.952126,-97.491692,-71.523858,-104.878922,-121.558468,-133.253987,-65.087243,-101.497948,-123.009556,-137.929265,-57.114464,-91.610985,-112.479744,-127.217331,-47.902474,-73.489724,-89.375565,-102.956475,-16.774055,-15.987133,-7.161579,2.953201,-0.367625,11.014606,17.722553,22.360305,15.810439,28.298361,35.338427,39.407149,30.030003,42.25099,49.984377,54.116702,40.848206,52.666259,60.881719,66.23364,31.931259,63.51749,87.75357,104.322807,56.588127,87.498882,103.628895,115.575805,45.980655,79.7971,99.178562,112.597206,35.500477,68.093033,86.751846,100.180744,25.958679,51.339592,66.443619,77.753494,-18.648476,-26.681069,-29.752472,-33.311587,-21.188153,-8.197034,3.088323,11.773161,-6.250179,11.070293,23.506665,31.989727,8.716639,23.6922,33.608662,39.850567,23.813626,35.04678,41.227774,45.266164,93.761296,202.059936,-127.125732,175.159369
80,-5.137505,15.910635,4.346649,16.56992,-38.142746,-69.521004,-90.052185,-99.004864,-72.388046,-103.662529,-121.378452,-134.848,-65.702385,-100.398285,-122.705681,-139.059265,-57.752747,-91.489655,-113.377716,-129.211006,-48.786392,-74.126198,-90.525467,-104.779713,-13.029485,-9.909903,-1.23628,7.481668,10.675523,19.634445,23.816443,26.268243,24.985551,33.379457,36.845286,37.361729,36.372413,45.659379,50.970767,52.312813,43.549849,55.344239,63.076824,67.797704,34.539677,66.365982,90.578968,107.122307,61.863293,92.563225,107.964077,119.458363,50.594593,84.120552,102.336834,114.902264,39.183872,71.567333,89.223701,101.602844,28.234016,53.460262,67.848289,78.152481,-16.386855,-21.569505,-22.991419,-25.506687,-10.523171,6.025568,17.129849,25.344741,4.461406,24.679022,36.90921,44.86701,18.688059,36.570558,46.686004,52.680833,31.993,46.054063,52.871481,57.051922,88.433773,217.379459,-122.969101,191.138177
81,-5.567688,14.883603,3.641842,17.334551,-40.22525,-71.153915,-91.049927,-100.064014,-71.41182,-101.894188,-119.743446,-133.416046,-64.321976,-97.808922,-120.109726,-136.502369,-56.280235,-88.895393,-110.67746,-126.255318,-47.682518,-72.018562,-88.233994,-101.806103,-9.291325,-4.320256,3.756994,10.605214,20.225879,27.235291,28.542733,28.169513,32.287772,38.890682,38.774616,35.367277,40.687532,48.97403,51.792109,50.338763,44.280579,55.882468,62.351244,65.536528,36.04747,67.704712,91.834556,109.025528,66.955021,97.576069,112.646026,123.295624,55.801609,89.090481,106.362831,117.962013,44.306534,76.042064,93.181995,105.013321,32.790401,57.913776,71.744041,81.594509,-14.852406,-18.064255,-18.057203,-19.643547,-1.394114,17.764198,29.239413,37.92325,13.753571,36.078,48.29701,56.209474,27.385345,47.319563,57.952428,64.366864,39.12101,55.202522,62.895635,67.717231,82.670202,231.891448,-119.523142,208.101114
82,-5.735527,14.931855,4.211723,17.811993,-38.274422,-68.489113,-89.492798,-100.127964,-70.62703,-100.840794,-118.417191,-131.688847,-64.743736,-97.914745,-117.238323,-130.645329,-57.843086,-89.493301,-107.726555,-119.751755,-50.340294,-74.602615,-87.842697,-97.884464,-0.478528,8.107533,17.080572,23.721223,32.848231,37.658662,36.257792,34.063985,38.97933,40.172274,36.055102,30.227148,40.521287,43.060292,41.733744,38.093953,37.458751,44.461235,48.279585,50.068086,36.658802,67.785587,91.717049,109.700066,70.120377,101.266354,116.713497,127.254135,59.661564,93.353371,110.213413,121.066086,48.830967,80.503075,97.396019,108.670761,37.697365,62.837231,76.171005,85.349911,-14.101843,-16.297502,-15.256143,-16.431933,5.997805,26.968233,38.375139,46.979985,21.719991,45.141848,56.799289,64.191035,35.254681,56.511668,66.852132,72.736304,45.949667,63.372447,71.342523,76.029071,76.69297,246.565267,-115.553124,225.655071
83,-6.392166,12.639223,4.578804,16.419385,-35.829163,-65.493645,-87.032879,-100.212616,-74.025215,-97.830837,-108.474392,-116.33709,-68.34343,-93.940659,-104.123028,-109.842556,-61.256813,-85.859528,-95.395569,-100.284394,-53.330796,-73.708832,-81.666023,-86.090916,9.033505,21.516387,31.473123,38.727018,40.306173,45.783089,45.237746,43.806298,40.70513,43.116694,40.087305,34.389792,37.133622,39.958728,38.417549,34.320817,30.017344,36.929636,40.389413,41.88176,36.772064,67.57251,91.834969,110.167145,70.788094,102.899758,118.767975,129.338379,60.805573,95.563362,112.843071,123.202675,50.784176,83.080101,100.497048,111.661629,40.630623,66.424427,80.147656,89.344814,-13.687893,-15.315633,-13.445312,-14.336235,11.968922,32.950798,43.912991,52.164081,28.872998,52.174022,63.305868,70.356962,42.669424,64.048639,73.775552,79.014382,52.723366,70.205328,77.701445,81.676912,70.111078,259.062217,-111.164046,241.932183
84,-6.391686,13.544138,5.26783,14.895225,-31.339622,-59.124664,-80.379673,-95.379867,-74.045757,-91.435604,-93.595894,-94.682934,-69.824386,-87.812965,-88.725643,-85.858143,-63.481636,-81.585296,-82.439209,-79.694343,-56.144073,-75.909748,-82.941524,-86.183429,14.588967,28.032612,38.620696,46.676481,39.700142,47.454895,47.770872,46.982689,37.760562,42.686553,41.377691,37.28848,32.362032,36.926808,36.256877,33.437107,24.49661,31.135656,34.68733,37.710346,36.151909,66.7164,91.062767,110.272316,70.179348,101.561302,118.167183,129.702507,60.246586,94.673195,113.957703,126.22467,50.307472,81.859955,100.790337,113.312279,40.451305,65.657478,80.038284,90.081688,-14.206634,-14.974772,-12.524491,-13.686362,14.970955,34.865579,44.335696,51.883906,32.001422,52.991918,62.111133,68.142715,45.082777,64.672589,72.303767,76.08472,53.74305,70.440115,76.502042,79.46805,63.577429,272.508937,-106.038179,256.72999
85,-7.451317,12.030894,5.981964,12.426591,-26.666679,-52.370407,-72.835979,-88.561912,-72.568084,-83.593334,-77.339355,-71.25642,-69.446296,-79.23999,-71.070671,-59.866218,-63.378067,-73.047912,-64.638954,-54.238929,-55.704002,-70.644641,-73.126041,-71.824585,20.008418,34.150892,45.425999,55.399073,37.556675,48.431947,50.665151,51.458582,33.278915,42.360474,44.295522,43.263364,26.459039,34.45279,36.149309,36.009963,18.403994,25.73856,29.95778,34.197786,35.411671,65.62381,89.761265,109.239464,69.586167,100.844101,117.209313,128.602432,60.063538,94.510391,113.491585,125.81147,50.320816,81.426533,99.819489,112.166336,40.476311,64.91248,79.074623,88.937245,-13.899438,-14.022309,-10.775583,-11.493691,17.751835,36.43525,45.47078,52.712004,34.823379,54.722029,63.372953,69.056869,47.43017,66.432353,73.566254,76.802211,55.470049,71.777394,77.584354,80.036425,55.999054,284.487859,-100.183273,269.104609
86,-8.206924,10.477514,6.300121,9.97358,-19.872253,-42.166397,-60.658527,-75.433022,-69.110138,-73.571194,-60.33086,-48.575672,-67.452278,-69.47596,-53.274628,-34.894032,-61.79068,-63.448997,-47.382179,-30.720703,-53.700554,-63.168354,-60.529552,-54.690628,25.84866,41.453026,53.292606,64.4874,37.158508,49.785392,53.407832,55.521042,29.893535,40.224798,44.909839,46.721905,20.929104,29.613879,33.702263,36.139366,11.744508,19.009061,24.260699,30.091877,34.783963,64.465497,88.508366,108.108181,67.823651,99.612614,115.801999,126.993428,58.154664,93.188862,111.981205,124.152249,48.229672,79.503777,97.456891,109.296925,38.410103,61.923581,75.834538,85.118763,-13.171103,-12.548968,-8.262933,-8.526632,20.364101,38.602208,46.86145,53.136922,37.624971,57.222971,64.927582,69.470227,49.811588,68.775152,74.850305,76.84656,57.131753,73.44888,78.401288,79.555057,47.690718,294.922031,-93.984564,279.034847
87,-11.523788,4.225407,5.721543,8.053143,-15.001145,-33.513794,-49.082142,-63.021641,-61.06073,-54.711274,-35.358971,-21.385872,-60.23647,-49.915959,-29.112053,-9.315491,-55.657711,-46.650902,-26.261788,-8.775444,-48.851693,-54.142468,-51.875084,-48.034848,24.212003,40.116711,53.265078,65.240718,33.792555,49.117723,55.28449,59.163539,27.000578,42.315705,51.199107,55.53369,19.817227,34.511021,42.443924,47.240572,13.635689,25.698533,34.531695,43.023501,33.896416,63.040306,86.94659,106.528416,65.906353,98.409839,113.960941,124.142017,55.929062,92.005085,110.470218,122.122845,45.741577,77.829265,95.416591,106.721958,35.893169,59.397732,73.34943,82.484012,-12.222691,-10.706941,-5.228777,-4.474842,22.386723,40.605281,48.105152,53.400485,39.496577,58.826234,65.490524,68.750143,51.075631,70.1345,75.191476,75.936458,57.724125,74.068928,77.952362,77.757589,36.094162,299.083804,-88.335789,287.024356
88,-9.793786,6.629426,4.888607,6.350314,-9.869911,-24.300407,-37.293457,-49.265419,-49.962329,-38.801742,-18.883438,-5.467231,-51.937637,-36.934066,-16.084213,3.124123,-49.921863,-37.463436,-17.074905,-0.834388,-45.558391,-52.217388,-52.346603,-51.555599,14.102238,26.279518,39.457364,51.894404,27.952052,44.765343,51.178346,55.351179,26.130144,41.34526,50.035692,54.810308,22.954098,37.773554,44.947149,49.803251,20.627737,32.253463,41.123378,50.307715,32.83081,61.441955,85.051369,104.608131,63.811569,97.074234,112.164848,121.454155,53.491665,90.69136,108.711342,119.742508,42.829662,75.55806,92.698883,103.341385,32.627861,55.758087,69.517502,78.159096,-12.021434,-9.949585,-3.136921,-1.06207,23.737513,42.225265,48.693399,52.663691,40.655903,59.989945,65.608491,67.55668,51.660778,71.134857,75.506477,75.195947,57.621532,74.439961,77.746436,76.404143,26.213064,305.653588,-83.534494,293.315028
89,-12.284019,6.528883,1.107479,2.254717,-6.242775,-14.944702,-21.247581,-28.084991,-37.337208,-22.341385,-2.757889,10.266632,-40.857582,-22.644951,-2.603989,14.822044,-40.671879,-26.027744,-6.941986,7.089592,-37.717941,-42.548321,-40.905396,-39.104633,5.499875,14.172263,26.158858,37.841282,22.661278,38.462763,45.045654,49.641342,24.450804,38.532764,47.220096,51.895824,24.009622,37.307425,43.898813,48.275385,23.902189,34.487235,42.104889,49.17704,33.331146,61.78632,85.44595,105.470203,61.530613,93.730717,109.880436,121.078983,50.681763,86.888248,105.866169,119.060978,39.820576,71.780148,89.868267,102.509548,29.621315,51.417984,65.366993,75.155559,-10.168156,-7.866977,-0.066011,3.128128,23.908858,41.576417,49.18166,54.505829,40.418115,59.41973,66.671661,70.225657,51.325436,70.92172,76.8062,77.793095,57.415855,74.41,78.369498,77.27228,13.843534,312.102288,-82.512526,295.489562
90,-11.023956,3.995869,2.272945,2.3242,-2.047554,-4.895943,-4.819039,-6.354367,-26.417404,-7.271599,12.612213,25.463516,-31.990471,-10.247383,9.934913,26.424339,-33.985016,-17.443119,1.11708,13.822815,-32.969033,-39.083634,-38.654309,-38.558808,-3.366966,2.113223,13.419056,24.40296,16.584988,32.160949,39.257763,44.655021,22.681001,36.489739,45.087076,49.409951,25.9546,38.596824,44.555751,48.291626,29.123989,39.072512,45.797724,51.698458,32.381905,60.200272,83.513169,103.78505,58.83442,91.159333,107.654549,119.017983,47.864182,84.286789,103.460656,116.709847,37.089043,69.294892,87.564492,100.382698,27.17553,49.075138,63.224762,73.371346,-9.920291,-7.639416,0.645365,4.634714,23.39954,41.172889,48.537034,53.576275,40.110325,58.949376,65.949896,69.404918,51.017918,70.558391,76.26119,77.341859,57.001002,74.026443,77.671323,76.288175,2.773774,316.004655,-80.285385,297.72026
91,-9.958329,3.355666,1.761532,1.442217,0.023438,1.441063,6.405304,7.934521,-17.88097,4.839821,25.450425,38.300766,-25.350585,-0.337554,20.142701,35.617562,-29.370906,-11.670284,6.505532,17.963013,-30.166042,-39.141105,-41.515754,-44.310733,-12.557799,-11.13539,-0.471304,10.903801,9.472488,24.989935,33.111386,39.802377,20.836207,34.575068,42.802854,46.546979,28.746941,41.15492,45.944492,48.643652,36.186791,46.07097,52.207516,57.178053,31.598007,58.984818,81.817417,101.852497,56.876976,89.443028,105.91238,117.147686,45.779972,82.450024,101.552777,114.705677,35.042301,67.662152,85.991535,98.842152,25.285927,47.724987,62.183567,72.818791,-10.343292,-8.18146,0.64486,5.653621,22.162038,39.934683,47.145119,52.045829,39.154541,57.657669,64.58998,68.115707,50.259785,69.616303,75.27726,76.383494,56.373681,73.45156,76.96711,75.459078,-7.160489,319.236656,-78.499787,299.038812
92,-3.960319,3.848755,1.440537,0.686727,1.402061,7.425751,17.539284,22.17453,-11.354725,12.678726,32.780365,45.778175,-19.899136,6.152183,26.032036,40.207352,-24.39251,-6.732639,10.622131,21.593582,-25.141754,-33.609364,-35.636227,-37.939385,-19.912841,-22.728993,-14.393453,-3.566741,0.878424,15.653989,24.924492,32.778255,17.619381,30.303348,39.021962,42.994132,30.264717,41.335158,46.005242,48.211362,41.364267,50.67776,55.673739,58.804584,30.780521,57.613872,79.881923,99.638706,55.394497,87.915355,104.438701,115.716671,44.223896,80.988659,100.194317,113.370586,33.428547,66.29623,84.740696,97.639766,23.665363,46.597572,61.326816,72.279865,-10.870407,-8.890133,0.326647,6.021122,20.967599,38.872193,46.108662,51.08698,38.2249,56.547989,63.641839,67.497313,49.551025,68.669792,74.366083,75.670708,55.793547,72.699266,76.212358,74.80561,-11.027006,322.94106,-76.965448,299.581188
93,4.472168,0.351977,0.933906,0.613416,-2.228302,1.232529,9.723736,12.48476,-16.090073,6.988243,27.657692,41.420151,-22.595799,2.049568,22.344704,36.834366,-25.650032,-9.85334,7.398491,18.788498,-25.548145,-35.108425,-38.777664,-42.391731,-15.506158,-16.276593,-6.557066,4.67316,1.825034,15.414126,24.5809,32.905535,17.359227,28.505534,37.389825,41.598622,29.272882,39.252564,43.993377,46.214009,39.78048,48.835548,53.658712,56.949639,30.198109,56.539833,78.465077,98.15466,54.398197,87.033222,103.541416,114.838177,43.282322,80.156445,99.416188,112.644276,32.568455,65.802899,84.27554,97.189877,22.957352,46.552517,61.54794,72.907871,-11.339537,-9.495447,0.011362,6.267864,19.591405,37.457825,44.733765,49.837041,37.09183,55.131484,62.35422,66.489114,48.674293,67.471217,73.159517,74.657236,55.130484,71.894943,75.410863,74.197702,-6.353262,323.141947,-75.829966,300.043514
94,2.480369,-0.546602,0.69912,0.448123,-1.140632,1.51355,7.915822,8.799054,-17.157703,5.456635,25.595032,38.913025,-23.978004,0.276261,20.638161,35.561142,-26.835296,-11.654296,5.550225,17.225579,-26.424144,-36.505027,-41.38282,-45.949539,-14.222614,-14.374829,-4.700948,6.021381,2.613821,15.930359,24.379458,32.339506,17.813104,29.038724,36.592121,39.716259,29.386021,39.66902,43.337328,44.722847,39.457081,48.680295,53.681905,57.520533,29.499344,55.408665,77.030605,96.622318,53.432247,86.174846,102.786335,114.049335,42.408062,79.427662,98.872593,112.160122,31.870766,65.308628,83.91505,96.888874,22.527534,46.58408,61.794124,73.557781,-11.804876,-9.67256,0.384507,7.182388,18.861922,36.564494,43.76311,48.885776,36.50835,54.203289,61.356197,65.57559,48.123751,66.511159,72.079527,73.656533,54.49916,71.083925,74.593411,73.595228,-3.549071,322.448999,-74.807024,300.345291
95,0.03724,0.010806,0.330917,0.532856,-0.31176,2.106925,7.538234,7.745464,-16.694172,5.98423,25.745521,38.550773,-23.57024,0.604431,20.964546,35.939415,-26.278222,-11.189805,5.922569,17.535713,-25.669133,-35.714299,-41.393853,-46.623791,-13.146255,-12.516005,-1.958957,9.398499,2.947804,15.569082,23.708157,31.604627,17.871767,28.938886,35.863232,38.540482,29.306091,39.674776,42.852526,43.978495,39.246994,48.307039,53.403844,57.76551,28.900452,54.522629,75.894665,94.97945,52.83189,85.685429,102.318707,113.592236,41.905724,79.004963,98.518238,111.882763,31.431954,65.021748,83.643093,96.635594,22.159996,46.517716,61.737477,73.634251,-12.164892,-9.817969,0.71675,8.131171,18.198613,35.661049,42.822614,48.018788,35.81335,53.253617,60.430991,64.739058,47.403791,65.505208,71.085235,72.718829,53.71146,70.201586,73.796917,72.90313,-3.11016,322.326387,-74.074436,300.744729
96,-0.303658,-0.843115,0.135075,0.585938,-0.198738,1.437355,4.775745,2.491917,-16.939739,6.382347,25.89608,38.35643,-23.571259,1.702103,22.683037,38.023911,-25.772346,-9.358635,9.02845,21.636635,-24.576256,-33.781815,-39.541809,-44.634418,-9.584183,-6.172843,6.288872,18.765505,4.929498,17.201997,25.001581,32.709094,18.46157,29.38565,36.177393,38.964497,28.931216,39.856803,43.282333,44.580969,38.042465,47.671454,53.231411,58.258834,28.264675,53.603336,74.825203,93.576507,52.29491,85.312637,102.036598,113.29248,41.594799,78.821434,98.438736,111.859314,31.283901,65.093445,83.742027,96.69191,22.158428,46.930115,62.171425,74.100082,-12.536754,-9.914585,1.033973,9.036839,17.718231,34.75838,41.827629,47.0426,35.307527,52.354296,59.4839,63.805947,46.864363,64.55167,70.011888,71.593934,53.136587,69.379391,72.913985,72.030225,-2.98534,321.407051,-73.510883,301.254446
97,7.084991,-3.592293,-0.111946,0.560521,-4.108291,-9.165035,-12.308269,-18.630386,-28.113075,-6.263923,14.280098,27.637734,-32.484134,-7.957649,13.921097,31.367844,-32.546058,-15.367607,4.316185,18.171273,-29.725811,-38.696033,-43.710937,-47.941806,0.457718,8.690061,22.397763,34.224634,15.165123,27.617167,33.936692,40.383991,21.440422,32.864384,39.15806,41.987069,25.639314,37.58671,41.631621,44.00296,29.401137,39.7572,46.550091,53.82734,27.66307,52.991123,74.187721,92.693298,52.098838,85.299476,101.98162,113.182388,41.613819,78.928482,98.480323,111.924591,31.443855,65.381607,83.933807,96.830681,22.408161,47.473457,62.625915,74.588173,-13.070401,-10.203762,1.190115,9.556913,17.051054,33.683528,40.609738,45.750373,34.631767,51.275368,58.315076,62.625304,46.14691,63.514732,68.875606,70.381378,52.351962,68.505067,72.036832,71.169424,4.58016,317.776303,-73.14232,301.776512
98,-7.935516,-0.389238,0.062977,0.185238,0.348084,0.33601,2.593712,0.353291,-19.169277,4.439942,24.477974,37.070526,-25.260029,0.958489,23.147621,40.585144,-26.785355,-7.753899,12.20192,26.26149,-24.71727,-31.891525,-35.540428,-38.55368,-3.000403,4.464209,18.044471,29.798983,12.717584,26.237046,33.997332,41.491275,20.502224,33.393573,40.437467,43.856637,26.002629,38.819705,43.670225,46.624451,30.70706,41.351991,48.365368,55.621906,27.174476,52.475589,73.626125,91.81509,51.857196,84.987911,101.598552,112.750591,41.492282,78.6553,98.191097,111.676837,31.383419,65.201076,83.735034,96.63985,22.380489,47.541641,62.652202,74.598964,-13.1209,-9.888192,1.895837,10.561951,16.941831,33.394228,40.176992,45.167537,34.433722,50.864012,57.865299,62.087236,45.829057,63.048246,68.379838,69.801987,51.934443,68.064392,71.695304,70.887053,-2.876078,317.374881,-72.600065,301.949566
99,-5.484535,-1.469894,-0.072865,0.358684,0.497509,1.435421,4.361893,1.756428,-16.179188,9.100067,29.469887,42.571335,-21.77813,6.943954,30.362823,48.155456,-23.09539,-0.964714,21.116043,36.622192,-20.880627,-24.875416,-26.25206,-26.97749,-0.018402,9.607067,24.658878,38.160383,13.853124,27.620588,36.156854,44.055905,20.479796,33.981424,42.334699,46.907836,25.254992,38.945972,45.379377,49.590397,29.383859,41.306246,48.845601,56.435146,26.736877,52.102112,73.236694,91.021866,51.703056,84.940109,101.495247,112.52607,41.447479,78.639793,98.158882,111.606354,31.407783,65.294403,83.774483,96.65847,22.491096,47.814136,62.913826,74.919617,-13.217231,-9.957674,2.019893,11.019768,16.451631,32.723482,39.400147,44.261991,33.986686,50.273246,57.266665,61.45054,45.404559,62.509164,67.816785,69.226435,51.512527,67.602017,71.258123,70.499013,-7.90044,315.913314,-72.212757,302.316577
100,7.604851,-3.205106,-0.232189,0.176285,-4.334256,-9.555874,-13.33358,-21.428341,-27.399044,-5.030674,16.500137,30.952766,-30.750744,-3.732445,20.299163,39.286148,-30.340313,-8.359681,15.044265,31.938263,-27.105126,-31.991673,-33.361439,-33.338871,9.04704,22.376126,38.04622,50.992539,21.925855,35.454407,42.792875,49.890418,22.856174,35.758885,44.445872,49.761199,22.656411,36.906665,44.085484,49.149413,22.542161,35.441501,44.444143,53.876197,26.473079,51.876709,73.035358,90.780041,51.655208,84.758365,101.240421,112.241924,41.452652,78.492496,98.006801,111.470775,31.433773,65.162601,83.593769,96.483387,22.533302,47.920978,62.959568,74.91077,-13.199348,-9.799111,2.335512,11.356395,16.616134,32.712491,39.312227,44.093598,34.093736,50.179657,57.090751,61.211059,45.412821,62.36531,67.596546,68.93485,51.435648,67.402118,71.062176,70.362013,0.162152,312.720669,-71.987205,302.505323
101,6.446869,-1.749439,-0.130795,0.10074,-7.147007,-16.849217,-24.517136,-34.121785,-35.890549,-15.889378,5.895675,21.068,-37.874142,-12.878289,11.079666,31.019531,-36.046761,-14.888855,8.590805,26.045837,-31.644104,-36.384865,-36.479233,-34.943619,15.604391,31.11938,45.947148,57.295009,28.625651,42.005138,48.258231,54.421626,24.43985,37.434459,45.847372,51.371638,19.383035,33.589063,41.158144,47.047207,14.818914,27.49589,36.987682,47.135387,26.258755,51.791348,72.924225,90.43071,51.715988,84.873413,101.251831,112.134819,41.437844,78.45456,97.89354,111.27562,31.356697,65.116539,83.518112,96.471794,22.453583,47.938259,62.955803,75.037491,-13.271757,-9.840126,2.442883,11.630764,16.495387,32.601414,39.159814,43.861305,33.995602,50.019476,56.860359,60.89013,45.309377,62.259309,67.46645,68.791885,51.296808,67.334279,71.022446,70.402805,7.063208,310.969245,-71.663813,302.604078
102,2.12931,1.15766,0.007508,-0.037977,-7.887554,-17.832046,-26.011265,-36.171696,-37.614075,-18.148167,4.004265,19.545021,-39.626346,-15.635536,8.707947,28.8368,-37.950611,-18.217689,5.20578,22.922722,-33.606914,-39.879352,-40.878502,-39.675419,15.17015,29.957237,44.556627,56.103893,26.549232,39.653101,46.262137,53.110578,23.206521,35.663815,44.359866,50.158464,18.953066,32.818776,40.488856,46.409189,15.234481,27.511908,36.980432,47.076884,26.28638,51.820243,72.876297,90.142089,51.544258,84.68573,101.050918,111.893943,41.116481,78.075004,97.528839,110.847221,30.933483,64.680404,83.077079,95.998283,22.010295,47.477016,62.509872,74.570549,-13.001364,-9.445874,2.91888,12.311229,16.672537,32.850589,39.389958,44.045457,34.19355,50.232466,57.017428,60.975815,45.511079,62.453416,67.584999,68.851302,51.490766,67.529855,71.164497,70.520613,9.608436,312.120678,-71.240387,302.559874
103,2.758186,2.048619,-0.170529,0.167825,-9.24084,-20.899589,-30.710002,-41.536663,-40.572463,-21.606296,0.007554,15.630204,-42.073722,-18.43769,5.513466,25.83355,-39.863754,-20.564666,2.708153,20.528962,-35.167488,-42.088348,-43.761062,-43.053462,16.097382,30.640604,44.756094,55.71221,26.58627,38.940699,44.557455,50.707537,22.29721,34.157105,42.030097,47.909774,17.122365,30.826831,37.78052,43.673424,12.549327,24.82001,34.458052,45.080321,26.14254,51.697266,72.676403,89.632061,51.454514,84.566838,100.952282,111.824558,41.024975,77.998364,97.472981,110.747509,30.853935,64.638371,83.057728,96.02068,21.942993,47.399964,62.394779,74.500225,-13.182922,-9.725615,2.677152,12.308512,16.343655,32.501626,39.067498,43.728184,33.948426,50.004718,56.771514,60.7454,45.349725,62.3281,67.449642,68.785847,51.363363,67.417803,70.997215,70.393951,12.744266,314.135099,-71.033272,302.693501
104,10.376587,-1.379504,-0.173355,-0.153301,-14.518226,-32.437683,-48.399524,-63.466529,-52.826339,-37.1044,-14.792999,1.384346,-52.428199,-31.647972,-8.164146,12.741646,-48.739643,-31.200439,-8.100631,9.817246,-43.193504,-53.028614,-56.154693,-56.36095,21.835983,38.368804,52.595667,62.524935,33.016476,44.527617,48.573232,53.647363,24.500662,35.457964,42.545182,47.864683,15.342656,28.697491,35.053264,40.649135,7.274767,19.270871,29.495134,40.976697,26.085594,51.57684,72.498425,89.336735,51.12442,84.114887,100.581905,111.660999,40.625805,77.486607,97.053257,110.423893,30.447865,64.154698,82.682407,95.7663,21.559834,46.975159,61.990208,74.064045,-13.080059,-9.589518,2.797318,12.572668,16.509108,32.791321,39.440544,44.166117,34.113595,50.287979,56.992382,60.929218,45.531518,62.677817,67.717539,68.987091,51.543217,67.650046,71.175377,70.520452,23.46239,312.699909,-70.86509,302.484514
105,-3.841072,1.977508,0.027374,0.002297,-12.383056,-27.684036,-40.664714,-53.230259,-48.013069,-29.80759,-8.683662,6.683213,-48.520912,-26.196487,-3.300865,16.984429,-45.365741,-27.491752,-5.102256,12.345154,-39.849861,-49.115799,-52.334472,-52.750442,18.741114,34.516047,48.874018,59.330796,29.782619,41.829371,45.906787,50.811623,23.563586,34.895108,41.227316,46.106661,16.397476,29.429826,35.015645,40.214091,9.918511,21.771379,31.488066,42.449913,25.812962,51.269749,72.101681,88.633976,50.646252,83.725605,100.299672,111.508129,40.133286,77.098309,96.737286,110.111126,30.052792,63.926068,82.589711,95.829769,21.325207,46.816246,61.915432,74.127171,-13.187097,-9.70551,2.75019,12.746075,16.311445,32.643725,39.297863,44.025611,34.014609,50.207852,56.82042,60.708213,45.537977,62.768392,67.703954,68.983954,51.580033,67.683305,71.11086,70.451243,19.90817,314.61281,-70.550864,302.422204
106,0.839928,0.80173,-0.23743,0.251139,-13.474823,-28.830528,-42.262482,-55.739548,-48.981445,-30.24258,-8.333107,7.185585,-49.500401,-27.406998,-4.76683,15.211418,-46.954136,-30.242775,-8.306946,8.755348,-42.423111,-54.203007,-59.506313,-61.90107,13.350785,27.353049,43.107629,55.149453,25.759283,37.698182,41.592916,46.449376,23.757495,34.057155,39.991469,44.25468,20.292865,32.843451,37.125113,41.056602,17.329068,29.263211,38.583189,49.486731,25.704162,51.092251,71.864181,88.26091,50.282284,83.246406,99.885086,111.218284,39.840088,76.793632,96.465385,109.846344,29.86568,63.746223,82.421905,95.650955,21.201496,46.720608,61.807205,73.967628,-13.304583,-9.994156,2.522084,12.755424,15.964025,32.350201,39.06951,43.875952,33.723419,49.962863,56.607319,60.626826,45.340833,62.547758,67.473773,68.8648,51.470957,67.402785,70.785139,70.167759,21.01343,315.338584,-70.522962,302.597387
107,-4.903084,3.716164,-0.318283,0.201763,-10.421287,-21.612076,-30.321682,-39.839664,-42.252662,-21.457386,-0.542976,13.835037,-44.08707,-20.814857,1.67981,21.082215,-42.531624,-25.776398,-4.223167,12.371269,-38.62167,-51.128105,-58.125629,-62.644386,5.781469,17.050672,32.885553,45.647387,18.987326,30.583633,34.975483,40.525536,21.553056,31.552287,36.84799,40.96983,22.203473,33.978054,37.310834,40.765684,22.77853,33.942102,42.648985,53.148098,25.526722,50.813472,71.596229,87.867096,50.07986,83.016563,99.790535,111.327781,39.740593,76.598648,96.283996,109.675575,29.839496,63.627777,82.293205,95.487693,21.184261,46.666156,61.694893,73.800132,-13.429554,-10.362682,2.14232,12.572026,15.709404,31.97939,38.802316,43.714698,33.433822,49.721049,56.509791,60.689923,45.065019,62.247454,67.279458,68.782994,51.249878,67.098405,70.522799,69.957412,16.346826,318.955102,-70.604765,302.699504
108,3.657578,-2.326113,-0.356209,0.109582,-13.508492,-28.247212,-40.974461,-54.040467,-48.460419,-28.894238,-6.634964,8.70964,-49.143242,-26.204956,-3.143669,16.630142,-46.636242,-29.29097,-6.960549,9.742103,-42.10603,-54.781369,-61.381966,-65.51175,11.384516,24.6005,40.03851,52.418887,24.64927,35.873532,39.392762,44.345305,23.745071,33.465117,38.705615,42.327413,21.23404,33.151326,36.854597,40.350424,19.133909,30.936808,40.100211,51.020055,25.51371,50.717354,71.540588,87.831962,49.768146,82.8899,99.809647,111.439751,39.450085,76.398125,96.143234,109.483726,29.594021,63.485023,82.192726,95.29319,21.007542,46.621605,61.6856,73.731628,-13.367062,-10.417553,2.098514,12.609719,15.636168,31.897373,38.758869,43.796591,33.332688,49.649814,56.522968,60.848696,44.950077,62.060943,67.102407,68.649119,51.12723,66.889294,70.304919,69.722069,20.232662,316.531046,-70.732716,302.711143
109,-6.9646,3.242539,-0.268284,0.189191,-8.986999,-18.409389,-24.331226,-31.406284,-39.179558,-17.454986,3.621071,17.89254,-41.709354,-17.572861,5.473549,24.990898,-40.682785,-23.418411,-1.685692,14.502022,-37.028927,-49.730415,-56.951168,-62.376938,2.581291,11.759823,26.473637,38.944737,16.410567,28.161078,32.798089,38.364802,20.962351,31.107956,36.33188,39.80539,23.220946,34.876275,38.184973,41.138297,25.236912,35.976099,44.455604,54.688091,25.540684,50.636307,71.385738,87.605312,49.730839,82.928318,99.87093,111.424038,39.448093,76.441647,96.151989,109.394291,29.573467,63.532368,82.209812,95.13493,20.94167,46.662495,61.727497,73.770161,-13.396455,-10.573819,2.008013,12.574471,15.619829,31.818333,38.636196,43.633101,33.217646,49.453781,56.435468,60.920672,44.751191,61.679733,66.851861,68.579069,50.917192,66.507429,70.017644,69.591961,13.460306,319.666461,-70.808756,302.79321
110,-5.283142,2.921622,-0.467194,-0.047362,-6.447327,-12.760654,-14.956661,-18.744553,-32.731613,-10.426895,10.595375,24.305717,-36.369907,-12.187386,10.848061,29.943672,-36.452019,-19.405838,1.403503,16.432961,-33.592689,-45.741257,-52.837784,-58.902214,-3.766219,1.679994,14.799363,26.915782,10.45558,21.504519,27.269908,33.625717,18.371464,28.353159,34.142235,37.374449,23.546568,34.614527,38.259839,40.912167,27.997451,37.765675,45.656785,54.888669,25.665253,50.763016,71.542157,87.756352,49.85558,82.973568,99.862118,111.382679,39.553895,76.474606,96.117726,109.311207,29.594101,63.53294,82.164059,94.980114,20.880158,46.622933,61.668103,73.678769,-13.351711,-10.499386,2.129981,12.735182,15.628757,32.016057,38.930708,44.002491,33.166801,49.5294,56.692794,61.35411,44.667148,61.64493,66.948216,68.796405,50.838286,66.48673,70.102797,69.802727,8.365471,322.463057,-71.087643,302.620822
111,0.75341,-0.931443,-0.457214,-0.279285,-6.849151,-14.895561,-18.273834,-23.201648,-35.473411,-14.258869,6.257607,19.764016,-38.580356,-13.888687,9.372506,28.916748,-37.511284,-18.526703,3.106453,18.706375,-33.164474,-41.067936,-43.975513,-46.498123,1.660789,8.914314,20.418934,30.553573,15.272025,26.620479,32.078178,37.856744,18.413614,29.459121,35.450368,38.97665,19.24727,31.056171,35.989931,39.716976,19.579932,29.376042,37.273722,46.274746,25.695534,50.809467,71.593037,87.742321,49.817448,82.913189,99.805058,111.37389,39.530365,76.402599,96.059383,109.290768,29.58506,63.49744,82.193722,95.071003,20.908779,46.648464,61.736904,73.781857,-13.170869,-10.150693,2.470795,13.022693,16.048895,32.512382,39.394527,44.418837,33.462116,49.891579,57.068286,61.675151,44.862168,61.972145,67.324165,69.158473,50.972038,66.738524,70.415884,70.162362,9.344753,321.384793,-71.318985,302.194716
112,1.879807,-2.172318,-0.517033,-0.226179,-8.818199,-19.281487,-24.841416,-31.139179,-39.235439,-18.844059,2.033111,16.434402,-41.209454,-16.852501,6.43689,26.347847,-39.244057,-20.321732,1.639,17.657066,-34.195221,-41.334446,-43.088951,-44.183636,6.558709,15.905832,27.692516,37.677088,19.961833,31.686866,36.692873,41.855294,20.066327,31.403814,37.644212,41.317658,18.07789,30.393985,35.836543,39.917306,15.962975,26.589715,35.093636,44.466151,25.765435,50.952874,71.670983,87.763985,49.797936,82.910958,99.689484,111.08828,39.47287,76.436646,96.061593,109.285286,29.540417,63.522652,82.286339,95.228188,20.925271,46.673001,61.821007,73.954239,-13.178242,-9.976064,2.70242,13.249637,16.354856,32.905571,39.653953,44.562147,33.708599,50.125131,57.200925,61.736629,45.013691,62.203203,67.597583,69.507412,50.989315,66.828012,70.599628,70.489404,11.493473,319.06867,-71.567105,301.824732
113,0.716583,0.195218,-0.532997,-0.325413,-8.444778,-19.642261,-25.567818,-32.117111,-41.113724,-22.398868,-1.644264,12.810082,-42.797115,-19.769405,3.583031,23.817673,-40.039947,-21.181709,0.974739,17.424614,-33.919075,-38.109478,-36.35376,-34.417717,8.604722,18.849758,29.928053,39.374261,21.236411,32.987811,38.032992,43.05918,19.167167,30.950603,37.304844,41.302837,15.234728,27.658367,33.683405,38.310178,11.065266,20.801602,28.57068,37.265497,25.777233,51.030098,71.711335,87.784836,49.821877,82.849343,99.545884,110.871941,39.50409,76.440331,96.045159,109.307946,29.589913,63.558586,82.313713,95.295891,21.004509,46.704312,61.860306,74.115189,-13.116047,-9.756318,3.035119,13.561243,16.626274,33.288536,40.009883,44.838703,33.922688,50.372034,57.427068,61.915039,45.171748,62.386417,67.851835,69.837049,51.135257,67.066802,70.953533,71.010776,12.551159,319.093044,-71.758999,301.328475
