takenoko1/special-research/HandMotion_SimilarSearch_自分用/NewProject/handData/tgt/d4_feature_d2/10.csv
,vel_0x_L,vel_0y_L,vel_0x_R,vel_0y_R,posFromWrist_1x_L,posFromWrist_2x_L,posFromWrist_3x_L,posFromWrist_4x_L,posFromWrist_5x_L,posFromWrist_6x_L,posFromWrist_7x_L,posFromWrist_8x_L,posFromWrist_9x_L,posFromWrist_10x_L,posFromWrist_11x_L,posFromWrist_12x_L,posFromWrist_13x_L,posFromWrist_14x_L,posFromWrist_15x_L,posFromWrist_16x_L,posFromWrist_17x_L,posFromWrist_18x_L,posFromWrist_19x_L,posFromWrist_20x_L,posFromWrist_1y_L,posFromWrist_2y_L,posFromWrist_3y_L,posFromWrist_4y_L,posFromWrist_5y_L,posFromWrist_6y_L,posFromWrist_7y_L,posFromWrist_8y_L,posFromWrist_9y_L,posFromWrist_10y_L,posFromWrist_11y_L,posFromWrist_12y_L,posFromWrist_13y_L,posFromWrist_14y_L,posFromWrist_15y_L,posFromWrist_16y_L,posFromWrist_17y_L,posFromWrist_18y_L,posFromWrist_19y_L,posFromWrist_20y_L,posFromWrist_1x_R,posFromWrist_2x_R,posFromWrist_3x_R,posFromWrist_4x_R,posFromWrist_5x_R,posFromWrist_6x_R,posFromWrist_7x_R,posFromWrist_8x_R,posFromWrist_9x_R,posFromWrist_10x_R,posFromWrist_11x_R,posFromWrist_12x_R,posFromWrist_13x_R,posFromWrist_14x_R,posFromWrist_15x_R,posFromWrist_16x_R,posFromWrist_17x_R,posFromWrist_18x_R,posFromWrist_19x_R,posFromWrist_20x_R,posFromWrist_1y_R,posFromWrist_2y_R,posFromWrist_3y_R,posFromWrist_4y_R,posFromWrist_5y_R,posFromWrist_6y_R,posFromWrist_7y_R,posFromWrist_8y_R,posFromWrist_9y_R,posFromWrist_10y_R,posFromWrist_11y_R,posFromWrist_12y_R,posFromWrist_13y_R,posFromWrist_14y_R,posFromWrist_15y_R,posFromWrist_16y_R,posFromWrist_17y_R,posFromWrist_18y_R,posFromWrist_19y_R,posFromWrist_20y_R,posFromBody_0x_L,posFromBody_0y_L,posFromBody_0x_R,posFromBody_0y_R
6,-3.392395,-4.481969,-0.488274,-1.567164,9.197948,19.703647,28.242416,30.825119,6.278515,32.554619,49.891891,57.705322,2.293934,28.579834,47.601173,63.202514,-4.579216,18.675064,38.034851,50.645668,-10.684571,-14.597798,-20.569634,-27.148201,-24.944659,-33.751799,-34.627494,-32.795359,-0.627446,15.798386,19.045285,20.887534,19.926537,39.068325,40.668883,40.062494,32.432441,49.292995,47.389897,45.349367,41.902385,53.653315,58.737474,62.118531,25.029271,50.567688,74.305973,93.990292,54.181996,85.589802,102.598584,115.097409,45.208638,80.510891,100.507153,113.679165,35.650681,69.101864,87.375012,99.111729,26.72366,53.030308,67.504178,76.876843,-16.714713,-18.833085,-14.71658,-13.252083,14.90524,29.513992,35.416677,39.012552,32.995073,46.417105,50.668498,52.483157,45.232794,58.653209,61.00096,60.247382,52.522529,64.075241,64.377509,61.485231,-22.039209,297.165564,-66.956755,288.600671
7,3.032318,-1.23481,-0.579185,-0.372762,8.13121,17.109135,25.246742,28.0112,3.532528,29.305687,46.828285,55.011085,-0.336308,25.686699,44.577507,60.229271,-6.903637,15.539154,34.694778,47.446861,-12.648651,-17.039978,-23.040264,-29.389343,-24.289685,-32.403158,-32.80713,-30.220034,0.262192,16.989119,20.421244,22.597118,20.755845,39.461477,41.098196,40.725261,33.358042,49.800558,47.818024,46.068783,42.981436,54.662996,59.802717,63.346042,25.444496,51.350246,75.246746,94.762722,54.666687,85.963222,103.007114,115.671627,45.632435,80.769596,100.735966,114.053135,36.047745,69.347225,87.533535,99.4025,27.018757,53.315666,67.701244,77.123211,-16.442517,-18.596063,-14.379263,-12.854868,14.750518,29.486377,35.525394,39.188861,32.83956,46.515263,51.023525,52.958437,45.225273,58.869211,61.412476,60.774767,52.783153,64.482077,64.803167,61.958041,-18.584741,296.210227,-67.11379,288.507382
8,5.826782,-0.654863,-0.203785,-0.445703,6.173916,12.845284,19.301811,21.188644,-2.872112,22.067825,40.40799,49.407578,-6.856579,18.931938,38.474098,54.881561,-12.699715,9.092823,28.906128,42.206337,-17.56485,-23.093307,-29.233829,-35.534786,-23.583224,-31.348375,-31.63344,-28.913495,1.220571,18.188954,21.625908,23.813219,21.575754,40.015366,41.363921,40.822703,34.07589,50.339417,48.254501,46.414092,43.584959,55.058729,60.237934,63.987592,25.527351,51.578762,75.561722,95.236633,54.556767,85.915627,103.113327,115.890198,45.600048,80.89959,101.009216,114.487404,36.090431,69.623623,87.90818,99.880165,27.101315,53.601082,68.053711,77.543358,-16.156365,-18.140715,-13.757806,-12.340387,14.897806,29.842048,35.974753,39.651965,32.966458,46.819941,51.453951,53.523133,45.394297,59.156586,61.747115,61.215666,53.037318,64.799895,65.124887,62.376154,-12.576788,295.832068,-67.136404,288.338383
9,3.175324,-0.011387,-0.203499,-0.305504,3.90937,9.746074,16.79528,19.18254,-6.096383,18.142822,36.813148,47.088546,-10.851506,14.893753,34.770813,50.702156,-16.107972,5.538093,25.524009,38.974685,-19.913887,-23.441826,-26.351086,-29.464142,-21.736787,-28.068551,-26.914238,-23.063433,3.05956,19.299893,23.00272,25.301552,22.245771,39.423155,41.422361,41.381557,34.344999,49.229417,47.882838,46.31476,43.58806,54.718979,58.874436,61.470917,25.679157,51.851738,75.854736,95.512985,54.806042,86.079506,103.263565,116.053093,45.83178,81.042641,101.102829,114.623772,36.283951,69.780739,88.028206,100.07,27.208775,53.759537,68.190136,77.770226,-16.02538,-17.891848,-13.465257,-12.087989,15.006104,30.034647,36.213011,39.899473,32.950193,46.865216,51.620751,53.766306,45.349651,59.192994,61.910865,61.498903,53.052435,64.981527,65.385906,62.744643,-9.355167,296.078177,-67.293606,288.290375
10,2.992401,-0.17153,-0.000847,-0.132615,2.615604,7.504692,13.797912,15.507934,-9.774388,14.100242,32.906364,43.414558,-14.646607,10.884304,30.994766,47.017799,-19.531964,1.686149,21.747688,35.084472,-22.658547,-26.777321,-30.056122,-33.614273,-21.610138,-27.969232,-26.984684,-23.634773,3.830835,19.986595,23.527709,25.87336,22.952393,39.818851,41.725556,41.839498,34.807398,49.569142,48.093394,46.606271,43.862774,54.829462,58.93463,61.792451,25.675953,51.898922,75.972954,95.743103,54.668644,86.16568,103.428772,116.202874,45.715153,81.203385,101.309967,114.822693,36.203957,69.971146,88.262513,100.289635,27.208855,53.984036,68.482636,78.097733,-15.896482,-17.749229,-13.257159,-11.834479,14.995705,30.133263,36.330361,40.003733,32.937497,46.849556,51.573105,53.699665,45.336436,59.157537,61.819066,61.390395,53.006183,64.973821,65.332887,62.687783,-6.368745,296.082204,-67.300432,288.333317
11,0.245029,0.734002,-0.051395,-0.080411,1.304169,6.857449,15.350201,18.638523,-10.2323,13.545376,32.524876,44.072926,-15.768036,10.148598,30.515339,45.885876,-20.171379,1.200119,21.250363,34.602917,-22.348549,-23.878921,-23.817386,-24.08202,-20.607249,-26.449171,-24.788579,-21.063177,4.273351,19.468349,23.424426,26.032171,22.826188,38.217775,40.890542,41.432834,34.7032,47.787656,47.128161,45.860635,43.733198,54.081048,57.03867,58.622581,25.790027,52.062767,76.174679,96.059337,54.632469,86.255527,103.482639,116.198467,45.6343,81.30962,101.424763,114.904484,36.168606,70.10923,88.388706,100.372524,27.282108,54.213089,68.709652,78.27325,-15.840278,-17.672042,-13.1354,-11.71703,15.039053,30.148292,36.293446,39.965879,33.026615,46.863907,51.541809,53.609583,45.421701,59.1667,61.79528,61.330077,53.03339,65.007808,65.335912,62.650572,-6.143824,296.961189,-67.371935,288.397889
12,1.034844,-0.194057,0.057918,-0.126564,0.971958,6.129158,14.130832,17.017192,-11.410996,12.090168,31.291431,42.837123,-17.217213,8.750427,29.39677,44.9332,-21.697621,-0.31128,19.958301,33.390506,-23.846695,-25.540535,-25.348973,-25.580212,-20.396606,-26.239874,-24.612541,-21.08784,4.476868,19.839284,23.927161,26.573512,23.026371,38.433741,41.099037,41.545393,34.87499,47.953555,47.30068,46.023298,43.859058,54.188222,57.178461,58.755529,25.844788,52.091401,76.194718,96.138154,54.563359,86.218598,103.396386,116.045952,45.490735,81.270539,101.368515,114.77488,36.004132,70.049618,88.273682,100.170777,27.153843,54.119431,68.648701,78.236824,-15.761607,-17.578156,-13.009564,-11.541893,15.212498,30.310548,36.427704,40.113154,33.244718,47.041625,51.667632,53.699665,45.616413,59.349606,61.938368,61.451923,53.150506,65.166433,65.479297,62.754412,-5.130249,296.886119,-67.335286,288.390312
13,1.519249,-0.238986,-0.245899,-0.03579,1.00526,5.625274,12.64603,15.100948,-12.950055,10.039775,29.68436,41.848194,-18.957116,6.696109,27.792011,43.902225,-23.389538,-2.204957,18.46455,32.436412,-25.4492,-27.470044,-26.918381,-26.486378,-20.222914,-26.040532,-24.301961,-20.358654,4.310425,20.27387,24.676156,27.177776,22.70733,38.680828,41.469761,41.782341,34.602078,47.996619,47.469826,46.168659,43.697481,54.163139,57.323364,59.046312,25.938515,52.245724,76.327915,96.276661,54.887226,86.362599,103.422467,116.07423,45.749233,81.330746,101.376034,114.790913,36.231365,70.094525,88.2579,100.184613,27.352982,54.168034,68.694248,78.376614,-15.800054,-17.629965,-13.126051,-11.696541,15.319017,30.348981,36.476363,40.235531,33.370305,47.110525,51.751192,53.796971,45.722882,59.487259,62.117444,61.645226,53.219889,65.275446,65.655841,62.977689,-3.627388,296.750821,-67.597573,288.45821
14,-1.610104,2.742496,-0.10136,-0.129936,2.202015,7.059185,14.760315,18.553574,-11.355125,12.694977,32.500145,44.571785,-17.42807,9.074043,30.321968,46.876144,-22.150761,-0.308979,20.468582,34.560585,-24.381294,-27.420902,-28.326611,-29.247517,-22.250279,-29.814494,-29.287084,-26.30081,0.295365,16.342704,21.275228,24.296465,19.564741,35.303933,38.117257,38.207981,32.288809,45.174551,44.947779,43.723861,42.065999,52.064069,55.941785,58.207816,25.960945,52.270546,76.395744,96.526474,54.970276,86.391975,103.429344,116.076141,45.792068,81.385689,101.423195,114.821411,36.258167,70.142773,88.256195,100.127769,27.40844,54.194103,68.713852,78.39473,-15.74675,-17.565176,-13.041168,-11.612016,15.474258,30.508965,36.673459,40.443754,33.588643,47.314389,51.927601,53.929414,45.945185,59.741375,62.346106,61.811743,53.408957,65.434887,65.814528,63.130238,-5.25095,299.590661,-67.712391,288.425618
15,-2.470676,1.834296,-0.213375,0.002903,2.27219,8.659275,18.904758,25.100681,-7.697056,16.331485,36.009212,48.653926,-14.454529,12.226982,33.673473,49.736537,-19.318955,2.332649,22.839809,37.053165,-21.562821,-21.8336,-19.554841,-17.216401,-22.059804,-29.748743,-28.823796,-25.05949,-1.23423,13.799093,19.51975,23.167865,17.456113,32.179474,36.315356,37.108638,30.411213,41.843178,43.096662,42.590148,40.50438,49.979153,53.009122,54.091496,26.071678,52.367534,76.491451,96.690296,55.277458,86.541744,103.473003,116.098835,46.035038,81.483043,101.457172,114.817165,36.441032,70.213245,88.221554,100.010959,27.55981,54.226513,68.676658,78.307491,-15.827681,-17.672684,-13.180638,-11.782806,15.54653,30.556537,36.749041,40.534514,33.715663,47.475902,52.084978,54.015802,46.073094,59.909657,62.525453,61.948631,53.542164,65.556621,65.957974,63.290393,-7.730209,301.525125,-67.934349,288.528689
16,-1.211724,-0.677995,-0.252457,-0.146596,4.175835,10.32716,18.75507,23.562939,-6.085476,18.200215,37.72308,49.389393,-12.52375,14.038559,35.22385,51.836003,-18.252491,3.520821,24.097195,38.333462,-21.685146,-24.240085,-25.066063,-25.83728,-23.158467,-31.518015,-31.358699,-27.671508,-2.290656,13.877677,19.392594,22.882072,17.068481,33.564548,37.15526,37.593713,30.168757,43.4087,44.044729,43.450023,40.505998,50.504526,54.788313,57.257959,26.054707,52.428017,76.535443,96.754521,55.630932,86.703427,103.621548,116.279194,46.386234,81.577458,101.500637,114.859532,36.716503,70.268109,88.225857,100.024601,27.724617,54.19249,68.645371,78.425114,-15.844291,-17.659815,-13.231841,-11.871455,15.754111,30.75767,36.967885,40.696597,33.803571,47.565614,52.180519,54.061004,46.057372,59.987426,62.643336,62.005478,53.476326,65.625374,66.153896,63.566479,-8.946848,300.957419,-68.191721,288.492382
17,-3.421371,0.048511,-0.163902,0.072248,5.799946,13.810032,23.063793,28.134235,-1.695935,22.752353,41.842586,53.444515,-8.442112,17.948707,38.905964,55.250599,-14.779061,7.20322,27.495243,41.528606,-18.861614,-20.231037,-20.498944,-20.704651,-23.157367,-31.919356,-31.938523,-28.318541,-3.242329,13.088815,18.883783,22.424378,16.307716,33.168493,37.206451,37.795587,29.552438,42.928664,44.001158,43.4437,40.067397,50.239086,54.426776,56.599959,26.0205,52.381588,76.519192,96.849254,55.835049,86.975315,103.896023,116.452915,46.550617,81.812176,101.719105,114.910114,36.831859,70.502987,88.417248,100.0135,27.864223,54.433971,68.880741,78.508335,-15.927555,-17.766495,-13.388872,-12.122285,15.745701,30.80959,37.12173,40.876439,33.857986,47.680161,52.204342,53.90932,46.123655,60.102269,62.625885,61.838728,53.527233,65.554423,65.982403,63.378906,-12.370519,301.112438,-68.357923,288.671138
18,-7.03759,0.478171,-0.130531,-0.159859,8.12725,19.046722,30.494304,36.498584,6.605232,32.002384,50.182399,60.752208,-0.224716,26.551655,46.851139,62.26672,-7.524582,15.249813,34.857593,48.119533,-12.750126,-12.40543,-12.210755,-12.373158,-23.624843,-32.837214,-33.090428,-29.70858,-4.5031,11.500928,17.350272,21.123655,15.408037,32.415471,36.759094,37.631812,28.876753,42.333637,43.66274,43.312826,39.507938,49.950143,53.929994,55.638578,25.998985,52.357681,76.507999,96.819225,55.951126,87.210353,104.15118,116.646205,46.640499,81.952777,101.810543,114.870311,36.85136,70.566032,88.44659,99.913707,27.817989,54.372562,68.787529,78.358486,-15.991492,-17.74324,-13.369792,-12.106971,15.95764,30.929842,37.219221,40.939127,34.004778,47.785976,52.237798,53.853633,46.160446,60.134638,62.604556,61.736506,53.456343,65.577258,66.028134,63.447424,-19.406873,301.695714,-68.487218,288.616384
19,-0.721585,-2.50745,-0.021824,-0.112855,9.680672,20.976403,30.092698,33.402146,7.949284,32.734658,50.245308,59.571213,1.563126,27.225701,47.059754,62.609917,-6.28997,15.987809,35.509644,48.5793,-12.542965,-13.396213,-14.968242,-17.081806,-23.507776,-32.67092,-33.369799,-30.471049,-2.687477,14.223047,19.211504,22.313783,17.403267,36.083298,39.802253,40.57007,30.371558,45.836368,46.258185,45.661293,40.628276,51.875422,56.292219,58.789431,25.940883,52.296707,76.423668,96.703285,55.973053,87.257011,104.174446,116.608246,46.665046,81.991607,101.806755,114.753135,36.850788,70.608101,88.388557,99.67424,27.808674,54.379028,68.77922,78.235725,-15.988454,-17.700682,-13.34566,-12.129436,16.19197,31.105967,37.369855,41.067173,34.259239,48.003992,52.331918,53.799293,46.388601,60.298672,62.596405,61.594578,53.651672,65.664103,65.949514,63.272041,-20.126513,299.269765,-68.507097,288.58503
20,-2.60741,-0.999615,-0.006924,-0.272036,11.792576,23.656242,31.107754,32.296108,10.660229,35.95602,52.914562,61.039501,4.771797,30.328228,49.70097,65.519886,-3.876663,19.355553,39.096302,51.975323,-11.251923,-13.825905,-18.035889,-23.049225,-24.261194,-33.885823,-35.191684,-33.139643,-2.65512,15.386634,19.598148,21.898116,18.116768,38.38613,41.017439,40.992541,31.020899,48.18003,47.31855,45.854312,41.180275,53.156063,58.442491,61.792266,25.873615,52.239922,76.283215,96.414745,56.090836,87.240383,104.105862,116.493633,46.746986,81.914371,101.610203,114.425663,36.855515,70.479298,88.132519,99.258556,27.69104,54.185371,68.519794,77.874424,-15.99737,-17.594223,-13.234545,-12.033142,16.570007,31.382721,37.607212,41.302702,34.548109,48.23736,52.454666,53.817967,46.587438,60.519233,62.695811,61.593233,53.798528,65.834461,66.041449,63.322356,-22.729174,298.340756,-68.509272,288.3836
21,-2.387741,0.446233,0.170734,-0.12949,12.641327,25.634262,33.345508,34.46204,13.051895,38.808185,55.157123,62.814182,7.310337,33.006557,52.091572,67.563022,-1.44001,22.388306,41.921162,54.453358,-8.950264,-10.900761,-15.133896,-20.31395,-24.557645,-34.441712,-35.94536,-34.379233,-2.886128,15.108597,19.056634,21.171511,17.825886,38.35817,41.015031,41.03305,30.531256,47.848998,47.017467,45.436966,40.537626,52.679486,57.981105,61.289334,25.792077,52.117974,76.127335,96.194001,55.951699,87.070954,103.877701,116.18509,46.579468,81.779618,101.409005,114.097641,36.686715,70.356171,87.91404,98.881806,27.554238,54.10809,68.414498,77.619301,-16.009079,-17.555877,-13.169523,-11.931341,16.811512,31.563254,37.779532,41.487533,34.838076,48.487374,52.583798,53.80448,46.864339,60.770482,62.765045,61.52895,54.024595,65.930161,65.933409,63.07397,-25.1019,298.841672,-68.323523,288.308793
22,0.108719,0.718132,-0.053478,-0.245223,12.520832,25.290664,32.859318,33.820095,12.468418,38.916652,55.010456,62.328197,6.966808,33.129215,52.00629,67.32304,-1.522167,22.951618,42.449856,54.879261,-8.724976,-10.740395,-15.435643,-21.195339,-25.302429,-35.335611,-36.98741,-35.687749,-2.899848,14.606443,17.92181,19.782338,17.739473,38.032425,40.257058,40.301259,30.260777,47.370211,46.246971,44.635322,40.113117,51.90137,57.279448,60.823724,25.756657,52.180538,76.153279,96.085453,55.922985,86.894314,103.612393,115.95567,46.572613,81.591511,101.117169,113.832653,36.708733,70.109425,87.614788,98.672665,27.56662,53.889198,68.141522,77.440167,-16.057281,-17.539328,-13.086543,-11.773569,17.065627,31.681085,37.769614,41.434761,35.0039,48.559733,52.632988,53.875085,46.934166,60.865059,62.88116,61.655044,53.996054,65.993974,66.047153,63.202213,-24.967346,299.617608,-68.351166,288.121374
23,-0.614502,0.625754,0.21555,-0.058453,12.470604,25.284038,33.083965,34.197246,12.819019,39.923778,55.721477,62.678959,7.449154,34.105282,52.711635,67.895359,-1.044388,24.074306,43.500355,55.831615,-8.305184,-10.182953,-15.259506,-21.538582,-25.845511,-35.985435,-37.751695,-36.981346,-3.052014,14.163235,17.077052,18.805965,17.659124,37.830612,39.798178,39.832351,30.094866,46.973267,45.644015,44.005863,39.897312,51.364734,56.790113,60.483096,25.68869,52.073043,76.030792,95.941246,55.775081,86.615272,103.254089,115.520805,46.441887,81.433754,100.887016,113.511749,36.595939,70.008556,87.401069,98.326172,27.506046,53.884483,68.09333,77.252151,-16.031951,-17.526089,-13.03466,-11.696541,17.089587,31.681283,37.7852,41.495202,35.077865,48.68106,52.702124,53.904256,47.068979,61.056769,62.981258,61.738062,54.176242,66.078498,65.969681,63.048455,-25.555692,300.285649,-68.10946,288.105208
24,-1.812687,0.589951,-0.007153,0.004594,12.675613,26.12289,34.794571,36.46463,14.506302,42.140945,57.722832,64.510574,9.178802,36.306976,54.687904,69.771583,0.550999,26.169182,45.388367,57.606605,-6.929924,-8.387158,-13.518528,-19.851986,-26.356681,-36.65392,-38.528021,-37.93329,-3.659082,13.386773,16.221846,17.917179,17.269318,37.523861,39.460008,39.476668,29.789807,46.551228,45.17239,43.530163,39.669774,50.917624,56.303211,59.905162,25.632855,52.018353,76.008991,95.863415,55.779385,86.618946,103.206059,115.426701,46.438545,81.465923,100.857456,113.40485,36.595619,70.010136,87.406643,98.33083,27.504913,53.909592,68.125912,77.309933,-16.135901,-17.635374,-13.105204,-11.781559,16.969025,31.513779,37.650486,41.450853,34.974779,48.534132,52.539832,53.78099,46.970031,61.005603,62.923027,61.697393,54.042404,65.991615,65.894927,63.001352,-27.343277,300.918106,-68.091511,288.152308
25,1.065273,-0.228192,0.052185,-0.067518,12.648708,25.610138,33.811054,35.208241,13.39365,41.046581,56.970188,64.110272,7.708328,35.25935,53.734692,68.916561,-0.92165,24.62312,43.832852,56.151341,-8.306602,-9.758285,-14.877079,-21.09177,-25.96774,-36.160782,-38.0705,-37.510436,-3.409401,13.709406,16.726803,18.433091,17.394313,37.391035,39.419771,39.472333,29.891423,46.447351,45.183962,43.713129,39.736612,50.854144,56.309324,60.038147,25.603912,52.012402,76.083286,95.989346,55.733757,86.548702,103.090565,115.265843,46.459374,81.501217,100.921246,113.514141,36.642094,70.068066,87.527332,98.553463,27.533913,53.968437,68.270485,77.618466,-16.177114,-17.664743,-13.117677,-11.925067,16.873572,31.350252,37.407547,41.166999,34.892305,48.253032,52.290039,53.593886,46.926065,60.859514,62.856782,61.7123,54.037131,65.955689,65.948168,63.153863,-26.253594,300.725689,-68.014916,288.120565
26,2.849785,-0.393548,0.001362,0.017747,12.143429,23.950951,31.042431,31.709118,10.859356,37.989933,54.43491,62.103344,4.621994,32.060658,50.991726,66.745502,-4.071281,20.791672,40.328075,53.107143,-11.38559,-13.440777,-18.490608,-24.476669,-25.273208,-35.180716,-36.920633,-36.511549,-2.975789,14.277128,17.568449,19.286741,17.636609,37.237079,39.285859,39.205176,30.135461,46.46311,45.270277,43.874532,39.978168,51.008372,56.569874,60.409638,25.543682,51.960228,76.079452,96.000137,55.719658,86.560432,103.078445,115.210052,46.47876,81.578682,101.046844,113.648003,36.671013,70.126041,87.654373,98.739876,27.565819,54.002289,68.369637,77.800575,-16.309247,-17.834989,-13.243907,-12.111108,16.673229,31.108153,37.105687,40.812317,34.784526,48.010019,52.044964,53.34565,46.898796,60.774274,62.830451,61.732591,54.051383,65.968373,66.056305,63.319354,-23.388554,300.365804,-67.998299,288.171975
27,0.00412,0.082548,-0.02084,-0.099628,11.821014,23.659447,30.469379,30.875072,11.204555,38.562961,54.839847,62.382831,4.699665,32.770695,51.589016,67.364925,-4.161862,20.64529,40.034534,52.719028,-11.683994,-14.022823,-19.266243,-25.471024,-24.789727,-34.691814,-36.358865,-36.25831,-2.505226,15.150291,18.467276,20.044752,17.920859,37.401088,39.446608,39.229308,30.233187,46.51561,45.210947,43.703224,39.905463,50.933889,56.306471,59.968666,25.395184,51.817372,76.006359,95.888317,55.900944,86.704869,103.241879,115.377056,46.689823,81.801602,101.321423,113.973851,36.841439,70.390709,87.989971,99.124089,27.650013,54.226536,68.681465,78.146267,-16.352954,-17.848549,-13.298865,-12.346439,16.630226,30.877824,36.78104,40.377223,34.802927,47.766438,51.737175,52.988065,46.992669,60.679783,62.734219,61.650697,54.217109,66.059701,66.1484,63.40289,-23.377441,300.472166,-68.012146,288.096161
28,0.862381,0.059108,-0.194767,-0.187832,11.615524,23.06266,29.484386,29.40469,9.908867,37.418506,53.603336,60.929546,3.281959,31.718662,50.181827,65.435818,-5.381172,19.247303,38.218517,50.300686,-12.50734,-15.476051,-21.268341,-28.28896,-24.702018,-34.535017,-36.303784,-36.297584,-1.907125,15.944055,19.054818,20.453613,18.189633,37.831834,39.620731,39.373631,30.229889,47.015158,45.46006,43.928539,39.794793,50.719479,55.77438,59.344122,25.436531,51.960537,76.210419,96.067017,56.21307,86.990296,103.564453,115.796952,47.062249,82.077324,101.631295,114.474541,37.206642,70.613789,88.303894,99.659157,27.877533,54.343277,68.825718,78.424897,-16.3482,-17.826011,-13.342264,-12.518822,16.571044,30.575284,36.297633,39.756854,34.681229,47.403259,51.389409,52.684846,46.864623,60.399461,62.572729,61.538571,54.141106,65.99222,66.190143,63.462145,-22.504961,300.554029,-68.196814,287.931084
29,-3.619618,-0.256586,-0.055675,-0.596645,12.783944,25.821076,33.694085,34.6577,12.892434,41.12748,57.180634,64.307076,5.970211,35.199372,53.137528,67.47313,-2.762695,22.501122,40.936638,52.12056,-9.807964,-12.146507,-18.257503,-25.838825,-24.74854,-34.910459,-37.306338,-37.646719,-2.223471,15.498304,18.539697,19.864762,18.029602,37.820819,39.516435,39.258096,30.166571,47.019703,45.645707,44.24995,39.733772,50.432723,55.297605,58.78848,25.557449,52.085861,76.263187,96.050571,56.427189,87.180919,103.813282,116.124515,47.295513,82.224529,101.819057,114.862552,37.346271,70.643417,88.469913,100.076717,27.789459,54.039425,68.512516,78.126674,-16.234381,-17.67403,-13.270003,-12.503174,16.422843,30.334062,35.948261,39.304767,34.456446,47.237916,51.366166,52.770679,46.649311,60.264771,62.675742,61.76186,53.988126,66.050982,66.479579,63.785792,-26.096672,300.334932,-68.224582,287.371928
30,-3.773872,-0.056057,-0.072407,-0.975052,13.295929,27.719925,37.146011,39.322174,15.745388,44.77272,60.580948,67.315498,9.40987,38.955368,56.567986,70.438568,0.7855,26.982193,45.12973,55.761383,-6.342304,-8.438541,-14.939346,-23.148777,-25.686825,-36.248875,-38.986987,-39.69687,-2.560789,14.553856,17.223598,18.438612,17.839855,37.886188,39.308818,39.04654,29.897166,47.071055,45.43415,43.885808,39.404161,50.118425,54.854843,58.32051,25.656601,52.180378,76.238571,95.907005,56.522976,87.338242,104.038719,116.494698,47.513065,82.477318,102.065735,115.270203,37.616238,70.841217,88.744377,100.52076,27.957607,53.827332,67.979713,77.205826,-16.186709,-17.686516,-13.397085,-12.643471,16.00404,29.863253,35.455741,38.80307,34.012498,47.015072,51.298908,52.77126,46.295112,59.928071,62.481327,61.598445,53.784881,65.962544,66.404998,63.522847,-29.832258,300.31515,-68.258703,286.433151
31,-5.689671,-1.536745,-0.023792,-2.104404,14.245835,30.715199,42.144299,46.000409,20.620846,50.821873,65.990399,71.529454,14.915474,45.336743,61.847912,74.192883,6.510384,34.098999,50.841237,59.542111,-0.566871,-1.308151,-8.246692,-17.149475,-26.852809,-38.042033,-41.66803,-43.008718,-2.87316,13.328172,15.180351,15.840376,18.118485,37.905021,38.597725,37.935624,30.325565,47.168077,45.233375,43.322224,39.663401,50.272381,54.901772,58.099542,25.56459,52.097831,76.074589,95.755954,56.532017,87.558872,104.244426,116.690082,47.641548,82.903072,102.384327,115.641964,37.776993,71.224571,89.091305,100.837223,27.975242,53.785194,67.521492,76.248813,-16.419274,-17.949647,-13.755016,-13.254825,14.883726,28.833947,34.58685,38.184651,32.913982,46.207438,50.736114,52.493062,45.421059,59.047769,61.77694,61.126794,53.205328,65.334591,65.729497,62.889287,-35.466351,298.80941,-68.226917,284.359752
32,-3.938655,-4.363445,-0.30534,-3.521663,15.376773,32.839325,45.286766,49.939865,23.905975,54.74604,69.046417,72.98204,18.393722,49.888252,65.177604,75.694725,10.050155,39.571334,55.350998,62.446563,2.800472,4.669681,-1.850899,-10.685749,-27.438808,-38.683311,-42.286237,-43.517368,-3.566617,11.694861,13.365185,13.893015,17.649416,37.639173,38.019482,36.893772,30.199546,47.305743,45.59685,43.16854,39.742467,51.155005,56.07361,59.02612,25.615517,52.067161,75.703125,95.204521,56.284035,87.987122,104.760269,117.309174,47.590736,83.431183,102.926147,116.497261,37.906677,71.590771,89.567505,101.590805,28.062801,53.520664,66.640778,74.796181,-17.380296,-19.179691,-15.043895,-14.541753,12.356269,26.57119,32.610417,36.571187,30.472531,44.171724,49.082006,51.217706,43.444378,57.328699,60.42489,60.173652,51.832888,64.210066,64.805279,62.134153,-39.328645,294.476717,-68.455896,280.868841
33,-1.44167,-8.800706,-0.690193,-6.175499,15.681851,32.472839,44.526718,49.238857,26.242756,57.113423,69.938221,72.53262,21.304093,53.431355,67.449291,76.432423,13.087223,43.179142,57.910984,64.063625,5.137493,10.936798,7.417442,1.11565,-24.385324,-32.299281,-32.542368,-31.290675,-2.096513,12.270338,13.909305,14.350599,17.194403,35.772965,36.520972,35.347369,28.721315,44.521887,43.638844,41.151438,37.517599,48.929891,53.724106,56.240324,25.346306,51.382301,74.424007,93.326385,55.332206,87.638374,104.710533,117.491295,47.19112,83.654732,103.299362,117.38594,37.920215,71.906296,89.874801,101.892792,28.163017,53.025089,64.997268,71.921413,-18.482478,-20.836614,-16.748304,-15.862618,9.134208,23.352537,29.568975,33.717751,27.352444,41.272025,46.657216,49.282473,40.951219,55.026534,58.454991,58.605946,50.22471,63.034166,63.738726,61.099514,-40.672125,285.714833,-69.047899,274.732164
34,5.829243,-13.899165,-1.692742,-8.596398,10.390194,22.674202,32.118702,36.234272,18.740433,45.577022,57.718025,60.202331,17.267784,44.499859,58.107994,67.088493,12.131309,37.909389,51.949631,58.38073,6.397602,13.462669,13.341236,10.097156,-20.113777,-23.241682,-18.463015,-13.110687,1.03879,14.773786,16.736325,16.964135,18.115619,35.730554,36.418911,34.400364,28.508794,44.228078,43.023624,39.569318,36.275131,48.586755,52.131958,53.505336,24.709969,50.490384,72.622948,90.877831,54.542954,87.335724,104.539994,117.718026,46.991364,83.259636,102.895661,117.381707,38.197003,71.240387,88.721764,100.460427,28.540215,52.339302,63.067131,68.450123,-19.293607,-22.370754,-18.933627,-18.558592,5.253429,19.169959,25.722665,30.336755,23.001498,36.876309,42.754701,45.840764,36.888424,51.32877,55.133781,55.663489,47.152491,60.46667,61.318517,58.769176,-34.719498,271.867088,-70.617257,266.187186
35,14.881514,-19.691824,-1.675815,-11.138379,4.331096,10.361658,15.698873,18.074066,6.829736,26.033998,34.298932,34.394359,7.768426,27.040477,36.448596,42.045364,5.763868,24.172164,34.627109,39.156194,3.059074,9.132551,10.332418,8.790361,-16.499376,-16.140656,-7.757871,0.961294,3.170538,15.927179,17.72737,17.237239,18.511551,34.518129,34.875583,31.963218,28.333177,42.813914,41.466433,37.307401,35.468999,47.682508,49.828699,49.781237,24.661697,50.103332,71.031955,87.977497,52.520885,84.256016,101.218883,114.418567,45.41597,79.958599,99.177395,113.19041,37.31448,68.514702,85.933033,97.684582,28.276657,50.822422,61.636036,67.275581,-12.34429,-12.959447,-9.062416,-8.747217,6.520091,18.493125,24.050057,28.237599,19.46562,31.527748,36.698283,39.63344,29.7461,42.386866,45.575509,46.276241,37.570001,48.782579,49.408209,47.572641,-19.71104,252.31791,-72.166128,255.191453
36,26.518775,-24.362501,-1.912113,-16.482234,-3.694118,-6.614439,-7.627344,-8.675674,-12.39517,-4.916742,-3.028284,-6.471565,-9.484388,-2.066288,0.468407,0.890911,-8.11738,-0.520076,4.844719,7.095686,-7.062664,-5.565725,-4.910917,-5.794756,-13.564639,-10.833171,0.430802,12.076294,4.664527,16.106156,17.644958,16.331372,18.18194,32.256482,32.437393,28.928024,27.61224,40.382182,38.843905,34.232959,34.534752,46.054433,46.780476,45.402552,22.237724,45.827705,64.804973,80.236003,56.47578,87.51979,103.256813,114.472915,51.589645,85.2266,102.151199,113.564598,44.679462,74.892597,89.901168,99.033622,36.011226,58.036045,67.743919,71.975727,-13.871082,-17.387373,-16.518767,-18.090154,1.3891,10.076629,13.893151,16.765817,13.835612,23.167853,26.602769,28.400286,24.110201,34.699001,36.746509,36.870121,32.635685,42.325041,42.518283,40.427661,6.851972,228.547445,-74.034004,239.301255
37,28.284176,-22.61594,-1.221257,-19.953497,-13.264091,-25.457067,-33.079427,-37.79694,-30.740507,-37.186128,-42.227022,-48.955009,-25.371545,-32.672424,-36.70269,-40.785553,-20.596487,-26.646812,-24.862827,-23.345381,-16.115833,-21.890928,-21.871061,-21.606371,-8.174285,-4.123791,6.862243,18.594099,7.499118,16.094312,16.600845,14.643524,15.918515,25.724758,25.090378,21.5581,21.55429,30.567967,28.416373,24.003991,25.35165,33.937149,33.308166,31.434486,18.183169,39.046933,55.699248,68.870436,57.51269,85.574994,97.942126,106.168585,55.671376,87.312138,102.650322,112.570347,50.594988,78.730648,90.452855,96.520455,42.989891,64.175286,72.518463,75.27055,-14.944885,-22.065751,-24.966056,-29.274633,-4.958296,-0.032685,2.7527,4.757097,6.749622,12.363414,13.84396,14.331866,16.929326,24.14454,25.196347,25.006644,26.054684,32.6118,31.814917,29.513418,35.068845,207.031733,-75.322564,220.447986
38,24.558873,-25.525188,-0.35844,-22.213266,-18.334237,-36.639319,-50.105811,-56.621293,-40.625159,-61.797507,-67.45526,-71.665066,-34.781085,-57.547841,-62.708462,-65.380269,-28.991988,-48.950329,-48.600472,-45.570666,-23.168679,-38.591475,-40.197344,-39.259993,-12.568468,-13.581719,-6.352734,3.970398,-2.138441,3.636748,5.71066,4.589588,8.467847,15.492635,15.353524,12.31026,16.766744,22.391163,20.36675,16.605329,22.798703,28.133118,26.619424,24.531852,12.67515,30.157276,44.148062,54.509394,56.078024,79.363312,86.113398,90.327352,57.846497,86.679611,101.115131,110.648369,55.137709,80.235901,88.04599,91.098827,49.25647,69.520603,76.618515,78.330425,-16.190995,-27.537393,-34.908712,-42.985095,-13.193189,-12.110905,-9.370814,-7.522417,-2.348337,-1.238744,-1.967208,-3.086363,7.786029,10.546643,10.881972,10.749586,17.454421,19.291989,17.164175,14.889204,59.570212,182.953197,-75.73851,199.681372
39,19.342666,-23.655187,0.539314,-22.007723,-17.262657,-37.288278,-54.135458,-62.733948,-41.57694,-69.824667,-77.574331,-81.768253,-39.195768,-68.299324,-75.850124,-79.467625,-36.081831,-62.043011,-63.688465,-61.236265,-32.245903,-53.173582,-56.550516,-55.908114,-17.52309,-25.269914,-24.073358,-18.084485,-12.655805,-9.799361,-7.635018,-8.497641,-0.692923,2.940771,2.67982,0.558332,9.493694,11.18648,9.627754,7.019565,17.414923,18.960254,17.316573,15.475617,14.00841,31.128353,43.219729,49.963823,53.887945,74.194222,76.440336,77.049013,53.994209,80.079849,90.225163,95.963745,49.879355,73.387505,78.363499,79.146057,43.168259,60.847687,66.733898,68.495419,-11.422332,-23.534669,-34.944392,-45.165984,-15.43116,-20.685925,-18.723667,-17.115807,-10.227054,-15.649957,-16.919298,-17.783468,-4.835774,-8.961708,-8.802979,-8.144133,1.103578,-3.735172,-8.701974,-12.629683,78.938679,161.40268,-75.173395,179.778319
40,6.535177,-20.721857,2.395214,-24.253907,-12.803627,-29.688377,-45.703388,-54.326088,-33.330997,-60.838234,-68.504928,-71.941257,-35.044098,-63.165653,-70.29816,-73.193069,-35.853504,-61.058853,-62.486011,-60.064041,-35.565857,-56.797565,-59.581729,-58.352531,-21.263714,-35.294766,-40.27335,-39.469511,-22.866687,-22.571952,-20.804313,-21.514529,-10.507688,-9.666651,-10.569114,-11.993638,0.606611,-0.308607,-1.737243,-3.553465,9.531482,8.212447,6.154333,4.390077,6.041754,18.210892,27.04259,30.723147,49.31943,65.255562,62.952788,60.102877,53.800003,75.259667,80.206673,82.591896,52.641558,72.063618,71.626397,68.732517,48.355626,62.657089,63.867165,62.373814,-20.756068,-40.451269,-57.383071,-70.91409,-31.489151,-38.476707,-35.368342,-32.974949,-22.532658,-30.125124,-30.734564,-30.59758,-13.231156,-19.745016,-18.908193,-17.311049,-3.578616,-10.567744,-15.014792,-18.202707,85.606069,143.511641,-72.645968,158.35523
41,-4.989692,-14.268186,1.56847,-20.204741,-5.901764,-16.510277,-28.627865,-34.550949,-16.371449,-39.980473,-45.582665,-46.599312,-21.563576,-46.262158,-50.784966,-50.655385,-26.771931,-49.22477,-48.971466,-45.125679,-31.4152,-50.46777,-51.559193,-49.022644,-23.71428,-42.689625,-53.696433,-58.771937,-30.429655,-35.125811,-34.818093,-35.383857,-18.351312,-23.221014,-25.48563,-26.458159,-7.315812,-13.279874,-15.946149,-17.528793,1.863488,-3.993091,-7.405125,-9.248644,2.750571,10.748486,16.202494,17.005286,33.530211,47.437466,45.504072,43.777582,39.892388,58.721054,64.875252,68.703552,42.114836,59.12534,59.71716,58.222389,41.867466,54.290165,55.341534,54.459469,-21.059429,-42.363167,-61.097667,-76.317541,-35.303122,-44.539597,-42.461069,-40.617908,-26.341979,-37.28078,-39.74682,-40.589228,-17.23819,-28.207533,-29.44322,-28.853609,-8.068099,-19.344546,-25.754486,-29.657902,80.874127,131.933658,-70.819748,140.840692
42,-6.941025,-13.986635,5.095219,-17.828079,2.361992,-1.835129,-9.026425,-11.317864,-1.078549,-18.788452,-20.571224,-18.708195,-9.625694,-29.190228,-30.504582,-27.194561,-18.905743,-37.105751,-36.713585,-32.919685,-27.682045,-43.748074,-44.203594,-41.54686,-29.118262,-51.986866,-66.280876,-74.278342,-38.751462,-46.238965,-46.682787,-47.668657,-23.686091,-31.575147,-34.841565,-36.321349,-9.497559,-18.336961,-22.403247,-24.679732,2.67269,-5.769817,-10.849433,-13.785496,-1.998791,2.242184,4.789547,3.030441,22.945347,33.320652,30.336273,28.749069,31.158989,44.85862,47.322372,49.161838,35.637485,48.168102,46.757034,45.052963,37.907444,46.278637,44.574062,42.817051,-19.941283,-42.052031,-62.129257,-78.229491,-39.937073,-48.304427,-45.357469,-43.160469,-31.907284,-42.229705,-42.779963,-42.071038,-23.166624,-34.487358,-34.663322,-33.156489,-14.139894,-25.873287,-30.837884,-33.469866,74.336123,120.357108,-65.321508,125.422698
43,-8.620033,-8.038854,3.259609,-11.865002,7.078811,8.874206,7.32265,8.041305,5.71075,-3.320824,-6.063756,-6.30193,-5.650223,-16.258748,-18.260479,-16.908017,-17.145596,-26.952507,-26.909867,-25.20266,-27.459961,-37.879773,-37.646153,-35.579682,-27.491336,-51.378699,-67.907697,-79.369984,-38.960691,-45.79916,-47.835241,-50.419033,-25.510587,-32.335881,-37.093997,-39.871639,-12.603253,-19.968425,-25.065517,-28.746892,-1.537409,-9.120017,-15.201565,-19.556319,-3.143566,-1.681103,-1.866371,-5.595863,15.504982,25.278145,23.906365,23.701733,24.191517,34.566982,33.156578,31.645729,30.263191,40.508217,38.634796,36.974133,34.774063,40.71302,37.738541,35.747807,-19.456573,-41.108083,-61.451843,-77.366739,-40.062019,-48.296467,-46.188827,-44.564099,-32.415416,-42.268361,-42.150702,-40.434238,-24.343254,-35.994778,-36.791847,-35.5621,-16.191563,-28.379705,-32.882224,-35.084337,66.105023,114.491016,-61.672966,115.730458
44,-7.349156,-3.741346,3.441536,-8.999301,10.327881,16.201653,18.94297,21.788269,10.36409,6.024811,3.251862,2.344483,-2.325828,-8.245079,-10.027977,-9.602096,-14.829872,-20.202301,-20.055816,-19.493408,-25.759964,-32.996361,-32.255791,-30.588936,-26.150016,-50.154809,-67.994787,-81.708775,-37.817886,-44.821426,-47.609488,-50.785509,-25.850298,-32.766535,-37.69021,-41.306747,-14.220978,-21.244384,-26.228482,-30.424719,-4.10878,-11.408482,-17.270794,-21.704937,-10.968201,-15.077694,-18.300876,-23.19619,7.117722,14.787369,15.907333,17.88533,21.526051,29.736763,30.099255,30.044655,33.003765,41.429524,40.413609,39.491604,42.406448,49.060902,46.419743,44.546837,-24.857339,-49.222896,-69.631383,-86.161579,-42.92998,-48.572942,-48.52156,-49.187853,-30.170171,-37.771079,-40.776119,-42.002742,-18.032535,-28.136199,-32.030643,-33.665609,-7.133945,-17.828851,-22.075526,-24.02506,58.975536,112.290692,-58.011761,108.272179
45,-12.53183,-1.068289,2.183052,-3.174157,3.619732,4.445309,5.083008,6.324841,2.075009,0.345715,-2.342365,-3.65681,-4.070778,-6.258464,-7.466148,-7.175125,-9.915275,-11.53894,-11.396621,-11.13668,-15.20533,-17.383827,-16.810226,-16.091331,-24.643978,-46.184738,-63.164311,-77.752376,-32.207563,-40.890382,-44.8832,-48.847861,-21.2847,-29.702034,-35.940969,-41.071144,-11.614215,-20.744711,-27.255008,-32.717517,-3.88683,-13.624666,-21.085901,-26.253539,-10.181454,-15.208214,-19.977779,-26.15839,2.388542,10.623139,14.658039,19.083973,16.327366,25.428864,28.9277,30.953053,28.336304,38.304451,40.635739,41.973541,38.628182,47.322601,47.755531,48.091976,-23.788963,-47.08367,-66.728316,-82.885176,-36.775273,-42.401068,-44.850942,-47.69737,-23.848102,-31.116212,-37.153333,-41.322851,-12.347841,-22.443076,-29.224834,-33.552204,-2.726898,-13.296803,-20.013136,-24.545585,46.478096,111.936944,-55.794319,105.812563
46,-17.001766,-4.947319,6.293095,-1.458798,-2.431927,-4.746975,-6.030281,-7.840084,-0.801979,0.245693,-1.901333,-2.920074,-0.870609,0.649017,-0.085316,-0.396789,-1.545421,0.321522,0.587185,0.382542,-2.648838,0.269634,2.482212,3.586247,-23.861026,-41.02924,-55.005606,-68.982386,-25.657327,-28.041406,-32.899107,-38.348482,-15.909518,-17.020482,-25.215392,-33.692933,-8.266244,-11.80897,-20.395303,-28.553156,-3.231751,-10.488901,-20.254481,-27.77134,-12.635857,-18.150936,-23.816723,-31.687729,3.306919,8.143455,9.370491,12.159931,17.959122,24.278332,24.552463,24.998325,29.754638,37.472545,36.861053,36.931377,39.483673,47.486469,46.768101,46.619556,-21.788917,-44.122645,-63.277666,-78.868663,-36.027611,-38.703701,-39.659486,-41.876548,-24.201481,-27.915811,-31.566545,-34.522636,-13.091167,-19.076067,-23.631376,-27.264752,-3.516846,-10.67982,-16.028814,-20.348848,29.353363,107.403847,-49.624191,104.767987
47,-13.636482,-6.228721,2.582016,0.916673,-7.888779,-13.786972,-17.721954,-21.546822,-3.465019,1.495296,-0.471073,-1.953838,0.62392,6.301231,5.982365,5.176552,3.303577,8.643711,9.252743,9.319782,4.670849,11.519634,14.721393,16.231991,-20.762755,-33.9917,-45.953718,-60.083849,-17.897894,-14.798597,-21.517487,-29.451834,-8.91944,-2.752636,-13.363413,-25.579108,-2.876501,-0.727241,-10.809138,-21.280124,-0.394171,-4.655401,-15.126486,-23.333295,-10.956597,-15.427162,-21.087181,-29.196121,3.396663,9.233928,11.353832,14.327888,17.142689,25.114357,26.02454,26.515388,28.664829,38.180202,38.263675,38.546654,38.107704,48.909004,49.999431,50.492374,-21.414037,-42.570697,-60.593277,-75.291012,-31.145161,-33.83712,-36.418281,-39.532398,-19.371222,-22.868154,-28.371987,-32.801572,-8.891232,-14.032571,-20.417749,-25.948944,-0.343468,-6.631995,-14.402808,-21.288906,15.432999,101.414857,-47.326057,105.924391
48,-12.198212,-4.67684,2.812237,0.175352,-15.039585,-25.582981,-32.123142,-38.95047,-7.101551,-0.195865,-2.152061,-4.075802,4.371014,12.876961,12.767475,11.377053,13.038403,20.629681,20.800312,20.760121,18.654522,29.65115,33.399868,35.152897,-18.645432,-28.071083,-38.661007,-53.156855,-7.889733,-4.40399,-13.402835,-23.267333,-0.492818,6.003856,-7.00514,-22.426916,2.900589,4.360233,-8.173557,-20.778903,1.883844,-4.216782,-16.911678,-26.586869,-11.510743,-15.757725,-21.820656,-31.173146,3.348404,6.846439,8.835765,11.901981,16.980445,22.943332,24.087089,24.871135,27.99123,36.068092,36.620842,37.320476,36.811237,47.295215,49.460128,50.687496,-20.065685,-40.317788,-57.5547,-72.184885,-29.63995,-29.896715,-32.743569,-36.484804,-18.130069,-18.80823,-24.705438,-30.2604,-7.831397,-9.990772,-16.655185,-23.222953,0.695137,-3.016649,-11.326964,-19.463149,2.853012,96.908108,-44.895595,106.269834
49,-9.128345,-8.734664,6.658378,-4.785484,-23.926037,-41.101834,-52.038826,-61.706795,-13.437744,-6.024994,-8.500958,-11.155392,5.642875,15.260296,14.873955,13.358425,20.425483,29.232948,28.920639,29.505661,30.64302,45.465912,50.177879,52.948379,-16.340907,-22.528267,-32.103928,-46.82953,0.366353,6.889388,-4.289184,-16.940633,6.561203,17.261982,1.269946,-18.064527,7.579221,12.072786,-3.762521,-20.026326,3.033353,-2.032447,-17.61144,-30.524285,-11.888305,-15.202011,-20.565662,-28.873512,3.562489,6.458622,6.877476,8.229,15.785088,21.698673,21.383343,21.417893,26.18153,34.116108,34.092064,34.580567,34.252167,44.735974,47.310047,48.277428,-19.276508,-38.566331,-55.020469,-69.286018,-26.143562,-23.785869,-26.134404,-30.093878,-16.215405,-13.754361,-19.656891,-25.664379,-8.035118,-7.291223,-13.89312,-20.607143,-1.92397,-4.523847,-13.497287,-22.433813,-6.644932,88.374244,-38.606816,101.68515
50,0.25724,-8.01382,2.583653,-5.564743,-25.260521,-42.943623,-54.733875,-65.167122,-13.241112,-7.907078,-10.256275,-12.31596,6.727947,14.852085,14.325108,13.521938,21.978035,30.031906,30.545036,32.723763,32.691834,47.284767,53.652329,58.731651,-15.711244,-22.49578,-32.930519,-47.893484,1.071517,11.762558,0.01829,-14.199434,5.928274,21.125464,4.049653,-17.003094,5.777887,14.082088,-2.789933,-20.684122,0.096275,-2.079816,-18.496015,-33.425369,-11.810829,-14.387638,-17.921894,-23.679955,4.118339,6.905834,6.390243,6.277221,15.994205,22.306125,20.713531,19.741687,25.984508,33.86119,32.173942,31.34412,33.653492,44.041603,45.613552,45.386638,-18.129909,-36.016941,-50.959398,-63.777159,-26.655275,-24.685481,-25.787448,-28.510665,-17.714619,-16.349465,-20.546591,-25.126286,-9.884265,-9.856829,-14.696894,-20.03691,-3.50005,-6.1867,-14.225202,-22.441761,-6.704338,80.664638,-36.339809,96.424621
51,4.12532,-11.023017,6.08741,-20.210564,-16.286487,-29.170692,-37.463653,-44.069881,-8.598449,-4.900817,-7.056564,-9.513187,2.447651,8.737553,8.117077,7.922894,10.798783,17.059926,17.89864,21.040982,16.632317,25.998494,29.161126,32.070855,-14.422136,-23.175479,-35.27149,-50.067382,0.599942,10.80505,-0.366439,-15.313559,4.76184,18.288342,2.16061,-18.220435,3.729064,10.107672,-5.403278,-22.139073,-2.361626,-5.407514,-20.458615,-34.476688,-13.954251,-18.406884,-22.578026,-27.814431,0.033817,2.241462,2.104316,1.961883,12.088886,18.017784,16.935585,16.06335,23.088512,31.135471,31.090324,31.368335,31.869083,42.54158,45.959049,46.518825,-15.998698,-30.485641,-43.76495,-56.519491,-15.902695,-11.080364,-13.524822,-18.746184,-8.787917,-4.09002,-10.435752,-17.801526,-4.33286,-2.460229,-9.311135,-16.646374,-2.352308,-4.252652,-13.668546,-23.043895,-2.810103,69.955118,-30.483484,76.527554
52,7.799881,-7.775223,0.696796,-15.582976,-16.159446,-29.851535,-38.917762,-46.724407,-14.825866,-16.948574,-19.408596,-20.47158,-5.330417,-4.150348,-5.058586,-3.893909,2.677208,4.606648,5.439435,9.23988,9.089882,14.760968,17.427659,20.642762,-16.393827,-27.777688,-40.606818,-54.210989,-8.22429,-2.275194,-11.138681,-23.243213,-4.609143,2.949614,-9.990111,-26.40841,-5.357101,-4.081616,-16.857047,-30.145804,-10.012601,-15.920886,-29.642668,-42.195674,-15.797344,-22.922848,-28.741264,-34.756325,-2.917534,-1.321484,-2.289917,-2.96315,10.380215,15.573006,14.231209,13.436966,22.669636,30.372688,30.323685,30.346642,32.594399,42.678097,45.741257,45.929123,-14.939703,-30.385321,-44.086892,-56.704891,-18.133632,-14.491451,-16.308796,-20.722759,-12.313483,-8.439731,-13.65782,-19.432274,-8.655611,-7.581845,-12.925621,-18.712345,-7.020522,-10.260405,-18.040426,-25.231292,4.833114,62.641847,-29.943352,61.40653
53,0.671494,-12.096702,-0.874638,-14.976716,-4.295712,-10.393776,-15.389065,-18.877201,-6.596729,-10.38081,-11.844109,-12.364517,-6.778622,-7.892635,-8.746742,-7.612198,-6.827007,-6.844322,-5.72216,-2.499115,-6.291275,-6.387245,-7.322468,-7.391384,-17.252645,-32.946735,-48.782887,-62.552525,-21.015289,-19.2824,-23.938307,-32.513043,-17.689511,-15.185748,-23.431058,-33.985593,-17.305306,-19.556979,-27.761608,-35.820945,-19.269,-27.671496,-40.499711,-51.791898,-16.447013,-24.514514,-31.143379,-37.22367,-4.066371,-0.382335,-1.476665,-2.860015,9.920643,16.806382,14.791031,13.058373,22.864987,31.565644,30.637974,29.956776,33.271088,43.455174,44.855587,44.045655,-17.733978,-34.231971,-48.854388,-61.502719,-23.151693,-22.461231,-24.078122,-26.958217,-17.535876,-16.922775,-21.361771,-25.152005,-14.099256,-15.904634,-20.378711,-24.387294,-12.595257,-17.771429,-24.346329,-29.521594,5.409388,51.479531,-30.91321,47.3642
54,-2.877708,-17.038248,-3.778335,-17.366915,8.83271,12.245006,13.278636,14.251625,3.962688,-0.013035,-1.10344,-1.191571,-6.830338,-8.71558,-10.088425,-8.930066,-15.722043,-17.308983,-15.722626,-12.165608,-21.843579,-27.028725,-31.743519,-35.01923,-17.719694,-34.643617,-50.600714,-64.22748,-23.177084,-23.497501,-29.609285,-38.588314,-20.856282,-21.469679,-31.182951,-40.838462,-20.910406,-26.064132,-34.788761,-40.765504,-21.808609,-32.931883,-46.159346,-56.315844,-18.480457,-29.333656,-37.546074,-45.562512,-4.336956,-0.168537,-2.366924,-4.173443,12.031174,18.194561,14.736351,12.71561,26.322441,34.163795,31.058578,29.48172,37.643383,47.453327,46.718159,45.181045,-17.674338,-35.432534,-51.187701,-64.088122,-31.78143,-35.210504,-34.311344,-33.804355,-26.726195,-29.866278,-30.701298,-30.305107,-22.106295,-27.05882,-28.072583,-28.525207,-18.312239,-24.790987,-27.528333,-28.60502,2.262309,35.771754,-34.960916,31.327756
55,-7.527707,-19.071546,-2.045666,-18.851592,23.595784,37.784489,46.522671,53.696,19.71864,16.987244,16.627762,16.961071,-1.329734,-3.214679,-3.93069,-3.226432,-19.558433,-22.236648,-20.901088,-18.459217,-33.664821,-41.505317,-47.780593,-52.604072,-17.573482,-34.68483,-51.100226,-64.828961,-25.12841,-28.441894,-34.247242,-41.948778,-23.164352,-27.197055,-35.997712,-43.806545,-22.721231,-30.838817,-38.301799,-42.26205,-22.128137,-35.760356,-48.177425,-57.0661,-19.918728,-32.862579,-43.714737,-55.088562,-5.140446,-1.24229,-4.05851,-6.222896,12.391983,17.524372,13.245838,10.189785,27.56345,34.331829,30.807289,28.664658,39.594692,48.365811,46.937725,45.131527,-19.800238,-39.028681,-56.653514,-71.064041,-36.325439,-39.736674,-38.948973,-38.158413,-31.218921,-33.699299,-34.461898,-33.084413,-26.533145,-30.919369,-31.806581,-31.403314,-22.823489,-29.168288,-31.113395,-30.732383,-5.562716,18.402426,-37.3039,14.178382
56,-3.805984,-14.508704,-9.7584,-5.254293,24.826115,40.53043,51.051304,59.29834,21.521885,19.40245,19.960556,20.912304,2.469028,0.832397,1.537262,2.077881,-14.360699,-16.933239,-15.083473,-13.568127,-27.846268,-33.618897,-37.712574,-41.090607,-18.57629,-37.140638,-53.923251,-67.74169,-28.800275,-35.99941,-41.819942,-48.419394,-25.854774,-33.505971,-42.676433,-49.645047,-23.717241,-34.347117,-42.418489,-46.326265,-21.165497,-36.565142,-49.115006,-57.898607,-17.40358,-29.140697,-40.163212,-52.5504,-3.352478,2.580357,0.825257,-0.399582,14.159489,20.518467,17.202828,14.685539,28.913635,36.21769,32.55526,29.777447,40.663834,49.181866,46.180012,43.489769,-24.047598,-47.743189,-67.200219,-81.978877,-48.636291,-58.28701,-58.445042,-56.126468,-41.505107,-51.313851,-52.767406,-50.053402,-33.676921,-44.449354,-45.784089,-44.225954,-25.962164,-36.302215,-38.321046,-37.121939,-9.784315,5.63224,-47.477915,10.662607
57,-6.103203,-20.414798,-4.720962,-11.29646,32.642132,55.591747,70.953289,83.504482,32.624371,32.693607,33.368786,33.504902,7.8414,8.221516,9.158054,9.193359,-14.303696,-15.384979,-13.162571,-11.921402,-32.348202,-38.509151,-43.408596,-47.940857,-16.757759,-35.061779,-52.175282,-66.670067,-22.610728,-28.976918,-35.63368,-43.51441,-19.525128,-27.7025,-38.761567,-46.654085,-18.222312,-29.495072,-39.368956,-44.407679,-17.221992,-32.991658,-46.952636,-57.021046,-16.056816,-26.938923,-38.134884,-51.228093,-4.350403,2.515342,2.399769,2.496254,12.809257,19.508617,18.001098,16.394691,27.359321,34.552951,32.488048,30.713356,39.289913,47.431194,45.14114,43.314651,-26.659752,-50.431357,-69.867627,-85.489382,-48.338809,-59.818717,-62.303985,-61.42876,-39.566916,-52.488171,-57.330206,-57.251598,-30.760658,-45.247151,-49.827197,-50.234058,-22.538962,-34.898764,-39.025778,-39.641461,-16.498341,-13.16316,-52.8097,0.985545
58,1.510288,-16.315632,-1.008568,-13.324454,31.888756,54.049347,68.958367,79.903244,31.526459,29.191933,28.933731,29.288658,8.033833,4.540032,5.795975,6.722752,-12.681598,-17.257816,-14.478996,-12.189033,-28.947097,-35.604114,-37.701862,-39.329052,-15.375389,-31.241707,-46.487173,-60.629296,-14.662086,-18.002628,-27.08641,-36.604199,-11.338308,-15.492252,-29.381037,-40.108257,-10.151514,-18.526494,-31.623559,-39.90805,-9.591562,-22.404198,-35.403759,-44.86139,-16.101116,-27.543583,-39.112507,-52.432514,-6.484589,0.204689,0.487701,1.236305,10.644653,17.213299,16.590889,15.829147,25.57727,32.808334,31.571731,30.11285,37.897694,46.300014,45.421726,44.221081,-25.133085,-48.556856,-67.522976,-82.893617,-43.729301,-55.666403,-58.927319,-59.09223,-34.660457,-48.422765,-54.469989,-55.520913,-25.746254,-41.671537,-47.484276,-48.737099,-17.692654,-31.046607,-36.450743,-38.218491,-15.640498,-28.089796,-54.470713,-10.949913
59,4.251443,-6.445631,-2.157269,-4.875899,30.409232,51.003539,64.608785,74.265447,28.853425,24.42605,23.980222,24.499864,7.213374,0.579043,2.140984,3.031346,-11.532265,-18.637524,-16.543178,-15.238678,-25.772423,-33.355282,-33.673416,-33.554675,-14.899422,-30.71849,-45.991067,-59.728219,-16.007983,-19.583276,-25.35894,-32.165829,-11.285121,-15.74473,-26.222733,-34.433299,-8.427829,-17.215703,-28.142866,-35.694276,-6.511631,-18.374813,-29.195547,-37.24832,-14.897712,-26.002247,-37.958027,-51.446262,-7.963085,-2.024826,-0.931869,0.531624,8.955174,15.102688,15.218823,14.124974,23.783982,30.663941,30.057988,28.335148,36.422333,43.981739,43.255463,41.885205,-25.768206,-48.857562,-67.240437,-82.109103,-39.607023,-49.302023,-54.11782,-55.999009,-29.489514,-41.743803,-49.471015,-52.072727,-20.114493,-34.879671,-42.406552,-45.207625,-11.966625,-24.598357,-31.245282,-34.254886,-11.862542,-33.439052,-57.101469,-14.729437
60,8.231226,-2.638095,-0.801647,-1.822508,27.035451,45.036641,56.483611,64.506675,23.312991,16.381191,15.150413,15.235912,3.35402,-7.357561,-7.324093,-7.004883,-13.86167,-24.969374,-24.702118,-24.193325,-26.158599,-37.455665,-39.197342,-39.850934,-14.139605,-28.673563,-42.37683,-55.12446,-13.546321,-15.293864,-19.672795,-25.912071,-7.416844,-10.433858,-19.811774,-27.834057,-3.857441,-11.418754,-21.986816,-29.817755,-1.682001,-11.87832,-21.473124,-28.581233,-14.478378,-25.60873,-37.781456,-51.165047,-8.689945,-3.284546,-2.458076,-0.715175,8.351189,14.271515,14.423435,13.777908,23.482029,30.297581,29.337307,27.772076,36.394787,43.733574,42.680695,41.345547,-24.406967,-46.982893,-64.655102,-78.863797,-35.126672,-43.016584,-47.542043,-49.691174,-25.453779,-36.033736,-43.465979,-46.229717,-16.472379,-29.812913,-37.166832,-40.340266,-8.722171,-20.475313,-26.664674,-29.716052,-3.7394,-35.068377,-58.0112,-15.543175
61,7.361438,1.335087,0.373547,0.232268,24.509165,40.928049,50.72125,58.16728,18.270796,9.872091,7.862303,7.663084,-1.888453,-15.409927,-17.163483,-17.151947,-19.139483,-33.037851,-34.896137,-34.934681,-30.706278,-45.301632,-48.856132,-50.084993,-12.856223,-25.240703,-37.538869,-49.645775,-10.534102,-9.35993,-11.910586,-17.082971,-4.175282,-4.34609,-11.712225,-18.936894,-0.788775,-5.863751,-14.42204,-21.533122,0.914561,-6.85475,-14.63679,-20.724528,-14.695175,-26.076325,-38.288567,-51.285828,-7.953518,-4.14869,-4.754574,-3.690251,8.777149,14.079952,13.483268,12.354961,23.342537,30.265377,28.970958,27.440952,35.268596,42.905891,42.043854,41.161045,-22.182928,-42.810078,-59.300291,-72.480596,-30.438285,-33.707537,-36.738463,-38.544977,-21.230718,-26.103418,-32.009172,-34.297043,-12.622537,-20.209718,-26.559692,-29.842276,-5.418135,-12.695242,-17.746914,-20.789647,3.624132,-32.475919,-57.635559,-14.053536
62,5.281906,7.431823,0.538994,3.511425,22.681246,37.410708,46.51557,53.891745,13.090582,4.755736,2.987967,2.839422,-5.251379,-20.35469,-23.394756,-24.701271,-20.686655,-36.152658,-40.654106,-42.710209,-30.231657,-46.097202,-50.624599,-52.443838,-13.316183,-24.085872,-34.880045,-46.389936,-9.475972,-5.614224,-6.443656,-10.6607,-2.198948,1.124366,-4.40546,-11.721402,1.86798,0.139185,-6.694038,-14.180025,4.246298,-1.198746,-6.959997,-12.367111,-15.601845,-26.738114,-38.806286,-51.591031,-6.482243,-4.36274,-5.576054,-4.853898,9.905994,14.715408,14.634304,14.031612,23.724506,31.071464,30.893612,30.515064,34.605903,42.397579,42.941711,43.811519,-19.866837,-38.718922,-54.060818,-66.193391,-25.672456,-24.394006,-25.76581,-27.233482,-17.014412,-16.134747,-19.933113,-21.525613,-9.4726,-11.080284,-15.606527,-18.412806,-3.411642,-6.110598,-9.730976,-12.217016,9.073797,-23.853477,-56.928806,-9.351492
63,4.293217,7.17307,-0.723931,2.954936,19.063917,33.043356,42.481081,51.000726,11.062998,5.031504,2.648912,1.440462,-6.80321,-20.017719,-25.512817,-28.477982,-22.288187,-37.142893,-44.947632,-48.870815,-32.409857,-48.344273,-54.735718,-57.803667,-13.477241,-22.542464,-31.644132,-42.567913,-4.706555,1.779035,0.520148,-4.915522,3.659073,8.750906,2.402974,-6.534065,7.081678,7.178633,0.658379,-7.607392,7.558003,4.197518,-0.77691,-6.514919,-14.373493,-25.652893,-37.397621,-49.559131,-6.972439,-5.933281,-6.463337,-4.938743,8.669129,13.546463,15.483639,16.924336,21.90263,29.709709,31.703465,33.29282,32.470013,40.936833,42.96563,45.109406,-17.898832,-34.416024,-47.811578,-58.867341,-19.10031,-14.412929,-15.437652,-17.875194,-10.30631,-5.147644,-8.566962,-11.653723,-3.283578,-0.261747,-4.839213,-9.312493,1.557574,2.41241,-1.116459,-4.729908,13.587513,-15.765361,-57.432238,-5.48151
64,2.377375,6.78088,-0.412685,0.859856,16.755344,30.122982,40.220705,49.816781,9.943494,6.223546,3.62504,1.728994,-7.773087,-19.117166,-25.758121,-29.724735,-23.394787,-38.09422,-47.823394,-52.981075,-34.281414,-50.715877,-58.182838,-61.983149,-13.169089,-20.933877,-29.015322,-39.966432,-1.048124,7.564015,5.383645,-1.593409,7.596488,14.258468,6.659269,-4.263548,10.262397,11.76923,4.873178,-4.310617,9.100368,6.781836,1.911575,-4.101272,-13.311894,-24.739575,-36.254265,-47.801171,-8.326138,-8.676773,-8.6311,-6.51828,6.660473,11.416775,15.597473,19.226578,19.468414,27.758457,32.446598,36.191803,29.63483,39.113296,43.64344,47.529133,-16.318083,-30.196328,-41.590217,-52.169199,-12.010455,-4.881018,-6.351159,-9.968048,-2.453875,5.484962,1.539629,-3.600518,4.394005,10.149286,4.972211,-1.169478,8.075552,11.523411,7.330997,2.184983,16.179019,-8.156578,-57.630792,-3.793751
65,2.568873,6.53181,0.267631,0.407849,14.740365,27.370774,37.506228,48.440875,9.850493,7.27928,4.638591,2.223212,-7.138599,-16.829859,-23.815842,-28.066487,-22.319209,-35.753921,-45.839573,-51.182179,-33.428287,-48.642597,-56.216377,-60.153703,-13.238369,-21.147305,-28.964831,-39.967024,-0.956121,7.810455,5.212572,-2.093226,8.220862,14.280455,6.421716,-4.599371,11.014406,12.443274,5.692473,-3.148684,9.699051,7.97261,3.271576,-2.649782,-12.722831,-23.978462,-35.486297,-46.532238,-10.213554,-10.963279,-9.702438,-6.185909,4.103943,9.402043,16.402897,22.51204,16.362099,25.522614,33.275345,39.388665,26.003815,36.973687,44.16156,50.016003,-15.384553,-27.297171,-37.095905,-47.226832,-5.60012,1.51128,-1.358941,-6.176912,4.910331,13.152746,7.737475,0.693056,11.408333,17.697872,10.993957,2.995007,13.945522,18.101312,12.439096,5.313179,18.708547,-1.038306,-57.402506,-2.79944
66,0.61078,1.568202,-1.244899,2.553917,13.740005,26.554298,36.592987,48.032066,12.217071,10.101631,7.73822,5.337021,-4.151963,-12.607533,-19.095074,-22.979336,-18.994492,-31.340195,-40.516194,-45.428685,-30.366257,-44.602558,-51.347535,-54.713013,-12.563066,-19.866003,-27.323953,-38.347618,1.388587,10.512995,7.181813,-0.637969,10.950243,17.490915,8.720035,-2.590807,13.951116,16.041034,8.597287,-0.260667,12.323301,11.600673,6.460198,0.347321,-12.441857,-22.995186,-34.289372,-45.838349,-9.681759,-8.887219,-6.054211,-1.521893,4.734352,10.674728,19.21273,26.677677,16.969631,26.630424,36.103408,43.657756,26.668567,38.188476,46.767631,53.996521,-16.1715,-28.359068,-38.168998,-48.529562,-5.189628,0.112713,-3.444388,-8.088168,5.653003,11.67625,6.062995,-0.673073,11.799763,16.114116,9.589222,2.231617,13.684219,16.456009,10.89562,4.100326,19.334193,0.964993,-58.632539,0.189574
67,-1.169953,0.859034,-1.418862,1.162131,13.715973,27.013413,37.096733,48.857804,15.211098,14.132744,12.003136,9.606606,-0.955238,-7.96978,-13.474273,-16.594311,-15.834583,-26.807052,-33.916088,-37.545112,-27.740696,-40.470829,-45.431923,-47.698631,-12.296304,-20.060887,-27.851208,-39.505616,1.568411,9.843813,5.179835,-3.417663,11.273199,17.230187,7.001151,-4.626384,14.530564,16.418218,7.831157,-1.056765,13.050147,12.188346,6.110228,-0.356145,-11.47451,-21.629459,-32.85355,-44.692692,-9.535663,-7.483715,-3.877098,1.272366,4.84623,11.476227,20.085331,27.239777,16.940197,27.112187,36.184044,43.147774,26.554241,39.284203,47.227661,53.547318,-17.654178,-30.414406,-40.696931,-51.686553,-5.931739,-2.191702,-6.961767,-12.012938,5.42192,9.688009,3.0871,-3.997846,11.975319,14.51767,6.909185,-1.015795,13.875601,15.375185,9.038698,1.429923,18.278509,2.520815,-59.937132,2.048493
68,0.050354,0.305443,-0.863537,2.819832,13.669922,26.654709,36.478638,48.768471,16.05764,14.539582,12.746521,10.701073,0.388573,-6.683029,-11.298111,-13.701381,-14.01765,-24.348427,-29.848812,-32.470962,-25.786033,-37.504829,-41.061355,-42.380745,-12.428629,-20.912407,-29.082265,-40.820944,-0.325141,7.244441,2.051916,-6.308058,9.675462,14.583477,3.898081,-7.22089,13.727085,15.020491,5.840502,-2.799443,13.425453,12.020878,5.274738,-1.340614,-12.332016,-21.358554,-32.514896,-44.823349,-8.109581,-4.868751,-0.793178,4.411251,6.72654,14.064389,22.400792,28.764153,18.950501,30.047722,38.845551,45.443882,28.328865,42.235005,50.255768,57.018059,-19.0481,-33.465203,-45.006275,-57.021794,-8.852879,-6.597074,-12.881043,-18.033825,2.233383,4.781933,-2.942845,-9.694172,8.527065,9.256702,1.011108,-6.609622,10.453684,10.79023,4.144095,-3.582549,18.563244,3.582571,-60.566288,5.624638
69,0.167816,-1.918567,-0.39838,3.690446,13.477982,26.675675,35.857361,48.537117,17.795723,15.343232,13.745362,12.068345,2.63031,-4.727027,-8.900642,-10.576652,-11.457412,-20.595222,-24.769283,-26.392822,-23.143386,-33.146438,-35.369155,-35.801651,-12.768417,-21.653455,-29.800243,-41.112245,-1.446887,5.20966,-0.236801,-7.948896,9.467801,13.102548,2.44912,-7.326452,14.64805,15.418855,6.245331,-1.67582,15.630628,14.516126,7.461568,0.660816,-13.470783,-21.674927,-32.990444,-46.20805,-6.600643,-2.369648,2.713635,8.165726,8.386231,16.098461,24.352558,29.759434,20.457379,31.905338,40.316666,46.139534,29.60923,43.673824,51.50425,58.560585,-20.064154,-36.561913,-49.526029,-62.153007,-13.505631,-12.374511,-18.852395,-23.722452,-2.635489,-1.077193,-9.058693,-15.328861,3.66777,3.651511,-4.512029,-11.6572,6.366362,6.16303,-0.299607,-7.794934,19.099794,2.334082,-60.595934,9.985162
70,-1.965751,-4.881401,-1.462154,2.865132,13.935081,27.996025,37.258003,49.880127,20.310608,17.717628,16.027725,14.582519,4.70105,-2.886154,-6.842537,-8.213791,-10.037499,-19.045109,-22.546898,-23.72786,-22.544186,-32.309521,-33.571987,-33.32206,-12.128664,-19.635483,-27.258392,-38.36006,2.140078,9.793881,3.153167,-5.385186,13.314235,18.175381,6.31674,-4.056749,18.347894,20.405516,10.222385,1.661209,18.727992,18.514984,10.558184,2.983625,-14.112374,-21.561894,-32.638241,-46.339554,-3.983677,1.226188,6.501159,11.41373,10.844124,18.811706,26.367233,30.773494,22.791504,34.952327,43.096481,48.464561,31.797329,46.307831,53.941715,61.041252,-20.992874,-39.206374,-53.553353,-67.282347,-17.392145,-16.153586,-22.576975,-27.544666,-6.807143,-4.897203,-13.25472,-19.943771,-0.435834,-0.192111,-8.690166,-16.050241,2.510043,2.665037,-3.973379,-11.773346,17.5154,-2.050827,-61.676731,13.346786
71,-1.189591,-1.469586,0.671917,0.791745,14.045266,28.41314,37.85598,50.822869,21.360649,18.696053,16.932953,15.600037,5.316262,-2.495773,-6.192329,-7.317695,-10.083938,-18.949848,-21.86713,-22.592582,-23.432121,-32.801616,-33.31319,-32.628696,-12.03313,-19.201859,-26.79117,-38.023582,2.828027,10.395558,2.745071,-6.230641,14.128809,18.54681,6.093098,-4.269349,19.013335,20.992423,10.498114,1.984763,19.208343,19.04392,10.547779,2.606053,-14.656803,-22.310829,-33.475319,-47.14991,-4.598088,-0.820187,4.249649,8.868793,10.297062,17.212669,24.139766,27.787502,22.352268,33.803947,41.162063,45.546215,31.650203,45.514652,52.788746,59.523662,-20.751096,-39.460476,-54.392442,-68.559636,-19.534878,-17.186417,-22.734735,-27.771519,-9.268477,-5.800537,-13.822236,-20.816354,-2.708922,-1.026365,-9.016585,-16.366477,0.987828,1.76329,-4.507613,-12.076163,16.745109,-3.245352,-60.585514,14.413592
72,-1.025985,-2.103917,-0.040284,0.36933,14.198661,28.999328,38.561485,51.241767,22.52362,19.261596,17.764,16.721237,6.323433,-1.948174,-5.272293,-6.223618,-9.413521,-18.430344,-21.101212,-21.819294,-23.126896,-32.601574,-32.830101,-31.959881,-11.499131,-17.676846,-24.94821,-35.815659,4.589229,12.456861,4.531239,-4.482011,15.914107,20.881334,8.583067,-1.416486,20.722333,23.323674,12.817509,4.449469,20.528184,21.166306,12.478857,4.413592,-14.721942,-22.64439,-33.841106,-46.932392,-4.081409,-0.649417,4.450985,8.829106,10.487893,17.113965,24.060792,27.615773,22.454625,33.720784,41.23248,45.585606,31.885083,45.429955,52.870686,59.565651,-20.680794,-39.421463,-54.425659,-68.693567,-19.815819,-17.309129,-22.41782,-27.32938,-9.708159,-5.875527,-13.688887,-20.80259,-3.209509,-1.063021,-9.010194,-16.506058,0.53064,1.923679,-4.412469,-12.157656,16.171521,-5.353817,-60.173401,14.778374
73,-0.756798,-0.749928,0.832913,0.658691,14.665581,29.712181,38.974937,50.733879,23.674347,20.269775,18.202057,16.580406,7.246536,-1.42289,-5.251122,-6.617867,-8.778832,-18.158169,-21.09763,-22.105259,-22.850373,-32.59235,-32.924423,-32.103516,-11.381842,-16.844882,-24.166159,-35.029193,6.297721,13.732471,5.1971,-3.893153,17.49819,22.378337,9.63974,-0.444609,22.152386,24.901064,13.86663,5.305948,21.60366,22.567868,13.332964,4.863494,-15.311108,-23.781281,-35.106182,-47.79118,-5.113541,-2.22892,3.367802,7.840176,9.169567,15.383537,22.225914,25.486221,20.877891,31.48138,38.656437,42.628498,30.294628,42.683887,49.575313,55.689056,-20.042102,-38.929367,-53.964129,-67.806639,-20.248645,-17.169016,-21.498585,-26.537715,-9.96136,-5.322576,-12.875677,-20.487613,-3.223921,0.008497,-7.50638,-15.100896,1.071061,3.500835,-2.493636,-10.048984,15.762446,-6.164806,-58.992765,15.376004
74,-0.498322,1.603788,-0.62249,0.239919,15.034172,29.878693,38.787094,49.750969,23.664551,20.236908,17.936486,16.13015,7.015824,-2.147278,-6.001419,-7.389129,-9.19004,-19.222263,-21.979614,-22.868602,-23.257072,-33.576416,-33.900398,-33.038372,-11.543159,-17.177458,-25.020902,-36.290062,6.062977,12.659773,3.934977,-5.165885,17.006805,21.220745,8.356616,-1.589628,21.421008,23.616186,12.324907,3.638285,20.554236,20.844191,11.344749,2.689731,-14.847462,-23.453842,-34.919506,-47.108002,-5.280006,-1.925926,3.670979,8.361866,8.979115,15.815495,22.873398,26.331745,20.802097,31.803852,39.1451,43.390503,30.223228,43.131569,49.913132,55.785095,-20.512857,-39.147915,-53.979684,-67.938266,-19.139009,-17.159414,-22.556993,-28.091775,-8.676982,-5.480664,-13.946565,-21.930696,-1.936783,-0.074755,-8.696786,-16.985593,2.004215,3.533723,-3.52031,-12.200362,15.564205,-4.573112,-59.315174,15.603829
75,-1.088928,0.796679,0.810322,0.32548,15.872017,30.851212,39.328972,49.18055,23.614357,20.349632,17.696755,15.377998,6.624573,-2.670135,-6.954575,-8.602272,-9.784286,-20.184883,-23.083603,-24.024136,-23.807831,-34.391624,-34.742878,-33.883038,-11.790407,-17.675308,-25.645434,-36.913291,6.339915,13.022705,3.829841,-5.615854,17.16906,21.470267,7.778891,-2.413298,21.249552,23.414015,11.279368,2.17196,19.975567,19.896539,9.937303,0.89556,-15.073792,-24.588055,-36.641716,-48.878712,-7.642124,-5.105862,1.061943,6.166569,7.064987,13.430031,20.540863,23.740402,19.108154,29.064216,35.534237,38.947208,28.898575,40.704769,46.68988,51.65625,-20.311099,-38.963163,-53.632066,-66.927183,-19.740143,-18.786537,-24.52399,-30.395627,-8.927899,-6.547346,-15.446828,-23.504084,-1.540666,-0.311148,-9.146563,-17.371267,3.366491,4.72734,-2.600501,-11.207835,14.941257,-3.626472,-58.038872,16.07927
76,-1.538521,3.04261,-0.597977,1.168386,17.688607,32.768944,40.631836,49.373703,23.418938,20.609688,17.369866,14.443222,5.456635,-3.377037,-7.851791,-9.593376,-11.418663,-21.577743,-24.309162,-25.037132,-25.439312,-35.768177,-36.094883,-35.153961,-12.488391,-20.180276,-29.123254,-40.579598,2.891451,8.403064,-0.426072,-9.242135,13.47996,16.131962,2.661356,-6.384838,17.472946,18.116533,6.068553,-2.296881,16.40278,14.884918,4.895752,-3.729083,-14.41135,-24.561802,-36.677788,-48.489452,-6.932487,-3.776459,1.368691,5.912659,8.045162,14.608956,20.549664,22.994156,20.239781,29.673969,34.622589,37.002159,30.052998,40.998848,45.301975,48.550964,-21.214064,-40.291347,-55.236762,-68.030355,-22.171448,-23.144863,-28.628547,-33.841004,-10.921295,-10.721051,-19.149939,-26.104919,-2.644826,-3.291408,-11.987774,-19.561548,3.066699,3.490504,-3.734239,-11.868188,14.010607,-0.367563,-58.028978,17.463955
77,-0.823814,1.856983,-0.353428,2.240552,18.909599,34.016807,41.033821,48.444328,22.943069,20.422256,16.660034,13.074257,4.346741,-4.309982,-9.440987,-11.67825,-12.750446,-22.913853,-26.103104,-27.078415,-26.904328,-37.051357,-37.596737,-36.742287,-13.443935,-22.468208,-32.289704,-43.779986,0.39679,5.847134,-3.333787,-12.528103,11.050452,13.152801,-1.428435,-10.846163,15.22838,15.182895,1.842984,-7.137545,14.783215,12.785009,1.83902,-7.457418,-14.127331,-24.594509,-36.406128,-47.59061,-8.208893,-5.310585,0.490837,5.879311,7.428463,13.32383,19.132405,21.522904,20.299587,28.581631,32.937058,35.002499,30.799393,40.319229,43.527809,45.789379,-21.751243,-41.672315,-57.434953,-70.348743,-25.211761,-28.009653,-34.049819,-39.8684,-13.762864,-15.620965,-25.142143,-32.543782,-4.641809,-7.41657,-16.735621,-24.487854,2.363392,0.949209,-6.702717,-14.642177,14.009216,1.613313,-57.559983,19.8284
78,0.885795,7.157867,-2.126278,3.287277,19.775002,33.648194,39.169533,45.343873,20.12233,16.626114,12.906373,9.506218,1.142579,-7.56768,-11.761333,-13.299934,-15.789848,-25.595718,-27.931823,-28.442699,-29.487922,-39.03622,-39.539085,-38.76551,-15.06547,-27.532354,-39.066621,-50.823393,-7.932816,-4.487267,-12.258457,-20.163276,2.477568,2.11686,-11.08951,-18.605023,7.441375,4.871613,-7.449977,-15.102434,8.630015,4.82724,-5.783568,-14.337001,-12.834583,-22.331096,-32.594478,-42.788749,-8.878292,-3.844333,2.336724,8.018853,7.050316,14.458775,20.714894,23.384262,20.829907,29.917752,34.274243,36.269497,32.46278,42.104382,44.527016,45.794884,-23.604169,-44.681141,-61.561616,-75.476472,-28.347904,-35.258238,-41.922071,-47.222683,-16.257611,-23.338235,-33.968871,-40.748356,-6.201983,-14.546279,-24.872813,-32.004534,1.648699,-4.697428,-13.024817,-20.253233,16.118476,8.699608,-58.462796,23.044105
79,4.551568,9.463405,-1.572418,3.059795,18.449386,29.887687,33.015701,35.827835,16.231315,7.230468,3.355705,0.803672,-2.042931,-15.092114,-18.747185,-19.480328,-18.293015,-31.185151,-32.828373,-32.474911,-31.63551,-43.199147,-43.649151,-42.453885,-18.336186,-34.424595,-47.650329,-58.655352,-14.81338,-16.706982,-23.666185,-29.180009,-3.228911,-9.272602,-21.314661,-26.751841,3.400348,-4.740981,-16.630102,-22.715852,6.441019,-1.33342,-11.585526,-18.840965,-11.901615,-20.04182,-28.150028,-36.459915,-10.600353,-3.369987,4.190472,10.730427,4.47591,13.933262,21.493149,25.160168,18.162289,28.538338,33.811054,36.116078,30.374245,40.31543,42.746315,43.346363,-24.335572,-46.998646,-64.80707,-78.967928,-31.006568,-41.089632,-48.465422,-54.415062,-17.654042,-28.359717,-40.284339,-47.534016,-6.080298,-17.861381,-29.303905,-36.78356,3.263441,-6.215037,-15.163277,-21.949981,22.031205,17.450111,-58.674053,25.390998
80,7.576515,14.009094,-3.420799,8.0309,15.138405,22.102455,21.165527,20.221504,8.391792,-7.469044,-11.3088,-12.722763,-8.266686,-26.860474,-28.587525,-27.565201,-22.926155,-39.724858,-39.72694,-38.06123,-35.168164,-49.417443,-49.16573,-47.457642,-22.081398,-41.956046,-56.832857,-67.281798,-24.55042,-32.497933,-38.290523,-41.628596,-11.673335,-23.998872,-33.786158,-36.477469,-2.606979,-17.218948,-27.609227,-31.264259,3.296082,-9.323954,-18.665853,-23.767438,-10.257672,-15.885704,-20.649674,-26.470104,-10.464214,1.184738,10.125835,17.007683,2.995285,16.684433,25.817722,30.830108,16.395573,29.916836,36.831516,40.12001,29.316479,41.191223,44.165989,44.672138,-27.555677,-52.322773,-71.393344,-86.454566,-36.478944,-50.966048,-59.105876,-64.638726,-22.083559,-38.557136,-51.186874,-57.554761,-9.185096,-26.680117,-39.082292,-46.136783,1.219342,-12.907275,-22.43637,-28.614918,30.848706,29.814245,-60.853866,31.776938
81,9.200466,16.265367,-3.839585,7.936861,7.53384,7.939693,2.578182,-1.615179,-4.437023,-25.744898,-30.591545,-32.446444,-17.164473,-40.610756,-42.945803,-42.36323,-28.151653,-48.771732,-48.171661,-45.576073,-37.423885,-54.451693,-54.050383,-51.827534,-23.951617,-44.935417,-59.368884,-67.923582,-32.641607,-45.272265,-51.391012,-54.712783,-19.366933,-34.982087,-43.706241,-45.887809,-8.213509,-24.942168,-33.392233,-35.650474,0.495849,-13.132988,-20.818003,-24.403269,-8.549697,-10.732257,-11.459815,-13.939304,-10.36354,5.77921,16.971154,24.262688,0.865059,19.243516,30.950158,37.320328,13.241227,30.451973,39.869786,44.399415,26.099522,40.207524,44.510983,45.412652,-29.199837,-55.084881,-74.411525,-89.252786,-39.888339,-57.317887,-66.10397,-71.797994,-24.583697,-44.157565,-57.478852,-63.90095,-10.656015,-31.021981,-44.357099,-51.615397,0.663811,-15.835881,-26.113947,-32.510734,41.079569,43.340036,-63.663054,36.974223
82,10.095314,21.744901,-3.003261,7.517267,-3.141804,-11.397686,-21.610416,-27.939989,-21.865551,-47.427515,-54.578911,-58.252333,-29.276453,-56.38908,-60.873373,-62.092329,-35.081497,-58.737854,-57.281662,-53.191795,-39.684792,-59.102697,-58.569838,-55.396546,-23.969574,-45.291679,-58.114912,-63.979447,-43.320822,-61.690607,-68.347415,-71.762417,-30.911796,-50.174053,-56.894258,-57.800179,-18.092426,-35.369595,-39.118169,-38.249616,-6.440549,-19.321892,-23.342187,-24.114549,-6.204941,-4.659828,-1.015343,-0.314896,-5.50454,13.329506,23.47308,28.821316,2.904716,23.653324,34.294922,39.975746,12.445347,31.134201,39.676002,43.379002,22.563629,36.893681,41.092712,41.688503,-29.858233,-55.592402,-73.580217,-86.571768,-42.286473,-61.368943,-68.45166,-71.835595,-26.812869,-47.238794,-57.471961,-61.026759,-12.136179,-32.728021,-43.163174,-47.683465,0.088111,-16.589107,-24.89232,-29.000519,52.030111,61.148713,-65.811087,40.555266
83,8.707603,16.968643,-4.537491,13.352659,-13.47694,-29.91037,-44.743663,-54.497572,-36.961704,-66.287092,-75.840225,-80.833345,-38.762758,-69.59951,-76.315412,-78.540064,-39.49673,-66.550266,-66.970253,-63.441719,-39.438572,-61.386755,-63.069734,-60.901176,-23.233281,-41.964191,-51.450795,-55.038587,-43.556678,-63.584085,-71.971103,-76.645115,-30.946296,-48.613608,-53.257665,-53.912917,-17.233466,-31.779062,-33.042856,-31.397105,-4.663021,-13.976795,-15.141109,-14.402444,-3.159273,2.335871,9.883438,14.03809,5.170178,25.705719,34.182226,37.2913,11.264162,33.289032,41.403585,45.237328,17.625532,37.06846,43.416327,45.238169,24.106487,39.170385,42.477493,42.005024,-30.645717,-56.001597,-72.492409,-83.841638,-45.813875,-63.797019,-68.799318,-70.383812,-30.477623,-48.134125,-55.078206,-56.649331,-15.167983,-31.95436,-39.57969,-42.547973,-1.881646,-15.135289,-21.574754,-24.635164,61.14743,73.158915,-69.938862,48.949484
84,-3.595584,17.079484,-6.630295,20.95641,-19.878863,-40.029294,-56.089863,-65.261107,-44.755297,-70.386389,-80.932961,-87.252154,-41.891442,-70.181391,-78.138131,-81.034321,-38.267933,-63.68969,-65.538317,-62.919726,-34.104859,-54.466582,-57.824009,-57.029778,-21.473412,-37.389019,-44.813691,-48.034685,-41.238759,-56.941879,-65.707517,-72.367808,-28.532812,-39.518025,-42.742079,-44.19325,-14.308916,-21.260543,-20.753516,-19.58099,-1.083185,-3.118565,-2.352835,-1.598823,0.784579,10.818083,22.320534,29.483162,21.477436,44.4165,50.101176,49.928461,26.524882,49.865948,53.445322,53.761094,30.291613,50.33856,52.171297,50.576483,33.144093,49.158938,49.760273,46.949032,-32.879242,-57.940338,-73.31598,-83.782252,-52.147145,-68.488228,-69.971241,-68.157585,-37.211209,-51.761412,-54.472638,-53.174073,-21.623858,-34.436275,-38.393347,-38.726919,-7.389598,-17.073813,-20.911123,-22.162133,57.637351,84.912259,-76.483652,64.579754
85,-14.265175,18.706707,-5.278427,17.823799,-22.900572,-42.114876,-55.370121,-61.260744,-43.491904,-61.329031,-71.020066,-77.219199,-36.552372,-59.647528,-68.475312,-71.545842,-29.395375,-51.30621,-54.287653,-52.266466,-22.088356,-39.282572,-44.141934,-44.4814,-20.397689,-34.515673,-42.054114,-46.284715,-35.997927,-45.986158,-53.813301,-61.120687,-22.067686,-25.987114,-28.431192,-31.085379,-6.986565,-5.519455,-4.344203,-4.728417,6.735467,12.719224,14.644953,14.279314,5.17325,19.266192,33.75911,42.782501,36.364426,60.777271,64.195238,61.731085,40.563063,65.294781,66.215498,63.48246,41.477984,63.068556,62.782866,58.793295,40.326336,56.809702,56.916882,53.332695,-31.582699,-54.301027,-68.014707,-77.455329,-50.829434,-62.452464,-60.297878,-56.163765,-36.440187,-45.854157,-44.04513,-40.315698,-21.011905,-28.604183,-28.611939,-26.641295,-6.121602,-12.256836,-13.82517,-13.693336,43.19937,98.531452,-81.934885,77.316039
86,-18.931938,20.642657,-3.580627,22.180403,-20.695067,-36.446801,-46.477055,-50.387707,-34.1416,-42.944253,-49.660653,-54.718861,-24.796904,-40.315619,-46.890147,-48.834315,-17.37996,-33.165917,-35.825381,-34.093352,-10.776307,-24.641076,-29.551055,-29.85458,-12.694915,-20.899511,-24.180563,-25.483787,-26.138536,-33.558135,-38.008163,-41.925569,-15.823593,-16.93297,-16.869765,-18.369596,-3.952292,-0.260411,1.555122,0.839842,6.829432,13.392336,15.553622,15.243669,9.852836,27.299583,43.792763,53.56101,51.560434,75.561493,76.252001,71.661558,54.424278,78.589216,75.741565,69.545574,52.299671,73.333448,69.847641,62.769887,47.084118,63.322689,62.122152,57.057941,-29.967361,-49.922328,-61.970652,-71.229073,-44.889728,-48.973561,-43.53271,-37.820572,-31.040278,-33.089774,-27.697981,-22.661639,-16.234239,-17.11129,-13.684401,-10.397714,-1.677429,-3.080074,-2.100314,-0.823062,23.933705,114.908582,-85.849239,95.230915
87,-11.237549,21.845566,-3.201233,27.240379,-21.716978,-36.213387,-44.305378,-46.511547,-31.465479,-38.495545,-43.478611,-47.603131,-18.807318,-32.633051,-35.605563,-35.569571,-10.051197,-24.099976,-26.856371,-25.911158,-3.187455,-16.681698,-23.319666,-25.196148,-11.486595,-15.651805,-14.895289,-12.011081,-18.071807,-21.789012,-21.371749,-20.940111,-6.005128,-3.379402,-1.579374,-2.670201,7.150853,14.417984,14.305268,11.464211,18.116247,26.67553,27.919452,26.955605,14.552456,35.006252,53.008713,63.033365,65.026068,89.520035,87.95886,81.568868,66.343128,90.824907,84.843853,75.436752,62.056045,82.95659,77.0686,67.060369,54.191185,71.306831,69.074243,62.224685,-27.907009,-45.217267,-56.378405,-66.393515,-36.537287,-30.158939,-21.427341,-15.197462,-22.721713,-14.879793,-7.280553,-2.668461,-8.608971,-0.84331,4.45976,7.262342,4.889703,9.725165,13.018441,14.387435,12.284117,133.540706,-89.462511,119.257852
88,-16.591702,27.015707,-2.657238,24.13286,-22.292227,-33.78511,-39.728737,-39.319748,-21.656187,-24.952915,-25.937759,-28.164631,-5.715711,-18.03887,-19.160986,-18.552263,3.698296,-10.221554,-11.690603,-9.218325,9.095226,-4.961826,-10.249735,-10.628803,-10.767771,-12.661826,-9.477067,-2.900235,-14.424866,-17.986181,-15.361699,-12.370414,-1.542377,0.671548,1.571681,-0.210677,12.304517,20.515312,18.98396,14.410088,23.562145,32.292409,32.508649,30.741164,19.045824,42.329538,61.723377,72.73102,69.556932,96.660118,97.953895,94.258896,68.373876,96.155428,94.692106,88.712631,62.157491,86.396724,85.628362,79.607094,52.891617,72.5501,73.999174,70.618812,-25.431336,-39.22563,-48.46678,-57.603279,-26.914272,-14.779837,-4.719861,1.907946,-13.202815,0.030906,9.052308,14.115144,0.371139,13.018957,19.64222,22.732562,13.292163,21.672663,26.127121,27.802024,-4.655325,158.402293,-92.467489,141.236592
89,-0.767544,26.723658,-1.748211,21.9175,-24.043728,-36.957092,-43.543476,-42.799392,-23.731453,-27.837639,-26.553703,-27.264724,-6.989616,-20.357471,-19.922012,-17.835319,2.499596,-12.54792,-12.380745,-7.995083,7.056244,-7.741825,-11.599342,-10.625152,-8.321165,-5.770125,2.367535,13.958508,-9.307825,-13.657981,-10.952973,-7.547623,1.816042,2.166735,1.685465,-1.10821,13.891867,20.368596,17.483456,11.926882,23.610826,30.807972,29.449648,26.922846,23.382196,48.075582,68.004204,79.776529,70.123827,97.263267,101.941074,102.010265,66.410025,95.471037,99.558077,98.288395,58.668611,84.214657,88.863012,87.320606,48.640068,68.495012,73.633352,73.833183,-21.890135,-31.854274,-39.230592,-46.84527,-14.320473,1.983905,13.058551,20.18143,-1.318022,15.453065,25.319911,30.962206,10.850745,25.702158,32.858605,35.984824,21.912384,31.636907,36.17923,37.650566,-5.581055,183.564027,-94.373886,161.592168
90,15.203408,24.150697,1.948974,27.250618,-28.513985,-47.599835,-58.437024,-60.994618,-37.960144,-47.154087,-44.219674,-42.830544,-21.878426,-37.979382,-34.97342,-29.916424,-12.50084,-29.841729,-27.281125,-19.475521,-7.577614,-24.788796,-27.347317,-23.810498,-3.337091,5.191789,20.342624,38.183232,-2.209664,-6.813071,-4.689907,-1.623072,5.415919,4.525626,3.702987,0.237307,14.292775,18.851648,15.69924,9.919129,21.417217,26.350371,24.008054,21.356133,25.154978,50.703295,70.961472,83.652289,69.255988,96.93686,103.517384,105.124856,63.842566,93.462599,99.356169,98.89016,55.001879,80.7827,86.896208,86.415562,43.866303,64.560591,70.746661,71.73919,-21.357137,-29.656238,-34.890243,-40.808934,-6.933821,13.222442,24.311674,30.601083,7.544489,29.075922,37.938705,41.332928,20.106119,39.447997,46.212933,47.798344,30.551532,44.935926,49.9776,50.576063,9.628104,206.550941,-92.419161,187.679003
91,20.25111,20.052187,-0.985736,23.151155,-34.810238,-60.436901,-75.62098,-80.495854,-53.686695,-70.639412,-68.039051,-65.041455,-38.528115,-61.847134,-58.938046,-51.810574,-27.976456,-52.279164,-50.217614,-41.194004,-20.866448,-42.324383,-47.35912,-45.777043,-7.496587,0.696643,15.599389,32.987304,2.712349,1.454469,1.37286,1.619923,12.744704,13.814061,10.966774,5.604084,22.846998,28.91074,24.44847,17.29776,30.447819,38.18459,36.386418,33.854947,26.722915,53.33686,74.366901,88.706222,66.831493,96.087822,106.597927,112.155189,59.783958,91.170776,102.231399,106.770881,50.382648,77.776497,88.822883,93.230175,39.270504,61.128559,70.400253,74.824058,-20.389418,-27.218927,-30.757905,-35.211332,-0.53219,19.092314,29.698033,36.235154,14.650656,36.392334,45.092164,48.836302,27.13964,47.221738,54.150048,55.983862,36.79775,52.474994,57.635748,58.236962,30.108399,225.575463,-93.175712,209.802493
92,11.371879,16.408369,-1.83688,19.932589,-33.122051,-59.900974,-76.931396,-84.604774,-58.405975,-75.601272,-68.932525,-60.922691,-47.278415,-70.291054,-63.947685,-51.826996,-38.74633,-62.771106,-57.442669,-44.792484,-32.533504,-53.391517,-56.499756,-53.192962,-5.962719,1.22682,13.605863,27.054102,9.00568,12.43142,11.987916,11.12383,17.329339,21.473693,20.767849,17.156302,24.638118,30.790064,29.0674,24.218375,29.856447,37.822856,37.428258,36.111838,28.146881,55.376141,77.20776,93.767612,62.705601,94.144066,110.111252,120.50972,55.060924,89.406395,107.627666,118.641518,46.044022,76.893219,94.31488,105.128483,36.04319,60.370617,73.67918,82.892921,-19.866331,-25.778957,-27.923784,-31.23121,2.702679,17.783402,26.867937,33.640154,18.66295,36.211639,44.205909,48.844501,31.392205,48.187959,54.48534,57.147363,40.936361,54.791004,58.992119,59.910632,41.739744,241.20134,-94.753126,228.95259
93,15.931492,12.142749,0.166923,17.987265,-31.88554,-60.610016,-79.444107,-89.664894,-69.894459,-87.882362,-79.101459,-67.816624,-63.128414,-84.347671,-73.462967,-56.603931,-55.981888,-76.851871,-67.431667,-52.196056,-49.144478,-68.301235,-70.444977,-67.115398,-5.607642,0.761913,11.099216,21.486834,15.073806,24.905312,26.268217,25.360276,22.312857,30.718137,32.376865,30.588943,27.80831,35.346084,35.92119,33.762235,31.492068,39.780727,40.697757,40.963432,28.67886,55.707127,77.899498,95.449849,62.491723,93.071812,109.650467,120.823632,54.730545,88.59367,107.219662,118.813935,45.872303,76.189373,93.47556,104.679509,36.207608,60.081425,73.226555,82.51006,-18.732432,-24.126714,-25.474614,-28.540411,6.470455,21.403705,30.399444,37.095152,23.121701,40.276373,47.855989,52.411502,35.770334,52.063748,57.883477,60.408625,44.430483,58.317768,62.299076,63.186393,57.916139,252.730296,-94.3413,246.326062
94,8.784828,8.698669,2.367234,14.250908,-31.344429,-60.37968,-80.201385,-92.618545,-74.433529,-91.758247,-81.980335,-69.025783,-69.418647,-88.236396,-74.614998,-55.895668,-62.594284,-80.405777,-68.795334,-52.582397,-54.960949,-72.035923,-72.384258,-67.870434,-5.679309,-1.426348,6.060272,12.89293,17.476034,31.864472,36.056955,36.876432,24.617481,37.432334,42.373009,43.089265,29.928189,40.435232,44.124807,44.373216,33.483988,43.165601,46.456305,48.419795,28.144466,55.198894,77.875488,96.08234,60.933391,92.242252,109.127884,120.436317,52.623699,87.376224,106.356582,118.018776,43.428371,74.820305,92.721348,104.648884,33.698673,58.447918,72.094654,81.879101,-17.753589,-22.191085,-22.04691,-24.87477,9.953697,25.86274,34.384593,40.369208,27.709522,45.636852,52.908753,57.143905,40.831657,58.365242,64.132286,66.607749,49.396279,64.731784,68.991599,70.084124,66.885578,261.172833,-91.789455,260.320838
95,1.641403,8.055008,-1.083756,7.714751,-29.566612,-56.780078,-75.912929,-88.418724,-72.057483,-87.392257,-77.676292,-64.68885,-67.367866,-83.948776,-70.072963,-52.03482,-60.575912,-75.670063,-63.875507,-48.77322,-52.985561,-67.644836,-67.099399,-63.021972,-7.569551,-6.519609,-2.41759,1.195389,15.027506,31.246524,38.1518,41.167851,22.709875,38.249699,46.198324,49.61863,28.853423,41.575811,48.331763,51.038976,33.333058,44.47219,50.327759,54.195385,29.315415,56.65337,80.128121,99.404721,61.205452,92.419384,110.185593,123.15326,51.837982,86.734154,107.717949,122.612801,42.315548,73.891731,93.659146,108.287773,33.01228,57.71743,72.348393,83.743138,-15.248141,-17.796333,-16.357227,-19.146395,15.017292,30.481028,39.194888,45.808839,31.98323,49.026307,57.160911,62.89976,43.892007,60.710065,66.913586,70.106403,51.1131,65.415249,69.677238,71.283206,68.649129,269.095065,-92.751063,267.902813
96,-2.941246,6.496273,1.471939,6.158381,-26.319706,-51.343328,-69.782569,-82.590745,-70.55425,-82.23734,-70.235212,-56.029232,-67.047689,-78.30614,-61.410255,-42.025406,-61.075126,-70.330186,-55.144855,-38.555889,-54.200643,-65.686363,-62.126478,-55.629026,-8.293395,-9.211914,-6.042605,-2.7726,11.939331,29.962381,38.880764,43.215729,20.414229,38.587135,49.086335,54.37606,27.182587,42.146113,50.989501,55.515547,32.583476,44.672428,51.153658,55.53824,29.777481,56.902657,80.447136,99.854531,60.919098,91.906884,109.632408,122.596436,51.418167,86.631226,107.793824,122.865944,41.692131,73.669934,93.25177,107.879608,32.277901,57.007279,71.451496,82.674225,-14.224875,-15.477976,-12.575126,-15.179314,17.299859,32.938176,41.268022,47.338014,34.323262,51.036937,58.670474,63.773454,45.839344,62.292926,67.763444,70.214825,52.545389,66.558126,70.105749,71.099412,65.688079,275.553868,-91.298928,274.023724
97,-5.958114,5.215884,1.814427,3.743347,-22.959515,-46.448427,-65.07954,-77.963385,-67.667868,-75.722345,-62.112517,-48.169705,-65.936102,-72.530777,-54.272152,-34.888367,-61.44334,-66.644102,-49.64605,-32.777676,-55.864203,-66.977966,-63.332194,-56.976591,-9.566268,-10.874371,-6.58055,-1.315228,11.07527,28.856468,36.570904,40.23526,20.408203,38.026799,47.2676,51.821681,27.475148,42.000556,49.40096,53.306908,33.163893,44.479335,50.544207,55.094453,29.375873,56.510364,80.021255,99.100994,59.977375,91.468139,108.882969,121.86446,50.232273,86.279434,107.330875,122.345752,40.239979,72.775394,92.227272,106.580623,30.683132,55.260635,69.56512,80.338943,-14.032893,-14.362516,-9.98661,-11.736765,18.443749,34.725653,42.773337,48.307347,35.74656,52.523554,59.64387,63.943502,47.125419,63.611087,68.341688,69.71104,53.519267,67.37475,70.041763,69.85729,59.582319,280.695998,-89.632147,277.693317
98,-12.191929,5.279265,1.774109,1.578427,-17.20752,-36.106493,-51.933025,-62.818857,-59.174566,-60.904146,-46.357378,-32.998055,-60.117582,-59.606014,-40.880287,-22.063328,-57.608093,-57.088388,-39.196003,-22.681068,-53.604223,-62.021278,-58.143396,-51.971289,-11.148969,-12.547992,-7.814397,-1.720088,9.138876,25.860499,32.321426,35.470153,19.533706,35.451004,43.238633,47.126365,26.8325,40.055344,45.766602,49.003213,32.713732,43.281648,48.562476,52.864843,28.85852,55.857559,79.14719,97.818821,59.088112,90.981983,108.13528,121.090404,49.203277,85.810341,106.796482,121.723583,39.005813,72.158352,91.539848,105.576816,29.264785,54.143085,68.570572,79.183193,-14.210005,-13.752299,-8.075151,-9.067122,19.314059,35.8864,43.588405,48.673428,36.848471,53.639631,60.403252,64.022679,48.087207,64.574888,68.851993,69.432682,54.244192,67.943373,70.030006,69.059672,47.188814,285.863371,-88.059614,279.159852
99,-4.091286,2.820969,1.039764,0.096404,-14.637817,-32.856519,-49.126144,-60.102075,-58.493162,-57.188123,-39.98953,-25.811794,-61.447431,-56.969467,-36.45132,-16.684444,-60.63977,-57.498419,-37.643497,-19.873192,-58.274271,-68.563865,-67.089517,-62.669981,-10.436159,-11.318011,-5.279938,3.152241,8.108521,25.255283,30.894361,33.645157,18.862194,34.320428,41.299139,44.798374,26.263395,39.139857,44.04011,47.016344,32.371203,42.294605,47.813517,53.241594,28.485191,55.474228,78.555908,96.777557,58.82864,90.898693,107.904179,120.845226,48.878586,85.707413,106.587719,121.426838,38.471844,71.872055,91.214539,105.075016,28.477032,53.359966,67.860088,78.436512,-14.38093,-13.494231,-6.919973,-7.367627,19.342551,35.952795,43.41758,48.25775,36.997043,53.500891,60.139184,63.324616,48.273632,64.560476,68.760949,68.901493,54.497777,68.157969,70.168574,68.880695,42.87438,288.597185,-87.242998,279.169101
100,-7.096847,2.991202,0.682686,-0.621172,-11.228966,-27.700362,-43.539345,-54.279494,-55.482771,-49.146727,-29.64065,-15.131733,-60.441233,-50.443669,-28.208016,-7.844891,-61.177757,-54.094694,-32.219113,-13.769005,-60.078192,-70.812081,-70.899702,-68.054404,-11.231702,-11.497914,-4.354336,5.208592,7.799683,25.164263,29.256148,31.154133,19.072566,33.694638,38.850982,41.640014,26.494503,38.579521,41.724284,44.181568,32.798516,42.155951,47.105524,52.995766,28.356079,55.251537,78.023323,96.006637,58.75605,90.608402,107.417278,120.386341,48.883816,85.634434,106.386166,121.243984,38.298431,71.633011,91.014553,104.930912,27.840626,52.462028,66.970894,77.554218,-14.429712,-13.354378,-6.286525,-6.227665,19.162808,35.782907,43.110075,47.859842,36.876013,53.221606,59.784143,62.877839,48.277139,64.599243,68.826812,68.913386,54.587303,68.357373,70.399089,69.024808,35.569027,291.554283,-86.768818,278.513825
101,-9.965836,4.15098,0.642895,-0.518987,-7.942943,-21.271866,-34.590065,-43.992531,-48.00024,-36.327267,-16.52948,-2.805805,-53.690014,-38.194267,-15.926754,3.714237,-54.84993,-43.759025,-21.887134,-4.000477,-53.922432,-62.901878,-64.774303,-64.202236,-11.933044,-12.701985,-6.402406,2.242627,6.217649,22.647582,26.354175,28.484132,17.627928,31.008019,35.358249,38.276352,24.889591,35.988733,38.438459,41.179461,31.097026,39.512125,44.075283,50.168196,28.163612,54.962494,77.521991,95.38615,58.521171,90.413028,107.179756,120.185348,48.650859,85.487972,106.266609,121.117767,38.059341,71.535312,90.983928,104.959877,27.573967,52.37408,66.918296,77.561187,-14.655386,-13.452365,-5.93025,-5.12442,18.711918,35.52805,42.906483,47.684804,36.603495,52.889487,59.447208,62.48518,48.163975,64.495045,68.691343,68.728171,54.592959,68.357706,70.377636,68.955116,25.462492,295.746632,-86.266622,278.036207
102,-1.768616,-0.308838,0.659454,-0.448308,-6.083759,-18.215343,-30.652633,-39.298702,-44.851615,-32.134975,-13.011268,0.190762,-51.203167,-34.649826,-13.320613,5.539685,-52.861873,-41.02779,-19.905269,-2.77779,-52.23199,-61.059619,-63.863754,-64.438465,-12.929363,-14.306879,-9.265131,-2.210615,5.146082,22.555449,26.602275,28.59895,17.015363,31.602465,35.667445,38.342066,24.699399,36.687896,39.107474,41.723296,31.146908,40.00162,44.96376,51.181903,28.02784,54.721813,77.063015,94.725986,58.435444,90.110825,106.810387,119.676407,48.606365,85.262569,106.003098,120.743202,37.923614,71.277786,90.669903,104.534065,27.285725,51.82996,66.234764,76.689308,-14.73066,-13.313006,-5.44504,-4.320985,18.679895,35.519541,42.958378,47.781481,36.548797,52.849078,59.471624,62.547733,48.076401,64.553337,68.770248,68.765901,54.464197,68.397325,70.419194,68.923266,23.608629,295.52857,-85.692415,277.678675
103,-3.819019,-0.252794,0.481625,-0.345012,-5.467266,-16.288296,-27.421577,-35.319946,-41.083797,-27.712852,-8.839107,3.806076,-47.458202,-29.640404,-8.409027,10.209274,-49.348858,-36.534416,-15.597908,1.590271,-49.035473,-57.256714,-60.108135,-60.619263,-12.452254,-13.76056,-8.612379,-1.595569,4.254702,22.49076,27.433337,30.059409,16.151364,31.726794,36.350183,39.362467,24.122403,36.898378,39.795732,42.634843,30.865413,40.108708,45.335609,51.491013,28.039821,54.591785,76.788974,94.379482,58.406375,89.799316,106.481288,119.290683,48.63264,84.993358,105.681873,120.34711,37.866325,70.931694,90.28997,104.116687,27.051899,51.211544,65.486515,75.783268,-14.63465,-13.014443,-4.968599,-3.786103,18.948311,35.773903,43.173467,47.9436,36.674261,52.970985,59.616145,62.713348,48.120194,64.706528,68.966466,68.961576,54.450624,68.58312,70.626305,69.108183,19.729328,295.389042,-85.271072,277.446929
104,-4.401626,-0.307072,0.358623,-0.032333,-2.716839,-11.689362,-21.469048,-28.543499,-35.85093,-21.124638,-2.916756,8.842414,-43.003144,-23.900185,-3.410099,14.366821,-45.864636,-31.781537,-11.486699,4.874931,-46.317101,-53.329857,-55.523095,-55.724682,-13.670097,-15.604799,-11.266104,-5.332729,3.324802,22.41635,27.64456,30.029818,15.81344,32.61159,37.041367,39.824421,24.239259,37.990175,40.710256,43.466979,31.382992,41.512406,46.572407,52.281764,28.155533,54.529873,76.544266,94.058613,58.336796,89.532303,106.170158,118.89727,48.638123,84.752403,105.347099,119.935661,37.897625,70.671341,89.97543,103.731629,27.051968,50.986656,65.209957,75.466724,-14.736587,-12.988137,-4.786916,-3.373313,18.998391,35.78655,43.13911,47.854334,36.617488,53.054398,59.707968,62.823733,47.94491,64.710838,68.992612,69.010087,54.210477,68.457816,70.535038,69.061402,15.270155,295.17969,-84.969996,277.512316
105,-8.453408,2.299313,0.159943,-0.146929,-0.318317,-6.245945,-12.377105,-16.669647,-28.233433,-11.045448,6.827957,17.99952,-35.948982,-13.965763,6.148579,23.271424,-39.383491,-22.852638,-3.101257,12.828369,-40.174072,-45.088657,-47.557102,-48.136207,-14.601095,-18.536881,-16.09333,-11.392383,0.427029,19.4024,25.805226,29.058793,13.802712,30.437075,35.433758,38.548547,22.84475,36.4126,39.536282,42.553963,30.301706,40.09001,44.984978,50.08424,28.308494,54.693924,76.686458,94.245037,58.266391,89.41967,106.073959,118.754516,48.556423,84.582859,105.163856,119.718589,37.869175,70.537513,89.892906,103.646576,27.121845,51.175049,65.511417,75.889892,-14.821309,-13.01012,-4.690499,-2.963562,19.022487,35.850079,43.176345,47.877293,36.572127,53.118619,59.824837,63.009182,47.7851,64.711641,69.049274,69.148124,53.945926,68.29272,70.430705,69.039505,6.74382,297.597916,-84.88298,277.4843
106,5.340294,-3.335312,0.150707,-0.142902,-0.135235,-7.71191,-15.722145,-21.078621,-31.627968,-17.631832,0.593971,12.222817,-40.419079,-21.194069,-0.859577,16.707802,-45.147983,-30.7034,-10.412372,6.079216,-47.217098,-54.248062,-55.910614,-55.167446,-14.226171,-17.826319,-14.753273,-9.498239,0.44627,21.432654,28.267819,30.972351,14.196938,33.054094,38.385958,41.045783,23.808587,39.169966,42.630064,45.246354,31.800548,42.897974,48.270309,53.445611,28.437378,54.782078,76.81041,94.536724,58.224838,89.293213,105.995762,118.674625,48.511139,84.385849,104.929745,119.469257,37.842636,70.320236,89.642967,103.353138,27.125645,51.161488,65.541653,75.984798,-14.743331,-12.916952,-4.532073,-2.686193,19.382305,36.160127,43.397831,48.048526,36.787956,53.351516,59.978805,63.149355,47.854988,64.803624,69.088596,69.174367,53.899044,68.267772,70.430309,69.083211,11.98851,294.384206,-84.827877,277.463
107,-7.657665,2.488134,0.148659,-0.054687,0.738453,-4.088219,-8.986118,-12.305878,-25.904606,-9.071995,9.077213,20.370106,-34.493179,-11.94809,8.447239,25.707561,-38.89531,-21.902847,-1.871292,14.257473,-40.497814,-44.711083,-45.901669,-45.055424,-14.72656,-18.360855,-15.264714,-10.062823,-0.846364,19.18279,26.434301,29.794376,13.061188,30.761153,36.588527,39.821939,22.729326,37.150999,40.686914,43.720761,30.725671,41.379494,46.052592,50.60277,28.481804,54.765758,76.778091,94.618297,58.295688,89.344871,106.0349,118.644848,48.55418,84.331649,104.788593,119.266193,37.881271,70.23769,89.527153,103.259433,27.178493,51.346756,65.804352,76.429882,-14.723941,-12.875467,-4.444757,-2.518959,19.504362,36.283937,43.487086,48.101595,36.85666,53.41486,60.032627,63.196311,47.861411,64.768859,69.098687,69.263227,53.87148,68.218435,70.453318,69.227967,4.216295,297.003263,-84.793768,277.539236
108,11.970405,-2.348467,0.085144,-0.029294,-2.753952,-12.576118,-21.392841,-27.719696,-36.28125,-24.196025,-5.224033,7.24577,-44.178119,-26.657547,-5.561302,12.477734,-47.914123,-35.428504,-14.590267,2.604344,-48.901897,-56.723419,-58.747512,-58.238033,-11.343143,-13.685299,-10.006803,-4.275154,1.155004,21.61893,28.905269,31.919541,13.666539,32.188242,38.463986,41.561819,22.478224,37.894474,42.028442,44.978963,29.859967,40.760051,45.944455,51.156758,28.520714,54.762027,76.733082,94.597927,58.506843,89.534408,106.185665,118.679134,48.728943,84.4109,104.785503,119.198307,37.986099,70.206802,89.443851,103.132953,27.198749,51.362709,65.818268,76.475693,-14.793497,-12.997449,-4.487452,-2.252692,19.487813,36.300857,43.537857,48.159196,36.821425,53.388369,60.069998,63.257752,47.791126,64.717359,69.145456,69.384974,53.774791,68.15924,70.492986,69.315714,16.027153,294.76758,-84.868171,277.622726
109,4.029923,0.919043,0.024158,-0.118153,-5.691628,-17.093811,-26.674221,-33.887157,-40.395012,-29.973747,-10.575508,2.89452,-46.948437,-31.404568,-9.690399,9.169155,-49.20401,-38.529373,-17.193317,0.806866,-48.743259,-56.967785,-59.321491,-59.00972,-8.413666,-8.919106,-4.21759,2.014459,3.460568,22.16352,29.381143,33.045375,13.972587,30.701379,37.278551,41.080067,21.19247,35.593889,39.976303,43.454099,27.229351,37.360951,42.389102,47.917122,28.595284,54.854828,76.861668,94.80288,58.520165,89.792919,106.553398,119.080422,48.577881,84.451092,104.848892,119.255127,37.731354,70.073342,89.318745,102.962998,26.92812,51.116226,65.539513,76.085873,-14.829979,-13.095249,-4.512683,-2.137071,19.366115,36.356568,43.627135,48.265888,36.729836,53.438596,60.19871,63.481597,47.680333,64.727362,69.266968,69.62233,53.608818,68.093056,70.479697,69.288791,19.894129,295.783451,-85.00696,277.601401
110,8.217293,-1.038629,0.112416,-0.251349,-6.747666,-19.989476,-32.2687,-41.444023,-45.537335,-37.820137,-18.57573,-4.640728,-51.729561,-39.689095,-18.17537,0.959987,-53.584534,-45.657303,-24.514252,-6.546925,-52.666512,-60.594109,-60.541157,-58.25243,-8.198479,-8.32382,-2.935874,3.3662,4.108736,22.058581,28.716819,31.93262,14.373026,30.534652,37.229533,40.987046,21.796944,35.722971,40.316498,43.747845,28.105107,38.144032,42.916487,48.250623,28.626812,54.772991,76.669921,94.576435,58.56229,89.926162,106.764987,119.296176,48.492553,84.390415,104.780422,119.160083,37.548305,69.916717,89.131599,102.700412,26.724952,50.827331,65.194187,75.665931,-14.749086,-12.989026,-4.306301,-1.803211,19.409772,36.520503,43.865628,48.547927,36.735715,53.568878,60.406019,63.758696,47.635725,64.811528,69.4559,69.889709,53.534902,68.177086,70.661552,69.497236,27.931029,294.800904,-85.074937,277.406134
111,2.53672,0.276296,0.184112,-0.195329,-7.82222,-21.603619,-34.267639,-43.697479,-48.192078,-40.935436,-21.033211,-6.374256,-54.120438,-42.621746,-20.603325,-1.0051,-55.431324,-48.035042,-26.564163,-8.316708,-53.849773,-62.201134,-62.128853,-59.703758,-8.107039,-8.348051,-3.378736,2.774841,4.331199,21.720189,28.213417,31.493587,14.591709,29.773653,36.476413,40.297664,21.983739,34.954018,39.497083,42.902408,28.179059,37.625687,42.391991,47.885703,28.627522,54.746292,76.574215,94.440067,58.529354,90.075256,106.943516,119.389034,48.343266,84.3876,104.73222,119.008907,37.322891,69.857678,89.034199,102.519207,26.505695,50.612766,64.905041,75.269863,-14.72567,-12.944405,-4.18159,-1.52878,19.16508,36.474289,43.917795,48.619286,36.570224,53.558133,60.526581,63.937179,47.538048,64.794213,69.566829,70.072515,53.510375,68.160982,70.674137,69.510673,30.27511,295.104404,-85.083464,277.238009
112,4.752766,-0.845684,0.358555,-0.163021,-8.093605,-22.921074,-37.277882,-47.935444,-52.053177,-45.884377,-25.729328,-10.526207,-58.317936,-48.399113,-26.217236,-6.207985,-59.658474,-53.375233,-31.671307,-13.108612,-57.989548,-66.742333,-65.659687,-62.20625,-8.300441,-8.450717,-3.492455,2.366436,4.914345,21.941687,28.131166,31.292379,15.191441,30.045984,36.702444,40.565784,22.588523,35.348764,39.852345,43.205651,28.797119,38.34046,43.006963,48.447607,28.520954,54.613277,76.403503,94.246674,58.215546,90.003834,106.920547,119.306259,47.945869,84.284649,104.66407,118.887543,36.968948,69.831551,88.996056,102.352913,26.33757,50.708839,65.04134,75.337681,-14.735624,-12.991842,-4.157025,-1.304268,19.06812,36.594912,44.068713,48.766202,36.57157,53.740964,60.671657,64.067176,47.563576,64.926371,69.641769,70.100451,53.530098,68.186571,70.690686,69.516613,34.77285,294.246249,-84.979935,277.062517
113,0.816215,0.108903,0.465855,-0.308826,-8.37561,-22.990036,-37.108475,-47.406795,-52.208084,-45.632961,-25.608249,-10.518791,-58.355026,-48.297787,-26.441826,-6.581726,-59.551323,-53.140858,-31.899113,-13.756668,-57.666698,-66.006191,-64.45047,-60.623154,-8.549814,-8.86563,-4.109206,1.431769,4.991162,21.540729,27.642176,30.948553,15.228034,29.263174,35.972431,40.177251,22.489957,34.356496,39.071264,42.7362,28.525393,37.719547,42.438464,48.006141,28.475566,54.593685,76.338638,94.066371,57.940933,89.796192,106.707561,119.1095,47.558532,84.012485,104.376834,118.620838,36.523029,69.555507,88.71326,102.076984,25.892635,50.375541,64.699779,74.958767,-14.612791,-12.842159,-3.965031,-1.071765,19.064983,36.789067,44.317134,49.044005,36.584587,53.882335,60.865096,64.329233,47.624276,65.082402,69.811088,70.244551,53.646349,68.397708,70.893202,69.647845,35.259081,294.337609,-84.844064,276.736148
114,0.88163,0.266107,0.566711,-0.390831,-7.318977,-21.403953,-35.288212,-45.125152,-52.211838,-44.852085,-24.838554,-9.849747,-58.924438,-48.180427,-26.426903,-6.651352,-60.258465,-53.601185,-32.532005,-14.685608,-58.294842,-66.897652,-66.370159,-63.775005,-12.222963,-14.437024,-10.436635,-5.617954,2.418591,19.719167,25.845388,29.074527,14.707059,29.006737,35.348196,39.409224,23.685297,35.06896,39.452128,43.051659,31.190096,39.960544,44.456443,49.881427,28.29808,54.392475,76.113258,93.732891,57.765369,89.53981,106.362568,118.714863,47.343052,83.729771,104.045368,118.269138,36.240784,69.330505,88.467648,101.843113,25.526299,50.136498,64.509567,74.824745,-14.390736,-12.529331,-3.662343,-0.879672,19.356667,37.115098,44.676201,49.416508,36.819017,54.141835,61.15026,64.574913,47.860756,65.375149,70.121261,70.482612,53.916458,68.739558,71.288282,70.035317,35.641262,294.598557,-84.776802,276.340158
