takenoko1/special-research/HandMotion_SimilarSearch_自分用/NewProject/handData/tgt/d4_feature_d2/110.csv
,vel_0x_L,vel_0y_L,vel_0x_R,vel_0y_R,posFromWrist_1x_L,posFromWrist_2x_L,posFromWrist_3x_L,posFromWrist_4x_L,posFromWrist_5x_L,posFromWrist_6x_L,posFromWrist_7x_L,posFromWrist_8x_L,posFromWrist_9x_L,posFromWrist_10x_L,posFromWrist_11x_L,posFromWrist_12x_L,posFromWrist_13x_L,posFromWrist_14x_L,posFromWrist_15x_L,posFromWrist_16x_L,posFromWrist_17x_L,posFromWrist_18x_L,posFromWrist_19x_L,posFromWrist_20x_L,posFromWrist_1y_L,posFromWrist_2y_L,posFromWrist_3y_L,posFromWrist_4y_L,posFromWrist_5y_L,posFromWrist_6y_L,posFromWrist_7y_L,posFromWrist_8y_L,posFromWrist_9y_L,posFromWrist_10y_L,posFromWrist_11y_L,posFromWrist_12y_L,posFromWrist_13y_L,posFromWrist_14y_L,posFromWrist_15y_L,posFromWrist_16y_L,posFromWrist_17y_L,posFromWrist_18y_L,posFromWrist_19y_L,posFromWrist_20y_L,posFromWrist_1x_R,posFromWrist_2x_R,posFromWrist_3x_R,posFromWrist_4x_R,posFromWrist_5x_R,posFromWrist_6x_R,posFromWrist_7x_R,posFromWrist_8x_R,posFromWrist_9x_R,posFromWrist_10x_R,posFromWrist_11x_R,posFromWrist_12x_R,posFromWrist_13x_R,posFromWrist_14x_R,posFromWrist_15x_R,posFromWrist_16x_R,posFromWrist_17x_R,posFromWrist_18x_R,posFromWrist_19x_R,posFromWrist_20x_R,posFromWrist_1y_R,posFromWrist_2y_R,posFromWrist_3y_R,posFromWrist_4y_R,posFromWrist_5y_R,posFromWrist_6y_R,posFromWrist_7y_R,posFromWrist_8y_R,posFromWrist_9y_R,posFromWrist_10y_R,posFromWrist_11y_R,posFromWrist_12y_R,posFromWrist_13y_R,posFromWrist_14y_R,posFromWrist_15y_R,posFromWrist_16y_R,posFromWrist_17y_R,posFromWrist_18y_R,posFromWrist_19y_R,posFromWrist_20y_R,posFromBody_0x_L,posFromBody_0y_L,posFromBody_0x_R,posFromBody_0y_R
6,-1.746323,1.808559,0.61829,0.176013,0.868721,-5.763107,-17.31292,-27.202858,-38.628548,-22.229256,-0.87442,14.43837,-46.039078,-25.055111,-0.534576,18.92292,-47.147243,-29.984287,-7.225296,10.781708,-45.548824,-38.052086,-24.533798,-12.377174,-17.597522,-26.888834,-27.918461,-26.983609,-2.605152,12.184369,16.989143,18.589121,14.472691,25.50786,29.823127,31.038832,26.87105,35.868826,37.640568,37.55145,36.465915,44.752474,43.933108,41.098752,25.936604,50.676396,72.820725,90.299286,52.620415,86.074974,103.611008,116.713898,43.948483,82.104309,102.359986,116.656517,35.737438,71.068291,90.491295,104.821358,28.609715,56.305504,72.11142,84.533203,-14.887394,-15.890628,-11.4229,-11.709335,14.970647,29.529986,34.892416,38.087099,32.777403,47.076538,51.238491,52.259498,44.737766,59.458472,62.652623,62.370893,51.318211,63.07297,65.00619,64.190221,25.660234,303.753994,-71.486899,286.280368
7,-2.566589,1.267674,0.17173,-0.000111,1.501213,-4.488785,-14.867501,-23.418595,-37.081375,-19.519341,1.638794,16.576538,-44.702683,-22.468518,1.975776,21.344169,-45.859623,-27.549031,-4.810639,13.202705,-44.308926,-36.664273,-23.169731,-10.978134,-17.677859,-27.340971,-29.029412,-28.441104,-3.483551,10.841026,15.543665,17.169146,13.382771,24.589323,28.653661,29.769132,25.755109,35.170577,36.615302,36.10081,35.287581,43.9585,42.93579,39.590017,25.963841,50.685173,72.733979,90.160218,52.403458,85.772347,103.359398,116.562996,43.709198,81.796051,102.085922,116.477257,35.522301,70.849869,90.314347,104.646584,28.463883,56.127079,71.919617,84.281525,-14.860632,-15.830459,-11.474029,-11.880199,14.935511,29.639568,34.984004,38.137018,32.667796,47.056284,51.277777,52.390025,44.637903,59.380691,62.627132,62.418589,51.28142,63.060348,65.002769,64.20877,22.613577,304.659789,-71.795237,285.918378
8,-3.568978,2.839938,0.115151,0.179064,2.863404,-1.408104,-10.079155,-17.351406,-32.735744,-13.822219,6.370011,20.684647,-39.65031,-16.274505,7.089066,25.648911,-40.151092,-20.944393,0.705986,18.126206,-38.063541,-29.953457,-17.225807,-5.602523,-17.925984,-27.987707,-30.389008,-31.499725,-5.328912,8.058046,12.592774,14.010057,10.829331,21.565023,25.409455,26.522037,22.816889,31.873463,33.68138,33.273123,32.070361,40.141992,39.592327,36.466274,25.913624,50.606323,72.653938,90.1035,52.252807,85.541702,103.127701,116.306854,43.573848,81.628441,101.929252,116.281082,35.397159,70.794594,90.253006,104.504356,28.387127,56.192276,72.00016,84.299537,-14.92773,-15.925493,-11.600494,-12.03907,14.755446,29.553747,34.960317,38.140105,32.454374,46.914493,51.132021,52.257558,44.469683,59.190722,62.407869,62.194793,51.19739,62.966315,64.858347,64.04155,18.792612,307.182287,-71.932073,285.780002
9,-1.290664,1.489235,0.014751,-0.042064,2.732071,-0.975769,-8.687004,-15.349079,-31.57346,-12.62407,7.319709,21.314254,-38.057167,-14.98217,8.041145,26.438232,-38.401108,-19.207775,2.396255,19.727737,-36.239777,-28.323647,-16.332482,-5.602318,-17.12376,-27.332968,-30.61063,-33.043646,-6.236755,6.569688,11.33477,12.763464,9.454149,19.820178,23.96636,25.247298,21.244673,30.134905,32.147845,31.940611,30.485203,38.071352,37.556563,34.672572,25.873501,50.593575,72.667317,90.141506,52.139225,85.377972,102.975758,116.173977,43.454155,81.456059,101.792576,116.150219,35.267635,70.680554,90.156109,104.363743,28.255966,56.105278,71.9053,84.163731,-14.863633,-15.78369,-11.487899,-11.982692,14.92684,29.746519,35.166205,38.353218,32.568785,46.99725,51.209888,52.368783,44.565976,59.221498,62.397951,62.171562,51.292411,63.055494,64.91538,64.084787,17.348883,308.428235,-72.070387,285.494651
10,4.778389,-1.717761,-0.055492,0.056687,1.138595,-4.574135,-13.953598,-22.152684,-36.218949,-18.742699,1.979026,16.510162,-43.525658,-21.475434,2.528709,21.849197,-44.565251,-26.165303,-3.621392,14.413513,-42.947571,-35.548416,-22.313759,-10.472191,-17.020513,-27.4219,-30.405693,-31.64259,-5.421834,8.247608,13.159853,14.694585,11.043407,21.952568,26.359522,27.723255,23.397664,32.470936,34.334551,34.063034,33.058108,41.177991,40.035472,36.592158,25.862217,50.635219,72.754051,90.230049,52.10915,85.277664,102.886162,116.127548,43.462143,81.387542,101.749077,116.151306,35.320793,70.657882,90.131836,104.331756,28.343708,56.198993,71.980316,84.204345,-14.878244,-15.808884,-11.553354,-12.086186,15.018021,29.769626,35.162438,38.327455,32.608132,46.938427,51.135787,52.342539,44.590898,59.152757,62.314106,62.114134,51.336933,63.036463,64.86262,64.034436,22.03735,306.521493,-72.215801,285.362357
11,-2.60788,1.102986,0.07497,0.106914,2.376114,-2.511795,-10.974953,-17.851112,-33.433502,-14.660912,5.33123,19.393913,-40.197475,-17.277763,6.093063,24.815002,-40.659748,-21.699829,0.267838,17.752213,-38.541172,-30.521141,-18.07061,-7.119003,-17.423706,-27.609708,-30.577408,-32.132852,-5.457044,7.739204,12.451119,13.809838,10.484615,21.351601,25.433031,26.659345,22.314611,31.355958,33.214732,32.992665,31.311942,39.302248,38.675234,35.573165,25.695179,50.481457,72.663883,90.160068,52.029922,85.139614,102.746235,115.980549,43.475624,81.324497,101.692944,116.089954,35.424786,70.694126,90.116009,104.281918,28.526894,56.407082,72.134891,84.320927,-14.898509,-15.841438,-11.589626,-12.202264,15.200827,29.808369,35.154324,38.287182,32.750949,46.90381,51.043446,52.246777,44.683376,59.113954,62.213713,61.960166,51.403822,63.015258,64.788335,63.916999,19.387041,307.458849,-72.18326,285.303641
12,-1.679214,0.06033,-0.194698,0.158798,2.355262,-1.461342,-8.630082,-14.225029,-31.899319,-13.49199,6.152687,20.326011,-38.237034,-15.920472,7.126899,25.814987,-38.568352,-19.989396,1.853622,19.417465,-36.315606,-28.22675,-16.214814,-5.737954,-16.348816,-26.150509,-29.551783,-31.525153,-5.172696,7.581432,12.394024,13.796166,10.066701,20.663948,25.057712,26.455198,21.638012,30.695599,33.008584,33.071335,30.495429,38.370669,38.145996,35.46588,25.647949,50.539306,72.842514,90.394889,52.109871,85.139328,102.773391,116.122375,43.647251,81.36026,101.727996,116.209327,35.716335,70.787521,90.161247,104.347114,28.889362,56.673912,72.305191,84.456298,-14.987628,-16.001965,-11.799677,-12.524577,15.206644,29.643618,34.920277,38.054197,32.74875,46.647866,50.758171,52.058005,44.667284,58.896715,61.975763,61.754425,51.398807,62.898018,64.609629,63.731476,17.680539,307.38426,-72.405246,285.32752
13,7.931099,-3.344513,-0.026013,0.103197,-0.754281,-7.946984,-17.477784,-25.070344,-39.660508,-24.479519,-3.588135,11.479545,-46.165787,-26.932011,-2.727059,16.988273,-46.575532,-30.886494,-7.803933,10.831306,-44.32687,-38.231656,-25.801713,-14.710923,-14.264358,-22.953592,-25.510269,-25.63314,-2.293522,11.534236,17.143409,19.405141,12.371152,23.649321,28.991658,31.211573,23.452164,32.903201,35.850782,36.517279,31.901806,40.489313,40.556744,38.466999,25.619271,50.54591,72.895832,90.462261,52.29324,85.30402,102.905308,116.226437,43.83989,81.391377,101.713223,116.141842,35.816345,70.818638,90.166661,104.338429,28.849297,56.720959,72.379978,84.57169,-15.054602,-16.060257,-11.761329,-12.487292,14.905203,29.427159,34.736052,37.815878,32.474307,46.415191,50.624865,51.922945,44.464533,58.689617,61.800331,61.552279,51.317667,62.860067,64.571319,63.670924,25.597985,303.947792,-72.444912,285.338762
14,8.376388,-3.85162,0.060265,0.213459,-2.572884,-12.74453,-25.692055,-36.225872,-46.950909,-34.22604,-12.489716,3.434761,-53.51374,-36.83218,-11.909706,8.612297,-53.712822,-40.199444,-16.58448,2.472405,-51.108948,-45.663036,-32.300011,-20.322807,-14.075599,-21.989569,-22.69035,-20.882384,-0.08671,15.342384,21.161248,23.59004,14.965113,27.333931,32.792284,35.07353,26.311529,36.269203,39.496366,40.408333,34.843584,44.28779,44.655131,42.830752,25.62989,50.50106,72.82465,90.460064,52.423427,85.459888,103.064403,116.322086,43.984852,81.468098,101.773189,116.090778,35.898903,70.972721,90.299183,104.396473,28.854664,56.86956,72.556721,84.770359,-15.238001,-16.255018,-11.822166,-12.545066,14.33663,28.986841,34.361338,37.369694,31.98843,46.037723,50.348173,51.578995,44.096562,58.329179,61.454467,61.12404,51.094118,62.711989,64.419129,63.450178,33.977474,300.0233,-72.381546,285.479349
15,0.221512,-0.692395,0.133404,0.090303,-2.160484,-12.001373,-24.925873,-35.871128,-45.918274,-33.348415,-12.228218,3.299423,-51.55164,-35.36681,-11.365563,8.223381,-50.891899,-37.777668,-14.928909,3.032776,-47.365494,-42.063572,-30.116844,-19.780861,-13.931906,-20.925622,-20.75997,-19.243639,0.923255,16.29749,21.792189,23.897965,15.129678,27.462026,32.566253,34.650255,25.791529,35.670162,39.126185,40.367701,33.712452,42.712389,44.127881,43.386617,25.709049,50.450889,72.673347,90.346366,52.462875,85.516891,103.120971,116.321662,44.010143,81.418876,101.692611,115.888366,35.83675,70.996559,90.328582,104.353042,28.701049,56.850414,72.61544,84.895568,-15.331379,-16.292438,-11.691366,-12.424133,13.900166,28.696121,34.105037,37.047666,31.636737,45.789586,50.188315,51.397412,43.862677,58.080079,61.252457,60.929453,50.987921,62.660972,64.395504,63.41408,34.20682,299.268932,-72.240308,285.507679
16,5.307381,-1.763098,0.080623,0.148955,-4.505013,-16.354844,-30.751282,-43.454442,-50.978898,-40.91589,-18.841919,-2.625779,-56.949212,-42.813733,-17.910897,2.430679,-56.604641,-45.186173,-21.513611,-2.921013,-53.347447,-49.18253,-36.080246,-24.677285,-12.936217,-19.963995,-19.702136,-17.547516,1.008187,17.208037,23.508234,26.089957,15.462575,28.265337,34.256955,36.850349,26.640746,36.866503,40.838598,42.296574,35.248481,44.526407,45.70926,44.965625,25.75129,50.468319,72.594029,90.245236,52.746483,85.745625,103.305485,116.421719,44.199383,81.452488,101.645863,115.704243,35.823933,70.962834,90.256382,104.178211,28.479241,56.705281,72.521588,84.852665,-15.546173,-16.449001,-11.678275,-12.312711,13.331864,28.339573,33.849612,36.764577,31.156936,45.469879,50.019377,51.261697,43.506747,57.723606,60.958364,60.658035,50.782106,62.508225,64.235532,63.234361,39.527522,297.459234,-72.146364,285.610034
17,6.194458,-1.342923,0.16943,-0.016772,-5.202279,-19.571366,-37.34372,-53.187298,-56.362359,-47.584454,-24.738579,-7.953507,-63.058388,-49.837063,-24.177979,-3.112404,-63.06712,-52.670941,-28.240059,-9.051224,-60.039929,-56.75869,-43.187897,-31.134865,-13.700564,-20.878716,-19.438635,-16.116747,1.297018,18.70231,25.461139,28.380242,16.422954,29.837045,36.303129,39.365245,28.003898,38.222233,42.296525,43.997168,36.978431,46.529046,47.605554,46.869291,25.793873,50.414108,72.415329,90.05619,52.736034,85.772026,103.295563,116.280327,44.129105,81.388756,101.56588,115.493843,35.615009,70.901825,90.214233,104.039932,28.146629,56.528847,72.443665,84.816216,-15.573515,-16.385533,-11.434756,-11.989447,13.115788,28.289754,33.8115,36.650858,31.000893,45.425024,50.042102,51.265995,43.40886,57.616519,60.877249,60.582922,50.741401,62.477968,64.227913,63.216923,45.748484,296.077662,-71.95043,285.554613
18,-5.147118,1.878595,-0.010311,0.134258,-2.041672,-14.020317,-30.757027,-45.776814,-51.132191,-39.563438,-17.51223,-1.152969,-57.866501,-42.1203,-17.134483,3.237442,-57.779697,-45.27285,-21.561379,-3.295464,-54.672936,-50.210049,-37.63092,-26.73008,-15.751591,-23.43002,-22.165248,-19.973738,-0.458941,16.449656,22.522203,24.764608,15.232716,28.287086,33.961504,36.496161,27.233365,37.07538,40.707922,42.306838,36.377798,45.398854,46.546263,45.714065,25.717667,50.337788,72.337589,89.995113,52.642456,85.726124,103.287609,116.266147,44.080582,81.410465,101.625469,115.551967,35.642727,70.987347,90.329029,104.136028,28.263702,56.686706,72.614239,84.992397,-15.662856,-16.535365,-11.602112,-12.127892,12.949827,28.073985,33.593348,36.477821,30.881542,45.263608,49.867793,51.125278,43.322323,57.471072,60.722231,60.441106,50.657519,62.303325,64.03766,63.03114,40.651468,297.921111,-71.910639,285.653725
19,-0.184044,0.379679,-0.186836,0.019699,-2.516052,-14.665535,-31.34642,-46.271267,-51.669422,-40.413002,-17.846283,-1.317146,-59.136726,-43.17548,-17.548576,3.192329,-59.687897,-47.271927,-22.99514,-4.243767,-57.250488,-54.08717,-41.533436,-30.337784,-15.489572,-23.661276,-23.153786,-20.687574,-0.915104,16.088576,22.46643,24.985699,15.07251,27.808792,33.895653,36.803233,27.204391,36.750696,40.373716,42.019883,36.629962,45.511042,46.159532,45.102328,25.790599,50.459392,72.454845,90.093486,52.610733,85.688839,103.230274,116.203548,44.12392,81.436489,101.682117,115.666477,35.775581,71.044315,90.419574,104.245159,28.464992,56.81837,72.755687,85.139064,-15.654582,-16.591756,-11.686525,-12.160509,12.939453,27.976147,33.452804,36.355159,30.849653,45.162905,49.778007,51.113174,43.280592,57.39581,60.684772,60.455147,50.617998,62.220937,63.984035,62.998042,40.532335,298.269526,-72.032564,285.64216
20,-0.229706,1.21589,-0.229638,-0.015586,-1.972572,-14.388885,-31.607551,-46.488567,-52.634353,-40.734398,-17.753151,-0.900238,-60.888828,-44.077846,-17.73761,3.795731,-61.964023,-49.021236,-24.037582,-4.241844,-60.037239,-56.885982,-43.808384,-31.682235,-15.898582,-24.808475,-24.688234,-21.998053,-2.275292,15.082699,21.974588,24.93494,14.115008,27.05866,33.750935,37.197559,26.657567,36.265128,40.09968,41.77823,36.481798,45.701987,45.875258,44.242429,25.78061,50.542214,72.600346,90.264714,52.639023,85.691472,103.221646,116.216366,44.235707,81.48238,101.749203,115.805821,35.959763,71.120923,90.494694,104.354931,28.679215,56.923543,72.838223,85.234829,-15.533391,-16.57633,-11.74709,-12.13508,13.025459,27.908765,33.377011,36.324507,30.870278,45.122495,49.757877,51.121634,43.263894,57.372567,60.684069,60.444292,50.599806,62.194397,63.989655,62.998276,40.387779,299.461815,-72.177052,285.602973
21,-5.023704,1.959699,-0.243129,0.083474,0.616516,-9.844437,-25.72657,-39.351895,-47.670765,-33.368866,-11.064057,5.36103,-55.586781,-36.665966,-11.120064,9.677559,-56.305779,-41.601494,-17.411087,1.564064,-54.081024,-49.602047,-37.332516,-26.080742,-16.852861,-25.90189,-25.834372,-24.112017,-2.865812,13.390466,19.367226,21.771491,13.248736,25.431216,31.244844,34.226389,25.439218,34.415728,37.88284,39.577012,34.761888,43.361658,43.68318,42.187733,25.81287,50.556289,72.679115,90.438263,52.510242,85.647102,103.198173,116.212829,44.231861,81.55838,101.885719,115.995575,36.11998,71.326355,90.751922,104.642486,28.9949,57.273582,73.22406,85.64946,-15.449434,-16.673241,-11.950767,-12.308438,12.924509,27.640114,33.100913,36.10449,30.776418,44.957708,49.564845,50.89096,43.205281,57.315361,60.610116,60.31984,50.570784,62.110306,63.922112,62.921817,35.455834,301.404962,-72.328422,285.669895
22,1.91661,-1.70052,-0.188885,0.212804,-1.416915,-13.070022,-29.033409,-42.755504,-50.482818,-37.120582,-14.193443,2.480599,-58.209938,-40.196514,-14.101387,7.037957,-58.843814,-44.54235,-19.771476,-0.492988,-56.557479,-52.008739,-38.650783,-26.695266,-15.15202,-23.829867,-24.192552,-22.034461,-1.024513,15.441765,21.689227,24.296095,14.778072,27.091845,33.18545,36.290927,26.62553,35.87673,39.286329,40.867386,35.627357,44.618477,44.679165,43.149632,25.784569,50.551918,72.782536,90.637882,52.564762,85.752811,103.295368,116.282558,44.371193,81.747585,102.090305,116.19302,36.342396,71.565617,90.98901,104.86417,29.303329,57.612957,73.55302,85.939556,-15.513012,-16.901594,-12.302806,-12.586673,12.652598,27.21826,32.733054,35.815597,30.553487,44.6969,49.332565,50.6416,43.046731,57.160331,60.448294,60.103665,50.474639,61.987805,63.794598,62.765787,37.458068,299.695766,-72.431683,285.874023
23,2.556336,-0.635869,-0.147755,0.011782,-2.148468,-14.966927,-31.912125,-46.174336,-52.841045,-40.63765,-17.576798,-0.809692,-60.813492,-43.949902,-17.555306,4.051323,-61.663662,-48.167519,-23.072823,-3.277611,-59.483116,-55.314079,-41.603703,-29.124687,-15.256871,-24.224637,-24.100074,-21.309103,-1.234687,15.834943,22.457761,25.422941,14.892397,27.532447,33.951365,37.277761,27.073036,36.4229,40.107906,41.797656,36.517095,45.677015,45.734295,44.188163,25.858658,50.619278,72.88147,90.810791,52.594174,85.821465,103.308403,116.214409,44.462357,81.892182,102.250832,116.345124,36.477608,71.762009,91.183709,105.032776,29.476925,57.798924,73.749115,86.130844,-15.505491,-16.968581,-12.408436,-12.575286,12.624934,27.081372,32.562499,35.606449,30.55692,44.629295,49.251054,50.50334,43.064626,57.155638,60.442366,60.038901,50.481555,62.014667,63.846406,62.768207,40.099228,299.052941,-72.494614,285.878849
24,-3.960091,0.817477,-0.072143,0.055007,-0.059349,-11.284012,-27.1184,-40.546875,-48.952022,-34.445297,-12.17205,4.106896,-56.237354,-37.559944,-11.944381,8.757683,-56.435142,-41.374695,-16.947899,1.978043,-53.663749,-47.623695,-34.329529,-22.721054,-15.882762,-24.35892,-24.031778,-22.10561,-1.231439,15.274187,21.207327,23.645752,14.375372,26.803273,32.625299,35.555245,26.199564,35.528544,39.11959,40.90309,35.175023,43.99933,44.451491,43.20275,25.839821,50.612606,72.940201,90.91848,52.625576,85.910019,103.357109,116.178703,44.500889,82.034042,102.404823,116.473686,36.522205,71.913437,91.314651,105.092171,29.544376,57.949482,73.910431,86.245834,-15.506763,-17.057785,-12.564553,-12.635974,12.633752,27.056141,32.499255,35.486653,30.614966,44.66164,49.242619,50.433192,43.125525,57.211473,60.452221,59.975335,50.5026,62.001811,63.826659,62.726254,36.218261,299.860235,-72.487633,285.923673
25,0.30027,-0.407269,0.096187,-0.003001,-0.975311,-12.6259,-28.367866,-41.911789,-49.938686,-35.638092,-12.934066,3.422814,-57.388034,-38.683387,-12.829193,8.085366,-57.738922,-42.39917,-17.730331,1.31321,-55.164688,-48.342487,-33.791153,-21.301437,-15.437047,-24.292673,-24.652431,-22.909279,-1.10243,15.238421,21.060374,23.3607,15.019467,27.16455,32.943438,35.602139,27.152373,36.363361,39.564267,40.995321,36.369252,45.252444,45.044999,43.21946,25.897683,50.54139,72.814968,90.830281,52.487194,85.785359,103.142888,115.830929,44.357529,82.010067,102.379864,116.426068,36.396058,71.894474,91.290677,105.012852,29.461464,57.922257,73.889408,86.193867,-15.463167,-17.045299,-12.580362,-12.601394,12.898192,27.237502,32.527067,35.374243,30.887803,44.841865,49.272815,50.334799,43.33434,57.368739,60.525828,59.949153,50.622284,62.077801,63.908984,62.79555,36.581503,299.439128,-72.328474,285.906834
26,-0.894401,0.691,0.186711,-0.223425,-1.030564,-12.686074,-28.186959,-41.57666,-49.386463,-34.876763,-12.297844,3.829605,-56.767079,-37.730644,-12.077042,8.689293,-57.058823,-41.249245,-16.829293,2.224663,-54.410477,-47.051972,-32.00013,-19.0066,-15.783949,-24.93578,-25.453112,-24.045141,-1.579934,14.673565,20.347872,22.57248,14.638651,26.792936,32.445618,34.918969,26.796011,36.072738,39.046527,40.140164,36.137243,45.23603,44.802456,42.547664,25.837738,50.392261,72.584289,90.536751,52.359455,85.532684,102.803077,115.429413,44.140411,81.792595,102.138405,116.16671,36.096531,71.540519,90.945373,104.690231,29.072227,57.492164,73.470863,85.813934,-15.480248,-16.933655,-12.320726,-12.287838,13.343276,27.774545,33.017365,35.816017,31.290527,45.291074,49.671352,50.693655,43.618515,57.760076,60.922771,60.344577,50.770497,62.312341,64.194012,63.121222,35.748608,300.109219,-72.080257,285.6625
27,-7.128205,3.535717,0.235759,-0.906113,2.107384,-5.986839,-18.963981,-30.328079,-41.385543,-24.863754,-3.315879,12.161293,-48.820472,-28.349762,-3.8134,15.996987,-49.375717,-32.922786,-9.85762,8.305871,-46.906208,-41.728488,-31.185619,-21.936756,-17.481615,-27.079568,-28.175552,-28.422776,-4.326913,11.258965,16.770819,18.945607,11.960672,23.767289,28.736629,30.918666,24.146202,32.782417,35.575425,36.854807,33.686888,41.536637,41.555224,39.759423,25.898644,50.37259,72.248532,89.820889,52.26764,85.123845,102.301106,114.88892,43.813694,81.095295,101.524029,115.651486,35.542351,70.494977,89.924069,103.621937,28.281601,56.298111,72.205433,84.565259,-15.334764,-16.336158,-11.389999,-11.418182,14.026865,28.82508,34.497831,37.719745,31.861311,46.428751,51.306441,52.798331,43.982534,58.606933,62.173871,61.99671,50.968172,62.936044,65.093443,64.293973,28.681114,303.609112,-71.783787,284.720563
28,-14.068416,-2.071899,0.242604,-2.103935,5.442329,2.465229,-5.914845,-14.791203,-28.754906,-9.789059,10.6852,24.722797,-37.328774,-13.965443,9.414104,28.319836,-40.065434,-20.450638,1.841389,19.090954,-40.216004,-32.065991,-20.755955,-11.3275,-17.442491,-25.796519,-25.84188,-25.042521,-3.947938,12.505681,19.051991,22.330135,12.6524,25.781303,32.200407,35.320519,24.870151,34.955488,38.638505,40.80466,34.412356,43.693455,43.99208,42.403341,26.511291,50.722812,71.879493,88.905418,51.783851,83.733215,100.442871,112.789924,42.701225,78.914749,98.92408,112.947784,33.922611,67.693519,86.810303,100.300621,26.16204,53.194977,68.594009,80.292663,-14.852914,-15.253797,-10.108555,-10.373687,14.846095,30.889606,37.597281,41.845253,32.375592,48.730189,55.097496,58.099221,44.195375,60.288409,65.293687,66.535587,51.056364,64.024012,66.942497,66.806128,14.643025,301.492734,-71.510856,282.572149
29,4.305359,-0.305553,0.473774,-3.336153,0.837684,-5.137837,-15.490162,-25.316288,-29.269158,-21.104061,-5.989838,5.19461,-37.743977,-26.757305,-9.449639,6.947525,-41.331539,-32.868988,-16.950279,-2.927342,-42.705643,-42.323868,-35.369225,-28.246308,-18.189387,-27.303624,-28.045481,-27.42321,-1.588653,7.266912,9.085363,9.815314,16.093306,21.975045,23.040153,22.812146,27.832207,32.657162,31.617779,30.563576,35.986942,43.187892,41.139606,37.902415,26.464107,50.32315,70.317409,86.551151,50.010475,80.389057,96.080234,107.34415,40.092716,74.685367,93.494236,106.208164,30.79985,62.649032,80.288326,92.34589,22.720493,47.667423,61.170479,70.824188,-15.235222,-15.860062,-11.463877,-11.882656,13.403927,31.946366,40.149957,45.435076,30.870377,49.749417,57.865224,61.80616,42.997751,61.082668,67.402563,69.367844,50.169826,64.613297,68.411762,68.369006,18.945534,301.180913,-71.039932,279.229728
30,2.946052,-1.958822,0.177829,-3.973441,-2.710991,-10.646106,-21.505005,-31.108703,-29.153389,-29.94144,-22.386852,-16.116794,-35.113186,-34.656223,-26.206958,-16.260212,-37.183857,-37.844593,-30.643192,-23.150528,-37.391029,-43.85495,-43.221554,-41.140262,-19.29194,-26.868494,-25.247311,-22.957099,-0.047301,6.945081,7.858172,8.424436,17.444849,22.731203,22.848603,22.408125,29.098066,33.907991,33.163725,32.464773,36.824611,43.71755,42.534622,40.35382,24.336159,46.573277,65.402905,81.345669,43.899434,71.705464,86.434479,96.524231,35.273369,66.967885,83.616532,93.524724,27.667923,56.367119,71.170464,79.673012,21.348256,43.680932,54.708996,61.023915,-17.385372,-19.660059,-16.516062,-17.813228,8.977262,27.063871,35.161005,40.478123,27.650908,47.794399,56.759385,61.109195,41.114881,60.469276,67.684416,70.252888,49.603735,65.027802,69.810816,70.440806,21.826824,299.228167,-70.926865,275.262363
31,6.97332,-4.381698,-4.814197,-10.3345,-8.703003,-20.27306,-33.535892,-44.667789,-34.047958,-44.821701,-44.597042,-43.605892,-37.425888,-48.740799,-48.480423,-44.943798,-37.984234,-49.073341,-49.598087,-48.171421,-37.163395,-50.867752,-55.964836,-58.818535,-19.05703,-24.486175,-20.050791,-14.991913,3.192916,9.931072,11.329298,12.62213,20.872701,26.122474,26.418938,26.453308,32.580777,37.910813,37.58671,37.280267,39.95448,47.149317,46.594378,45.291482,23.202221,44.742348,62.206684,77.208012,39.383263,61.429275,72.659878,79.86026,31.102123,56.69054,69.030052,75.589256,23.932377,47.185787,57.712761,63.083885,18.263981,36.581394,43.948185,47.191521,-17.130219,-21.094262,-21.280587,-25.69279,4.938749,22.170535,28.352726,31.973116,23.299406,43.976458,50.668127,53.426061,37.083753,57.030742,62.094325,63.29626,46.444535,62.643372,65.759311,65.254587,28.603723,295.084375,-75.937483,265.165769
32,8.208962,-4.923361,-8.952152,-13.829844,-15.271775,-31.728344,-48.390473,-61.973854,-41.064537,-61.621514,-68.462483,-72.777569,-41.738457,-63.9352,-71.646332,-74.554974,-40.361447,-60.757691,-68.780388,-73.442402,-38.193421,-56.138283,-63.400624,-68.16449,-19.15946,-22.641924,-14.998298,-6.959679,7.012822,13.177267,14.179365,15.499885,25.113992,29.952248,29.891189,29.772319,37.016408,42.880549,42.533919,41.987761,43.990389,52.238675,51.768248,50.505922,22.59835,42.201645,56.695724,68.595131,36.368099,52.100738,59.513294,63.75666,27.020839,44.02343,51.145775,54.161773,18.482196,33.060928,38.886818,41.27481,11.596435,22.99665,26.689315,27.005756,-18.382814,-26.1008,-30.278055,-37.011814,-2.497916,10.215926,13.319712,13.813703,14.810218,30.612803,35.203601,36.462901,28.265275,43.279888,46.434,46.680594,37.816471,49.87603,51.633644,50.631694,36.391096,290.577261,-85.311224,251.752172
33,17.003643,-0.639166,-11.705601,-14.85216,-24.045387,-48.027626,-70.309708,-87.038281,-55.301834,-87.060745,-100.238056,-108.647644,-52.163475,-87.431019,-102.559548,-111.592449,-47.012238,-79.762276,-95.368756,-105.772568,-41.229126,-68.514794,-81.992386,-91.701634,-19.556392,-22.45366,-13.743332,-5.172251,9.099306,13.362295,13.042268,13.327616,27.116718,30.042798,27.914299,26.536128,38.940069,43.52006,41.932914,40.192849,45.464816,52.437635,51.775251,50.52483,21.770782,39.419151,51.153957,60.243244,29.625137,36.474941,39.414379,39.856945,19.735142,27.246105,28.880459,27.320251,11.175156,17.428917,17.696857,15.757164,4.664028,9.437988,8.848034,6.077385,-20.453083,-33.475417,-42.954908,-53.28737,-14.328319,-8.396117,-9.327882,-12.097116,2.272119,11.052126,10.789896,8.292376,16.091589,24.686184,23.231765,20.132993,26.81766,34.4932,33.903557,31.474691,52.877941,290.423769,-97.533623,237.385686
34,1.108818,-2.643523,-11.736431,-17.848043,-25.364525,-49.731995,-71.995045,-88.833584,-58.172035,-89.101742,-104.306603,-115.351055,-52.919907,-87.09367,-104.504093,-117.537277,-45.794586,-77.432808,-94.751701,-107.965187,-38.213448,-64.794834,-79.185951,-90.783875,-19.279281,-20.055064,-8.157167,2.874161,8.572489,19.879928,24.494969,27.831121,26.188276,36.09671,39.044008,40.904795,38.800551,48.893174,51.775473,52.811163,46.633912,55.947911,57.598537,57.983884,20.025684,34.124748,42.798603,49.597835,18.437874,15.505531,14.023121,12.057586,8.755943,5.286655,2.341965,-1.583244,0.703445,-2.63118,-6.510761,-10.726811,-5.147072,-7.483154,-10.638485,-14.473664,-22.118565,-40.066359,-53.815453,-67.812678,-26.833333,-30.060631,-35.189306,-40.587768,-11.052743,-11.515414,-16.132443,-20.860876,2.999119,3.502274,-1.72538,-6.634723,15.278077,16.674489,13.733341,10.652576,53.263258,288.442355,-109.993555,220.199752
35,0.463737,-0.693321,-12.659706,-18.362955,-26.513305,-51.124809,-74.000942,-91.75233,-58.816543,-89.949543,-105.586372,-117.455726,-53.095779,-87.606296,-105.103111,-118.954948,-45.680076,-77.977707,-95.31958,-108.834869,-38.056274,-64.827175,-79.411583,-91.403572,-18.896231,-19.143517,-6.73203,4.362185,9.044707,21.003995,26.500214,30.403038,26.689417,36.778928,40.15822,42.164886,39.143302,49.517693,52.325397,53.166438,46.882667,56.429231,57.963296,58.136123,19.64003,30.875152,36.099918,39.677456,10.483429,0.545631,-5.642556,-11.206158,-1.235012,-12.72171,-19.797295,-26.099728,-10.736687,-21.376099,-28.239899,-33.545311,-17.504769,-25.879738,-31.47733,-35.896065,-23.404641,-45.389399,-63.115602,-80.024662,-38.462713,-47.1517,-54.881802,-62.526917,-25.190673,-32.811766,-41.170518,-48.411396,-12.032141,-18.175752,-26.835944,-34.016739,0.909473,-2.680943,-8.255943,-13.018419,52.617141,288.676596,-123.763115,202.764359
36,0.641671,-0.435896,-9.005036,-14.299234,-26.764138,-51.428605,-74.455674,-92.428597,-59.04506,-90.573098,-106.220238,-118.05867,-53.322739,-88.163647,-105.637471,-119.454724,-45.962723,-78.59388,-95.894452,-109.332482,-38.446381,-65.356167,-79.860226,-91.723401,-18.940358,-19.100119,-6.665451,4.253504,9.062379,21.131695,26.561409,30.349055,26.829393,37.027387,40.261046,42.044102,39.369531,49.786257,52.425507,53.067798,47.183897,56.662499,58.005064,58.046054,17.917363,24.850354,26.83318,27.915356,0.027535,-13.013294,-21.520649,-29.298683,-12.660129,-28.027279,-36.873527,-44.871505,-22.443031,-37.549747,-46.129554,-53.093319,-29.20253,-42.018551,-49.240413,-55.088241,-26.93669,-52.888054,-72.604745,-90.359347,-49.903052,-63.522031,-72.455136,-81.041098,-37.824529,-52.124202,-61.470966,-69.656768,-24.725865,-37.147244,-46.612206,-54.250911,-10.960932,-19.457666,-25.192772,-29.971365,52.046626,289.08921,-133.980337,189.313635
37,0.995796,-0.40959,-6.697277,-12.42559,-26.855576,-51.606606,-74.731064,-92.746227,-59.293122,-90.954426,-106.690499,-118.610825,-53.601677,-88.531975,-106.005673,-119.80283,-46.314446,-79.099835,-96.451985,-109.833115,-38.916115,-65.878601,-80.387982,-92.162865,-18.866851,-19.006123,-6.552287,4.285737,9.003518,21.351662,26.756922,30.45571,26.838421,37.292321,40.53423,42.216768,39.425723,49.972027,52.563729,53.070428,47.336606,56.78947,58.047548,57.956614,15.568508,19.507576,20.011963,21.31152,-11.73563,-27.100422,-37.632683,-47.569244,-24.010505,-40.397346,-50.28994,-59.912681,-32.317943,-48.061901,-57.920425,-66.540333,-37.326565,-51.209072,-59.904453,-67.254616,-28.677386,-56.627851,-77.814955,-97.155567,-57.548149,-72.440891,-81.730499,-90.114594,-45.853423,-61.549384,-72.395844,-82.048174,-32.174343,-45.478611,-56.299228,-65.216445,-17.02948,-25.897197,-32.324723,-38.06669,51.784607,289.484759,-141.935429,177.693184
38,1.159149,-0.101469,-4.744228,-11.347997,-26.754158,-51.548195,-74.855587,-92.917511,-59.513832,-91.402657,-107.280155,-119.271194,-53.879105,-89.036877,-106.590454,-120.333984,-46.623024,-79.568058,-96.981033,-110.346634,-39.266396,-66.319725,-80.822628,-92.529247,-18.864689,-19.053386,-6.673614,4.259087,8.912178,21.309005,26.672461,30.337175,26.798481,37.305635,40.571318,42.232515,39.374249,49.948167,52.541277,52.975691,47.236361,56.614952,57.844217,57.699943,12.860905,13.905773,12.768059,14.157246,-19.966049,-35.207268,-46.900005,-58.041447,-32.011768,-48.442303,-58.819004,-69.032341,-39.795456,-56.399918,-66.515751,-75.607006,-44.178417,-59.058094,-68.16045,-76.331349,-29.66307,-58.383786,-79.570118,-99.072658,-61.217957,-76.483912,-85.821958,-94.306823,-50.04535,-66.57202,-77.185743,-87.026122,-36.238859,-50.214355,-60.686051,-69.555602,-20.368596,-30.041613,-36.735796,-42.980041,51.435316,290.155516,-148.188097,167.117413
39,1.143562,0.005669,-5.383942,-8.666028,-26.658645,-51.509926,-74.945949,-93.21191,-59.934036,-91.891605,-107.776725,-119.760097,-54.342521,-89.506302,-107.032219,-120.725521,-47.028969,-79.958656,-97.366951,-110.747188,-39.592048,-66.678016,-81.153602,-92.843811,-18.879015,-19.097179,-6.722706,4.142712,8.794827,21.206351,26.513984,30.167349,26.67619,37.216158,40.521954,42.245507,39.305249,49.849971,52.51055,53.027549,47.247772,56.611802,57.854986,57.70844,11.721153,11.374626,9.117405,10.168854,-22.989269,-37.311596,-49.750076,-62.65179,-35.295856,-50.594135,-61.962101,-74.101204,-42.967186,-59.013359,-69.917976,-80.493358,-47.024482,-61.672462,-71.549709,-81.110149,-29.744914,-58.833774,-80.128162,-99.841456,-61.543233,-76.279642,-85.965589,-95.150265,-50.820867,-66.924541,-78.237976,-89.297759,-37.104711,-50.914067,-61.866837,-71.635888,-21.045467,-30.287386,-37.386398,-44.344922,51.031769,290.729304,-155.119148,159.019504
40,1.092957,0.035506,-4.344681,-8.000668,-26.564163,-51.415993,-74.966641,-93.290211,-60.12339,-92.233338,-108.17807,-120.197766,-54.602028,-89.862946,-107.444069,-121.169724,-47.305092,-80.388439,-97.929508,-111.401528,-39.862267,-67.144947,-81.745445,-93.541603,-18.904839,-19.200413,-6.805883,4.143243,8.674945,21.256616,26.58196,30.261346,26.565411,37.095066,40.416386,42.185894,39.235088,49.627843,52.291682,52.810373,47.216131,56.496947,57.795076,57.673477,11.105324,10.12016,7.41417,8.631192,-24.992488,-40.45737,-53.24731,-66.332244,-37.248584,-53.578811,-65.63895,-78.096702,-44.852943,-61.764862,-73.416996,-84.476944,-48.840374,-64.055442,-74.433025,-84.627674,-28.477653,-57.530907,-78.760125,-98.469281,-59.945361,-74.990052,-84.826312,-93.897522,-49.145282,-65.72352,-77.28826,-88.239375,-35.338019,-49.754412,-61.07422,-70.986211,-19.165895,-28.875548,-36.201926,-43.351006,50.8946,291.077718,-160.693955,151.331744
41,1.013443,-0.020031,-1.714805,-5.89294,-26.520767,-51.379509,-75.06736,-93.550598,-60.165756,-92.355103,-108.382073,-120.552441,-54.803124,-90.016651,-107.644295,-121.532387,-47.639443,-80.678444,-98.355011,-112.03442,-40.308357,-67.530636,-82.217034,-94.191525,-18.879213,-19.321457,-6.996581,3.889596,8.459732,21.129731,26.503499,30.212278,26.28594,36.811668,40.17814,42.025033,38.971747,49.20873,51.905222,52.439265,47.045378,56.319488,57.731139,57.686506,10.932564,9.618164,6.304172,7.55365,-26.653038,-44.00544,-57.075852,-70.165501,-38.899796,-57.269108,-70.280102,-83.297058,-46.176567,-64.524948,-76.767128,-88.306046,-49.63084,-65.930329,-76.505825,-86.887116,-27.315987,-56.296073,-77.656096,-97.469728,-58.67242,-74.119403,-83.907658,-92.599331,-47.452635,-64.188751,-75.725241,-86.208015,-33.34245,-48.091277,-59.450296,-69.498267,-16.747675,-26.846301,-34.235367,-41.500995,50.675858,291.240428,-163.640945,145.621545
42,0.697586,-0.033123,2.594307,-3.711077,-26.426285,-51.189926,-74.939633,-93.519711,-59.806824,-92.33836,-108.537346,-120.817051,-54.516884,-90.060608,-107.848686,-121.910385,-47.479935,-80.744923,-98.581764,-112.446694,-40.301743,-67.647148,-82.45285,-94.60334,-18.925452,-19.471103,-7.173558,3.638038,8.244149,20.903169,26.335291,30.114107,26.087634,36.533359,39.906278,41.855071,38.791608,48.929384,51.632187,52.223805,46.86508,56.119614,57.548086,57.551952,10.608604,8.462093,4.312752,5.13715,-29.096295,-48.919064,-62.460263,-75.596375,-40.998265,-61.921692,-75.956486,-89.522759,-47.673146,-68.033901,-80.973828,-93.037113,-50.183487,-68.002854,-78.840145,-89.380131,-26.684718,-55.669892,-77.281134,-97.229636,-57.575164,-73.515063,-83.300879,-91.651974,-45.926307,-63.095607,-74.703505,-84.670738,-31.494328,-46.627452,-57.883088,-67.80441,-14.520547,-24.947123,-32.297108,-39.391125,50.003924,291.324603,-162.416158,142.027766
43,0.599647,-0.158687,6.640892,-2.977135,-26.393783,-51.138382,-74.884964,-93.552864,-59.512046,-92.135444,-108.430526,-120.864338,-54.305671,-89.887481,-107.75568,-122.003757,-47.407379,-80.68206,-98.627781,-112.62846,-40.380729,-67.643554,-82.530853,-94.816166,-18.887833,-19.549859,-7.370331,3.186112,8.025578,20.737999,26.264612,30.087209,25.878067,36.356729,39.776244,41.774129,38.64494,48.7469,51.466202,52.063082,46.820003,56.16573,57.623978,57.634365,10.175354,7.156849,2.23748,2.179195,-31.064747,-52.567852,-66.205799,-78.962895,-42.304379,-65.30793,-79.949627,-93.747471,-48.368649,-70.226143,-83.521248,-95.715157,-50.179688,-69.170975,-80.057739,-90.226925,-26.250329,-54.658618,-76.16331,-96.2116,-55.515226,-71.439848,-80.851494,-88.802057,-43.175499,-60.382999,-71.866933,-81.265537,-28.474758,-43.671744,-54.922323,-64.659604,-11.468645,-21.920872,-29.191347,-35.938345,49.44778,291.407604,-156.931057,139.292319
44,0.23497,-0.136703,10.094456,-2.113309,-26.431457,-51.164176,-74.908779,-93.660896,-59.243659,-92.0228,-108.38673,-120.853649,-54.025177,-89.795024,-107.712741,-122.013221,-47.172454,-80.576396,-98.591423,-112.701129,-40.199478,-67.586791,-82.579479,-94.972686,-18.972357,-19.675484,-7.560794,2.911174,7.87009,20.634777,26.237911,30.151232,25.692815,36.285716,39.740664,41.853602,38.464505,48.668007,51.404847,52.069096,46.64042,56.146069,57.670303,57.772858,9.971889,6.398128,0.75682,-0.729218,-29.841408,-53.99833,-67.60738,-79.076569,-40.588189,-65.946614,-80.304348,-92.52158,-46.40038,-69.912426,-83.070763,-94.261185,-48.041646,-68.191979,-78.861226,-88.027794,-26.344412,-53.583087,-74.239939,-93.65049,-53.174595,-69.269507,-77.987096,-85.064632,-40.084502,-57.444865,-67.983456,-75.813,-25.118326,-40.441259,-50.979844,-59.759721,-8.726741,-19.275194,-26.198273,-32.475271,48.829988,291.595838,-147.689363,137.503947
45,0.072007,-0.117721,16.257202,-0.180027,-26.48877,-51.298256,-75.054119,-93.878826,-59.097954,-91.951584,-108.324303,-120.712406,-53.822594,-89.764927,-107.695816,-121.961586,-46.985642,-80.529408,-98.542969,-112.619625,-40.097626,-67.544747,-82.497242,-94.868374,-19.011741,-19.70878,-7.606119,2.746646,7.621508,20.552785,26.217225,30.169251,25.435119,36.227609,39.732105,41.927764,38.256912,48.59818,51.382271,52.144654,46.490972,56.107549,57.691669,57.903522,10.779693,7.64479,2.068508,-0.349411,-23.997403,-49.068638,-61.129761,-70.742066,-33.882901,-60.409985,-72.907585,-82.870594,-39.654785,-63.913616,-75.33553,-84.166306,-41.740586,-62.123131,-71.521672,-78.663929,-26.89186,-53.765868,-74.793606,-94.44242,-50.470409,-65.563834,-73.188948,-78.958233,-36.854801,-53.24136,-62.548382,-68.785032,-22.224912,-37.010412,-46.152536,-53.188495,-7.074016,-17.47491,-23.612043,-28.484552,48.273062,291.939639,-132.061094,137.785442
46,-0.268914,-0.094428,17.048698,-0.89222,-26.56517,-51.340713,-74.988842,-93.775051,-59.077858,-91.899478,-108.242775,-120.48888,-53.712341,-89.742828,-107.634887,-121.767173,-46.841835,-80.452835,-98.38742,-112.327663,-39.957939,-67.474788,-82.360187,-94.641208,-19.006283,-19.692614,-7.660732,2.682277,7.538132,20.619907,26.289336,30.218441,25.344518,36.310465,39.828398,42.05229,38.192333,48.7283,51.552418,52.425099,46.399025,56.154182,57.814218,58.150424,10.866669,10.854447,6.693455,2.94128,-8.864651,-22.429035,-32.519005,-41.424442,-15.464035,-29.391563,-39.531773,-48.888977,-19.478508,-31.945061,-41.377773,-49.863327,-20.937733,-31.673092,-39.264587,-45.953773,-28.177028,-54.336052,-75.23249,-94.372506,-47.542525,-58.751108,-63.619344,-67.230576,-32.477234,-45.589551,-51.994896,-55.69256,-17.179637,-29.716972,-36.374765,-40.981019,-2.323149,-12.057169,-17.173716,-20.46965,47.630373,292.330656,-115.386171,137.378667
47,-0.432243,0.029887,15.806786,-1.181236,-26.660156,-51.605598,-75.277519,-94.047169,-59.346336,-92.113449,-108.357651,-120.3895,-53.827858,-89.937458,-107.741478,-121.591164,-46.840393,-80.568581,-98.407905,-112.109516,-39.883507,-67.535042,-82.340904,-94.464352,-19.138836,-19.849818,-7.862445,2.578907,7.35645,20.580251,26.230155,30.036536,25.240925,36.399929,39.865769,41.917044,38.192852,48.911365,51.689022,52.468436,46.426528,56.305261,57.937978,58.223648,11.73555,16.256538,15.274509,12.235885,8.551643,5.327476,2.194702,-0.45797,4.842155,2.396198,0.075496,-2.556588,2.259144,0.718002,-1.352303,-3.774777,0.852173,-0.48507,-2.469372,-4.256333,-29.552401,-54.854107,-74.800583,-93.088128,-44.686822,-53.261138,-56.269186,-58.055353,-28.508868,-38.69324,-43.123838,-45.024183,-12.977843,-23.021714,-28.147431,-31.22998,1.260894,-6.899299,-11.202154,-13.517085,47.270817,292.76481,-99.506698,136.601698
48,-0.47866,0.073989,19.432434,-3.494097,-26.782769,-51.865426,-75.623909,-94.30616,-59.590737,-92.518776,-108.575524,-120.236149,-53.896225,-90.266201,-107.772526,-121.077416,-46.853394,-80.903229,-98.545281,-111.828919,-39.966843,-67.89814,-82.573037,-94.391854,-19.285888,-19.972158,-7.937003,2.689614,7.199283,20.500618,26.067702,29.751867,25.209334,36.566062,39.89026,41.747441,38.255196,49.116537,51.792059,52.543129,46.474262,56.372927,57.909784,58.17373,11.290054,20.83548,24.143188,22.666179,27.098385,37.297439,40.851825,43.120685,26.513878,38.830524,43.835003,46.396625,25.209755,37.379402,42.031437,44.115211,23.624153,33.486305,36.924007,38.888099,-31.008927,-55.66615,-75.020329,-92.967154,-42.286973,-49.029358,-50.610323,-50.978016,-24.809383,-33.807764,-37.081388,-37.754875,-8.669036,-17.558415,-21.962769,-24.276323,5.176981,-3.0244,-7.613141,-9.926046,47.087769,293.003401,-79.778652,133.272203
49,-0.113732,0.070581,17.778465,-3.91702,-26.816162,-52.054779,-75.826343,-94.228397,-59.889633,-92.876747,-108.611973,-119.744373,-54.168457,-90.661583,-107.802841,-120.458897,-47.204727,-81.417663,-98.811424,-111.509228,-40.522156,-68.512401,-83.049957,-94.568561,-19.346219,-20.014704,-8.038138,2.566434,6.869425,20.173761,25.766002,29.413944,25.08193,36.481341,39.746023,41.444061,38.304139,49.140768,51.771459,52.488764,46.6204,56.466997,57.954762,58.207717,11.891144,26.309647,34.521481,35.169239,43.924748,67.890118,78.191025,85.144375,46.555676,73.319435,85.580292,93.100719,47.027607,72.232452,83.696343,90.492336,45.928265,66.194675,74.661633,80.400421,-32.185365,-56.7598,-76.157648,-94.646364,-40.96113,-45.96103,-46.655055,-46.173463,-22.653355,-30.144853,-32.722235,-33.032963,-6.361892,-14.003635,-17.858047,-19.610801,7.46936,-0.242791,-4.777982,-6.865207,47.383421,293.049122,-61.590803,129.330323
50,-0.099151,0.001667,13.577202,-6.278893,-26.786934,-52.15123,-75.818551,-93.955124,-59.991692,-93.215184,-108.460751,-118.683735,-54.246758,-91.047959,-107.642235,-119.196133,-47.375679,-81.850514,-98.919022,-110.848252,-40.902077,-69.106225,-83.639397,-94.828148,-19.383639,-19.976616,-8.082758,2.542191,6.769982,20.053632,25.516283,28.926783,25.158267,36.632629,39.625771,40.929927,38.522735,49.358167,51.761073,52.222101,46.858967,56.67916,58.04025,58.105928,11.956833,30.349972,42.380905,44.652271,56.683651,92.474224,107.861057,118.682773,61.822929,102.004749,120.153522,131.99509,64.012287,101.464657,118.276874,128.466259,63.654442,93.668781,106.277813,114.860859,-33.199121,-56.889173,-75.10862,-93.612575,-40.393625,-44.636681,-45.09385,-44.433973,-21.112571,-28.114475,-30.478565,-31.060445,-4.011363,-10.847004,-15.047193,-17.417729,10.593419,3.289209,-1.763635,-4.739727,47.752505,292.853018,-47.545366,122.853659
51,0.386077,0.237381,12.794952,-5.989358,-26.654457,-52.378463,-76.071006,-94.079509,-60.089561,-93.835796,-108.46574,-117.420066,-54.31398,-91.701244,-107.660122,-117.861854,-47.556747,-82.561924,-99.287017,-110.331905,-41.353729,-69.934421,-84.569114,-95.420539,-19.497186,-20.085791,-8.249287,2.234513,6.45319,19.820845,24.894284,27.781066,25.109545,36.647388,39.140425,39.914108,38.684274,49.333034,51.33003,51.38479,47.111427,56.758114,57.87345,57.644578,12.644051,32.248341,46.942704,51.354721,60.312733,96.007954,116.13905,131.926907,65.593815,105.934193,129.534748,147.275791,67.710125,105.365307,127.221508,142.708523,66.891461,97.229725,113.474636,126.37682,-33.217794,-56.380954,-73.74472,-92.564763,-40.067657,-46.556186,-48.335024,-48.342311,-20.687821,-29.809795,-33.716238,-35.573702,-3.715979,-11.754815,-17.335601,-20.91358,10.70176,3.063036,-2.785098,-6.792305,48.760459,292.802867,-34.128537,116.576769
52,1.002755,0.141223,12.245224,-6.176066,-26.678467,-52.665047,-76.355198,-94.267548,-60.157036,-94.515667,-108.473122,-116.066677,-54.459687,-92.344735,-107.510811,-116.323231,-47.949829,-83.336106,-99.572995,-109.680519,-42.115448,-70.932633,-85.575795,-96.041645,-19.411748,-20.006355,-8.296983,2.049052,6.228974,19.65675,24.256933,26.594223,25.083623,36.722155,38.660933,39.00697,38.855595,49.285474,50.824492,50.562275,47.395652,56.777541,57.656446,57.214993,12.396653,32.269261,48.304058,52.94244,61.679089,99.344502,119.563168,134.948307,67.440342,109.660023,133.487377,151.008648,69.714695,108.969326,130.673504,145.70097,68.830456,100.285755,116.485485,129.2608,-32.941505,-55.84133,-73.056888,-92.406763,-39.935758,-47.576945,-49.814002,-50.235282,-20.249325,-31.138171,-35.689725,-38.127107,-2.920381,-12.583666,-18.759967,-22.875342,11.895593,3.097116,-3.380675,-8.059985,50.416237,292.59583,-21.23029,110.052443
53,1.271621,0.269442,5.795174,-3.631727,-26.753311,-52.962867,-76.613788,-94.555664,-60.251587,-95.274971,-108.500702,-114.42762,-54.592117,-92.999061,-107.455261,-114.90414,-48.215652,-83.924881,-99.698238,-108.949447,-42.571838,-71.633857,-86.300663,-96.393253,-19.260781,-19.93454,-8.431809,1.782315,6.198457,19.691997,23.70649,25.303022,25.204987,36.896032,38.287108,38.159062,39.116293,49.330008,50.400649,49.736301,47.743937,56.930743,57.541924,56.772427,13.27026,32.949337,49.672497,54.427288,61.644253,98.221607,118.697742,134.75005,67.566296,108.529392,132.903065,151.550411,70.13673,108.225941,130.264652,146.291141,69.541935,100.128445,116.220142,129.60474,-32.593585,-55.388292,-72.543489,-91.987008,-39.850246,-48.105967,-50.710235,-51.315266,-20.318955,-31.494304,-36.121651,-38.671394,-3.138224,-13.377622,-19.386172,-23.269982,11.784615,2.985385,-3.057504,-7.513784,52.337665,292.559144,-14.785309,106.114588
54,1.234543,0.250806,4.750751,-2.634786,-26.679794,-53.072662,-76.772301,-95.052749,-59.955597,-95.94627,-108.23315,-112.115055,-54.546982,-93.631885,-107.157841,-112.856769,-48.495415,-84.668461,-99.683521,-107.72953,-43.116394,-72.387211,-86.971767,-96.493023,-18.993649,-19.963489,-8.7343,1.499114,6.282141,19.659503,22.633971,22.977661,25.437785,37.070032,37.39306,36.288914,39.465429,49.32697,49.392413,47.93167,48.159887,56.996803,57.110992,55.819754,12.610978,32.085434,48.974602,53.802338,60.547554,97.294877,117.93377,134.021393,66.659569,107.621087,132.136551,150.731942,69.211441,107.392731,129.520455,145.490181,68.532761,99.378548,115.566262,128.937951,-32.418157,-55.172875,-72.518806,-91.965617,-39.423797,-47.994352,-50.805207,-51.565959,-19.949538,-31.552503,-36.503885,-39.240268,-2.778113,-13.525019,-19.85356,-23.980667,12.282651,3.043913,-3.182591,-7.735881,54.131212,292.568691,-9.475554,103.238543
55,1.267365,0.44191,2.965828,-1.821458,-26.625435,-53.150002,-76.977139,-95.486561,-59.485268,-96.591751,-107.834782,-109.652127,-54.408944,-94.162995,-106.597309,-110.590931,-48.762108,-85.47646,-99.353886,-105.956532,-43.718743,-73.114632,-87.364735,-96.107678,-18.822353,-20.14806,-9.191302,1.224313,6.305668,19.444464,21.210032,20.316639,25.594163,36.947186,36.082495,34.022155,39.729413,49.121082,48.104065,45.920398,48.47148,56.820086,56.33106,54.584561,11.663933,30.655999,47.617722,52.385697,58.987267,96.419815,117.186013,133.187874,65.437134,106.74852,131.346245,149.638138,68.036454,106.613526,128.795037,144.492737,67.377022,98.583321,114.857712,128.046799,-32.079227,-54.684423,-72.184823,-91.453514,-38.778474,-47.647334,-50.567221,-51.476718,-19.212899,-31.209127,-36.408049,-39.235446,-2.028976,-13.438396,-19.935163,-24.074991,13.018636,3.287938,-3.079974,-7.66246,55.878497,292.812858,-6.029806,101.219342
56,0.882476,0.264131,1.544999,-1.067189,-26.622116,-53.179893,-77.099853,-95.659458,-58.807777,-96.755699,-106.731136,-106.567554,-54.110252,-94.236236,-105.356975,-107.580104,-48.827911,-85.889877,-98.316341,-103.225982,-44.060256,-73.345985,-86.942573,-94.539344,-18.757515,-20.323579,-9.58496,1.350062,6.466034,19.228523,19.882423,17.986241,25.774487,36.889882,34.93826,31.890149,39.93393,49.09096,47.02121,44.112519,48.660918,56.676764,55.511991,53.227114,10.722999,29.444984,46.507873,51.378044,57.805572,95.483734,116.42443,132.566871,64.526321,105.729492,130.420669,148.602195,67.152694,105.664833,127.962295,143.644226,66.469985,97.792923,114.18505,127.381713,-31.952874,-54.585054,-72.267273,-91.422232,-38.381851,-47.582867,-50.682694,-51.750266,-18.902554,-31.141751,-36.52146,-39.378589,-1.82428,-13.669849,-20.290598,-24.392783,13.187233,3.149481,-3.300257,-7.907986,57.116781,292.945492,-4.128999,100.020656
57,0.671357,0.225501,0.695777,-0.458879,-26.58046,-53.182618,-77.311341,-96.14233,-58.35331,-96.548149,-104.837471,-102.689965,-54.042527,-94.011052,-103.466915,-103.833664,-49.095589,-86.116803,-96.667683,-99.79121,-44.571328,-73.531266,-86.166458,-92.474465,-18.76164,-20.430025,-9.769434,1.630593,6.637329,18.649266,18.198179,15.685259,25.91193,36.493431,33.554766,29.836909,40.052774,48.869486,45.750176,42.325807,48.741872,56.52918,54.714903,51.999416,10.208405,28.573563,45.453713,50.376732,57.265709,94.7528,115.758797,131.857796,64.018776,104.949601,129.648491,147.752037,66.588913,104.879586,127.220581,142.961518,65.820832,96.984078,113.355401,126.51764,-31.851128,-54.507836,-72.398011,-91.530061,-38.115714,-47.403359,-50.688005,-52.00324,-18.678555,-31.062119,-36.67633,-39.713642,-1.686404,-13.794196,-20.589051,-24.716047,13.239195,2.950552,-3.542455,-8.055163,58.119725,293.146839,-3.101635,99.537623
58,0.074775,0.060391,0.007348,-0.02911,-26.357895,-52.964744,-77.234974,-96.320114,-57.860321,-95.899875,-102.596695,-98.844715,-53.868141,-93.456424,-101.41872,-100.144878,-49.203964,-86.108493,-95.026668,-96.548343,-44.84214,-73.465919,-85.458355,-90.834526,-18.825564,-20.590205,-10.031416,1.583046,6.492945,17.7651,16.100173,13.029646,25.834743,35.717847,31.610222,27.245394,40.040166,48.530526,44.312726,40.379311,48.759423,56.382215,54.025819,51.024699,10.065353,28.231315,44.765853,49.518333,56.877525,94.280799,115.388763,131.521408,63.494773,104.32109,129.05825,147.183013,65.934356,104.175384,126.572021,142.387115,65.048721,96.198234,112.628471,125.811172,-31.774563,-54.551258,-72.664593,-91.844357,-37.983308,-47.029644,-50.340671,-51.771403,-18.526198,-30.83337,-36.572385,-39.735235,-1.572702,-13.682514,-20.573143,-24.692174,13.266348,2.934473,-3.557595,-7.944344,58.460466,293.26011,-2.828321,99.561393
59,-0.214027,0.071989,-0.307412,0.163861,-26.231163,-52.7677,-77.168358,-96.235073,-57.543457,-95.154888,-100.361984,-95.392605,-53.715866,-92.70052,-99.090408,-96.435871,-49.155716,-85.729282,-92.998924,-93.131149,-44.857201,-73.109871,-84.301975,-88.68441,-19.018979,-20.751078,-10.213407,1.76206,6.383721,16.970619,14.376731,11.168093,25.701942,34.81655,29.889978,25.337874,39.889519,48.04313,43.114385,39.054616,48.59466,56.167187,53.366139,50.236331,10.149468,28.24411,44.580689,49.239327,56.490509,93.862404,115.027497,131.198662,62.997437,103.813317,128.476731,146.551827,65.412667,103.685669,126.084389,141.930909,64.514603,95.677323,112.121132,125.288567,-31.780467,-54.590952,-72.681124,-91.774876,-37.832137,-46.621592,-49.938429,-51.459755,-18.239071,-30.430306,-36.179813,-39.416016,-1.236792,-13.248717,-20.121118,-24.213114,13.545991,3.266307,-3.227521,-7.611115,58.448656,293.430498,-2.933516,99.823653
60,-0.381866,0.098517,-0.549087,0.516752,-26.000039,-52.45633,-76.945313,-95.977971,-57.519677,-94.396557,-97.983548,-92.027813,-53.743813,-91.959778,-96.805745,-92.986359,-49.156083,-85.22913,-91.058854,-90.101086,-44.770226,-72.652817,-82.998471,-86.430108,-19.291879,-20.968032,-10.445836,1.753699,6.178054,16.172309,12.792277,9.580873,25.414456,33.95108,28.517723,24.037669,39.5564,47.476742,42.046732,37.999425,48.284648,55.882813,52.707867,49.469082,10.135986,28.231315,44.583504,49.307304,56.266022,93.615372,114.854873,131.146797,62.636398,103.376564,128.003952,146.089554,65.007179,103.25283,125.658256,141.58461,64.110649,95.274582,111.771309,125.012649,-31.780238,-54.626779,-72.641486,-91.652196,-37.736102,-46.236349,-49.441214,-50.912448,-18.103985,-30.09418,-35.770618,-39.010199,-1.117077,-12.95234,-19.722087,-23.775007,13.63903,3.450564,-2.981834,-7.359642,58.188447,293.610192,-3.360946,100.421582
61,-0.334122,0.015684,-0.56939,0.377907,-25.78553,-52.214905,-76.770127,-95.87875,-57.740914,-93.77068,-96.521507,-90.214737,-53.806641,-91.260578,-95.358994,-91.177071,-49.075974,-84.637768,-89.920727,-88.764588,-44.525093,-72.218079,-82.485192,-85.975365,-19.394433,-20.953495,-10.379713,1.579687,6.281116,15.647147,11.775223,8.680206,25.449408,33.374567,27.727072,23.588831,39.516287,47.174907,41.575219,37.738098,48.232827,55.929781,52.820414,49.828396,10.234452,28.342255,44.638802,49.297165,56.008164,93.497384,114.812302,131.149704,62.189438,103.040337,127.684983,145.794526,64.434311,102.815163,125.231507,141.247124,63.435288,94.708901,111.222542,124.550469,-31.544408,-54.322054,-72.27091,-91.293717,-37.66094,-45.751479,-48.746961,-50.085914,-18.046885,-29.673284,-35.192492,-38.395029,-1.025829,-12.533765,-19.135576,-23.139553,13.786885,3.840801,-2.438011,-6.753538,57.893795,293.692388,-3.890866,100.866001
62,-0.625145,0.020625,-0.546134,0.314433,-25.53289,-51.905548,-76.314892,-95.265747,-57.910378,-93.333893,-95.956124,-89.66629,-53.749329,-90.693043,-94.759163,-90.698113,-48.709328,-83.966675,-89.474339,-88.605709,-43.817436,-71.434525,-82.135769,-86.190457,-19.485812,-21.062078,-10.595938,1.035505,6.452622,15.456499,11.233388,7.964148,25.605352,32.992146,27.168279,23.064137,39.585151,46.983628,41.435737,37.64704,48.246659,56.016923,53.155594,50.402069,10.251091,28.415565,44.743995,49.408744,55.774498,93.328674,114.6538,131.052337,61.878364,102.775085,127.376312,145.474525,64.045967,102.511756,124.897544,140.930877,62.939666,94.321151,110.900802,124.299613,-31.429354,-54.079097,-71.881876,-90.874383,-37.475207,-45.384435,-48.237594,-49.417058,-17.890941,-29.344475,-34.751384,-37.891195,-0.881432,-12.193218,-18.634095,-22.535986,13.962281,4.125878,-2.079791,-6.364275,57.22407,293.764432,-4.48158,101.231853
63,-0.498551,0.143903,-0.451493,0.186122,-25.325729,-51.685043,-75.92498,-94.70605,-57.959472,-93.062942,-96.118869,-90.290828,-53.588813,-90.264038,-94.764942,-91.307441,-48.2677,-83.228302,-89.281528,-89.106365,-43.127815,-70.634628,-81.661102,-86.354736,-19.636693,-21.245723,-10.826996,0.643106,6.539035,15.497859,11.574436,8.379741,25.556915,32.958406,27.616575,23.854036,39.451289,46.810406,41.803498,38.333483,48.080625,55.824497,53.398706,50.986735,10.242806,28.410416,44.789223,49.569191,55.796288,93.237465,114.459252,130.783653,61.767174,102.632424,127.139237,145.172837,63.795914,102.272301,124.656121,140.761757,62.531525,93.983368,110.601311,124.073227,-31.302945,-53.79486,-71.414864,-90.239848,-37.37411,-45.16356,-48.010396,-49.220741,-17.90573,-29.105248,-34.404569,-37.557397,-0.88305,-11.974782,-18.263648,-22.185509,14.121103,4.430419,-1.684453,-5.985696,56.63495,293.932427,-5.023642,101.442067
64,-0.560005,0.188833,-0.455795,0.242154,-25.190391,-51.480263,-75.424015,-94.114689,-58.171829,-92.957851,-96.781128,-91.656669,-53.480118,-90.04153,-95.479259,-92.993259,-47.82463,-82.621834,-89.75021,-90.665794,-42.386787,-69.961395,-81.651375,-87.326202,-19.791291,-21.349118,-10.873013,0.170962,6.59156,15.76924,12.232398,9.070641,25.500178,33.283571,28.518785,25.023897,39.319167,46.944083,42.642105,39.446571,47.921889,55.813394,53.866317,51.703052,10.240791,28.368576,44.765785,49.667427,56.00045,93.402351,114.604156,130.890518,61.903976,102.795708,127.308426,145.279289,63.831001,102.356049,124.680176,140.756355,62.444069,93.900627,110.526741,124.002479,-31.123461,-53.506658,-71.037631,-89.88448,-37.398451,-44.802956,-47.523185,-48.677881,-17.9406,-28.760507,-33.963048,-37.119259,-0.843825,-11.587446,-17.749242,-21.664187,14.272021,4.816162,-1.224276,-5.521024,55.954107,294.137544,-5.600275,101.700505
65,-0.424896,0.032962,-0.395165,0.39984,-25.225708,-51.463669,-75.136677,-93.784481,-58.217995,-92.908951,-98.549835,-94.836823,-53.269844,-90.075817,-97.302235,-96.330769,-47.385498,-82.316986,-91.342197,-93.818356,-41.773773,-69.702038,-82.523895,-89.499744,-19.863983,-21.376387,-10.860279,-0.315446,6.760695,16.240951,13.301916,10.145136,25.67471,33.872053,29.727303,26.329524,39.415511,47.323095,43.746697,40.625646,47.946688,56.076784,54.690698,52.69627,10.267548,28.405793,44.848481,49.78759,56.065133,93.476693,114.684723,130.955246,62.027916,103.026581,127.590683,145.568482,63.990441,102.601914,124.93055,140.997002,62.590691,94.006783,110.613121,124.072472,-31.027668,-53.326038,-70.836577,-89.731777,-37.296347,-44.569953,-47.195852,-48.287155,-17.825547,-28.560813,-33.722388,-36.879816,-0.71352,-11.34707,-17.487136,-21.407379,14.411972,4.957669,-1.04812,-5.285113,55.408224,294.173596,-6.116427,102.103435
66,-0.082924,0.0021,-0.375915,0.642421,-25.215706,-51.355636,-74.827949,-93.557144,-58.267639,-93.207035,-100.378818,-97.873215,-53.318573,-90.507751,-99.153305,-99.350246,-47.362427,-82.483223,-92.931702,-96.547943,-41.672768,-69.833736,-83.248489,-90.96365,-19.831775,-21.439435,-11.011186,-0.697718,6.641615,16.528807,14.249661,11.162436,25.604771,34.304428,30.792386,27.51649,39.344905,47.526488,44.601433,41.574564,47.884085,56.122702,55.094545,53.129264,10.363243,28.631378,45.203201,50.268448,56.041557,93.458885,114.662773,130.933617,62.089233,103.192772,127.817482,145.800041,64.174942,102.913834,125.294723,141.325447,62.915543,94.386932,111.052185,124.517647,-31.076599,-53.376309,-70.88654,-89.744844,-37.171291,-44.448515,-47.080972,-48.191769,-17.720992,-28.441505,-33.590397,-36.772575,-0.660569,-11.273378,-17.473008,-21.506057,14.394774,4.932641,-1.07326,-5.332019,55.215454,294.180022,-6.602188,102.750182
67,0.033829,-0.112917,-0.442726,0.771775,-25.245255,-51.333939,-74.741799,-93.659248,-58.163132,-93.546524,-102.290898,-101.194016,-53.192345,-91.096184,-101.202736,-102.646271,-47.252381,-82.777371,-94.64819,-99.400692,-41.615433,-70.239361,-84.170174,-92.455364,-19.768357,-21.352465,-10.824934,-0.628977,6.485806,17.09964,15.91917,13.263606,25.452272,35.02571,32.497575,29.634776,39.212178,47.874946,45.816817,43.10653,47.805872,56.160431,55.526489,53.713052,10.504486,28.893631,45.5606,50.862304,56.252609,93.663231,114.897583,131.184311,62.235374,103.408516,128.104889,146.06504,64.281349,103.124565,125.521889,141.487587,63.020256,94.537651,111.243232,124.708282,-31.063273,-53.399379,-70.911302,-89.654349,-37.223556,-44.264066,-46.844437,-47.965232,-17.741153,-28.24764,-33.34844,-36.563839,-0.613268,-11.005751,-17.232694,-21.378561,14.481793,5.200768,-0.784774,-5.082059,55.167956,294.064221,-7.126241,103.519073
68,0.274109,-0.003001,-0.262093,1.216143,-25.415268,-51.544396,-74.983921,-94.044239,-58.31234,-94.143849,-104.128063,-104.235924,-53.347435,-91.951367,-103.132977,-105.499649,-47.487053,-83.482327,-96.435883,-101.979595,-41.95855,-71.098194,-85.446739,-94.065182,-19.792909,-21.22894,-10.460026,-0.433426,6.494785,17.647625,17.287633,15.040153,25.498425,35.63904,33.668325,30.938599,39.193604,48.158615,46.562083,43.879645,47.731043,56.259948,55.724992,53.784683,10.516228,29.01574,45.828438,51.268479,56.488175,93.674217,114.870804,131.182549,62.587921,103.584618,128.227387,146.146523,64.776192,103.481964,125.691788,141.465798,63.651467,94.964127,111.53817,124.864678,-31.175257,-53.579511,-71.1117,-89.813047,-37.155488,-44.323482,-46.940989,-48.04768,-17.629607,-28.272117,-33.421787,-36.607496,-0.58117,-10.968454,-17.294086,-21.466462,14.342441,5.128613,-0.890935,-5.206671,55.38846,294.049695,-7.441939,104.723691
69,0.49665,-0.129305,-0.462822,1.750118,-25.59954,-51.957916,-75.586074,-94.628116,-58.520141,-94.915718,-106.195541,-107.582988,-53.448257,-92.880809,-105.194915,-108.569835,-47.594284,-84.183757,-98.207565,-104.519405,-42.184867,-71.841487,-86.574817,-95.51564,-19.704866,-21.051469,-10.101442,0.016956,6.472517,18.355556,19.005714,17.269885,25.57271,36.228546,34.971518,32.473664,39.29932,48.453461,47.38608,44.79302,47.821383,56.411125,56.103472,54.211897,10.530762,29.023384,45.932488,51.677147,56.593529,93.805458,114.928391,131.090996,62.725182,103.654427,128.245857,146.10862,64.963783,103.616089,125.81868,141.511368,63.907105,95.169846,111.719788,124.93055,-31.386203,-53.832663,-71.365587,-89.8463,-37.171815,-44.541739,-47.235027,-48.375544,-17.722942,-28.573509,-33.888885,-37.16125,-0.798816,-11.313299,-17.786601,-21.990131,13.947442,4.713471,-1.362356,-5.63441,55.849514,293.904782,-7.940357,106.458201
70,0.707909,-0.166788,-0.737594,2.169329,-25.850555,-52.444382,-76.331097,-95.380268,-58.852661,-95.70861,-107.859581,-110.35223,-53.60788,-93.678486,-106.768433,-111.015781,-47.698585,-84.721802,-99.42176,-106.356365,-42.382416,-72.322311,-87.257961,-96.4678,-19.510253,-20.74741,-9.58443,0.674154,6.52193,18.962106,20.692723,19.781015,25.685713,36.744027,36.264621,34.276344,39.448966,48.851294,48.383263,46.142415,47.950936,56.691188,56.639676,54.946443,10.681091,29.276275,46.222412,52.179908,57.152961,94.17025,115.157684,131.116264,63.141975,103.891479,128.308181,145.954467,65.248901,103.759758,125.829025,141.359871,64.077736,95.203971,111.708549,124.819038,-31.598717,-54.035525,-71.448271,-89.697327,-37.323141,-44.667031,-47.477273,-48.726836,-17.980954,-28.777526,-34.225894,-37.610842,-1.123851,-11.515816,-18.094099,-22.374187,13.521469,4.503964,-1.566824,-5.835062,56.519228,293.705452,-8.716146,108.594988
71,0.837112,-0.236109,-1.400986,2.88359,-26.412757,-53.091842,-77.137962,-96.148715,-59.59307,-96.398574,-109.273143,-113.090652,-54.102859,-94.27938,-108.106212,-113.480976,-48.002288,-85.095153,-100.534904,-108.32278,-42.601181,-72.681198,-87.797893,-97.317615,-19.378564,-20.419182,-9.076249,1.248383,6.594635,19.47913,22.286872,22.308015,25.705659,37.149887,37.534531,36.17901,39.508173,49.314175,49.588557,47.878824,48.067484,57.139743,57.463303,56.105313,11.068954,29.814583,46.729797,52.873375,57.789688,94.648636,115.483269,131.250435,63.65522,104.306213,128.439743,145.7406,65.652077,104.072204,125.946373,141.138794,64.387733,95.370781,111.820244,124.720573,-31.772285,-54.155976,-71.407176,-89.489827,-36.998426,-44.424092,-47.36117,-48.743849,-17.660865,-28.49327,-34.139709,-37.665781,-0.921563,-11.163054,-17.925577,-22.309183,13.427516,4.744321,-1.304527,-5.549121,57.333189,293.368239,-10.140283,111.377474
72,0.765816,-0.24163,-2.069996,4.446085,-26.943214,-53.693687,-77.863151,-96.729378,-60.355362,-96.906212,-110.358982,-115.383236,-54.568702,-94.653316,-109.113819,-115.669601,-48.244331,-85.280182,-101.303947,-109.937897,-42.787102,-72.819671,-87.997547,-97.833023,-19.241984,-19.987311,-8.400464,2.080853,6.928656,20.290828,23.802586,24.463958,25.961788,37.765144,38.80559,37.846877,39.646741,49.972361,50.815304,49.450916,48.074759,57.614703,58.265207,57.148241,11.33765,30.486935,47.436893,53.589764,58.294361,95.089932,115.843311,131.46571,64.083813,104.562183,128.452114,145.403629,66.082569,104.370289,126.234089,141.207378,64.89307,95.897015,112.454166,125.227879,-31.766419,-54.140377,-71.352329,-89.330758,-36.838937,-44.378631,-47.394651,-48.867726,-17.651861,-28.335782,-34.077502,-37.746866,-1.094359,-11.006214,-17.895856,-22.479675,12.977634,4.61501,-1.374008,-5.666668,58.05277,292.954612,-12.256514,115.651562
73,0.798271,-0.781303,-2.835262,5.411362,-27.625328,-54.382278,-78.536785,-97.275878,-61.339416,-97.105362,-110.966354,-117.271579,-55.19133,-94.552906,-109.566982,-117.468338,-48.459068,-84.952571,-101.41959,-110.982513,-42.686004,-72.204048,-87.330997,-97.594322,-18.840162,-19.190558,-7.303122,3.403646,7.716813,21.645286,25.836829,27.108394,26.571808,38.945207,40.751592,40.27541,40.090381,51.257967,52.79086,51.880807,48.353438,58.519519,59.666607,58.942016,12.084709,31.786216,48.922874,55.24546,58.4748,95.528984,116.252701,131.703117,63.797882,104.498474,128.261078,144.981033,65.492523,104.017753,126.060425,140.979377,64.175125,95.559723,112.360885,125.11322,-31.70767,-53.552662,-70.265942,-87.933186,-36.491363,-43.472655,-46.362111,-47.824466,-17.462523,-27.26897,-32.814219,-36.544796,-0.778321,-9.745685,-16.46166,-21.167393,13.40933,5.884357,0.17902,-4.17615,58.764976,291.924477,-15.177841,120.814092
74,0.748124,-0.481468,-3.397019,6.545191,-28.23024,-54.926239,-79.062916,-97.847729,-61.962525,-97.219494,-111.603722,-119.255505,-55.523278,-94.422787,-109.971302,-119.181015,-48.511322,-84.650139,-101.552273,-112.04852,-42.600724,-71.756081,-86.865075,-97.545262,-18.664395,-18.75176,-6.638107,4.245242,8.169394,22.334062,27.009606,28.770172,26.930318,39.737625,42.093786,42.019674,40.321253,52.260115,54.266534,53.703938,48.460513,59.201121,60.658109,60.169268,12.929558,33.638398,51.055641,57.602715,58.828766,95.650749,116.151535,131.517563,63.352021,103.998574,127.434311,144.053627,64.550835,103.167183,125.30262,140.411797,62.946968,94.572327,111.554055,124.406433,-31.300413,-52.271717,-68.075333,-85.324206,-35.138497,-41.177916,-43.883473,-45.162059,-16.240877,-24.713787,-29.959181,-33.587494,0.556829,-6.907296,-13.208833,-17.83584,14.892162,8.586883,3.358303,-0.885414,59.372813,291.155582,-18.715147,127.071856
75,0.484062,-0.436057,-4.119575,7.645751,-28.585533,-55.235413,-79.333225,-98.234711,-62.50438,-97.33263,-112.172951,-120.958935,-55.853966,-94.320545,-110.403328,-120.857369,-48.581291,-84.402523,-101.683995,-113.031533,-42.488251,-71.270005,-86.323689,-97.381302,-18.555986,-18.381109,-5.987851,5.001734,8.573255,22.910391,27.927563,29.977714,27.185311,40.230752,43.020018,43.299883,40.40395,52.856352,55.344561,55.189975,48.411397,59.530596,61.341798,61.231413,14.149498,36.126205,54.066398,61.418724,59.183029,95.839599,116.080284,131.526947,62.294838,102.830726,125.926002,142.899811,62.574577,101.244736,123.788589,139.644493,60.383285,92.320633,109.66983,122.980591,-30.269107,-49.892931,-64.395367,-80.609864,-31.913446,-36.683283,-38.977372,-39.784537,-13.38878,-19.865848,-24.450582,-27.585903,3.243805,-1.993291,-7.445827,-11.621224,17.492817,13.180823,8.784929,4.784546,59.642498,290.408816,-23.049099,134.406898
76,0.021583,-0.382778,-4.596337,10.023895,-28.766761,-55.354911,-79.439792,-98.340133,-62.601265,-97.194156,-112.506122,-122.215908,-55.750442,-94.128559,-110.754249,-122.235637,-48.321212,-84.054073,-101.613842,-113.570606,-42.162597,-70.70977,-85.663353,-96.938656,-18.388087,-18.011348,-5.346684,5.770156,9.030664,23.4647,28.661701,30.899511,27.592233,40.633475,43.608833,44.0543,40.646776,53.324198,55.98217,55.914998,48.467874,59.783908,61.636149,61.561431,15.754578,38.996018,57.579186,66.008034,59.496529,95.728432,115.738015,131.236245,60.84137,101.086762,124.02546,141.651215,59.958138,98.370964,121.343857,138.137307,57.086403,89.120018,106.852204,120.835305,-29.068932,-47.019629,-60.060704,-74.918947,-28.45157,-31.178536,-32.461673,-32.289,-10.600397,-14.375064,-17.633367,-19.760138,5.690461,3.39061,-0.619603,-4.003409,19.885288,18.247395,14.991185,11.18274,59.451553,289.673495,-27.857964,144.07825
77,0.002175,-0.255017,-4.96091,11.890289,-28.894799,-55.280937,-79.349911,-98.405217,-62.643929,-96.93314,-112.562428,-123.042641,-55.76088,-93.753456,-110.634991,-122.817375,-48.271866,-83.664631,-101.311364,-113.694752,-41.97004,-70.162216,-84.983998,-96.379669,-18.192795,-17.845881,-5.243548,5.795919,9.306664,23.49066,28.732059,31.216809,27.796837,40.550409,43.499349,44.134539,40.79105,53.429581,56.095198,56.101756,48.570466,59.901926,61.678658,61.565037,17.508281,41.711918,61.089008,71.059604,59.297985,95.118564,114.902332,130.633403,58.808223,98.921917,121.842533,140.313045,56.77779,94.80566,118.19482,135.91032,53.235111,84.963947,103.00066,117.674938,-28.180418,-44.060185,-54.837256,-67.691771,-24.050989,-24.508911,-24.617586,-23.268963,-6.68334,-7.622421,-9.188974,-9.769378,9.099726,9.705078,7.496031,5.433172,22.878602,24.093282,22.248871,19.103391,59.30666,289.057924,-32.965942,155.607985
78,-0.318581,0.213879,-5.383461,13.292777,-28.645981,-54.769775,-78.842171,-98.051216,-62.258972,-96.729549,-112.753498,-123.752506,-55.496796,-93.650425,-110.866447,-123.447693,-48.067955,-83.545841,-101.291943,-113.845711,-41.723007,-70.013832,-84.801842,-96.149483,-18.269526,-18.062477,-5.783111,4.947085,9.220917,22.728647,27.814139,30.440767,27.676152,39.667687,42.442392,43.228228,40.666191,52.881311,55.431505,55.511965,48.471356,59.616676,61.201204,61.053694,19.033058,44.083065,64.037075,75.563335,59.938854,94.228191,113.562572,129.696407,57.647861,96.411838,119.091625,138.518245,54.301242,90.778621,114.264232,133.032543,49.739833,80.019321,98.202724,113.764904,-26.644013,-40.170335,-48.750555,-59.474669,-18.341923,-16.477141,-15.188651,-12.595837,-1.810448,0.237776,0.548541,1.677505,12.955347,16.704931,16.620185,16.146658,25.653936,30.008884,29.92972,27.89765,59.058952,288.902264,-38.27853,168.531223
79,-0.146965,0.890194,-5.755635,14.389513,-28.88942,-54.58033,-78.612877,-97.681915,-61.670265,-96.380711,-112.641952,-123.994274,-55.443649,-93.601765,-111.142216,-124.022404,-48.412743,-83.814125,-101.531605,-114.076023,-42.172646,-70.333282,-84.996426,-96.220619,-17.235256,-17.238826,-6.388426,3.681461,8.975682,21.431444,26.353013,29.10371,27.054337,38.20272,40.967372,41.808783,39.898781,51.637189,54.203116,54.239919,47.73518,58.485902,60.160005,60.136219,21.031311,46.521904,66.891175,79.804779,60.581909,93.225975,112.115776,128.418366,56.522187,93.756455,116.157646,136.014954,51.699097,86.070511,109.172516,128.278427,45.911522,73.69249,91.417717,107.177628,-24.773611,-35.793293,-42.237764,-51.032764,-12.299719,-7.906597,-4.661168,-0.471144,3.254629,8.658111,11.497148,14.692028,16.764422,23.721754,26.087635,27.344972,28.003293,35.361941,37.100413,36.253074,59.263761,289.436371,-43.682391,182.564649
80,0.068161,0.910263,-6.219726,15.728015,-29.073029,-54.388779,-77.647041,-94.785862,-60.725304,-95.189678,-111.66576,-123.338859,-55.297691,-92.525425,-110.512539,-123.752357,-48.924202,-83.33337,-100.879429,-113.237297,-42.668587,-70.169884,-84.533043,-95.392399,-14.818271,-13.887001,-3.663405,6.298628,8.032197,19.268919,24.260069,27.238996,24.47191,35.224855,38.41913,39.487215,36.581302,48.262751,50.649046,50.554704,44.408463,55.157505,57.220537,57.823925,22.853164,48.481018,69.068573,82.998024,60.634735,91.678734,110.122192,126.15937,55.238044,90.958809,113.090103,132.618965,49.433361,81.636497,104.065498,122.650017,43.007766,68.327293,85.443214,100.903152,-23.200062,-31.89946,-36.577918,-43.859051,-6.859853,-0.053303,5.194593,10.814115,7.903509,16.343383,21.575977,26.561013,20.179096,29.925349,34.436019,37.125039,29.813025,39.431726,42.625951,42.858874,59.909037,289.931637,-49.325002,197.877667
81,-0.882431,1.543278,-6.472813,15.534366,-27.729996,-53.391998,-76.363026,-92.645817,-60.691269,-92.607445,-109.259434,-121.9189,-56.05751,-88.66301,-104.719013,-117.150913,-49.6352,-79.188686,-92.179104,-101.092495,-42.452797,-67.153564,-78.939732,-87.378365,-5.984714,-1.940988,7.20778,16.58868,11.33708,20.224396,24.584556,27.251779,20.674285,29.971872,33.390832,34.907817,27.029181,37.194608,39.899251,40.316906,30.330568,39.1353,41.573181,42.778216,24.279385,49.97723,70.660687,85.411022,60.846233,90.413624,108.371693,124.078938,54.354092,88.437916,109.998654,128.756596,47.752133,77.827732,99.477573,117.331799,40.762837,63.727467,80.091259,95.079128,-21.76497,-28.356481,-31.431886,-37.543695,-1.297512,7.615122,14.347288,20.968933,12.782175,23.98055,30.927583,37.264509,23.919491,36.026993,42.293215,46.425367,32.097148,43.129081,47.670626,49.480346,59.740711,290.935485,-55.08371,212.872603
82,-1.553009,1.166935,-6.984924,14.555041,-26.199715,-52.583244,-75.013538,-90.412926,-61.290756,-89.953079,-106.217205,-119.401543,-57.48658,-83.610191,-92.757145,-99.822647,-51.341675,-74.856594,-81.122486,-84.6618,-43.73877,-66.27459,-76.602779,-83.593826,-0.232947,5.988641,14.346967,23.305976,13.166163,20.84316,24.432217,26.467227,18.267464,26.090413,28.993337,30.232149,21.612434,30.57642,32.613863,32.69609,22.945206,31.045279,34.075594,35.948583,25.669613,51.485115,72.404812,87.804737,61.19664,89.723293,107.409542,122.64925,54.019558,86.813381,107.912533,125.611828,46.875103,75.392292,96.239284,113.208675,39.424839,60.829067,76.336612,90.604419,-20.049469,-24.731509,-26.590987,-31.900065,3.621909,13.942255,21.85089,29.427752,17.277234,30.565466,38.74852,46.006589,27.671051,41.72941,49.299491,54.524293,34.796617,46.997115,52.679054,55.775912,58.96966,291.48595,-61.286676,226.811174
83,-3.380035,2.968626,-6.904083,13.214971,-24.074067,-49.825219,-70.53217,-84.146176,-61.256619,-80.650155,-89.570652,-97.75676,-58.694481,-74.802647,-76.764817,-77.991829,-52.97065,-68.745095,-68.465104,-67.02816,-44.964844,-65.727574,-75.726139,-82.734799,1.949584,7.911167,14.449708,21.702615,10.905123,18.563434,21.937995,23.463206,14.379843,22.643148,25.455743,26.193525,16.989194,25.833446,27.420444,27.220088,18.446651,25.789492,29.180713,31.801746,27.146209,52.991363,74.142459,89.960071,60.865757,89.195972,106.821865,121.389759,53.010887,85.395732,106.263416,122.754856,45.372058,73.368198,93.644176,109.608249,37.600959,58.548225,73.461376,86.867328,-18.577537,-21.784989,-22.404037,-27.286655,7.996543,19.699641,28.375303,36.613339,21.84616,36.87973,45.729305,53.473523,32.023529,47.620609,55.942625,61.903306,38.6204,51.64166,57.920541,61.777027,56.313023,293.769746,-67.467361,239.341315
84,-8.051148,4.429246,-6.334809,11.96518,-17.881462,-40.257591,-57.964714,-69.204586,-57.193828,-65.807201,-67.250954,-70.38224,-56.557663,-61.111954,-55.188961,-50.339401,-51.882397,-57.674435,-49.956138,-43.175148,-44.108631,-59.210358,-65.715385,-70.119816,0.936223,5.221072,9.617479,14.209696,6.690213,14.355094,18.218484,20.02367,9.477478,17.715996,21.447783,22.983862,11.98662,20.280886,22.333679,23.003585,13.818038,20.939009,24.697386,27.99776,27.879753,53.702385,75.142925,91.550434,60.315354,89.142986,106.746952,120.568508,51.995899,84.658573,105.431042,121.026455,44.048424,72.582012,92.659435,107.889187,36.19289,58.01532,72.904209,86.022228,-17.408688,-19.749424,-19.258323,-23.209535,11.394408,24.213312,32.92012,40.885084,25.879128,41.923244,50.609576,57.905251,36.250826,52.909371,61.127054,66.854479,42.720009,56.590054,63.055877,66.981438,48.87648,297.43329,-73.187565,250.540793
85,-8.425598,0.460881,-5.576889,9.83936,-13.704941,-33.689507,-49.967674,-61.320774,-56.928783,-54.984581,-48.319313,-45.855938,-58.625622,-51.554798,-36.204231,-23.952805,-54.971043,-50.130741,-33.616768,-20.357483,-48.001488,-54.983746,-54.58279,-53.751938,-1.791639,1.343516,7.011092,12.908738,4.540384,14.070535,18.589171,20.660341,9.560384,18.373415,22.882961,24.636426,13.648446,21.877998,24.233862,25.213002,16.711217,23.45435,26.181371,28.483661,28.173168,53.991303,75.750881,92.662777,59.863358,89.533138,107.143101,120.5434,51.284798,84.645344,105.477253,120.596203,42.948624,72.412468,92.346966,107.08968,34.791493,57.566025,72.400177,85.235905,-16.315681,-17.939767,-16.056429,-18.987054,13.440842,27.544512,36.176961,43.784735,28.724649,45.604791,54.208192,61.154051,39.571825,56.972437,65.245893,70.907665,46.368434,61.126152,67.7074,71.693896,40.979868,297.236871,-78.235468,259.722853
86,-13.871063,3.285072,-4.502483,7.661596,-7.049309,-20.823166,-32.686512,-41.366982,-47.997219,-36.920185,-22.473267,-13.442139,-52.635784,-36.79414,-14.770157,3.649612,-51.268101,-39.288483,-19.002045,-2.567688,-46.366425,-47.834622,-43.799389,-39.871903,-11.138045,-13.292678,-9.722084,-5.38797,-3.296509,8.58269,14.746048,17.821873,8.324437,18.992834,24.964765,27.204292,18.261165,28.290667,31.563526,32.731238,26.585751,34.995416,37.998351,39.985714,28.057228,53.732906,75.904999,93.281776,59.037906,89.752441,107.522255,120.77156,50.425621,84.770096,105.931755,120.946174,41.884369,72.551811,92.507606,107.014938,33.56377,57.346298,72.24535,84.87355,-15.296244,-16.372961,-13.064448,-15.201198,15.059406,29.705295,38.041403,45.227286,31.359008,48.326169,56.698364,63.123506,42.765729,60.206454,68.2192,73.421203,49.832891,65.151464,71.463925,75.075496,27.533301,300.136698,-82.313455,266.999204
87,-17.802864,5.828547,-2.943856,5.626092,-0.786244,-6.542496,-12.958626,-18.212677,-33.53389,-14.178406,6.868766,21.777305,-40.46315,-17.903309,4.80249,24.378639,-41.311386,-23.06361,-2.204842,14.907898,-38.771565,-33.723931,-25.486691,-17.98486,-17.712167,-24.783935,-24.288524,-22.69997,-10.729862,1.722553,9.301477,13.331074,4.491244,16.875585,24.459363,27.506931,17.411727,28.535261,33.016846,34.845461,28.281948,36.84084,39.859014,41.482248,27.703801,53.248467,75.586396,93.181275,58.447667,89.810349,107.349633,120.168961,49.674031,84.712281,105.889344,120.852814,40.713433,72.395337,92.195252,106.418953,32.060578,56.560502,71.54876,84.138817,-14.62677,-15.360711,-10.882275,-12.586401,16.41699,31.888494,40.092925,46.743197,33.358067,50.45063,58.530894,64.303767,45.054262,62.479499,70.159176,74.737635,52.32457,67.941941,73.771081,76.815265,10.150938,305.779457,-84.83681,272.439508
88,-5.899109,-0.275197,-1.959079,4.428085,1.947452,-1.737396,-7.417145,-12.059887,-30.793797,-10.577294,10.724281,26.38282,-39.322197,-15.435322,8.959602,30.313339,-41.611439,-20.442272,2.654457,21.807976,-40.762425,-29.43734,-14.719952,-1.661865,-20.913407,-29.318762,-28.563357,-25.726901,-11.832848,1.117436,9.714328,14.598489,5.633775,17.870384,27.042037,31.268729,20.131672,30.863746,36.475104,39.142278,32.120255,41.156489,43.453728,43.868284,27.22419,52.659233,75.179958,93.024364,57.787697,90.032009,107.423389,120.022991,49.149513,85.127369,106.412853,121.395916,40.151996,72.905445,92.718738,106.648395,31.544803,56.731407,71.773853,84.29298,-14.23242,-15.014069,-9.998466,-11.470571,16.698448,32.334245,40.324131,46.488539,34.011312,50.699941,58.536452,63.722708,45.787647,62.764576,69.985855,73.805365,53.162931,68.597533,73.883627,76.344282,4.636889,305.508533,-86.410829,276.871866
89,-8.302712,0.142743,-1.257935,2.920857,3.325848,1.857148,-1.702194,-5.252781,-25.469215,-3.770439,17.602478,33.585022,-34.782005,-8.551677,16.512291,38.661187,-37.490879,-13.744537,10.079521,30.123047,-37.248195,-22.52306,-5.080673,10.578644,-21.695439,-30.933449,-29.758833,-25.570364,-12.004157,1.059291,9.959094,14.991184,6.296924,18.826008,28.27334,32.339333,21.234571,32.354005,38.127125,40.338963,33.568178,42.551678,44.531952,43.951843,26.723843,52.047432,74.763703,92.70187,57.330322,90.170048,107.642338,120.42326,48.85286,85.36369,106.733631,121.804173,39.938553,73.31448,93.131024,106.969631,31.463516,57.193382,72.371052,84.923184,-14.17088,-14.886555,-9.59762,-11.240897,16.968469,32.238111,39.968905,45.907059,34.351877,50.458324,58.082672,63.081145,46.016827,62.411079,69.390358,72.984182,53.395346,68.307046,73.182796,75.425485,-3.312785,305.790995,-87.315726,279.932442
90,-11.861549,5.398468,-0.159988,2.156806,6.75436,9.815391,10.476219,9.787823,-12.838463,10.778778,31.692627,47.592133,-21.658264,6.507111,30.528191,52.087646,-24.720028,0.745502,23.358467,42.650551,-25.099697,-9.906384,6.469528,21.729195,-22.283624,-34.532782,-38.063745,-38.125236,-13.993138,-2.940802,5.585893,10.539745,3.348811,14.902078,23.797213,27.93659,17.535165,27.951521,33.611441,35.671817,29.237807,37.825807,40.191108,39.621238,26.262211,51.347877,74.133007,92.079883,57.227039,90.375881,108.050319,121.030117,49.01461,85.761417,107.160198,122.345981,40.243549,74.026336,93.83836,107.761287,31.812767,58.050167,73.408539,86.212291,-14.410509,-15.311015,-10.245295,-12.577818,17.080596,31.269309,38.482004,44.010123,34.44806,49.403318,56.381584,60.863651,46.04081,61.393309,67.712809,70.690846,53.453095,67.510564,71.946294,73.868769,-14.811321,311.355532,-87.112701,282.255317
91,-3.291481,-0.446592,0.684059,1.630445,6.535103,10.344566,11.818451,11.374294,-7.643818,16.440056,35.714149,49.732864,-14.841625,13.23809,35.534317,55.381691,-18.131527,7.942291,29.331322,47.270691,-19.826729,-2.793995,13.471413,27.6763,-23.907487,-36.502607,-39.427712,-38.45623,-14.183896,-3.871997,2.965552,6.92027,3.847804,14.824002,21.913875,25.301305,18.503425,27.968738,31.786309,33.263848,30.588092,38.895807,39.481806,37.924115,25.807983,50.666748,73.413505,91.278225,57.372974,90.685787,108.354893,121.361584,49.471012,86.369213,107.625263,122.813496,40.834991,75.019833,94.696369,108.650333,32.409634,59.325004,74.883408,87.90192,-14.8653,-16.106261,-11.451391,-14.218958,16.534908,29.947838,36.737679,41.795334,33.920588,47.658548,53.939837,57.726471,45.672025,59.976224,65.548408,67.791455,53.324778,66.429019,70.164993,71.375832,-17.720581,311.076249,-86.046421,284.053071
92,3.045444,-2.360668,1.242851,1.233378,5.816597,8.241681,8.487683,7.245804,-9.552211,14.251179,32.618123,45.338345,-15.393081,11.908207,33.597989,52.594082,-18.272426,7.533371,28.677441,46.105099,-20.155185,-2.179721,14.309475,27.954632,-25.331168,-37.603642,-39.298654,-36.43157,-12.683831,-2.419159,2.849287,5.749185,6.212881,16.573699,22.011218,24.690099,21.220492,29.896807,32.042251,32.920206,33.509318,41.703474,40.2092,37.435508,25.362362,49.995117,72.629402,90.425801,56.995365,90.51939,108.39616,121.642628,49.264607,86.558705,107.795162,122.992573,40.867768,75.521187,95.205082,109.295689,32.739624,60.190968,75.974316,89.031315,-15.162875,-16.666399,-12.49343,-15.467885,16.172729,28.912852,35.049818,39.437592,33.665732,46.463258,51.8999,54.919186,45.504682,59.011374,63.70438,65.136113,53.070379,65.333035,68.306466,68.728616,-14.371594,308.869185,-84.500027,285.440053
93,-8.631065,1.14011,1.295689,0.782995,8.451611,14.744991,17.62096,17.445591,0.850708,26.713635,43.967228,54.873379,-4.161701,25.178364,45.335415,62.217007,-7.644161,20.464645,40.154263,55.817768,-10.734844,9.474541,25.236797,37.696346,-25.825233,-38.579126,-41.172211,-39.354563,-12.885681,-2.891661,0.895455,2.865552,5.677049,16.051229,19.554614,21.285033,20.22594,28.935057,29.412227,29.340807,32.041202,40.088207,37.680558,34.384333,24.867588,49.467899,71.992687,89.629028,56.839428,90.40654,108.453049,121.917,49.146984,86.461189,107.471306,122.633446,40.868637,75.565956,95.05307,109.261574,32.92337,60.548836,76.343376,89.37458,-15.435219,-17.032974,-13.054086,-15.866669,16.118809,28.326001,33.908547,37.713694,33.685863,45.730293,50.519272,52.992673,45.497124,58.360821,62.399273,63.2518,52.863207,64.529638,66.857863,66.65195,-22.749069,310.144291,-82.950748,286.358044
94,-0.900444,-1.658604,1.370624,0.852712,8.498474,15.286503,17.673969,16.853886,2.997036,28.591404,45.18227,55.082668,-0.862038,27.507832,47.178989,63.370434,-4.90836,23.092907,42.422688,57.582127,-9.365501,11.596355,27.458324,39.412479,-26.147718,-38.308572,-40.408222,-38.644705,-11.177022,-0.581985,1.978533,3.024906,7.629053,18.242887,20.216504,21.008503,22.103819,30.779629,29.742419,29.02793,33.804967,42.256906,38.454217,34.42909,24.533467,49.101654,71.508076,88.984967,56.325714,89.842106,108.006787,121.612851,48.773117,86.263218,107.220715,122.374226,40.717553,75.567822,94.989155,109.295964,33.031369,60.802472,76.611065,89.536778,-15.609158,-17.252954,-13.281242,-15.782541,15.996852,27.883547,32.989849,36.237303,33.596695,45.078221,49.286375,51.159376,45.356665,57.668006,61.0882,61.331645,52.56631,63.655585,65.394143,64.60149,-23.445127,308.583034,-81.375738,287.308103
95,8.182755,-3.629294,1.146492,0.677846,7.126373,11.417324,10.811748,7.73077,-4.552403,19.191318,35.702419,45.210285,-8.324421,18.003261,38.478046,54.851108,-12.428524,13.945026,34.043987,49.423496,-17.069504,3.550312,19.89355,31.616718,-25.850093,-36.903639,-37.431741,-34.016042,-8.556273,3.429223,5.464158,5.814975,10.832492,22.199162,23.534329,23.456586,25.479826,34.660407,32.910833,31.715419,37.357184,46.577829,41.877302,37.05352,24.312481,48.921055,71.265953,88.646519,55.665104,89.187252,107.411259,121.101986,48.134835,85.812527,106.742443,121.900486,40.258118,75.280094,94.715001,109.090062,32.871746,60.830796,76.661053,89.364384,-15.803066,-17.325683,-13.233533,-15.251425,15.956949,27.988251,32.860692,35.813523,33.602376,44.976321,48.798548,50.299453,45.270388,57.48851,60.534621,60.439427,52.225387,62.915198,64.145563,62.881519,-15.079027,305.015879,-80.045901,288.048088
96,3.616767,1.549021,0.750756,0.353608,5.935032,9.115872,7.885769,4.988011,-9.667213,13.588795,31.176396,42.125462,-14.009239,12.595334,34.345402,51.983036,-17.320987,8.901112,29.765797,45.97839,-20.372257,-1.232551,15.075726,27.463314,-24.436416,-35.711152,-36.876345,-34.524149,-7.433341,4.042615,6.705404,7.412656,11.260781,22.049022,23.618706,23.293973,25.111991,34.046053,32.564908,30.963497,36.229498,44.831182,40.74517,35.99523,24.179111,48.918972,71.164158,88.444324,55.042041,88.463596,106.752994,120.471645,47.373768,85.12968,106.064129,121.169323,39.515316,74.564586,94.02277,108.394649,32.254245,60.21191,75.991092,88.478817,-15.838375,-17.023897,-12.597245,-14.15049,16.183548,28.495864,33.22886,36.012346,33.836595,45.477919,49.140286,50.54827,45.303239,57.730114,60.612883,60.404055,51.905556,62.518723,63.615546,62.273092,-11.283297,306.580934,-79.116182,288.41773
97,1.327732,1.493076,0.242363,0.158501,5.337021,8.274788,7.754403,6.180748,-11.933498,11.491585,29.949578,42.012795,-16.745269,10.606522,33.256463,51.475251,-19.471389,7.059723,28.665299,45.235131,-21.216602,-3.222255,13.182587,26.109765,-22.636133,-33.840411,-35.612092,-34.755491,-6.914391,4.414833,7.809883,8.985414,10.871209,21.60411,23.738834,23.726447,24.024714,33.096702,32.431625,31.107338,34.606783,42.758431,39.821705,35.765233,24.171707,49.072059,71.279789,88.541965,54.75476,88.129726,106.4771,120.270229,46.895542,84.643856,105.637882,120.798305,38.960849,73.9762,93.522091,107.966068,31.686081,59.607135,75.373043,87.816227,-15.823444,-16.638327,-11.970898,-13.358133,16.411654,28.936601,33.740808,36.539584,34.062021,45.914828,49.670018,51.125982,45.455627,58.053081,60.949447,60.712906,51.907816,62.578473,63.674295,62.346674,-9.776299,308.051545,-78.694553,288.553766
98,7.551568,-0.895653,0.164451,0.22445,4.021213,4.192245,1.252441,-1.671959,-20.342984,1.681846,21.416015,34.819633,-26.130547,0.187545,24.495666,44.106102,-28.675827,-3.74833,19.184211,36.809509,-29.700612,-13.429425,3.560691,17.242813,-21.649534,-32.709119,-34.151695,-32.949451,-6.054677,5.610334,9.940174,11.657255,11.700468,22.570566,25.689604,26.038692,24.823197,34.181805,34.374195,33.567339,35.491482,43.895639,41.537798,37.852336,24.174099,49.143574,71.359875,88.725598,54.416622,87.893177,106.291958,120.103649,46.422959,84.448506,105.608654,120.813847,38.477211,73.747021,93.484967,108.005368,31.287804,59.48037,75.366497,87.780316,-15.952687,-16.506873,-11.707594,-13.054173,16.357573,29.220728,34.156574,36.995821,34.094848,46.234992,50.033605,51.430214,45.529987,58.245854,61.139886,60.834851,51.903259,62.382378,63.436273,62.060239,-2.054134,307.103564,-78.359505,288.725888
99,2.523033,1.695765,0.064373,-0.002371,3.001533,2.360641,0.03273,-1.312432,-23.198685,-1.169564,18.809898,32.957359,-29.365689,-2.162796,22.210945,42.02433,-31.090588,-5.918633,16.946251,34.680221,-30.558266,-15.209221,1.5084,15.448127,-20.880432,-32.412914,-34.521963,-33.58327,-5.992716,4.668122,9.487902,11.754599,11.166476,21.228557,24.584,25.368379,23.757928,32.588879,33.184054,32.597747,33.859505,41.262935,39.5904,36.40419,24.196839,49.265122,71.477577,88.899719,54.533558,87.97831,106.30735,120.081253,46.368473,84.376923,105.530319,120.748719,38.282685,73.554543,93.313797,107.807694,30.998417,59.259693,75.14589,87.459046,-16.049846,-16.401292,-11.594492,-13.005081,16.31888,29.415365,34.57019,37.55765,34.118647,46.492466,50.391189,51.843003,45.604606,58.450408,61.379761,61.054436,51.965738,62.411067,63.432061,62.003453,0.64638,308.730533,-78.117651,288.654721
100,-3.00943,0.319435,-0.054233,-0.147497,4.414146,4.954605,3.099174,1.898849,-19.193653,3.147285,22.8731,36.829033,-25.729717,1.301925,25.274231,44.85569,-28.198963,-3.154461,19.475921,37.097145,-28.572235,-13.339222,3.328857,17.307564,-21.133127,-32.733844,-34.882437,-34.064763,-7.017045,3.679917,8.786244,11.436955,10.017794,20.411117,24.107077,25.386225,22.746765,31.790743,32.730115,32.689977,33.162417,40.507431,39.024495,36.165636,24.189583,49.312111,71.52737,89.04832,54.691005,87.998462,106.210521,119.893787,46.413631,84.337429,105.393963,120.502727,38.239334,73.450916,93.116123,107.50391,30.915481,59.067936,74.869137,87.084354,-16.040719,-16.252029,-11.38764,-12.790128,16.359932,29.590946,34.877732,37.988335,34.214804,46.825091,50.80861,52.293843,45.756216,58.76247,61.638693,61.253741,52.120843,62.631257,63.639876,62.169327,-2.213373,308.945369,-78.022207,288.402625
101,-1.852524,0.044362,-0.267014,-0.180101,4.541073,5.343201,4.119369,3.636864,-17.389126,5.45652,24.963707,38.723396,-24.013882,3.067291,27.138336,46.64875,-26.713944,-1.72958,20.820053,38.243362,-27.437851,-12.071846,4.561638,18.205261,-21.410412,-32.913316,-35.182273,-34.533029,-7.301604,3.395976,8.506156,11.345712,9.832061,20.535198,24.002434,25.154611,22.711913,31.897644,32.765559,32.861457,33.299329,40.657558,39.093939,36.313589,24.318947,49.550537,71.843937,89.475529,54.999527,88.197544,106.311527,119.906124,46.620255,84.442074,105.406208,120.418247,38.342892,73.440869,93.002072,107.259419,30.955902,58.90044,74.592716,86.650601,-15.992468,-16.112449,-11.299214,-12.711557,16.360117,29.628984,35.08551,38.347413,34.215644,47.058989,51.196451,52.794564,45.790635,58.933519,61.773074,61.373932,52.177307,62.756054,63.710605,62.186777,-3.932579,308.877423,-78.155903,288.110216
102,-3.142433,1.739842,-0.14233,-0.067024,5.473217,7.308677,6.969612,7.057251,-13.512955,9.889732,29.313171,42.964027,-20.607525,6.545677,30.384407,49.920685,-24.034722,0.880222,22.795234,39.879547,-25.669728,-10.052662,6.314987,19.633804,-21.544002,-33.899037,-37.203351,-37.373177,-9.51948,0.436168,5.846023,9.163687,7.74491,18.290398,21.932277,23.082082,21.052815,30.038735,30.97539,31.035387,32.120379,39.133941,37.454688,34.470711,24.449341,49.710731,72.074936,89.808769,55.27977,88.377068,106.385719,119.835846,46.903233,84.631485,105.46051,120.312332,38.579041,73.602699,93.002541,107.0839,31.142738,58.999775,74.593094,86.514816,-15.961296,-16.181955,-11.3508,-12.602382,16.286807,29.581473,35.113717,38.474434,34.171011,47.153985,51.381666,53.0717,45.778125,58.956206,61.777854,61.420751,52.223904,62.769232,63.699206,62.190235,-6.954134,310.515852,-78.177355,287.941779
103,-0.342659,0.426819,-0.167507,-0.133566,5.635769,7.751449,7.410919,7.477867,-12.751831,10.237335,29.40422,43.038505,-19.771008,6.760483,30.503769,50.196808,-23.28344,1.255634,23.074768,40.237678,-25.059426,-9.686474,6.542496,19.81105,-21.493898,-34.18509,-37.651918,-37.715669,-10.082212,-0.23638,5.137289,8.390918,7.157095,17.729791,21.33972,22.458255,20.548463,29.523132,30.299557,30.258554,31.809416,38.854162,37.016668,33.892196,24.523544,49.809345,72.153797,89.905941,55.718948,88.571239,106.47163,119.778957,47.332248,84.770038,105.439007,120.149998,38.881233,73.656658,92.840618,106.707012,31.258037,58.825905,74.242367,86.037357,-15.903078,-16.119785,-11.155694,-12.132511,16.295625,29.608001,35.169651,38.559514,34.095477,47.21954,51.519616,53.302684,45.673544,58.953822,61.731553,61.39615,52.197747,62.89072,63.81721,62.334311,-7.1821,310.8417,-78.230169,287.707242
104,-0.668747,0.34332,-0.22863,0.026948,5.901569,8.166504,8.382751,8.836899,-12.061833,10.899605,30.03257,43.506729,-19.029442,7.537605,31.254822,50.995331,-22.504097,2.122959,23.854912,40.958954,-24.323662,-8.835606,7.413002,20.6353,-21.616473,-34.577217,-38.274647,-38.263606,-10.61576,-0.845548,4.453378,7.638143,6.729412,17.392263,21.22132,22.321663,20.213849,29.205895,30.227222,30.247501,31.604306,38.681372,36.826414,33.519346,24.626781,49.903553,72.283848,90.19733,55.834591,88.687305,106.553272,119.744098,47.46009,84.970104,105.576542,120.127109,39.007919,73.885288,92.995846,106.705089,31.399326,58.966095,74.340397,86.10094,-15.943018,-16.244014,-11.150643,-11.963006,16.048808,29.401927,34.976211,38.420353,33.892491,47.145649,51.512947,53.392679,45.550549,58.875275,61.622786,61.331151,52.168897,62.876443,63.805317,62.37377,-7.705553,311.104019,-78.313505,287.653189
105,-0.51836,3.579042,-0.157517,0.137666,4.991317,7.14101,9.012485,11.516247,-12.103707,11.447582,30.255169,43.832508,-18.457901,9.345897,32.609745,52.197864,-20.560948,4.874965,25.90353,42.808651,-20.636524,-5.419087,10.117779,23.211559,-20.991744,-34.642228,-39.976711,-42.078312,-11.772,-3.846038,1.011953,4.019877,4.841491,13.986913,17.462325,18.415084,17.801507,25.418952,26.555443,26.338107,28.554588,34.187609,32.850107,29.846086,24.661217,49.921555,72.345898,90.338208,55.912834,88.79813,106.67371,119.81622,47.585003,85.153919,105.75578,120.266316,39.142422,74.097828,93.177052,106.802273,31.524685,59.170132,74.557698,86.343556,-15.928914,-16.371368,-11.325285,-12.103315,16.013697,29.327741,34.865382,38.285651,33.82821,46.987605,51.337415,53.244589,45.496469,58.695249,61.406857,61.136848,52.176431,62.815298,63.704677,62.290703,-8.073446,314.640129,-78.320555,287.747923
106,-1.845177,-0.113312,-0.082512,0.132949,5.599125,8.908871,11.684658,14.426823,-9.83757,13.356709,31.976749,45.232716,-15.511425,12.189594,34.677715,53.770626,-17.414864,8.335751,28.802982,45.209644,-17.458294,-1.823925,13.362705,26.137127,-20.306673,-33.671018,-39.175511,-41.504786,-11.508202,-3.142368,1.631816,4.044553,4.92399,14.413571,18.162056,19.279824,17.632336,25.760012,26.97973,26.692282,28.00559,34.439402,33.175371,30.161976,24.639931,49.847569,72.317768,90.381443,55.592469,88.631802,106.587696,119.742382,47.311077,85.106839,105.781002,120.299206,38.993111,74.182217,93.310467,106.880963,31.538899,59.351052,74.774128,86.5658,-15.869696,-16.475245,-11.477166,-12.184826,16.075312,29.380414,34.803409,38.155579,33.872262,46.992743,51.283766,53.174687,45.537224,58.647305,61.302067,61.00133,52.239576,62.828352,63.714297,62.316774,-9.754257,314.496009,-78.238701,287.850064
107,10.405357,-4.590637,-0.251003,-0.114152,3.589955,2.893513,1.091412,-0.192981,-21.466014,-0.597667,19.132725,33.036152,-27.295303,-1.442825,22.413975,42.280095,-28.783527,-4.659462,17.481114,34.88094,-28.191135,-13.392665,2.768086,16.047032,-19.879471,-32.21004,-35.911421,-36.092165,-8.499623,1.750982,6.650445,8.713489,8.71013,19.004492,23.116575,24.135111,21.759993,30.447695,31.638046,31.325305,32.296392,39.842872,38.139166,34.815179,24.668141,49.852181,72.280563,90.339935,55.345505,88.501213,106.554932,119.848389,47.086018,84.904106,105.603996,120.220368,38.895481,74.121918,93.297226,106.935906,31.625668,59.512104,74.988968,86.869698,-15.858827,-16.398106,-11.352715,-11.977221,16.226341,29.553302,34.813981,38.029856,34.039223,47.037055,51.208209,53.035144,45.703777,58.723604,61.354777,61.034119,52.382652,62.999437,63.891509,62.507497,0.862959,309.876205,-78.277845,287.706745
108,-0.916763,2.181407,0.007679,0.197651,3.417858,3.021229,2.048733,1.418369,-20.263252,0.636074,20.043079,33.726688,-25.700798,0.795731,23.908413,42.974979,-26.289253,-1.882278,19.414661,36.212711,-24.712269,-9.770805,5.894291,18.836071,-20.109762,-32.675662,-36.646449,-37.490046,-9.219645,-0.011288,4.757561,6.848084,7.678541,16.778909,20.808975,21.896264,20.340117,28.039603,29.410956,28.990584,30.323368,36.703445,35.243109,31.970547,24.586018,49.572922,71.974056,90.151646,54.884297,88.175869,106.231144,119.577541,46.710869,84.653401,105.31802,119.912098,38.703426,74.12598,93.308064,106.959858,31.672119,59.84578,75.417355,87.411541,-15.963495,-16.66509,-11.590022,-12.169685,15.966655,29.357047,34.518801,37.662095,33.909547,46.846789,50.893059,52.587947,45.72103,58.627471,61.190397,60.793836,52.502225,62.962646,63.808899,62.432396,0.210188,312.043224,-78.006174,287.890008
109,1.568848,0.975138,0.021332,0.046411,3.290783,2.522014,0.710438,-1.123913,-21.419506,-0.576908,18.822086,32.28899,-26.993683,-0.626404,22.3045,40.947429,-27.431843,-3.272003,17.864422,34.367054,-25.667599,-11.075981,4.401386,17.07986,-19.999019,-32.512407,-36.727132,-38.374818,-10.192239,-1.294844,3.494864,5.43994,6.574641,15.489251,19.511117,20.469014,19.318123,26.877917,28.214331,27.667309,29.437175,35.622689,34.150917,30.943663,24.41209,49.329929,71.821781,90.035648,54.248154,87.681026,105.770611,119.217373,46.212181,84.278629,104.974102,119.608349,38.450294,73.971096,93.228962,106.950199,31.716362,60.080532,75.728748,87.771503,-16.045177,-16.78822,-11.763046,-12.39784,16.159009,29.408646,34.40586,37.457627,34.199342,46.963634,50.862357,52.413787,46.010516,58.779822,61.228411,60.738162,52.685588,62.968155,63.786225,62.424702,2.025032,312.993127,-77.738846,287.911184
110,-0.804188,-0.170295,-0.122681,-0.024095,3.639061,3.090912,1.338638,-0.912827,-20.542408,0.630455,20.017296,33.009453,-25.999226,0.689129,22.9151,40.728882,-26.583321,-1.864391,18.807037,34.616432,-25.07159,-10.17001,5.09761,17.287239,-19.739026,-32.176769,-36.377761,-37.710532,-9.639462,-0.411641,4.401013,6.040314,7.039781,16.338739,20.381291,21.241166,19.596431,27.777114,28.872566,28.062339,29.478066,36.346799,34.734483,31.310596,24.303898,49.222721,71.787586,90.095524,53.762135,87.412571,105.549717,119.099774,45.765679,84.016194,104.71336,119.361134,38.186794,73.803921,93.113468,106.891697,31.730736,60.271202,75.954586,87.959759,-16.181102,-16.948685,-11.865057,-12.51067,16.192687,29.3589,34.277938,37.314243,34.400994,47.037833,50.855417,52.34412,46.262878,58.899383,61.313491,60.80053,52.85571,62.954261,63.749471,62.409635,1.47329,312.777644,-77.609081,287.841901
111,3.50045,1.364894,-0.083954,-0.039816,2.944565,1.008019,-2.17543,-5.538895,-24.697872,-3.327942,16.43747,29.217636,-30.399765,-3.390667,18.963295,36.562386,-30.586475,-5.820614,15.003868,30.756477,-28.487503,-13.760296,1.607964,13.817619,-19.669989,-32.647628,-37.309537,-39.591931,-10.550885,-1.861281,2.904542,4.793746,6.152033,14.510914,18.345096,19.152063,18.805754,26.039395,27.02986,26.281716,28.818547,34.658036,32.852923,29.418711,24.217141,49.06255,71.613064,89.947461,53.407494,87.199665,105.358876,118.998494,45.449581,83.810818,104.500866,119.161114,37.990906,73.647045,92.998341,106.86501,31.715241,60.388985,76.127507,88.151974,-16.405183,-17.111991,-11.867652,-12.40761,16.281397,29.364457,34.206628,37.197645,34.653775,47.121381,50.776351,52.119805,46.534246,59.072358,61.430458,60.895304,52.989757,62.93308,63.689239,62.361197,5.20598,314.090226,-77.460795,287.749773
112,-7.417992,3.593787,-0.095913,-0.00315,4.407303,5.337548,5.110909,3.779984,-16.843059,6.538514,25.278992,37.015343,-21.88908,7.131478,27.784058,44.079575,-21.837307,5.017914,24.154335,38.551918,-19.57862,-4.394027,9.804108,21.207619,-19.59674,-33.079646,-38.982269,-42.810881,-12.023521,-4.498147,-0.154734,1.299118,3.777532,11.477858,14.958074,15.681357,15.757989,22.735872,23.708058,22.701848,25.139989,30.56664,29.155791,25.844672,24.116581,48.952813,71.568833,90.001648,53.238408,87.008995,105.135224,118.788895,45.284226,83.66272,104.304245,118.965638,37.841961,73.457726,92.786293,106.653305,31.608159,60.265217,75.976067,87.966248,-16.459498,-17.165268,-11.896464,-12.412364,16.433489,29.429209,34.280186,37.274093,34.799359,47.251576,50.863086,52.141529,46.641186,59.128428,61.45958,60.898467,53.026956,62.838146,63.557106,62.197498,-1.97647,317.621169,-77.321166,287.683779
113,-3.151245,1.388891,-0.195831,-0.067616,4.853508,6.844826,7.987221,7.707024,-14.035469,10.709816,29.168702,40.371277,-18.800377,11.476479,31.328041,47.039475,-18.831195,9.36818,27.824868,41.5196,-16.626148,-1.081134,12.754074,23.751526,-19.029316,-32.739155,-39.743455,-44.812509,-12.454947,-4.995942,-0.869915,0.286867,2.84037,10.97742,14.035485,14.448608,14.556844,22.108055,22.759645,21.452562,23.751962,29.695489,28.302931,25.087303,24.114842,49.002445,71.681534,90.14447,53.037918,86.864342,104.998352,118.652619,45.061443,83.573959,104.241257,118.925903,37.635063,73.310692,92.6735,106.564728,31.457565,60.10548,75.844048,87.784767,-16.425771,-17.044312,-11.739359,-12.286146,16.881377,29.702466,34.500338,37.466506,35.250877,47.579655,51.088215,52.298782,46.976094,59.402179,61.66695,61.077221,53.174934,62.897006,63.582608,62.18921,-4.887457,318.945093,-77.276739,287.551196
