takenoko1/special-research/HandMotion_SimilarSearch_自分用/NewProject/handData/tgt/d4_feature_d2/112.csv
,vel_0x_L,vel_0y_L,vel_0x_R,vel_0y_R,posFromWrist_1x_L,posFromWrist_2x_L,posFromWrist_3x_L,posFromWrist_4x_L,posFromWrist_5x_L,posFromWrist_6x_L,posFromWrist_7x_L,posFromWrist_8x_L,posFromWrist_9x_L,posFromWrist_10x_L,posFromWrist_11x_L,posFromWrist_12x_L,posFromWrist_13x_L,posFromWrist_14x_L,posFromWrist_15x_L,posFromWrist_16x_L,posFromWrist_17x_L,posFromWrist_18x_L,posFromWrist_19x_L,posFromWrist_20x_L,posFromWrist_1y_L,posFromWrist_2y_L,posFromWrist_3y_L,posFromWrist_4y_L,posFromWrist_5y_L,posFromWrist_6y_L,posFromWrist_7y_L,posFromWrist_8y_L,posFromWrist_9y_L,posFromWrist_10y_L,posFromWrist_11y_L,posFromWrist_12y_L,posFromWrist_13y_L,posFromWrist_14y_L,posFromWrist_15y_L,posFromWrist_16y_L,posFromWrist_17y_L,posFromWrist_18y_L,posFromWrist_19y_L,posFromWrist_20y_L,posFromWrist_1x_R,posFromWrist_2x_R,posFromWrist_3x_R,posFromWrist_4x_R,posFromWrist_5x_R,posFromWrist_6x_R,posFromWrist_7x_R,posFromWrist_8x_R,posFromWrist_9x_R,posFromWrist_10x_R,posFromWrist_11x_R,posFromWrist_12x_R,posFromWrist_13x_R,posFromWrist_14x_R,posFromWrist_15x_R,posFromWrist_16x_R,posFromWrist_17x_R,posFromWrist_18x_R,posFromWrist_19x_R,posFromWrist_20x_R,posFromWrist_1y_R,posFromWrist_2y_R,posFromWrist_3y_R,posFromWrist_4y_R,posFromWrist_5y_R,posFromWrist_6y_R,posFromWrist_7y_R,posFromWrist_8y_R,posFromWrist_9y_R,posFromWrist_10y_R,posFromWrist_11y_R,posFromWrist_12y_R,posFromWrist_13y_R,posFromWrist_14y_R,posFromWrist_15y_R,posFromWrist_16y_R,posFromWrist_17y_R,posFromWrist_18y_R,posFromWrist_19y_R,posFromWrist_20y_R,posFromBody_0x_L,posFromBody_0y_L,posFromBody_0x_R,posFromBody_0y_R
6,-5.561428,-2.901183,0.024285,0.174754,15.419517,30.343883,39.479244,40.046757,20.075352,54.561916,70.669613,76.952946,14.609196,52.14481,67.750889,76.279186,8.477314,43.978214,59.075603,65.977558,2.808368,29.809101,42.460865,48.048282,-23.558547,-32.178646,-32.464179,-31.132458,-3.100562,12.362211,13.346488,12.096919,16.017156,30.353206,29.473015,26.900123,29.501754,41.308358,38.18937,35.419172,39.233878,50.220166,45.110924,39.189467,25.691791,51.299377,74.839256,94.597297,56.720489,90.1539,108.233848,121.618492,49.329574,86.676681,107.317314,121.838333,41.289951,76.008064,95.177948,108.604477,33.672775,61.105705,76.535202,88.234634,-16.073978,-18.297413,-14.526562,-14.587782,15.967903,28.249529,32.719888,35.265574,32.906177,44.202143,47.367086,48.252179,44.179937,56.49255,58.885971,58.363612,50.815859,62.323172,63.417895,61.894661,-31.637272,292.75149,-72.446251,279.642014
7,-1.190747,0.401835,0.077099,-0.089328,15.586373,30.724549,40.448914,41.344414,20.49408,55.649369,71.843262,78.300866,15.283585,53.162568,68.901124,77.597031,9.400818,45.266121,60.325036,67.147477,4.016694,31.262627,43.781937,49.292222,-23.957801,-32.808488,-33.272493,-31.942549,-3.480883,11.530506,12.403805,11.150358,15.821394,29.881877,28.826031,26.170949,29.456095,40.968953,37.754041,34.928713,39.223985,50.009139,44.653736,38.57694,25.802135,51.351665,74.814983,94.558673,56.674049,90.081653,108.150982,121.52631,49.245357,86.568866,107.20705,121.742351,41.161491,75.874088,95.066814,108.512546,33.484439,60.91904,76.359775,88.082302,-16.016131,-18.204034,-14.492032,-14.665069,16.00462,28.354344,32.78811,35.243986,32.919898,44.319728,47.480966,48.293935,44.180987,56.577049,58.99969,58.46345,50.829925,62.388343,63.529552,62.01726,-32.70452,293.047192,-72.245653,279.446553
8,-0.358703,0.049759,0.070816,-0.05003,15.617947,30.770096,40.71302,41.62262,20.427223,56.267509,72.278252,78.434624,15.500736,53.930374,69.407936,77.630974,9.913479,46.220352,60.895065,67.119163,4.864174,32.374191,44.467575,49.469787,-24.147721,-33.002014,-33.492757,-32.271655,-3.197054,11.705519,12.379278,10.977889,16.181584,30.160593,28.759044,25.928158,29.780581,41.255042,37.691784,34.577661,39.339446,50.088982,44.313059,37.956125,25.866554,51.43341,74.834324,94.530109,56.579658,89.996349,108.086254,121.509327,49.096126,86.474819,107.11877,121.650776,41.009227,75.725864,94.951046,108.449535,33.347442,60.745765,76.192463,87.922405,-15.969546,-18.159895,-14.41498,-14.529366,15.860148,28.316145,32.758074,35.216815,32.835917,44.41633,47.614767,48.431873,44.158547,56.74312,59.179322,58.608316,50.838076,62.462134,63.601664,62.053742,-32.968128,293.017623,-72.079742,279.317195
9,-0.703377,0.098763,0.060093,0.025478,16.005673,31.430191,41.522736,42.312561,21.434967,57.966133,73.547127,79.101952,16.461857,55.756851,70.589813,77.827286,10.881043,47.856491,61.850166,67.169014,5.874172,33.742539,45.299011,49.715607,-24.319202,-33.205802,-33.673944,-32.514704,-3.350898,11.846718,12.343611,10.783981,16.172124,30.449931,28.723303,25.771275,29.860301,41.560782,37.753461,34.416321,39.341521,50.254387,44.235686,37.718634,25.986316,51.532127,74.841613,94.485443,56.479694,89.94651,108.052162,121.516731,48.96207,86.402183,107.099166,121.656417,40.887359,75.61409,94.889694,108.426727,33.241436,60.564388,75.989845,87.679847,-15.987627,-18.174987,-14.464293,-14.572801,15.679813,28.153272,32.596869,35.061488,32.711502,44.452528,47.701032,48.530933,44.072689,56.798881,59.233329,58.625631,50.762284,62.419515,63.549955,61.973133,-33.580708,293.046855,-71.928852,279.273142
10,-0.207458,0.360363,0.032157,0.133862,16.276279,31.775093,41.835022,42.629425,22.035965,58.758064,74.271904,79.637329,16.912033,56.501701,71.155586,78.060058,11.190593,48.310135,62.079094,67.050064,6.064819,33.752861,45.002586,49.183067,-24.474121,-33.513183,-34.057254,-32.861655,-3.589144,11.694923,12.038959,10.394793,15.903732,30.404668,28.538299,25.530893,29.576546,41.421497,37.439003,33.989477,38.997757,50.001384,43.883869,37.268918,26.119401,51.611905,74.852807,94.434884,56.318779,89.871689,108.010575,121.513665,48.811432,86.345055,107.072846,121.642891,40.782979,75.566803,94.881455,108.414643,33.20216,60.504307,75.961258,87.633957,-15.918083,-18.21815,-14.638207,-14.735575,15.420004,27.934244,32.386597,34.84766,32.511592,44.319802,47.615582,48.464008,43.981126,56.748876,59.180496,58.526485,50.776203,62.400854,63.476485,61.79302,-33.702495,293.352878,-71.811024,279.352664
11,0.535755,0.145225,0.016526,0.017908,16.062046,31.359752,41.188946,41.991131,21.509285,57.719707,73.660229,79.394405,16.243091,55.460209,70.684101,78.26881,10.448559,47.085903,61.331623,66.897182,5.194931,32.294815,43.898929,48.568783,-24.210336,-33.255277,-33.843968,-32.659472,-3.733936,11.431298,11.926363,10.355013,15.623978,29.924324,28.367472,25.556791,29.274635,40.949749,37.212811,33.900223,38.709654,49.57764,43.691306,37.194335,26.200138,51.683269,74.913299,94.471321,56.217121,89.795173,107.950813,121.489769,48.711307,86.2462,106.983146,121.5634,40.70034,75.477287,94.809036,108.356689,33.111706,60.377643,75.809326,87.462707,-15.88191,-18.207788,-14.641529,-14.734414,15.203211,27.78172,32.29344,34.785403,32.298479,44.237365,47.656807,48.57648,43.816968,56.702871,59.198675,58.542972,50.666139,62.368953,63.495466,61.803579,-33.070307,293.46578,-71.698065,279.338249
12,0.869659,-0.077732,0.037662,0.181904,15.740765,30.727421,40.028149,40.580761,20.50882,56.150242,72.296482,78.248211,15.148636,54.006146,69.599018,77.695393,9.287625,45.622227,60.428318,66.600689,3.99131,30.543537,42.429234,47.527119,-23.994481,-32.869991,-33.412851,-32.48163,-3.552217,11.470065,12.141515,10.685909,15.707971,29.872553,28.636112,25.977868,29.271388,40.878798,37.403065,34.16412,38.705245,49.548395,43.928638,37.476819,26.291817,51.744267,74.93153,94.488247,55.97033,89.634121,107.844258,121.434666,48.509812,86.165783,106.973454,121.58479,40.606797,75.502201,94.847134,108.386135,33.138565,60.4441,75.873356,87.49094,-15.869547,-18.301982,-14.742738,-14.797992,14.835697,27.385876,31.933201,34.466462,32.019454,44.016805,47.518696,48.495415,43.661728,56.546829,59.03169,58.322338,50.62426,62.233177,63.322071,61.57083,-32.099282,293.371977,-71.559037,279.504082
13,1.323212,-0.24111,0.4067,0.302355,15.439098,29.929951,38.690082,39.059337,19.413265,53.850185,70.400814,76.868305,13.786846,51.449856,67.728275,76.81699,7.617725,42.932339,58.742924,66.151508,1.968269,27.701431,40.305782,46.317501,-23.443519,-32.280053,-32.793816,-31.980526,-3.550254,11.770802,12.75845,11.534298,15.561264,29.946788,29.338263,27.025413,29.019742,40.772142,37.73953,34.783488,38.578459,49.659138,44.537447,38.305089,26.088124,51.452317,74.70052,94.269574,55.869931,89.557835,107.709515,121.174107,48.454365,86.117077,106.873707,121.371243,40.545124,75.510533,94.734822,108.104771,33.088566,60.474083,75.864064,87.447636,-15.975634,-18.530632,-14.980218,-15.087935,14.610604,27.118607,31.770748,34.401537,31.862706,43.815635,47.421192,48.47048,43.59747,56.34031,58.81991,58.055576,50.682182,62.142305,63.169214,61.35306,-30.670584,293.11111,-71.046851,279.78668
14,3.582813,0.003371,0.390793,0.263884,14.629944,27.855721,35.062592,34.629479,16.294247,48.261612,65.524223,73.041184,10.297955,45.475502,62.995995,73.874153,3.765278,36.764511,54.052025,63.275551,-2.367245,21.609478,35.313492,42.604477,-22.869092,-31.715678,-32.252376,-31.555226,-3.831403,11.546772,13.118764,12.275476,14.974908,29.373881,29.656031,27.832689,28.372746,40.25602,37.796402,35.269008,38.31355,49.482088,44.945495,39.011095,25.888115,51.159268,74.427967,93.973355,55.804287,89.473835,107.529202,120.841542,48.426899,86.073727,106.742375,121.123638,40.506558,75.540928,94.665058,107.838032,33.061421,60.630993,76.021534,87.52335,-16.107471,-18.773681,-15.257539,-15.367183,14.437247,26.971259,31.668452,34.338095,31.713493,43.553418,47.196013,48.308212,43.537128,56.082305,58.563708,57.800065,50.768435,62.055546,63.021742,61.151705,-26.992933,293.094918,-70.56122,280.031001
15,3.033268,0.001828,0.421189,0.211113,13.997543,26.236851,32.065647,30.751408,13.536564,43.578014,61.55801,69.988644,7.228718,40.396809,59.014996,71.36285,0.463131,31.611042,50.28471,61.138447,-6.016891,16.534264,31.297176,39.773243,-22.434023,-31.368073,-31.879626,-31.247487,-4.333533,11.185729,13.312315,12.827376,14.335272,28.781349,29.798291,28.362446,27.797874,39.765932,37.883162,35.791613,38.17014,49.361513,45.304857,39.650273,25.652172,50.825832,74.150997,93.706935,55.636802,89.358707,107.380977,120.56631,48.281215,86.006023,106.642994,120.911075,40.356399,75.517353,94.566181,107.548175,32.927204,60.657646,76.016613,87.417194,-16.23637,-18.988536,-15.514211,-15.582877,14.386722,26.923266,31.644937,34.348222,31.661362,43.392755,47.050886,48.23463,43.500756,55.850135,58.317718,57.568785,50.793752,61.931464,62.869539,60.999922,-23.871626,293.077258,-70.051992,280.222626
16,2.944908,-0.033543,0.467937,0.318595,13.666443,24.919407,29.348591,26.958081,10.96106,39.609936,57.97807,66.882717,4.326451,35.931668,55.146847,68.157017,-2.678959,27.063458,46.574284,58.224095,-9.376671,12.147778,27.49577,36.561894,-22.170337,-31.264258,-31.664141,-30.94076,-4.808566,11.157534,13.62061,13.340436,13.828808,28.813632,30.180971,28.887028,27.389087,39.896657,38.268966,36.406574,38.167288,49.795594,45.988916,40.489091,25.382515,50.471306,73.897041,93.477036,55.47337,89.208252,107.137688,120.174683,48.191597,85.973557,106.582237,120.756226,40.304512,75.596489,94.569077,107.338898,32.965439,60.91246,76.267067,87.529152,-16.420151,-19.296992,-15.932298,-15.972782,14.340891,26.78429,31.501923,34.231872,31.667883,43.183569,46.778864,47.932139,43.582279,55.655226,58.036347,57.213498,50.987018,61.851324,62.655018,60.693553,-20.85648,293.025959,-69.513817,280.523465
17,2.429535,-0.112756,0.440529,0.071655,13.442871,24.038853,27.34631,24.136242,9.253269,36.613003,55.373326,64.721272,2.288075,32.412861,52.182781,65.734944,-5.010887,23.344494,43.527981,55.819851,-12.060173,8.561829,24.54649,34.185574,-21.739356,-31.066731,-31.371951,-30.490834,-5.229235,11.215987,13.956371,13.794956,13.335582,28.862513,30.4875,29.28764,27.016559,40.070336,38.595045,36.889437,38.191111,50.286954,46.690586,41.361686,25.108669,50.163677,73.669762,93.235268,55.477581,89.165863,107.009994,119.927101,48.185749,85.911667,106.452576,120.533478,40.211277,75.51194,94.4282,107.062111,32.796249,60.850971,76.187965,87.379829,-16.515284,-19.363731,-16.069606,-16.150351,14.465688,26.921957,31.649988,34.390064,31.762497,43.192449,46.78205,47.957901,43.662617,55.622671,57.990083,57.163801,51.095971,61.908431,62.675939,60.70499,-18.373959,292.892328,-69.020302,280.574245
18,1.983032,0.020155,0.063549,0.087587,13.010399,23.204853,25.597493,21.843213,7.47448,33.829251,52.903622,62.682347,0.401871,29.47855,49.724018,63.801945,-6.978,20.336461,41.002293,53.724919,-14.074127,5.483471,21.671574,31.61578,-21.573753,-31.033361,-31.300147,-30.440581,-5.445188,10.884375,13.938353,13.956273,13.103117,28.707952,30.53201,29.38034,26.892083,40.163432,38.830784,37.19299,38.34193,50.542527,47.078934,41.818009,25.145084,50.190685,73.698154,93.279407,55.4053,89.097851,106.958462,119.86488,48.120735,85.915226,106.503765,120.617397,40.16851,75.561024,94.544392,107.151752,32.778866,60.965172,76.353367,87.482746,-16.547147,-19.413157,-16.212225,-16.337245,14.483806,26.897577,31.559425,34.257115,31.757644,43.076791,46.577113,47.740577,43.654453,55.518017,57.836979,57.026221,51.108333,61.828143,62.550586,60.576314,-16.345751,292.882957,-68.911577,280.632306
19,0.300591,0.104593,0.143898,0.061244,13.096207,23.371021,25.580944,21.60712,6.953522,33.628887,53.00053,62.941967,-0.089825,29.233944,49.649815,63.676128,-7.389908,20.093685,40.872608,53.597156,-14.381584,5.196922,21.340771,31.287769,-21.624043,-31.299517,-31.55924,-30.623647,-5.65283,10.682698,13.687424,13.653004,12.997684,28.695898,30.400358,29.13072,26.882659,40.225948,38.832772,37.155137,38.437211,50.634931,47.098904,41.845006,25.115021,50.160919,73.653408,93.224751,55.33881,89.049763,106.93578,119.847118,48.043682,85.864574,106.490604,120.609501,40.069462,75.478512,94.527729,107.182743,32.655121,60.85722,76.284771,87.445942,-16.581345,-19.417306,-16.215498,-16.392833,14.534688,26.913151,31.506245,34.150979,31.832769,43.098774,46.493577,47.563267,43.716797,55.583608,57.824135,56.951133,51.132095,61.847212,62.530937,60.537708,-16.011858,292.956545,-68.734377,280.662545
20,0.778656,0.124205,0.177029,0.079929,12.972462,23.108288,24.966076,20.674152,6.189983,32.961788,52.425991,62.377041,-0.813915,28.664417,49.104435,63.072018,-8.063336,19.47179,40.115284,52.71896,-14.976608,4.382801,20.270977,30.071606,-21.634948,-31.405803,-31.688941,-30.785433,-5.574494,10.848671,13.756337,13.577323,13.102561,28.838677,30.387403,28.977814,26.964293,40.365405,38.813567,37.050865,38.49291,50.795691,47.142488,41.827136,25.077015,50.147243,73.638656,93.196792,55.353515,89.034668,106.87912,119.7583,48.024971,85.810226,106.419616,120.507797,40.004367,75.385048,94.468048,107.163299,32.531971,60.751751,76.194877,87.353508,-16.62095,-19.439474,-16.234245,-16.525299,14.536937,26.866234,31.415905,34.0432,31.884764,43.100812,46.399383,47.364938,43.773719,55.642037,57.807167,56.871401,51.157339,61.853807,62.49569,60.48879,-15.195568,293.050894,-68.519714,280.712618
21,-0.967999,0.157908,0.037365,0.054267,13.370282,24.195374,26.568924,22.601738,7.538052,34.621331,54.01252,63.857415,0.54728,30.420845,50.664299,64.318016,-6.770897,20.983933,41.28241,53.580414,-13.804653,5.575516,21.058846,30.611252,-21.739331,-31.718173,-32.150142,-31.31745,-5.711024,10.648439,13.407978,13.140784,13.0437,28.766244,30.150232,28.698998,26.939531,40.385869,38.632293,36.844791,38.478189,50.801471,47.016492,41.716405,25.115295,50.216125,73.653682,93.156887,55.402954,89.054706,106.888172,119.798023,48.025131,85.75661,106.357029,120.457019,39.944812,75.26263,94.380764,107.129093,32.381389,60.569091,76.00542,87.145877,-16.634191,-19.425717,-16.162529,-16.521632,14.466713,26.748784,31.272088,33.905113,31.852801,43.061452,46.325356,47.286057,43.730159,55.63612,57.788283,56.856469,51.07132,61.792822,62.432395,60.439697,-16.126133,293.175111,-68.444915,280.733194
22,1.40141,0.655555,0.154552,0.071111,13.004608,23.272029,25.403263,21.486545,6.490242,33.031482,52.300975,62.1664,-0.490769,29.201213,49.258037,62.936702,-7.715928,19.660205,39.608287,51.888759,-14.647831,3.834915,18.608081,27.827533,-22.116935,-32.295651,-33.039805,-32.284437,-5.893916,9.948596,12.557255,12.213071,12.962325,28.24612,29.425306,27.979643,26.897207,39.94807,37.964709,36.179566,38.376066,50.385977,46.480721,41.174273,25.120274,50.208904,73.633598,93.139549,55.387367,89.020088,106.825172,119.688217,47.949097,85.671822,106.208611,120.230438,39.804955,75.116592,94.227631,107.005486,32.183144,60.358543,75.835693,87.035271,-16.608292,-19.429594,-16.077473,-16.335812,14.492995,26.762777,31.218563,33.816428,31.920456,43.078014,46.25569,47.181008,43.777226,55.718373,57.833917,56.884912,51.03616,61.788858,62.446438,60.467733,-14.688222,293.800028,-68.253862,280.773667
23,-0.547383,0.703004,0.11348,0.146818,13.106507,23.622643,26.293717,22.699539,7.469193,34.412132,53.374672,62.958,0.624985,30.68969,50.319992,63.812554,-6.47216,21.149826,40.631584,52.764496,-13.357612,5.176987,19.537445,28.571343,-22.618139,-33.030987,-33.939262,-32.976462,-6.638577,9.008162,11.397187,11.021794,12.404781,27.558332,28.576781,27.115223,26.487765,39.326824,37.156309,35.356433,38.041267,49.768325,45.646658,40.266641,25.068226,50.085525,73.501854,93.068802,55.316448,88.940574,106.691848,119.554825,47.839359,85.556854,105.99916,119.917511,39.674514,74.984573,94.112068,106.933799,32.024563,60.20145,75.719124,86.96109,-16.729743,-19.604039,-16.159366,-16.35183,14.393144,26.619281,30.99431,33.526386,31.921826,43.069221,46.142119,46.936143,43.800271,55.846727,57.902719,56.85621,50.98382,61.813398,62.480203,60.466979,-15.203013,294.485517,-68.10779,280.90297
24,-2.858265,-0.334379,-0.092686,-0.110521,13.985138,25.587811,29.67294,26.716564,10.859288,39.139675,57.719891,66.636029,4.018685,35.44376,54.362904,66.924099,-3.117061,25.687352,44.289402,55.514866,-10.00201,9.283997,23.138798,31.673504,-22.665859,-32.887479,-33.677724,-32.402997,-6.147784,10.000788,12.256617,11.841321,12.925214,28.484835,29.407732,27.912854,26.932813,39.950417,37.832773,36.056004,38.195866,50.054822,45.846038,40.357315,25.213863,50.185169,73.514957,93.078289,55.029201,88.604816,106.413815,119.458843,47.632805,85.24902,105.707783,119.786968,39.685844,74.780926,93.879833,106.758945,32.257587,60.290577,75.78075,87.11285,-16.66057,-19.638063,-16.163602,-16.143904,14.296122,26.52195,31.161827,34.045719,31.837525,43.145989,46.542657,47.695586,43.759751,55.944095,58.250856,57.418967,50.99207,61.944407,62.792154,60.836222,-18.032067,294.139439,-68.171265,280.78075
25,-3.057037,-1.093069,-0.344261,-1.010187,15.050583,27.645618,32.661152,30.032284,14.384342,42.926273,60.744266,69.17355,6.868812,38.813267,57.260136,69.541134,-0.769741,28.640934,46.887966,57.937397,-8.062569,11.888065,25.733768,34.445858,-22.30657,-32.170939,-32.800682,-31.255106,-5.466764,11.377736,14.253366,14.421587,13.599615,30.052308,31.88138,30.943737,27.500472,41.221093,40.106127,38.792721,38.580213,50.977077,47.565602,42.382087,25.715378,50.790733,73.994007,93.272518,55.212993,88.352703,105.816456,118.738094,47.578583,84.550701,104.806904,118.9949,39.363636,73.901012,92.901066,105.916088,31.55682,59.292572,74.713062,86.270634,-16.418533,-19.243281,-15.610245,-15.470096,12.942293,25.899778,31.481718,35.257769,30.47284,42.999665,47.658795,49.868842,42.673141,55.903735,59.480022,59.789379,50.434834,62.189531,63.996744,62.914975,-21.090403,293.026629,-68.516825,279.750822
26,1.519901,-4.545978,0.430183,-4.093929,11.50668,20.402001,22.816029,19.025059,9.027409,34.780403,49.514637,56.207703,3.181595,32.270531,47.697441,57.815598,-2.455444,24.866913,40.459236,49.859368,-7.904377,11.199795,23.760636,31.71991,-10.417048,-14.590956,-12.802886,-11.019003,4.389824,20.751053,23.152921,23.030433,15.780564,32.053391,34.295425,33.618912,22.912119,36.455479,36.809593,36.330978,28.008245,39.582434,37.987457,34.353347,27.515614,53.569302,76.154812,94.361332,55.561123,87.122486,103.549931,115.166577,46.55801,81.375698,100.00771,112.617382,37.229634,68.889588,85.698258,96.740788,28.552323,53.400353,66.146176,75.063606,-15.001954,-16.414865,-11.353974,-9.400129,11.325446,26.799457,34.250064,38.998053,28.247948,43.72007,50.413172,53.681498,40.706909,56.487597,61.406042,62.420799,48.966681,62.517451,64.792015,63.685176,-19.58856,288.468693,-68.1047,275.644935
27,10.51561,-2.414948,4.012905,-8.421311,2.238407,4.028915,2.485989,-2.081772,-2.790882,10.390469,18.452934,21.991665,-5.200802,9.897675,17.682175,23.625378,-7.946217,6.380115,14.657673,20.258423,-11.043995,-1.085404,5.87455,10.670288,-11.062018,-16.557817,-16.720394,-16.069804,3.706692,19.601545,20.921781,20.418712,15.77271,32.056195,33.898148,33.189957,23.582804,37.485674,38.368223,37.869367,28.806234,40.65205,40.361107,37.853954,24.951348,48.978104,68.512436,83.802132,56.049557,79.106964,88.082394,93.510624,48.070382,72.564217,82.305291,87.709603,38.712902,60.169396,68.171734,72.477814,29.102909,46.248814,52.652298,56.280888,-4.642359,-0.662323,7.259588,12.429407,18.254891,37.723759,46.40252,50.704214,29.628749,49.695311,57.686728,60.642128,38.054408,57.642095,63.884506,64.928372,43.221373,59.746611,63.729525,63.473767,-9.099449,286.041345,-64.118294,267.211224
28,16.108761,-3.381107,-5.963653,-19.91536,-5.859158,-12.168263,-19.423496,-26.292504,-18.952858,-17.949497,-16.589436,-16.684387,-18.903214,-17.1194,-16.724018,-15.530308,-18.525055,-16.432743,-15.481728,-14.550934,-18.4296,-17.613156,-16.440857,-15.791531,-10.592208,-14.883269,-12.9541,-9.635719,6.311275,21.557316,23.584125,23.875365,18.278703,34.063108,36.402893,36.222669,26.054907,39.732611,41.735659,41.875573,31.001572,42.570228,43.712537,42.601165,25.59692,51.708503,72.353874,86.306328,55.751644,82.083435,87.009121,87.71347,48.009189,75.210319,79.916736,80.2798,39.357776,63.823448,67.254032,66.800651,30.794163,50.194095,53.144256,52.797237,-6.081934,-2.773273,6.912551,15.854356,9.173555,28.037293,38.151331,42.330364,21.445078,41.376629,50.022527,52.520726,31.947971,51.006841,57.242471,58.244162,39.835191,54.97859,58.374813,58.045597,6.929489,282.614256,-70.16177,247.249882
29,19.424171,-2.705088,-8.165394,-30.439619,-15.140213,-29.93494,-44.012283,-53.775535,-37.414284,-49.677658,-55.048816,-58.734649,-35.046283,-47.831474,-54.546489,-57.901726,-31.769909,-43.025757,-48.803592,-52.080585,-28.617313,-37.685509,-41.960495,-45.088909,-9.633694,-12.564405,-8.542403,-3.352936,8.788134,22.561872,25.023787,25.856244,20.5207,34.756479,37.535544,37.963598,28.112814,41.143287,44.097649,44.748091,32.635044,43.947843,46.631701,46.878036,24.134251,50.814949,72.525421,85.986408,52.805706,82.135185,82.450619,77.891247,46.267433,75.796658,74.885845,69.747093,39.082661,66.005459,63.971741,58.545341,32.0755,53.160976,51.67503,46.86628,-9.780802,-10.137361,-1.924649,8.563202,-3.416366,12.831378,22.692777,25.929116,10.446422,27.729961,35.733086,37.532858,23.329627,38.830376,44.396521,45.627898,33.79006,45.211552,47.896991,47.9354,26.214597,279.931389,-78.466227,216.832484
30,18.955479,-1.744276,-9.498299,-42.996392,-24.498928,-47.493668,-67.686665,-79.909172,-55.257237,-80.072868,-91.727612,-99.022682,-49.910168,-76.779602,-90.562122,-98.913059,-43.366654,-67.741894,-80.43219,-88.348663,-36.989124,-55.779225,-65.655705,-72.901062,-9.343553,-11.157151,-5.165681,2.176159,10.477872,22.377361,24.621483,25.425683,22.1909,34.219608,36.460679,36.917842,29.882716,41.369812,44.269031,44.947977,34.13937,44.359285,47.411781,48.423846,22.180939,48.163113,69.820771,82.393845,47.302311,77.157978,75.526154,67.937702,42.321923,71.860279,67.428177,58.104,37.301354,64.214814,58.224598,48.852505,32.664894,53.467953,48.658379,40.247143,-13.839064,-18.09237,-11.867114,-0.977521,-16.315558,-5.293943,3.969558,6.879713,-2.140022,10.448812,17.710605,19.225238,12.02635,23.07524,27.903838,28.953719,24.318961,31.845318,33.517537,33.267016,44.987229,278.232681,-88.147373,173.88166
31,15.05587,1.683576,-12.282577,-47.024905,-29.457825,-56.327431,-79.527866,-93.076241,-65.101616,-99.397419,-115.040325,-124.780174,-59.057911,-96.611458,-114.929318,-126.392017,-51.646614,-86.437843,-103.724613,-114.771893,-44.165245,-71.331436,-85.517017,-95.968254,-20.786584,-26.576266,-20.62239,-11.046359,3.09314,14.405926,17.556012,19.188385,22.435678,33.265021,35.49011,36.258471,36.823191,47.464244,49.897111,50.243889,46.541458,56.851468,59.221189,59.696766,18.511494,42.06019,63.193634,75.023031,39.757215,70.218138,68.062837,59.764171,37.508537,68.158607,61.453039,49.505556,35.750627,64.877981,56.856107,45.390627,34.378195,57.408331,51.889446,42.589931,-18.311819,-28.002018,-25.871086,-16.978365,-30.48955,-27.740474,-21.778074,-20.506021,-16.394537,-11.026042,-4.628231,-2.805704,-1.6669,2.72633,7.362582,9.209901,11.874295,13.85037,15.714881,16.785793,59.375341,280.129231,-101.097708,127.069729
32,3.884308,-0.924713,-18.04802,-49.628726,-28.09829,-54.492165,-78.69516,-93.641716,-66.569447,-99.73708,-115.601269,-126.413899,-61.538361,-98.028694,-116.089371,-128.767113,-54.215859,-87.922932,-105.047264,-117.25462,-46.284233,-72.729012,-86.618065,-97.764324,-19.443117,-22.200137,-11.805308,1.382012,6.07387,17.157538,21.919087,24.612368,24.659657,34.544416,37.693255,39.106067,38.304225,48.0693,51.062256,51.976483,47.460083,57.03972,59.229785,59.676031,18.802929,42.123064,64.170891,76.361327,30.361914,67.215002,71.612303,68.673958,28.546841,67.950646,66.082472,57.109103,29.245577,67.689646,64.077376,55.001765,31.579394,61.532118,58.898804,51.045319,-31.136318,-50.572541,-54.831164,-50.112605,-55.003908,-63.384133,-61.809556,-61.903504,-37.004089,-41.343556,-34.386489,-30.255794,-18.098123,-22.37189,-17.271856,-13.411016,-0.233633,-5.726474,-4.285639,-2.125338,61.892498,280.680523,-120.512879,78.917008
33,-0.137787,-0.29403,-8.768142,-43.473957,-28.092293,-53.744202,-77.936016,-93.050251,-65.454392,-98.464726,-114.373524,-125.610947,-60.660759,-97.027943,-115.001804,-128.287067,-53.669838,-87.400864,-104.370815,-116.925591,-45.97039,-72.348358,-86.082378,-97.241993,-19.153163,-21.348402,-10.762517,1.998996,6.442445,17.227043,21.746482,24.154748,24.923886,33.975015,36.982432,38.347141,38.423082,47.627648,50.482073,51.260832,47.280944,56.714036,58.712254,58.900914,18.007473,36.405676,54.087959,64.392523,21.362955,52.161009,59.779237,60.718597,19.015251,54.780842,54.679498,46.577642,20.305257,55.830877,53.147489,44.518484,23.974485,51.717951,49.724819,41.978405,-30.951493,-53.991606,-64.272562,-65.962226,-63.295482,-78.0355,-81.606294,-84.277154,-48.830787,-56.835728,-47.407082,-41.022182,-32.674332,-39.695573,-31.502831,-25.606562,-16.723327,-23.511649,-19.194227,-15.044667,59.927153,282.425603,-131.108579,37.482161
34,-0.940865,-0.360759,-7.938996,-34.770274,-27.725944,-53.120796,-77.224216,-92.272396,-64.345138,-97.563125,-113.481536,-124.81874,-59.606346,-96.243335,-114.073345,-127.319927,-52.7089,-86.821861,-103.721775,-116.276367,-45.199836,-71.928691,-85.653499,-96.780338,-19.552243,-21.63743,-11.08142,1.810732,5.886469,16.599326,21.192149,23.647568,24.459425,33.260736,36.205415,37.512943,38.103722,46.861153,49.604193,50.380729,47.186812,56.189664,57.859605,57.888529,19.922139,34.771643,48.260033,56.094492,15.530222,40.483961,51.855051,57.309277,12.21912,45.068196,47.926798,41.462969,13.403384,46.750735,46.321627,38.722361,17.612292,44.032751,43.897167,36.821091,-29.538989,-53.344109,-66.29259,-73.036785,-69.275614,-87.62997,-94.921792,-99.944919,-59.254726,-69.094191,-56.084089,-47.161389,-46.297696,-53.7761,-41.781008,-33.758753,-32.149963,-39.117571,-31.911662,-26.009996,56.752836,283.932102,-141.281027,4.579145
35,-0.664878,-0.577156,-5.697349,-23.410761,-27.304322,-52.411812,-76.368073,-91.127484,-63.609742,-96.691761,-112.631218,-124.026833,-58.905831,-95.520276,-113.407986,-126.718255,-51.944069,-86.120831,-103.078263,-115.715722,-44.352334,-71.186108,-84.969555,-96.191414,-19.610264,-21.689388,-11.149321,1.744721,5.627105,16.204543,20.847532,23.392069,24.154896,32.769795,35.882139,37.350762,37.785213,46.380401,49.266269,50.221758,46.930671,55.809973,57.580542,57.740884,21.974968,33.927263,44.010921,49.665006,11.822256,33.939829,46.882719,55.05907,7.430454,40.927528,44.523691,37.794336,8.309149,42.637224,42.982321,35.025358,12.774839,40.231825,41.168369,33.749061,-28.009023,-52.507131,-67.778113,-78.108747,-74.120983,-94.370261,-105.709915,-114.089799,-67.424287,-77.594413,-61.82161,-51.723664,-56.931641,-64.878533,-49.931228,-40.569106,-44.528765,-52.522091,-42.769187,-35.125635,53.677615,285.236981,-149.388719,-16.949581
36,-0.299103,-0.416914,-2.496872,-18.242773,-26.919709,-51.806099,-75.751602,-90.372849,-63.019913,-96.07275,-112.06826,-123.552223,-58.321953,-94.976532,-112.998425,-126.396721,-51.279671,-85.554611,-102.652348,-115.393822,-43.59803,-70.56585,-84.461861,-95.776737,-19.560802,-21.757548,-11.439079,1.396708,5.415709,15.813675,20.452774,23.077487,23.878501,32.348003,35.561296,37.178169,37.47236,46.024904,48.963248,50.057798,46.597379,55.431628,57.209583,57.463118,24.761822,34.653534,42.106544,46.358745,9.954437,30.649086,44.245537,53.728969,4.123592,39.614651,43.861622,36.691051,4.298046,40.59003,41.579738,33.210949,8.401268,37.530201,39.550312,31.873535,-26.708819,-51.333741,-67.920513,-80.950208,-76.805496,-97.936625,-111.479596,-122.009236,-72.575506,-81.844697,-63.601244,-52.585527,-64.039364,-71.205295,-53.600092,-43.223182,-53.100043,-60.894446,-48.958567,-40.142491,50.748739,286.557446,-154.515364,-33.454975
37,-0.176903,-0.241827,0.761593,-11.970163,-26.431892,-51.066238,-74.979366,-89.785675,-62.567047,-95.57959,-111.646534,-123.116695,-57.988609,-94.616753,-112.824108,-126.278309,-50.904831,-85.16003,-102.376648,-115.123707,-43.112709,-70.048931,-84.013676,-95.349804,-19.718932,-21.992533,-11.810952,0.897925,5.150466,15.482532,20.097721,22.725683,23.580469,31.906129,35.191856,36.867367,37.173069,45.614091,48.618989,49.802954,46.287602,55.116466,56.970634,57.2504,27.867405,36.830234,42.536579,46.061371,10.628448,30.484794,43.82024,53.352985,2.848606,40.320179,45.293071,37.982402,1.50016,39.703777,41.370758,32.854305,4.379402,35.054992,37.941993,30.076423,-25.569431,-50.21838,-67.610075,-82.911142,-77.111561,-97.911981,-111.72887,-123.08943,-74.641137,-82.072176,-61.819195,-50.339287,-67.645427,-72.703045,-52.920751,-42.133257,-57.777921,-64.073925,-50.501487,-41.231034,48.426207,286.77005,-155.8994,-44.970707
38,0.298988,0.025021,2.701938,-6.491147,-26.159065,-50.660591,-74.559894,-89.429866,-62.135009,-95.30706,-111.534828,-123.115173,-57.610725,-94.423862,-112.875938,-126.523578,-50.513214,-84.921501,-102.31501,-115.154915,-42.710312,-69.781047,-83.813335,-95.156284,-19.824994,-22.168003,-12.021891,0.583974,4.800564,15.033706,19.538868,22.098163,23.257083,31.498157,34.796394,36.540004,36.846249,45.307858,48.336333,49.59283,45.895463,54.792178,56.644876,56.907315,28.362946,37.267514,41.903801,45.14954,12.419472,31.423062,44.265518,53.868359,4.330742,41.391793,46.544735,39.886929,1.98967,39.737515,41.568421,33.469551,3.20723,33.392842,36.704567,29.322945,-25.187506,-50.048246,-67.694093,-83.899263,-76.758152,-97.321938,-110.98715,-122.478528,-75.211039,-82.795098,-61.969274,-49.317418,-69.228826,-74.51999,-53.960264,-42.222301,-60.349456,-67.652208,-53.665968,-43.674344,46.967371,286.657346,-154.955286,-51.599579
39,0.555062,0.141149,4.842556,-4.176934,-25.963806,-50.353295,-74.226803,-89.15458,-61.988938,-95.250561,-111.657738,-123.36985,-57.452408,-94.359936,-113.074288,-126.916386,-50.279892,-84.756398,-102.32658,-115.235665,-42.38562,-69.502316,-83.602547,-94.971188,-19.890511,-22.276041,-12.154383,0.352484,4.605099,14.699711,19.151372,21.698342,23.080378,31.219699,34.617405,36.481082,36.645634,45.094461,48.201371,49.560029,45.590354,54.518537,56.407977,56.673009,27.866513,37.014073,40.732075,43.492527,13.972618,32.165337,44.334938,53.646778,4.938195,40.585648,45.528946,39.452019,1.129452,37.695614,39.666699,32.018647,0.498425,29.574864,33.52121,27.006134,-23.418171,-48.306674,-66.294409,-82.64886,-74.710243,-95.650406,-109.356343,-120.865073,-73.85479,-81.259704,-60.489481,-47.099009,-68.814239,-73.677646,-52.882787,-40.628819,-61.01105,-68.159092,-54.01387,-43.449794,46.055643,286.685677,-151.57952,-55.889331
40,0.599441,0.189018,4.674866,-1.902919,-25.774338,-50.119491,-74.021004,-89.179436,-61.821075,-95.238029,-111.800251,-123.622581,-57.345955,-94.393799,-113.320976,-127.291546,-50.205734,-84.764316,-102.506893,-115.496475,-42.306312,-69.449077,-83.598781,-94.968521,-19.955213,-22.338261,-12.236288,0.149276,4.425158,14.426502,18.884585,21.487575,22.878837,30.933919,34.341257,36.234413,36.432533,44.825588,47.946231,49.344878,45.337832,54.272919,56.169743,56.431207,26.942963,36.805023,40.002651,42.711662,14.801113,32.304451,43.754322,52.501453,5.002258,39.085739,43.950897,38.696297,-0.14241,35.193798,37.064106,29.841167,-2.336975,25.529514,29.517117,23.547867,-21.380728,-46.352743,-64.547372,-81.306752,-72.002185,-93.113459,-106.838769,-118.548664,-71.692476,-79.168058,-58.135747,-43.849653,-67.464765,-71.705684,-50.699244,-37.898155,-60.512526,-66.936873,-52.640016,-41.781484,45.276243,286.686334,-148.283495,-57.980611
41,0.590195,0.017167,3.823116,0.210433,-25.717804,-49.996307,-73.877552,-89.204281,-61.629662,-95.093399,-111.73621,-123.584828,-57.24012,-94.329472,-113.386917,-127.498238,-50.160919,-84.733978,-102.548058,-115.595604,-42.289559,-69.424393,-83.574005,-94.94767,-19.986213,-22.344436,-12.207241,0.12129,4.37125,14.312683,18.714524,21.25096,22.830473,30.799846,34.161254,35.980434,36.406425,44.737618,47.827238,49.148363,45.325926,54.266855,56.148699,56.302321,25.654679,36.058331,38.768669,41.184414,15.066147,31.72974,42.849896,51.555931,4.899239,36.957539,41.9194,37.769589,-1.176155,32.527233,34.473278,27.993862,-4.363529,21.955799,25.869439,20.551861,-19.876118,-45.218302,-63.793554,-80.993585,-69.724447,-90.6281,-104.41602,-116.204815,-69.801363,-77.551318,-56.825175,-42.187622,-66.086088,-70.017088,-49.367065,-36.396761,-59.499474,-65.538998,-51.579286,-40.704692,45.04723,286.462993,-145.279587,-58.010686
42,0.527916,0.12854,2.679177,1.03732,-25.558846,-49.834465,-73.710388,-89.122467,-61.260933,-95.009285,-111.803066,-123.760872,-56.859261,-94.298527,-113.512436,-127.8013,-49.841904,-84.730499,-102.691521,-115.876728,-42.070748,-69.365055,-83.58791,-95.024883,-19.971294,-22.350463,-12.247058,-0.032012,4.407336,14.343966,18.668236,21.100375,22.906179,30.717693,33.962763,35.702124,36.44035,44.543227,47.566873,48.889431,45.29184,54.085901,55.940414,56.135002,24.662979,35.09983,37.804413,39.778141,13.696186,31.015949,42.226776,50.846958,3.6282,35.447548,40.610881,36.857402,-2.294117,31.069759,33.347694,27.318901,-5.143719,20.857818,25.141479,20.492592,-19.166475,-44.775322,-63.466159,-80.435929,-68.471555,-88.564037,-102.370876,-114.286152,-68.360176,-76.261434,-56.202631,-41.528461,-64.210591,-68.466331,-48.432324,-35.425075,-57.110368,-63.152375,-49.677268,-38.932153,44.893364,286.405275,-143.282192,-57.159624
43,0.310409,0.152647,0.017521,1.317501,-25.49263,-49.717071,-73.554496,-89.144485,-61.023834,-94.902855,-111.756649,-123.750949,-56.612045,-94.261196,-113.480724,-127.769886,-49.669372,-84.757026,-102.77108,-115.990688,-42.02568,-69.47232,-83.727447,-95.143352,-19.979494,-22.334766,-12.268362,-0.10715,4.471952,14.362614,18.709621,21.159359,22.970325,30.667242,33.767126,35.387679,36.488639,44.435016,47.353266,48.596178,45.36037,53.999759,55.75084,55.901277,21.349205,31.815284,36.49213,39.525352,11.381584,30.73764,42.488582,50.934574,3.740844,36.713401,40.370143,35.413719,0.306015,33.924419,35.111755,28.523414,-0.26841,25.716796,28.803176,23.633537,-18.926038,-43.371192,-60.47744,-75.049679,-67.204962,-87.089295,-100.670931,-112.352414,-66.084087,-73.617409,-55.053314,-42.236485,-61.144912,-65.854696,-47.412572,-35.927829,-53.419812,-58.855281,-46.20624,-36.626096,44.559253,286.422145,-143.909191,-55.9779
44,0.19867,0.162625,-1.660206,0.908521,-25.336624,-49.594689,-73.409832,-89.072193,-60.790466,-94.861485,-111.765267,-123.745983,-56.402275,-94.321255,-113.540486,-127.79274,-49.548592,-84.924729,-103.011086,-116.278816,-42.017647,-69.675282,-83.987515,-95.394779,-20.011838,-22.319291,-12.211094,0.017624,4.568642,14.390242,18.700693,21.153802,23.060618,30.570073,33.433835,34.858935,36.574078,44.308255,47.053394,48.151465,45.446278,53.956115,55.639308,55.792387,16.500915,26.739773,33.669113,38.930889,9.977749,31.46672,44.262634,53.102852,6.022693,40.29451,41.908882,35.270874,6.076732,39.547714,39.032593,31.440159,8.536972,33.890705,34.98405,28.821304,-20.153488,-43.441544,-58.404132,-69.924814,-66.03665,-86.176281,-99.557095,-110.992172,-63.443231,-69.970126,-53.365823,-43.148273,-57.280213,-61.809272,-45.727754,-36.401034,-48.676651,-53.459678,-41.964851,-33.95883,44.274313,286.52661,-146.053007,-55.127539
45,0.176445,0.059083,-1.810341,1.220151,-25.390412,-49.64447,-73.443192,-89.148079,-60.768082,-94.888607,-111.736908,-123.680557,-56.376045,-94.370751,-113.492386,-127.686688,-49.568207,-85.032143,-103.06802,-116.324707,-42.114968,-69.88963,-84.207665,-95.557251,-19.960364,-22.260826,-12.211638,0.182732,4.899982,14.530082,18.739793,21.149393,23.39549,30.70254,33.319411,34.552246,36.869208,44.576906,47.124086,48.012712,45.667036,54.170265,55.734354,55.777888,11.918804,21.697986,30.362503,37.247131,9.402489,32.166389,45.72345,55.025379,8.802898,43.76025,43.624065,35.743034,11.96315,45.03265,43.082874,34.863018,17.097622,42.032993,41.463329,34.6394,-21.464677,-43.499911,-56.436591,-64.879367,-65.261447,-85.742197,-98.885038,-110.104822,-61.377297,-66.958645,-52.41583,-44.583186,-53.958053,-58.302361,-44.262991,-36.756617,-44.21716,-48.605398,-38.136869,-31.404839,44.103213,286.579623,-148.210893,-53.913458
46,-0.066078,0.082116,-1.621823,1.548015,-25.361779,-49.67585,-73.501374,-89.22678,-60.693627,-94.953781,-111.755951,-123.619915,-56.256707,-94.481713,-113.515881,-127.581848,-49.480385,-85.126282,-103.156609,-116.413399,-42.135933,-70.05716,-84.383377,-95.692955,-19.906468,-22.180662,-12.172859,0.361956,5.149354,14.686063,18.880509,21.31786,23.637144,30.840601,33.288424,34.374429,37.07244,44.778188,47.186898,47.936091,45.832144,54.319194,55.787187,55.809751,7.579834,16.923935,27.279259,35.647763,9.157414,33.048958,47.100346,56.483609,11.324582,47.167798,45.366005,36.152619,17.082596,50.117512,46.702984,37.750283,24.471875,49.417935,47.181427,39.521176,-22.436092,-43.046119,-54.074483,-59.858348,-64.798968,-85.460591,-98.371734,-109.521216,-59.724893,-64.496428,-51.568399,-45.879574,-51.226345,-55.509353,-42.976533,-37.228051,-40.581815,-44.607966,-34.707158,-29.149115,43.814329,286.741224,-150.055522,-52.285958
47,0.151153,0.087241,-0.622398,2.385783,-25.50769,-49.795624,-73.653728,-89.280773,-60.773987,-94.933731,-111.670818,-123.492245,-56.436241,-94.609566,-113.553234,-127.504852,-49.737442,-85.355839,-103.332664,-116.516727,-42.49086,-70.444782,-84.734218,-95.913814,-19.778015,-22.100843,-12.142638,0.610045,5.341077,14.539307,18.690862,21.150282,23.748924,30.814851,33.18824,34.172184,37.136537,44.898453,47.235335,47.830597,45.913617,54.469001,55.837439,55.689473,5.848206,15.266659,26.621681,36.123516,9.456425,33.289227,47.418194,56.714184,13.144695,49.057743,46.069222,36.099724,20.255207,53.115944,48.522366,39.066364,28.60096,53.492077,49.847202,41.475323,-22.37804,-42.046251,-52.019097,-56.739551,-64.386278,-85.31812,-98.286467,-109.647286,-58.587006,-63.029485,-50.830877,-46.669251,-49.7354,-53.9872,-42.173247,-37.726019,-38.978558,-42.721189,-33.014185,-28.227916,43.764038,286.928004,-150.879364,-49.800636
48,0.116844,-0.008966,2.402115,2.35978,-25.515358,-49.856598,-73.787761,-89.372612,-60.798843,-95.01947,-111.7584,-123.550644,-56.498039,-94.726925,-113.683742,-127.579364,-49.829315,-85.513012,-103.50246,-116.656139,-42.61045,-70.62577,-84.920745,-96.032753,-19.706953,-22.004772,-12.048284,0.851624,5.527798,14.618261,18.733321,21.16898,23.915873,30.921395,33.265861,34.181298,37.282663,45.068414,47.364431,47.866301,46.045479,54.633763,55.950702,55.719348,8.742954,17.991646,27.993278,36.377346,9.605186,32.073544,45.762428,54.702702,11.34581,47.672665,46.159492,36.668816,16.999283,50.77953,47.311249,38.140377,24.576096,50.500454,48.04541,39.997513,-21.753892,-42.405966,-53.97472,-60.460156,-64.515898,-85.324327,-98.821142,-110.68812,-59.256066,-63.186369,-49.976035,-44.711368,-50.399952,-53.797361,-40.868455,-35.537863,-39.31931,-42.731971,-32.318857,-26.837402,43.712511,287.006748,-148.64562,-47.353146
49,0.07592,0.022588,4.29562,3.311254,-25.581253,-49.854011,-73.839077,-89.450077,-60.749244,-94.93032,-111.640468,-123.451171,-56.523742,-94.696117,-113.655567,-127.588806,-49.929107,-85.495353,-103.456855,-116.606311,-42.767097,-70.660205,-84.935668,-96.047023,-19.597,-21.930758,-12.036254,0.884538,5.79062,14.698821,18.787686,21.18932,24.158317,31.120429,33.499426,34.401389,37.447451,45.271648,47.541543,47.981515,46.156852,54.807047,56.072758,55.759733,12.915791,22.225777,30.189846,36.281639,8.543301,29.578926,42.229935,50.336334,6.638397,43.098598,43.741665,35.716312,9.294445,44.637016,42.936161,34.794102,14.859753,42.508873,41.919559,34.789421,-19.758038,-41.753158,-55.486289,-64.598921,-64.925266,-85.391529,-99.426839,-111.936623,-60.951553,-65.125312,-49.811686,-42.118912,-52.737624,-55.558593,-40.377569,-33.185153,-41.810339,-44.60859,-32.97874,-26.136843,43.64245,286.983354,-144.495981,-44.087874
50,-0.094093,0.152412,3.370182,3.397712,-25.441017,-49.687019,-73.715618,-89.279938,-60.601707,-94.848553,-111.541271,-123.351791,-56.42411,-94.666717,-113.633938,-127.597778,-49.879761,-85.485752,-103.478039,-116.681957,-42.764442,-70.67411,-84.989239,-96.169006,-19.594998,-21.922853,-12.02982,0.880339,5.855866,14.685706,18.733433,21.081344,24.204606,31.187392,33.588902,34.47917,37.427506,45.223433,47.469222,47.909082,46.105377,54.768614,56.019048,55.731649,17.154282,26.89048,32.982273,36.83709,8.107132,28.091984,39.886311,47.513031,2.767673,38.785435,41.669952,35.396908,2.265575,38.135571,38.417084,31.514832,5.291279,33.497875,35.14333,29.389412,-17.763432,-41.448099,-57.328675,-69.325582,-65.361755,-85.564261,-100.194203,-113.294342,-62.587402,-68.058556,-50.649565,-40.349115,-55.210056,-58.264144,-41.110812,-31.787791,-44.817171,-47.846912,-35.429602,-27.249531,43.409197,287.106113,-141.264959,-40.719815
51,0.067566,0.107928,2.934837,3.078295,-25.416435,-49.681618,-73.637684,-89.000553,-60.575958,-94.835312,-111.507202,-123.357399,-56.441688,-94.623058,-113.577793,-127.592949,-49.932564,-85.485672,-103.473015,-116.70845,-42.808685,-70.608375,-84.913261,-96.108467,-19.541128,-21.807553,-11.766936,1.103974,6.04187,14.748234,18.732827,21.039637,24.376506,31.288378,33.654357,34.526693,37.511276,45.255024,47.456439,47.889741,46.112367,54.781359,56.02458,55.73644,21.19954,31.333214,35.851296,38.08405,7.32946,26.304818,37.468838,44.827687,-0.964416,34.307408,39.537152,35.024323,-4.219951,31.730633,34.097706,28.342896,-3.414768,24.99091,28.726525,24.10746,-16.371133,-41.856881,-59.714754,-74.170458,-65.813231,-85.918529,-101.208373,-114.897951,-64.131835,-70.89345,-51.590703,-38.546404,-57.485817,-61.014199,-42.075934,-30.524859,-47.577464,-51.093866,-37.990113,-28.462883,43.359352,287.125158,-138.447533,-37.730403
52,-0.048294,0.092946,1.613949,2.273205,-25.394989,-49.672417,-73.546314,-88.73988,-60.591637,-94.908165,-111.489555,-123.272243,-56.405869,-94.54232,-113.40699,-127.418003,-49.866554,-85.346729,-103.247086,-116.489845,-42.681358,-70.381783,-84.630524,-95.848537,-19.55717,-21.750989,-11.554181,1.312407,6.189417,14.866943,18.780227,21.020508,24.575528,31.426304,33.74134,34.57681,37.68372,45.341809,47.469222,47.881789,46.249602,54.873874,56.075735,55.800859,22.549759,32.587109,35.851719,36.961807,6.544487,25.174324,36.053112,43.481724,-3.256107,31.417912,38.288189,35.286003,-8.035892,27.670338,31.51157,26.825821,-8.35247,19.60841,24.877567,21.372391,-16.037347,-42.787607,-61.748201,-77.392075,-66.060695,-86.384454,-102.115841,-116.113551,-65.251654,-72.80045,-52.666741,-37.704029,-59.122042,-62.952081,-43.308132,-30.060637,-49.459863,-53.395142,-40.284276,-29.864604,43.232889,287.074648,-136.911753,-35.600654
53,0.156441,0.186042,-0.743614,1.776943,-25.422409,-49.670471,-73.424343,-88.413838,-60.609604,-94.85408,-111.327782,-123.06102,-56.479134,-94.453903,-113.250138,-127.33009,-49.969185,-85.254318,-103.084248,-116.349392,-42.762863,-70.263623,-84.448471,-95.66137,-19.518119,-21.759487,-11.476721,1.400351,6.266049,14.788557,18.633372,20.831143,24.669092,31.376731,33.661607,34.503055,37.73911,45.266584,47.351315,47.765253,46.285552,54.868724,56.074228,55.797327,22.096733,32.166149,35.460628,36.32563,5.731796,25.275066,36.537964,44.364601,-3.809921,31.13451,38.046707,34.97287,-8.217659,27.33221,31.228352,26.515263,-8.208126,19.457794,24.628395,21.099266,-16.520415,-43.460373,-62.335683,-77.80463,-66.559769,-86.923622,-102.523953,-116.351031,-65.529198,-74.302326,-54.372677,-39.427249,-59.347685,-64.376299,-45.048902,-31.851579,-49.749059,-54.81439,-41.980048,-31.579149,43.365824,287.102813,-137.678873,-33.981588
54,0.17427,0.005422,-1.226143,1.012212,-25.474113,-49.718811,-73.37313,-88.321678,-60.590377,-94.811691,-111.191848,-122.875053,-56.443954,-94.334404,-113.023155,-127.108966,-49.914207,-85.122036,-102.913627,-116.232238,-42.6893,-70.144432,-84.305557,-95.530334,-19.518305,-21.698317,-11.30618,1.533485,6.31866,14.815813,18.607647,20.790153,24.719023,31.39733,33.644489,34.519036,37.780248,45.333139,47.401024,47.861274,46.323418,54.876307,56.072042,55.838403,22.218269,32.067055,35.405731,35.997665,4.867264,25.337917,37.12207,45.302914,-4.158577,31.850086,38.348774,34.301251,-7.563847,28.373703,31.911118,26.38052,-6.525318,21.362515,26.149006,21.842423,-17.288077,-44.322506,-63.226407,-78.455269,-67.254856,-87.501081,-102.821299,-116.345587,-65.77999,-75.381858,-55.740127,-41.423071,-59.371712,-65.810637,-46.810813,-34.195951,-49.655062,-55.907236,-43.197229,-33.194477,43.503976,287.080796,-138.941134,-32.996815
55,0.340645,-0.021452,-0.446445,0.270146,-25.537834,-49.803131,-73.306263,-88.224666,-60.529907,-94.709358,-111.103523,-122.78524,-56.373894,-94.205646,-112.857708,-126.957481,-49.835197,-84.982029,-102.757759,-116.066025,-42.614914,-70.029602,-84.151771,-95.334595,-19.486911,-21.594169,-10.998317,1.7557,6.359724,14.919332,18.697049,20.862488,24.765447,31.425958,33.626792,34.512181,37.834971,45.38738,47.455389,47.941488,46.396085,54.909269,56.092234,55.850098,22.277023,31.713363,35.304554,35.980613,3.225128,24.768962,37.064769,45.345131,-5.305996,32.236576,38.334262,33.30336,-7.447941,29.740356,32.803974,26.319591,-4.844525,23.940822,28.061725,22.68877,-18.294084,-45.19378,-63.993644,-78.659984,-67.876195,-87.902465,-102.815097,-115.94467,-65.953559,-75.422459,-56.229153,-42.604616,-59.158284,-66.209668,-47.661413,-35.890593,-49.161979,-55.678173,-42.998658,-33.547239,43.78803,287.028821,-139.44417,-32.757192
56,0.302628,0.020242,-0.696545,-0.064097,-25.560425,-49.704575,-73.09092,-88.102867,-60.452133,-94.541142,-110.956593,-122.664997,-56.327088,-94.021969,-112.660217,-126.764832,-49.807251,-84.813915,-102.603859,-115.941811,-42.591728,-69.910961,-84.045857,-95.260781,-19.424988,-21.583881,-11.084977,1.602484,6.398849,15.039139,18.819043,20.942084,24.792876,31.476025,33.651072,34.531892,37.870095,45.439015,47.531749,48.015626,46.42922,54.971884,56.216043,55.99673,22.252052,31.58147,35.476776,36.028255,2.195251,24.721733,37.395653,45.713665,-5.682198,33.197697,38.635071,32.602604,-6.583946,31.577522,34.15583,27.002884,-2.55883,26.869789,30.574905,24.698696,-19.039517,-45.770362,-64.561735,-78.77032,-68.18273,-88.139407,-102.707249,-115.438332,-65.840568,-75.134931,-56.503899,-43.864578,-58.70172,-66.146541,-48.217401,-37.302763,-48.434071,-55.15012,-42.763228,-33.823695,44.029232,287.020439,-140.202141,-32.849913
57,0.358932,0.016549,-0.370697,-0.238258,-25.537559,-49.654106,-72.980449,-88.171692,-60.399879,-94.369846,-110.805702,-122.535827,-56.284469,-93.89804,-112.534309,-126.662201,-49.778,-84.692276,-102.519355,-115.904056,-42.591865,-69.908111,-84.066719,-95.301967,-19.398547,-21.528701,-11.07443,1.539586,6.45151,15.198147,19.004912,21.162051,24.795198,31.515878,33.652048,34.574413,37.879938,45.528714,47.629463,48.150167,46.432851,55.026471,56.305161,56.133495,22.289795,31.668205,35.854614,36.283287,1.582729,24.531967,37.485535,45.705872,-5.907303,33.656444,38.731544,31.659153,-6.063664,32.421238,34.781204,26.961445,-1.191731,28.570656,31.948952,25.459351,-19.401355,-45.924053,-64.794466,-78.649425,-68.34777,-88.344807,-102.765347,-115.211868,-65.61424,-75.177952,-56.735,-44.820733,-58.207827,-66.409511,-48.629863,-38.342732,-47.738737,-55.008075,-42.578366,-33.927109,44.307014,287.027126,-140.653988,-33.098033
58,0.203728,-0.066271,0.475937,-0.3521,-25.542068,-49.596611,-72.942593,-88.429527,-60.300087,-94.274792,-110.754044,-122.509495,-56.131004,-93.806499,-112.439323,-126.518475,-49.590523,-84.549843,-102.422939,-115.811726,-42.419014,-69.807518,-83.996819,-95.261524,-19.403486,-21.431505,-10.985386,1.513046,6.581235,15.495451,19.310021,21.481931,24.905053,31.708441,33.797026,34.720874,37.988051,45.711817,47.798018,48.336123,46.490971,55.0993,56.369172,56.248907,22.240219,31.606304,35.668442,36.139744,1.310692,24.171066,37.003979,45.093944,-6.289272,33.105263,38.254223,31.258564,-6.530789,31.935688,34.360073,26.593792,-1.656761,28.117973,31.588966,25.181808,-19.383269,-46.131726,-65.172546,-79.070464,-68.420927,-88.446727,-102.908294,-115.436708,-65.828663,-75.384391,-56.808996,-44.748912,-58.469897,-66.625929,-48.720989,-38.293994,-47.982516,-55.215416,-42.797352,-34.050987,44.369379,287.02611,-140.319414,-33.384878
59,0.350166,0.050919,0.25304,-0.563016,-25.577819,-49.621719,-72.979511,-88.471023,-60.307045,-94.296524,-110.865429,-122.666736,-56.09571,-93.815895,-112.496109,-126.560955,-49.51506,-84.508712,-102.386707,-115.691185,-42.346115,-69.77203,-83.954818,-95.149555,-19.433867,-21.471705,-10.990881,1.562632,6.603231,15.586471,19.392248,21.546312,24.951292,31.772292,33.841721,34.743462,38.075638,45.783683,47.858249,48.348646,46.603901,55.192124,56.421525,56.23473,22.020687,31.374081,35.506886,36.1814,1.093048,23.906342,36.708321,44.770661,-6.456093,33.024193,38.222363,31.249901,-6.668838,31.881947,34.346581,26.69965,-1.750294,28.002709,31.579239,25.356011,-19.492919,-46.247366,-65.296065,-79.125416,-68.439383,-88.572068,-103.042906,-115.574158,-65.891432,-75.418711,-56.758675,-44.578215,-58.488094,-66.637611,-48.723706,-38.167979,-47.917171,-55.393967,-43.155677,-34.370261,44.528932,287.18905,-140.256987,-33.835873
60,0.335656,0.033,-0.129661,-0.477534,-25.6306,-49.677979,-73.084214,-88.67529,-60.415146,-94.42455,-111.028748,-122.851685,-56.110154,-93.900113,-112.601395,-126.662396,-49.444931,-84.521805,-102.439923,-115.758156,-42.232384,-69.745171,-83.990044,-95.209271,-19.537225,-21.509039,-10.972085,1.601583,6.68179,15.673736,19.452047,21.596033,25.077929,31.882293,33.912548,34.795233,38.228383,45.94795,47.968313,48.40474,46.73118,55.295901,56.442371,56.190429,21.990062,31.436256,35.838123,36.932613,0.99472,23.817775,36.678978,44.66138,-6.343953,33.273868,38.282123,30.967266,-6.299973,32.277351,34.691528,27.025257,-1.152489,28.553237,32.053917,25.864528,-19.575888,-46.24121,-65.377551,-79.085155,-68.315556,-88.586178,-103.161285,-115.738631,-65.616945,-75.287362,-56.604979,-44.521072,-58.151086,-66.540812,-48.636533,-38.047486,-47.565052,-55.439761,-43.295246,-34.433926,44.673455,287.337579,-140.577781,-34.197878
61,0.384567,0.253572,0.049163,-0.559589,-25.67125,-49.838242,-73.378601,-88.955704,-60.737274,-94.748085,-111.338082,-123.136929,-56.365677,-94.205006,-112.866841,-126.833176,-49.641312,-84.774502,-102.66663,-115.92294,-42.381935,-70.006119,-84.274258,-95.470619,-19.74982,-21.700429,-11.137724,1.49084,6.508555,15.444272,19.269809,21.534727,24.869731,31.706737,33.789825,34.721466,38.022754,45.726995,47.70202,48.137941,46.552734,55.069264,56.132829,55.875836,22.045487,31.386738,35.861367,37.044491,0.797081,23.700394,36.686634,44.616085,-6.482711,33.110997,38.403111,31.111073,-6.315822,32.236267,34.878182,27.220093,-1.020046,28.590855,32.180169,25.967354,-19.629079,-46.268503,-65.43036,-79.079455,-68.11097,-88.505556,-103.165061,-115.830107,-65.226559,-75.411171,-56.673855,-44.450639,-57.659002,-66.571563,-48.602329,-37.891535,-47.047645,-55.374694,-43.169139,-34.15209,44.828688,287.726483,-140.757952,-34.622135
62,0.429016,0.023527,0.01046,-0.514121,-25.759689,-50.001022,-73.668274,-89.151547,-61.009255,-94.961861,-111.540825,-123.35717,-56.70092,-94.484585,-113.142162,-127.064358,-49.98642,-85.103794,-102.999413,-116.224365,-42.700722,-70.336212,-84.627239,-95.828854,-19.815461,-21.791918,-11.252457,1.414245,6.418733,15.229813,19.089201,21.429282,24.747305,31.551274,33.688394,34.654837,37.918692,45.632603,47.605294,48.015786,46.496059,55.058359,56.131396,55.867895,21.870301,31.157776,35.707466,36.933472,0.521061,23.52879,36.610062,44.603337,-6.579437,33.137913,38.398556,31.056187,-6.251587,32.344803,34.980069,27.32444,-0.89455,28.712151,32.327866,26.150196,-19.71348,-46.236727,-65.384486,-79.083333,-67.923564,-88.414666,-103.015023,-115.607618,-64.894583,-75.352256,-56.689015,-44.527543,-57.259311,-66.492968,-48.548248,-37.830588,-46.662533,-55.27511,-43.043848,-33.954613,45.064104,287.88269,-140.941092,-35.003576
63,0.455086,0.075175,0.039334,-0.487119,-25.86715,-50.197586,-73.952957,-89.330315,-61.252121,-95.152645,-111.735066,-123.557637,-56.942849,-94.682659,-113.344117,-127.246239,-50.229859,-85.348595,-103.197567,-116.341919,-42.944733,-70.659623,-84.957974,-96.1115,-19.88083,-21.834489,-11.300301,1.39446,6.311855,15.066606,18.983472,21.373324,24.667968,31.503318,33.719578,34.726023,37.860289,45.638939,47.638923,48.023764,46.430332,55.082158,56.182822,55.886321,21.775108,30.964176,35.586948,36.825714,0.141929,23.144428,36.319576,44.345935,-6.814991,33.049175,38.351841,30.921947,-6.342991,32.254474,34.926235,27.238826,-0.865185,28.72253,32.305984,26.057533,-19.713763,-46.097442,-65.168939,-78.898093,-67.853143,-88.37998,-102.973029,-115.517446,-64.755551,-75.362376,-56.729263,-44.70626,-57.109288,-66.573742,-48.616334,-37.983481,-46.537605,-55.252144,-42.911732,-33.85646,45.38241,288.068031,-141.038538,-35.380529
64,0.355636,0.02717,-0.234604,-0.480214,-25.968796,-50.414337,-74.27631,-89.714241,-61.486038,-95.354519,-111.909164,-123.67995,-57.147423,-94.845474,-113.496208,-127.326095,-50.428253,-85.516296,-103.396637,-116.555546,-43.12603,-70.915809,-85.260635,-96.451904,-19.847348,-21.755708,-11.302351,1.401104,6.315869,15.207941,19.223064,21.695958,24.636364,31.598402,33.860752,34.863072,37.817545,45.761612,47.758843,48.089875,46.374053,55.158049,56.308484,56.022493,21.734825,31.013466,35.738491,37.024956,0.087112,23.101078,36.335117,44.41214,-6.789013,33.138061,38.409462,30.960022,-6.211476,32.42593,35.070797,27.378685,-0.624321,29.006881,32.516647,26.231746,-19.640447,-45.855664,-64.861805,-78.592621,-67.823775,-88.366457,-102.977164,-115.518398,-64.697957,-75.289381,-56.74199,-44.846286,-57.045018,-66.460468,-48.590034,-38.09528,-46.448086,-55.021927,-42.709994,-33.787991,45.645429,288.1859,-141.365759,-35.770044
65,0.289559,-0.098455,-0.341114,-0.633528,-26.043389,-50.584763,-74.577919,-90.063858,-61.631653,-95.471009,-111.998944,-123.72448,-57.331169,-94.956185,-113.605076,-127.351605,-50.636582,-85.643017,-103.50602,-116.605213,-43.339691,-71.087494,-85.409432,-96.578911,-19.73059,-21.613138,-11.252728,1.485912,6.381979,15.399651,19.536558,22.103054,24.617172,31.772847,34.164823,35.178889,37.786547,45.900526,47.98911,48.294923,46.375202,55.306695,56.577037,56.337581,21.605518,30.9524,35.75608,36.992946,0.134193,22.921474,36.200809,44.378391,-6.705014,33.506172,38.860016,31.476288,-6.062588,32.789577,35.445934,27.809211,-0.46249,29.238361,32.871769,26.69545,-19.449812,-45.531932,-64.453111,-78.176108,-67.621185,-88.433309,-103.149898,-115.842859,-64.50897,-74.981543,-56.441291,-44.624071,-56.842459,-66.236864,-48.378237,-37.970946,-46.183306,-54.829673,-42.510812,-33.632418,45.855034,288.195258,-141.786827,-36.295759
66,0.232338,-0.184794,-0.179306,-0.376165,-26.074334,-50.704926,-74.786293,-90.310776,-61.601166,-95.465298,-112.019097,-123.740181,-57.307343,-94.987107,-113.681351,-127.439267,-50.636719,-85.67054,-103.528313,-116.559861,-43.385422,-71.148079,-85.460862,-96.577343,-19.586465,-21.385218,-10.975197,1.892897,6.703773,15.733733,19.810186,22.328714,24.959887,32.15891,34.516627,35.488912,38.115219,46.339991,48.399948,48.61337,46.657425,55.734563,57.030618,56.722631,21.365387,30.449661,34.996982,36.075096,-0.045559,22.155773,35.354038,43.53907,-6.825051,33.827556,38.604664,30.717842,-6.035866,33.062862,35.168243,27.247787,-0.387795,29.485508,32.860531,26.494686,-19.34583,-45.273994,-64.180186,-77.965749,-67.718651,-88.826103,-103.625068,-116.432539,-64.504796,-74.373697,-55.866765,-44.588596,-56.725256,-65.774125,-48.068701,-38.18966,-45.95972,-54.556588,-42.375776,-33.830933,46.077599,288.139967,-141.975906,-36.542421
67,-0.036988,0.077435,-0.195397,0.104061,-26.085502,-50.689315,-74.736889,-90.23814,-61.492447,-95.459781,-112.039547,-123.784412,-57.154861,-94.936729,-113.624244,-127.406822,-50.527679,-85.616455,-103.422317,-116.41777,-43.363746,-71.160301,-85.479492,-96.607853,-19.461161,-21.201486,-10.761665,2.225114,6.935621,16.154957,20.225409,22.687002,25.206753,32.627275,34.972049,35.86496,38.314784,46.636615,48.68463,48.827965,46.806367,55.928546,57.230491,56.890975,21.323616,30.219589,34.586163,35.689671,-0.486648,21.106156,34.200863,42.389294,-7.394359,33.55846,38.104695,29.939587,-6.518818,32.790676,34.738907,26.620995,-0.72694,29.283028,32.745621,26.349449,-19.485564,-45.385064,-64.210239,-77.679554,-67.926373,-89.412929,-104.416565,-117.471062,-64.380152,-74.106484,-55.657307,-44.670056,-56.317604,-65.451429,-48.034095,-38.495213,-45.356739,-54.385971,-42.561619,-34.179915,46.112177,288.402422,-142.099737,-36.25334
68,-0.219658,0.355386,-1.106437,1.017876,-26.066024,-50.661758,-74.711334,-90.249034,-61.365554,-95.384937,-111.943531,-123.642025,-56.985443,-94.82389,-113.43148,-127.102478,-50.394973,-85.464649,-103.174472,-116.084941,-43.349395,-71.037826,-85.295974,-96.37714,-19.464817,-21.262001,-10.879707,2.130142,6.919467,16.418372,20.48791,22.877008,25.266268,33.031938,35.312405,36.078518,38.428121,46.984665,48.951083,48.993048,46.966005,56.186872,57.414891,56.972634,21.351837,30.378902,35.054683,36.195716,-0.206223,20.953662,34.01255,42.354904,-7.145165,33.998291,38.25547,29.963024,-6.079365,33.408313,35.076541,26.80014,-0.049725,30.211074,33.496387,26.966571,-19.744929,-45.53053,-64.25441,-77.250315,-68.15314,-90.128611,-105.278506,-118.362755,-64.189307,-73.701439,-55.263476,-44.609183,-55.914702,-65.109727,-47.827059,-38.568147,-44.876964,-53.581722,-41.721876,-33.528022,46.085752,288.97558,-143.012941,-35.017692
69,0.008423,0.281767,-0.894505,2.209182,-26.09951,-50.667663,-74.65155,-90.015918,-61.362991,-95.255436,-111.796245,-123.589084,-57.046188,-94.678104,-113.242515,-126.983024,-50.504493,-85.355781,-102.974945,-115.862938,-43.510849,-70.878204,-85.017791,-96.044735,-19.381293,-21.244723,-10.806545,2.28169,7.078672,16.517716,20.538397,22.852617,25.4912,33.236369,35.504004,36.281504,38.667885,47.183391,49.232072,49.356561,47.197964,56.409693,57.667919,57.182956,21.495152,30.503471,35.432385,36.516872,0.062656,20.967648,34.166679,42.608379,-6.716721,34.366711,38.398029,29.765636,-5.40097,33.935452,35.388336,26.864285,0.783703,31.064243,34.239796,27.545872,-20.215158,-45.759012,-64.342756,-76.795572,-68.527007,-90.776613,-105.922,-118.891476,-63.891156,-73.390654,-54.966937,-44.584526,-55.200459,-64.523079,-47.342157,-38.339774,-44.053867,-52.477587,-40.465261,-32.292124,46.401357,289.492814,-143.600264,-32.573043
70,-0.25859,0.461374,-0.326157,3.577881,-26.06147,-50.487328,-74.376275,-89.72865,-61.098679,-95.091534,-111.671139,-123.544133,-56.743218,-94.444462,-113.020409,-126.794609,-50.225853,-85.079705,-102.710347,-115.627568,-43.294442,-70.567131,-84.654156,-95.700589,-19.325557,-21.240561,-10.8411,2.184001,7.243558,16.808191,20.773691,22.96178,25.740832,33.474244,35.667162,36.410278,38.872354,47.303977,49.378717,49.562289,47.277141,56.445311,57.701783,57.25266,21.569859,30.572216,35.854569,37.161026,0.435048,21.205044,34.516892,43.036801,-6.351551,34.680188,38.402459,29.336117,-4.976806,34.264824,35.452195,26.645852,1.239132,31.705353,34.646634,27.705403,-20.713533,-45.978937,-64.439636,-76.632082,-68.961199,-91.320455,-106.537223,-119.258107,-63.732699,-72.717563,-54.297384,-44.336382,-54.57289,-63.438316,-46.34261,-37.662805,-43.200854,-50.563571,-38.435371,-30.505784,46.708569,290.238332,-143.360619,-28.711018
71,-0.398873,0.483271,-0.065002,5.117973,-26.05101,-50.37767,-74.157245,-89.595806,-60.921112,-94.853679,-111.413246,-123.273937,-56.51841,-94.106277,-112.617988,-126.370846,-50.01654,-84.759029,-102.346161,-115.246982,-43.160751,-70.27359,-84.262424,-95.265449,-19.288815,-21.187245,-10.705743,2.166229,7.326279,17.138555,21.165781,23.316845,25.819935,33.623013,35.820784,36.573053,38.939032,47.31965,49.477271,49.777254,47.328184,56.39638,57.658422,57.298133,21.662201,31.294235,37.383339,38.767696,1.322662,22.076294,35.710201,44.518375,-5.406693,34.910603,38.757637,29.646217,-3.936253,34.880756,36.136654,27.185497,2.326378,32.802727,35.6945,28.651909,-20.969507,-45.657989,-63.860806,-75.537,-69.101934,-91.497636,-106.71395,-118.943258,-63.273097,-72.263006,-54.007386,-44.159183,-53.572496,-62.558787,-45.473331,-36.649518,-41.881315,-48.606608,-36.18823,-28.126621,47.081377,290.970306,-142.65394,-23.344342
72,-0.350693,0.345568,0.52771,6.451004,-25.988662,-50.31974,-74.082859,-89.589225,-60.692825,-94.65723,-111.249229,-123.037353,-56.172271,-93.776058,-112.291763,-125.964752,-49.606567,-84.354904,-101.99541,-114.868972,-42.759819,-69.871307,-83.86687,-94.87302,-19.224657,-21.001809,-10.411478,2.43882,7.668327,17.610279,21.621314,23.738513,26.183953,33.920576,36.101217,36.872406,39.27262,47.638281,49.836324,50.194724,47.566034,56.615507,57.918367,57.645109,21.485275,31.833366,38.911034,40.355965,2.850723,23.924881,37.996136,47.199108,-3.655243,36.04224,39.534702,30.286091,-2.120991,36.35297,37.161495,28.023342,3.978527,34.628792,36.92894,29.612835,-21.304411,-45.101797,-62.611126,-73.646907,-69.13594,-91.372715,-106.292213,-117.858606,-62.669468,-70.93218,-52.894322,-43.421031,-52.451492,-60.787717,-43.719329,-35.069529,-40.4435,-45.886546,-33.119698,-25.300336,48.132642,291.517282,-140.724272,-16.69193
73,-0.142959,0.146657,1.489975,7.585254,-26.02858,-50.403122,-74.146088,-89.510388,-60.619858,-94.580921,-111.16769,-123.000538,-56.054489,-93.639599,-112.210316,-126.009751,-49.434357,-84.230187,-101.939049,-114.891976,-42.519081,-69.737114,-83.833672,-94.880161,-19.055103,-20.742062,-10.048743,3.016854,8.112535,17.786614,21.762451,23.946229,26.541142,34.066035,36.262757,37.073824,39.532206,47.812282,50.019921,50.400748,47.776393,56.839748,58.093824,57.78732,21.024891,32.147381,40.385364,42.360695,4.357315,26.216743,40.789226,50.355343,-1.803143,37.785736,40.480499,30.802059,-0.248131,38.175053,38.21347,28.750717,5.506119,36.487301,38.208218,30.701992,-21.799192,-44.511611,-60.912422,-71.024348,-68.764104,-90.781578,-105.184343,-116.050838,-61.552867,-68.652984,-51.12697,-42.135554,-50.757252,-57.912741,-41.271327,-32.937769,-38.369823,-43.223881,-30.734218,-23.206336,49.535534,291.821029,-137.688446,-8.949586
74,-0.350601,0.257042,1.498741,8.409029,-25.97992,-50.43647,-74.205437,-89.553955,-60.580559,-94.52948,-111.084813,-122.870636,-55.905465,-93.520317,-112.060513,-125.82581,-49.214424,-84.056774,-101.740139,-114.694199,-42.266442,-69.688134,-83.894841,-94.987393,-18.961291,-20.550277,-9.861405,3.332151,8.267924,18.036505,22.045564,24.267826,26.6239,34.356448,36.620773,37.42553,39.528353,48.033188,50.241334,50.597806,47.743925,56.951467,58.181782,57.889715,20.315449,32.811218,42.5564,44.88834,6.505016,29.30444,44.388634,54.297169,0.559433,40.213635,42.193188,32.305264,1.892658,40.723068,39.718346,29.832871,7.174656,38.678112,39.416084,31.647789,-22.157407,-43.897541,-59.095706,-67.910275,-67.430153,-89.267674,-103.169168,-113.20453,-59.189271,-65.294058,-48.702871,-40.332516,-47.592352,-53.710015,-38.11882,-30.424935,-34.717545,-38.741326,-27.170997,-20.31252,51.005247,291.903413,-134.369391,-0.715215
75,-0.24392,0.312173,1.610504,9.072488,-25.897545,-50.497947,-74.327694,-89.693973,-60.707245,-94.672863,-111.178734,-122.801502,-55.972618,-93.561619,-112.051929,-125.710899,-49.236328,-84.054977,-101.704937,-114.599544,-42.27642,-69.836837,-84.125908,-95.182686,-18.970381,-20.544819,-9.899048,3.507164,8.253449,18.070246,22.097879,24.382645,26.597126,34.578354,36.876111,37.6669,39.469369,48.299036,50.501883,50.831136,47.654127,57.05601,58.303949,58.007609,18.870426,32.981358,44.66827,47.763714,8.58054,32.838261,48.605702,58.856941,3.470787,41.82692,43.547344,34.374481,5.043251,43.615059,41.444252,31.217354,10.3247,41.620869,40.917114,32.800678,-22.532405,-42.72127,-55.97455,-62.55528,-65.112432,-86.484842,-99.322574,-108.19617,-55.655079,-62.40785,-47.532578,-39.618101,-43.282785,-49.096506,-34.953815,-28.032057,-29.973799,-33.976318,-23.804377,-17.581294,52.861381,291.39886,-130.658833,7.540547
76,0.14605,0.180806,2.436722,9.686558,-26.014,-50.799843,-74.754639,-90.076813,-61.02404,-94.949925,-111.412022,-123.024777,-56.234207,-93.742367,-112.210842,-125.860954,-49.418129,-84.19566,-101.84174,-114.752426,-42.383743,-70.032303,-84.392258,-95.454987,-18.923179,-20.465087,-9.890724,3.671506,8.252695,18.028601,22.031114,24.325772,26.606066,34.703978,37.04501,37.819064,39.477742,48.589472,50.848129,51.170948,47.648025,57.243484,58.56188,58.271505,15.810551,31.785667,46.533028,51.556412,9.815048,36.449764,52.79718,63.239903,6.199196,44.422668,44.983303,35.598141,8.38987,46.712276,43.25956,32.817123,13.827141,44.185741,42.137981,33.990417,-23.418763,-42.44254,-53.345835,-57.823641,-61.551532,-81.722977,-93.055932,-100.767453,-50.760005,-57.856054,-44.579678,-37.477949,-37.521983,-43.164316,-30.934579,-25.245501,-23.724607,-28.025653,-19.924579,-14.833758,55.687529,290.436721,-125.542013,16.08416
77,0.066215,0.103864,3.401436,10.299111,-26.034851,-50.996887,-75.062942,-90.608528,-61.264892,-95.292858,-111.75626,-123.325218,-56.410286,-93.990886,-112.454395,-126.028198,-49.510048,-84.349479,-102.028793,-114.956016,-42.417022,-70.1502,-84.585605,-95.637806,-18.988536,-20.465989,-9.960428,3.500211,8.1308,18.021487,22.07492,24.398341,26.559692,34.894849,37.241982,37.975639,39.455203,48.848701,51.124673,51.449504,47.602664,57.358105,58.698546,58.417853,13.269813,30.717579,47.828785,54.598972,10.731399,39.991836,56.740105,66.866135,8.075706,46.369526,46.242004,36.64365,10.606041,48.382908,44.282146,33.860092,16.02602,44.742336,42.057987,34.210979,-23.672768,-41.320721,-50.474262,-54.258834,-56.454833,-74.933045,-84.534672,-90.944673,-44.735654,-52.163506,-40.682981,-34.431283,-31.035486,-36.674465,-26.462528,-21.92136,-17.155487,-21.591643,-15.342267,-11.181376,58.174135,289.276931,-119.720186,25.119617
78,0.076836,0.027331,2.924595,14.015799,-26.090927,-51.194733,-75.370754,-91.202076,-61.571846,-95.578034,-111.988461,-123.505589,-56.699844,-94.199215,-112.586483,-126.065723,-49.760788,-84.473877,-102.120358,-115.003223,-42.650528,-70.28746,-84.693878,-95.746445,-18.999614,-20.397199,-9.897925,3.357616,8.093169,18.244715,22.360429,24.700819,26.520282,35.031107,37.441769,38.249514,39.406247,48.962333,51.379936,51.835098,47.528785,57.387449,58.886341,58.783181,11.767147,30.860075,50.235758,58.834396,12.541151,44.637851,61.714742,71.315832,10.835535,49.122877,48.262172,38.577976,13.640465,50.877536,45.985039,35.627494,19.030117,46.310148,42.756054,35.014503,-24.486418,-41.561747,-49.355575,-52.581763,-53.078857,-69.535981,-77.091965,-81.868971,-40.001456,-48.043447,-38.10687,-32.770526,-25.283202,-31.404644,-22.824977,-19.147388,-10.82644,-15.511212,-10.941657,-7.672896,60.741263,287.850917,-114.305299,37.682071
79,0.025932,-0.190315,2.429306,17.84398,-26.211593,-51.402351,-75.640777,-91.832233,-61.755615,-95.797439,-112.184383,-123.609112,-56.81044,-94.365303,-112.723732,-126.094333,-49.799995,-84.510212,-102.181366,-115.033779,-42.648262,-70.2071,-84.60395,-95.669872,-18.991488,-20.255197,-9.801841,3.092176,8.245718,18.523481,22.653509,24.968927,26.706374,35.30092,37.676767,38.44367,39.62025,49.282905,51.711227,52.150396,47.693684,57.647023,59.234539,59.177803,11.32949,32.041311,53.991377,65.239506,14.930975,50.413513,67.768015,76.763094,14.401377,53.135507,51.048866,41.177501,17.750026,54.499798,48.607006,38.384296,23.344929,49.605772,45.088211,37.255886,-26.006418,-43.062437,-49.594056,-52.43983,-51.873131,-66.127766,-71.223243,-74.084856,-37.365326,-45.719662,-36.882731,-32.574432,-21.52674,-28.256986,-20.499395,-17.148201,-6.226282,-11.633756,-8.052146,-5.366234,62.962589,286.490231,-109.680599,54.35568
80,0.131287,-0.318484,2.525699,19.075659,-26.557434,-51.812622,-76.050968,-92.404553,-62.031967,-95.852989,-112.234085,-123.8321,-57.040489,-94.384209,-112.70216,-126.150067,-50.001892,-84.523373,-102.151428,-115.029076,-42.833222,-70.152191,-84.499878,-95.629406,-18.860725,-19.977111,-9.538969,2.946865,8.457237,18.716809,22.872686,25.182633,26.869333,35.485912,37.887817,38.67101,39.813553,49.536736,51.999997,52.463508,47.9302,57.967853,59.606425,59.557074,11.244759,34.122431,58.157599,71.08786,17.522971,55.397313,73.318526,82.585539,17.140086,58.311339,55.197098,44.118943,20.432225,57.947239,51.672661,41.439583,25.790966,51.654723,46.879876,39.188885,-27.355448,-44.195705,-49.87557,-52.955594,-50.329821,-61.957112,-65.238399,-66.92224,-34.741643,-42.016514,-33.648003,-30.055237,-17.945605,-24.495453,-17.673616,-14.98475,-1.916121,-7.307417,-4.690669,-2.967607,64.69681,285.569946,-105.551966,72.829538
81,-0.256165,-0.248224,2.358799,20.087261,-26.644729,-51.839538,-76.006839,-92.461372,-61.944877,-95.743412,-112.135723,-123.780647,-56.917328,-94.235492,-112.60104,-126.105674,-49.868408,-84.309436,-101.994552,-114.957401,-42.690445,-69.830589,-84.222358,-95.499172,-18.819315,-19.924882,-9.593804,2.58938,8.46109,18.852092,23.026308,25.255313,26.930725,35.724169,38.118442,38.873205,39.918319,49.725396,52.177529,52.625701,48.041968,58.207568,59.918635,59.873681,13.354741,37.716597,62.312617,76.272332,21.228522,60.425206,78.820742,88.451266,19.909419,62.382723,59.641102,48.609982,22.202557,60.349354,54.5598,44.524006,26.736237,52.713644,48.321545,40.878765,-27.706783,-43.722073,-49.209406,-52.649077,-48.17115,-57.4803,-59.464236,-60.183856,-32.162977,-37.899133,-29.942386,-26.667826,-15.039581,-20.629173,-14.400474,-12.130806,1.131984,-3.407057,-1.219808,-0.144632,65.206438,285.027484,-102.427374,92.622561
82,-0.195373,-0.102358,2.706723,20.382477,-26.825775,-51.993782,-76.132256,-92.63633,-61.98848,-95.546025,-111.92767,-123.723221,-56.944336,-94.023216,-112.434712,-126.050892,-49.896927,-84.141426,-101.80283,-114.776333,-42.67392,-69.598686,-83.930008,-95.214443,-18.768408,-19.924301,-9.727604,2.194375,8.372343,18.719662,22.901561,25.099851,26.827837,35.667359,38.126359,38.921655,39.844515,49.68784,52.220138,52.740385,48.00088,58.249287,60.021635,59.969456,14.420242,39.146192,63.828352,78.667808,23.617086,62.653186,81.523332,92.436315,22.618635,64.724344,62.428745,52.480911,24.721916,62.64632,57.026069,47.409954,28.929348,55.056249,50.543609,43.022014,-28.37746,-43.122224,-47.018761,-48.914579,-45.673574,-53.078743,-53.656665,-53.245901,-29.553348,-33.54668,-26.098336,-23.130565,-12.401832,-16.53375,-11.280034,-9.46593,3.624293,-0.024981,1.311452,1.546663,65.315592,284.728377,-99.416124,112.808289
83,-0.329956,-0.258932,1.096344,21.412802,-26.897415,-51.986893,-75.936711,-92.528355,-61.89132,-95.318436,-111.796715,-123.720349,-56.806389,-93.722283,-112.226086,-125.899636,-49.730393,-83.855439,-101.598267,-114.649784,-42.397774,-69.100754,-83.447605,-94.82238,-18.702038,-19.792476,-9.622579,1.960576,8.394611,18.752526,22.953122,25.124267,26.888353,35.781721,38.249502,39.019456,39.9477,49.799275,52.418715,53.002244,48.089875,58.378642,60.320705,60.374774,16.791687,44.182502,70.167011,86.462345,28.046928,67.733493,81.767646,88.918785,25.832794,69.157299,65.639968,55.523838,26.568809,66.35923,59.80315,49.355587,29.635334,57.907756,52.739868,44.433609,-27.286365,-40.926321,-43.023742,-42.74274,-42.240944,-46.31029,-45.367157,-44.924771,-25.086692,-26.643092,-20.606946,-18.551874,-7.028636,-9.511348,-5.808232,-4.470631,9.566577,6.530655,6.649951,6.451862,64.947235,284.441512,-98.358181,134.193158
84,-0.471085,0.007941,1.459053,19.648758,-26.760544,-51.783073,-75.682388,-92.407665,-61.641472,-95.19302,-111.820564,-123.932728,-56.540771,-93.533329,-112.179497,-125.962097,-49.480682,-83.707798,-101.584167,-114.738521,-42.110069,-68.840309,-83.22084,-94.639961,-18.836494,-19.969589,-9.80347,1.630693,8.256265,18.64119,22.835315,25.070803,26.786675,35.688108,38.164188,39.021185,39.864535,49.661547,52.363609,53.111814,47.976254,58.282756,60.330956,60.582366,19.550571,49.580555,76.432308,92.731659,32.098159,71.547992,81.676517,85.946617,27.849105,72.376213,69.163547,58.78918,26.888981,68.67675,62.559356,51.736347,28.504131,58.113395,53.378448,44.987182,-25.822182,-36.947673,-35.746739,-32.836979,-36.984483,-37.803126,-36.426339,-36.576967,-19.413483,-18.755026,-14.257842,-12.865692,-0.879109,-1.662629,0.259778,0.664892,16.231164,13.103617,11.807488,10.976352,64.336178,284.424886,-97.0391,153.817349
85,-0.749245,0.082524,0.272747,19.644109,-26.535987,-51.529197,-75.383606,-92.041065,-61.323394,-95.035125,-111.690387,-123.80841,-56.205802,-93.376625,-112.083583,-125.854225,-49.115364,-83.542076,-101.47475,-114.64833,-41.645278,-68.544307,-83.041111,-94.57299,-18.908273,-20.082259,-9.817945,1.60924,8.098788,18.496619,22.654867,24.937249,26.678364,35.542363,38.007638,38.967017,39.783863,49.454447,52.23555,53.166166,47.929583,58.156599,60.350666,60.843471,23.085983,54.003261,80.553909,96.555244,37.415004,76.039169,84.9016,88.052021,32.047886,75.981033,76.522155,69.811649,29.607856,71.934505,69.02766,60.390197,29.57468,60.546077,58.207683,51.186149,-24.591545,-34.278697,-31.802734,-27.129358,-31.794947,-30.182755,-27.692966,-27.056992,-13.523395,-10.627276,-7.361439,-6.641614,5.427837,6.554584,6.45508,5.626673,22.73176,20.388677,17.24263,14.856767,63.502264,284.455484,-96.851022,173.409532
86,-0.634002,0.231613,-0.269303,19.669211,-26.472634,-50.675057,-73.284336,-88.902478,-61.299179,-94.866337,-111.505532,-123.677696,-56.420243,-93.213169,-112.058979,-125.97036,-49.336716,-83.492729,-101.501507,-114.692974,-41.755486,-68.549858,-83.036373,-94.634995,-19.056473,-20.779705,-12.406325,-2.909753,7.875228,18.113211,22.376077,24.78233,26.276616,35.142147,37.783015,38.835118,39.334778,48.977488,51.910311,52.832702,47.595946,57.757803,60.07085,60.645561,25.921761,57.167794,83.063084,99.490517,42.781197,79.957077,88.765892,92.385006,36.608757,78.772087,83.355332,81.398861,32.847222,73.935265,75.392292,70.857697,30.946862,61.999318,62.619427,58.206848,-23.436054,-32.016693,-28.425351,-22.692875,-25.68007,-20.893067,-16.971483,-15.213776,-7.133445,-1.638078,0.347235,0.478961,11.284925,14.711332,13.408941,12.033192,27.909037,27.379849,23.458574,20.402991,62.814612,284.648068,-97.173975,193.039714
87,-0.154999,-0.249509,11.637795,24.265615,-25.884338,-50.196007,-72.584885,-88.726616,-60.585274,-93.967197,-110.793972,-123.263969,-56.180168,-92.382122,-111.536854,-125.801353,-49.465187,-82.762035,-100.807652,-113.77525,-42.22847,-68.270233,-82.356754,-93.384625,-11.945049,-10.533558,-1.895441,7.2741,10.608388,20.150864,24.219117,26.610278,24.836263,33.932,36.957992,38.363654,34.864481,44.592208,47.838983,48.985034,40.891185,50.847809,53.902799,55.129891,23.051845,50.988968,74.694832,91.248779,42.34013,72.663128,76.831787,76.508308,37.040005,70.931522,73.041904,68.624176,33.320183,66.028736,65.078327,57.906978,30.823631,56.554996,54.932281,47.840629,-23.563846,-32.709774,-29.953915,-25.120414,-24.117785,-13.113083,-7.208435,-4.309846,-3.105589,9.039927,11.751807,11.928426,17.43618,26.765827,26.998021,25.919254,35.587244,39.626412,37.380081,35.059463,62.673689,284.351974,-85.522104,217.258744
88,-0.069534,1.245309,5.015774,18.512712,-25.651863,-50.398316,-73.189247,-90.035397,-58.875206,-91.720082,-109.461972,-122.929585,-54.568566,-90.310273,-110.041294,-124.79646,-48.043122,-81.125611,-99.378456,-112.457074,-40.986443,-66.934914,-80.96109,-91.771122,-2.385098,2.258854,10.157671,18.835962,16.595447,24.756048,28.064006,29.768762,23.750739,31.259713,33.106779,33.218597,27.4724,34.687034,36.338833,36.111492,28.190718,35.429879,37.334447,37.698626,20.959396,46.461834,68.817318,85.237896,42.575191,71.096294,79.31591,81.951839,38.333152,70.426918,77.103904,74.811721,34.884109,65.314453,68.673545,63.850696,31.854572,55.382526,57.060287,52.023159,-24.736203,-33.423312,-30.880369,-27.455407,-19.434658,-7.278003,-1.647316,1.951127,2.903269,15.962271,17.979163,17.995515,23.349522,33.794345,33.855515,32.480235,40.425623,46.826486,45.137204,42.572895,62.687256,285.525893,-80.423229,235.700066
89,-1.012688,1.083522,2.764904,14.157813,-24.415558,-48.693558,-71.063805,-87.916775,-52.944672,-85.577888,-104.008575,-117.78019,-50.312645,-85.791412,-106.777908,-122.557949,-45.749336,-78.710838,-98.272831,-112.716682,-40.583725,-66.29575,-81.155205,-93.033829,-2.174492,0.82438,5.952468,12.190482,15.134025,20.26709,21.296988,21.007021,22.095433,27.441216,27.310601,25.741758,25.869952,32.285462,32.895803,31.650198,26.743127,34.308664,36.543412,36.908295,19.659404,42.890247,63.672672,80.729416,43.295551,70.387733,82.595787,89.253559,39.435379,69.644771,81.283241,83.989643,35.570572,63.544979,72.147377,72.088268,31.770183,53.703769,59.374099,58.094375,-23.63434,-31.370024,-30.38676,-29.175279,-12.291728,1.073864,7.359044,12.178997,9.797184,24.442554,27.201575,28.034934,28.775383,41.6952,42.670782,41.510356,43.427879,53.539348,53.253642,50.850995,61.882793,286.500744,-77.4501,249.749208
90,-1.70739,0.920921,3.590355,11.88977,-23.721886,-47.69902,-69.054863,-85.238994,-48.447395,-78.430824,-97.169403,-111.67186,-46.767265,-79.446247,-100.86462,-117.009888,-43.532982,-74.195103,-94.178066,-109.025951,-39.667419,-63.829422,-78.770817,-91.01326,-1.501042,0.750761,3.528443,8.145657,15.320487,18.829466,18.376157,16.665287,21.315847,25.573402,23.902547,20.828549,24.257673,30.491711,29.695019,26.955808,24.385534,32.005757,34.188634,34.094625,18.353794,40.10931,60.372585,78.54895,43.034774,69.297489,82.564018,90.797069,38.837608,67.491474,80.2863,84.497623,34.356285,60.205959,70.83657,73.387882,29.838512,50.225875,57.514102,58.509841,-22.066349,-28.46158,-27.415664,-28.021707,-5.251798,9.998713,16.78622,21.893695,16.295427,32.804314,36.362459,37.77143,33.705993,48.709021,51.316828,51.272108,46.063399,58.877622,60.685551,59.859738,60.420753,287.305639,-73.614395,261.522952
91,-2.61383,1.264747,3.537242,9.401142,-21.750206,-45.573304,-66.583306,-82.744446,-45.809281,-70.102341,-83.749741,-93.781563,-44.852395,-71.70147,-86.40849,-96.419575,-42.411072,-67.85503,-81.527768,-90.95739,-39.217392,-59.748082,-70.739548,-79.238663,-1.157265,0.702979,3.178701,7.438096,13.897276,16.882019,16.065358,13.995089,19.129364,22.948367,21.317292,18.174529,21.733206,27.140652,26.123512,23.335987,21.838774,28.63542,30.35423,29.942281,17.272419,38.414544,58.914437,77.233921,42.705231,69.202847,82.268177,90.291459,38.096718,66.920369,79.896023,84.092263,33.132306,58.988858,69.688202,72.67099,28.376358,48.589772,56.259865,57.947857,-20.846741,-25.966937,-24.518816,-26.125846,-0.461547,15.200444,22.08417,27.012854,21.174834,38.23851,42.530609,44.165154,38.098016,54.252047,57.892049,58.272987,49.342568,63.376436,66.110708,65.789889,58.109225,288.430092,-69.774851,270.7838
92,-4.139237,2.287704,-9.659889,2.947372,-19.567795,-41.644913,-61.507233,-76.447792,-45.925049,-62.342892,-68.221527,-72.548584,-46.720722,-64.406502,-70.769245,-74.079151,-45.630649,-63.838726,-70.001449,-73.888801,-43.272159,-61.751484,-70.531803,-77.032093,-7.80724,-9.996823,-8.767125,-4.846271,10.067578,15.075166,14.039463,11.022239,19.29898,23.612135,21.201461,16.927703,24.921442,30.260753,27.933874,24.054663,27.757539,34.513812,34.859998,33.440331,22.58606,47.92218,71.057511,90.185269,49.219219,82.51537,100.237759,112.163075,42.009934,79.100178,98.822468,109.594746,35.008393,69.25898,87.102459,97.268566,28.783413,55.041699,68.842861,77.246372,-18.462126,-21.611594,-18.948447,-20.230954,7.30206,20.09246,25.657568,29.576545,27.306403,40.172546,43.419493,44.633185,41.661595,54.792845,57.258144,57.247658,50.21851,62.488033,64.030163,62.970773,54.272306,290.578376,-79.132422,273.591752
93,-9.3265,2.374637,-0.418041,2.802419,-14.505981,-32.660202,-49.108909,-61.530166,-42.634472,-49.103039,-46.418987,-44.457264,-46.104389,-52.157089,-49.186867,-45.28157,-46.772472,-54.374279,-51.899208,-49.575073,-45.75571,-56.717743,-59.351978,-61.235058,-17.581997,-24.042621,-23.468491,-19.978777,2.112939,9.378492,9.35646,7.134828,18.069159,24.346385,23.785493,21.301101,29.831772,37.453045,36.530778,34.137024,38.234608,47.408978,48.052676,46.795031,24.922073,50.750347,73.968155,92.948456,51.684265,85.064095,103.860214,117.805046,43.093117,80.033821,101.453796,115.40419,34.997623,69.269039,89.006149,102.55204,28.071121,54.862461,70.272102,81.7229,-16.043029,-17.674858,-14.616508,-15.908277,12.416501,25.650862,31.58089,35.592777,30.409163,43.886573,48.557128,50.552432,43.046113,57.601315,61.124609,61.296954,50.464808,63.458255,65.405592,64.436011,45.220093,292.860174,-79.276176,276.301332
94,-8.4104,2.084175,2.161674,4.138154,-9.937615,-24.495346,-38.374306,-49.381909,-42.87751,-39.046086,-28.123799,-20.908459,-47.5192,-41.790871,-28.97366,-17.336266,-48.621494,-45.263615,-32.958882,-23.104649,-47.700875,-50.91909,-46.474571,-42.529049,-17.610834,-23.610727,-21.884481,-17.303268,2.269501,13.708789,15.945365,15.418387,18.38442,27.829627,29.470693,28.489109,30.132028,38.834983,38.242018,36.573979,38.859312,47.948837,47.117467,44.747659,25.154835,50.742966,74.064618,93.045731,52.545582,85.616662,104.465493,118.491417,43.883526,80.566887,102.22284,116.540017,35.722779,69.879902,89.738434,103.719773,28.700284,55.612748,71.308674,83.567173,-15.433737,-16.971705,-13.820199,-15.037979,14.693326,28.125596,34.062652,37.755919,32.288043,45.841419,50.477208,52.084941,44.400572,59.061318,62.517834,62.483637,51.516529,64.680642,66.440863,65.391945,36.986441,294.896694,-76.937754,280.391831
95,-9.061409,4.497715,2.033982,3.487725,-4.558113,-14.511681,-25.121567,-33.48872,-39.794014,-27.297993,-8.980225,4.036079,-45.978893,-30.842068,-9.15651,9.08052,-47.412518,-35.380474,-14.899521,1.116211,-46.447804,-43.831398,-33.707348,-24.752037,-18.737137,-25.323276,-23.393958,-19.239798,0.393634,13.33084,16.966531,17.737448,16.831569,27.492482,30.654288,31.044736,29.006898,37.691266,38.083912,37.502693,38.5339,47.097188,45.676051,43.08099,25.263038,50.764263,74.196384,93.349182,52.778332,86.047806,104.791809,118.755363,44.32814,81.300499,102.763069,117.227348,36.304493,70.662803,90.575203,104.744133,29.405788,56.448017,72.491993,85.29142,-15.15239,-16.602685,-13.231668,-14.072227,16.041658,29.43084,35.027601,38.279772,33.284967,46.56217,50.941904,52.061155,45.003824,59.606883,63.058249,62.752819,51.95308,65.087405,66.889776,65.729708,28.097237,299.36868,-74.731567,283.853827
96,-1.777153,1.82144,1.514923,2.509587,-2.885285,-11.85846,-22.473244,-31.488533,-40.448925,-25.446339,-4.918053,8.648369,-47.911423,-29.01828,-5.710533,12.846679,-50.252163,-34.827542,-12.379967,4.143081,-49.977253,-45.647301,-33.71806,-23.911217,-17.531362,-23.660881,-20.829983,-15.580321,1.5621,16.475306,20.289938,21.06556,18.028033,30.112131,33.438478,33.723493,29.923582,39.84659,40.126109,39.336914,39.139078,49.039658,47.251551,44.115606,25.417614,50.834221,74.297447,93.703491,52.762207,86.133156,104.799957,118.733162,44.57761,81.752838,103.070457,117.756912,36.725349,71.14571,91.178215,105.614937,29.851902,57.070255,73.438087,86.853424,-15.059296,-16.507837,-12.816422,-13.246896,16.708401,30.349957,35.745448,38.722905,33.675488,47.129433,51.547354,52.692898,45.117642,60.007778,63.566145,63.329888,51.923006,65.489016,67.604116,66.692606,26.453476,301.181759,-73.083252,286.355053
97,-2.763245,2.675485,0.959312,1.509884,-0.323181,-7.302887,-16.49778,-24.292373,-36.565979,-19.718101,0.449249,13.863693,-44.04356,-24.017418,-0.452751,18.15548,-46.172333,-29.825855,-7.179313,9.320801,-45.779033,-40.119953,-28.510631,-19.453159,-17.652146,-23.860088,-22.045873,-18.663914,1.604707,16.165961,20.25243,21.799192,17.232119,28.946296,32.73204,34.053265,28.451984,38.028089,39.289181,39.834437,37.13645,46.346919,45.54698,43.479416,25.67387,51.232487,74.764572,94.40847,52.813237,86.206993,104.614586,118.242943,44.586583,81.937889,102.906945,117.434006,36.641213,71.182618,90.992386,105.177887,29.651482,56.80719,73.000489,86.287995,-14.863707,-16.305505,-12.146776,-12.084927,17.14694,31.215537,36.737555,39.844823,33.935852,47.716692,52.317246,53.741754,45.139094,60.168144,63.839724,63.759461,51.752563,65.470627,67.886649,67.269095,23.766043,303.858442,-72.048128,287.866135
98,-0.085258,1.431868,0.202572,0.709524,0.706077,-4.770287,-12.309723,-18.06284,-34.758477,-18.475594,0.929878,14.039245,-41.789246,-23.217408,-0.231583,17.693184,-43.549553,-28.866532,-7.06295,8.935409,-42.868687,-39.290097,-29.806183,-22.275364,-16.60534,-22.437086,-20.994782,-18.540524,1.829331,16.212521,20.171624,21.714088,16.543429,28.38622,31.934794,33.156143,27.359026,37.030956,38.873144,39.77759,35.876224,44.555256,44.426495,42.997911,26.007649,51.685307,75.156819,94.997189,52.937016,86.317555,104.532429,117.934834,44.572689,82.052799,102.7458,117.148487,36.487679,70.993069,90.670246,104.685459,29.346817,56.261044,72.264851,85.315373,-14.711467,-15.982884,-11.329694,-10.6938,17.603067,31.899522,37.421787,40.593128,34.238208,48.311954,52.904974,54.492639,45.142873,60.40145,64.074747,64.045823,51.432795,65.344076,67.90946,67.361129,23.723917,305.3012,-71.802424,288.586549
99,6.176262,1.399178,-0.190658,-0.281211,-0.917176,-8.358902,-17.91845,-25.061509,-39.762772,-26.530644,-6.360169,7.722107,-46.636334,-30.910344,-7.281304,11.013794,-47.860222,-36.597554,-14.713417,1.745475,-46.432801,-47.594181,-40.942887,-35.104821,-15.612665,-22.074537,-21.334014,-19.32268,0.882179,15.369369,19.739767,21.672838,15.17756,26.481047,30.28854,32.148401,25.85959,34.908693,37.426085,38.645989,34.401587,42.154598,42.746327,42.306133,26.305755,52.134613,75.58826,95.493747,53.123245,86.522747,104.654079,118.019657,44.609905,82.061222,102.490093,116.853641,36.354881,70.752056,90.321338,104.379535,29.043022,55.905246,71.779644,84.706592,-14.589437,-15.494105,-10.170627,-8.854367,18.239034,32.585989,38.017901,41.215485,34.732631,48.944722,53.606236,55.491452,45.396581,60.767296,64.518843,64.677962,51.425842,65.426401,68.052708,67.584739,29.930163,306.716698,-71.963098,288.321658
100,4.418861,-0.015536,-0.257035,-0.331686,-1.310509,-10.227127,-21.890076,-31.417786,-43.521011,-32.286999,-11.54615,2.797348,-50.95182,-36.60387,-12.800766,5.685104,-52.584526,-43.020046,-20.95079,-4.442459,-51.383766,-54.225357,-48.493778,-43.517452,-15.393909,-22.186479,-21.526812,-19.181642,-0.393141,14.854679,19.595492,21.864301,14.091209,25.497103,30.020592,32.535304,24.988366,33.704041,36.751128,38.643074,33.680453,41.013141,41.742105,41.713601,26.504471,52.500435,75.939434,95.84721,53.313275,86.833363,104.85117,118.060719,44.613488,82.247418,102.51463,116.755886,36.188027,70.706761,90.14169,104.108311,28.741425,55.628163,71.458042,84.298794,-14.556425,-15.272507,-9.395498,-7.290378,18.445774,32.660138,38.059644,41.358647,35.020535,49.110979,53.746904,55.848295,45.646929,60.966181,64.688385,64.927359,51.534893,65.535687,68.121584,67.634275,34.359764,306.723343,-72.209393,288.012153
101,-6.108673,2.599902,-0.203178,-0.19565,2.193558,-3.146462,-11.732803,-18.149769,-37.118099,-24.452351,-4.172653,10.317146,-45.051407,-29.683125,-5.95269,12.436592,-46.855305,-36.201519,-14.542145,1.96344,-45.643284,-47.022217,-42.025715,-37.416905,-16.61732,-24.246312,-24.556842,-23.127073,-3.686648,10.590196,15.96941,18.73195,10.816931,21.681175,26.769804,29.820336,22.20793,30.48461,34.400883,36.951681,31.493896,37.675507,39.138831,39.683371,26.669392,52.697502,76.102055,96.098865,53.189014,86.883213,104.869183,118.002491,44.330223,82.218281,102.372219,116.44582,35.85466,70.702,90.034664,103.888332,28.492985,55.585865,71.402195,84.102871,-14.473865,-15.047736,-8.760605,-5.885049,18.71918,32.831693,38.156913,41.426684,35.466571,49.472009,53.883767,55.837946,46.155851,61.435732,64.936227,65.009833,51.95955,65.804252,68.170009,67.508168,28.254559,309.354985,-72.409103,287.848243
102,-0.662613,-0.562336,-0.267002,0.004013,2.751457,-2.52491,-11.225121,-18.133884,-35.883408,-23.526913,-3.385941,10.451706,-44.775936,-29.370174,-6.148819,11.536217,-47.8675,-36.606434,-15.278664,0.56694,-47.787769,-47.617653,-39.953556,-33.355877,-16.774846,-24.774834,-25.226155,-23.074425,-4.944319,9.241134,14.611394,17.173073,10.487467,21.528787,26.577118,29.171005,22.541913,30.969326,34.340083,36.015693,32.042646,39.127666,39.358131,38.274436,26.683834,52.717289,76.083023,96.066856,53.210495,87.096016,105.063583,118.187118,44.259556,82.307098,102.347717,116.385841,35.733421,70.735702,89.99794,103.912079,28.393318,55.596496,71.405319,84.101646,-14.478792,-14.929656,-8.412703,-5.014578,18.76048,32.67218,37.840579,41.017279,35.620689,49.464773,53.733715,55.693154,46.354096,61.598543,65.017553,65.114809,52.107764,65.938906,68.155499,67.436329,27.611778,308.808994,-72.656273,287.868601
103,-2.289162,1.361003,-0.107575,-0.106766,3.24408,-1.770515,-10.271187,-17.298145,-34.296341,-21.125965,-0.853706,13.00454,-43.742477,-27.12569,-3.914818,13.910065,-47.260219,-34.547722,-13.078102,2.892517,-47.439823,-45.717441,-36.961555,-29.326229,-18.184409,-27.686958,-29.044281,-27.150853,-7.379903,6.157257,11.911754,14.902857,9.030677,19.881694,25.146892,27.741311,21.677075,29.990434,33.186364,34.611292,31.571442,38.596527,38.520537,37.031797,26.623101,52.64629,75.99527,95.922776,53.141991,87.077614,105.035706,118.206391,44.101731,82.200302,102.179924,116.23787,35.494069,70.599839,89.845391,103.861611,28.136353,55.474617,71.287835,83.969101,-14.344349,-14.593586,-7.980784,-4.330853,19.026327,32.863026,37.903798,40.978425,35.938974,49.708205,53.861192,55.728672,46.684472,61.955362,65.298628,65.330763,52.373167,66.164554,68.306626,67.544811,25.351146,310.170287,-72.735318,287.762125
104,-9.587997,2.353716,-0.095718,0.006681,5.9141,4.662369,0.310043,-2.708908,-25.683918,-9.013069,9.879707,22.850006,-35.226425,-15.12941,6.865105,23.599411,-38.823807,-22.092945,-1.684113,13.234886,-39.099072,-32.607754,-21.649521,-12.54966,-19.022029,-28.548759,-30.575482,-29.68078,-9.306306,3.137662,8.946795,11.877161,6.683309,17.528682,22.908613,25.289671,19.211307,27.997452,31.444829,32.873684,29.023818,35.954264,36.158905,34.536055,26.603153,52.638485,75.998085,95.891235,53.014206,87.140419,105.128059,118.335434,43.899239,82.194099,102.128174,116.185089,35.262611,70.591873,89.816734,103.878914,27.930393,55.437298,71.279182,83.966469,-14.30946,-14.556511,-7.909091,-3.956571,18.977174,32.757816,37.69675,40.659362,36.017842,49.676404,53.71162,55.483869,46.845715,62.086174,65.388598,65.389142,52.536399,66.307445,68.387544,67.582689,15.793917,312.512237,-72.800268,287.75704
105,-8.137127,-1.117534,-0.031609,-0.025428,8.391827,10.162662,7.957958,5.887905,-16.271164,2.735561,20.479763,31.81786,-25.860615,-3.644726,16.58337,31.651462,-30.853752,-11.556954,7.537548,21.063229,-32.968998,-24.046612,-12.774616,-3.862084,-19.073776,-28.548241,-30.899005,-30.764377,-9.394868,3.923423,9.193018,11.26309,7.049118,19.412959,23.743898,24.943412,19.918163,30.281327,32.645714,33.100333,29.970241,38.56328,37.868403,35.058426,26.594456,52.58012,75.903099,95.746605,52.843289,87.027695,105.09581,118.390915,43.742924,82.074692,102.02639,116.115372,35.143582,70.523919,89.760018,103.847031,27.861157,55.370236,71.236542,83.97519,-14.297617,-14.511323,-7.799806,-3.675052,18.931688,32.674909,37.546177,40.424573,36.01405,49.640884,53.645151,55.413337,46.90229,62.096337,65.406135,65.41226,52.644992,66.475467,68.55091,67.723825,7.687042,311.372791,-72.801625,287.7097
106,2.150528,-2.125462,-0.01926,-0.115906,7.499439,7.889339,3.886036,-0.540493,-18.172749,0.853466,18.970951,29.950939,-28.33944,-5.627117,14.451885,29.132915,-34.339748,-14.81789,4.114895,17.122066,-37.496842,-29.023934,-17.281677,-8.295548,-19.07464,-28.342797,-30.313129,-29.937464,-7.955898,5.928472,10.772767,12.45328,9.385408,22.139326,25.765891,26.401722,22.597625,33.24946,34.479775,34.258264,32.655569,42.107779,40.512976,37.056484,26.508442,52.47662,75.801556,95.649364,52.625164,86.841923,104.982571,118.366734,43.583942,81.940647,101.927479,116.041798,35.042622,70.464397,89.715145,103.804333,27.818596,55.354305,71.219959,83.968929,-14.303371,-14.449806,-7.606317,-3.338894,18.852487,32.545258,37.406004,40.329935,35.982052,49.564388,53.628528,55.505951,46.940934,62.087668,65.455239,65.501552,52.732258,66.651036,68.761838,67.938705,9.860705,309.222768,-72.79775,287.569233
107,-4.708283,2.101354,0.090477,-0.051092,8.457173,10.525074,9.01347,6.878941,-15.076046,5.232983,23.18842,34.458561,-24.884983,-1.072322,19.319882,34.382939,-30.09019,-9.574253,9.627057,23.262326,-32.393955,-22.483898,-10.585224,-1.106861,-19.713176,-29.837502,-32.113474,-32.076597,-9.320459,3.355654,8.714367,11.25121,7.758619,19.889808,23.903363,25.055094,20.962153,31.371828,33.176064,33.435984,31.239052,39.865918,38.640148,35.659974,26.451508,52.3591,75.663059,95.530369,52.340755,86.477177,104.654903,118.076923,43.367294,81.691715,101.713474,115.795658,34.909801,70.362659,89.621578,103.665264,27.760746,55.414719,71.278942,83.951237,-14.321588,-14.366258,-7.400651,-3.05814,18.810966,32.491041,37.386219,40.368541,35.993055,49.620272,53.71488,55.587301,47.043748,62.160904,65.493524,65.462896,52.910173,66.796495,68.832159,67.907002,5.165817,311.30426,-72.693878,287.498279
108,-2.063186,1.305762,-0.041897,0.068975,8.520733,11.291897,10.569912,9.217335,-13.431931,7.255359,25.069095,36.280895,-23.111264,1.661739,21.793659,36.87125,-28.181774,-6.621208,12.247158,25.823627,-30.364174,-19.73235,-7.52718,2.162578,-19.027895,-29.353663,-32.221155,-33.135394,-10.22877,2.080693,7.295441,9.419766,6.459316,18.348691,22.261481,23.276806,19.603212,30.038772,31.800845,31.828818,29.902773,38.459972,37.406004,34.497547,26.418091,52.311505,75.599762,95.563774,52.071831,86.371674,104.65226,118.116509,43.115067,81.621918,101.727608,115.770081,34.740383,70.402634,89.745506,103.765732,27.685776,55.553089,71.474922,84.129799,-14.493044,-14.511792,-7.362144,-2.825304,18.296511,32.043264,37.032821,40.096197,35.64687,49.347224,53.52874,55.449486,46.902698,61.992511,65.325872,65.262108,52.927859,66.849637,68.818759,67.802632,3.110195,312.580641,-72.728211,287.537873
109,-0.324669,-0.503636,-0.050846,0.09018,8.239643,10.608982,9.60561,7.251743,-13.491737,7.045109,25.17342,36.471943,-22.962639,1.524776,21.639439,36.784893,-28.047215,-6.705345,12.418545,26.136417,-30.255283,-19.674225,-7.170971,2.7682,-18.781709,-29.03329,-31.85952,-32.578455,-10.274824,1.854674,7.258082,9.219497,6.450584,18.786958,22.850975,23.486312,19.763837,30.827078,32.494586,32.022393,30.183725,39.550595,38.304077,34.992748,26.408043,52.167755,75.388905,95.307667,52.029453,86.215084,104.501072,117.994137,43.083687,81.415936,101.547077,115.566639,34.703156,70.184292,89.511463,103.481129,27.610313,55.342918,71.163929,83.677769,-14.486634,-14.438827,-7.310606,-2.742039,18.074296,31.795645,36.906122,40.100767,35.405538,49.262787,53.58823,55.557253,46.696637,61.863218,65.201742,65.065681,52.764986,66.713478,68.650687,67.535598,2.791048,312.037691,-72.773535,287.588739
110,1.475956,3.148332,0.027706,0.159477,6.695297,8.384491,7.913383,6.816467,-17.346726,2.329742,20.915954,33.514023,-26.344185,-2.268677,18.859062,35.202759,-29.976322,-9.006203,11.025238,25.95021,-30.359368,-20.268105,-7.248493,3.699074,-18.307083,-29.090137,-32.758815,-33.990366,-11.811569,-1.863553,4.224309,6.830819,4.056768,14.675924,19.728652,21.181577,17.080078,27.001035,29.723104,29.743531,27.41622,35.375737,35.15903,32.672847,26.249233,51.872303,75.106751,95.088822,51.847744,86.085205,104.367714,117.855171,42.977818,81.328263,101.483002,115.448776,34.64027,70.117493,89.440132,103.369744,27.582676,55.302132,71.04863,83.424545,-14.554214,-14.485424,-7.287092,-2.573424,17.86942,31.416053,36.542844,39.805501,35.270316,49.087551,53.44408,55.393713,46.605703,61.725638,65.006894,64.77181,52.657244,66.564412,68.416962,67.18693,4.27026,315.146645,-72.742573,287.708838
111,-5.138661,3.157385,-0.043831,0.189796,7.041584,10.197659,11.63934,12.162816,-13.867309,6.711491,24.984181,37.700421,-22.068248,2.874539,23.875752,40.381337,-24.825805,-2.610809,17.378781,32.612904,-24.334179,-12.722351,0.597439,12.114979,-18.081619,-29.737195,-34.688059,-36.7781,-13.726301,-4.774677,1.807151,4.685375,1.290374,11.614524,17.019241,18.689158,13.976786,24.034286,27.251927,27.361806,24.263417,31.760053,32.169878,30.240326,26.239598,51.794369,75.019364,95.001618,51.866158,86.119377,104.427292,117.898156,42.928906,81.215103,101.424225,115.345345,34.519764,69.920369,89.269204,103.142853,27.385128,55.066006,70.765137,82.996926,-14.631501,-14.535244,-7.32576,-2.524406,17.745796,31.268087,36.49432,39.829337,35.156856,49.084266,53.494505,55.395171,46.480844,61.70137,64.91249,64.512804,52.47839,66.424733,68.215334,66.815564,-0.874667,318.260737,-72.79267,287.855341
112,-2.44305,1.941619,-0.189903,-0.08545,7.29055,11.298592,12.946381,13.286568,-11.75164,9.135407,27.390404,39.944824,-20.039165,5.820534,26.514153,42.869156,-23.188122,0.444202,20.165176,35.118645,-23.177456,-11.072605,2.370335,14.049019,-17.534289,-29.533098,-35.678524,-38.680323,-15.168088,-6.228666,0.583566,3.178775,-0.53529,10.138269,15.884206,17.546923,12.110132,22.456945,25.763,25.55668,22.34367,29.962041,30.679037,28.727897,26.247597,51.72432,74.926117,94.878548,52.032108,86.297653,104.677002,118.241982,42.986687,81.111672,101.409668,115.449738,34.410896,69.595654,88.978523,102.864853,27.078484,54.477711,70.129486,82.326187,-14.489216,-14.318809,-7.161233,-2.280752,17.838162,31.308891,36.600889,39.936301,35.165303,49.195849,53.696454,55.603553,46.398247,61.790574,65.046908,64.548051,52.312713,66.530721,68.404599,66.896197,-3.328045,320.150893,-72.992901,287.718428
113,-4.613102,-1.903049,0.012383,-0.032679,8.642395,14.526821,16.872288,16.535946,-7.036331,14.053471,32.319042,44.992802,-15.097435,10.38065,31.001736,47.258091,-18.815426,4.941101,24.895168,39.810551,-19.510826,-6.929878,6.90358,18.838268,-17.159686,-28.735159,-34.218275,-35.962267,-13.662081,-4.451538,2.671545,5.410349,1.108728,12.490157,18.659628,20.400347,13.802427,25.021588,28.210095,27.711559,24.071768,32.715282,33.213175,30.948182,26.255687,51.587173,74.802566,94.756279,51.991539,86.262725,104.698059,118.342208,42.975643,80.957931,101.308113,115.414581,34.359993,69.373684,88.710617,102.535194,26.961296,54.131286,69.701454,81.807609,-14.221935,-14.070374,-7.003361,-1.982311,18.13396,31.393218,36.638459,39.912429,35.383431,49.399157,53.887485,55.739936,46.532653,62.002576,65.229776,64.590573,52.362905,66.800682,68.686626,66.996567,-7.963526,318.192278,-73.002897,287.630183
