takenoko1/special-research/HandMotion_SimilarSearch_自分用/NewProject/handData/tgt/d4_feature_d2/114.csv
,vel_0x_L,vel_0y_L,vel_0x_R,vel_0y_R,posFromWrist_1x_L,posFromWrist_2x_L,posFromWrist_3x_L,posFromWrist_4x_L,posFromWrist_5x_L,posFromWrist_6x_L,posFromWrist_7x_L,posFromWrist_8x_L,posFromWrist_9x_L,posFromWrist_10x_L,posFromWrist_11x_L,posFromWrist_12x_L,posFromWrist_13x_L,posFromWrist_14x_L,posFromWrist_15x_L,posFromWrist_16x_L,posFromWrist_17x_L,posFromWrist_18x_L,posFromWrist_19x_L,posFromWrist_20x_L,posFromWrist_1y_L,posFromWrist_2y_L,posFromWrist_3y_L,posFromWrist_4y_L,posFromWrist_5y_L,posFromWrist_6y_L,posFromWrist_7y_L,posFromWrist_8y_L,posFromWrist_9y_L,posFromWrist_10y_L,posFromWrist_11y_L,posFromWrist_12y_L,posFromWrist_13y_L,posFromWrist_14y_L,posFromWrist_15y_L,posFromWrist_16y_L,posFromWrist_17y_L,posFromWrist_18y_L,posFromWrist_19y_L,posFromWrist_20y_L,posFromWrist_1x_R,posFromWrist_2x_R,posFromWrist_3x_R,posFromWrist_4x_R,posFromWrist_5x_R,posFromWrist_6x_R,posFromWrist_7x_R,posFromWrist_8x_R,posFromWrist_9x_R,posFromWrist_10x_R,posFromWrist_11x_R,posFromWrist_12x_R,posFromWrist_13x_R,posFromWrist_14x_R,posFromWrist_15x_R,posFromWrist_16x_R,posFromWrist_17x_R,posFromWrist_18x_R,posFromWrist_19x_R,posFromWrist_20x_R,posFromWrist_1y_R,posFromWrist_2y_R,posFromWrist_3y_R,posFromWrist_4y_R,posFromWrist_5y_R,posFromWrist_6y_R,posFromWrist_7y_R,posFromWrist_8y_R,posFromWrist_9y_R,posFromWrist_10y_R,posFromWrist_11y_R,posFromWrist_12y_R,posFromWrist_13y_R,posFromWrist_14y_R,posFromWrist_15y_R,posFromWrist_16y_R,posFromWrist_17y_R,posFromWrist_18y_R,posFromWrist_19y_R,posFromWrist_20y_R,posFromBody_0x_L,posFromBody_0y_L,posFromBody_0x_R,posFromBody_0y_R
6,0.811283,-0.871187,0.328801,-0.021996,6.65855,8.103,7.175915,5.933658,-17.145767,4.120251,22.842991,35.374431,-26.56778,-3.243599,18.323124,36.963146,-30.699028,-10.432125,10.241009,26.849705,-31.595501,-22.719189,-10.480751,1.329002,-18.716957,-29.396604,-33.672413,-35.356063,-10.412317,1.401871,7.194393,10.917955,7.148561,20.184506,25.853947,28.623712,21.340375,32.376989,35.246975,36.670643,32.413335,42.66168,43.458112,42.39314,25.255462,49.756198,72.839916,92.950092,50.007968,82.784008,100.371242,112.852191,41.966743,78.983699,99.837375,113.630046,33.859714,68.181186,87.957561,100.939304,26.346874,52.344326,68.033741,80.799098,-15.306593,-17.765186,-13.55361,-12.472719,13.641592,28.490973,34.362845,37.842406,30.88437,43.557753,48.092851,49.680887,42.9968,55.941662,59.491212,59.262612,50.634189,64.033238,67.698422,67.327388,-0.378731,309.784959,-74.857521,287.90664
7,-1.000122,0.661248,0.242603,0.059812,7.579319,9.272815,8.309841,7.182094,-16.46957,5.511051,24.3204,36.805423,-26.287091,-2.243157,19.515804,38.081829,-30.644806,-9.564995,11.207142,27.731655,-31.750454,-21.631096,-8.644078,3.704029,-19.194485,-30.273929,-34.702274,-36.477783,-11.598913,0.132381,6.039919,9.934839,6.302235,19.213061,25.027813,27.93312,20.799836,31.679666,34.671338,36.166896,32.12217,42.297958,42.913956,41.603884,24.988655,49.397896,72.400085,92.468147,49.697937,82.465759,99.994079,112.403572,41.650738,78.687675,99.552978,113.325645,33.490505,67.881798,87.699325,100.690933,25.933571,52.035106,67.759392,80.530266,-15.436023,-17.87793,-13.604197,-12.454478,13.600268,28.530234,34.391546,37.889954,30.868919,43.544007,48.105435,49.764768,42.977459,55.89588,59.454062,59.301835,50.565967,63.909799,67.586628,67.239257,-1.228924,310.440266,-74.464989,287.960511
8,2.211799,0.033938,0.121239,0.114645,7.306172,7.997052,5.839177,3.807209,-18.859348,2.847508,21.917141,34.705136,-28.799732,-4.932197,16.89243,35.614094,-32.909832,-12.356907,8.382763,25.052136,-33.605335,-25.036045,-12.854107,-0.847023,-19.326063,-30.34041,-34.432931,-36.601988,-11.675113,0.398945,6.521548,10.686033,6.245067,19.071047,25.123637,28.504905,20.618253,31.249649,34.709178,36.666308,31.875069,41.825246,42.680613,41.801979,24.749084,49.130355,72.137809,92.180259,49.468757,82.341934,99.847709,112.205062,41.410331,78.590309,99.458931,113.213333,33.219188,67.749893,87.6007,100.609863,25.668113,51.89907,67.659141,80.44725,-15.583284,-18.085102,-13.791077,-12.43116,13.570296,28.466286,34.290424,37.796909,30.855273,43.520814,48.104214,49.826173,42.914734,55.849173,59.413888,59.318274,50.409023,63.754991,67.420113,67.055946,1.091474,310.461598,-74.235151,288.06255
9,1.244408,0.20348,0.046863,0.10158,7.365154,7.649517,4.819668,1.847225,-20.108883,1.464397,20.565159,33.624607,-30.227463,-6.058319,15.572651,34.327641,-34.235607,-13.529354,6.981388,23.565914,-34.785336,-26.142666,-14.082939,-2.124092,-19.498594,-30.624091,-34.486024,-36.609633,-11.603729,1.144989,7.615382,11.930353,6.32034,19.000491,24.860198,28.15867,20.599444,31.043871,34.370885,36.328114,31.711381,41.658298,42.707178,42.124353,24.623875,48.996712,71.98962,91.985607,49.368427,82.296192,99.70435,111.938747,41.297196,78.616825,99.449741,113.162624,33.095593,67.753956,87.588032,100.567326,25.557037,51.85104,67.620083,80.405148,-15.729362,-18.296129,-13.978947,-12.493158,13.529614,28.362088,34.17947,37.697749,30.859077,43.472426,48.051602,49.786109,42.880202,55.799809,59.331463,59.24421,50.300379,63.622684,67.279173,66.90667,2.434244,310.649119,-74.089926,288.148171
10,0.103386,0.772523,0.051682,0.009448,7.469776,7.99815,5.255871,2.081028,-20.004204,1.622738,20.701801,33.704304,-30.288128,-6.115128,15.456013,34.247784,-34.367214,-13.675083,6.744839,23.385372,-34.994316,-26.67477,-14.931542,-3.000023,-19.422184,-30.938142,-35.170676,-37.815323,-12.288616,0.279766,6.928594,11.393865,5.736033,18.151336,24.0753,27.428322,20.119877,30.247723,33.543676,35.507586,31.323131,41.054403,42.233502,41.704437,24.533146,48.882785,71.908435,91.933376,49.236717,82.23254,99.614124,111.774662,41.169834,78.653308,99.493595,113.10831,33.014453,67.872974,87.687893,100.55627,25.568927,51.999881,67.799984,80.493404,-15.782665,-18.391261,-14.09116,-12.526751,13.684422,28.488293,34.359794,37.931771,31.030347,43.59316,48.156577,49.835188,42.9875,55.904463,59.36934,59.190277,50.30112,63.588561,67.221251,66.811031,2.619673,311.405392,-73.956201,288.141369
11,-0.684197,1.022599,-0.049004,-0.026306,7.097237,7.807263,5.561474,3.196965,-19.101825,2.614689,21.555005,34.779522,-29.389228,-5.233543,15.82037,34.539792,-33.688339,-13.036388,7.099057,23.843297,-34.568252,-26.450225,-14.897392,-2.75196,-19.363213,-31.639602,-36.888301,-40.618421,-12.330014,0.830382,7.591139,11.858697,5.254108,18.15861,24.028345,27.330955,19.222619,29.641741,32.995542,34.999059,30.082936,40.223934,41.680207,41.178657,24.555267,48.921844,71.977077,91.979107,49.164997,82.288433,99.748913,111.968205,41.114388,78.718884,99.608379,113.201855,33.076492,68.002865,87.828083,100.635258,25.805214,52.273613,68.082836,80.69743,-15.768264,-18.410972,-14.159407,-12.610039,13.816556,28.505423,34.435463,38.083381,31.176844,43.682476,48.2587,49.972385,43.083534,56.007018,59.464276,59.255004,50.322387,63.642667,67.233811,66.774919,2.010698,312.415873,-73.929983,288.102945
12,0.497635,0.44464,-0.08614,-0.094589,6.67202,7.301159,4.933926,2.335133,-18.707622,2.684727,21.430081,34.504521,-28.658695,-4.860752,15.721173,34.242726,-32.878029,-13.182346,6.235257,22.585408,-33.668678,-27.594497,-18.140052,-7.588359,-19.393001,-31.708824,-37.106415,-41.216967,-11.755228,0.908237,7.190378,11.285184,5.64195,17.939371,23.375927,26.485653,19.375081,29.295482,32.425858,34.46125,30.106475,39.664438,41.365391,41.422152,24.543766,48.95192,72.106819,92.151787,49.144467,82.288971,99.80333,112.087601,41.163037,78.784584,99.715302,113.318505,33.256062,68.189942,87.967209,100.690155,26.103608,52.575165,68.369957,80.902977,-15.648123,-18.365178,-14.193394,-12.694477,13.953296,28.505077,34.466239,38.168954,31.327602,43.743053,48.316523,50.030517,43.21295,56.143153,59.588851,59.338972,50.430042,63.827226,67.37249,66.851551,2.568529,312.855177,-73.955927,288.00302
13,-3.298484,-0.923811,-0.052848,-0.047783,7.297096,9.171924,8.251956,6.740215,-15.88527,6.417652,25.142795,37.763248,-25.642205,-1.128926,19.483051,37.56158,-29.983132,-9.185051,10.437595,26.441242,-31.107331,-22.694195,-11.897336,-0.827317,-19.140837,-31.320291,-36.824376,-40.425142,-11.082606,1.271231,7.190897,10.842471,6.190084,18.674745,23.744404,26.292683,20.011382,30.391429,33.032481,34.657159,30.833092,40.631401,41.985908,41.652987,24.689689,49.039409,72.172874,92.293716,49.165798,82.328933,99.852516,112.181922,41.181221,78.818092,99.767669,113.380874,33.324737,68.289733,88.011085,100.663261,26.238613,52.717689,68.523559,81.039527,-15.569452,-18.414479,-14.275299,-12.83712,13.883642,28.413168,34.423113,38.160816,31.324366,43.737854,48.360082,50.079621,43.236379,56.228345,59.673573,59.389966,50.472243,63.980504,67.502797,66.933606,-0.675024,311.936328,-73.953844,287.960199
14,-2.39375,-0.354423,-0.044987,-0.051203,7.480854,9.929055,9.995247,9.719513,-13.530681,9.336479,28.306229,40.835884,-22.909321,1.596634,22.700386,40.985894,-27.344032,-6.326923,13.839959,30.10936,-28.775047,-19.576835,-8.186989,3.166432,-19.270883,-31.58804,-37.192878,-40.606169,-10.918325,0.434019,5.598293,8.863099,6.548236,18.964886,23.736266,26.056674,20.56889,30.888767,33.19102,34.57287,31.565267,41.199282,42.056069,41.201938,24.78915,49.090782,72.258762,92.478069,49.221256,82.474697,100.042911,112.443203,41.207645,78.886997,99.860607,113.490017,33.34219,68.337192,88.01469,100.621639,26.246509,52.758064,68.57484,81.083942,-15.544728,-18.454543,-14.312881,-12.880617,13.893361,28.347588,34.338823,38.075699,31.352376,43.75402,48.395267,50.103518,43.24721,56.328071,59.774683,59.462855,50.451741,64.070288,67.561373,66.941361,-3.018408,311.590896,-73.948465,287.917987
15,-2.972671,-2.278306,0.01205,-0.010646,8.43425,11.650108,12.060013,11.80133,-10.185757,13.127518,32.261284,44.937813,-19.335583,5.405388,26.664345,44.926597,-24.092526,-2.828396,17.512642,33.714157,-26.09317,-16.208382,-4.446739,7.02808,-19.20192,-30.651941,-35.55622,-38.281315,-9.399228,2.50719,7.695139,10.937196,8.092651,20.98405,25.847377,28.200808,22.087715,32.777279,35.290348,36.862341,33.009066,43.177531,44.149519,43.246938,24.866204,49.109848,72.300705,92.553132,49.395424,82.764542,100.328888,112.730713,41.296853,79.011635,99.96428,113.611519,33.321579,68.342171,87.963341,100.556923,26.100197,52.614453,68.43853,81.012635,-15.563537,-18.560815,-14.423464,-12.975985,13.83371,28.201858,34.132009,37.800848,31.314387,43.71823,48.384115,50.07047,43.195414,56.34199,59.819711,59.517801,50.377419,64.104399,67.591297,66.941189,-5.939741,309.32666,-73.885077,287.921411
16,13.305404,-5.814653,-0.04145,0.051031,5.987904,4.581757,-0.439956,-5.29177,-22.705192,-2.177055,17.647957,30.810929,-32.439079,-9.823013,12.282052,30.83638,-36.823883,-18.0676,3.715188,20.438485,-38.137126,-30.88813,-18.810836,-7.459796,-18.729826,-28.682103,-31.107919,-30.714853,-4.156112,9.239689,13.85531,16.397562,14.139597,26.757664,31.120108,33.261526,28.152371,38.415166,40.146413,41.236085,38.855088,48.987318,48.900015,47.479336,24.937843,49.173786,72.391777,92.705589,49.57996,83.004341,100.551292,112.922974,41.42379,79.193275,100.10527,113.740997,33.34837,68.421753,87.987213,100.538864,25.997703,52.544449,68.371879,80.968758,-15.636551,-18.698816,-14.557598,-13.075403,13.791114,28.101501,33.976521,37.581461,31.300518,43.678153,48.366393,50.033049,43.163735,56.32812,59.81151,59.50508,50.329772,64.100398,67.60298,66.957601,7.417493,303.531615,-73.874697,287.99205
17,-4.806701,0.635449,-0.066284,0.089019,7.078113,7.035942,4.020859,0.868652,-19.776581,3.077545,22.955887,36.096245,-29.151444,-4.396637,18.372345,37.218544,-33.079136,-11.972305,10.402038,27.32492,-34.125904,-23.25935,-9.09597,3.761764,-19.1604,-29.334867,-32.011192,-31.948503,-4.983901,7.751022,12.492404,15.271309,13.149515,26.02865,30.608172,32.75148,27.202625,37.955705,39.764412,40.751974,37.938576,48.541912,48.287019,46.282427,25.075344,49.276371,72.52066,92.885078,49.826179,83.356315,100.903656,113.286392,41.600795,79.433258,100.316826,113.966697,33.420891,68.529487,88.055877,100.593727,25.940174,52.529606,68.349952,80.98629,-15.766263,-18.900838,-14.728029,-13.225234,13.682619,27.922239,33.723468,37.274166,31.222219,43.585244,48.273063,49.920725,43.086918,56.215735,59.709623,59.418099,50.254288,64.011033,67.505081,66.857702,2.660156,304.196032,-73.891617,288.110037
18,-4.168923,3.403472,-0.098397,-0.024206,7.126133,8.667824,7.59668,6.090065,-15.047493,7.800225,27.071412,40.346375,-24.056167,0.72258,22.850647,41.891831,-27.915538,-6.348781,15.382485,32.403283,-28.98183,-18.466758,-4.88491,7.909722,-19.069453,-30.216366,-34.621307,-36.380724,-8.462325,2.192313,6.959124,9.993823,9.310579,21.74237,26.870309,29.335781,23.493352,34.136888,36.609547,37.834033,34.434698,44.832479,45.450638,43.910558,25.097809,49.340275,72.674653,93.059098,50.023304,83.521546,101.068337,113.477532,41.804158,79.605858,100.450493,114.124581,33.58556,68.637749,88.131203,100.668206,26.025376,52.596302,68.386483,81.014214,-15.828026,-18.916708,-14.747048,-13.230285,13.842219,28.022571,33.75585,37.264644,31.352339,43.624196,48.244782,49.862469,43.180581,56.232728,59.730247,59.444022,50.336898,64.030854,67.517073,66.876116,-1.462292,307.621931,-73.943539,288.108258
19,10.874302,-3.87243,-0.127636,-0.078337,4.840576,2.479946,-3.45956,-8.830032,-24.98014,-4.5722,15.085591,28.839306,-34.54422,-11.490658,10.846104,29.96838,-38.379982,-19.179245,3.060185,20.323529,-39.240864,-31.757961,-19.018192,-6.951462,-18.40881,-28.195102,-30.8098,-30.733402,-4.23861,8.353608,12.931895,15.592609,13.745346,26.104147,30.835735,33.194959,27.704286,37.997956,40.011402,41.059689,38.365062,48.986639,48.947156,47.180106,25.160649,49.469456,72.848546,93.217015,50.222615,83.604733,101.171208,113.642064,41.986599,79.680989,100.499577,114.234272,33.723622,68.657765,88.133824,100.725369,26.079621,52.581997,68.335248,80.96838,-15.76835,-18.85019,-14.687681,-13.182181,13.971994,28.233746,33.963011,37.457701,31.442532,43.733,48.3298,49.956936,43.237453,56.285093,59.827467,59.575587,50.406096,64.100843,67.608414,67.000049,9.458519,303.773704,-74.024666,288.054124
20,8.007649,0.487927,-0.169532,-0.031431,3.553367,-1.392197,-10.387459,-17.782299,-32.37315,-12.79834,6.869087,20.266868,-42.555382,-20.796959,2.502113,22.212936,-46.293274,-28.753063,-6.058182,11.53347,-47.044178,-40.069451,-27.266167,-15.405819,-18.575302,-28.805591,-31.308076,-31.326107,-4.814469,7.051762,11.134217,13.878899,13.398765,24.960702,29.487032,31.986467,27.737087,36.79607,38.418563,39.680926,38.924768,48.228196,47.513213,45.655476,25.216232,49.621078,73.044605,93.405201,50.504276,83.711757,101.274433,113.79681,42.287533,79.783069,100.539035,114.293689,34.007423,68.734096,88.141239,100.734409,26.313503,52.722805,68.395649,80.96767,-15.711034,-18.831208,-14.661277,-13.203609,13.927657,28.302017,34.105259,37.651561,31.36275,43.738002,48.364133,50.010004,43.166786,56.25938,59.856157,59.617775,50.395005,64.092358,67.613564,67.017241,17.516115,304.282148,-74.144251,288.04321
21,-10.722622,4.609817,-0.089619,-0.008324,5.655201,4.395527,-0.529987,-4.699906,-22.553032,-0.539555,18.930302,32.218059,-32.230076,-8.682919,14.201969,33.838886,-35.983727,-16.218704,5.701732,22.954502,-36.929146,-27.893337,-15.245258,-3.296608,-19.369425,-30.922556,-35.425705,-37.674606,-9.890885,-0.613145,3.196386,6.011155,7.910635,19.465434,24.524287,27.296053,22.389748,31.820926,34.070493,35.716203,33.772646,42.889119,43.069603,41.756913,25.263107,49.653568,73.137703,93.531212,50.68531,83.720215,101.253502,113.810875,42.546284,79.856644,100.572968,114.339111,34.307018,68.877663,88.215866,100.780678,26.616486,52.930618,68.528183,81.037239,-15.726842,-18.914707,-14.757632,-13.349475,13.782939,28.235549,34.102974,37.73396,31.201483,43.602386,48.244177,49.931149,43.059155,56.118009,59.731483,59.525829,50.395808,64.027891,67.510528,66.910314,6.8342,308.912889,-74.193163,288.05581
22,5.556702,-1.68491,0.021618,-0.329833,3.68542,0.850399,-6.07092,-11.954064,-26.280533,-7.43636,12.047595,25.50484,-36.005654,-15.458027,6.860721,26.295146,-39.986527,-23.315999,-1.92207,15.192981,-41.063599,-36.064145,-25.543431,-15.180748,-18.435017,-29.512189,-33.470415,-35.069738,-7.888504,2.01478,5.72104,8.281706,9.762827,21.004366,25.865395,28.702543,23.973968,33.039435,35.187065,36.875741,35.142073,43.977137,44.386197,43.709214,25.220512,49.540558,72.970013,93.227108,50.829277,83.734348,101.275555,113.848949,42.71101,79.802158,100.457508,114.209507,34.457714,68.808414,88.075298,100.606487,26.758976,52.935276,68.476902,80.902737,-15.72226,-18.837124,-14.736674,-13.358171,13.866684,28.400385,34.321138,38.027793,31.183476,43.636225,48.367813,50.220214,42.997491,56.104411,59.801791,59.73473,50.379728,64.017282,67.522643,66.985649,12.447327,307.246513,-74.11512,287.744511
23,7.008956,-3.362408,0.042824,-0.645984,2.893696,-2.618969,-13.105419,-22.26947,-33.75745,-15.276958,4.76128,17.957852,-43.891365,-23.234813,-0.285358,18.667202,-47.863472,-31.596313,-9.522411,7.300587,-48.726986,-43.466159,-32.24683,-21.904518,-18.590061,-28.78267,-30.835316,-30.699724,-4.50142,7.679256,11.275909,13.434197,13.565021,25.169431,29.215416,31.426674,27.642288,36.557256,37.673803,38.765624,38.575494,47.321008,46.476423,45.038391,25.199684,49.497986,72.870929,92.92828,50.836235,83.733204,101.298717,113.803768,42.651764,79.774509,100.486461,114.185016,34.356193,68.766597,88.082691,100.629718,26.657581,52.901825,68.462368,80.86314,-15.720951,-18.693084,-14.556449,-13.338323,13.648484,28.438905,34.464597,38.139636,30.933375,43.733038,48.623979,50.529881,42.745364,56.11218,59.908669,59.907125,50.124551,63.854656,67.446925,67.032691,19.529537,303.901609,-73.999042,287.116031
24,-5.910255,1.397276,-0.35059,-1.354495,3.556469,-0.122784,-8.81258,-17.221722,-29.760876,-9.51852,10.541874,23.591045,-39.214497,-16.799984,5.838879,24.663494,-42.51503,-24.670658,-2.725307,14.139896,-42.723896,-38.39098,-30.416164,-23.065418,-18.351272,-28.033119,-30.221232,-30.367556,-6.146661,5.566775,9.70257,12.424047,10.814485,22.453079,26.826935,29.449673,24.012302,33.335194,34.931158,36.435892,34.291967,42.839447,43.602694,43.730456,25.271553,49.58773,72.750297,92.514496,51.108067,83.928154,101.505615,114.050651,43.015343,79.917046,100.592308,114.468727,34.828434,68.841042,88.14402,100.856346,27.217392,53.351017,68.766014,81.069694,-15.969262,-18.724182,-14.544717,-13.708814,13.17403,27.712646,33.793444,37.566234,30.415314,43.42694,48.548594,50.636091,42.174482,55.79745,59.947312,60.293127,49.507034,63.333915,67.076397,66.868558,13.705788,305.311105,-74.263126,285.773756
25,9.281456,-5.936117,-0.499718,-3.236376,-2.534443,-10.898609,-22.587559,-34.299969,-39.244377,-24.531647,-3.567158,10.758877,-46.684593,-29.354176,-6.62376,13.219974,-48.379875,-35.426353,-13.109104,5.223759,-47.103287,-48.767956,-44.838879,-40.046917,-9.868037,-14.81858,-14.012008,-11.809976,-0.634782,12.568346,17.253362,19.91972,12.489194,25.202529,30.306991,33.020946,22.576494,33.268504,35.960488,37.906207,30.475619,39.734044,42.556383,45.114357,25.341866,49.640385,72.319748,91.622589,50.646698,83.331276,100.922997,113.7258,42.585377,79.249489,100.045166,114.439408,34.477318,67.969059,87.38974,100.583176,26.911022,52.641518,67.885048,80.12835,-16.411716,-18.712808,-14.39333,-13.654832,12.116332,26.651725,32.925505,37.042417,29.343907,43.087585,48.824457,51.477169,41.188735,55.697081,60.523456,61.537138,48.614197,62.920866,67.105519,67.257091,23.097496,299.381018,-74.652592,282.54341
26,15.164051,-8.35551,-0.934204,-5.143933,-8.591469,-22.778137,-38.363869,-53.165646,-49.285778,-44.493175,-29.788261,-19.756027,-54.674721,-47.731876,-31.793426,-17.419521,-54.676655,-51.280815,-35.045197,-21.290279,-51.989811,-59.557091,-59.788376,-58.596657,-1.394929,-0.538229,4.07039,9.20858,10.837778,24.677997,28.730108,30.403285,19.2314,30.578322,33.537476,34.160353,24.695225,34.475934,35.740904,36.071009,28.166722,37.045641,39.835092,42.352768,25.122402,49.359982,71.184219,89.950241,48.665234,81.134651,98.958,112.177277,40.783528,76.983959,98.051994,112.87468,33.180828,66.026287,85.571983,98.907601,26.161537,51.799175,66.950077,78.673851,-17.838471,-19.994771,-15.6912,-14.844182,9.178174,24.25445,31.240596,36.184383,26.821514,41.61648,48.193825,51.569906,39.284846,54.691265,60.192251,61.918299,47.45014,61.939924,66.407109,66.74113,38.426325,291.027682,-75.422018,277.401651
27,3.057358,-4.711112,-5.476353,-10.798789,-12.816834,-28.348847,-42.618118,-56.061871,-48.432484,-49.445412,-41.218746,-35.939346,-50.394585,-49.37122,-40.364159,-31.819016,-47.658795,-48.629814,-38.837563,-30.393574,-42.614365,-50.58775,-53.312988,-54.881493,0.523594,3.324593,8.570649,13.635146,12.048938,25.099295,29.053075,30.585486,18.844003,31.113699,34.5107,35.373786,23.242188,34.667793,37.031759,38.04212,25.722369,35.65044,39.704144,43.057081,26.920361,52.177071,73.685612,91.624249,54.56606,87.963421,103.413403,113.311398,46.160775,82.895852,101.060246,112.075848,37.458069,70.384919,87.68002,98.193524,29.020489,55.096253,69.167016,78.530205,-18.095155,-19.627146,-15.317276,-13.639739,9.529509,27.533546,36.700073,42.675784,27.087671,45.757439,54.350329,58.195404,39.660351,58.099024,65.101533,67.18945,47.964917,63.742493,68.803335,69.12645,41.700022,286.291629,-80.682032,266.577921
28,16.866737,-16.850378,-5.665157,-13.878133,-21.222839,-41.833626,-57.802093,-70.967708,-56.078098,-67.860969,-65.862968,-63.608585,-53.23336,-64.653637,-63.257755,-59.279583,-46.729648,-58.814403,-56.894005,-53.195217,-38.703071,-54.497108,-63.367287,-69.663322,2.767382,9.483715,17.570425,24.894987,16.196713,33.416865,39.57311,41.777735,22.289898,39.164421,44.656231,46.333569,26.404896,42.196551,47.131829,49.045005,28.531556,41.581011,48.407161,53.625639,26.72358,52.326759,73.029339,90.385014,60.248886,93.604775,107.503807,114.897995,52.13316,88.443844,104.887482,113.125694,42.965767,75.355602,91.582306,99.965927,33.3647,59.247265,73.054264,80.913586,-18.830553,-19.443266,-15.04308,-13.244624,10.366807,29.701627,40.481446,47.354724,28.116309,48.420165,57.656076,61.088472,40.854665,60.216112,67.46051,69.158708,49.257896,64.744319,69.377601,69.095982,58.835695,269.412401,-86.078253,252.670938
29,20.731842,-21.846073,-11.432155,-19.903936,-27.495025,-53.134918,-71.901054,-86.434513,-62.58522,-84.385917,-89.045059,-91.231991,-55.885528,-78.27396,-83.968792,-85.269848,-46.675575,-68.146934,-73.491714,-74.877605,-36.790455,-55.920536,-65.62857,-72.180176,4.584252,13.820915,23.937868,32.294737,20.651832,41.096109,48.796732,51.643413,26.682081,47.826855,54.675964,56.223145,31.239496,50.841683,57.047871,58.442529,33.77897,50.031196,57.291538,61.502731,28.537044,55.785713,76.96305,93.564308,62.730239,96.246585,105.909782,108.990589,53.519474,89.879207,101.402206,104.516452,43.467018,76.528198,88.100486,91.553329,33.176685,60.653022,71.158401,74.682003,-17.410788,-17.845375,-14.51394,-14.036635,8.437317,31.167631,39.522783,43.768605,25.659914,48.735944,55.294085,56.923246,39.104708,60.000047,64.341731,64.551114,48.96426,64.868437,66.737956,65.078981,79.828028,247.717471,-97.249917,232.918145
30,11.913231,-18.938938,-12.203808,-21.414623,-28.378349,-54.497566,-73.173134,-86.35548,-59.145904,-85.559086,-96.027672,-101.912693,-49.845886,-77.761654,-88.206013,-93.101406,-38.654571,-64.114963,-74.404083,-79.532123,-27.29956,-46.602768,-55.450172,-61.417122,-1.533868,5.603418,13.48708,18.890007,19.334178,41.717973,50.186758,52.697913,28.040195,52.113803,57.818059,57.517952,34.891465,56.706046,61.349405,60.562421,39.139548,57.159676,62.225717,63.021371,29.684601,58.647148,80.261009,96.438389,65.890411,99.26223,103.337356,101.172546,55.926178,90.770336,96.161808,93.748237,44.898227,76.988949,82.870971,81.163868,33.681953,61.172321,67.702594,66.908535,-16.140397,-16.443875,-13.879764,-15.318697,6.260714,30.961953,37.91274,40.02453,22.787248,47.873501,52.501485,52.091326,36.662417,58.656198,60.74598,58.993713,47.925409,63.782025,63.374571,60.132959,91.990997,229.200539,-109.203987,211.925528
31,11.567345,-22.122579,-12.966122,-23.389883,-29.061745,-56.098595,-75.273857,-88.383431,-59.306694,-85.251927,-93.212403,-96.296986,-47.961136,-74.620857,-80.775913,-81.870529,-34.611878,-58.854332,-65.520722,-67.385628,-21.510063,-40.317925,-46.717873,-50.237915,-8.340134,-4.29032,1.839051,5.120394,12.443387,38.752286,48.423302,50.868754,25.243976,53.768146,59.788416,59.527582,36.07075,61.242959,65.382374,64.059396,44.353407,64.583224,68.193277,67.458879,31.072552,62.134666,84.759327,100.666775,68.212921,101.557652,99.941311,92.595989,56.892448,90.927784,90.221008,82.77879,44.293213,76.374001,76.583828,70.485294,32.006699,59.465618,62.152187,58.015034,-13.225197,-12.880988,-10.872803,-14.352784,5.923297,31.694782,36.164512,35.291843,20.98321,48.073387,50.182448,47.464343,34.591815,58.528634,58.177447,54.316786,46.670863,63.147861,60.751414,56.263443,103.731222,208.020867,-121.997229,189.478552
32,11.629898,-23.4194,-9.353107,-21.387243,-28.838837,-56.290146,-75.842674,-88.548088,-57.141998,-82.454659,-88.307339,-88.962032,-44.939163,-71.381951,-74.249211,-72.129719,-31.097328,-54.846314,-58.548889,-57.638352,-18.136482,-36.707291,-41.155838,-42.402649,-8.555877,-5.052023,0.469674,2.238366,8.650443,35.78324,45.72008,47.781086,21.423713,51.330759,56.342077,54.458022,32.523942,58.811451,60.918338,57.343125,41.381039,62.808123,64.495502,61.484392,30.48365,62.258731,85.471206,101.778236,62.054409,93.056625,89.416236,81.53461,49.702217,80.893089,77.822422,70.169712,36.787822,67.191455,64.68608,57.628509,24.995567,51.512706,51.806327,46.510288,-10.406006,-9.088981,-7.162652,-12.762279,2.829071,28.562604,29.778605,25.861443,16.778513,43.824305,42.203319,37.222371,30.426108,54.481759,50.805596,45.059585,43.541969,60.181001,55.394257,49.613974,115.432423,186.260419,-131.279033,169.750261
33,1.279701,-10.54534,-9.919728,-20.23958,-25.35244,-49.414375,-66.724914,-78.473419,-48.254105,-68.645119,-71.432442,-70.563217,-36.56662,-57.084618,-55.967148,-51.545906,-23.344002,-41.090813,-40.439598,-36.921936,-10.943779,-24.275482,-25.12825,-23.548645,-8.497449,-7.606391,-5.318229,-6.234334,4.735232,23.916392,29.28475,29.377129,15.321253,37.522416,37.680571,33.732299,24.394303,44.194289,41.490349,35.834888,31.718877,48.061346,45.935502,40.695782,31.655892,64.44207,88.704472,105.219189,56.366158,84.787022,78.903889,70.28397,42.312996,70.6176,63.722512,55.006062,28.361893,56.697739,50.011139,41.369602,16.520165,41.858643,38.648323,31.396855,-5.981053,-3.172323,-1.143427,-7.988274,0.495862,27.789284,26.926989,20.445357,12.619431,42.342807,38.372885,31.718969,25.822237,52.749925,46.97205,39.841952,39.609474,59.1333,52.913353,46.116374,116.710825,177.764971,-141.20006,151.560573
34,6.728462,-18.156708,-4.420532,-14.515793,-25.717781,-50.521843,-68.478058,-80.67366,-47.806686,-65.94992,-65.323997,-61.726021,-35.462906,-53.768371,-48.269233,-41.421524,-21.509926,-37.656303,-32.669426,-26.679199,-8.464119,-20.781555,-18.410568,-14.280052,-7.597085,-6.636922,-5.74206,-9.794245,2.329454,22.513966,24.728941,21.346525,11.825747,35.451924,31.916429,24.97451,20.169488,41.546122,35.68849,27.915447,27.320111,44.584069,39.963372,33.044943,30.332829,62.638618,86.562229,103.989841,54.193943,78.967049,73.518208,66.068447,39.514584,63.845696,56.628056,49.208485,24.422905,49.355015,42.172359,34.602413,11.514118,33.624664,30.338367,24.357582,-3.041177,3.106373,7.595974,1.522376,2.918664,31.01357,32.140219,26.688534,13.558556,45.937088,42.45975,35.062816,25.339559,55.254201,50.03119,42.08348,37.977658,60.171769,54.958416,47.815734,123.413131,161.737979,-145.646748,139.174496
35,6.000893,-15.221384,-4.329964,-10.547113,-26.785744,-52.488213,-71.791672,-85.145302,-48.819305,-63.640778,-61.870491,-57.814156,-36.051636,-51.454353,-44.860405,-38.462265,-21.662521,-36.002609,-29.872673,-24.17466,-8.3619,-19.923637,-16.760239,-12.44648,-6.344194,-4.208667,-3.070638,-8.328605,1.054172,21.875769,21.799223,16.721894,9.59938,34.648879,29.318336,21.411999,17.317613,40.282641,33.195879,24.894808,24.128189,42.731637,37.426548,30.303082,30.049576,61.258324,85.142556,103.598282,52.092877,73.106369,70.480202,65.78254,36.841004,58.106186,51.728108,45.973046,20.820397,43.434494,36.972222,30.721024,6.922371,27.197422,24.932545,20.41721,0.421225,10.341638,17.596595,13.308128,7.223391,36.426297,39.986949,36.741804,16.660632,51.67156,47.547595,39.187269,27.004765,59.492484,53.993709,45.329521,38.019902,62.808283,58.273704,50.990564,129.333853,148.506341,-150.056883,130.617129
36,5.092209,-12.590168,-3.473579,-5.392169,-28.189156,-54.688774,-75.859039,-90.95208,-51.570145,-63.846222,-61.21621,-57.507202,-38.262657,-51.433869,-44.989907,-40.047295,-23.408226,-36.217941,-30.0336,-25.478348,-9.600014,-20.461418,-17.260369,-13.459969,-3.796292,0.949036,3.271092,-2.374198,3.941461,26.750631,25.24413,18.940685,11.079722,39.133441,32.866107,23.93869,17.69655,43.768587,36.377495,27.522844,23.597753,44.794163,39.561779,32.180159,29.971298,59.429329,82.799,102.039299,52.609234,69.297329,69.262241,67.131935,37.112503,54.156246,48.602257,44.131702,20.186943,38.869926,33.353531,28.234737,4.817791,22.366665,20.997494,17.586594,3.656205,17.336045,27.591097,25.615417,12.878024,43.345973,50.167603,49.95906,21.23567,58.330909,53.814039,44.477229,29.983666,64.031028,58.318213,48.872956,39.009983,65.989701,61.981396,54.295643,134.275984,137.542133,-153.68054,126.85092
37,4.615448,-9.290281,-2.662411,-0.275296,-29.714997,-57.924523,-81.874878,-100.12278,-57.059395,-66.87822,-64.166748,-60.960137,-43.052765,-54.094277,-47.021736,-42.462914,-27.145958,-38.796822,-31.939499,-27.588364,-12.086312,-23.072113,-19.446305,-15.641396,-1.94641,5.447547,9.013911,3.750633,9.283112,35.340958,33.667868,26.753378,15.957084,47.696561,40.149969,29.860115,21.791214,50.997343,42.775251,33.033617,26.767766,50.390065,44.682128,36.628504,29.961376,57.823609,80.415825,100.307739,53.580734,67.152203,68.601689,68.229435,38.134415,52.103428,46.901207,42.936814,20.595406,36.365433,31.499153,27.05682,4.093254,19.210373,18.68422,16.277573,6.237088,22.909317,35.841903,35.659221,18.326535,48.85353,58.630362,61.815275,25.581047,64.267483,60.242862,50.811994,32.803202,68.470314,63.043034,53.138391,40.143103,68.97153,65.905906,58.263132,138.717539,129.363702,-156.516844,127.687474
38,5.329559,-10.118194,-1.9636,3.268604,-32.302322,-63.912323,-91.436508,-112.593521,-63.278206,-73.451568,-72.73352,-71.047508,-48.297684,-60.275505,-53.264305,-49.125778,-31.340584,-44.354187,-37.592285,-33.574631,-15.451378,-28.729545,-25.324882,-21.606949,-0.082308,10.226973,15.631845,9.844911,13.50135,46.335107,47.786995,41.939552,21.235355,60.824223,54.34227,43.06788,27.88338,63.91125,56.574473,45.945289,33.504902,63.025885,57.829588,48.959721,30.016708,56.742382,78.778313,99.341126,54.529839,66.099552,68.280773,69.06459,39.095947,50.753025,45.807816,42.169292,21.075451,34.649323,30.226124,26.191978,3.694977,17.141773,17.32085,15.529793,7.719462,26.530947,41.563393,42.955606,22.871062,53.426438,65.332065,71.240913,29.401613,69.011353,65.009704,55.463362,35.554769,72.084708,66.604112,56.325175,41.716337,71.471835,68.850925,61.021084,143.745741,120.10165,-158.781801,131.81222
39,-2.613258,2.695368,-1.317821,5.056926,-31.915924,-63.143418,-91.003281,-112.779557,-63.024147,-71.593918,-72.519516,-72.337097,-48.038796,-58.577545,-52.043701,-48.096611,-30.999207,-42.283264,-35.998627,-32.4096,-14.962464,-26.882721,-24.07917,-20.932251,0.357251,11.438442,17.457125,12.375172,15.680455,47.664396,50.860931,46.65921,23.624145,62.940262,56.880954,45.583086,30.026391,65.634519,58.28811,47.464942,35.089937,64.772162,59.433036,50.146145,30.632389,56.563648,78.560977,99.488994,54.777019,65.551746,68.569129,70.106563,39.460201,50.021495,45.253452,41.627471,21.444339,33.757633,29.913883,26.270587,3.738864,16.137256,16.771934,15.144824,8.739925,28.363749,43.539036,45.334738,25.281564,55.008756,68.969943,77.240793,31.597655,71.094108,67.160385,57.608337,37.286585,73.961279,68.3433,57.810693,42.850211,73.161821,70.464575,62.28824,140.687371,123.511232,-160.544734,137.58336
40,-2.860634,3.209669,-0.500863,4.56871,-31.230858,-61.833023,-89.536171,-111.317551,-62.230637,-70.707733,-72.435494,-73.085152,-47.336838,-57.358017,-50.759766,-46.82254,-30.257904,-40.735886,-34.322205,-30.960022,-13.99411,-25.225823,-22.472122,-19.585442,0.444899,11.444327,17.374775,12.602592,16.46161,47.7861,52.605398,49.690804,24.718356,63.784396,58.246965,47.015788,31.12532,66.515321,59.150942,48.173349,36.144517,65.913489,60.485788,50.978485,30.854496,56.842083,78.656525,99.356713,54.797974,65.770134,67.209401,67.66792,39.24337,50.069081,45.247479,41.263756,21.283081,33.796544,29.997666,26.133374,3.703343,16.343697,16.804688,14.778283,8.592409,27.78503,42.16323,43.679499,25.721442,56.966261,67.909805,73.300456,31.858853,71.105636,66.737782,57.354696,37.632578,74.023318,68.036653,57.670624,43.640238,73.90351,70.416724,61.900626,137.207182,127.435316,-161.665152,142.866485
41,-2.052979,2.046273,-0.73859,1.969344,-30.48896,-60.883346,-88.129074,-109.577064,-60.646774,-70.164253,-73.492126,-74.990936,-46.103736,-57.037742,-50.613144,-46.214447,-29.455993,-40.406478,-33.992179,-30.451812,-13.476997,-24.720131,-22.042991,-19.257888,-0.010183,9.914757,14.938165,9.696951,14.85826,44.581401,51.654504,50.640772,23.740119,62.304708,58.120945,47.280104,30.709912,65.758199,59.057896,48.196888,36.297831,65.912278,60.786401,51.30717,30.863754,58.006153,80.312279,100.871098,55.383785,68.280327,67.453434,66.581955,39.550312,52.21368,46.817402,42.3708,22.029568,36.145157,31.744023,27.187695,5.011254,19.110901,18.79422,15.720165,6.975931,24.473195,37.030771,37.134586,23.803289,56.310929,63.412239,65.179832,30.428022,68.858798,64.077266,55.122332,37.002637,72.472333,66.008621,56.016516,43.894193,73.505838,69.028377,60.228795,134.44907,130.107856,-163.108875,145.462096
42,-0.631851,-0.608483,-1.448318,-1.287879,-29.383415,-59.570595,-85.899467,-105.975426,-58.465851,-70.139671,-74.500419,-76.613846,-44.458854,-57.472641,-51.013756,-46.168419,-28.638748,-41.274009,-34.742477,-30.889412,-13.520073,-25.546165,-22.265579,-18.925689,-1.123604,7.002577,10.272114,4.012802,11.136693,39.025452,46.968284,46.735855,20.887849,58.625724,55.218682,44.68999,28.990701,63.501327,57.260645,46.644131,35.932794,64.739978,59.694673,50.432025,30.746738,59.560318,82.482937,102.240234,56.675502,73.047798,69.446869,66.463417,40.947841,56.739864,50.155849,45.145649,24.322197,41.208561,35.326343,29.799328,8.390133,24.97459,22.959411,18.261051,3.780891,18.280246,28.573595,27.205922,19.28574,52.391297,55.354576,53.112628,27.356717,63.926027,57.941177,48.911464,35.587256,68.985325,61.561122,51.852661,44.010222,71.721041,65.879143,56.919776,133.067482,130.092658,-165.30693,144.767502
43,0.614411,-3.836194,-1.990231,-6.46378,-27.580147,-56.539902,-81.253006,-99.243691,-55.323899,-70.125023,-71.726349,-71.67096,-41.923989,-57.85627,-50.835915,-45.255158,-27.309952,-42.666642,-35.530426,-30.730889,-13.579628,-27.413338,-23.358971,-19.015732,-2.23849,4.420674,7.766676,3.981901,7.462037,34.515707,40.867416,39.249315,16.756437,53.594423,50.943206,41.443214,25.441991,59.381079,53.617901,43.753174,33.531677,61.454757,56.709657,48.035342,30.608288,60.647049,83.686649,101.64299,57.464161,78.080509,71.948284,66.451023,42.476212,62.272316,54.802471,48.662087,27.341995,47.730927,40.738403,33.960423,13.073776,32.183338,29.085732,23.141956,-0.046177,11.31974,20.402669,19.801776,14.100342,45.941362,45.417286,40.25468,23.725842,57.604903,51.086282,42.588512,33.662823,64.617527,56.441006,47.098972,43.790928,68.906908,62.175718,53.555607,132.917628,126.718601,-168.061426,138.765859
44,5.759559,-10.95863,-3.309082,-13.406342,-28.542,-58.094879,-82.156746,-98.192985,-55.952316,-74.875534,-73.879417,-71.59861,-43.362694,-63.489326,-55.31781,-48.788521,-29.932182,-49.350494,-41.137024,-35.14991,-17.390487,-34.630554,-29.295135,-23.679062,-5.286144,-2.356285,-2.353611,-8.077738,0.645502,25.472131,30.48876,27.823062,11.201173,45.70382,43.311727,34.410473,21.650491,53.487565,48.261177,39.182545,31.61844,57.189675,52.831652,45.079894,30.534027,62.428047,85.847775,101.044991,58.414925,84.503929,75.734207,68.181553,44.818268,70.520954,61.497528,53.998638,31.772656,57.347099,48.403896,40.237244,19.861096,42.704006,37.467934,29.903641,-5.28938,0.119617,4.875164,1.928583,4.209408,33.253931,29.533678,21.450043,15.940227,45.352522,39.288416,31.802561,28.295824,54.656488,47.666718,39.855062,40.876883,61.496741,55.366679,48.172441,137.996046,116.067803,-172.051649,125.667349
45,7.78521,-15.885077,-5.066311,-18.543642,-29.133568,-58.665024,-81.434532,-95.051262,-56.193535,-77.770065,-76.319779,-72.718277,-45.048065,-68.63546,-59.789887,-52.086113,-33.50441,-55.945061,-47.136955,-39.883965,-22.721901,-42.216522,-36.128929,-29.424385,-9.918037,-11.688594,-14.956876,-22.119875,-7.735808,10.713931,13.652491,10.620836,4.33833,33.052982,31.095871,23.447107,16.58419,43.396244,38.94969,31.081032,28.348336,49.398995,45.421707,38.641543,28.881512,61.406891,85.247875,98.654263,57.205021,88.295563,79.260132,70.813317,46.796253,77.780628,67.760216,59.250355,37.292713,67.355095,56.950539,47.695278,28.882267,54.16539,47.293019,38.819779,-11.494512,-13.324381,-13.592489,-18.693283,-7.695645,13.187146,10.40784,3.762174,6.378274,27.519985,23.237297,17.945361,21.067258,39.541184,34.415912,29.138234,35.562253,49.506898,44.619754,39.734037,145.342959,100.012132,-177.556257,106.953113
46,10.286133,-20.053051,-5.736522,-22.491513,-27.978173,-56.465035,-77.876267,-89.632187,-53.75956,-76.644173,-76.369652,-73.624077,-44.296372,-72.627457,-64.220948,-55.619225,-35.000862,-61.705445,-52.822449,-44.450547,-26.534912,-49.269608,-42.650803,-34.68441,-14.284624,-20.387078,-25.852582,-32.892345,-19.144295,-8.520872,-9.286169,-14.386618,-6.60262,16.683325,16.631436,11.246472,7.367478,29.746328,27.304148,21.167961,21.275622,38.165706,35.586614,30.399246,26.21137,57.747293,80.926322,92.271932,53.654073,87.581468,79.251022,70.27613,46.951051,81.233064,70.811239,61.525188,41.16489,74.034971,62.752538,52.825155,36.424284,62.717319,54.884702,46.120845,-17.881833,-26.851367,-31.992824,-38.22684,-20.940053,-9.161042,-9.730294,-13.922502,-5.10386,7.110356,5.487153,2.811236,11.317887,21.528777,19.193185,16.82665,27.403378,34.374117,31.417053,29.229699,155.61117,79.488731,-183.310701,83.99125
47,10.945381,-22.988302,-6.2039,-25.611113,-25.331658,-51.960823,-71.855988,-81.896164,-49.558273,-72.531235,-71.377899,-67.978729,-42.670326,-72.84993,-63.68692,-54.295899,-36.25676,-64.264229,-54.564171,-45.331421,-30.298622,-53.965576,-46.918144,-38.446816,-20.833434,-33.068488,-42.174963,-50.392461,-30.716365,-24.956947,-27.834004,-33.601431,-17.431375,1.187948,2.145074,-2.122713,-2.086336,15.326243,14.202138,9.431808,13.217657,25.234189,23.756693,20.139212,22.553541,51.937746,73.872322,83.341673,48.008841,82.218344,75.260754,66.53896,45.102797,80.28491,70.270781,60.651432,43.110672,76.598574,65.256895,55.09413,42.100027,67.653374,59.51869,50.921505,-24.409846,-40.362222,-50.665025,-57.630814,-34.696606,-32.830648,-30.503799,-31.554078,-17.916101,-15.350079,-13.598442,-13.292876,-0.568895,0.909469,2.029596,2.821212,16.443866,16.406593,15.845112,16.334558,166.512291,55.639622,-189.558861,57.51933
48,13.541702,-26.664451,-7.957409,-23.12753,-24.0783,-48.27681,-65.724197,-73.993721,-43.95076,-67.108681,-68.467666,-65.919639,-39.429565,-71.891281,-63.268135,-53.044922,-35.886406,-65.589935,-56.091934,-46.410599,-32.553863,-57.182579,-50.027206,-41.31324,-26.745678,-45.330502,-60.032843,-72.792108,-43.928206,-44.299888,-47.0025,-51.685355,-29.300812,-15.895927,-13.42236,-16.817243,-12.559583,-0.138865,0.539643,-3.187915,3.938601,11.431606,11.464211,9.184707,19.497443,46.157404,65.874722,74.144709,47.278673,75.819895,68.165852,60.053353,45.950827,75.983729,65.266691,56.337158,44.312828,73.435541,61.670466,51.848311,42.973955,65.6143,58.25857,50.833672,-29.549931,-51.914199,-68.917323,-80.864172,-45.059745,-53.537456,-51.005893,-49.509591,-29.664704,-38.11372,-35.78287,-33.08429,-14.178315,-23.765675,-21.961001,-18.454738,0.561425,-7.974273,-9.510743,-8.664263,179.882458,28.081439,-197.687805,33.498068
49,9.632424,-22.199273,-10.721981,-24.069317,-19.948884,-39.276535,-53.314362,-59.731659,-34.576241,-52.783425,-56.084473,-55.062241,-31.585831,-60.884858,-54.455773,-45.401825,-29.643174,-57.151337,-49.351113,-40.614235,-28.165925,-51.15564,-45.739403,-37.993836,-29.302442,-49.810946,-65.204755,-77.340212,-52.478032,-60.816777,-66.593485,-72.421362,-39.610574,-33.793482,-29.973045,-31.339193,-23.978723,-18.233174,-15.46113,-17.017167,-8.139619,-5.3923,-3.890425,-4.464586,14.856497,36.366366,53.108528,61.400912,39.68846,65.956106,59.372017,51.049462,40.917498,68.775187,58.98044,50.171505,41.555145,68.504248,57.758681,48.088995,42.326494,62.855759,56.473337,49.523747,-34.047374,-60.494405,-80.088787,-92.28679,-55.066516,-70.350506,-65.619035,-61.347102,-40.985888,-55.273572,-50.970328,-46.166201,-26.793207,-41.434357,-37.868264,-32.577699,-13.37529,-25.659788,-25.675074,-23.32875,189.228568,5.018413,-208.6961,8.564998
50,14.981552,-20.678089,-11.185718,-20.570229,-17.140709,-31.892922,-42.739197,-47.444756,-23.992699,-40.554314,-44.925545,-44.689659,-22.029831,-53.40374,-49.131523,-39.874283,-22.47583,-52.310372,-45.91832,-36.714386,-24.041085,-48.331925,-43.577362,-35.459725,-32.00075,-55.490168,-71.697761,-82.609664,-63.446508,-76.338249,-83.436774,-89.116546,-51.930757,-49.667258,-43.587251,-43.420519,-36.660047,-33.807357,-28.722642,-28.913254,-20.815854,-20.4609,-17.013881,-16.087211,10.620466,27.888445,41.982273,48.887724,32.39071,55.560842,49.347816,41.465961,35.127622,60.078477,51.13722,42.626999,37.315097,61.630846,51.784612,42.354406,39.773718,58.586826,52.651193,45.581405,-37.02112,-65.461516,-86.785879,-99.90581,-62.819855,-81.522224,-75.852891,-70.307602,-50.072048,-67.628104,-62.464179,-56.804797,-37.344247,-54.724367,-50.373686,-44.729581,-25.470319,-39.885311,-39.394275,-36.889838,203.684298,-16.116008,-220.40764,-12.461563
51,13.545776,-17.689011,-11.664059,-17.003952,-14.173691,-24.91246,-32.408775,-33.963112,-15.589325,-31.205681,-33.126892,-30.31414,-13.909012,-45.819122,-41.279983,-31.763535,-15.417572,-46.345688,-40.232735,-31.025757,-18.692299,-43.458847,-39.077705,-30.995636,-35.678937,-61.885052,-81.181,-94.43057,-70.504444,-84.232351,-91.763159,-97.391722,-59.390663,-60.019918,-53.250622,-52.814602,-44.303117,-44.678899,-38.484987,-38.049727,-28.814169,-30.759726,-26.538783,-25.183627,7.553032,21.113846,33.015369,38.737267,24.335506,43.811977,38.474304,31.663296,27.956772,51.493927,43.461182,34.959206,31.217606,54.888359,45.912621,36.328228,35.102726,53.747566,48.516369,41.273151,-38.470321,-67.346419,-89.185913,-103.420479,-67.921955,-89.689877,-88.32221,-86.367661,-57.041362,-76.921522,-71.468161,-65.562506,-45.908461,-65.046183,-60.213494,-54.626273,-35.628135,-51.366703,-50.50552,-48.158905,216.413521,-33.667365,-232.888252,-29.327861
52,14.203423,-14.366165,-12.578716,-13.985987,-14.478127,-22.934212,-28.97889,-29.87883,-9.392853,-22.53035,-23.764641,-19.956047,-6.66195,-39.958054,-37.650216,-28.370888,-8.349724,-41.787873,-37.43248,-28.234978,-12.882523,-39.575478,-36.559571,-28.363495,-35.673954,-61.097624,-79.73258,-91.001329,-74.969045,-92.780992,-102.779229,-110.147563,-65.240258,-70.064494,-61.159455,-58.900952,-50.983129,-54.531993,-46.290215,-44.579735,-36.129141,-39.678648,-34.039767,-31.947366,5.654171,16.110786,26.027572,30.787708,16.865513,33.188118,28.90551,23.235614,20.643619,44.643139,38.077137,29.548084,24.713401,49.262741,41.658989,32.041443,29.855667,49.61578,45.600265,38.551849,-38.587499,-67.250545,-89.720554,-106.232534,-70.574792,-94.069963,-97.78074,-100.108881,-61.165018,-81.54973,-75.8673,-70.029252,-51.115268,-70.561819,-65.504343,-60.411391,-41.917297,-58.264477,-57.268752,-55.301291,229.89976,-47.577222,-246.184152,-42.85754
53,12.081688,-9.834513,-11.323334,-13.950233,-13.174828,-20.40905,-26.197793,-27.351037,-4.960167,-14.55375,-15.222199,-11.551049,-1.901299,-35.404953,-34.400254,-25.569191,-3.818734,-38.400284,-35.024483,-25.798646,-9.087868,-37.166909,-35.087838,-26.798584,-35.512958,-60.536627,-79.125141,-89.798508,-76.924013,-98.11368,-111.418238,-121.415154,-68.234412,-76.462719,-66.101009,-62.412176,-54.53784,-60.75983,-50.92202,-48.277497,-40.023523,-45.025356,-38.302873,-35.522283,2.680172,10.624855,19.919403,24.204037,4.757469,23.086533,22.5798,18.644691,10.408058,40.168487,36.361862,27.523693,18.307423,47.964191,42.382622,32.803665,28.11858,50.921596,46.85424,39.04636,-38.787014,-67.660383,-89.99178,-106.379713,-75.422339,-98.678063,-105.284242,-111.838406,-65.32978,-84.455924,-76.116602,-69.79738,-53.689766,-71.044781,-62.983938,-57.531908,-42.331321,-57.675582,-53.127152,-48.766146,241.520943,-56.885131,-257.967991,-56.281169
54,11.723236,-8.551777,-7.147762,-7.687383,-12.898087,-19.934372,-26.231324,-27.859154,-1.40561,-11.230179,-12.023461,-8.029541,1.565803,-36.114121,-35.569588,-25.437081,-1.751381,-39.693535,-36.460923,-26.074334,-8.53743,-38.759491,-36.459229,-27.306153,-36.060098,-62.225749,-81.185842,-90.81764,-79.450782,-101.031069,-114.356845,-124.669954,-70.343507,-77.495366,-65.119104,-60.837312,-56.003351,-61.042391,-50.049741,-47.638165,-41.028876,-45.50328,-37.727353,-34.794659,1.182197,8.485714,17.542385,21.152916,-0.328308,15.320938,17.095688,15.59967,5.738903,36.474849,34.345974,25.732383,14.698551,45.417686,40.994854,31.456947,25.784546,49.569946,46.157661,38.47808,-37.885878,-66.329344,-88.82827,-105.77249,-74.928675,-99.772527,-111.206162,-121.849729,-64.831578,-85.905595,-76.943486,-70.345501,-52.948273,-72.075426,-63.588379,-58.017593,-41.09535,-58.406858,-53.668017,-48.950953,252.961739,-64.845015,-265.398193,-63.376659
55,4.521514,-5.529052,-4.672463,-6.66918,-11.335784,-18.362686,-24.775749,-26.582176,0.446091,-7.744033,-7.600662,-3.509056,3.564927,-34.32669,-33.787513,-23.847496,0.261635,-38.076393,-34.853347,-24.584266,-6.484382,-37.597503,-35.550796,-26.398521,-34.669182,-60.043353,-79.656713,-90.341026,-77.096742,-98.036069,-112.46877,-125.223089,-68.141626,-75.316051,-62.058284,-57.429405,-53.900589,-59.078969,-47.24432,-44.87353,-39.067429,-43.242227,-34.862764,-31.98483,1.13681,8.264397,17.155003,21.135876,-2.910896,10.957752,14.807499,15.049015,2.851387,35.200596,34.386818,25.476872,11.951912,43.955761,40.65548,31.120423,23.327202,48.062908,45.664982,38.318962,-36.167488,-64.181458,-86.641895,-103.454516,-73.040054,-99.079749,-114.796896,-128.973062,-63.236266,-84.74143,-74.949325,-68.101003,-51.168194,-70.645979,-61.391231,-55.616021,-38.729377,-56.792511,-51.329591,-45.981351,257.361837,-69.782313,-270.192072,-69.454085
56,2.694466,-3.550254,-2.503315,-5.385118,-11.852806,-19.385696,-26.67485,-29.809021,0.959976,-5.732574,-6.426109,-3.512787,4.032578,-33.580536,-34.282768,-24.608711,0.249664,-37.850738,-35.238945,-24.684334,-6.882362,-38.523056,-36.712807,-27.216087,-32.149407,-56.473376,-74.688617,-83.561812,-73.820014,-95.892153,-110.973073,-124.522324,-65.195603,-73.284076,-59.845445,-54.892105,-51.600854,-56.940786,-44.812805,-42.528638,-37.345247,-41.401767,-32.576473,-29.513455,1.201172,8.633755,17.790482,22.557301,-2.892803,10.841389,16.170822,17.431732,2.72929,36.17561,36.480561,27.550026,11.947552,44.2286,42.031758,32.823544,23.277031,48.317391,46.731823,39.813114,-34.464016,-62.491997,-85.35739,-102.095244,-70.869478,-96.863835,-112.34392,-126.043758,-60.642393,-81.933883,-71.566794,-64.479897,-48.019059,-67.541498,-57.979388,-51.985065,-34.753885,-53.328078,-47.631513,-41.770887,259.954319,-73.092459,-272.797371,-74.599095
57,0.191643,-2.246992,0.188656,-3.643867,-11.022263,-18.005539,-24.003822,-25.975685,0.951713,-6.55822,-7.701737,-5.409645,3.80516,-34.916542,-35.43956,-25.511009,-0.182739,-39.220688,-36.182671,-24.85128,-7.242279,-39.993416,-37.689423,-27.623886,-31.137522,-56.210641,-75.780714,-87.211469,-71.233194,-92.490366,-107.57932,-121.603296,-62.368981,-69.816084,-56.613886,-51.849391,-48.622126,-52.908701,-40.806735,-39.281506,-34.298958,-37.585988,-28.674347,-26.015165,1.096882,8.964089,18.578201,23.983189,-1.990105,11.99144,18.347694,20.307633,3.802414,37.571549,38.04055,28.999523,12.918663,45.082878,43.109161,33.898727,23.798161,48.770954,47.316181,40.435146,-32.57354,-60.24644,-82.829755,-98.96267,-68.241248,-93.939645,-109.064979,-122.388856,-57.959489,-79.209791,-68.968343,-61.995403,-45.168876,-64.706354,-55.230621,-49.106891,-31.436344,-50.021659,-44.314596,-38.174141,260.057425,-75.148386,-272.697252,-78.051897
58,-1.069153,-1.625574,1.507622,-2.650562,-11.031464,-17.800392,-22.662643,-23.433449,-0.095444,-8.683914,-9.582664,-7.073502,2.914238,-36.242958,-36.321693,-26.33448,-0.903351,-40.339188,-36.735489,-25.130104,-7.666328,-40.839775,-38.032768,-27.798271,-30.443595,-55.854034,-76.394176,-89.666189,-68.356844,-88.305889,-103.300115,-117.687337,-59.083942,-65.328144,-52.590837,-48.279559,-45.17904,-48.126057,-36.368856,-35.464558,-30.981046,-33.502753,-24.740246,-22.520591,1.502369,10.017814,19.916073,25.584366,-1.131409,13.334518,19.970833,22.090862,4.788288,38.852314,39.299892,30.032615,13.675987,45.839012,43.788196,34.361,24.21001,49.298904,47.881016,40.883629,-31.190244,-58.618252,-81.05632,-96.859788,-66.005003,-91.054397,-105.845353,-119.076935,-55.515973,-76.269901,-66.073179,-59.44622,-42.452889,-61.749421,-52.287949,-46.353021,-28.465489,-46.798683,-41.197028,-35.256163,258.894665,-76.619236,-271.283237,-80.547735
59,-1.786102,-1.065725,1.834934,-2.119929,-10.08815,-16.24775,-19.321015,-18.426293,-0.43245,-10.027703,-10.912606,-8.602501,2.458053,-37.421837,-36.89637,-26.809159,-1.33239,-41.689316,-37.353173,-25.271416,-7.994774,-41.902977,-38.406006,-27.663048,-30.145829,-56.146504,-77.849041,-93.268144,-65.996232,-84.5344,-99.542541,-114.072107,-56.294362,-62.207183,-49.979777,-45.709187,-42.097708,-44.73022,-33.284547,-32.741853,-27.757977,-30.07962,-21.747199,-20.120446,1.724213,10.491245,20.525356,26.230671,-0.778633,13.902798,20.704731,23.037403,5.115898,39.085247,39.64484,30.517044,13.953198,46.025173,44.153275,34.853554,24.402958,49.623024,48.492508,41.632416,-29.822219,-56.867053,-78.972339,-94.424626,-64.090051,-88.784223,-103.546274,-116.865492,-53.418657,-73.857241,-63.639332,-57.138786,-40.131506,-59.21175,-49.789808,-43.892971,-26.042742,-44.077382,-38.670689,-32.877074,257.021994,-77.590211,-269.534872,-82.572914
60,-2.169274,-1.183663,1.625507,-1.715154,-9.68882,-15.667007,-18.008377,-16.337539,-0.536613,-10.897476,-11.748848,-9.438766,2.382706,-37.605949,-36.761306,-26.842552,-1.265167,-41.834266,-37.076568,-24.989547,-7.757171,-41.555282,-37.700363,-27.052436,-29.55626,-55.524124,-77.725064,-94.205888,-63.409519,-80.764877,-96.032697,-110.879348,-53.435938,-58.643304,-47.207282,-43.099602,-39.081224,-41.049704,-30.239343,-29.981684,-24.762119,-26.932559,-19.06037,-17.804527,1.608788,10.288205,20.141098,25.492722,-0.818962,14.129551,20.912075,23.225636,5.030652,38.98843,39.640675,30.851418,13.856644,45.907174,44.107006,35.036179,24.214028,49.613205,48.6568,42.040398,-29.051729,-55.86381,-77.758435,-93.125207,-62.805857,-86.743892,-101.406224,-114.986159,-51.991016,-71.870311,-61.572423,-55.274708,-38.52276,-57.162885,-47.774503,-42.035371,-24.299961,-41.990861,-36.770333,-31.204027,254.801038,-78.751026,-267.961047,-84.26522
61,-1.646553,-1.562273,1.275158,-1.776572,-8.863357,-14.647064,-16.453972,-14.321159,-0.790077,-11.353569,-12.168502,-10.081787,1.909699,-38.000908,-36.841209,-27.100868,-1.702057,-42.078186,-36.853683,-24.821708,-7.959503,-41.184471,-37.088012,-26.682266,-29.161181,-55.07702,-77.475139,-94.57849,-60.882825,-77.1903,-92.64912,-107.733038,-50.469841,-54.944328,-44.086972,-40.066792,-35.770266,-37.686468,-27.558301,-27.310293,-21.297458,-23.666735,-16.509985,-15.539732,1.193127,9.470684,18.917851,23.876782,-1.230343,14.041649,20.889199,23.244564,4.814953,38.830433,39.303509,30.578431,13.722966,45.810036,43.82428,34.782292,24.003342,49.502621,48.407055,41.770455,-28.329095,-54.911838,-76.613996,-91.87875,-61.401513,-84.990998,-99.679562,-113.392902,-50.460603,-69.987371,-59.616488,-53.446149,-36.848064,-55.20096,-45.863837,-40.238211,-22.615823,-40.121873,-34.969561,-29.42769,253.125074,-80.326288,-266.7153,-86.054781
62,-0.085144,5.024335,0.827465,-1.400425,-9.083999,-15.17205,-17.610351,-16.665504,-1.903404,-12.22174,-13.403526,-11.162636,0.433319,-39.182464,-37.889099,-27.801361,-3.494064,-42.996505,-38.108276,-26.429947,-9.868766,-41.904785,-37.951126,-27.71981,-30.23249,-55.835093,-76.60591,-91.875873,-65.005622,-82.991974,-98.152076,-112.080969,-54.77411,-59.888678,-49.050619,-45.066742,-40.026901,-42.85194,-32.798559,-32.078518,-25.33591,-28.615722,-21.413833,-20.092806,1.037236,9.048695,18.311085,22.901596,-1.679557,13.895909,20.884221,23.404679,4.50824,38.58133,39.064625,30.451676,13.481026,45.586899,43.591999,34.662049,23.73975,49.376702,48.130291,41.348248,-27.745164,-54.071409,-75.55414,-90.50611,-60.256407,-83.585139,-98.359302,-112.230624,-49.092973,-68.366818,-57.906681,-51.853936,-35.316376,-53.562746,-44.191751,-38.672147,-21.104994,-38.549313,-33.253431,-27.68216,253.019434,-75.349303,-265.908331,-87.502556
63,-0.246391,5.30691,0.592507,-1.000703,-9.97657,-16.99514,-21.208672,-21.932831,-2.173805,-11.84166,-13.607689,-11.471306,-0.088371,-39.569916,-38.625206,-28.212524,-4.253265,-43.462624,-39.078621,-27.519859,-10.922035,-42.609421,-39.065323,-28.887611,-31.466108,-56.692476,-76.20857,-89.184681,-69.2597,-88.80889,-103.563681,-116.58739,-59.512493,-65.491224,-54.228798,-50.033629,-44.93525,-48.605997,-38.224172,-36.998463,-30.065818,-33.799878,-26.347536,-24.551821,1.020538,8.865257,18.018207,22.525154,-1.989155,13.836124,21.055,23.824539,4.218178,38.251922,38.904819,30.527012,13.196663,45.23299,43.407669,34.684776,23.470871,49.150886,47.898731,41.077034,-27.492203,-53.577618,-74.814493,-89.559281,-59.343365,-82.442302,-97.265633,-111.210025,-47.995424,-67.074662,-56.593604,-50.622734,-34.088957,-52.248836,-42.865558,-37.391313,-19.895896,-37.306943,-31.897045,-26.340089,252.766897,-70.122663,-265.32197,-88.583529
64,-0.148796,4.223327,0.218754,-0.842195,-11.023407,-19.170822,-25.451065,-28.200623,-2.800095,-12.338356,-14.374214,-11.931473,-0.863182,-39.758308,-39.191391,-28.586815,-5.153915,-43.426209,-39.629631,-28.431152,-11.984367,-43.047592,-39.942947,-30.047287,-32.190267,-56.870119,-75.180225,-86.012143,-72.459292,-93.679046,-108.105721,-120.689232,-63.183361,-70.27807,-58.581869,-54.174291,-48.928661,-53.299146,-42.60595,-40.946649,-34.109557,-38.064893,-30.100417,-27.696233,1.061348,8.856731,17.920589,22.441612,-2.054764,14.554241,21.769031,24.485916,4.261676,38.402561,38.708198,30.307972,13.224643,45.280906,43.169929,34.526001,23.441837,49.174152,47.597751,40.640945,-27.515694,-53.617265,-74.846473,-89.563585,-58.470036,-81.242133,-96.047014,-109.992736,-46.968796,-65.972584,-55.558779,-49.73527,-32.886602,-51.053589,-41.767426,-36.423085,-18.679105,-36.11479,-30.746549,-25.346111,252.617632,-65.994042,-265.103685,-89.52043
65,0.470535,4.351854,0.27103,-0.80073,-12.098648,-21.488388,-29.907211,-34.666878,-3.887512,-12.930885,-15.24044,-12.75959,-2.045288,-40.54763,-40.200691,-29.323128,-6.404915,-44.081268,-40.623459,-29.58934,-13.332229,-44.074562,-41.208687,-31.349212,-32.78866,-57.31546,-74.61628,-83.38879,-75.943685,-98.434516,-112.497966,-124.583945,-67.24702,-74.823443,-62.561843,-58.194101,-53.280188,-57.988046,-46.887106,-45.018415,-38.402742,-42.236862,-33.817409,-31.013749,1.094296,8.813931,17.907269,22.487389,-2.08675,14.823532,22.263348,25.228169,4.295746,38.354336,38.516785,30.126377,13.239487,45.283276,43.033035,34.428669,23.419006,49.201069,47.377991,40.26622,-27.33235,-53.344971,-74.465619,-89.126139,-57.510758,-80.216688,-95.034912,-108.909649,-45.899264,-64.923105,-54.53688,-48.682623,-31.703248,-49.910796,-40.661859,-35.274194,-17.479096,-34.873484,-29.4789,-24.130394,253.097202,-61.728824,-264.82362,-90.407796
66,0.237328,4.285121,0.195087,-0.460955,-13.363724,-23.960427,-34.133171,-40.258278,-4.440994,-13.170891,-15.751717,-13.304215,-2.653794,-40.786263,-40.695648,-29.701859,-7.168923,-44.448395,-41.495339,-30.736679,-14.326607,-44.971962,-42.380631,-32.596344,-33.369256,-58.014982,-74.815271,-82.233765,-79.310781,-102.890006,-116.731618,-128.541415,-71.102092,-79.699297,-66.92217,-62.471991,-57.529722,-62.777686,-51.256535,-49.209299,-42.789263,-46.84892,-37.828686,-34.547491,1.352932,9.229958,18.377198,22.846379,-1.996135,15.26825,22.821305,25.945302,4.235665,38.333313,38.465264,30.242386,13.055283,45.195042,42.845467,34.365269,23.232605,49.15313,47.164731,40.005547,-27.327657,-53.375067,-74.548515,-89.401499,-56.907426,-79.240021,-93.948852,-107.823314,-45.189065,-64.050772,-53.666755,-47.855772,-30.898035,-49.014195,-39.743899,-34.409713,-16.615967,-33.900241,-28.481426,-23.317177,253.346958,-57.512305,-264.616105,-90.937353
67,-0.964829,-2.42116,0.12616,-0.497615,-13.542824,-25.192268,-36.873642,-43.678917,-4.109367,-12.625534,-15.125908,-13.063293,-2.300972,-39.775108,-39.86808,-29.399894,-6.770897,-43.711235,-40.645981,-30.120346,-13.963188,-44.763565,-42.256622,-32.799179,-31.923481,-56.169607,-73.340696,-80.487769,-76.128412,-98.599794,-112.753267,-125.67751,-67.996324,-76.42046,-63.584016,-59.110934,-54.709222,-59.612242,-48.104898,-46.25414,-40.24785,-43.855309,-34.834476,-31.614754,1.537903,9.630913,19.014897,23.888203,-1.895199,15.867199,23.61113,26.932858,4.243916,38.453694,38.468846,30.313831,13.026581,45.312893,42.900604,34.502896,23.254154,49.320591,47.284962,40.132485,-27.23531,-53.285036,-74.31283,-89.103455,-56.239361,-78.25769,-92.913993,-106.783728,-44.512649,-63.213335,-52.901479,-47.132611,-30.084573,-48.085485,-38.901506,-33.573323,-15.639842,-32.863088,-27.64968,-22.701872,252.401916,-60.006142,-264.470158,-91.507645
68,-0.736427,-2.399349,0.369713,-0.567085,-13.345665,-25.306206,-37.312935,-43.980812,-4.374916,-12.643684,-15.041359,-13.324768,-2.417725,-39.65229,-39.655197,-29.455833,-6.753502,-43.434242,-40.263016,-29.892769,-13.746185,-44.373985,-41.921173,-32.690529,-30.234422,-54.054143,-70.932668,-78.08054,-73.505109,-95.198285,-109.602128,-123.081607,-65.313924,-73.216855,-60.344942,-55.937556,-52.11841,-56.639738,-45.256463,-43.667218,-37.833625,-41.164714,-32.273341,-29.325722,1.792419,9.926937,19.428783,24.400497,-2.031292,16.423714,24.208523,27.522068,4.082851,38.508808,38.070019,29.704685,12.868652,45.339821,42.56131,34.085621,23.131485,49.431759,47.140949,39.813732,-26.84811,-52.759889,-73.61572,-88.225694,-55.43877,-77.237178,-91.859422,-105.710129,-43.7624,-62.267096,-51.913065,-46.206472,-29.310025,-47.09444,-37.910835,-32.726768,-14.848436,-31.812293,-26.604609,-21.867717,251.692331,-62.449732,-264.073603,-92.118971
69,-0.415855,-1.749877,0.476292,-0.516141,-13.215798,-25.230309,-37.164437,-43.482857,-4.337975,-12.477974,-14.853287,-13.501763,-2.265725,-39.868882,-39.659569,-29.632714,-6.572869,-43.627099,-40.184349,-29.811928,-13.526688,-44.234414,-41.720421,-32.601105,-29.078572,-52.746406,-69.579404,-76.903849,-71.417773,-92.183346,-106.752769,-120.566543,-63.171894,-70.192573,-57.322895,-53.181913,-49.937639,-54.032889,-42.768805,-41.464945,-35.718723,-38.826442,-30.198088,-27.651205,1.66642,9.831768,19.5252,24.55656,-2.148583,16.443935,24.535778,28.173328,4.034774,38.412632,38.035835,29.74023,12.902984,45.268158,42.544338,34.145004,23.237606,49.493534,47.324478,40.095405,-26.427719,-51.989879,-72.512845,-86.842334,-54.536355,-76.43098,-91.056815,-104.863873,-42.848256,-61.433691,-51.013343,-45.152479,-28.439004,-46.357436,-37.16062,-31.897904,-14.010502,-31.034034,-25.943441,-21.315896,251.307936,-64.235724,-263.565851,-92.671227
70,-0.934571,-1.64077,0.709613,-0.503556,-13.48146,-25.257614,-36.78257,-42.75341,-4.348938,-12.171524,-14.403351,-13.280456,-1.848839,-39.573509,-39.51345,-29.818542,-5.886039,-43.310943,-39.782799,-29.316559,-12.70665,-43.611007,-41.148994,-32.063415,-27.905376,-51.054327,-67.713517,-75.243609,-69.294432,-89.500168,-104.241396,-118.288203,-61.069645,-67.291759,-54.275352,-50.108366,-47.882239,-51.222949,-39.892014,-38.77338,-33.750448,-36.286099,-27.723015,-25.457151,1.662816,9.802792,19.545262,24.844609,-2.427372,16.948426,25.089673,28.649094,3.930554,38.433896,37.789605,29.400147,12.875405,45.188633,42.285897,33.87822,23.239563,49.421025,47.175282,39.933335,-26.106222,-51.520289,-71.854129,-85.846945,-53.65242,-75.518778,-90.120663,-103.773911,-41.929178,-60.598097,-50.291064,-44.390902,-27.531952,-45.574595,-36.506066,-31.210085,-13.167948,-30.272337,-25.370064,-20.812544,250.402239,-65.907437,-262.827364,-93.205726
71,-1.085884,-1.2362,1.111851,-0.253424,-13.390571,-24.912597,-35.951202,-41.711586,-4.318313,-12.303268,-14.581329,-13.556122,-1.435203,-39.276787,-39.357582,-29.843262,-5.20871,-42.981697,-39.337669,-28.716156,-11.893226,-43.062446,-40.525886,-31.37297,-27.019424,-49.758044,-66.28606,-73.954236,-67.353719,-86.973338,-101.739476,-115.867279,-59.095528,-64.410419,-51.596595,-47.546472,-45.838597,-48.107659,-36.866688,-36.029834,-31.681333,-33.444832,-25.054995,-23.12109,1.518242,9.513645,19.25457,24.818161,-2.66209,16.867779,25.211151,29.038616,3.898499,38.268048,37.391808,28.975685,13.007378,45.035122,41.997082,33.687676,23.465149,49.275616,46.903187,39.735924,-25.852223,-50.854971,-70.757586,-84.273881,-52.612743,-74.650712,-89.371359,-102.923333,-40.995697,-59.951792,-49.857193,-43.927563,-26.763647,-45.111532,-36.187402,-30.847245,-12.55865,-29.74957,-24.996906,-20.561825,249.347339,-67.171375,-261.684529,-93.486888
72,-1.465141,-1.181317,1.711464,0.170135,-13.145577,-23.687393,-32.999313,-37.194077,-3.951027,-12.778221,-15.047379,-14.095894,-0.821045,-39.34671,-39.535423,-30.151428,-4.354225,-42.853066,-39.175072,-28.363747,-10.881638,-42.585182,-39.96666,-30.789711,-27.31556,-50.383624,-67.914968,-77.552447,-65.262222,-83.771291,-98.497894,-112.710297,-56.553534,-61.169773,-48.808081,-44.753388,-42.962231,-44.544567,-33.607451,-32.9578,-28.658298,-30.099855,-22.106876,-20.437818,1.291866,9.18821,19.013592,24.99456,-2.692371,16.760044,25.291386,29.468468,4.01778,38.03167,36.828266,28.421471,13.226704,44.869663,41.500271,33.269646,23.711563,48.963524,46.255016,39.176571,-26.013701,-50.628153,-70.053039,-83.018399,-51.484971,-73.616504,-88.434701,-101.959434,-39.825885,-58.940546,-49.213285,-43.370019,-25.749767,-44.259781,-35.615569,-30.366506,-11.813638,-28.9249,-24.341105,-20.155254,247.910179,-68.391601,-259.945084,-93.355662
73,-1.928284,-0.481579,2.25975,0.813117,-12.222702,-22.967537,-32.848137,-37.456215,-3.797882,-13.44825,-16.106804,-15.49942,-0.922966,-39.221695,-39.249985,-29.910965,-4.527191,-42.818458,-38.648758,-27.586464,-11.070328,-42.531463,-39.534782,-30.218559,-26.794572,-49.01697,-65.719562,-74.987659,-62.601206,-80.834235,-95.700334,-110.046814,-53.590564,-57.896828,-45.964296,-42.014486,-39.883269,-41.278897,-30.726134,-30.059779,-25.551505,-26.948435,-19.330089,-17.661723,1.05708,9.28521,19.71111,26.552491,-2.612548,16.634503,25.49445,30.253018,4.136788,37.984784,36.683648,28.328843,13.449875,44.956719,41.40477,33.211052,23.993832,48.756741,45.897709,38.953057,-25.984975,-49.908434,-68.356196,-80.493947,-50.235689,-72.708566,-87.651341,-100.990573,-38.517036,-57.874931,-48.459263,-42.679841,-24.615388,-43.388448,-34.978564,-29.807782,-10.990906,-28.079573,-23.601322,-19.622002,246.004566,-68.921327,-257.662663,-92.590692
74,-2.486297,0.727185,3.101716,1.796381,-11.434662,-22.949364,-33.955582,-38.985375,-4.105179,-14.968117,-18.467423,-18.725373,-1.541428,-39.583947,-39.525834,-30.270836,-5.206948,-43.406937,-38.825684,-27.542588,-11.786454,-43.182312,-39.894585,-30.356278,-26.299247,-47.489592,-62.552695,-70.37675,-60.097588,-78.179575,-92.971133,-107.396779,-50.689505,-54.492892,-43.032188,-39.391013,-36.714831,-37.881506,-27.878934,-27.290088,-22.1208,-23.487757,-16.385823,-14.639522,0.874122,9.48135,20.661071,28.576297,-2.463696,17.025329,26.080009,31.289268,4.277561,37.788539,35.962211,27.6427,13.750866,44.885284,40.78062,32.77177,24.485183,48.365627,44.989345,38.209922,-26.198699,-49.690704,-66.97278,-77.982255,-49.036283,-71.534348,-86.678636,-100.040499,-37.176965,-56.62196,-47.647164,-42.223351,-23.48425,-42.413811,-34.355487,-29.445307,-10.226665,-27.114315,-22.81779,-19.170613,243.539944,-68.35318,-254.539272,-90.953349
75,-3.900719,1.889835,4.12714,2.992851,-10.060684,-22.416321,-34.621651,-40.079682,-4.570358,-17.371834,-21.916123,-23.290833,-2.747223,-40.418083,-39.596649,-30.340347,-6.552979,-44.278862,-38.899658,-27.557121,-12.959129,-44.004936,-40.100556,-30.374062,-26.391336,-46.791752,-60.321208,-66.85003,-57.53234,-75.136654,-89.496299,-103.720302,-47.336341,-50.613312,-40.02905,-37.243131,-32.827439,-34.027355,-25.045659,-24.79765,-17.896517,-19.567687,-13.397326,-11.812885,0.847766,9.980026,21.852436,30.418235,-1.57552,17.836177,27.208259,33.193565,4.860878,37.939144,35.887138,27.843063,14.316707,45.038852,40.526081,32.730136,25.120411,48.051075,44.229469,37.606899,-26.243443,-49.264586,-65.283665,-75.012785,-47.86234,-70.187624,-85.360796,-98.701361,-35.666791,-54.74928,-46.207638,-41.240324,-22.043125,-40.552607,-32.930262,-28.539589,-9.004,-24.974194,-20.919088,-18.026001,239.646835,-66.800441,-250.404522,-88.297594
76,-3.393814,9.26715,5.555351,4.707296,-11.165817,-24.159874,-36.481751,-42.333206,-8.015763,-23.813553,-30.394318,-32.793732,-6.262505,-45.13543,-43.337952,-33.074387,-9.903694,-48.490036,-42.445404,-30.659523,-15.917313,-47.324684,-42.827751,-32.672699,-28.781911,-51.018784,-65.331665,-72.883425,-61.292271,-79.543661,-92.082987,-103.597086,-50.153895,-52.133755,-41.783954,-39.778727,-34.497998,-35.242628,-26.703546,-26.851735,-18.487259,-20.342006,-14.742948,-13.512886,0.824924,10.578987,23.209339,32.312576,-0.422585,19.236523,28.7631,35.213081,5.837562,37.707939,35.188957,27.479885,15.192295,44.693104,39.667477,32.166241,25.872002,47.192127,42.867199,36.496113,-26.130391,-48.589503,-63.37723,-72.074071,-46.450315,-68.497404,-83.343954,-96.27625,-33.932191,-52.565251,-44.362944,-39.55552,-20.309359,-38.288291,-30.981454,-26.924094,-7.332639,-22.303026,-18.445972,-16.089002,236.222059,-58.081483,-244.880133,-84.13849
77,-4.863602,11.815552,7.001804,5.829992,-12.371246,-27.060104,-41.219925,-49.564064,-12.501732,-31.221451,-40.483108,-44.700096,-11.066276,-49.909813,-47.4058,-36.750435,-14.495499,-52.572693,-45.97689,-34.140221,-20.0877,-50.884071,-45.820129,-35.588264,-29.666244,-52.896002,-66.838609,-73.901525,-64.155029,-83.479706,-94.358217,-103.505717,-52.560123,-53.668345,-43.099991,-41.539638,-36.061111,-36.831614,-28.374092,-28.286135,-19.044068,-21.2801,-15.95706,-14.609975,0.686028,10.954674,23.900173,33.162987,2.354359,21.814087,31.107147,37.644379,8.491905,37.551762,33.796898,26.304611,17.244107,43.91296,37.707138,30.308464,26.910244,45.710095,40.624649,34.35458,-25.543842,-47.005951,-60.603673,-68.56155,-44.76409,-66.061721,-80.113218,-91.965432,-32.1819,-49.176907,-41.154744,-36.210948,-18.5106,-34.665499,-27.623269,-23.787314,-5.388421,-18.310572,-14.696882,-12.781026,231.260822,-46.911072,-237.975964,-78.953639
78,-6.084457,14.277103,8.634247,6.696937,-14.626877,-30.877396,-45.533295,-54.893212,-18.083062,-39.831665,-51.260926,-57.052025,-16.327309,-55.901642,-52.511216,-41.678215,-18.967438,-57.845101,-50.62928,-38.82779,-23.857544,-55.465416,-49.869553,-39.622788,-30.861831,-55.582651,-70.785788,-79.580288,-66.752406,-85.300053,-94.256172,-101.123942,-54.588476,-54.09023,-43.112421,-42.020544,-37.048457,-36.667333,-27.999156,-28.045741,-18.903598,-20.795168,-15.572596,-14.321644,1.831764,12.492691,25.315956,34.284725,5.983395,24.832512,33.864166,40.328671,10.875332,36.71188,33.135132,26.683113,17.795437,41.455719,35.773796,29.299255,25.439014,41.512962,36.948063,31.408207,-24.780903,-44.668565,-57.320724,-64.904737,-41.910294,-61.50119,-74.26396,-85.145296,-29.355343,-43.465133,-35.724608,-30.554597,-15.586736,-28.710088,-21.776844,-17.951684,-2.183593,-11.961771,-8.357084,-6.697672,225.211161,-33.495134,-229.306921,-73.117867
79,-7.624512,16.292352,6.202091,18.185917,-16.737305,-34.279129,-48.815941,-58.735817,-25.270798,-49.513161,-62.878555,-69.825325,-23.202118,-62.842278,-58.922653,-48.084343,-24.657463,-63.479805,-55.996033,-44.316582,-28.321838,-59.844612,-53.984459,-44.038651,-31.419153,-57.297917,-73.88057,-84.893028,-67.815599,-84.969469,-91.967769,-96.496838,-55.46167,-53.194942,-41.874362,-40.897811,-37.178274,-35.073191,-26.297358,-26.505759,-18.07563,-18.5734,-13.701799,-13.161576,4.350495,17.080799,31.091343,40.754608,10.49683,31.877976,41.608773,47.726773,14.835228,42.079949,38.220578,31.345482,20.99651,45.974808,39.92284,32.766918,27.929318,45.386708,40.479298,34.352955,-27.136929,-48.653002,-62.608274,-71.453032,-46.327981,-65.583659,-76.214137,-84.494411,-33.119988,-45.377723,-37.450125,-32.389543,-18.514552,-29.908448,-22.634194,-18.84593,-4.225118,-12.891072,-9.053759,-7.315862,217.934366,-17.971559,-222.757113,-55.700727
80,-8.2351,19.657774,6.078541,19.941443,-18.383125,-37.708923,-53.035583,-63.889183,-32.58316,-60.669525,-76.542137,-85.276863,-30.563186,-71.060852,-66.90184,-55.871315,-31.243377,-70.365486,-63.060196,-51.230209,-34.014908,-65.543175,-59.996612,-50.467094,-31.365343,-57.851762,-75.747285,-89.576284,-68.29125,-83.153006,-87.969442,-90.333825,-55.777893,-52.290909,-40.943641,-39.774471,-37.044473,-33.652832,-24.703993,-24.384157,-17.004575,-16.67526,-12.071168,-11.508566,7.450825,22.261402,37.296627,47.173622,16.005959,41.054558,50.827641,55.407211,19.83205,48.809601,44.542042,36.537746,25.189087,51.486282,45.308178,37.35133,31.217869,49.847637,44.837071,38.080124,-28.511542,-51.042458,-66.648038,-77.223102,-49.283689,-67.431728,-75.216077,-80.939544,-35.681654,-46.776647,-38.454538,-33.419409,-20.262873,-31.079155,-23.110493,-19.110271,-4.855565,-13.410683,-9.042063,-6.72026,210.326849,1.024211,-216.050989,-36.421288
81,-10.099708,16.049994,6.781517,22.072104,-15.649796,-35.062615,-50.514176,-61.129853,-37.493271,-67.899262,-85.086365,-95.484078,-37.561501,-77.696572,-73.433464,-63.287041,-38.121849,-76.032944,-68.828843,-57.444031,-39.778794,-70.427056,-65.270096,-56.352333,-30.356008,-54.992039,-71.266484,-83.392832,-61.750936,-72.960217,-77.276688,-80.038346,-48.284641,-44.357729,-33.857219,-32.256352,-29.436575,-25.48939,-17.506192,-16.509608,-9.363536,-8.464184,-4.629947,-3.795933,10.262398,27.45472,43.640293,52.917515,21.440941,49.387299,60.153225,64.714565,24.723484,56.275864,52.206585,43.046814,29.129402,57.820839,52.145474,43.164745,34.13514,55.037979,50.401188,42.744255,-29.851903,-53.201907,-70.558114,-83.293111,-52.234056,-68.668088,-74.527233,-78.706757,-37.978677,-47.022957,-38.814357,-34.240807,-21.667027,-30.851944,-22.809669,-19.003257,-4.983486,-12.760438,-8.366106,-6.056017,200.957131,16.26256,-208.539482,-15.160829
82,-9.799141,16.962258,6.544327,24.836726,-12.93528,-31.038437,-44.805199,-53.491082,-42.818367,-73.843346,-91.58741,-103.532845,-43.507256,-81.662155,-81.815621,-76.940964,-42.412606,-78.436524,-76.167092,-69.815415,-41.19738,-70.139397,-69.155915,-64.505059,-29.804089,-53.219636,-69.037374,-81.074506,-54.133159,-61.494333,-65.274162,-68.216001,-39.552874,-35.114662,-26.974723,-25.68065,-21.192389,-16.367527,-10.020659,-9.106691,-2.379725,0.403397,3.784535,4.533271,13.675861,33.315479,50.789371,60.237625,26.318275,56.545051,68.654949,74.085457,28.945907,63.463508,60.51091,51.156452,32.519314,64.573368,59.727779,50.401943,36.952824,60.848019,56.834427,48.786632,-31.363615,-55.932294,-74.456152,-88.375584,-53.878377,-69.485707,-74.140632,-77.398695,-38.863955,-48.10882,-40.524313,-36.575269,-21.987395,-31.485732,-23.68681,-20.127757,-4.543138,-12.953384,-8.763933,-6.442013,191.714716,32.38592,-201.438429,8.836999
83,-13.374001,21.071353,6.304836,28.011315,-14.398773,-34.193779,-49.212639,-58.583725,-52.529686,-85.742065,-102.830063,-113.496002,-53.497421,-89.879402,-89.840355,-85.108337,-51.072143,-83.907715,-81.675934,-75.314918,-47.335213,-73.227836,-72.369049,-67.768272,-29.190038,-49.610053,-62.882168,-72.435284,-46.802898,-48.908507,-49.270562,-50.136339,-31.09434,-22.833586,-15.670291,-14.813758,-12.813476,-4.88581,0.251256,0.406737,5.282914,10.735346,13.404279,13.208252,15.642929,37.006119,55.116051,64.940003,29.872925,61.555172,74.495339,81.031037,32.895104,69.821766,69.350201,62.047875,36.688294,71.577622,67.284119,58.219105,41.120888,67.802559,64.033539,55.972447,-32.911037,-59.582534,-79.318281,-93.880893,-55.64526,-72.399907,-76.834358,-79.827364,-39.977192,-51.658672,-45.251493,-41.846143,-22.824466,-34.245105,-27.718031,-24.591256,-5.210364,-15.483262,-12.696015,-11.005035,178.670648,52.606263,-194.80366,35.997304
84,-11.549995,22.582341,10.568625,20.825653,-17.108162,-38.536469,-55.042282,-66.09066,-61.153473,-95.634728,-112.854904,-123.847641,-61.823914,-97.357544,-99.958145,-97.715103,-58.294327,-89.497605,-89.887276,-85.681801,-52.499909,-76.729477,-78.273789,-75.565407,-28.745205,-46.328086,-57.017909,-64.835827,-39.390513,-36.579178,-34.032708,-32.786449,-22.543581,-12.548554,-5.511953,-3.736832,-4.687325,4.238746,9.359152,10.40053,12.397742,18.756361,21.588161,21.800742,17.133459,39.330677,56.920011,65.349517,35.248243,67.239681,78.998371,84.817897,37.535505,74.063478,74.820894,68.904602,39.924516,74.556724,70.945781,62.559396,42.603126,69.338413,65.969667,58.270837,-30.847047,-55.914127,-74.953845,-89.575475,-49.906763,-63.952113,-67.30458,-70.553791,-33.90682,-44.39385,-39.15513,-36.140978,-16.554992,-26.608932,-21.522744,-18.976534,1.375726,-7.609975,-6.129484,-5.330582,167.166613,74.172603,-184.189075,55.806956
85,-9.687401,22.95742,12.120288,23.101558,-20.846031,-44.0896,-61.64344,-74.061653,-68.999451,-102.902618,-120.170311,-131.561279,-68.584831,-103.155533,-110.497032,-112.993332,-63.426773,-93.877853,-99.327278,-100.250176,-55.166748,-78.550003,-83.93914,-85.48803,-29.179515,-43.638831,-50.938199,-56.018325,-32.563888,-25.684145,-20.695743,-17.11081,-14.679585,-2.792255,4.804281,8.382761,2.770896,12.965142,18.663649,20.977548,18.471037,26.405471,30.080738,30.879177,18.408709,42.150582,59.897479,67.114174,41.685053,75.16372,85.401158,89.590188,43.101271,80.532996,80.522192,74.431504,43.920359,79.253598,75.051339,66.447653,44.921666,72.930268,68.831217,60.80012,-29.534783,-53.236475,-71.377835,-86.412057,-45.245317,-55.187118,-56.719627,-59.275949,-28.396319,-35.076448,-30.6911,-28.321746,-10.37506,-16.77571,-13.085638,-11.310104,8.146707,1.755327,1.973052,1.776927,157.251412,95.991126,-172.296587,77.769617
86,-15.001419,24.886478,9.980095,22.95248,-25.752503,-51.973526,-71.952782,-86.248879,-74.961228,-108.855354,-124.833424,-134.827355,-72.153511,-106.015801,-117.141827,-122.421227,-65.108025,-95.448921,-105.293015,-109.559715,-55.263291,-78.965378,-87.919235,-92.792999,-26.788724,-38.223684,-43.291206,-47.771662,-24.482136,-12.900741,-5.393589,-0.533109,-6.540146,8.788455,16.627484,20.145177,10.335482,22.984479,29.235128,31.565212,24.875987,35.017239,39.399184,40.190497,21.337378,46.166726,63.716429,72.059864,48.790095,82.416035,93.072396,97.868214,47.769179,84.80686,89.199663,87.709706,45.888972,81.332886,81.773026,77.549441,43.958096,72.290234,71.81016,67.538733,-28.489929,-50.287442,-67.180228,-81.161012,-37.862759,-43.701609,-43.870416,-45.500482,-21.101051,-24.772317,-21.77339,-20.966111,-3.859206,-6.71448,-4.936868,-5.008295,13.377492,10.420089,9.398391,7.582089,141.903654,119.99729,-162.662831,99.841783
87,-13.372307,25.122507,9.984066,23.929538,-31.517647,-61.747353,-85.923134,-103.434425,-79.511398,-113.926804,-128.791008,-136.937313,-75.598595,-110.715729,-121.443409,-125.430588,-68.555122,-100.015869,-109.706428,-113.462208,-59.275978,-83.729668,-92.526604,-97.578781,-24.737857,-32.127066,-32.981222,-33.371182,-19.065155,-4.435192,5.546435,12.16895,-0.76978,17.468401,27.48672,32.056961,16.452292,31.493482,39.282173,42.104438,31.132668,42.467333,47.586788,48.394792,24.328989,49.300438,66.563055,76.094422,54.516547,87.670006,99.224934,105.312104,50.848669,86.33784,93.931315,96.325219,45.989657,78.764969,81.626667,79.821013,41.099511,66.674172,67.668864,65.079203,-26.481843,-46.045534,-62.486628,-76.990852,-31.98751,-33.731412,-31.614287,-31.544599,-16.538276,-16.181186,-13.227108,-13.037062,-0.972547,-0.504081,0.799449,-0.225028,14.020691,14.070341,13.085996,10.565345,128.409491,144.236909,-152.800621,122.888433
88,-8.334595,21.567252,12.162758,24.836794,-33.323959,-63.677925,-88.046356,-105.660827,-78.644119,-110.878372,-126.25328,-135.968319,-74.115188,-108.708229,-124.324379,-132.741977,-67.134224,-99.206566,-114.254585,-122.836315,-58.203483,-83.293716,-96.242386,-105.900009,-22.985665,-28.665906,-27.571071,-26.585732,-12.935674,1.182594,10.329646,16.143064,5.54447,21.984641,32.365601,37.972897,22.32533,36.198264,44.952694,49.231479,36.029179,47.283896,53.755685,56.035547,25.913985,52.18776,69.802374,79.333111,63.970293,100.907879,112.132359,115.787121,58.491869,96.935938,104.091437,104.368355,51.124106,85.730393,90.604683,89.319174,43.284405,70.373268,73.713908,72.373209,-24.910264,-41.506293,-56.898543,-71.998177,-23.99742,-17.352258,-11.602899,-9.509928,-7.931862,1.149154,6.161317,6.274231,7.539691,15.59351,18.774111,17.960462,22.062817,27.823436,28.830505,27.001717,120.010374,165.111238,-140.702385,147.032304
89,-12.261886,22.427725,8.763914,23.572016,-32.7575,-63.393036,-88.129097,-105.351174,-76.350701,-111.988507,-126.405957,-134.088433,-73.338707,-111.987877,-128.226963,-135.586338,-67.817116,-103.587399,-120.048867,-128.773339,-60.372666,-88.28516,-102.516403,-112.639035,-16.97094,-18.168237,-13.756072,-9.745784,-2.69075,8.04556,12.544213,14.699438,12.636876,24.306246,28.96261,30.326343,25.309876,34.78602,38.350525,38.95048,34.283692,42.091044,45.017853,44.881767,28.612965,55.823708,74.406224,84.604466,67.952271,105.114041,118.496384,124.469147,60.69357,99.841359,110.629773,113.975899,51.837365,87.086758,96.962471,99.862999,42.705746,70.286854,77.386769,79.696804,-23.525808,-37.80498,-51.940063,-66.432952,-16.184666,-4.317392,3.309562,7.378371,-0.030857,13.739855,20.34103,21.880776,14.705774,27.323865,31.983391,32.338937,27.917472,37.691624,40.300789,39.870981,107.685047,186.961627,-132.001912,170.026984
90,-10.916588,20.009974,7.185608,21.808047,-32.838867,-63.370903,-88.60643,-106.452026,-74.186554,-112.448719,-126.094414,-131.807785,-72.444878,-113.828144,-130.345688,-136.789719,-68.393463,-106.356743,-123.5663,-131.972672,-62.546906,-92.028053,-106.931419,-117.01157,-14.867808,-15.784604,-11.141121,-6.329047,3.851163,10.607782,9.766371,7.375321,19.718956,27.117347,26.175283,22.75552,32.0599,38.990803,38.030954,34.378615,39.739823,46.950085,47.698945,45.286961,30.500691,57.983105,76.793347,89.331299,68.065235,101.461796,118.239476,129.240555,58.987072,95.783604,112.673813,121.955098,48.969681,82.323738,98.246144,106.689698,38.762238,64.470143,76.540879,83.650967,-22.004889,-33.903854,-46.632911,-60.274997,-8.19155,5.557203,13.455353,18.67845,7.171384,22.972326,30.310041,33.370256,20.048185,35.451035,41.287424,43.061921,30.723683,43.81624,47.925162,48.899188,96.759344,206.495885,-124.825419,191.359315
91,-3.670876,15.891974,8.839737,22.540777,-34.873489,-65.822845,-91.639549,-110.816665,-73.735405,-112.612873,-127.317707,-133.872425,-72.674148,-114.8619,-132.980644,-141.032661,-69.732788,-108.619068,-127.267021,-137.347137,-64.934097,-94.346718,-110.183143,-121.563434,-13.715643,-13.466875,-7.795853,-2.975418,9.073655,12.234029,7.306445,1.867852,25.024528,28.316393,23.478507,17.107915,36.666889,41.476036,37.570668,31.182933,43.013559,49.929642,49.644442,46.061498,30.439327,58.293091,77.644524,90.945271,68.960312,104.092552,119.816002,128.24453,60.203121,99.33133,114.402226,120.568234,50.55629,85.66737,99.323982,104.62928,40.950268,68.188763,79.19569,83.918507,-21.17571,-31.257243,-42.743128,-55.992025,-1.390755,16.323685,22.134658,25.200022,15.076364,33.714787,38.269349,40.03362,27.938196,45.176874,48.972844,49.903682,37.537211,51.727999,54.54062,55.14854,93.122835,221.92278,-115.951315,213.435013
92,-3.626609,14.270113,5.91275,17.415642,-36.452614,-67.799126,-93.154702,-112.702366,-73.736527,-112.243241,-127.517533,-134.452275,-72.993851,-114.947159,-133.316231,-141.073449,-70.775071,-109.928456,-128.886773,-138.560761,-66.73629,-96.52121,-112.496659,-123.341515,-11.86097,-10.816091,-5.009181,-1.490284,15.373803,17.887699,10.639769,2.975481,30.837798,32.403788,23.919677,14.354587,41.168024,44.858229,37.673531,28.302351,45.719314,52.619947,50.604401,45.607928,30.671277,60.220391,80.912591,94.14996,70.760766,107.92836,122.42585,128.76931,62.389927,104.278622,119.791718,124.771775,53.549321,91.867619,107.147656,112.565209,44.723889,74.937539,87.96587,93.693478,-19.49011,-27.768345,-37.462036,-49.751208,6.147562,27.072109,33.053588,35.65307,24.757185,45.731503,49.851478,50.945807,38.63128,58.321436,61.548254,61.790735,48.288872,64.595599,67.188808,67.515492,89.541499,235.813029,-109.993292,230.470791
93,-3.334031,12.215602,1.937336,12.88699,-37.928672,-69.533844,-94.202797,-113.721691,-75.292167,-112.994831,-126.504089,-131.265564,-74.271286,-115.834076,-131.504264,-135.797779,-72.05159,-111.537906,-126.695045,-131.768806,-68.421409,-98.372726,-111.999687,-119.160553,-6.71821,-3.007331,3.312577,6.949503,23.215772,26.328178,18.65748,10.40928,35.053449,36.421456,27.110136,16.336183,41.720728,44.790773,36.706495,26.090945,42.775894,48.712196,45.948371,40.575282,32.851811,63.262345,85.327481,99.689427,69.39116,104.430439,119.999714,128.97733,60.512192,100.474343,117.91634,126.436696,51.988289,88.542435,105.01767,112.686047,44.151341,72.619309,85.877083,93.107666,-17.327697,-24.490646,-32.728225,-44.569805,10.17979,30.319465,36.325532,39.940734,28.882483,48.020294,51.51207,53.104045,42.504649,60.696481,63.295728,63.51509,51.329474,67.258265,69.444229,69.737902,86.240787,247.646254,-108.022637,242.975404
94,0.387818,8.007843,3.975255,10.217075,-39.66417,-71.249359,-94.577042,-113.513821,-77.70147,-109.124565,-120.741177,-125.04871,-74.742119,-109.721443,-122.330693,-125.152439,-71.077309,-105.428169,-116.811562,-119.262554,-66.353691,-92.233578,-103.329827,-108.840214,-5.994446,-2.690366,2.470894,5.179279,23.733154,30.825942,27.593901,22.312141,35.589826,42.129404,38.29069,30.993335,43.064948,51.217311,48.409174,40.950786,45.280293,55.187702,56.659276,54.516265,33.186458,63.662647,85.999294,101.727928,70.269001,103.973052,119.26625,128.181678,60.841083,99.193267,116.506027,125.442535,51.633087,86.335235,102.063022,109.555549,43.027908,69.819213,82.800956,89.956146,-15.262738,-21.071192,-27.946051,-39.696376,14.041821,33.92659,39.974796,43.432757,32.716122,51.613353,54.710692,55.674097,45.937045,63.918308,66.251498,65.820888,54.110811,70.098685,72.038389,71.645607,86.590737,255.32288,-104.08525,252.861262
95,-1.279015,6.428193,4.106128,7.799546,-38.97361,-70.101219,-91.778869,-108.438251,-79.711899,-105.348965,-113.65591,-116.272144,-75.86364,-104.104133,-111.241035,-109.990379,-71.433014,-99.370685,-103.905258,-100.860363,-66.151199,-86.708084,-92.596687,-93.204906,2.207306,8.92338,15.081489,18.868098,28.466385,40.000312,42.16354,40.502713,35.147137,46.83276,48.608072,44.846916,38.523748,50.28635,52.039234,47.77995,37.781311,49.598709,53.650018,53.781756,33.239044,63.350899,86.143341,101.967716,71.515549,105.592152,120.402546,128.493405,61.979988,100.439038,117.312252,125.921986,52.246479,86.988808,102.000836,108.994961,43.057537,69.781437,82.200566,88.797741,-13.974958,-18.70131,-24.115586,-35.276195,17.243531,37.700072,43.690627,46.70979,36.315973,55.234126,58.281694,58.744674,49.573811,67.294142,69.319518,68.13459,57.481149,73.064088,74.564512,73.387796,85.161953,261.47264,-100.128891,260.382375
96,-2.400078,6.192641,2.959889,3.937787,-37.100601,-67.826683,-88.21344,-102.681461,-82.265625,-102.262745,-103.140918,-100.574867,-77.969375,-99.3078,-97.308757,-89.112098,-72.886024,-93.840362,-89.661873,-79.728618,-66.949402,-82.767036,-82.609176,-77.58807,11.400953,21.010244,28.014964,33.435699,30.945132,46.051259,52.583859,54.19079,32.333948,48.221613,55.102387,54.947529,31.681555,46.527552,52.353654,51.277196,28.109429,41.415989,47.487524,49.609033,33.692218,63.435287,86.668373,102.761535,70.472637,101.675468,117.619812,128.825958,60.247318,95.569198,114.562843,127.063614,49.859951,81.614055,98.666519,109.413093,40.03886,64.238605,77.60004,86.975944,-11.981531,-15.91912,-19.96108,-30.880788,18.166304,36.780805,46.236979,52.617304,36.574917,54.865142,62.43016,66.160034,49.513444,67.240999,73.199605,74.678132,57.381595,73.319092,77.617563,78.363743,82.56839,267.461879,-97.362487,264.11676
97,-3.72821,6.417992,4.831741,4.719349,-34.24601,-64.264572,-83.741043,-96.662956,-83.517426,-98.869583,-92.523182,-85.065914,-78.996575,-94.029648,-83.653072,-69.525513,-73.298493,-87.787972,-75.348885,-59.229309,-66.633408,-77.983452,-72.214439,-62.261536,18.187089,30.093371,37.920471,44.956288,31.472826,47.801129,56.685334,60.315431,28.675298,45.815903,56.516755,59.637053,24.896765,40.531327,49.619988,51.643042,19.368943,32.843092,40.370974,44.266388,33.148888,62.064983,85.19133,101.622414,68.54068,98.312851,115.008408,127.405975,57.984535,92.021988,111.847343,126.079697,47.255047,77.836452,95.58989,108.255295,37.141457,60.610188,74.068153,84.624069,-11.829427,-15.336468,-18.381356,-28.966068,17.874546,35.517973,45.432298,52.652551,35.890241,53.675249,62.438596,67.766496,48.667884,66.219882,73.533107,76.643834,56.787853,72.480374,77.417183,79.056039,78.597393,273.737483,-92.773533,268.693721
98,-5.232765,5.721274,5.133694,4.577669,-30.173859,-59.288887,-78.366257,-90.662522,-81.979935,-92.354473,-81.376911,-70.922287,-77.976883,-86.646744,-70.890679,-53.322052,-72.219773,-79.909539,-63.263878,-45.167679,-64.89711,-71.054375,-61.684433,-49.857216,21.88957,34.40728,42.537401,50.147114,30.077317,47.008539,56.377805,60.479626,25.52909,43.259436,54.864068,59.156796,20.463074,37.046246,46.63438,49.697547,14.493711,28.922139,36.276181,40.212498,31.936912,60.094413,83.110576,100.007114,65.972545,95.503658,112.365749,124.828525,55.298675,89.307163,109.331989,123.480297,44.524807,75.31295,93.301655,106.288227,34.490398,58.302875,71.948021,82.662632,-12.285108,-15.422931,-17.811301,-27.70305,17.562151,35.182755,44.783017,51.500178,35.561556,53.297423,61.695652,66.440233,48.152194,65.624522,72.509878,75.226674,56.11901,71.286257,75.707018,76.86758,73.110604,279.367608,-87.893863,273.180241
99,-6.168503,5.788002,3.737034,3.914779,-25.716362,-52.952637,-70.954193,-81.861054,-77.921333,-82.997601,-67.72617,-54.574837,-75.158913,-78.024834,-58.421654,-38.548142,-69.997765,-71.861893,-52.004723,-32.628456,-62.741089,-65.161423,-52.83712,-39.525375,20.319257,31.786333,39.704008,47.072722,26.963762,43.930898,52.749968,56.470344,23.055368,40.251685,51.235502,55.755151,18.611747,34.624012,43.18441,46.384192,13.620153,27.749783,33.701992,36.94626,30.687274,58.343124,81.448493,98.581649,63.624733,93.522125,110.421913,123.019775,53.373413,87.904724,108.092399,122.245742,43.07817,74.617092,92.909065,106.133811,33.592014,57.961418,72.037616,83.132698,-12.870144,-15.6685,-17.452297,-27.010445,16.69147,34.40255,43.626839,49.950476,34.781339,52.335512,60.225029,64.284525,47.392107,64.738761,71.045096,73.150477,55.26962,70.146381,74.089737,74.660027,66.659912,285.08502,-84.439018,277.02443
100,-7.717369,7.370628,2.693916,3.009382,-20.401314,-43.557953,-59.060555,-68.271538,-68.695954,-69.417664,-51.598183,-36.661354,-67.286957,-65.946293,-44.379067,-23.570297,-62.998741,-61.552689,-40.878113,-21.763619,-56.332352,-57.357948,-44.68277,-32.000176,12.44561,20.403089,27.063143,33.167764,19.561123,34.427621,41.894444,45.255765,19.246405,33.696558,43.361053,47.921753,18.099688,31.491487,38.609445,41.771535,16.397192,28.119088,32.536033,35.190078,29.857532,57.123722,80.425506,97.871612,61.71793,91.960304,108.841873,121.558021,51.92316,86.810028,107.009514,121.066864,42.115608,74.286918,92.811882,106.133148,33.106842,58.058361,72.616321,84.17427,-13.150776,-15.732153,-17.006953,-26.183484,15.780429,33.504402,42.448925,48.48898,33.883414,51.146421,58.692544,62.17523,46.579978,63.767365,69.672162,71.251157,54.572396,69.22336,72.810046,72.929941,58.676932,292.430787,-82.010713,280.008951
101,-10.953301,3.910172,1.945232,2.297411,-15.465751,-34.421745,-47.875991,-56.323837,-59.945434,-54.38491,-35.994323,-21.521255,-60.593891,-52.606315,-31.176086,-10.900406,-57.787639,-51.567764,-30.395599,-11.718452,-52.333362,-53.614586,-43.688987,-33.613369,3.469731,8.30133,13.964102,19.287148,14.768624,29.274981,35.283728,37.912357,18.875026,31.725151,39.357638,42.991205,21.026694,32.480778,37.267534,39.76109,22.386068,32.319215,35.673546,38.394726,29.149327,55.984909,79.313175,97.004185,60.071091,90.592907,107.437901,120.230198,50.671829,85.849148,105.952801,119.92432,41.284664,73.90511,92.588986,106.027165,32.654915,57.934857,72.824925,84.696224,-13.226036,-15.801016,-16.838855,-25.838509,15.058234,32.548445,41.147375,46.813346,33.106113,49.955009,57.098643,60.064144,45.836109,62.768158,68.276356,69.387827,53.930847,68.34548,71.583733,71.298212,47.4711,296.333709,-80.318012,282.299112
102,-15.452064,6.019158,1.341934,1.372366,-9.360283,-22.142533,-30.387932,-34.526367,-45.310959,-33.001076,-14.708176,-0.752014,-47.926701,-33.838669,-13.002869,6.281959,-46.890038,-36.01902,-15.260239,2.336517,-42.759773,-44.653633,-38.77343,-32.726715,-4.889508,-5.253774,-3.552921,-2.063563,7.854109,21.11937,26.993366,29.916235,15.933743,27.809842,33.958985,36.693837,21.350662,31.501751,35.151929,37.000106,25.405874,33.601635,36.609523,38.823114,28.516469,54.885487,78.134457,95.96037,58.396477,89.324284,106.210087,119.192585,49.311734,84.948567,105.162449,119.162442,40.273819,73.457623,92.491963,106.142361,31.963051,57.703148,73.019246,85.189305,-13.324084,-15.879205,-16.702424,-25.499203,14.508111,31.986627,40.300752,45.693169,32.516705,49.147425,56.028236,58.625631,45.244799,62.091027,67.29387,68.056759,53.301894,67.576601,70.631295,70.086607,31.804894,302.347526,-79.19022,283.666137
103,-18.099999,2.160203,0.672604,0.748638,-2.525722,-7.856849,-10.908256,-10.904823,-27.474838,-9.818412,8.414315,21.05777,-32.220588,-12.532905,7.487824,25.308861,-33.963203,-18.702827,1.301354,17.331643,-32.930339,-34.559497,-31.666534,-28.440719,-14.420426,-18.994884,-18.771594,-18.150892,1.356002,14.896113,19.745311,22.365233,14.613766,26.677524,30.98133,32.583593,24.170198,33.963628,35.953942,36.971071,31.825569,39.692065,42.012757,43.818438,28.10519,54.09383,77.289986,95.236198,57.144802,88.414169,105.382507,118.567085,48.346218,84.284226,104.596779,118.711006,39.569229,73.113854,92.462105,106.363152,31.481255,57.515156,73.17984,85.705833,-13.329753,-15.995099,-16.723939,-25.357054,13.692746,31.163234,39.356983,44.722093,31.609294,48.141794,55.048973,57.634055,44.398212,61.189211,66.448815,67.162082,52.561654,66.823677,69.965612,69.395162,13.546114,304.496138,-78.676397,284.403184
104,-6.690307,0.728568,0.857552,0.28126,0.078563,-2.593918,-4.84005,-4.699333,-22.873982,-2.444687,16.220352,28.485786,-29.00322,-6.044129,13.925812,31.436119,-31.931637,-14.648735,5.498451,21.246803,-32.128372,-35.906262,-36.734459,-36.343563,-17.597064,-23.892914,-24.624483,-24.758222,-0.720034,13.101326,17.33213,19.508363,14.433406,26.580119,30.021074,30.901499,25.215818,34.863566,36.093042,36.762972,34.116757,41.769572,44.68098,47.190542,27.69786,53.359371,76.438202,94.368415,56.083099,87.483581,104.494926,117.67337,47.424774,83.475196,103.892646,117.955742,38.761619,72.598686,92.079872,105.928894,30.757095,57.151073,72.96025,85.509109,-13.372669,-16.095455,-16.64344,-24.744316,13.214366,30.657215,38.910367,44.322729,31.111253,47.651175,54.613423,57.227022,43.9967,60.695234,65.983156,66.694434,52.297387,66.436565,69.605929,69.04263,6.756958,305.207024,-77.917694,284.666762
105,-10.159195,2.48333,0.594234,0.298032,2.187137,1.850006,2.363434,4.971313,-16.980046,7.934761,27.954551,40.627876,-23.853962,3.562866,24.384887,42.259666,-27.684036,-6.847504,14.116173,30.191093,-28.544289,-34.358471,-39.18552,-42.330769,-18.652502,-27.149408,-30.435815,-33.019971,-3.14732,11.330991,16.517272,19.350949,12.873145,25.925515,29.129917,29.793067,24.109609,34.429078,35.419184,35.942025,33.11703,40.273112,43.422606,45.945382,27.354012,52.826843,75.802288,93.779812,55.130093,86.788982,103.886341,117.122646,46.519386,82.794743,103.317112,117.393505,37.931213,72.120747,91.768787,105.679241,30.025681,56.741615,72.704373,85.340962,-13.398604,-16.243915,-16.74108,-24.468884,12.590786,30.116862,38.369545,43.766507,30.560193,47.176562,54.176589,56.809058,43.599262,60.303217,65.619656,66.3173,52.055894,66.094134,69.30933,68.740114,-3.458879,307.65084,-77.380102,284.92528
106,-7.310646,4.101141,0.405647,0.28241,4.154583,6.042709,10.002479,16.185882,-9.030007,17.344459,36.782043,49.228729,-15.793637,12.375503,32.361648,49.305176,-20.086155,2.063827,22.244796,37.646667,-21.306805,-26.934185,-33.223698,-38.128533,-20.198807,-31.078575,-37.161002,-41.857517,-6.961581,6.353327,13.249465,17.555334,9.421977,22.538802,26.561038,27.945643,21.084394,30.998682,32.795953,33.596893,30.022791,36.462013,39.40563,40.720939,27.074513,52.393467,75.358075,93.406712,54.403748,86.333805,103.473599,116.726864,45.846817,82.324963,102.921261,116.984745,37.305027,71.839657,91.60429,105.475857,29.452034,56.581341,72.684506,85.425259,-13.500246,-16.524633,-16.886675,-24.027592,11.798812,29.343919,37.657451,43.154782,29.847296,46.429492,53.602309,56.422685,43.073382,59.58333,65.056035,65.933496,51.782697,65.585718,68.897973,68.470598,-10.788294,311.699601,-76.993224,285.15531
107,-1.434357,-0.12723,0.340702,0.439959,4.184498,5.869606,9.653275,16.017265,-8.10775,18.569183,37.783585,50.124001,-14.799751,13.772369,33.294685,49.714211,-19.291191,3.603699,23.657181,38.712273,-20.886223,-26.170006,-32.662765,-37.842716,-20.362791,-31.184428,-37.003811,-40.867473,-7.513037,5.797943,13.522068,18.514885,8.72143,22.492414,27.087238,28.905874,20.210959,30.563848,32.618049,33.552531,28.861858,35.939925,38.966671,40.055034,26.747899,51.936905,74.920395,93.070565,53.892975,85.99791,103.19204,116.409302,45.42072,82.049172,102.720635,116.71177,36.89629,71.705292,91.502129,105.259873,29.050942,56.524453,72.694863,85.454384,-13.627958,-16.879043,-17.224018,-23.971115,11.123966,28.69696,37.104612,42.651973,29.189593,45.752572,53.031242,55.927731,42.555655,58.927702,64.464973,65.398231,51.466523,65.161628,68.510267,68.140715,-12.225918,311.50259,-76.655789,285.525488
108,1.304283,3.215825,0.221432,0.244668,3.303257,3.967369,7.851563,14.705361,-9.530994,17.074425,36.358544,49.206093,-16.010124,11.690849,31.029122,47.435005,-20.193397,2.16378,22.226967,37.687065,-21.1894,-28.260292,-36.359356,-42.843532,-19.942975,-31.985737,-39.971795,-46.205943,-9.542526,2.586268,12.220864,18.759034,6.053171,19.45343,25.347729,28.353776,17.263588,27.220027,30.440199,32.135569,25.384174,31.651409,35.361497,36.509771,26.47847,51.642494,74.622128,92.75021,53.477097,85.639836,102.838246,116.0518,45.047882,81.777729,102.497051,116.431355,36.509136,71.526684,91.3354,104.983395,28.623493,56.378403,72.55473,85.260441,-13.823361,-17.241691,-17.533869,-24.02732,10.553898,28.140687,36.619081,42.245358,28.740185,45.248985,52.608942,55.616484,42.252608,58.432908,64.032114,65.103434,51.349913,64.844539,68.19881,67.899197,-10.919684,314.634058,-76.432406,285.685799
109,-6.533249,0.26197,0.070301,0.177952,6.24448,9.393311,15.354653,23.351395,-1.776649,26.09095,44.716828,56.459381,-8.914043,20.290718,39.119866,54.194733,-14.258629,10.067986,29.615525,44.049912,-16.496772,-19.739158,-24.839435,-29.387237,-21.29726,-34.474724,-43.409761,-49.68926,-11.322209,0.6055,10.318766,17.084734,5.203905,19.063649,24.87603,27.770803,17.348951,27.717191,30.922038,32.477234,25.925565,32.931495,35.489333,34.958119,26.445889,51.519539,74.397171,92.59932,53.022434,85.200394,102.396286,115.665116,44.612515,81.405899,102.159256,116.159569,36.111958,71.202255,91.033379,104.645256,28.278752,56.078705,72.246277,84.958969,-13.90371,-17.461201,-17.690172,-23.952701,10.23791,27.775002,36.281566,41.997764,28.520107,44.865169,52.245245,55.332778,42.088204,58.050154,63.683286,64.865868,51.233144,64.596439,67.926873,67.643106,-17.448178,314.803344,-76.35735,285.771067
110,-0.475891,-3.212108,-0.060974,0.179397,5.431515,8.312622,14.001343,19.990975,-2.102646,25.992645,44.282227,55.450974,-8.960586,20.598175,39.555748,53.951294,-13.959858,10.552735,29.972901,44.135262,-16.063705,-16.381679,-18.424816,-19.987839,-19.56768,-31.136497,-38.936994,-43.69516,-9.011089,3.405708,12.794957,19.475944,7.203161,20.971169,27.552318,30.738466,18.935887,29.366409,33.459671,35.401067,27.40319,35.119509,37.554958,37.201054,26.407208,51.439602,74.283211,92.507515,52.881512,84.871216,102.014031,115.333237,44.46199,81.071983,101.862991,115.963417,35.912396,70.874451,90.712097,104.330978,27.994,55.825722,71.974915,84.722145,-14.037536,-17.71728,-17.846375,-23.945587,9.961503,27.378194,35.91651,41.71438,28.265016,44.457432,51.907915,55.104277,41.856072,57.653519,63.366519,64.714691,51.072753,64.336952,67.663051,67.439194,-17.914902,311.504294,-76.409157,285.863522
111,-2.416443,-3.34518,0.068665,0.115177,7.293721,11.558647,16.832016,21.246895,1.149559,29.652558,47.396851,57.316269,-6.522972,24.437531,43.020882,56.4749,-12.44284,13.258599,32.445305,45.708893,-15.84621,-11.768142,-9.999733,-8.663017,-19.741496,-30.229186,-36.274292,-39.059668,-7.320215,6.195036,13.739812,18.919301,9.519628,23.945821,29.347513,31.540258,21.618485,32.852664,36.010666,37.425257,30.504357,39.649322,40.963778,40.001991,26.330223,51.31802,74.12519,92.392822,52.816429,84.59642,101.69609,115.012779,44.373161,80.73516,101.53157,115.670288,35.747875,70.479103,90.256118,103.852775,27.720108,55.487526,71.586868,84.329132,-14.13998,-17.852723,-17.868704,-23.883392,10.008803,27.349085,35.898763,41.702425,28.284875,44.343873,51.776436,54.993657,41.825172,57.49918,63.245958,64.705947,50.995763,64.222689,67.523014,67.337194,-20.322367,308.069017,-76.331514,285.888602
112,5.992333,-3.640014,-0.017372,-0.008756,5.853138,8.037987,10.234154,11.077308,-6.138314,21.051864,39.483467,49.454704,-14.185501,16.304466,35.849441,50.019401,-19.721524,5.455604,25.562416,39.338264,-22.653649,-16.316208,-10.425247,-5.552513,-19.20901,-27.863429,-31.315771,-31.694338,-4.314057,10.655725,16.659816,20.255234,12.754313,27.454258,32.317214,33.940644,24.880599,36.573818,39.129816,40.3132,33.999727,44.018855,44.292743,43.01488,26.349334,51.290176,73.960418,92.173713,52.650032,84.26564,101.329238,114.749176,44.115131,80.241233,101.0541,115.28778,35.43346,69.928253,89.757476,103.453514,27.366313,55.008464,71.089668,83.850425,-14.175523,-17.877597,-17.782464,-23.695572,9.955043,27.300413,35.881806,41.759148,28.227719,44.34223,51.830603,55.105919,41.752578,57.445544,63.291665,64.893977,50.90347,64.124184,67.452124,67.317878,-14.320598,304.315568,-76.33945,285.766411
113,6.645836,-5.017777,-0.016182,0.155117,3.395462,2.536903,1.227722,-2.090756,-15.236309,10.526504,30.023094,40.4458,-23.288842,7.290481,28.273521,43.522522,-27.853798,-2.66018,18.933654,33.711158,-29.656632,-21.081482,-10.990563,-2.315529,-15.813725,-20.84132,-20.428988,-17.645365,1.441613,18.043285,22.57584,24.777032,16.914438,31.982638,36.543264,37.647411,27.341625,39.664105,42.094194,43.218224,35.435635,46.55597,46.481449,45.567482,26.267406,51.117038,73.745704,91.980331,52.732635,84.056396,101.038124,114.500084,44.188419,79.873443,100.646347,114.985565,35.441871,69.494293,89.279869,103.07611,27.242797,54.642356,70.662414,83.460273,-14.255601,-17.998504,-17.835162,-23.723644,9.958217,27.247357,35.815177,41.682146,28.108627,44.137601,51.68943,55.025187,41.591842,57.227898,63.151479,64.87092,50.751206,64.004747,67.352879,67.278247,-7.655445,299.194245,-76.336315,285.817982
