takenoko1/special-research/HandMotion_SimilarSearch_自分用/NewProject/handData/tgt/d4_feature_d2/116.csv
,vel_0x_L,vel_0y_L,vel_0x_R,vel_0y_R,posFromWrist_1x_L,posFromWrist_2x_L,posFromWrist_3x_L,posFromWrist_4x_L,posFromWrist_5x_L,posFromWrist_6x_L,posFromWrist_7x_L,posFromWrist_8x_L,posFromWrist_9x_L,posFromWrist_10x_L,posFromWrist_11x_L,posFromWrist_12x_L,posFromWrist_13x_L,posFromWrist_14x_L,posFromWrist_15x_L,posFromWrist_16x_L,posFromWrist_17x_L,posFromWrist_18x_L,posFromWrist_19x_L,posFromWrist_20x_L,posFromWrist_1y_L,posFromWrist_2y_L,posFromWrist_3y_L,posFromWrist_4y_L,posFromWrist_5y_L,posFromWrist_6y_L,posFromWrist_7y_L,posFromWrist_8y_L,posFromWrist_9y_L,posFromWrist_10y_L,posFromWrist_11y_L,posFromWrist_12y_L,posFromWrist_13y_L,posFromWrist_14y_L,posFromWrist_15y_L,posFromWrist_16y_L,posFromWrist_17y_L,posFromWrist_18y_L,posFromWrist_19y_L,posFromWrist_20y_L,posFromWrist_1x_R,posFromWrist_2x_R,posFromWrist_3x_R,posFromWrist_4x_R,posFromWrist_5x_R,posFromWrist_6x_R,posFromWrist_7x_R,posFromWrist_8x_R,posFromWrist_9x_R,posFromWrist_10x_R,posFromWrist_11x_R,posFromWrist_12x_R,posFromWrist_13x_R,posFromWrist_14x_R,posFromWrist_15x_R,posFromWrist_16x_R,posFromWrist_17x_R,posFromWrist_18x_R,posFromWrist_19x_R,posFromWrist_20x_R,posFromWrist_1y_R,posFromWrist_2y_R,posFromWrist_3y_R,posFromWrist_4y_R,posFromWrist_5y_R,posFromWrist_6y_R,posFromWrist_7y_R,posFromWrist_8y_R,posFromWrist_9y_R,posFromWrist_10y_R,posFromWrist_11y_R,posFromWrist_12y_R,posFromWrist_13y_R,posFromWrist_14y_R,posFromWrist_15y_R,posFromWrist_16y_R,posFromWrist_17y_R,posFromWrist_18y_R,posFromWrist_19y_R,posFromWrist_20y_R,posFromBody_0x_L,posFromBody_0y_L,posFromBody_0x_R,posFromBody_0y_R
6,0.739128,-0.024219,0.39426,0.274975,3.146794,3.781769,9.103638,14.969559,-8.899051,16.494153,37.398709,50.24738,-14.659103,12.675854,33.504811,50.086751,-17.552318,3.759293,23.873051,37.798932,-17.330005,-24.984741,-32.03635,-38.870315,-20.625403,-30.699439,-34.976581,-36.146517,-6.780615,4.849322,11.260262,15.763658,9.376838,21.792672,24.976239,26.438069,20.992708,31.297061,31.941871,32.441098,29.786571,37.226644,41.6859,45.213973,24.082604,47.649994,69.257996,86.335785,50.264752,83.272339,101.052613,113.96402,41.593334,78.41819,99.243691,113.434914,32.690358,66.732216,86.484215,99.915619,24.573761,50.638024,66.442292,78.093109,-15.162864,-16.771511,-13.145947,-13.755386,11.320147,24.999123,31.300802,35.297733,28.943776,42.132689,47.309263,49.558324,41.351138,55.393034,59.174814,59.553233,48.870165,61.787042,63.706442,61.791723,-8.381304,305.518564,-67.553381,281.354616
7,0.946644,-0.644242,0.192719,0.169603,2.692395,3.156544,8.374661,13.844136,-10.330272,15.100457,36.061524,48.885201,-15.953899,11.369156,32.301934,48.756592,-18.534816,2.950756,23.292252,37.358986,-17.99897,-25.913028,-32.978176,-39.721801,-20.405275,-30.347622,-34.419506,-35.530223,-6.478383,5.22716,11.725391,16.331898,9.801507,22.147119,25.579713,27.138281,21.518031,31.66082,32.506751,33.078004,30.40846,37.843987,42.418532,45.91652,23.844841,47.334698,68.887756,85.84021,50.064205,83.16671,100.983993,113.891945,41.288051,78.15683,98.975349,113.110039,32.343303,66.363624,86.208366,99.72274,24.236721,50.366237,66.229614,77.988601,-15.336752,-16.783453,-13.107525,-13.884345,11.330657,24.831533,31.073968,35.092401,28.919781,42.068333,47.184824,49.389425,41.248769,55.275066,59.059119,59.461818,48.609196,61.497927,63.487847,61.677695,-7.325598,304.822072,-67.2516,281.471969
8,-0.084995,0.430598,-0.090912,-0.005421,2.750313,3.147102,8.529282,14.462837,-10.444313,14.804615,35.694614,48.614353,-15.923195,10.843746,31.584881,48.052563,-18.390049,2.802956,22.895908,36.625088,-17.740231,-25.823593,-33.035946,-39.962196,-20.406312,-30.781456,-35.136293,-36.70421,-7.397427,4.218813,10.942606,15.60943,9.011781,21.50494,25.188031,26.900555,20.994387,31.212796,32.323303,33.091552,30.090569,37.599357,42.068555,45.18458,23.83017,47.409428,69.048706,86.121002,49.790371,83.005234,100.989876,114.096703,40.96043,77.93383,98.898788,113.132126,32.111206,66.203201,86.167076,99.765724,24.172817,50.325634,66.239639,78.038887,-15.305458,-16.582715,-12.945011,-14.05169,11.550698,24.944251,31.10609,35.106208,29.107748,42.210148,47.230827,49.401354,41.385681,55.413732,59.130366,59.507167,48.645393,61.522133,63.467728,61.627121,-7.30648,305.21469,-67.238399,281.428568
9,-1.537239,-2.829823,-0.115791,0.067172,2.522598,3.03075,7.468323,12.420616,-10.044434,15.714878,36.117084,48.683269,-15.405155,12.630489,33.2104,49.442768,-17.642761,4.960236,25.270695,39.21207,-16.700649,-23.74704,-30.45726,-36.802208,-20.243749,-29.192853,-31.800153,-31.225035,-4.796785,7.892937,14.882541,19.445204,11.445772,24.750256,28.767454,30.472457,22.733513,33.999801,35.276034,35.623454,31.240719,39.660251,44.753302,48.03788,23.97393,47.547638,69.206474,86.380577,49.605823,82.813087,100.877952,114.151039,40.77285,77.746444,98.747955,113.033912,32.038066,66.088096,86.098411,99.768402,24.25066,50.367027,66.296264,78.158249,-15.265888,-16.504675,-12.890992,-14.328097,11.679361,24.955947,31.015564,34.97363,29.232818,42.264526,47.164705,49.264083,41.500784,55.44651,59.076014,59.429905,48.726855,61.486787,63.368853,61.503855,-8.755577,302.351945,-67.266048,281.462818
10,6.186836,-0.619777,0.005115,0.050857,1.990048,2.159477,5.56612,8.994198,-14.374832,9.105252,29.515606,42.209599,-20.548759,5.369557,26.145756,42.94495,-23.773842,-3.35693,16.900166,30.991093,-23.935158,-32.952713,-40.26725,-47.170131,-21.309709,-31.017961,-33.823257,-34.527545,-5.20304,7.858901,14.255774,17.975026,12.453663,25.606883,28.949507,29.556958,24.769597,35.935529,36.459716,36.026117,34.09486,42.362573,46.952012,49.668993,23.983017,47.538471,69.23972,86.500889,49.49453,82.679157,100.811474,114.201611,40.686997,77.618122,98.627735,112.950016,32.000061,65.999737,86.001103,99.701649,24.24432,50.262634,66.179203,78.072865,-15.215956,-16.446876,-12.851891,-14.608146,11.844285,24.998679,30.924051,34.774424,29.345266,42.233095,47.068486,49.121996,41.569204,55.364036,58.979239,59.360585,48.736809,61.418195,63.266064,61.39084,-2.481331,301.700783,-67.173523,281.48229
11,-4.410644,3.005578,-0.045273,-0.053562,2.095333,3.425102,9.887272,16.245289,-10.410542,15.838543,36.616893,49.348606,-16.372296,11.626362,32.495258,48.560039,-19.239395,2.311569,22.363552,36.378284,-18.650288,-27.578511,-35.19888,-42.258831,-21.407905,-32.524152,-37.530344,-40.56786,-7.704698,4.478683,11.616105,16.519396,10.074246,22.292096,26.093032,27.503535,22.771897,32.689976,33.748119,33.932074,32.236333,39.643233,43.915028,46.585511,24.039917,47.604756,69.359448,86.78262,49.43581,82.545033,100.715779,114.263958,40.68124,77.516522,98.543095,112.959446,32.058701,65.956387,85.973179,99.804486,24.311348,50.270165,66.184216,78.208134,-15.121169,-16.329489,-12.800576,-14.81895,11.957943,25.070396,30.89709,34.69705,29.383118,42.19045,47.025396,49.104965,41.573897,55.265927,58.933333,59.375812,48.767326,61.407697,63.260037,61.436411,-6.820821,304.67808,-67.147642,281.400447
12,-0.640938,1.358657,-0.007621,-0.083709,2.650303,3.920494,10.756336,18.067577,-9.262642,16.812527,37.44968,50.351246,-15.059189,11.884266,32.422726,48.426212,-17.985237,2.66391,22.149158,35.592945,-17.615593,-26.460697,-34.284222,-41.663212,-21.760512,-33.247323,-39.046502,-43.096489,-8.891578,2.822945,9.873953,14.639281,8.691161,20.825462,24.541899,26.23265,21.555241,31.491018,32.439307,32.869041,31.119972,38.53369,42.575835,45.122854,24.054519,47.672069,69.500644,87.086803,49.410575,82.5153,100.732349,114.368419,40.677944,77.5414,98.655933,113.136005,32.079883,66.006443,86.040012,99.928058,24.320194,50.259876,66.17696,78.283069,-15.077647,-16.29192,-12.777457,-15.007808,11.996401,25.091317,30.889841,34.683218,29.430555,42.197688,47.027978,49.124836,41.634944,55.290492,58.95013,59.400611,48.869054,61.528913,63.358862,61.532199,-7.404882,306.012055,-67.098386,281.292056
13,-2.804501,-2.817066,-0.146153,-0.157735,2.906948,4.461479,10.265671,16.455483,-7.450287,19.817047,39.854576,52.320854,-12.824604,15.981308,36.229363,52.359124,-15.464836,7.395138,27.051934,40.814484,-14.956466,-21.859588,-28.860202,-35.244507,-21.196496,-30.875539,-34.916215,-36.65229,-5.776282,6.865608,13.671418,18.004395,11.177158,24.24604,28.025116,29.630083,22.990296,34.192586,35.219953,35.33529,31.753951,40.087738,44.917793,47.969511,24.074307,47.814594,69.724525,87.474838,49.647869,82.697159,100.871132,114.564766,40.880276,77.700874,98.844978,113.393005,32.188168,66.062416,86.101502,100.073387,24.283413,50.124619,66.047836,78.261498,-15.053318,-16.251696,-12.67778,-15.02758,11.97317,25.030443,30.816111,34.621258,29.48944,42.177915,47.053592,49.160923,41.749046,55.358886,59.090426,59.570474,49.007844,61.730195,63.624339,61.804876,-10.16918,303.171542,-67.204336,281.110874
14,9.74152,-0.77351,-0.111488,-0.345271,1.431816,0.640984,3.032261,5.510273,-16.251869,7.305325,28.363301,41.933476,-22.169838,3.813183,25.146527,42.810208,-25.044296,-4.925228,15.858296,30.912129,-24.997822,-33.752872,-40.411514,-46.165466,-20.680534,-29.896845,-33.065481,-34.197761,-5.596477,7.730373,13.798759,17.120413,11.566902,24.472651,27.854536,28.557651,23.723927,34.874533,35.612117,35.415553,32.983439,41.106953,45.98174,49.335257,24.190967,48.044849,69.978927,87.890304,49.781295,82.88752,101.094749,114.855903,40.917194,77.741089,98.972786,113.606735,32.088718,65.967476,86.059982,100.107834,24.015598,49.76326,65.727287,78.055298,-14.891495,-16.027604,-12.447352,-14.815974,12.168523,25.200232,30.972957,34.765395,29.676852,42.412603,47.38613,49.530931,41.902088,55.618843,59.4767,60.001875,49.101852,62.078133,64.088653,62.299533,-0.389385,302.378121,-67.277549,280.745692
15,-4.605171,2.238687,-0.126297,-0.279075,2.01685,1.918877,5.798595,10.37138,-12.192696,13.382458,33.898098,46.969769,-18.219978,9.587254,30.535709,47.842815,-20.974045,0.584747,21.356495,36.656193,-20.527817,-28.146355,-34.603844,-39.896667,-21.255542,-31.186564,-35.320532,-36.956066,-7.557683,4.994225,11.531852,15.613715,9.449381,22.2918,26.00358,27.619872,21.60595,32.361662,33.432105,33.814674,30.740133,38.611742,43.358422,46.759091,24.326774,48.263305,70.240539,88.242874,49.963886,83.055862,101.250801,115.07975,41.011024,77.801056,99.065849,113.771026,32.082424,65.924949,86.034919,100.179084,23.875374,49.55175,65.524818,78.005928,-14.758806,-15.897903,-12.329866,-14.709418,12.236289,25.275135,31.073153,34.902629,29.754547,42.540686,47.601886,49.774734,41.999987,55.827078,59.774115,60.307836,49.232702,62.404966,64.502554,62.745964,-4.958977,304.598968,-67.368267,280.448777
16,-1.81612,0.468871,-0.012028,-0.267849,2.810406,3.336811,7.941994,12.97554,-9.495403,16.088287,35.810325,47.991531,-15.644257,11.340111,31.911072,48.849312,-18.547508,2.445476,22.585625,37.196617,-18.638477,-25.71072,-32.28186,-37.994637,-21.286318,-30.330123,-33.844265,-34.846264,-6.956617,4.678322,10.789797,15.007721,9.446948,21.840342,25.435056,27.24585,21.277475,31.828299,33.055341,33.932592,30.270978,38.018197,42.819773,46.482301,24.392693,48.340565,70.338879,88.395321,50.062122,83.136486,101.314968,115.139317,41.017628,77.825649,99.169956,113.89262,31.990196,65.897129,86.010418,100.097568,23.693481,49.314457,65.271366,77.771862,-14.650853,-15.812897,-12.180763,-14.463465,12.278341,25.326796,31.197531,35.044816,29.859535,42.722961,47.872168,50.039755,42.170839,56.121776,60.112001,60.601336,49.442826,62.822992,64.974327,63.19016,-6.74053,305.05217,-67.345728,280.165259
17,7.784752,-3.085335,0.044037,-0.181768,0.66283,-0.832707,-0.223984,0.405533,-17.327637,5.464576,25.563949,38.280876,-23.699707,2.091224,23.214798,41.157348,-26.461842,-6.469185,14.560455,30.111442,-26.583298,-34.736023,-41.090676,-46.396878,-21.023978,-28.944641,-30.558846,-29.52843,-4.177564,8.638969,14.119664,17.335699,12.495072,25.069889,28.322814,28.951483,23.946093,35.030416,35.843014,35.745794,32.759063,40.916095,46.0427,49.762113,24.40448,48.30788,70.301159,88.348011,50.222088,83.157909,101.260929,115.108852,41.141876,77.810978,99.109852,113.823498,32.00655,65.79015,85.858738,99.9268,23.550613,48.98473,64.864071,77.358822,-14.524031,-15.758347,-12.135846,-14.311078,12.330964,25.315569,31.205163,35.034466,29.891608,42.733681,47.956778,50.102283,42.206332,56.186811,60.244084,60.693813,49.482865,63.00723,65.223675,63.438767,1.08763,301.950795,-67.258283,279.967451
18,2.572231,1.217508,0.163845,0.008274,0.335426,-1.348995,-0.5518,0.078953,-18.959324,3.430859,23.694592,36.292225,-26.010406,-0.501972,20.78999,38.693722,-29.207725,-9.733349,11.799076,27.865391,-29.469761,-38.438026,-45.112198,-50.822044,-21.960608,-30.714445,-32.598956,-32.211571,-5.492291,6.585385,12.271079,15.949563,11.777162,23.708256,27.111963,27.987065,23.773884,34.013992,34.755726,34.683132,32.951737,40.701191,45.485452,48.693362,24.297317,48.131596,70.082748,88.047111,50.16124,83.04998,101.117226,114.927612,41.101524,77.762306,99.053581,113.702682,31.97374,65.811493,85.859619,99.864464,23.521557,49.022175,64.862022,77.326858,-14.574604,-15.879489,-12.228496,-14.331937,12.20613,25.230712,31.175103,35.025402,29.782669,42.689233,47.946453,50.101111,42.148238,56.163025,60.219792,60.646154,49.502527,63.057249,65.249586,63.476781,3.703743,303.158615,-67.050556,279.966037
19,-8.080502,1.143161,0.069054,0.046745,0.953785,1.806622,7.469101,11.541001,-10.646724,15.806237,35.297013,46.721055,-17.128681,11.062546,31.579011,47.677552,-20.200595,1.012173,21.432107,36.300271,-20.185489,-27.513462,-34.246353,-40.229061,-21.116776,-29.908676,-32.877772,-33.843623,-4.986445,5.661759,11.487244,16.333997,11.727379,22.180279,25.83326,27.660702,23.363503,32.378285,33.723147,34.432449,32.115623,39.298703,43.959291,47.443842,24.102252,47.903789,69.922187,87.800743,50.330223,83.05529,101.01448,114.779594,41.359657,77.890502,99.087066,113.688491,32.217521,65.954772,85.920135,99.895545,23.678546,49.157844,64.933479,77.374008,-14.649544,-16.050772,-12.394777,-14.490784,12.049741,25.04761,31.053764,34.968616,29.60216,42.473576,47.816667,50.024096,41.989342,55.95011,60.055055,60.494384,49.40564,62.917174,65.148994,63.43195,-4.333094,304.295274,-66.937837,280.00628
20,7.499337,-1.741559,0.136791,0.043571,-0.588295,-1.645375,1.376152,2.431755,-18.184262,5.497169,26.128807,38.799911,-24.584805,1.262031,22.854881,39.926033,-27.43594,-8.202965,13.095291,28.597046,-27.320183,-36.692425,-43.634995,-49.806759,-20.653537,-28.705013,-30.713346,-30.803033,-3.564852,7.742884,13.226716,17.351297,13.185281,23.563475,26.923945,27.718376,24.883687,34.150596,35.154904,35.21989,33.85822,41.187537,46.09914,49.762878,23.970646,47.744819,69.794666,87.648662,50.387066,83.122455,100.986179,114.605701,41.463569,78.041622,99.201267,113.672092,32.309486,66.104519,86.004398,99.857357,23.743778,49.237987,64.946079,77.226413,-14.755841,-16.245323,-12.560429,-14.544543,11.90632,24.915785,31.015405,35.022253,29.510399,42.392943,47.822718,50.086192,41.919021,55.850988,59.991365,60.443823,49.342248,62.833947,65.066681,63.339621,3.197628,302.547891,-66.769661,280.044027
21,0.722156,-0.625841,0.067817,0.08135,-0.494487,-2.100517,-0.712475,-0.498447,-19.498089,4.189945,24.977017,37.936856,-26.003471,1.180493,22.660458,40.138058,-29.056366,-8.102588,13.787327,30.071697,-28.890724,-37.292953,-43.621147,-48.845409,-21.203906,-29.868217,-32.213103,-32.265467,-4.244748,7.801597,13.657376,17.554741,13.129175,24.799744,28.160695,28.84258,25.011758,35.152052,35.796171,35.180531,33.854133,42.03274,47.001771,50.098443,23.867169,47.642979,69.697827,87.48959,50.497811,83.253811,101.051297,114.599545,41.632977,78.22221,99.307286,113.707066,32.489502,66.257298,86.129551,99.965779,23.909546,49.441945,65.162075,77.407666,-14.908859,-16.398723,-12.688425,-14.697462,11.768122,24.782355,30.894485,34.938631,29.406176,42.248187,47.656511,49.941869,41.807771,55.685719,59.810103,60.291349,49.20447,62.604013,64.814406,63.1004,3.94277,301.923539,-66.678858,280.126866
22,-8.831268,2.547538,0.034298,-0.011448,1.355999,2.329136,8.206913,12.344547,-10.022141,17.006687,36.891003,48.657246,-16.453949,12.578785,33.318432,49.516628,-19.80122,2.616486,23.480701,38.749981,-19.890221,-26.447788,-32.712421,-38.156513,-21.31933,-30.362789,-33.987192,-35.52395,-5.800945,5.090494,11.394532,16.316694,11.085693,22.280265,25.833841,27.279998,23.002177,32.604107,33.688543,33.809598,31.808613,39.633736,44.549724,47.869105,23.836579,47.719437,69.813195,87.611412,50.578434,83.434067,101.212212,114.70617,41.701287,78.372986,99.439545,113.774735,32.555294,66.39608,86.277924,100.092957,24.000115,49.673069,65.471146,77.750657,-15.059258,-16.464179,-12.712471,-14.826064,11.656193,24.708637,30.850716,34.961243,29.392393,42.274443,47.658499,49.959195,41.847562,55.72903,59.818723,60.322532,49.24951,62.570433,64.74832,63.037587,-4.877872,304.475819,-66.633934,280.12016
23,6.60125,-2.012038,0.003605,-0.06196,-0.034172,-0.616871,2.517482,3.457019,-16.438649,7.651096,27.984432,40.476665,-22.72007,3.81055,25.011669,41.991062,-25.955075,-5.94484,14.927227,30.195179,-26.329789,-34.564476,-40.790657,-46.060089,-20.632245,-29.117555,-32.021207,-32.970027,-4.432568,7.562449,13.124049,16.846117,12.657735,24.004484,27.095253,27.389136,24.612504,34.720231,35.395175,34.904951,33.694236,41.78454,46.762315,50.400908,23.911114,47.878304,70.06271,87.86388,50.844796,83.633549,101.340145,114.784825,41.980213,78.55093,99.502224,113.769482,32.764595,66.473683,86.284207,100.043278,24.110195,49.679444,65.438816,77.613018,-15.02537,-16.411667,-12.757203,-14.998286,11.594109,24.570056,30.750309,34.903765,29.336385,42.231946,47.671034,50.006842,41.775722,55.649668,59.787885,60.321569,49.163763,62.45197,64.647111,62.938872,1.729809,302.470441,-66.623898,280.06486
24,-0.409905,0.649738,0.030316,-0.033469,0.959015,0.135361,1.461399,1.86826,-16.105224,7.990391,28.394291,40.765675,-23.045379,4.391636,25.315029,42.665096,-26.779884,-5.412369,15.500622,30.986584,-27.432255,-35.259991,-41.446449,-46.673424,-21.972032,-31.174832,-34.420322,-35.335451,-6.297122,6.11639,12.078318,15.878167,11.375315,24.246855,27.305427,27.507709,23.73361,34.774102,35.071158,34.220337,33.061331,41.566721,46.239276,49.180745,24.029789,48.014705,70.216736,88.091331,50.939174,83.738502,101.390007,114.781173,42.070873,78.67147,99.589737,113.819984,32.871425,66.583488,86.398315,100.144958,24.276169,49.838516,65.593254,77.748687,-15.136385,-16.521842,-12.808505,-14.877008,11.49453,24.44374,30.620794,34.78744,29.375696,42.258437,47.668218,50.027812,41.884674,55.771897,59.907594,60.484491,49.306716,62.579683,64.729227,63.001846,1.324968,303.119429,-66.588518,280.030641
25,-1.031021,-0.594743,-0.016068,-0.139815,1.506592,1.10836,2.394253,2.298054,-14.330624,10.200954,30.122006,41.829357,-21.307594,6.435894,26.771954,43.672863,-25.319996,-3.902058,16.249592,31.033161,-26.363193,-33.939995,-40.195255,-45.679951,-21.788646,-31.070189,-34.399488,-35.862417,-5.612372,7.058245,12.874973,16.517197,11.996079,25.221091,28.139378,28.227397,24.203222,35.632507,35.867517,34.964997,33.3718,42.173086,46.639419,49.282361,24.130257,48.104931,70.300118,88.051689,51.066582,83.69339,101.28463,114.67067,42.218411,78.660256,99.505783,113.746971,33.003823,66.621803,86.416535,100.147431,24.368706,49.916519,65.678856,77.846604,-15.05916,-16.428648,-12.734356,-14.816987,11.450329,24.407838,30.583879,34.723133,29.321973,42.221856,47.651916,50.06033,41.87062,55.752322,59.91241,60.52968,49.379038,62.651511,64.845429,63.168485,0.306662,302.516022,-66.591871,279.882162
26,0.044346,-0.358239,0.046292,-0.542441,1.95005,2.056927,3.152275,2.44931,-14.2668,10.21875,30.606697,42.723724,-21.604752,5.738296,26.316536,43.357567,-25.78981,-5.183029,14.628548,29.154098,-26.828682,-35.251499,-41.808746,-47.623924,-21.36689,-30.800414,-34.567881,-36.479402,-5.760029,7.785566,14.082416,17.979608,11.990658,25.465425,28.536137,28.111751,24.472293,35.914632,36.230535,35.31821,33.949277,42.420285,46.38476,48.701611,24.158706,48.154449,70.442859,88.225078,50.819755,83.268436,100.87096,114.285816,42.079982,78.337543,99.272655,113.602558,32.959842,66.399478,86.255275,100.056621,24.415786,49.877861,65.523616,77.486217,-14.972202,-16.095158,-12.273228,-14.224985,11.552181,24.561041,30.917098,35.191004,29.366841,42.662903,48.478828,51.13522,41.882106,56.049281,60.563582,61.456307,49.438442,62.837133,65.246387,63.799945,0.383875,302.126852,-66.512712,279.30879
27,4.523231,-0.081091,-0.692883,-2.023524,0.45678,-1.507782,-2.3367,-4.260315,-20.882732,-0.004074,19.41568,31.079476,-27.681793,-3.442749,16.530739,33.062005,-30.981926,-14.103069,3.686886,16.67062,-30.884422,-40.730896,-47.02827,-52.413723,-21.308708,-31.308323,-34.417308,-35.050917,-7.49976,4.579979,10.581205,14.507506,10.458964,22.447535,25.517555,25.323227,23.32155,33.772536,34.020994,33.217091,33.421213,41.511986,45.220284,47.828794,24.435436,48.631428,70.780151,88.687386,50.168644,82.327446,99.865013,113.294884,41.268562,77.355812,98.184677,112.651451,32.110703,65.486881,85.328751,99.036003,23.732391,49.044937,64.459843,75.985565,-15.18681,-15.698807,-11.264794,-12.30824,10.65265,24.493573,31.395577,36.104194,28.404955,43.152016,49.510665,52.643622,41.050711,56.608986,61.45837,62.552081,48.784147,62.976491,65.634624,64.297555,5.006069,302.024766,-67.106632,277.264271
28,2.105553,-1.18788,6.135178,-4.538606,-4.788528,-9.862541,-12.497452,-13.681961,-23.951351,-10.601555,3.171467,11.416958,-28.334679,-13.082279,-0.157104,11.419064,-29.990696,-20.805187,-10.175949,-1.896515,-28.864036,-39.476463,-46.948368,-52.739262,-21.644557,-31.705638,-35.063761,-34.770249,-7.444568,3.898624,9.343899,13.209487,10.655453,22.934609,25.861171,25.877943,24.009956,34.719404,35.265561,34.426027,33.939854,42.530732,45.546499,47.415091,25.564247,48.613586,67.932678,82.066383,49.916645,73.927963,85.270408,93.506046,39.968433,67.812263,80.986862,89.061641,30.23386,55.93135,68.340156,75.991413,21.178093,40.896858,51.044952,58.221862,-8.892417,-7.894716,-3.164202,-2.897329,12.829217,29.874084,37.227706,41.587977,26.185682,45.933193,53.803567,56.997372,36.331053,56.091444,62.862105,64.031621,43.044706,59.684898,64.179204,63.593242,7.263004,300.836824,-60.820072,272.725603
29,11.084553,-3.743113,-6.809704,-15.28503,-9.687,-19.50285,-26.760647,-31.534584,-33.397648,-32.059227,-25.647755,-21.988598,-35.0606,-33.115345,-28.058476,-22.530338,-34.207672,-36.302685,-33.233574,-30.687378,-31.286728,-45.726757,-54.70649,-61.815434,-21.157271,-29.456453,-29.316687,-26.333426,-4.318354,7.315559,12.542164,16.113351,13.641247,25.68769,28.938318,29.265497,27.064514,38.130089,39.586127,39.384537,37.034859,46.284639,49.305062,51.129453,24.5984,48.095054,67.065983,79.754448,53.788067,75.401619,81.865837,85.282951,45.435287,70.299969,78.038784,81.086712,36.349285,59.410217,66.90398,69.932705,27.316726,45.703331,52.578598,56.212887,-0.021118,3.736345,7.684901,7.652395,17.011658,33.653209,40.124739,43.230167,24.424412,43.780758,51.123426,53.548908,29.972341,49.153106,56.024469,57.128777,33.276791,49.130579,54.314823,54.379574,18.559771,297.261957,-67.417562,257.608819
30,6.025886,-0.698631,-17.360058,-21.861733,-13.866863,-27.080417,-36.689392,-42.111717,-37.040485,-44.913105,-46.098964,-47.686603,-36.31644,-45.196849,-48.362766,-49.828571,-33.122932,-44.227157,-48.930507,-52.245586,-28.026317,-44.8778,-55.393512,-63.718151,-21.185196,-28.47603,-26.083597,-21.261705,-3.630233,7.127343,12.88841,17.518814,14.390822,25.353039,29.427776,31.367616,28.133673,38.304052,41.243804,42.548232,37.973255,47.018752,49.886268,51.730666,22.447094,46.273418,65.773613,77.990227,53.012558,75.543514,77.625023,76.41806,46.778183,71.86417,74.735847,72.989513,39.578213,63.095695,65.728203,63.973904,32.124504,50.92947,54.134457,53.725845,-2.589849,-1.351864,1.617244,3.064957,5.931856,20.300436,27.104825,30.003093,13.260012,29.473435,36.715214,39.178068,19.802505,35.286952,41.836954,43.093205,24.852824,36.406598,40.686149,41.07735,24.970338,296.816802,-84.392939,236.000562
31,13.041516,-3.36252,-27.023529,-29.751941,-19.790314,-38.62983,-53.360768,-62.058586,-47.230774,-67.063797,-75.986229,-82.668366,-43.61261,-65.521912,-76.783116,-84.656307,-37.839913,-59.77105,-71.783707,-80.785515,-30.769306,-51.069557,-63.082478,-72.696671,-20.919002,-26.211741,-19.913816,-11.602791,0.090625,10.192301,15.263504,19.420369,17.819674,27.833405,32.133729,35.081199,31.275101,41.446246,45.352639,47.584349,40.65347,50.282422,53.636865,56.063779,17.568558,39.321796,58.383728,70.46458,46.954811,68.076015,68.08128,64.080459,44.280018,68.391403,67.022072,61.009369,40.301342,63.065369,60.560989,54.069809,35.50153,53.802177,52.860374,48.341812,-6.572127,-10.150872,-9.737237,-7.881606,-10.999829,-2.308409,5.126359,8.854941,-3.912642,7.308309,15.073578,17.981961,4.037927,15.581457,22.621004,24.136204,11.558251,19.510271,23.73524,24.163097,38.287623,293.802588,-111.140699,206.596927
32,9.683944,-4.709815,-31.773022,-38.109224,-23.752647,-45.928779,-65.619163,-77.903915,-52.30862,-80.645393,-95.672321,-106.498603,-46.928844,-78.020233,-96.573051,-109.95964,-39.736461,-68.133304,-85.400173,-98.211937,-31.719039,-54.24385,-67.842887,-78.658985,-20.33719,-23.117144,-13.475941,-2.443057,5.470889,17.616219,22.926273,26.862256,23.31509,34.945249,39.742911,43.103689,36.427408,48.060852,52.951608,55.700341,44.90133,55.810565,59.404859,61.353307,14.800369,32.039921,46.015,53.042816,36.156063,50.459324,48.623062,42.823025,33.724034,51.03796,47.286782,39.011879,30.64571,47.620594,42.80428,34.30909,26.947415,41.158951,38.715431,32.826153,-8.063214,-16.27537,-20.157063,-20.057818,-22.039784,-20.570445,-14.115891,-10.436776,-16.615455,-12.669134,-5.79246,-2.400368,-9.211691,-4.541508,1.88345,4.455459,-1.334068,0.87672,4.667115,6.433547,48.217105,289.522926,-142.668183,168.917856
33,4.952271,-0.640043,-46.767093,-37.591045,-22.88031,-45.340096,-66.037285,-80.121128,-53.101524,-83.160336,-100.134132,-112.949192,-47.718796,-80.559265,-100.359661,-115.824268,-39.912163,-69.795422,-87.901714,-102.055927,-30.903671,-54.859692,-68.772411,-80.414806,-19.473758,-20.868342,-8.641686,3.700245,7.359846,19.629258,25.942669,30.756003,24.948772,35.801715,41.408159,45.874591,37.698923,48.757137,54.706332,58.781217,45.97538,56.736451,60.781856,63.285366,9.84597,22.126281,33.508598,40.403583,20.460891,38.359909,43.008052,42.115287,20.037986,41.313858,44.882732,42.174282,19.611579,41.046901,42.872062,39.303051,19.199077,36.627445,38.991027,36.497898,-19.982847,-34.748692,-43.45148,-46.592192,-40.993029,-49.729693,-44.550828,-40.063525,-32.059412,-39.056555,-33.913276,-29.535926,-21.941397,-27.070818,-22.408965,-18.245591,-11.817571,-16.993305,-15.309538,-12.893096,53.284756,289.373253,-189.319896,131.817181
34,2.88739,-0.132159,-39.932671,-30.933899,-23.656952,-46.368622,-67.547951,-81.579082,-54.098007,-84.656101,-101.652363,-114.523041,-48.74279,-82.201126,-101.963985,-117.474037,-40.970718,-71.345329,-89.424065,-103.574238,-31.928902,-56.112144,-70.229484,-82.013512,-19.04437,-20.470459,-8.322152,4.299916,8.071804,20.274649,26.448653,31.057136,25.758197,36.244405,41.723865,46.17066,38.406682,49.201432,55.065202,59.13653,46.405188,57.044809,61.048545,63.600257,6.467731,11.580242,17.190731,21.06205,-1.434139,13.520245,23.001892,26.634739,-2.769138,17.328335,26.353054,28.090301,-1.97929,19.668846,26.084255,26.375473,0.17371,17.212486,22.634216,22.918304,-34.619128,-57.018009,-69.427619,-74.960202,-62.382057,-77.77231,-72.966757,-67.060404,-48.81036,-61.411829,-55.388169,-49.029908,-34.082084,-44.222101,-38.72364,-32.529111,-19.412057,-29.034661,-27.566749,-23.938949,56.102646,289.617926,-229.322067,101.260114
35,1.849182,-0.613132,-33.761318,-27.891383,-24.354629,-47.138901,-68.449631,-82.260372,-55.175995,-85.844547,-102.602268,-115.253185,-49.649551,-83.285339,-102.892193,-118.301445,-41.793937,-72.381283,-90.382118,-104.444252,-32.700325,-56.838867,-70.966781,-82.843242,-18.615711,-20.02882,-8.011362,4.883272,8.931815,21.122346,27.248543,31.763041,26.590975,37.125867,42.545911,46.893288,39.146699,50.022218,55.793548,59.745488,47.042057,57.773599,61.716165,64.165076,3.485584,1.258541,-0.377587,-0.805458,-19.852455,-11.77422,0.978149,8.81797,-22.93594,-7.268051,6.828678,12.964039,-22.33857,-3.666275,7.589607,12.113662,-19.291947,-4.419377,4.497379,8.086269,-37.113276,-61.792341,-77.039691,-86.559671,-67.444918,-87.804294,-86.502379,-82.098723,-55.116189,-70.869102,-64.288385,-56.626511,-41.269165,-53.739371,-46.783613,-38.636134,-27.137034,-38.075878,-35.333685,-30.23504,57.602377,289.419173,-263.432836,73.78311
36,1.611855,-0.657469,-26.744946,-20.253759,-24.909508,-47.780846,-69.134056,-82.927506,-55.629708,-86.612,-103.270397,-115.866394,-50.062866,-84.098751,-103.65675,-119.069985,-42.222817,-73.111164,-91.135689,-105.269623,-33.198235,-57.430229,-71.622677,-83.695931,-18.160796,-19.297485,-7.049365,5.828362,9.567609,21.977589,28.048594,32.400738,27.188843,37.793574,43.158882,47.44488,39.714222,50.763977,56.483621,60.389816,47.593303,58.447766,62.352442,64.788434,2.411499,-4.848163,-12.488674,-18.289169,-34.374321,-29.805542,-16.4939,-6.62701,-40.018593,-26.925178,-8.714653,0.451733,-40.438282,-23.343521,-7.404773,0.36969,-37.122883,-23.530838,-10.761863,-4.482445,-38.889236,-63.678358,-80.959032,-93.865739,-65.854183,-88.033647,-91.839732,-91.58676,-54.835495,-74.068137,-67.612162,-59.066492,-42.755608,-59.624172,-52.282153,-42.392497,-30.393509,-44.930556,-41.875047,-34.649409,58.932284,289.242733,-290.45973,54.01038
37,1.409157,-0.615935,-22.260463,-12.083333,-25.098862,-48.206635,-69.699498,-83.731419,-56.010704,-87.307354,-103.956883,-116.5971,-50.382042,-84.863583,-104.416592,-119.878304,-42.526658,-73.841801,-92.020306,-106.302063,-33.494133,-57.95945,-72.33791,-84.663483,-17.799828,-18.673831,-6.34546,6.411878,10.355321,22.912478,28.902206,33.142434,27.855326,38.577804,43.76427,47.941068,40.264171,51.498645,57.152352,61.036206,48.063606,58.999826,62.851804,65.321265,-0.865757,-10.926716,-19.611981,-26.169079,-44.772423,-37.260659,-23.459004,-12.676552,-48.844723,-31.637112,-11.61731,-2.459839,-46.978386,-26.131817,-8.917386,-1.528325,-41.067982,-25.056954,-11.382477,-5.669964,-42.720769,-67.821175,-85.534336,-100.051105,-68.700834,-92.917092,-100.994459,-104.63879,-57.566092,-80.047213,-72.310806,-62.870712,-45.843351,-65.999674,-56.895403,-46.017753,-33.995503,-51.086338,-46.91096,-38.606851,60.011296,289.105768,-313.050338,42.406017
38,1.465484,-0.482728,-13.722291,-12.289536,-25.202568,-48.596008,-70.24205,-84.592644,-56.415985,-88.000374,-104.697452,-117.467972,-50.817673,-85.685325,-105.306106,-120.96207,-43.022186,-74.751526,-93.132728,-107.663303,-34.013901,-58.706337,-73.232254,-85.801895,-17.504093,-18.159882,-5.821137,6.763288,10.874322,23.531859,29.42874,33.577861,28.272228,39.029533,44.049607,48.134607,40.60591,51.914337,57.512074,61.411711,48.397268,59.349877,63.181083,65.746997,-2.283519,-13.32756,-22.534,-29.843364,-49.954273,-41.382648,-29.242961,-19.641059,-53.567768,-33.694644,-14.448051,-7.796447,-50.522323,-27.054565,-10.485649,-5.592807,-43.11446,-25.140827,-12.07917,-8.482658,-42.549535,-67.013189,-84.776986,-100.070513,-67.536678,-93.643085,-105.028824,-111.825383,-57.025128,-82.909536,-73.791032,-63.394109,-46.066239,-69.528537,-58.768367,-47.472827,-35.177474,-55.137486,-49.299003,-39.790656,61.203111,289.168488,-327.046298,30.661929
39,1.152512,-0.634078,-5.471157,-15.070657,-25.471619,-49.136193,-70.836823,-85.431141,-57.002678,-88.796814,-105.611138,-118.546852,-51.284958,-86.441288,-106.11541,-121.860993,-43.435158,-75.548676,-94.116417,-108.867932,-34.381119,-59.295227,-73.966027,-86.690884,-17.334205,-17.700163,-5.270645,7.215746,11.583538,24.311014,30.150231,34.188844,28.910308,39.726103,44.559665,48.490116,41.178003,52.557159,57.962827,61.728083,48.918775,59.962441,63.737046,66.309037,-2.802749,-13.780643,-22.459476,-29.887378,-51.498115,-40.558204,-29.445934,-20.453281,-54.504043,-32.244815,-14.45327,-9.921993,-50.340042,-25.285686,-10.214126,-7.720619,-41.589122,-22.430408,-10.663238,-9.278961,-40.141541,-64.162426,-81.794349,-96.907886,-63.972618,-90.266641,-104.625415,-114.230247,-53.527141,-81.338699,-71.942213,-61.286012,-42.804558,-68.377929,-57.335721,-46.155179,-32.611158,-54.402613,-48.083051,-38.186912,62.10549,289.16989,-332.767588,16.226752
40,0.849861,-0.509997,0.927498,-12.46358,-25.749527,-49.729843,-71.626282,-86.392559,-57.631714,-89.76796,-106.672817,-119.690197,-51.723198,-87.314198,-107.020786,-122.718063,-43.78862,-76.376175,-95.113403,-109.999054,-34.780174,-60.076355,-74.914902,-87.68969,-17.288831,-17.403723,-4.916073,7.678763,12.045876,24.932013,30.781086,34.740461,29.403015,40.418078,45.114049,48.848998,41.652642,53.235006,58.393771,61.923363,49.346064,60.526742,64.082614,66.491189,-2.347137,-12.071342,-19.183983,-25.885551,-49.974758,-36.410946,-24.653812,-15.41518,-51.447967,-27.735328,-11.11148,-7.722725,-45.598823,-19.599621,-5.8003,-5.396393,-35.345375,-15.400406,-4.84465,-5.038021,-38.470969,-61.77237,-79.411795,-94.102768,-61.648276,-88.238461,-103.230504,-113.478892,-51.830856,-81.501133,-74.261718,-64.990345,-42.235565,-68.936449,-58.678063,-47.900202,-33.370929,-56.183637,-50.251571,-40.351899,62.696743,289.357113,-332.098698,4.460392
41,0.418373,-0.449765,9.393299,-16.613386,-26.071541,-50.320244,-72.50433,-87.523304,-58.410484,-90.830566,-107.744911,-120.744781,-52.308311,-88.315704,-107.993168,-123.577423,-44.280235,-77.321423,-96.1409,-110.983063,-35.325691,-60.922829,-75.789116,-88.43993,-17.276283,-17.234589,-4.738677,7.986749,12.459442,25.441503,31.381621,35.368821,29.860511,41.03263,45.635815,49.179461,42.094922,53.71861,58.661953,61.982359,49.77492,60.922154,64.240905,66.474603,0.3158,-7.362888,-12.469665,-16.868683,-44.970829,-28.484493,-15.476257,-6.083473,-46.699276,-19.59296,-5.292858,-4.538543,-40.577762,-11.515525,-0.028049,-2.326332,-29.915668,-7.629593,1.374459,-0.598743,-37.798187,-61.438282,-79.55996,-94.303525,-63.733045,-89.892653,-103.284329,-111.756986,-53.218444,-81.743022,-73.88753,-64.448213,-42.923045,-68.504462,-57.585588,-47.137492,-33.718362,-55.756151,-48.94602,-39.261369,62.824253,289.579023,-322.996262,-11.481319
42,0.039757,-0.553741,13.455963,-16.115339,-26.654618,-51.032067,-73.305199,-88.415978,-59.12867,-91.679604,-108.540837,-121.528073,-52.915375,-89.008393,-108.613793,-124.068512,-44.861206,-78.054188,-96.799977,-111.501675,-36.02758,-61.555321,-76.271404,-88.718285,-17.081337,-16.804534,-4.16919,8.501204,12.764329,26.036111,32.043932,35.911928,30.265927,41.669611,46.248009,49.527499,42.533178,54.269165,59.06979,62.135858,50.198738,61.394582,64.552362,66.571613,0.927716,-4.348846,-7.181991,-8.953296,-37.709449,-19.440044,-4.948139,5.744236,-38.402744,-10.192749,3.828164,5.725754,-31.795738,-2.079872,8.327786,5.74252,-21.112655,2.206673,9.498951,6.786141,-36.067483,-60.009618,-77.978315,-92.076187,-65.22357,-89.846333,-101.619012,-108.732042,-55.020216,-81.431247,-77.266666,-71.150263,-44.342155,-67.204486,-58.391788,-49.625601,-34.280099,-54.146435,-48.839926,-40.890727,62.442558,289.862541,-309.961751,-26.759399
43,-0.305763,-0.534165,20.869629,-17.872304,-27.11625,-51.595414,-73.964127,-89.136601,-59.763062,-92.421044,-109.238972,-122.161652,-53.438599,-89.626099,-109.160317,-124.41631,-45.315239,-78.591465,-97.24561,-111.753491,-36.532837,-62.07486,-76.670186,-88.88918,-16.855072,-16.383126,-3.62302,9.144161,13.047961,26.566867,32.685073,36.537558,30.569665,42.185695,46.813111,49.926752,42.845424,54.747668,59.499226,62.351787,50.497906,61.785733,64.828682,66.631201,4.731629,3.363774,4.016087,5.289586,-28.126007,-6.465568,8.999291,19.744172,-29.205494,2.225041,13.479332,13.726147,-23.197403,8.955323,16.412236,12.437199,-13.414169,11.995537,16.956448,12.913342,-35.966243,-61.066995,-79.275979,-93.305089,-67.822555,-90.095083,-99.277959,-104.443884,-56.918081,-79.950537,-75.067605,-70.039719,-45.195114,-65.208611,-56.112667,-48.063032,-34.14389,-51.975884,-46.463505,-39.259751,61.552906,290.278122,-289.676011,-43.681957
44,-0.419106,-0.485235,21.683224,-11.311391,-27.586876,-52.197967,-74.684051,-89.811653,-60.385437,-93.080166,-109.802147,-122.657112,-53.891464,-90.154163,-109.614166,-124.75613,-45.640045,-78.996792,-97.534355,-111.861786,-36.842766,-62.453979,-76.953552,-88.998436,-16.686147,-16.040102,-3.186507,9.776671,13.317304,27.050348,33.233528,37.033142,30.897782,42.657765,47.369766,50.366514,43.153584,55.199496,59.942175,62.638902,50.730964,62.126867,65.089973,66.687555,7.20377,10.192852,14.605168,19.038094,-17.592441,7.300781,24.090603,35.662811,-17.960071,15.37777,24.645184,23.255985,-12.125919,20.910771,26.501518,21.093956,-3.242329,22.938561,26.337376,21.247696,-35.706737,-60.793639,-78.479145,-92.289001,-72.413952,-92.998594,-100.184603,-104.209628,-62.352926,-81.863336,-77.056314,-72.866233,-50.819376,-67.34147,-58.280236,-50.974514,-39.369617,-54.269498,-48.779046,-42.217269,60.375257,290.934028,-268.75133,-53.852207
45,-0.24868,-0.437563,23.571293,-10.710763,-27.994698,-52.739685,-75.31033,-90.410305,-60.918778,-93.576016,-110.291416,-123.159874,-54.395004,-90.631588,-110.077446,-125.258686,-46.097992,-79.377834,-97.817757,-112.053944,-37.284966,-62.772698,-77.14975,-89.108963,-16.455423,-15.752222,-2.857106,10.26172,13.574099,27.379564,33.563695,37.273833,31.140745,42.92954,47.714061,50.636177,43.388272,55.512916,60.311812,62.925287,50.944472,62.455725,65.437615,66.934606,10.334965,16.707745,24.24408,31.794788,-6.840179,21.62883,39.014935,50.527153,-7.66943,28.916233,35.605282,31.354282,-2.852852,32.056789,35.288029,28.005512,4.772289,32.521454,34.335926,27.472847,-35.131749,-60.293313,-77.77444,-91.474455,-77.558453,-95.335368,-100.237672,-102.875915,-67.720979,-82.406518,-74.769437,-69.890423,-55.465474,-68.092309,-57.978487,-51.466301,-43.018777,-54.693649,-48.145006,-41.944258,59.265764,291.551168,-246.04085,-63.508267
46,-0.226868,-0.48174,20.168999,-6.380146,-28.426529,-53.260139,-75.820472,-90.933437,-61.425293,-93.922886,-110.57246,-123.452602,-54.858627,-90.902389,-110.249393,-125.391575,-46.487961,-79.603752,-97.905636,-112.052181,-37.622085,-62.95578,-77.239231,-89.136829,-16.267072,-15.393069,-2.374353,10.754044,13.850506,27.757996,33.919723,37.532715,31.434096,43.278196,48.045612,50.839361,43.677178,55.951628,60.746708,63.206499,51.178482,62.892856,65.928136,67.293598,11.872822,21.163604,31.629776,41.755176,2.54908,34.253242,51.962047,63.681759,2.668625,40.690132,45.076664,39.549431,7.781192,42.934765,44.07827,35.890617,15.053226,42.994514,42.88195,34.801231,-33.38623,-57.593608,-73.706076,-86.135189,-78.784235,-94.434031,-98.22353,-100.686288,-70.196315,-81.15588,-73.382855,-70.016451,-58.539477,-67.145912,-57.403825,-52.425439,-46.216163,-54.583134,-47.90587,-42.780734,58.11775,292.026862,-226.792997,-68.930979
47,-0.097229,-0.27621,18.894058,-5.235101,-28.73822,-53.613373,-76.163177,-91.113006,-61.862297,-94.219471,-110.752578,-123.555679,-55.22493,-91.145656,-110.374351,-125.46627,-46.726387,-79.630817,-97.811096,-111.890545,-37.734398,-62.951385,-77.164547,-89.033386,-16.175174,-15.312052,-2.22625,11.107454,13.777246,27.743077,33.937113,37.583203,31.388463,43.253669,48.113562,51.002,43.693579,56.090246,61.008036,63.509447,51.242394,63.155543,66.280916,67.584122,15.266888,26.980568,40.054768,52.2659,9.762508,45.524082,61.020687,69.150845,9.099586,50.412254,50.557892,40.805901,13.519054,51.342567,49.25235,38.740219,19.92651,49.533131,47.747921,38.216858,-32.92606,-56.633254,-72.147137,-83.852372,-80.958896,-94.255727,-94.44451,-94.79696,-72.566191,-79.847957,-67.400636,-62.535161,-60.895239,-66.460193,-54.237146,-49.538101,-48.546309,-54.463709,-45.62938,-40.298146,57.168056,292.457608,-208.751404,-73.459124
48,-0.07164,0.017266,11.134758,-1.58843,-28.911598,-53.799637,-76.464638,-91.287494,-61.95195,-94.328052,-110.776451,-123.45829,-55.275764,-91.250152,-110.412037,-125.375278,-46.693382,-79.59407,-97.671638,-111.6133,-37.656074,-62.920189,-77.06456,-88.865959,-16.152994,-15.351733,-2.235291,11.268178,13.636294,27.632877,33.838756,37.461579,31.298245,43.180309,48.073251,50.976583,43.626196,56.124406,61.065637,63.546657,51.140431,63.150689,66.291945,67.523618,14.519829,26.962429,41.059616,54.106705,13.569134,51.030762,66.001682,73.612598,13.777794,55.149376,54.111866,44.138775,18.47707,55.893608,52.866211,42.310673,24.759739,53.703953,51.075165,41.418285,-30.572586,-52.755909,-66.655624,-76.89814,-80.649169,-92.195721,-91.056509,-90.927883,-73.511408,-78.177173,-65.959218,-62.079434,-62.681964,-65.258694,-53.531117,-50.04049,-50.686572,-53.604533,-44.919603,-40.644319,56.417307,292.92341,-198.295755,-74.599018
49,0.045914,0.137135,8.360184,-1.151923,-29.003609,-53.827126,-76.553158,-91.38897,-62.0728,-94.344498,-110.663097,-123.208328,-55.427376,-91.225903,-110.216721,-125.043881,-46.803452,-79.508217,-97.428257,-111.234158,-37.692856,-62.856514,-76.886421,-88.563675,-16.141088,-15.389141,-2.294645,11.192423,13.440076,27.384048,33.635647,37.399186,31.13394,43.040025,47.961446,50.945424,43.535473,56.138942,61.136168,63.695809,51.100467,63.267113,66.473145,67.702509,15.116604,27.38372,41.813255,55.447208,14.367759,52.878307,67.229072,73.576034,14.33662,57.041153,54.466026,43.668628,19.093116,57.795398,53.223438,42.194412,25.469879,55.172733,51.523029,41.373275,-30.116238,-52.01588,-65.719784,-75.747993,-80.123871,-91.028675,-88.43124,-87.271438,-72.99444,-76.701271,-63.396718,-60.134367,-62.200817,-63.834248,-51.642852,-48.984935,-50.261495,-51.990358,-42.782594,-39.187213,56.019693,293.179637,-190.379099,-75.631849
50,0.023849,0.19607,4.355747,-0.964091,-29.025055,-53.689659,-76.428108,-91.237541,-61.989807,-94.176532,-110.379684,-122.86671,-55.357338,-91.043254,-109.903164,-124.627155,-46.712013,-79.407383,-97.212524,-110.887985,-37.573974,-62.768257,-76.682911,-88.19783,-16.181844,-15.421634,-2.35032,11.072553,13.232619,27.119151,33.408405,37.300015,30.959866,42.87609,47.801945,50.84997,43.383851,55.993915,61.000688,63.633898,50.957823,63.220133,66.511961,67.800273,14.291714,26.475002,41.523662,55.472935,12.734024,52.149376,66.22364,71.991875,13.218361,56.60091,52.600971,41.171299,18.599316,58.087463,51.881939,40.385067,25.457325,55.354671,50.475666,39.913319,-29.900939,-51.54134,-65.001225,-74.898461,-78.451197,-89.894783,-87.249,-86.083433,-71.348535,-75.367931,-61.727391,-59.209614,-60.76838,-62.473722,-50.100258,-48.13733,-49.050804,-50.404558,-40.871338,-37.867773,55.774492,293.403081,-186.292402,-76.568566
51,-0.155456,0.342258,1.783012,-0.438996,-28.897568,-53.375244,-76.080425,-90.841255,-61.711281,-93.921066,-110.040836,-122.431011,-55.090691,-90.776676,-109.547367,-124.148838,-46.434563,-79.127403,-96.825794,-110.36396,-37.273888,-62.517815,-76.351879,-87.721127,-16.267603,-15.577209,-2.539412,10.908445,12.934673,26.801914,33.146472,37.150418,30.70785,42.662273,47.605887,50.697125,43.179778,55.825571,60.855364,63.561033,50.77104,63.127693,66.466624,67.788355,13.744217,25.695317,40.693806,54.403027,10.502587,49.678299,63.732628,69.429371,11.161869,54.34124,50.01043,38.658417,16.659359,56.326435,49.682122,38.231404,23.722481,53.688183,48.557946,38.163185,-28.807839,-50.476781,-63.985406,-74.232196,-76.985542,-88.746929,-86.303243,-85.213484,-70.097295,-74.505704,-60.854333,-58.566166,-59.776674,-61.988114,-49.491097,-47.628834,-48.363423,-49.73803,-40.204841,-37.343574,55.443409,293.768085,-184.685017,-76.984816
52,-0.265823,0.402131,-0.031265,-0.520155,-28.738816,-53.030114,-75.776551,-90.467068,-61.39563,-93.667798,-109.781434,-122.123967,-54.795228,-90.514824,-109.242474,-123.727158,-46.160225,-78.940465,-96.512307,-109.86747,-37.041207,-62.406327,-76.11953,-87.271958,-16.341049,-15.742749,-2.828503,10.667914,12.653536,26.491766,32.92096,37.044603,30.410373,42.479504,47.490809,50.585913,42.897208,55.594303,60.594753,63.31019,50.502661,62.942009,66.266318,67.579181,13.136593,24.568748,38.853687,51.860779,9.2868,47.170795,63.351334,71.725479,9.936115,52.592651,48.501709,37.297989,15.428307,55.01627,48.568062,37.232906,22.687592,52.778446,47.788548,37.408401,-27.219482,-48.736185,-62.488314,-73.633201,-75.215169,-87.856467,-87.555072,-87.446836,-68.754412,-73.567082,-60.288903,-57.966541,-58.78834,-61.366142,-48.998495,-47.073617,-47.666952,-49.202944,-39.711473,-36.849039,55.060238,294.192696,-184.83363,-77.482491
53,-0.298073,0.206654,0.14431,-0.281563,-28.623207,-52.75898,-75.405693,-90.070839,-61.181191,-93.446869,-109.532845,-121.839547,-54.564057,-90.25549,-108.93504,-123.368145,-45.9012,-78.640675,-96.129525,-109.40783,-36.725029,-62.034394,-75.670704,-86.688046,-16.427512,-15.833745,-2.906469,10.54592,12.444449,26.244542,32.678429,36.888337,30.253873,42.313617,47.305619,50.395091,42.825331,55.528354,60.558332,63.32727,50.489779,63.00003,66.385163,67.72012,13.242496,24.374313,38.118977,50.568192,8.230259,44.943272,62.041454,71.839211,8.802475,50.850117,46.946571,35.925613,14.324455,53.64798,47.41436,36.220116,21.80484,51.95422,47.19429,36.909576,-25.948221,-47.354285,-61.41164,-73.344376,-73.821441,-86.996666,-88.098377,-88.741773,-67.785064,-72.996653,-59.848082,-57.432425,-58.163868,-61.138876,-48.684266,-46.571247,-47.348425,-49.246102,-39.674905,-36.577838,54.600575,294.424143,-184.85091,-77.739261
54,-0.283013,0.247705,-0.069809,-0.561422,-28.384758,-52.403686,-75.00523,-89.615169,-60.905159,-93.253223,-109.399372,-121.74805,-54.294204,-90.072818,-108.797893,-123.238987,-45.612259,-78.444225,-95.969158,-109.242347,-36.416862,-61.794113,-75.442497,-86.434845,-16.552741,-16.060232,-3.200585,10.201613,12.173341,25.949042,32.405184,36.668939,29.969464,42.006471,47.034696,50.158934,42.574291,55.20493,60.259523,63.073835,50.309247,62.749719,66.120847,67.47927,12.357262,23.113392,36.269611,47.904465,7.788048,43.502438,61.028217,71.802818,8.566155,50.049328,46.14584,35.245983,14.181038,53.177296,47.028053,35.97504,21.787571,51.906155,47.225281,37.002869,-24.996728,-46.109403,-60.027276,-71.982381,-72.436312,-86.080359,-88.114599,-89.276372,-66.691004,-72.18889,-59.257286,-56.854886,-57.347895,-60.5701,-48.16187,-46.01734,-46.759456,-48.961995,-39.388575,-36.238742,54.143245,294.701763,-185.095036,-78.270768
55,-0.487724,0.15613,0.015289,-0.544565,-28.067505,-52.037453,-74.614231,-89.178967,-60.603539,-93.106934,-109.24894,-121.471836,-53.941956,-89.872158,-108.581463,-122.845196,-45.186951,-78.08836,-95.619335,-108.822121,-35.901352,-61.341042,-75.025646,-85.978615,-16.585444,-16.181288,-3.407672,9.981349,12.038453,25.858257,32.354091,36.710855,29.843628,41.955502,46.998696,50.151474,42.489582,55.207054,60.329263,63.206956,50.249225,62.698367,66.054811,67.404638,12.100651,22.642685,35.323861,46.174279,7.547642,42.610188,60.319714,71.522175,8.383313,49.720333,45.842755,34.9422,14.016827,52.942669,46.965912,36.029148,21.729309,51.973332,47.484444,37.347988,-24.084612,-45.094208,-59.065847,-71.159013,-71.389929,-85.130072,-87.373131,-88.590185,-65.854008,-71.477118,-58.58503,-56.112071,-56.713428,-60.111917,-47.702576,-45.451008,-46.272646,-48.732449,-39.132576,-35.879453,53.501295,294.884375,-185.233973,-78.788851
56,-0.157471,0.134986,0.236859,-0.645909,-27.926948,-51.857185,-74.461441,-88.957546,-60.471702,-93.028061,-109.187622,-121.411571,-53.796638,-89.792759,-108.503586,-122.781852,-45.0,-77.968448,-95.501781,-108.709121,-35.675125,-61.197441,-74.879333,-85.795669,-16.565968,-16.25829,-3.600407,9.789479,12.029314,25.698657,32.185538,36.632605,29.774654,41.769683,46.88242,50.162911,42.405774,55.064485,60.207245,63.133597,50.207581,62.580029,65.873413,67.200726,12.433262,22.793346,35.264579,45.986744,7.457508,42.088199,59.664013,70.764736,8.133259,49.492584,45.702896,34.787613,13.670791,52.662689,46.820514,35.957096,21.315033,51.797126,47.426777,37.27811,-23.404024,-44.183914,-58.106011,-70.375963,-70.695197,-84.385319,-86.294111,-87.104529,-65.277238,-71.004511,-58.037125,-55.493076,-56.276751,-59.694973,-47.134485,-44.755995,-45.905744,-48.423018,-38.773516,-35.446898,53.182686,295.015563,-185.158252,-79.438558
57,-0.150856,0.104087,0.212059,-0.568122,-27.772018,-51.747322,-74.389961,-89.015407,-60.417846,-93.086849,-109.214996,-121.362098,-53.660957,-89.781887,-108.453529,-122.640232,-44.786796,-77.822284,-95.400146,-108.608276,-35.38298,-60.97007,-74.711712,-85.627922,-16.624384,-16.291216,-3.709113,9.628025,12.137377,25.722393,32.192083,36.69617,29.872527,41.772486,46.872885,50.201381,42.472699,55.101041,60.250025,63.21465,50.225895,62.521761,65.797497,67.174371,12.99028,23.675949,36.644062,48.153557,7.413597,42.000423,59.519314,70.603992,8.086876,49.239589,45.437061,34.59724,13.613422,52.351993,46.518745,35.745174,21.215847,51.547542,47.130146,37.030678,-23.146309,-43.789743,-57.579583,-69.895434,-70.385454,-83.716146,-85.474658,-86.235806,-64.913753,-70.544301,-57.492357,-54.981443,-55.911173,-59.349983,-46.671314,-44.198543,-45.595356,-48.150749,-38.420514,-35.028978,52.857462,295.092168,-185.120561,-80.034162
58,-0.042892,0.038779,0.109165,-0.565838,-27.711273,-51.714409,-74.392845,-89.040001,-60.442154,-93.169911,-109.272549,-121.416779,-53.649285,-89.800827,-108.462536,-122.720249,-44.739624,-77.796993,-95.402825,-108.674893,-35.325508,-60.907929,-74.632851,-85.534653,-16.59441,-16.295106,-3.826376,9.43182,12.256061,25.758122,32.232974,36.772753,29.919544,41.768337,46.954347,50.425177,42.470464,55.03645,60.212469,63.248959,50.235591,62.489058,65.711726,67.109607,13.131065,24.05254,37.366917,49.377972,7.35347,42.18235,59.808197,71.011505,8.063633,49.170891,45.391571,34.600491,13.582992,52.196365,46.387882,35.670696,21.124283,51.334682,46.920628,36.88813,-23.009272,-43.544946,-57.206141,-69.453791,-70.13584,-83.079863,-84.830882,-85.736829,-64.603787,-70.105576,-57.017502,-54.549607,-55.592522,-58.960995,-46.25908,-43.770897,-45.315793,-47.76902,-38.058205,-34.720725,52.67018,295.092696,-185.155786,-80.638251
59,0.100113,0.003483,0.107632,-0.317002,-27.809418,-51.816628,-74.496746,-89.13422,-60.443962,-93.196839,-109.263634,-121.387802,-53.621933,-89.75568,-108.406586,-122.712673,-44.695404,-77.682804,-95.259465,-108.547016,-35.275292,-60.766892,-74.407002,-85.249535,-16.47669,-16.203605,-3.755364,9.535894,12.299731,25.85281,32.344384,36.895673,29.923126,41.85727,47.150404,50.748921,42.45095,55.127804,60.42363,63.573124,50.210322,62.54693,65.84649,67.302293,13.616695,25.01707,38.942424,51.72837,7.090038,42.104633,59.951316,71.405582,7.747615,48.916477,45.075737,34.282138,13.285011,51.821983,45.989513,35.320758,20.851432,50.948318,46.453296,36.441982,-22.655454,-43.180186,-56.804556,-69.141618,-70.065395,-82.553453,-84.420266,-85.697512,-64.535019,-69.813966,-56.571785,-54.121358,-55.503808,-58.73639,-45.902854,-43.36054,-45.222402,-47.520227,-37.745563,-34.413437,52.646342,295.0442,-185.172105,-81.007232
60,0.121582,-0.197009,0.167369,0.010072,-27.899117,-51.900971,-74.50169,-89.022927,-60.474907,-93.175198,-109.213921,-121.379837,-53.618271,-89.691662,-108.376053,-122.841511,-44.629441,-77.503647,-95.090721,-108.496445,-35.12764,-60.484223,-74.110222,-85.066521,-16.299651,-16.003743,-3.549302,9.754651,12.527504,26.070691,32.527178,37.060733,30.075563,41.978264,47.387477,51.140938,42.564893,55.284057,60.662321,63.890311,50.321337,62.721685,66.095431,67.596373,14.185376,25.88649,40.059998,53.394768,6.919899,41.719895,59.787495,71.580815,7.37249,48.524357,44.6796,33.920437,12.823506,51.258282,45.512558,34.932999,20.358273,50.377602,45.919098,35.925145,-22.231896,-42.812018,-56.455691,-69.012604,-69.95594,-82.067372,-84.09855,-85.589391,-64.521555,-69.563257,-56.193234,-53.654946,-55.535993,-58.681068,-45.620544,-42.919686,-45.253382,-47.48072,-37.559559,-34.121771,52.642576,294.804951,-185.130084,-81.0394
61,-0.151886,0.024602,-0.062221,0.036976,-27.84961,-51.890419,-74.500763,-89.106674,-60.438126,-93.094815,-109.122277,-121.20979,-53.516693,-89.54686,-108.17252,-122.504505,-44.54393,-77.315655,-94.803463,-108.08701,-35.123062,-60.424782,-74.024998,-84.926239,-16.449816,-16.027703,-3.418985,9.883054,12.604593,26.338551,32.798002,37.247638,30.231804,42.369193,47.720323,51.376874,42.731742,55.608852,60.900615,64.033263,50.437761,62.966623,66.291747,67.706869,13.927677,25.779236,40.027016,53.382008,6.973812,41.688034,59.796741,71.730812,7.53796,48.571575,44.568478,33.715118,13.033459,51.188633,45.354217,34.79948,20.531719,50.292904,45.68977,35.618545,-21.940897,-42.418476,-55.92377,-68.28619,-69.679959,-81.488617,-83.743263,-85.526995,-64.233387,-69.061213,-55.758711,-53.274613,-55.234923,-58.237345,-45.237827,-42.638882,-44.947619,-47.068739,-37.128782,-33.767873,52.395624,294.796143,-185.287371,-81.035834
62,0.06118,-0.051994,-0.039002,0.266385,-27.961464,-51.961258,-74.578995,-89.199429,-60.299103,-92.928269,-108.994618,-121.072723,-53.410767,-89.464748,-108.058788,-122.36237,-44.516464,-77.265713,-94.66444,-107.830227,-35.252861,-60.539497,-74.11108,-84.959702,-16.458844,-15.971855,-3.191027,10.21064,12.726044,26.460113,32.881279,37.268671,30.445769,42.591149,47.899794,51.543859,42.987772,55.91853,61.136946,64.191048,50.71423,63.339966,66.600672,67.873768,13.079945,25.151173,39.758034,53.132927,6.609776,41.533963,59.642556,71.515229,7.432766,48.461758,44.426148,33.518532,13.087098,51.089104,45.241322,34.681721,20.707444,50.133133,45.453049,35.40453,-21.85583,-42.346945,-55.710685,-67.729161,-69.3275,-80.910855,-83.268594,-85.327738,-63.725357,-68.615838,-55.361322,-52.893884,-54.623918,-57.678883,-44.777391,-42.223456,-44.314893,-46.285052,-36.420967,-33.136932,52.391504,294.711344,-185.391673,-80.802254
63,0.138107,0.049956,-0.091335,0.7733,-28.029281,-52.056335,-74.645084,-89.289184,-60.295555,-92.768921,-108.8913,-120.922828,-53.407883,-89.352424,-107.884678,-122.038639,-44.573479,-77.191704,-94.496876,-107.476387,-35.455673,-60.704201,-74.299415,-85.121292,-16.557681,-15.998223,-3.068786,10.458606,12.813544,26.564434,32.958554,37.271005,30.639431,42.862604,48.114316,51.679056,43.218718,56.232926,61.354295,64.28292,50.950858,63.636862,66.850428,67.992354,12.579369,24.866238,39.770428,53.254257,6.474049,41.590862,59.633103,71.39225,7.378956,48.48111,44.242275,33.275494,13.120606,51.130257,45.169956,34.623825,20.860657,50.222969,45.421932,35.31966,-21.76936,-42.22705,-55.540803,-67.299353,-69.06824,-80.371073,-82.714677,-84.890962,-63.29273,-68.045113,-54.816585,-52.419344,-54.093046,-57.135665,-44.202217,-41.720424,-43.734457,-45.732441,-35.749666,-32.435836,52.487634,294.737245,-185.524985,-80.053009
64,0.216912,0.068629,-0.190178,1.619281,-28.135712,-52.156518,-74.67801,-89.407219,-60.306656,-92.633938,-108.824971,-120.832055,-53.433793,-89.276471,-107.795849,-121.847752,-44.670617,-77.180203,-94.426198,-107.23985,-35.701653,-60.831231,-74.384228,-85.166531,-16.569327,-15.888973,-2.834862,10.648723,12.923584,26.640894,33.026159,37.260755,30.809603,43.031998,48.240151,51.71171,43.40397,56.450659,61.482366,64.276412,51.109026,63.890978,67.106655,68.176074,11.980614,24.412022,39.448265,53.009285,6.423523,41.804558,59.506874,70.65921,7.403939,48.545334,44.487065,33.594681,13.188252,51.267472,45.366017,34.814553,21.005196,50.373345,45.539715,35.397904,-22.092216,-42.674505,-56.073471,-67.622709,-68.747051,-79.94082,-81.807427,-83.671119,-62.695764,-67.513253,-54.416741,-52.073289,-53.30507,-56.650529,-43.887333,-41.431902,-42.870223,-45.06642,-35.207565,-31.854641,52.689761,294.851427,-185.729948,-78.388175
65,0.447555,0.226167,-0.412868,2.597976,-28.313095,-52.333923,-74.827228,-89.878063,-60.256508,-92.447525,-108.701294,-120.705116,-53.420517,-89.170876,-107.665981,-121.647892,-44.798195,-77.263687,-94.45919,-107.134449,-36.071159,-61.13015,-74.699741,-85.484653,-16.587309,-15.793445,-2.627751,10.633125,13.087766,26.759801,33.081894,37.149777,31.046589,43.199737,48.219576,51.455273,43.629458,56.621139,61.484268,64.078946,51.258264,64.042575,67.254647,68.261079,11.441265,24.173767,39.60823,53.381538,6.507854,42.12109,59.861377,70.807422,7.668548,48.616482,44.824596,34.057033,13.620243,51.656364,45.713997,35.03001,21.682159,51.12006,46.10963,35.853813,-22.529082,-43.271891,-56.778213,-68.138332,-68.363433,-79.628191,-81.645249,-83.721872,-61.769635,-67.394838,-54.272397,-51.726035,-51.880856,-56.155803,-43.456494,-40.852146,-41.187025,-44.04032,-34.323411,-30.898838,53.17864,295.213007,-186.101492,-75.654786
66,0.781471,0.230292,-0.096783,3.936737,-28.398857,-52.501327,-74.906181,-90.138599,-60.155273,-92.215427,-108.550369,-120.686245,-53.44416,-89.069572,-107.666919,-121.834945,-44.949005,-77.308147,-94.641243,-107.46009,-36.278709,-61.054779,-74.730262,-85.772003,-16.395734,-15.655866,-2.605052,10.322903,13.249552,26.777326,32.983477,36.962871,31.152836,43.079595,47.983467,51.194612,43.703892,56.501146,61.452973,64.156332,51.338774,64.00781,67.437712,68.667545,11.123749,24.309803,40.048828,53.652386,6.608231,42.296207,60.126835,71.012684,7.722462,48.667534,45.085396,34.351627,13.679569,51.710632,45.939228,35.301727,21.884926,51.326466,46.450253,36.359459,-22.937993,-44.053788,-57.781543,-69.02692,-67.880996,-79.225556,-81.540925,-84.081315,-60.786624,-66.882427,-53.93092,-51.31885,-50.393631,-55.619201,-43.166755,-40.322445,-39.352852,-43.167163,-33.738999,-30.10939,54.085659,295.611263,-186.072727,-71.550085
67,0.678658,0.444603,0.071182,5.235058,-28.217926,-52.40934,-74.784565,-90.248909,-59.904305,-91.927792,-108.318363,-120.576691,-53.279801,-88.838036,-107.496884,-121.791847,-44.922661,-77.23415,-94.720333,-107.798882,-36.322151,-60.914383,-74.731396,-86.148949,-16.425066,-15.888776,-3.087829,9.513368,13.267299,26.662235,32.751332,36.613178,31.168224,42.918587,47.669836,50.759926,43.676548,56.255132,61.229202,63.968401,51.273047,63.846654,67.494547,68.988388,10.844021,24.799633,41.363022,54.51899,6.93338,42.452305,60.357972,71.164044,8.132893,48.688877,45.379818,34.681504,14.158104,51.832993,46.087612,35.45517,22.507508,51.587334,46.790097,36.900536,-23.735043,-45.144775,-58.629216,-69.369922,-66.982769,-78.53883,-81.505203,-84.6284,-59.061,-66.004617,-53.389116,-50.542064,-47.961669,-54.493927,-42.538037,-39.313554,-36.4816,-41.818238,-33.00478,-29.171778,55.05003,296.333869,-185.715832,-66.037024
68,0.729721,0.513467,0.597702,6.15554,-27.957848,-52.228935,-74.645874,-90.441971,-59.578995,-91.622864,-108.04929,-120.502258,-53.07946,-88.613045,-107.323849,-121.77475,-44.890617,-77.241909,-94.900166,-108.255192,-36.351151,-60.834229,-74.752579,-86.52705,-16.609737,-16.25992,-3.768528,8.414853,13.137339,26.45489,32.467984,36.269117,31.046403,42.545726,47.126445,50.081561,43.529768,55.812876,60.834963,63.631145,51.072815,63.557612,67.463178,69.273836,10.06596,24.894219,42.698777,55.70905,7.062035,42.172394,59.660889,69.797013,8.620961,48.493687,45.819729,35.329411,14.769001,51.969578,46.574742,36.137089,23.169525,51.353268,46.683998,37.247841,-25.136005,-46.602356,-59.393713,-69.181796,-64.82298,-76.701375,-79.431463,-82.163471,-55.815839,-64.140928,-52.297399,-48.705711,-43.943489,-52.270501,-41.540749,-37.766428,-31.987738,-38.969734,-31.491055,-27.733055,56.200853,297.254383,-184.697028,-59.474437
69,0.560944,0.406973,2.675801,6.59944,-27.618004,-51.954484,-74.467198,-90.620877,-59.059502,-91.183606,-107.680447,-120.302708,-52.644471,-88.262444,-107.049408,-121.642285,-44.60701,-77.056435,-94.956414,-108.624608,-36.178689,-60.750847,-74.950379,-87.154233,-16.793692,-16.669648,-4.558379,7.294354,13.063003,26.23255,32.111264,35.837617,31.01223,42.204455,46.530664,49.310384,43.495594,55.506766,60.430262,63.182651,51.028675,63.363592,67.353669,69.344095,8.351394,23.476204,41.625515,54.509639,7.679374,41.163299,58.364799,68.660064,9.812919,47.220165,44.468319,34.276725,16.022644,50.639785,45.03503,34.970661,24.13686,49.669658,44.820625,36.109085,-25.893239,-46.657661,-58.39148,-66.488506,-62.007297,-74.047423,-77.553331,-80.581512,-52.236242,-61.188496,-50.112436,-45.998401,-39.830943,-48.731734,-39.036981,-35.066621,-27.335148,-35.080638,-28.818757,-25.507879,57.402134,298.324308,-181.38089,-52.212045
70,0.398208,0.522408,3.65879,7.544319,-27.216934,-51.619125,-74.249771,-90.653263,-58.57592,-90.742996,-107.332821,-120.144562,-52.244453,-87.898224,-106.718857,-121.409466,-44.34684,-76.821304,-94.894478,-108.827843,-36.002769,-60.657806,-75.035934,-87.560955,-17.177816,-17.38668,-5.71258,5.925236,12.603988,25.650664,31.50406,35.273552,30.63701,41.668697,45.913037,48.674874,43.175864,55.016382,59.955921,62.785584,50.762593,63.037661,67.145891,69.370833,6.883118,22.586952,41.179413,53.821678,9.033554,41.45097,57.74461,67.49699,11.275761,46.692742,43.492356,33.46011,16.969643,49.416836,43.625336,34.224861,24.29551,47.333943,42.492955,34.91668,-26.159154,-45.76688,-56.259108,-63.125408,-57.642336,-69.294716,-73.035624,-76.061206,-47.015325,-55.610704,-45.631591,-41.395877,-34.178915,-42.741696,-34.311814,-30.575488,-21.351137,-29.056236,-24.150073,-21.457928,58.572092,299.819998,-176.95035,-43.694444
71,0.238106,0.355386,2.20237,15.470695,-26.902268,-51.252319,-73.996193,-90.522068,-58.159699,-90.438309,-107.142208,-120.057667,-51.807747,-87.609135,-106.485432,-121.214962,-43.954949,-76.530224,-94.784168,-108.94083,-35.676521,-60.597496,-75.144722,-87.915344,-17.504982,-18.08262,-6.799906,4.820398,12.101414,25.055551,30.921186,34.747686,30.262988,41.154945,45.392259,48.160493,42.896319,54.69255,59.586517,62.422368,50.532141,62.843036,67.002593,69.360953,7.428749,24.683235,44.661919,57.589245,11.929333,45.496296,60.778759,68.712936,14.185753,49.87635,46.58432,36.250706,19.490639,52.138458,45.787159,36.047985,26.206535,48.958099,43.562462,35.962234,-28.442184,-48.787284,-58.651023,-64.088536,-59.215045,-72.288218,-74.24449,-75.343036,-46.865802,-56.378361,-46.536975,-41.372022,-32.665739,-41.365792,-33.151505,-28.924516,-18.745177,-26.764697,-22.524,-19.887924,59.715111,300.943902,-173.843067,-27.455231
72,0.107025,0.225488,3.51384,17.486686,-26.72596,-51.03701,-73.836697,-90.45314,-57.914383,-90.173092,-106.96693,-119.970051,-51.570534,-87.376533,-106.368965,-121.175571,-43.733894,-76.293583,-94.695854,-108.971512,-35.428093,-60.445839,-75.099106,-87.960457,-17.723887,-18.556863,-7.598524,3.864291,11.67394,24.581147,30.486623,34.380233,29.872614,40.665981,44.953151,47.809318,42.611341,54.355294,59.244049,62.133252,50.343876,62.646386,66.830569,69.282925,8.498554,26.815384,47.32949,60.127098,13.856392,48.378845,63.472595,70.830883,15.908123,51.857734,48.402877,37.843414,20.880626,53.661495,47.13359,37.450927,27.349971,49.573242,43.855384,36.498985,-29.831464,-50.266169,-59.498566,-64.307929,-60.04436,-73.261158,-74.474529,-74.418522,-46.605049,-56.285668,-46.446005,-40.644893,-31.319908,-40.039573,-31.65178,-27.239212,-16.274056,-24.244311,-20.364453,-17.961738,60.903093,300.929916,-169.24827,-10.208019
73,-0.037994,0.166738,5.078899,18.412836,-26.584832,-50.823006,-73.608467,-90.201313,-57.725212,-89.838662,-106.711098,-119.734406,-51.411255,-87.06736,-106.195256,-121.167023,-43.590523,-76.014119,-94.477158,-108.858982,-35.217385,-60.213845,-74.869011,-87.766343,-17.727864,-18.883905,-8.149041,3.275847,11.333473,24.188328,30.188282,34.168615,29.519797,40.337259,44.763862,47.768402,42.32335,54.083148,59.025972,62.048704,50.157427,62.455219,66.735412,69.354408,9.038212,27.9898,48.541615,61.311493,15.435768,48.894997,64.125595,71.759445,17.290855,51.492703,48.716709,39.104736,21.946644,53.182388,46.947636,37.960213,28.271107,48.988083,43.324974,36.468887,-30.267897,-50.385958,-59.345455,-63.941792,-58.601005,-72.044242,-73.414317,-73.171305,-44.29252,-54.627983,-44.527456,-38.293974,-28.409691,-37.518686,-28.790135,-24.262644,-12.808276,-20.598714,-16.806807,-14.36288,62.072497,299.74742,-162.961973,6.855583
74,-0.276924,0.255054,3.595894,24.035196,-26.429215,-50.559357,-73.299832,-89.899258,-57.568978,-89.582119,-106.525395,-119.581284,-51.295968,-86.838833,-106.065629,-121.189351,-43.496499,-75.803204,-94.266381,-108.751671,-35.045746,-60.056328,-74.650395,-87.540036,-17.854193,-19.326409,-8.749119,2.607955,10.850746,23.72483,29.825412,33.883489,29.063103,39.931991,44.533372,47.752434,41.974497,53.702852,58.780959,62.03749,49.9383,62.217702,66.608107,69.426149,11.059084,31.832811,53.946859,67.301525,17.678547,51.747951,67.323223,74.97298,19.305834,54.366663,51.855366,42.484239,23.731109,56.160627,49.84865,40.859819,29.978325,51.701105,45.882379,38.851982,-30.828976,-51.533457,-60.324891,-65.204066,-58.349612,-71.454427,-72.51307,-72.192767,-42.798657,-53.119229,-43.005991,-36.857159,-25.972022,-35.281134,-26.478453,-21.815108,-9.741689,-17.485527,-13.75098,-11.128418,63.12798,298.003388,-158.033672,28.891693
75,-0.563393,0.230811,3.218754,28.941795,-26.204315,-50.194588,-72.876709,-89.423287,-57.462135,-89.388428,-106.342953,-119.365631,-51.295258,-86.667378,-105.983505,-121.194466,-43.515427,-75.671723,-94.172974,-108.741268,-34.9422,-59.902954,-74.436459,-87.300842,-17.913189,-19.711448,-9.318668,2.008556,10.457321,23.272174,29.41534,33.501747,28.654945,39.509778,44.223891,47.584374,41.636401,53.247491,58.42304,61.843445,49.706031,61.939751,66.426783,69.380083,12.892381,35.723974,59.81722,74.465835,20.170074,54.989753,71.456051,79.76152,22.288828,58.785272,55.916576,46.350637,27.053524,61.025407,53.823618,44.142843,33.377918,56.637846,50.030965,42.108364,-31.650615,-53.647643,-62.258192,-66.659165,-60.207701,-72.783265,-73.798022,-73.926225,-43.609645,-52.865318,-42.947452,-37.573397,-25.827434,-34.416679,-25.747248,-21.072739,-8.778951,-16.11883,-12.42954,-9.821317,64.04187,295.65879,-153.337635,55.258079
76,-0.753365,0.30338,6.612224,22.595056,-26.021919,-49.937782,-72.574676,-89.120567,-57.410202,-89.154636,-106.116005,-119.163162,-51.428466,-86.540874,-105.938564,-121.280388,-43.717781,-75.671539,-94.167125,-108.777797,-35.039291,-59.904693,-74.35746,-87.171775,-18.01057,-20.063215,-9.833025,1.377145,10.12787,22.772131,28.913531,32.999766,28.28916,39.024198,43.840693,47.343954,41.318534,52.686884,57.913933,61.444772,49.476245,61.58576,66.143917,69.178962,13.663279,37.076117,61.427016,76.740029,21.305329,54.301827,71.94048,82.624466,22.980681,57.811323,55.722142,47.428923,27.120243,59.476176,52.945685,44.114931,33.155228,54.67919,48.57831,40.992108,-29.889203,-49.977217,-57.883935,-62.684174,-53.465205,-63.722442,-65.917132,-67.355765,-37.058271,-44.963266,-36.147465,-31.726509,-19.691685,-27.406518,-20.168413,-16.551972,-3.085131,-8.861107,-6.182843,-4.751138,64.65592,293.397292,-145.357996,75.288257
77,-0.993965,0.308332,6.680689,24.500038,-25.817528,-49.625061,-72.176777,-88.718136,-57.259712,-88.897636,-105.925209,-119.031521,-51.426658,-86.367679,-105.851841,-121.325214,-43.808327,-75.658607,-94.1613,-108.834022,-35.141395,-60.043785,-74.415367,-87.200363,-18.118127,-20.364409,-10.195067,0.872126,9.672831,22.275769,28.423109,32.510468,27.796046,38.519932,43.427262,47.058705,40.862508,52.1182,57.408889,61.086731,49.11298,61.176281,65.790531,68.932059,14.747137,39.52129,64.727755,81.428553,24.283705,56.179367,71.552513,81.078581,25.139374,59.196133,56.965542,49.380787,28.284445,60.161224,53.46967,44.802515,33.222187,54.638832,48.620247,40.906139,-28.483119,-46.858448,-53.228056,-56.978028,-47.142725,-54.284809,-56.313656,-58.514891,-30.294999,-35.477443,-28.460441,-25.441645,-12.904598,-18.377626,-13.056273,-10.463925,3.442956,-0.404944,1.19525,1.885098,64.630194,291.998448,-137.709068,98.081119
78,-1.221222,0.239394,6.116432,27.591579,-25.631035,-49.421974,-72.019729,-88.517051,-57.138885,-88.813694,-105.879776,-119.038616,-51.367836,-86.38266,-105.877109,-121.307876,-43.764198,-75.674881,-94.253837,-108.977302,-35.089508,-60.237327,-74.764824,-87.594955,-18.394522,-20.761279,-10.708658,0.373541,9.385383,21.74148,27.71871,31.704736,27.614784,38.045973,42.864332,46.51803,40.75952,51.781265,56.946712,60.559926,49.032013,60.978285,65.475123,68.482701,17.047137,44.296429,71.116259,88.816538,28.43537,61.896927,72.492966,78.136397,28.098736,64.091629,59.777413,51.086735,30.150164,63.90374,55.761898,46.046248,33.682698,57.110974,50.495831,42.091484,-27.494866,-44.383356,-47.860408,-49.302305,-43.467971,-45.48792,-47.290958,-50.603713,-25.753189,-25.789328,-21.129284,-20.331262,-7.511009,-8.979813,-5.439706,-3.984819,9.358355,7.757003,8.501528,8.675543,64.087486,291.391274,-130.914122,124.82613
79,-1.48526,0.167344,5.501919,24.699439,-25.427788,-49.204582,-71.882515,-88.310863,-56.966423,-88.677875,-105.683487,-118.839432,-51.418098,-86.453876,-105.851406,-121.151584,-43.963302,-75.876194,-94.479995,-109.18642,-35.367279,-60.487655,-75.135921,-88.046161,-18.508748,-21.040576,-11.252864,-0.172124,9.301637,21.133498,26.841632,30.705305,27.552329,37.540953,42.14247,45.662033,40.671081,51.336513,56.315338,59.725776,48.893012,60.644239,65.02322,67.840719,20.927639,50.371645,77.960003,95.358473,33.472967,68.088112,75.023472,77.425879,30.814894,68.630625,64.191742,54.728697,30.728708,66.536242,58.927592,48.861008,32.300423,57.615091,51.774519,43.087567,-25.433139,-39.542954,-39.768121,-38.692352,-38.933268,-37.771254,-37.527056,-40.079704,-21.185501,-18.458974,-14.458458,-14.394941,-2.634767,-1.723553,1.110321,1.91338,14.663549,13.871575,13.917005,13.349401,62.922741,290.915188,-125.091688,148.882139
80,-1.563743,0.451383,4.841068,21.309023,-25.114792,-48.835076,-71.572609,-87.882443,-56.826783,-88.631001,-105.6152,-118.764107,-51.419381,-86.621762,-105.954747,-121.110718,-44.071152,-76.123078,-94.69748,-109.29039,-35.61596,-60.923127,-75.636097,-88.509167,-18.731778,-21.438706,-11.712868,-0.623507,8.751367,20.33425,25.858948,29.621623,27.129068,36.898341,41.328044,44.749881,40.340741,50.779191,55.525661,58.757764,48.668179,60.209578,64.35024,66.944066,23.967877,54.610583,82.032681,98.981879,38.184008,72.792881,78.715325,80.064303,33.599825,71.088999,69.593296,61.762591,31.3413,66.846514,62.282153,53.716954,30.79319,55.637278,51.756907,44.162293,-23.385057,-34.032884,-31.7795,-28.744625,-32.93214,-29.406185,-26.56516,-26.896725,-15.44291,-9.775081,-5.79992,-5.888914,3.076671,6.787328,8.74786,8.498061,20.37495,21.870903,20.942671,18.924291,61.356348,290.791542,-120.25327,169.616133
81,-1.805672,0.052809,4.003361,22.691622,-24.941025,-48.579666,-71.227959,-87.324635,-56.684006,-88.553375,-105.435539,-118.46719,-51.297432,-86.609722,-105.84296,-120.780659,-43.92952,-76.131214,-94.619156,-109.007744,-35.535484,-61.078514,-75.839058,-88.620907,-18.794739,-21.496578,-12.104378,-1.330005,8.690703,20.013815,25.42467,29.193334,27.07285,36.687537,41.025417,44.408932,40.31446,50.799816,55.349537,58.383359,48.681493,60.182001,64.14818,66.514123,25.680828,57.350699,84.525055,101.967859,43.473055,77.856731,84.016651,85.452215,37.829458,75.139292,76.529434,71.571859,34.059099,69.518847,68.411699,62.263756,31.503079,57.442022,56.200155,50.865246,-22.73719,-31.235165,-26.88386,-21.778426,-26.177973,-18.99133,-14.522441,-13.33599,-8.471357,-0.099119,2.013854,0.549282,9.330209,15.009185,14.969386,13.467437,25.555488,27.518472,25.156136,22.05579,59.403551,290.26969,-116.397034,191.733094
82,-1.503342,0.472588,7.900618,22.576735,-24.681312,-48.362297,-71.334228,-87.970939,-56.926391,-88.575805,-105.322803,-118.104503,-51.837227,-86.736477,-105.916202,-120.590481,-44.572929,-76.384746,-94.788128,-108.956588,-36.289055,-61.540958,-76.251514,-88.83411,-18.749537,-22.357441,-15.315695,-6.403123,8.704795,19.825377,24.928135,28.38701,26.715933,36.405141,40.457808,43.45374,39.805995,50.294636,54.49564,56.994185,48.179808,59.465708,63.333828,65.484682,24.286823,54.386513,80.772022,98.969845,47.063976,80.796879,87.084057,87.604671,42.989696,77.852142,78.362091,71.826965,39.466987,71.395523,69.493126,61.623321,36.253624,60.188987,58.87659,52.034145,-22.83639,-30.07954,-24.747552,-18.849252,-20.021892,-9.572784,-3.431421,-0.235492,-0.517407,11.636729,14.581013,13.999645,18.350925,28.077245,29.129176,28.136254,34.986301,40.558065,39.311152,36.321333,57.768219,290.163642,-108.628406,213.731193
83,-1.564155,-0.307344,4.115032,17.834087,-24.379509,-47.691353,-69.945431,-86.649205,-55.360291,-86.35968,-102.521427,-115.073593,-51.155365,-85.256207,-104.079071,-118.704552,-44.764939,-75.836071,-93.889641,-107.924492,-37.463059,-61.878765,-76.070046,-88.298401,-12.906108,-13.650361,-6.78164,1.506117,10.566767,20.881544,25.117005,27.887066,25.222697,34.778548,38.512015,40.934496,35.951559,46.314896,50.338256,52.609325,42.688714,53.785436,57.881057,60.234575,24.806625,53.920052,79.101082,97.787739,49.89109,84.294823,96.288574,101.283852,45.553287,81.615532,87.561893,84.324108,41.215118,73.708122,76.966312,72.105469,37.102776,61.844753,64.680885,60.245865,-21.579941,-27.011841,-21.60001,-16.431501,-12.764094,-1.707473,5.813146,10.995896,7.160627,20.057904,23.627004,23.688088,25.286744,36.419911,37.688524,36.515525,40.38388,48.002362,46.852767,42.952203,56.051119,289.383003,-104.666319,231.091985
84,-0.539955,1.116435,3.998074,14.379929,-23.157647,-46.181809,-68.093983,-85.020985,-50.933281,-82.178227,-98.70171,-111.356942,-48.262368,-82.326394,-102.071846,-117.220425,-43.553467,-74.630413,-93.546261,-108.283207,-37.872162,-61.863076,-76.523381,-89.299393,-13.174302,-15.059221,-10.267081,-4.048036,8.810499,16.29171,18.197636,19.072541,23.543135,31.134002,32.850774,33.503847,34.309282,43.712129,46.523402,47.64332,41.01371,52.41906,56.642665,58.904854,24.373432,52.123912,76.493351,96.254562,51.35511,85.503009,101.496231,110.318401,47.032402,82.743621,93.691978,95.482223,42.443492,73.974403,82.23048,81.964382,37.995609,62.110015,68.649684,68.025924,-20.580313,-24.667116,-19.919534,-15.961357,-4.105105,8.700127,15.954874,21.729032,16.357808,30.955803,34.291955,34.687677,33.370652,46.842072,48.033719,46.708111,46.133449,57.030865,56.391884,52.496039,55.312111,290.13846,-100.867298,245.110936
85,-1.435662,0.003952,4.915214,11.862748,-22.865959,-45.845855,-66.819648,-83.711483,-48.397934,-75.901645,-90.681965,-102.01363,-46.108062,-76.389473,-94.89822,-109.012722,-41.927719,-70.426883,-88.288616,-102.136276,-36.619926,-59.141281,-73.309501,-85.939201,-12.699343,-14.695203,-11.992585,-7.844068,8.949598,15.450323,16.606069,16.351818,22.736106,29.887965,30.721843,29.963572,32.935953,42.395919,44.112432,44.05945,39.39002,50.570549,54.604383,56.564057,24.583752,51.399765,75.24036,95.521431,52.418209,86.544914,103.496864,113.568775,47.187721,83.276001,97.043896,102.172749,41.938259,73.744274,85.263119,88.585167,37.093254,61.907261,71.44923,74.149841,-19.416873,-22.457957,-17.805867,-14.734846,3.951619,19.239613,26.382222,32.127208,24.716912,40.264097,43.577192,44.683228,40.632661,55.557143,57.502602,56.963644,51.401747,64.104635,64.729042,62.188025,53.629789,289.886438,-96.198744,256.71771
86,-0.904106,0.800526,4.174564,8.323413,-21.888485,-44.7514,-65.242836,-82.691288,-48.646797,-71.245382,-80.927135,-88.496515,-47.58062,-72.081076,-85.406999,-95.156513,-44.343469,-68.503773,-81.534977,-91.316002,-39.770193,-60.871576,-74.083162,-85.814684,-11.568761,-13.621017,-11.697572,-8.189834,7.408666,14.797375,15.871258,14.921092,20.575453,28.175324,28.761879,27.212919,30.592469,40.096136,41.262076,40.552836,37.373325,48.007759,51.90878,54.054668,24.912449,51.208432,75.491124,95.864411,52.487835,87.194973,103.816246,113.758118,46.651898,83.529591,98.73602,105.125107,41.052887,73.525006,86.522335,91.83363,36.025761,61.063397,71.971024,76.58218,-17.29429,-19.272823,-14.284279,-12.109231,8.73336,25.058811,32.236815,37.741506,29.677519,46.940798,52.324285,54.871354,45.504508,62.8408,67.40255,68.292831,55.702811,71.336385,74.275593,73.346917,52.468969,290.594925,-92.280894,264.949084
87,-0.757072,0.925318,-0.569549,3.622674,-20.464543,-43.107411,-63.080155,-80.795059,-51.432839,-68.087912,-69.295304,-70.723727,-52.125435,-69.201605,-73.349161,-75.43618,-50.046164,-68.518479,-72.890992,-75.347283,-46.420435,-66.625185,-78.51039,-88.627871,-9.841997,-10.878756,-6.713474,-1.097342,4.598059,14.515904,16.40483,15.602112,17.781519,26.376509,27.572911,26.233755,28.143448,37.791758,39.059636,38.448566,35.808495,45.771418,49.570612,52.323174,27.82156,55.242245,79.797455,99.873733,53.516807,88.760548,107.844383,121.177482,44.793136,84.26588,105.556526,118.144661,37.177196,73.221096,92.552765,104.39241,30.837913,58.566479,73.92215,84.437942,-14.635823,-15.137891,-10.01625,-8.740598,13.094064,28.853164,36.011889,41.188612,32.100655,48.337852,53.819942,56.07077,45.607249,62.239451,66.614331,67.149176,53.527505,68.628506,71.301237,70.416057,51.470301,291.482881,-93.092039,268.534396
88,-2.689682,2.869628,2.355389,3.297163,-17.669209,-39.506596,-58.766556,-75.608998,-53.479065,-63.083411,-56.878304,-52.102129,-55.361195,-63.761416,-59.599566,-54.037892,-53.881045,-65.196453,-61.347485,-56.714093,-50.36582,-69.461787,-80.440047,-89.243517,-15.650537,-20.548882,-17.42186,-11.957992,0.121772,11.875715,14.649316,14.151928,16.148578,25.805404,27.434257,26.520561,28.68921,38.628452,39.495545,38.771052,38.447708,47.755829,51.473007,54.535049,28.267204,55.384071,79.866016,99.604694,54.690582,88.479995,107.078784,120.812381,45.234397,83.028144,104.933338,119.333599,36.748718,71.452766,91.713603,105.776653,29.548427,56.238693,72.08567,84.653903,-13.390169,-13.400605,-8.614491,-8.079399,15.790803,31.504171,38.698341,43.750167,33.608403,50.033074,56.410694,59.104963,46.010874,63.419859,68.728765,69.663036,53.178788,68.946336,72.444003,72.326998,48.58092,294.328346,-90.936349,271.807396
89,-7.274048,1.415085,3.227657,3.03449,-14.72057,-34.30109,-51.308968,-65.818646,-54.862404,-54.683493,-40.655296,-29.972059,-57.050274,-54.092909,-40.714342,-27.577675,-55.121378,-56.646069,-43.593464,-31.614178,-51.012549,-66.265715,-73.752749,-79.069651,-14.14526,-17.551456,-12.830482,-5.903797,0.837916,16.389411,21.3655,22.581613,15.272006,27.379644,31.298733,32.499297,26.531651,37.529627,39.135725,39.551923,35.917843,44.308341,48.284474,52.276503,27.70412,54.496788,78.757507,98.205231,55.436771,88.667599,107.006813,120.665336,45.985153,82.827782,104.661804,119.369339,37.096893,71.009708,91.088333,105.538719,29.218242,55.551578,71.416054,84.57502,-13.254887,-13.326147,-8.74413,-8.992404,16.649961,32.422597,39.771377,44.74972,33.94141,50.462127,57.169457,59.76789,46.001055,63.577643,69.233586,70.241785,53.169846,69.13481,72.937845,73.063136,41.165726,295.737312,-87.849838,274.835767
90,-3.408394,2.015681,3.092388,2.373821,-11.271893,-28.519444,-45.036793,-59.445145,-56.217419,-51.152704,-30.959908,-15.715525,-60.500828,-50.875414,-30.213942,-11.020317,-59.943998,-55.400036,-34.912571,-17.050793,-57.012468,-71.111372,-76.756434,-79.583113,-14.159956,-18.022586,-12.371837,-4.079714,0.099628,17.650306,23.015052,24.711694,14.945953,27.925309,32.556083,34.697291,26.251267,37.06324,38.974186,39.992463,36.024017,44.028513,48.208065,52.73621,27.1008,53.498108,77.625263,96.953945,55.629444,88.828228,106.999546,120.558506,46.545731,83.135181,104.74696,119.398258,37.837154,71.536823,91.399647,105.804989,29.970692,56.313538,72.209461,85.45903,-13.740343,-13.958236,-9.390088,-10.15173,17.10195,32.433737,39.55908,44.289508,34.362104,50.156007,56.620089,58.906732,46.264792,63.259123,68.723911,69.517503,53.365311,68.87741,72.498985,72.433826,37.660893,297.730852,-84.853889,277.187447
91,-11.473732,2.139584,2.447342,2.177999,-6.105743,-17.987984,-30.442188,-41.27948,-47.437614,-35.419178,-12.970116,3.590149,-53.577622,-36.144997,-12.429474,8.900322,-54.554947,-42.517834,-18.922051,1.002411,-52.797649,-62.586628,-66.349846,-67.398605,-15.926123,-19.962982,-14.496465,-6.395725,-0.616565,17.234083,23.082094,25.631485,14.69745,28.269734,33.269294,36.012371,25.847574,36.823067,38.87612,40.32271,35.370327,43.662827,48.025827,52.409378,26.870624,53.119274,77.015362,96.257481,55.914665,89.03429,107.080479,120.546352,47.006618,83.637302,105.119785,119.752476,38.320908,72.043716,91.832233,106.174244,30.422916,56.762569,72.724537,85.911312,-14.105523,-14.48409,-10.111,-11.206107,17.259364,32.284412,39.171534,43.642326,34.484592,49.721074,55.808577,57.829372,46.230483,62.739691,67.769398,68.273491,53.226336,68.231352,71.502679,71.189889,26.12661,299.854159,-82.467098,279.349169
92,-12.092857,4.395073,1.86747,1.955487,-1.751885,-8.409989,-15.121445,-20.139084,-34.203644,-16.58408,4.767814,20.424682,-40.874108,-18.976296,4.016555,24.18338,-42.764592,-26.766083,-4.143586,14.347984,-41.724427,-49.002537,-52.324631,-53.616818,-18.175184,-23.628387,-20.931191,-15.630993,-1.608141,13.381524,18.812943,21.71909,13.594131,25.962232,30.306448,32.768746,24.458943,34.659728,36.543202,38.080047,33.506231,41.585926,45.957374,49.771104,26.803379,52.937702,76.666488,95.805668,56.182537,89.085628,106.941593,120.203144,47.407127,83.927547,105.146221,119.649868,38.724701,72.364711,92.002041,106.202831,30.821525,57.139801,73.08974,86.086979,-14.176313,-14.669502,-10.478452,-11.840308,17.495312,32.419103,39.194753,43.511712,34.65385,49.502379,55.343894,57.258601,46.309512,62.416156,67.11908,67.461239,53.247825,67.808202,70.851336,70.374784,14.000966,304.246422,-80.632415,281.301846
93,-3.476166,0.088711,1.315223,1.697099,0.294662,-4.258942,-10.364731,-15.511734,-30.296631,-10.235012,10.857376,25.151642,-37.861885,-13.340927,9.377655,28.172905,-40.766041,-22.068031,0.362755,17.69545,-40.649025,-44.443463,-44.594948,-43.587994,-17.892898,-23.172719,-21.155506,-17.040459,0.667312,15.479309,20.000044,22.198804,15.987762,27.931144,31.376113,32.911586,26.507192,36.310576,37.301892,38.010367,35.00884,43.67209,46.75919,49.017292,26.803757,52.802788,76.450699,95.60471,56.02398,88.878376,106.540707,119.577954,47.308869,83.999554,104.99477,119.306225,38.670823,72.507546,92.026257,105.965161,30.850743,57.372837,73.317856,86.057568,-14.144438,-14.799153,-10.628752,-11.969934,17.519099,32.539615,39.297814,43.595161,34.804286,49.452287,55.126433,57.067496,46.548375,62.352466,66.77266,66.986872,53.553156,67.704844,70.479796,69.839346,10.491348,304.318998,-79.350644,282.98281
94,-3.188782,2.570842,0.666001,1.318532,2.308228,0.047585,-4.829842,-9.564262,-25.711784,-4.120468,16.736572,30.41938,-34.365406,-8.659515,13.893128,32.004204,-38.196854,-18.750229,2.752785,19.385605,-38.715523,-41.924091,-42.32,-41.516075,-19.989275,-27.217605,-27.394174,-25.376998,-1.607943,12.855522,17.631052,20.035416,15.256082,27.126129,29.844703,30.544002,26.909039,36.177887,36.909271,37.188383,36.061759,44.321038,46.259432,47.087604,27.023037,53.061161,76.663913,95.863804,55.725265,88.599758,106.126636,119.069561,46.90044,83.817615,104.467083,118.5321,38.238315,72.290222,91.723514,105.517353,30.467399,57.140877,73.062961,85.638118,-14.100879,-14.8622,-10.58265,-11.660713,17.495954,32.710589,39.428404,43.735137,34.781624,49.499081,55.145242,57.232628,46.538297,62.321517,66.604081,66.81523,53.535656,67.568091,70.233202,69.526506,7.264629,306.857131,-78.72258,284.268633
95,0.924133,0.586382,-0.069329,0.945016,2.219513,-0.530822,-5.56414,-10.213943,-26.749363,-4.643943,16.344109,29.827744,-35.22385,-9.158569,13.713868,31.586197,-38.699844,-18.707737,2.851113,19.023697,-38.69823,-39.714317,-37.646782,-35.360252,-19.570298,-27.281233,-28.478536,-27.610696,-1.116632,13.02063,17.402897,19.718661,15.705711,27.373353,29.609792,30.050628,27.338686,36.362817,36.576548,36.470584,36.247369,44.666556,45.54892,45.321184,27.239789,53.276162,76.794789,96.027569,55.497506,88.426999,105.903866,118.855969,46.496247,83.605671,104.098172,118.132885,37.65231,71.889599,91.340619,105.085179,29.730412,56.490899,72.386822,84.77837,-13.915962,-14.82599,-10.459927,-11.2252,17.334823,32.801733,39.515336,43.832233,34.586258,49.437256,55.138413,57.393674,46.308721,62.118926,66.389301,66.651357,53.285023,67.201825,69.80705,69.052201,8.165325,307.414209,-78.815346,285.184345
96,4.522683,1.643068,-0.034881,0.389868,1.651863,-2.54773,-8.812455,-14.034142,-30.1111,-10.02443,10.577018,24.215492,-38.087494,-14.348076,8.457023,26.531364,-40.941433,-23.34311,-2.204979,13.865249,-40.412362,-42.47017,-40.77277,-38.970658,-19.014743,-27.796479,-30.216935,-30.740294,-1.782414,11.258989,15.369418,17.581552,14.980711,25.569116,27.655033,28.171983,26.708004,34.733063,35.129587,35.42379,35.666025,43.411478,43.965873,43.699828,27.367458,53.321411,76.838161,96.090603,54.955089,87.9986,105.511562,118.497265,45.886574,83.219799,103.687717,117.667454,37.005134,71.551826,91.090061,104.862842,29.034359,56.114662,72.084022,84.423374,-13.947146,-14.820062,-10.082373,-10.271169,17.291029,33.035395,39.780529,44.16361,34.579823,49.589779,55.379239,57.757222,46.363987,62.256753,66.544429,66.856812,53.380403,67.166812,69.740915,68.975765,12.694085,309.0031,-78.84415,285.520036
97,9.516517,-1.845127,-0.299675,0.072494,-0.043007,-7.603637,-18.675865,-28.298607,-39.844219,-22.929542,-1.811302,12.233322,-47.645233,-26.048904,-2.955757,15.300179,-50.016563,-34.239143,-12.47731,3.819695,-49.058109,-52.365326,-50.708725,-48.799324,-18.530422,-27.691701,-29.868872,-29.851878,0.514208,14.614371,17.557223,18.696826,17.574636,28.088459,29.379166,29.413759,29.042243,36.842247,36.026511,35.498632,37.62586,45.165091,45.295014,44.865725,27.402809,53.235912,76.611271,95.793423,54.420421,87.646374,105.240017,118.297909,45.310078,82.850246,103.352039,117.424015,36.493137,71.100242,90.73138,104.625034,28.560928,55.646141,71.655704,83.983257,-13.984998,-14.916861,-9.866505,-9.389063,17.40081,33.099802,39.633836,43.885586,34.689616,49.683468,55.406941,57.903337,46.378549,62.322542,66.619544,67.061899,53.249888,67.036927,69.58943,68.789083,22.223024,307.084549,-79.131403,285.519106
98,-1.501877,1.886932,-0.337086,-0.070654,0.387154,-6.455635,-16.221405,-24.14162,-38.186954,-21.329086,-0.648376,13.825539,-45.938392,-24.951805,-1.975021,16.591507,-47.968425,-33.487587,-11.940467,4.535111,-46.790805,-52.030265,-53.221447,-53.766552,-19.477686,-29.201449,-31.998335,-32.462995,-1.685651,12.055619,15.593424,17.633768,15.433218,25.72427,27.315961,28.125979,26.941383,34.658616,34.38994,34.661198,35.663827,42.399685,43.416579,44.042197,27.487164,53.298718,76.578324,95.712158,54.222267,87.438378,105.08519,118.232666,45.08329,82.477043,102.961968,117.144035,36.221844,70.596565,90.279534,104.310928,28.200989,55.070732,71.092896,83.478928,-13.94312,-14.879614,-9.62936,-8.510961,17.396313,33.029887,39.470752,43.631779,34.594816,49.683405,55.45429,58.055304,46.183355,62.298521,66.689061,67.247063,52.971232,66.91676,69.538658,68.718896,20.75378,308.89245,-79.435856,285.369421
99,-1.152465,0.416766,-0.413086,0.07552,0.319244,-6.16388,-14.670823,-21.154484,-37.887475,-21.454491,-0.644806,14.105552,-45.264645,-25.23761,-2.215027,16.419914,-47.183293,-33.353508,-11.154328,5.59568,-45.748318,-52.302041,-54.576508,-56.366158,-18.975853,-28.858006,-31.91554,-32.346818,-2.092154,10.996229,14.957975,17.323435,14.586027,24.800657,27.094598,28.500075,25.931566,33.728433,34.010311,34.760307,34.617083,41.061801,42.962935,44.404597,27.474037,53.077709,76.233673,95.337021,53.704273,86.995835,104.773522,118.033951,44.634442,82.083664,102.70958,117.024033,35.900082,70.337219,90.154587,104.262245,28.019978,54.949391,71.036568,83.43663,-13.955938,-14.96704,-9.585294,-7.8569,17.250978,32.813898,39.19542,43.323361,34.483159,49.604316,55.323405,57.946673,46.059398,62.21774,66.567179,67.139284,52.818573,66.664732,69.232339,68.373453,19.667342,309.215423,-79.782915,285.351148
100,-1.972985,0.712229,-0.230461,0.125094,1.445641,-4.233856,-12.141792,-18.078232,-34.86573,-17.825615,2.130181,15.924568,-42.742012,-22.150886,-0.295418,17.232628,-45.412811,-31.143505,-9.915573,6.039162,-44.861789,-51.466209,-54.558609,-57.034687,-19.840914,-30.013405,-33.416865,-34.303478,-3.665455,9.41122,13.315118,15.522806,13.594489,24.12922,26.152176,27.334437,25.408553,33.257932,33.401576,34.131947,34.382666,40.882021,42.559322,43.595346,27.373844,52.832417,75.906899,94.865707,53.450764,86.680138,104.502228,117.755722,44.403786,81.732491,102.371933,116.692886,35.676029,70.034935,89.843353,103.914551,27.771515,54.695309,70.787693,83.173348,-13.968597,-15.010043,-9.661309,-7.637612,17.130824,32.608923,38.994435,43.069233,34.313926,49.518977,55.244908,57.877513,45.893129,62.118865,66.441641,66.975362,52.680475,66.500328,69.062662,68.158932,17.782963,309.79864,-79.92477,285.34723
101,-1.855911,-0.030159,-0.290966,0.135703,2.206078,-2.661232,-10.272789,-16.114494,-33.540939,-16.007698,4.100899,17.923874,-41.782322,-20.568054,1.360268,18.813446,-44.788181,-29.91584,-8.497971,7.515175,-44.446209,-50.363709,-52.773891,-54.506207,-20.291865,-30.737416,-34.148521,-34.627507,-4.284787,9.132009,13.274992,15.621916,13.18002,24.142657,26.342936,27.578771,25.156142,33.337602,33.572106,34.239134,34.223844,40.82132,42.518456,43.447577,27.356758,52.621811,75.581966,94.398251,53.367394,86.633389,104.485348,117.717304,44.337513,81.512089,102.044277,116.365025,35.612572,69.837776,89.548405,103.514202,27.677582,54.537437,70.572842,82.920124,-13.957174,-15.143597,-9.864986,-7.525214,16.831767,32.125244,38.533937,42.672598,33.89322,49.055219,54.8748,57.709144,45.438312,61.638607,66.057775,66.72069,52.263437,66.145794,68.790935,67.903643,16.053034,309.635214,-80.089754,285.349666
102,-3.077293,-0.706882,-0.04089,-0.023885,3.014007,-0.868973,-7.720597,-13.372342,-30.428788,-11.76233,7.901619,20.787597,-39.190636,-16.866234,4.294944,20.967201,-42.932579,-26.605648,-5.74926,9.670166,-43.32026,-47.106697,-47.317349,-47.25309,-20.377129,-30.440545,-33.557038,-34.015844,-4.818335,8.849946,13.180873,15.353153,12.984272,24.860543,27.179592,28.242959,25.306949,34.235787,34.504611,35.162105,34.638894,42.319064,43.26949,43.135096,27.19986,52.453606,75.470879,94.2491,53.133717,86.38472,104.28209,117.522789,44.073452,81.13987,101.654778,115.92421,35.263253,69.517571,89.208344,103.072586,27.250065,54.116043,70.143254,82.461846,-13.892595,-15.082464,-9.867382,-7.318288,16.670895,32.001484,38.481992,42.681391,33.651183,48.876711,54.811259,57.735339,45.20471,61.480291,65.973214,66.674822,52.098489,66.101383,68.834926,67.994256,13.166943,308.78923,-79.939442,285.186679
103,-3.515488,0.77482,-0.184982,0.136246,4.206413,1.669899,-4.317284,-9.605541,-27.267071,-7.711647,11.821609,24.28846,-36.263363,-12.920494,8.04158,24.529152,-40.252018,-22.482788,-2.091248,13.134796,-40.589241,-43.008797,-43.021214,-42.75499,-20.417626,-30.883209,-34.373244,-35.131502,-6.074487,7.37085,12.217282,14.665056,11.912173,24.048537,26.629136,27.625998,24.52346,33.527312,34.113718,34.847424,34.045052,41.575478,42.405947,42.141284,26.99992,52.286694,75.374931,94.136536,52.868614,86.256866,104.220909,117.431099,43.752491,80.897255,101.379913,115.549988,34.919632,69.348553,88.987839,102.705734,26.974354,53.951031,69.977875,82.281464,-13.919815,-15.16679,-10.089634,-7.445494,16.437725,31.871203,38.484487,42.803286,33.357881,48.684778,54.727155,57.719901,44.922919,61.294546,65.850924,66.537638,51.824305,65.99353,68.822724,68.019289,9.884365,309.440438,-79.891514,285.199313
104,4.063064,-2.291731,-0.102837,0.178805,3.402581,-0.866752,-9.654487,-18.036621,-30.857276,-12.182739,7.570862,19.607529,-40.134578,-17.250526,3.554123,19.992875,-44.536399,-27.321544,-7.157936,7.922493,-45.65879,-47.808162,-46.201423,-44.125785,-20.058485,-30.02084,-32.669327,-33.16417,-4.410968,10.037455,13.68898,14.954579,14.082219,26.762604,28.223075,28.179689,27.006271,36.293669,35.632927,35.53814,36.840629,45.222815,44.701358,43.11268,26.897278,52.216038,75.365296,94.208062,52.853611,86.342537,104.347481,117.514,43.693669,80.851571,101.302735,115.355919,34.772118,69.3242,88.90242,102.435929,26.772721,53.837529,69.892273,82.201012,-13.962954,-15.283635,-10.3108,-7.654668,16.120303,31.66918,38.453414,42.875176,32.960233,48.361107,54.565739,57.639329,44.584723,60.987831,65.674366,66.374307,51.600435,65.997691,68.932676,68.121152,14.226367,307.053593,-79.715413,285.283004
105,-6.712165,1.132144,-0.281398,-0.063048,5.074814,3.121467,-3.474335,-10.361115,-26.247197,-5.55803,14.051147,25.919677,-35.835274,-10.969826,10.338546,27.08908,-40.12286,-20.63855,-0.108582,15.430801,-40.950772,-39.949208,-36.691223,-33.244068,-20.789375,-31.079723,-33.42162,-33.820243,-6.343656,7.596474,12.475214,14.936894,12.244835,24.763781,27.337846,28.122657,25.490805,34.810869,35.107518,35.512564,35.626493,43.665643,43.24884,41.665856,26.879425,52.244281,75.491912,94.516056,52.637581,86.339069,104.482921,117.757999,43.471698,80.785572,101.35374,115.408504,34.527408,69.329361,88.981189,102.472812,26.537315,53.692886,69.876056,82.325512,-13.820384,-15.109313,-10.176072,-7.508887,16.055355,31.709776,38.593032,43.102504,32.869992,48.221169,54.51009,57.628498,44.51854,60.872507,65.678072,66.421275,51.568387,66.212769,69.265401,68.436698,7.832171,308.134139,-79.678842,285.168358
106,-4.418518,2.173529,-0.061547,0.067852,5.488769,4.432067,-0.452248,-5.73333,-22.352818,-0.605851,18.883644,30.33451,-31.999512,-6.604752,14.438301,31.027015,-36.671711,-15.99313,4.403251,19.779945,-38.025639,-35.385281,-30.235989,-25.070538,-20.572249,-31.586522,-35.202873,-37.004281,-8.092972,4.997683,9.696457,12.103735,10.197808,22.74753,25.557791,26.445923,23.583223,33.094873,33.347853,33.379246,33.80383,41.787454,41.027566,38.688325,26.758942,52.072666,75.414654,94.684445,52.550423,86.22955,104.431607,117.708699,43.498604,80.702603,101.298512,115.275982,34.562496,69.367665,88.918843,102.244229,26.554848,53.653221,69.849324,82.353871,-13.738232,-15.028358,-10.14847,-7.438331,16.040015,31.774724,38.731451,43.146692,32.787912,48.133273,54.445264,57.4224,44.50304,60.855784,65.640626,66.192094,51.690306,66.612676,69.664579,68.614464,3.729075,310.277993,-79.424967,285.206535
107,-10.699002,0.936926,-0.325184,0.145434,7.764302,10.321026,9.59927,8.140824,-12.826641,10.577374,29.426342,40.945256,-22.434299,4.300793,24.895512,41.599469,-27.346733,-4.756942,15.454113,30.992604,-28.898254,-23.487831,-16.859768,-10.126831,-20.516006,-31.727781,-35.52206,-37.151839,-9.4623,3.133784,9.132528,12.452094,8.444147,21.232731,25.340603,27.041259,21.850285,32.266122,33.765187,34.219324,32.06258,40.677553,40.726953,38.794857,26.787999,52.098896,75.520855,95.019768,52.592961,86.307015,104.556267,117.876481,43.599804,80.791626,101.382958,115.309662,34.668629,69.543103,89.011231,102.193749,26.636525,53.76154,69.967392,82.519753,-13.687831,-14.996779,-10.145308,-7.474467,15.887554,31.616928,38.666589,43.115188,32.644566,47.880134,54.223778,57.174596,44.458272,60.652058,65.440988,65.901979,51.754466,66.790852,69.845669,68.637967,-6.67535,311.201489,-79.455574,285.338539
108,2.871987,-2.303228,-0.082775,0.143978,6.745708,7.719143,5.317875,2.062671,-16.26891,6.76688,26.147335,37.74139,-25.95234,0.437874,21.409687,38.357357,-31.028309,-8.558533,12.173366,28.063305,-33.034149,-26.020192,-15.890316,-5.923245,-19.747152,-30.530219,-33.697941,-35.041309,-8.122156,4.84348,10.117903,12.841492,10.159412,23.027049,26.893527,28.36704,24.008807,34.454581,35.48312,35.573276,34.735458,44.150519,42.967418,39.637169,26.860016,52.013523,75.455452,95.211445,52.613388,86.276676,104.53941,117.895237,43.684857,80.776806,101.379673,115.266186,34.716809,69.60299,88.997898,102.058079,26.586285,53.704079,69.884079,82.447163,-13.667046,-15.028606,-10.128735,-7.46749,15.640354,31.412261,38.496306,42.926972,32.420646,47.561847,53.886225,56.744553,44.36467,60.409884,65.191799,65.570008,51.849869,66.987341,70.038762,68.69406,-3.506,308.885497,-79.240986,285.469753
109,-5.541172,2.554046,-0.028679,0.107482,8.015007,10.839706,11.407905,11.087528,-11.61604,13.285926,32.209808,43.846504,-21.346344,6.378307,27.325676,44.467094,-26.126965,-2.150471,18.380218,34.393867,-27.586716,-18.909668,-9.080933,0.482998,-20.379921,-31.900003,-35.98241,-37.606927,-10.45805,1.553023,7.679837,11.341254,7.745317,20.390282,25.192167,27.390272,21.558131,31.837821,33.838213,34.382382,32.011364,40.722631,39.946613,36.768319,26.966675,52.020195,75.389695,95.235867,52.561032,86.042256,104.247311,117.609936,43.664372,80.51183,101.08627,114.932385,34.688931,69.385277,88.667439,101.603222,26.528367,53.465184,69.522217,82.010136,-13.606752,-14.951367,-10.025216,-7.46082,15.424475,31.155689,38.306523,42.798816,32.277447,47.296185,53.637063,56.445188,44.347528,60.206924,64.991482,65.337469,51.977533,67.06732,70.098438,68.646316,-8.789068,311.425942,-79.011561,285.563634
110,-2.016953,2.013409,0.283745,0.32482,8.122456,11.653336,13.848084,15.912243,-9.03471,15.629631,34.55278,46.794869,-18.464664,8.500065,29.111687,46.645981,-23.357059,0.016171,20.083008,36.024696,-25.099216,-17.657181,-9.222336,-0.48222,-19.759366,-31.729646,-37.344883,-40.169964,-11.844087,-0.673672,5.430788,9.005927,5.751742,18.174838,23.20152,25.457373,19.202785,29.494232,31.980687,32.77287,29.259951,37.931055,38.003612,35.304909,26.940995,51.796646,75.040283,94.946629,52.415016,85.685543,103.782498,117.071034,43.60223,80.167156,100.670117,114.446903,34.685955,69.130074,88.300495,101.123646,26.545922,53.364292,69.254528,81.588604,-13.710308,-15.111734,-10.165254,-7.656162,14.92747,30.522154,37.703925,42.236961,31.823272,46.775184,53.18805,55.953604,44.049471,59.818822,64.605418,64.8808,51.883968,66.906374,69.894069,68.340194,-10.580738,313.424818,-78.502533,285.873921
111,-2.008278,-2.838851,0.300259,0.210235,8.401806,12.639004,15.139321,16.892109,-7.350723,17.311569,35.953835,48.28775,-16.398147,10.831158,30.933518,48.169853,-21.025097,2.928784,22.925652,38.686753,-22.511043,-13.98809,-4.7127,4.537926,-19.036343,-30.118653,-34.396808,-35.393385,-9.522371,2.551341,8.931221,12.213033,7.917711,20.981332,26.05713,28.099944,21.106834,32.536934,35.175578,35.756699,31.00251,41.172544,41.453533,38.907872,26.825683,51.523178,74.622208,94.48043,52.150211,85.237587,103.245552,116.535347,43.348194,79.740028,100.226211,113.990044,34.442528,68.748539,87.934593,100.774063,26.282364,53.106445,68.929836,81.207847,-13.798339,-15.224564,-10.222385,-7.75963,14.469555,29.927461,37.144232,41.801485,31.450831,46.288233,52.787451,55.627204,43.773879,59.402859,64.238003,64.59376,51.715353,66.580789,69.552775,68.049942,-12.380591,310.570653,-77.993849,286.068842
112,7.549221,-1.526928,0.681129,0.277037,6.941986,8.876221,8.437901,7.395779,-14.764515,8.205094,27.929638,40.973271,-24.159382,1.51363,22.74519,41.026486,-28.910248,-6.961944,13.891697,30.656102,-30.562763,-25.398971,-18.194755,-10.280685,-19.144566,-29.906119,-33.838941,-35.345861,-8.258376,3.808334,9.5601,12.682992,9.661371,22.10109,26.460805,28.190249,22.961459,33.200319,35.261252,36.08762,33.190007,42.378147,42.156488,39.561736,26.699868,51.127179,74.062821,93.870369,51.691418,84.506584,102.35241,115.53772,42.96539,79.12365,99.598023,113.329354,34.135403,68.255036,87.421418,100.240952,26.030262,52.856873,68.603817,80.829369,-13.945317,-15.424413,-10.397979,-7.942881,13.921791,29.310142,36.549081,41.202098,30.97996,45.850953,52.409736,55.165324,43.425138,59.050178,63.908849,64.206572,51.505389,66.261922,69.232413,67.721109,-4.634062,309.028655,-77.115412,286.330809
113,-10.799114,2.114952,0.542897,0.308024,9.4315,14.951775,18.898956,21.868275,-4.506889,20.677952,39.822578,52.311768,-13.884624,13.690304,34.932335,53.129517,-19.266094,5.012146,25.815422,42.362068,-21.725372,-13.956242,-6.014179,1.940952,-20.262496,-31.772267,-36.215431,-37.531567,-11.066909,0.372219,7.125713,11.313367,6.821543,19.566507,24.47816,26.502462,20.483316,30.833302,33.32666,34.334859,30.865178,39.868054,39.897929,37.260063,26.463237,50.753952,73.619579,93.465992,51.080326,83.757351,101.556964,114.757701,42.482586,78.603092,99.179821,112.97842,33.857883,67.907421,87.14661,100.00613,25.954055,52.798507,68.52824,80.758243,-14.133546,-15.652692,-10.624282,-8.270912,13.573803,28.723315,35.864355,40.461451,30.719879,45.384503,51.893638,54.573285,43.236576,58.702584,63.482116,63.694661,51.345739,65.937139,68.824761,67.243519,-15.269091,311.118873,-76.40843,286.614099
