takenoko1/special-research/HandMotion_SimilarSearch_自分用/NewProject/handData/tgt/d4_feature_d2/117.csv
,vel_0x_L,vel_0y_L,vel_0x_R,vel_0y_R,posFromWrist_1x_L,posFromWrist_2x_L,posFromWrist_3x_L,posFromWrist_4x_L,posFromWrist_5x_L,posFromWrist_6x_L,posFromWrist_7x_L,posFromWrist_8x_L,posFromWrist_9x_L,posFromWrist_10x_L,posFromWrist_11x_L,posFromWrist_12x_L,posFromWrist_13x_L,posFromWrist_14x_L,posFromWrist_15x_L,posFromWrist_16x_L,posFromWrist_17x_L,posFromWrist_18x_L,posFromWrist_19x_L,posFromWrist_20x_L,posFromWrist_1y_L,posFromWrist_2y_L,posFromWrist_3y_L,posFromWrist_4y_L,posFromWrist_5y_L,posFromWrist_6y_L,posFromWrist_7y_L,posFromWrist_8y_L,posFromWrist_9y_L,posFromWrist_10y_L,posFromWrist_11y_L,posFromWrist_12y_L,posFromWrist_13y_L,posFromWrist_14y_L,posFromWrist_15y_L,posFromWrist_16y_L,posFromWrist_17y_L,posFromWrist_18y_L,posFromWrist_19y_L,posFromWrist_20y_L,posFromWrist_1x_R,posFromWrist_2x_R,posFromWrist_3x_R,posFromWrist_4x_R,posFromWrist_5x_R,posFromWrist_6x_R,posFromWrist_7x_R,posFromWrist_8x_R,posFromWrist_9x_R,posFromWrist_10x_R,posFromWrist_11x_R,posFromWrist_12x_R,posFromWrist_13x_R,posFromWrist_14x_R,posFromWrist_15x_R,posFromWrist_16x_R,posFromWrist_17x_R,posFromWrist_18x_R,posFromWrist_19x_R,posFromWrist_20x_R,posFromWrist_1y_R,posFromWrist_2y_R,posFromWrist_3y_R,posFromWrist_4y_R,posFromWrist_5y_R,posFromWrist_6y_R,posFromWrist_7y_R,posFromWrist_8y_R,posFromWrist_9y_R,posFromWrist_10y_R,posFromWrist_11y_R,posFromWrist_12y_R,posFromWrist_13y_R,posFromWrist_14y_R,posFromWrist_15y_R,posFromWrist_16y_R,posFromWrist_17y_R,posFromWrist_18y_R,posFromWrist_19y_R,posFromWrist_20y_R,posFromBody_0x_L,posFromBody_0y_L,posFromBody_0x_R,posFromBody_0y_R
6,2.462871,-1.519146,0.015804,-0.232515,8.756207,11.584694,11.080536,8.16306,-11.399826,14.39106,33.676186,45.472825,-20.386585,9.102128,28.977265,44.873314,-24.550632,0.840363,20.152176,34.983834,-25.204147,-17.437053,-8.380977,0.522458,-20.007504,-31.194888,-35.527186,-36.665518,-9.839212,2.171712,7.931149,11.112357,6.645678,19.258978,22.951109,24.306395,19.406598,30.029114,31.126913,30.588943,29.222073,39.230469,39.392625,36.592998,24.759441,48.524975,71.501621,91.084934,50.451038,82.796299,100.515965,113.965817,42.23608,77.918919,98.604641,112.837246,33.572949,67.057331,86.605625,100.293675,25.443833,51.752312,67.450619,80.106846,-14.709615,-16.473281,-11.828971,-10.510081,12.415402,26.676066,32.937645,36.793587,29.336027,42.207444,48.160282,50.540452,41.799965,56.087281,60.628184,61.036972,49.987983,64.421574,67.383222,65.882416,-5.024134,309.865886,-70.883131,285.58082
7,2.238957,3.117296,0.092102,0.257857,7.59629,9.717991,8.596767,6.087479,-12.496227,12.641132,31.250599,42.287052,-21.723496,6.800915,26.450535,42.30051,-26.283417,-1.603134,17.576076,32.513134,-27.397396,-21.648914,-14.714916,-7.259857,-21.027139,-33.707401,-39.619718,-42.411702,-12.62597,-1.559025,4.576768,8.067568,4.739913,16.465958,20.212343,21.602271,18.12739,27.490889,28.356988,27.810175,28.186791,37.140675,37.081889,34.024638,24.804096,48.455601,71.385372,90.911442,50.543381,82.893665,100.57687,113.944119,42.29139,77.937733,98.57468,112.724384,33.568966,67.061016,86.597729,100.242726,25.359902,51.795651,67.521813,80.141819,-14.908402,-16.735226,-12.050173,-10.675263,12.166313,26.348086,32.594807,36.436275,29.072106,41.972385,47.968943,50.364476,41.565734,55.862387,60.451245,60.871123,49.818405,64.222306,67.175445,65.660448,-2.568146,313.055041,-70.573998,285.910536
8,-2.809101,1.818439,0.049118,0.138407,7.89204,11.061127,11.21521,9.695251,-11.580036,14.14936,33.169075,45.042549,-20.381367,8.694877,29.075455,45.814407,-24.169018,1.889625,22.037773,37.933914,-23.959591,-16.195004,-7.102867,2.335235,-20.051001,-33.470131,-40.34247,-42.950104,-13.863499,-3.253407,3.926635,7.964333,2.641658,14.393095,19.361903,21.358344,15.788543,25.745328,27.482996,26.930948,25.753997,35.363337,36.081717,33.522076,24.714661,48.322666,71.217488,90.705975,50.472313,82.74709,100.426037,113.795689,42.271752,77.909054,98.597683,112.753338,33.553951,67.066384,86.605969,100.239636,25.336945,51.769467,67.454842,79.970913,-15.071373,-16.918229,-12.190914,-10.791872,11.916471,26.167701,32.39686,36.246813,28.85377,41.779786,47.829017,50.301194,41.384682,55.631786,60.253916,60.775633,49.684407,64.051616,67.000136,65.505467,-5.195108,314.929695,-70.342741,286.105158
9,1.851276,1.525112,0.056774,0.068692,7.252281,9.760403,9.040318,6.604077,-13.318096,11.458546,30.383091,42.369038,-21.971821,6.343449,26.346005,42.78059,-25.557541,-0.198005,19.8559,35.611942,-24.964107,-18.469745,-10.834019,-2.381985,-19.498854,-33.173532,-40.94518,-44.006802,-14.391045,-3.956362,3.520094,7.547678,1.643573,13.00287,18.461508,20.772838,14.310336,24.185401,26.388828,26.087795,23.803944,33.509145,34.802865,32.861494,24.667328,48.19455,71.066735,90.497658,50.529488,82.625176,100.242783,113.598519,42.408852,77.87764,98.560295,112.733048,33.657177,67.035359,86.57721,100.258782,25.328991,51.757977,67.441201,79.984566,-15.097161,-16.975707,-12.249998,-10.843682,11.770418,26.017449,32.232158,36.056646,28.694008,41.58684,47.661536,50.14184,41.260896,55.459033,60.143518,60.716006,49.636784,63.979219,66.978053,65.529512,-3.198858,316.506189,-70.140993,286.225232
10,1.255612,-1.342133,0.102311,0.17048,6.882591,8.978851,7.590133,3.667099,-15.679093,8.675628,27.895752,40.031936,-24.22641,4.121017,24.226181,40.598007,-27.354195,-1.537754,19.089569,34.998115,-26.049019,-18.504845,-9.029057,0.912803,-18.602077,-31.951738,-39.084343,-41.27936,-13.625327,-2.743114,4.724721,8.163577,2.136243,13.685064,19.324223,21.431122,14.697932,25.256684,27.642967,27.100564,24.378062,34.973976,36.429853,34.763024,24.545013,48.004245,70.923683,90.323799,50.797096,82.667701,100.224426,113.555809,42.762977,77.94786,98.567985,112.717185,33.919155,67.11494,86.549926,100.153083,25.39215,51.715072,67.318233,79.808258,-15.101137,-17.078262,-12.424467,-11.083977,11.619254,25.794395,32.007857,35.8205,28.485971,41.312458,47.385253,49.85648,41.064518,55.156246,59.84882,60.412503,49.511122,63.804144,66.832039,65.425228,-1.838356,315.207877,-69.933792,286.439533
11,-1.158326,1.847856,0.069946,0.294043,6.894757,9.250008,8.296189,5.270394,-14.084838,10.325684,29.397034,41.084679,-22.756759,5.626534,25.757492,42.051888,-26.196224,-0.298358,20.243317,36.138359,-25.395664,-17.835331,-8.803997,0.958157,-18.546995,-32.540874,-40.575566,-43.817895,-14.923148,-4.501802,3.195831,7.174447,0.829012,12.232547,18.104332,20.823906,13.407447,23.621472,26.030269,25.810511,22.961446,33.086933,34.4582,32.796163,24.471474,47.894874,70.894432,90.307457,51.049736,82.793861,100.32843,113.644386,43.145222,78.142937,98.72438,112.832496,34.274162,67.342792,86.657455,100.108337,25.646564,51.863663,67.331566,79.670952,-15.141263,-17.219819,-12.689043,-11.455936,11.352665,25.440417,31.690447,35.556591,28.180035,40.883799,46.972254,49.500637,40.80592,54.738196,59.40297,59.969728,49.351399,63.53511,66.528844,65.138608,-2.879443,317.113828,-69.746607,286.791671
12,-2.187172,-1.311653,0.24123,0.033642,6.876618,10.099434,10.608262,8.617585,-12.745479,11.560868,30.894654,43.113808,-21.361862,7.417809,27.719559,44.320611,-24.70808,1.748887,22.685624,38.777092,-23.675926,-14.871837,-4.344703,6.586339,-17.873829,-31.504109,-38.896708,-41.629225,-13.999856,-3.112813,4.616634,8.251399,1.596755,13.506038,19.465348,21.866945,14.168632,25.350644,27.760083,27.224534,23.86714,35.097502,36.575387,34.905446,24.354286,47.669987,70.648762,90.088497,51.155136,82.669109,100.181614,113.505535,43.390846,78.150226,98.714321,112.790829,34.520691,67.408344,86.586216,99.852047,25.79702,51.791794,67.132118,79.300701,-15.041338,-17.198379,-12.801009,-11.595826,11.394099,25.433389,31.74538,35.692257,28.202562,40.789444,46.84117,49.408184,40.86084,54.647497,59.234848,59.78129,49.481803,63.593266,66.539354,65.146376,-4.93859,315.863052,-69.377352,286.88619
13,-4.566787,1.926786,0.13987,0.070988,7.726902,12.703434,15.021354,15.042938,-7.040543,18.100387,37.203209,49.135185,-15.794655,13.387047,33.630867,50.043731,-19.91898,6.784767,27.30867,42.993667,-20.129254,-10.64193,-0.961785,9.115036,-18.458742,-32.647146,-40.950996,-45.067241,-15.677343,-5.832944,1.816598,5.834327,0.250941,11.872011,17.956291,20.895833,13.073056,23.736154,26.06617,26.035517,22.819383,33.248287,34.34884,32.334183,24.2173,47.558155,70.543819,90.022281,50.959888,82.65343,100.279872,113.677654,43.169574,78.136241,98.791683,112.866016,34.309089,67.396694,86.525791,99.612133,25.606189,51.59531,66.876605,78.954311,-15.058591,-17.308443,-12.861326,-11.600334,11.281986,25.231824,31.578803,35.620083,28.230238,40.789692,46.784212,49.378038,40.981439,54.704073,59.167158,59.634361,49.643416,63.682014,66.559176,65.119255,-9.37338,317.842063,-69.105485,287.009403
14,-4.775414,-3.469521,0.202331,0.015302,9.890099,16.750088,20.264054,20.242928,-0.890659,25.99894,44.619187,54.939514,-9.956463,21.379875,40.551407,55.074578,-15.211109,13.069199,32.45977,46.210213,-17.095722,-5.90292,3.876652,13.105076,-19.06029,-32.42603,-39.254428,-42.530176,-14.104523,-2.587713,3.606298,6.388549,2.636891,15.699919,20.257074,21.995447,15.924727,27.572732,28.817905,28.423122,26.051634,37.251973,37.237363,34.397314,24.092434,47.539215,70.542217,90.201244,50.764675,82.74313,100.486324,113.908161,42.790066,78.074101,98.769299,112.7486,33.882683,67.311321,86.41563,99.305317,25.235539,51.429794,66.766617,78.803707,-15.080871,-17.334563,-12.817632,-11.468385,11.503039,25.319793,31.683902,35.835505,28.56952,41.190637,47.061421,49.645886,41.278755,55.050628,59.329388,59.662853,49.791197,63.747828,66.477159,64.963261,-14.016421,314.415431,-68.770781,287.067594
15,-3.164726,-2.399275,0.132088,-0.037038,11.918198,20.002155,23.938705,23.548096,4.313713,32.787643,50.731384,59.386894,-5.200035,27.529037,45.658035,58.40332,-11.679085,17.18446,35.28408,47.272385,-15.452843,-3.746944,4.816704,12.331661,-20.092201,-32.821209,-38.643309,-41.879117,-13.06882,-0.341146,4.479313,6.454672,4.577755,18.74083,21.827288,22.580434,18.274392,30.260172,30.51052,30.104141,28.594479,39.96935,38.900116,35.345973,23.995491,47.542866,70.524181,90.19424,50.468353,82.902912,100.802822,114.222965,42.312332,78.11301,98.86298,112.775654,33.407867,67.269779,86.36681,99.132694,24.874454,51.296459,66.731827,78.783016,-15.194739,-17.414493,-12.803664,-11.288087,11.783695,25.424324,31.733277,35.912829,28.991423,41.569513,47.223331,49.748997,41.644996,55.410411,59.463473,59.651194,49.951267,63.895683,66.468884,64.814146,-17.062265,312.050517,-68.519811,287.064917
16,-1.129303,-3.519897,0.031093,-0.204888,13.548443,22.238354,25.860992,24.321167,7.05661,36.239616,53.878601,61.650673,-2.913803,30.307114,47.90181,59.704216,-10.411217,18.284649,35.605751,46.654221,-15.760437,-3.420673,5.014973,11.902405,-20.882335,-32.426661,-36.733505,-39.194926,-11.066526,2.891759,6.310731,7.331466,7.15218,22.088839,23.931668,23.749085,21.163706,33.538291,33.060775,32.720518,31.831893,43.682056,41.776772,37.722524,23.977639,47.680848,70.66372,90.380082,50.288281,83.095848,101.13604,114.543114,41.921437,78.178734,98.977822,112.855317,32.9725,67.230126,86.361695,99.082741,24.506424,51.189709,66.771584,78.899392,-15.272532,-17.3789,-12.608693,-10.8946,12.192372,25.751379,31.99321,36.150988,29.482018,42.13695,47.614434,50.063381,42.015166,55.913442,59.833815,59.929788,50.066296,64.130026,66.627274,64.894249,-18.101011,308.539571,-68.398161,286.86898
17,-1.338947,-2.028526,-0.153602,-0.119993,15.357639,24.838279,27.815746,24.853832,10.543304,40.77531,58.028904,64.513195,0.042057,33.813709,50.902462,61.665378,-8.710785,19.875755,36.335598,46.403377,-15.987751,-3.642071,3.939949,9.770439,-21.762809,-32.694077,-36.275292,-38.517746,-10.152002,4.460998,6.683692,7.175089,8.67639,23.974239,24.755246,24.073756,23.008772,35.027613,33.975645,33.958367,33.950784,45.484526,42.795432,38.235188,24.146507,48.117805,71.192734,91.011566,50.252895,83.473892,101.626693,115.027267,41.677128,78.408439,99.223297,113.050369,32.693985,67.377411,86.559471,99.257652,24.322048,51.329395,67.059253,79.271301,-15.322118,-17.367785,-12.429111,-10.528075,12.382847,25.941286,32.148968,36.311761,29.770614,42.571166,47.963212,50.35404,42.236219,56.295627,60.180704,60.207874,50.092798,64.21471,66.655346,64.846726,-19.375231,306.502566,-68.487036,286.740508
18,3.39323,-4.007441,-0.131779,-0.129849,15.477711,23.809799,24.983757,19.681091,8.167626,37.926865,54.97538,60.752701,-2.672127,30.886391,47.462929,57.68335,-11.86425,15.903248,31.72815,41.280167,-19.761658,-8.365757,-1.114048,4.39737,-21.903501,-31.717741,-33.541898,-34.574871,-7.126306,9.010645,10.176974,9.884969,12.083728,28.000391,27.530939,25.869162,26.428262,38.802786,37.001044,36.762317,37.541299,49.789468,46.554747,41.775722,24.390598,48.54808,71.735539,91.62505,50.647499,83.967098,102.086323,115.396923,41.964088,78.766514,99.431637,113.154179,32.871059,67.670952,86.830181,99.524128,24.405144,51.65126,67.499245,79.778286,-15.266863,-17.241012,-12.290728,-10.343713,12.609533,26.246506,32.435417,36.553551,29.915357,42.851229,48.252859,50.64607,42.279272,56.440346,60.391285,60.46178,50.044547,64.220947,66.64969,64.853815,-15.938839,302.476526,-68.575653,286.59206
19,5.500019,0.211866,-0.187969,0.044287,12.782284,19.16692,19.559246,13.915867,2.026154,30.243153,47.293453,54.322094,-8.669208,23.331265,41.228611,53.062008,-16.760284,9.248966,26.305516,37.76405,-23.168518,-13.442035,-5.549194,1.292954,-21.305128,-30.884407,-32.138966,-32.533415,-6.649025,7.318881,9.415554,10.439512,12.538026,26.310702,27.091153,26.152225,26.843299,37.415945,36.453676,36.539978,38.323355,48.982427,46.121407,41.937644,24.675636,48.879318,72.128128,91.942543,51.039608,84.352798,102.414734,115.643532,42.427254,79.234497,99.803306,113.484466,33.336307,68.148388,87.240509,99.88314,24.82917,52.088894,67.925983,80.162338,-15.260762,-17.310937,-12.403113,-10.432361,12.433829,26.114892,32.302468,36.369881,29.746458,42.664694,48.126036,50.548072,42.15508,56.24414,60.252014,60.360917,50.008003,64.151849,66.583148,64.782333,-10.409603,302.659573,-68.734405,286.607528
20,0.883473,3.50436,-0.124203,0.065579,11.185524,17.179115,19.114586,16.352211,0.619606,28.191879,45.774673,54.681701,-9.704281,20.811378,40.166084,54.276764,-17.049294,8.013267,25.987655,39.114578,-22.504441,-12.83709,-3.918904,4.278751,-21.001278,-31.216513,-33.921033,-35.40986,-9.244629,2.120312,5.065856,7.369208,9.350087,21.627872,23.764782,24.016082,23.763387,33.408332,33.466179,33.988514,35.497879,44.928316,42.952772,39.472333,24.995178,49.25639,72.565716,92.473789,51.403576,84.64484,102.668324,115.885906,42.844082,79.588474,100.118237,113.794499,33.761353,68.604092,87.660107,100.234715,25.256069,52.593624,68.390659,80.549412,-15.18639,-17.299798,-12.424664,-10.500052,12.188605,26.00216,32.243348,36.33892,29.510572,42.472601,48.095099,50.642266,42.020279,56.021308,60.11951,60.324398,50.030913,64.044699,66.455979,64.676974,-9.505245,306.117043,-68.837723,286.626217
21,6.825462,-0.249397,-0.098179,-0.024169,8.695839,12.38134,12.313362,8.596916,-6.747562,19.116943,37.441086,47.470573,-16.866852,12.281502,32.329742,47.460892,-23.393543,0.165985,18.788612,32.825111,-27.69072,-20.954464,-13.541039,-6.139606,-20.519736,-30.57941,-33.083907,-34.589173,-7.982921,3.082358,6.013465,8.384545,10.671459,22.106314,24.194947,24.61422,24.825826,33.646404,33.472156,33.836138,36.360186,44.980494,43.167502,40.021467,25.170639,49.468746,72.781517,92.692177,51.708344,84.810539,102.78598,116.057076,43.180252,79.776535,100.263153,113.963883,34.057823,68.842255,87.899208,100.466423,25.479298,52.861817,68.670502,80.82106,-15.052713,-17.215904,-12.404509,-10.523456,12.026794,25.956996,32.257724,36.390926,29.358937,42.356102,48.148501,50.829358,41.969001,55.893348,60.096316,60.393311,50.147448,64.0189,66.430315,64.683236,-2.666748,305.824072,-68.922867,286.558474
22,1.404373,2.064032,-0.080749,-0.142742,7.530075,10.250931,10.193527,7.527214,-9.176811,16.52829,35.09523,46.100441,-18.988449,10.015801,30.803307,47.149841,-24.673405,-0.750149,18.451584,33.508049,-27.816364,-20.568409,-12.167049,-3.637092,-20.915581,-31.804068,-34.955241,-37.010245,-9.349507,0.405984,4.24313,7.511814,9.245766,19.729825,22.602478,23.773081,23.445285,31.460563,31.72746,32.094221,34.955031,42.699595,41.175261,38.062028,25.145027,49.392082,72.693718,92.484649,51.894024,84.885383,102.810173,116.088409,43.401111,79.850052,100.333168,114.102791,34.197601,68.84721,87.959244,100.61396,25.488601,52.842064,68.670444,80.853058,-14.979279,-17.101591,-12.325234,-10.515441,11.988966,25.93831,32.256526,36.356531,29.263594,42.293969,48.267889,51.06328,41.897901,55.824089,60.152657,60.545859,50.185103,64.049343,66.536773,64.865634,-1.251784,307.851566,-68.993025,286.379194
23,-3.283012,3.282627,-0.116101,-0.403712,7.762104,11.268711,12.460922,11.784508,-6.981617,19.480247,38.135467,49.713272,-16.600949,12.665886,33.765793,50.845573,-22.031056,2.720444,22.123237,37.696289,-24.694931,-16.034294,-6.602898,2.973518,-21.038847,-32.905103,-37.441288,-40.364849,-12.031895,-3.106713,1.991599,6.321279,6.273224,16.522311,20.656377,22.710962,20.510362,28.301066,29.408535,29.887409,31.891321,39.034634,38.090334,35.077556,24.983551,49.123066,72.220288,91.693898,52.047581,84.608975,102.377667,115.626767,43.693165,79.73322,100.21027,114.114109,34.482972,68.706299,87.769055,100.451695,25.670689,52.692501,68.383942,80.518444,-14.984417,-17.002642,-12.236437,-10.712066,12.140934,26.150435,32.665005,36.870232,29.347106,42.393399,48.526425,51.393744,41.938225,55.849184,60.315925,60.819932,50.267886,64.098014,66.700572,65.196073,-4.523695,311.096717,-69.098025,285.938006
24,0.05777,-2.855487,-0.995922,-1.224091,7.513835,10.612918,10.765892,9.279728,-8.681385,16.983512,36.424873,48.197708,-18.510716,10.199855,31.248733,48.932991,-24.531968,0.354686,19.752777,35.080032,-27.772728,-20.432557,-12.866673,-4.906895,-20.831934,-31.911798,-36.204267,-39.606171,-9.976335,2.642584,7.640205,10.955832,8.260661,21.358702,25.107396,26.775028,21.957248,32.011809,32.856702,33.237085,32.533772,41.431723,41.402947,39.055925,24.569493,48.719502,71.379193,90.359711,52.032841,84.216362,101.886933,115.255944,43.645352,79.131935,99.652817,113.850014,34.403092,67.773411,86.930168,99.960617,25.506066,51.95129,67.35315,79.455689,-15.478506,-17.064813,-11.838048,-10.450504,12.07307,26.511453,33.484668,38.196866,29.235646,42.909127,49.649196,53.188965,41.726125,56.077081,61.179616,62.379945,50.05176,64.324639,67.499931,66.612121,-4.418993,308.198054,-70.047015,284.670739
25,6.550506,-3.248751,-2.34502,-2.804493,2.693997,0.957424,-4.539471,-12.234398,-17.733936,4.718044,22.610859,32.792633,-26.180809,-0.036587,18.331593,32.82328,-30.653869,-8.887813,8.040871,20.730377,-32.368824,-28.563148,-24.162449,-19.258324,-16.551457,-24.795643,-26.50876,-27.184545,-6.2588,7.295416,12.223272,14.591264,10.104738,23.886331,27.203032,27.562938,22.171918,33.11698,33.566783,33.072915,31.431701,41.192699,41.394487,39.332209,24.212734,47.770992,69.638351,88.064392,51.204746,82.559681,99.774136,112.951344,42.862553,77.262611,97.296284,111.465145,33.711708,65.580299,84.360397,97.430615,24.878883,50.044178,64.747673,76.429722,-16.721172,-18.494113,-13.783878,-12.645645,11.165104,26.436648,34.315519,39.901572,28.281071,43.682611,51.624579,56.394317,40.801189,56.623843,63.086653,65.678738,49.227551,64.197519,68.673139,68.971282,2.18763,304.914883,-72.335918,281.831826
26,6.900078,-2.504115,-8.735023,-9.60603,-2.764286,-9.213032,-17.911606,-28.039558,-24.487118,-12.780453,-2.310951,3.513977,-30.545471,-17.03056,-6.047447,3.147869,-33.050331,-21.608219,-11.534603,-4.046459,-33.21563,-33.590824,-31.781879,-29.323746,-6.547606,-10.170787,-10.345034,-9.809782,2.94363,12.514141,15.122243,15.663906,12.503767,21.744197,22.220107,20.100957,18.309886,25.218584,23.077043,20.268461,21.550819,27.982569,26.954796,24.151784,25.76929,50.169708,71.617206,89.069343,55.10741,87.821147,102.973697,112.596508,47.144886,82.621055,99.482803,109.143161,38.571647,70.710548,86.21846,94.968395,30.245349,55.13412,67.698085,75.825851,-17.701596,-19.675287,-15.332578,-13.463072,13.627365,32.764879,40.451941,45.068143,31.20205,51.477243,59.099256,62.826264,43.71508,63.686756,70.825227,73.369283,51.902802,70.013123,75.60855,76.297561,9.179003,302.378195,-80.979646,272.193223
27,14.251694,-6.333011,-12.664628,-19.601607,-10.425511,-23.187275,-37.006245,-50.00663,-37.275112,-37.686093,-34.015847,-32.529351,-39.960102,-39.840638,-37.095051,-33.951634,-39.532711,-40.332596,-37.93657,-36.130143,-37.178261,-45.728669,-49.601681,-51.81054,-5.057198,-5.834809,-2.227498,2.18011,8.742598,19.655798,22.28802,22.635922,18.052004,28.338054,29.18233,27.172886,23.338741,31.823371,30.440545,27.952793,25.914338,33.511158,33.456645,31.806278,26.320748,51.504536,72.462605,88.417889,57.153088,88.452507,100.990849,107.599755,49.066979,82.527432,97.324185,104.943032,40.097718,70.390046,84.13377,91.516526,31.097329,54.626244,66.215962,73.491028,-18.427693,-21.348883,-18.729418,-17.726456,12.061214,32.423833,40.28277,44.446527,29.639111,52.127191,60.888636,65.16458,42.505983,64.565885,73.272187,77.168799,51.29319,71.04543,78.435472,80.918395,23.442559,296.196204,-93.632412,252.742636
28,17.099624,-7.576936,-17.769664,-30.080367,-18.734848,-38.283485,-57.60411,-74.332695,-52.396351,-64.962902,-67.904045,-70.585155,-51.853832,-64.851173,-69.520397,-72.354538,-48.154815,-60.821983,-65.188385,-68.635906,-42.872749,-58.660743,-66.958786,-73.175834,-3.558714,-1.386186,6.651803,14.94949,15.359711,27.2191,29.829598,30.022815,24.584222,35.145111,36.221272,34.345554,29.566257,39.038981,38.468691,36.423332,31.699895,40.378952,41.073237,40.353029,25.978798,51.129284,70.802696,84.395851,56.59901,86.991474,94.864906,96.993976,49.165123,81.067291,90.959621,94.050338,40.763935,70.075424,79.831604,83.55051,32.067615,55.05574,64.589618,69.447612,-19.798324,-23.438813,-21.22671,-19.855147,5.407323,26.377998,33.972064,37.494282,23.16878,46.743901,55.101708,58.896148,37.303869,60.337476,68.916733,72.665539,47.842256,67.960614,75.644613,78.429334,40.514808,288.954233,-111.429451,222.997234
29,12.400544,-1.480874,-24.455658,-39.958648,-25.552277,-50.012261,-72.734024,-90.500634,-60.93829,-84.099209,-94.150853,-101.3023,-56.749409,-82.232998,-94.694024,-103.836651,-49.793919,-73.641106,-85.432435,-94.268006,-41.788022,-62.766667,-74.031865,-82.948712,-2.93086,0.429116,10.860638,21.889434,17.599374,27.353963,30.261222,31.263233,26.461039,35.554504,37.179157,36.36094,31.504578,40.664931,40.966965,39.457562,33.32051,42.068098,42.959144,42.348124,23.053768,47.179584,65.768886,76.948631,51.920643,81.482471,85.189304,83.099624,47.82819,78.184273,82.76786,81.151153,42.393711,70.704471,75.417778,74.916034,36.30352,58.972881,65.32045,66.521347,-22.194833,-30.596841,-33.626903,-35.228462,-3.969421,12.808641,18.194549,20.22707,14.398831,34.356787,41.03318,44.1949,30.010941,49.407925,56.500491,59.806602,42.325505,59.353644,65.976419,68.642789,53.069527,287.987956,-135.730934,183.553183
30,10.070755,-4.555316,-31.763832,-44.53486,-28.604073,-54.702416,-78.220448,-94.725197,-65.775353,-97.725575,-113.198708,-123.875073,-59.764939,-95.365826,-113.219811,-125.785344,-51.460957,-83.641125,-100.21716,-112.071499,-42.492165,-67.553021,-80.790585,-91.0555,-5.980218,-2.577659,10.004333,22.307559,21.348625,32.314139,35.676276,37.505509,32.303123,41.516914,43.694444,44.329905,38.427912,47.963139,49.186908,48.796547,40.571145,50.051352,51.319656,50.979708,25.372123,48.97467,65.788147,73.819255,51.515293,77.271789,78.752952,74.298992,47.775695,73.914516,75.868892,72.096061,43.150371,68.676372,71.216697,68.848297,38.238189,59.330944,64.223671,63.902595,-23.173683,-36.312386,-43.947855,-49.451305,-22.858527,-14.988758,-14.156894,-15.165512,-5.974266,4.8928,7.465211,7.783917,9.46007,21.57539,25.277309,25.954445,22.336211,33.841572,37.672963,38.527934,63.897423,284.119811,-166.737625,139.705494
31,2.317268,-1.568411,-26.472162,-45.741222,-29.669151,-54.95993,-77.751938,-92.529739,-65.052567,-96.675327,-112.187862,-123.332428,-57.934387,-93.097412,-111.490494,-124.974415,-48.754166,-80.8736,-98.046032,-110.379192,-38.986588,-64.22691,-77.853424,-88.572075,-15.083316,-14.255132,-0.165688,13.96924,15.655829,30.648693,37.470348,42.069457,33.036421,47.229395,53.593442,57.739847,45.224989,60.146186,65.652199,68.399548,52.764468,66.719999,70.526047,71.961954,24.901529,46.056697,60.507065,65.85268,45.234098,64.825525,65.554234,62.083532,41.778124,61.442347,63.305021,61.693904,37.671707,58.452937,61.456109,61.383668,33.634801,51.834567,56.580212,57.814945,-24.234087,-41.766972,-53.857974,-63.922864,-44.262154,-48.370366,-51.180727,-53.61727,-29.855012,-31.65187,-32.091831,-32.71211,-14.996311,-13.426064,-12.987114,-13.904722,-1.486411,1.627794,2.475299,2.012876,67.060009,283.309942,-192.364469,94.722814
32,1.679993,-0.099171,-23.688133,-43.677589,-30.147561,-55.058831,-77.677575,-92.619084,-64.320168,-95.760086,-111.527516,-123.236813,-57.075165,-92.093823,-110.317589,-124.311093,-47.876015,-79.794594,-96.806248,-109.420098,-38.20134,-63.064476,-76.526528,-87.503952,-14.735229,-13.643716,0.521087,14.379905,16.284065,31.22212,38.19284,43.061922,33.60907,47.346709,53.786227,58.286696,45.736184,60.42,66.081722,69.123831,53.001799,67.030369,71.025003,72.662315,24.618421,42.938002,54.807885,57.987454,39.743905,55.693811,56.093711,53.093221,37.318859,53.453232,53.94535,51.868067,34.907421,52.861265,54.546426,53.580247,33.087358,49.201845,52.526702,52.544312,-25.428672,-46.306259,-61.169532,-73.799502,-60.824385,-74.295756,-81.281164,-85.841843,-48.851612,-61.153213,-66.531147,-70.002435,-35.310062,-42.927293,-47.239677,-51.554812,-22.236307,-26.599411,-29.862343,-33.382436,69.846497,283.92238,-214.946107,51.756834
33,1.146926,0.00636,-19.641488,-40.970962,-30.313728,-55.137702,-77.68008,-92.567836,-63.441398,-94.891628,-110.878269,-122.963047,-56.016242,-91.054069,-109.405849,-123.705883,-46.799057,-78.611309,-95.718498,-108.587345,-37.254936,-61.92097,-75.3861,-86.572517,-14.689212,-13.317921,1.002136,14.952307,16.608453,31.752989,38.726191,43.569868,33.90972,47.724683,54.198053,58.806696,45.932624,60.742176,66.528709,69.729023,53.014878,67.1565,71.272524,73.123393,24.435469,40.290489,50.285386,52.336464,35.696467,47.58816,49.696397,48.69866,33.665545,45.903777,47.723262,47.448254,32.092827,46.352859,48.808832,49.117937,31.627531,44.754085,47.805043,48.225323,-25.701067,-49.880363,-68.576543,-84.39313,-71.543678,-93.9176,-104.979798,-111.804134,-62.645941,-84.775707,-94.003597,-99.645463,-51.713662,-67.971284,-75.926543,-82.612137,-40.467563,-51.460425,-57.765007,-63.28633,72.31862,284.616084,-233.262398,11.473216
34,0.957505,-0.089229,-13.194136,-38.381865,-30.192536,-54.988999,-77.465218,-92.235878,-62.566796,-93.867829,-109.995678,-122.339585,-55.103028,-90.046864,-108.604294,-123.209725,-45.953453,-77.579945,-94.806004,-107.906708,-36.529244,-60.996849,-74.499035,-85.895806,-14.477878,-13.043515,1.286533,15.23437,16.873325,32.244892,39.335926,44.260979,34.053315,47.983368,54.567308,59.312876,45.995363,60.853586,66.844278,70.269203,53.054089,67.143915,71.393196,73.474913,26.118885,39.946129,47.863484,49.029007,34.788472,42.296826,45.448025,46.08894,30.847687,39.161477,42.518658,43.924897,27.871571,38.636868,42.569996,44.261891,26.511647,36.366303,40.35014,42.391434,-24.283899,-47.655146,-65.473406,-80.923569,-78.333572,-105.152239,-118.797796,-127.664086,-73.467923,-101.749229,-114.438272,-123.051306,-65.741107,-87.047487,-98.306928,-108.016408,-56.570868,-71.608211,-80.421149,-88.279748,74.741942,285.241847,-244.990717,-26.193657
35,0.516906,-0.109409,-5.719059,-40.295936,-29.978576,-54.717475,-77.007076,-91.526241,-61.8395,-92.989288,-109.188663,-121.650226,-54.327713,-89.1763,-107.924034,-122.737873,-45.143508,-76.533061,-93.84732,-107.118129,-35.64196,-59.863677,-73.382411,-84.961669,-14.326046,-12.821362,1.491532,15.44237,17.019772,32.632931,39.854012,44.875197,34.000505,48.087491,54.872478,59.893886,45.82834,60.696295,66.989662,70.764947,52.887548,66.87309,71.291999,73.67412,21.584725,33.024205,39.67907,40.722599,29.309029,35.635609,38.084233,38.819127,26.589753,34.045063,36.63406,37.340802,24.367791,33.827122,36.645207,37.542538,23.456635,31.690052,35.246785,37.199765,-23.374729,-44.989939,-61.256995,-74.921179,-73.896106,-100.88434,-115.39447,-125.341461,-71.434559,-101.897979,-116.63109,-126.925569,-65.830187,-90.089652,-103.987175,-115.637054,-57.901397,-75.208673,-85.871104,-95.236595,76.315504,285.664461,-249.65312,-65.95757
36,0.301827,-0.001544,-4.056704,-31.197424,-29.701538,-54.410912,-76.496418,-90.958443,-61.18467,-92.15007,-108.368328,-120.917049,-53.699364,-88.341591,-107.229355,-122.184322,-44.582748,-75.838326,-93.267551,-106.720116,-35.107887,-59.245445,-72.895947,-84.673519,-14.158369,-12.619314,1.623962,15.421745,17.190845,33.138457,40.414533,45.332299,34.065306,48.282178,54.991805,59.877473,45.792821,60.616835,66.973966,70.77048,52.816967,66.666881,71.137944,73.577085,18.01801,28.358104,34.53427,35.356934,28.982612,35.87085,38.640806,39.902747,27.892248,36.291702,39.498148,40.613639,26.60245,36.706884,39.950469,41.267741,26.068791,34.615173,38.94923,41.81622,-22.317078,-41.948713,-56.965366,-69.312828,-65.7171,-89.786079,-103.33071,-112.882982,-64.54744,-92.800849,-107.328651,-117.609525,-60.457093,-83.655927,-97.855629,-109.603764,-53.844879,-70.441528,-81.251608,-90.709995,77.824499,286.274286,-252.502656,-96.543625
37,-0.009041,0.19502,-2.394349,-22.098912,-29.406853,-54.052093,-76.029693,-90.584919,-60.431579,-91.579216,-107.768635,-120.23378,-53.061516,-87.960296,-106.946445,-121.941948,-44.048927,-75.527458,-93.068001,-106.635509,-34.649116,-58.977196,-72.789596,-84.754005,-14.329825,-12.647546,1.736533,15.447829,16.983043,33.062727,40.412582,45.280046,33.983919,48.192751,54.786361,59.453828,45.778582,60.373847,66.731015,70.486354,52.882398,66.473405,70.870899,73.277584,15.418741,25.947827,32.429083,32.932011,33.809219,43.00255,47.117745,49.339802,34.755174,45.901393,51.110921,53.743409,34.575549,47.276152,52.485782,55.4375,34.348116,45.141663,51.457476,56.240799,-21.110946,-38.53147,-52.598519,-64.098517,-53.796552,-71.857457,-82.606515,-90.288648,-52.806566,-74.45784,-86.530956,-95.103172,-49.621823,-67.746314,-79.912292,-89.91654,-44.401315,-57.306776,-66.56266,-74.699948,79.041738,287.025316,-253.670725,-118.086527
38,-0.146484,0.124946,-1.745848,-13.638688,-29.20459,-53.837311,-75.688751,-90.445484,-59.998627,-91.280319,-107.414212,-119.784039,-52.568299,-87.606171,-106.501454,-121.339245,-43.556832,-75.286377,-92.870774,-106.414112,-34.232987,-58.782303,-72.686989,-84.622032,-14.468986,-12.465272,2.07411,15.584952,17.00925,33.19628,40.603823,45.501618,34.108457,48.341347,54.794524,59.301106,45.956904,60.406464,66.668116,70.353751,53.103563,66.52982,70.864056,73.24083,13.915674,25.382868,32.588648,33.284008,39.975044,51.7654,57.660588,61.237892,42.475122,56.379624,63.79325,68.211501,42.906172,58.330683,65.543451,70.160982,42.499622,55.601719,63.8359,70.504617,-19.683532,-34.763686,-47.486377,-58.221878,-41.957272,-52.810299,-59.940102,-65.054004,-40.573634,-53.90636,-62.557496,-68.512228,-37.799,-49.149688,-57.940217,-65.060548,-33.692958,-41.486805,-48.061944,-53.971099,80.042816,287.596897,-254.269011,-131.27858
39,-0.065369,-0.024194,-1.097349,-5.178462,-29.173004,-53.805496,-75.508598,-90.33791,-59.909958,-91.153473,-107.168987,-119.448372,-52.404831,-87.296356,-105.984913,-120.608677,-43.345207,-75.040134,-92.547272,-105.973377,-34.036102,-58.594368,-72.480057,-84.254745,-14.636749,-12.226791,2.531705,15.947143,17.132479,33.399476,40.853838,45.798218,34.287484,48.60764,55.006773,59.410714,46.17539,60.576117,66.841153,70.518847,53.358852,66.757938,71.117443,73.501837,13.508812,26.663229,35.012964,36.412926,47.480089,62.159403,70.269338,75.597021,51.052093,67.726398,77.545137,84.017916,51.59432,69.870477,79.123478,85.43819,50.523313,65.995342,76.084505,84.607675,-18.034839,-30.645363,-41.62894,-51.682914,-30.199261,-32.644605,-35.331474,-37.179052,-27.848647,-31.146411,-35.408273,-37.836694,-24.988626,-27.86605,-31.939407,-35.03579,-21.719812,-22.981617,-25.749462,-28.523452,80.882154,287.882319,-254.461653,-136.147426
40,-0.143715,-0.074483,-1.445023,2.23271,-29.148765,-53.715317,-75.352272,-90.085453,-59.777595,-91.043873,-106.868339,-118.975181,-52.209366,-87.112278,-105.603939,-120.06895,-43.126236,-74.941406,-92.3787,-105.740135,-33.867851,-58.528587,-72.389728,-84.072235,-14.773119,-12.091521,2.781745,16.281459,17.283854,33.5458,41.01734,45.948494,34.54029,48.821926,55.155011,59.446084,46.423626,60.687984,66.902039,70.522441,53.551908,66.865248,71.250848,73.66014,14.253868,29.492083,38.94599,41.176506,55.336047,74.020655,85.110621,93.053416,59.043366,79.958199,92.875208,102.289461,59.032431,81.174757,93.461003,102.433434,56.675257,74.880787,86.987383,97.489683,-17.173304,-28.181457,-38.325806,-48.997132,-21.634439,-19.380281,-19.444128,-19.584502,-17.915868,-14.97454,-16.230485,-16.554863,-14.613615,-11.806028,-12.958936,-13.842719,-11.702664,-8.941145,-9.488714,-10.43873,81.575437,288.258429,-255.069678,-133.464123
41,-0.122246,-0.207506,-3.333915,0.636705,-29.28955,-53.77272,-75.33958,-89.863346,-59.707534,-90.945396,-106.64162,-118.628334,-51.953727,-86.843135,-105.116947,-119.406154,-42.758422,-74.574005,-91.856941,-105.052345,-33.514938,-58.141227,-71.832241,-83.283302,-14.808194,-11.904998,3.141922,16.791246,17.381147,33.705523,41.247966,46.217071,34.704546,49.19044,55.640443,59.988487,46.604048,61.038182,67.274394,70.866897,53.706531,67.154981,71.559922,73.933472,14.101129,30.34275,39.923664,41.866481,57.682943,78.175998,90.833358,100.6812,60.756649,82.920564,97.168974,108.114486,59.960827,82.976938,96.297088,106.406662,56.603851,74.739092,87.030996,97.875154,-17.397418,-28.723921,-38.936202,-50.540491,-21.920858,-20.305856,-21.340802,-22.485241,-17.373619,-14.978419,-16.840253,-17.81762,-13.475105,-11.056135,-12.615129,-13.788013,-9.970912,-7.338723,-8.10937,-9.309378,82.052387,288.333558,-257.804397,-132.544783
42,0.026116,-0.523459,-4.0322,-4.952411,-29.450432,-53.784142,-75.128266,-89.274571,-59.69735,-90.532208,-106.102352,-118.10083,-51.88559,-86.347561,-104.528561,-118.878342,-42.631325,-74.027447,-91.176899,-104.339939,-33.334145,-57.564743,-71.060646,-82.399532,-14.417338,-11.44676,3.569742,17.242926,17.650318,34.0288,41.580999,46.535185,34.825121,49.56587,56.219156,60.737039,46.661428,61.42195,67.834075,71.552339,53.760008,67.477343,72.02536,74.461957,10.477655,23.763816,31.164745,32.05838,49.756628,69.969452,82.375305,92.146002,52.9025,74.824854,88.011606,97.875835,52.370704,74.617532,86.552112,95.428837,49.356399,65.863226,76.603277,86.157091,-19.817147,-33.793296,-44.843114,-56.824762,-32.255681,-36.848269,-40.544828,-43.249925,-26.893464,-31.078079,-35.861544,-38.398121,-21.268656,-24.698829,-28.642313,-31.453997,-15.260424,-17.377549,-20.177302,-22.637874,82.505133,287.666569,-261.409967,-137.640724
43,0.084549,-0.480023,-4.225125,-3.443728,-29.54892,-53.722092,-74.878052,-88.589264,-59.551781,-89.98058,-105.462799,-117.448609,-51.727112,-85.802376,-103.959503,-118.430649,-42.431442,-73.397267,-90.439556,-103.616204,-32.982949,-56.852806,-70.241764,-81.628887,-14.035004,-11.179516,3.805394,17.66993,18.038136,34.315062,41.854936,46.784274,35.091117,49.819467,56.643209,61.379552,46.796377,61.603558,68.167293,72.058742,53.782077,67.624173,72.365246,74.93741,6.29393,16.397713,21.617672,21.409115,38.214112,56.599091,67.839913,77.044155,41.219559,61.181946,72.95945,82.110398,41.691193,61.6054,72.062394,80.161137,40.53732,54.447419,63.210297,71.179596,-22.537273,-39.60542,-52.623855,-65.549779,-43.897772,-56.297897,-64.675115,-71.13682,-38.721185,-51.850135,-61.595838,-68.550614,-32.098759,-43.625641,-52.371395,-59.259091,-24.120464,-32.794838,-39.153142,-44.584554,82.985407,286.787379,-265.239367,-141.483619
44,0.050171,-0.259672,-3.343334,-2.442278,-29.515137,-53.503212,-74.446724,-87.934777,-59.047005,-89.257611,-104.721199,-116.748928,-51.255135,-85.235081,-103.478119,-118.1334,-41.983521,-72.857724,-89.955117,-103.277573,-32.471466,-56.181954,-69.61068,-81.19772,-13.777407,-11.044444,3.897574,17.786094,18.197216,34.549404,42.102073,46.990198,35.1738,49.938546,56.874834,61.759489,46.78184,61.606249,68.312097,72.364455,53.700863,67.640734,72.533614,75.251497,3.301369,10.275009,13.102604,10.82515,28.319721,44.886131,54.879261,63.316864,31.372524,49.508,60.147171,68.599961,32.881359,50.592465,60.187283,67.655789,33.461117,45.392109,52.659966,59.245091,-25.995679,-46.659019,-62.426912,-76.675258,-55.941489,-76.86666,-90.293419,-100.796979,-50.626588,-73.370333,-88.193621,-99.831164,-42.972195,-63.250475,-77.090496,-88.330343,-33.156575,-48.66135,-59.069453,-67.981961,83.387633,285.843324,-268.230646,-144.61028
45,0.126297,-0.00541,-2.563385,-0.870733,-29.379547,-53.25737,-74.032276,-87.413212,-58.61174,-88.532879,-104.028706,-116.132058,-50.904854,-84.625695,-102.949025,-117.719067,-41.687279,-72.268376,-89.354851,-102.708149,-32.114067,-55.455139,-68.820958,-80.472634,-13.61168,-11.029364,3.861994,17.689011,18.173764,34.723134,42.329364,47.224072,35.010693,49.977634,57.071139,62.129029,46.565998,61.549748,68.468548,72.740738,53.49679,67.594656,72.660216,75.555853,0.727982,5.865795,6.927052,3.286389,23.88073,40.072575,49.715687,57.520569,27.525364,45.275746,55.803108,63.620533,30.078564,47.496037,56.995423,64.056679,31.917572,43.7673,50.713303,56.820305,-28.613869,-51.921948,-69.868745,-83.91123,-63.270334,-86.72118,-101.585047,-112.887342,-57.397258,-83.282129,-99.444898,-112.200911,-48.587852,-72.095567,-87.47472,-99.913251,-37.359256,-55.158102,-66.859382,-77.35932,83.774437,284.941444,-270.533524,-146.377483
46,0.135246,0.057033,0.476307,3.253372,-29.18605,-52.930527,-73.475063,-86.66993,-58.107788,-87.667477,-103.216576,-115.423451,-50.582245,-83.904888,-102.372917,-117.297203,-41.493439,-71.641628,-88.716213,-102.091438,-31.892235,-54.774834,-68.076519,-79.824234,-13.300248,-10.910693,3.827908,17.582763,18.326633,34.958155,42.588271,47.487586,34.974754,50.025429,57.227281,62.418786,46.441966,61.487528,68.628197,73.137077,53.344069,67.544861,72.839625,75.94919,-0.143928,3.888802,4.289539,1.011909,21.37104,37.782181,47.440876,54.736958,25.155968,43.562485,54.112057,61.600189,28.020283,46.314163,56.125229,63.141117,30.31657,43.314339,50.740551,57.030789,-29.49453,-53.111387,-71.466582,-84.580446,-64.497794,-86.464387,-99.783543,-109.549115,-58.612113,-82.821225,-97.463413,-108.716992,-49.321748,-71.614457,-85.6125,-96.900093,-37.730023,-54.902672,-65.541995,-75.264442,84.192152,284.169696,-269.774748,-143.952892
47,0.168617,0.472576,2.32539,11.370589,-28.973419,-52.598488,-72.989776,-86.126861,-57.661903,-87.086094,-102.725738,-115.013397,-50.222076,-83.346302,-101.960598,-116.994724,-41.205688,-71.184562,-88.284679,-101.682083,-31.560676,-54.232704,-67.523277,-79.266094,-13.284144,-11.143529,3.411685,17.138296,18.356038,35.002146,42.656332,47.542173,34.948152,49.956874,57.24047,62.580226,46.319206,61.238896,68.544106,73.268852,53.100315,67.236985,72.688336,75.970581,3.258579,9.795445,11.97131,10.426185,25.554806,42.670933,53.117077,61.300404,27.553779,46.15686,57.488846,66.156086,28.71532,47.706333,58.656326,66.838142,29.610809,43.740257,52.353779,59.48354,-27.527695,-48.706792,-65.837441,-78.171134,-58.426705,-74.669342,-85.365576,-93.413643,-53.599589,-72.067591,-83.625199,-92.606252,-45.478327,-62.724688,-73.769509,-82.708548,-35.533009,-48.691864,-56.55142,-64.194849,84.659723,284.186916,-267.150404,-133.037659
48,-0.128837,0.819625,4.682968,13.028293,-28.532891,-52.05082,-72.365422,-85.581276,-57.303727,-86.734887,-102.413384,-114.693066,-49.971703,-83.070397,-101.719265,-116.718396,-40.995507,-70.946537,-88.060913,-101.452835,-31.332528,-54.028153,-67.334908,-79.085186,-13.46832,-11.562567,2.763146,16.378173,18.09297,34.697668,42.389386,47.311301,34.685083,49.654791,56.966188,62.352837,46.058904,60.849042,68.235379,73.045415,52.835876,66.850255,72.323355,75.678576,7.896263,17.353798,21.798786,22.036125,33.588822,52.806061,64.495297,73.50697,33.683567,54.042504,66.056259,75.269943,32.115463,53.367932,65.460091,74.377407,29.990856,46.518631,56.982536,65.303341,-24.681383,-42.466848,-57.074081,-68.039827,-49.975396,-58.333845,-63.994017,-67.727114,-45.752205,-55.4072,-61.309282,-64.508724,-38.478469,-47.745854,-52.831784,-56.435026,-30.096694,-37.106073,-40.169341,-43.225557,84.770417,284.809125,-262.227905,-120.206782
49,-0.097138,0.93379,4.834717,10.968744,-28.101242,-51.71743,-72.157448,-85.371345,-57.189422,-86.708347,-102.478237,-114.779423,-49.967468,-83.049808,-101.727733,-116.607456,-41.048652,-70.940895,-88.098896,-101.463672,-31.38565,-54.114715,-67.463516,-79.153461,-13.738034,-12.113875,1.927132,15.585742,17.866358,34.149892,41.831755,46.82141,34.54712,49.366219,56.570874,61.869146,45.979233,60.676017,67.985104,72.734316,52.780016,66.652444,72.05211,75.395882,11.250572,23.208504,29.840961,31.78585,40.256847,61.260395,73.642044,82.71682,39.352089,61.557335,74.573364,84.113228,36.514686,59.857658,72.859852,82.114345,32.96886,51.768448,63.62289,72.729172,-22.183242,-37.229212,-49.936626,-59.984122,-40.702111,-42.181286,-43.289298,-43.094099,-36.370017,-39.082521,-40.170156,-39.001727,-29.524885,-32.510134,-33.172519,-32.961172,-21.84732,-24.229725,-23.981532,-23.987497,84.848459,285.799305,-257.218008,-109.181648
50,-0.13005,0.921983,6.408394,8.752933,-27.895524,-51.585595,-72.162564,-85.566823,-57.247765,-87.043934,-102.871903,-115.106873,-50.014779,-83.367714,-102.056317,-116.797955,-41.071404,-71.282216,-88.554017,-101.938866,-31.427216,-54.493676,-67.972664,-79.661179,-14.108018,-12.668579,1.19329,14.893668,17.569227,33.431253,41.064802,46.064202,34.473007,48.967422,55.975328,61.074295,46.010257,60.43398,67.512998,72.064275,52.817943,66.436441,71.627934,74.821418,13.664909,26.703209,34.950245,37.705192,43.431255,62.787826,72.540607,79.337402,42.80405,62.475025,73.050316,81.088257,40.028434,61.612816,72.422024,80.211479,36.531692,55.160602,67.054802,76.066006,-19.958737,-32.240529,-42.735682,-52.511773,-33.725729,-29.350906,-26.773577,-24.213513,-29.13528,-26.172996,-23.777972,-20.009091,-22.166172,-20.038231,-17.030032,-13.577075,-14.515552,-13.085474,-10.038502,-6.800181,84.850365,286.876532,-250.677658,-100.273471
51,-0.250168,0.618752,4.778953,5.871025,-27.766686,-51.607888,-72.411805,-86.147667,-57.401345,-87.637837,-103.488854,-115.638039,-50.073029,-83.868782,-102.510338,-117.090889,-41.003632,-71.664677,-89.076496,-102.510064,-31.328247,-54.920769,-68.590714,-80.275784,-14.495922,-12.961881,0.861134,14.526401,17.470933,32.975387,40.523436,45.537038,34.568238,48.815368,55.652188,60.561852,46.19326,60.467757,67.290745,71.598701,52.994228,66.468304,71.384303,74.352399,15.300724,28.990395,38.264981,41.636532,45.853482,64.031235,72.175751,77.573071,45.510597,63.193974,72.066944,79.099015,42.837826,63.049282,72.352269,79.119526,39.329445,57.974396,70.028671,79.043446,-18.47395,-29.103087,-38.363775,-48.329075,-29.130578,-20.562731,-15.747485,-11.84572,-24.605796,-17.684397,-13.32,-8.094203,-17.901552,-12.389734,-7.149575,-1.712783,-10.716642,-6.737204,-1.888691,3.402725,84.670681,287.62541,-245.828221,-94.27232
52,-0.446961,0.47491,3.149513,2.989119,-27.713836,-51.657371,-72.631187,-86.519817,-57.662452,-88.109207,-103.865364,-115.892589,-50.301956,-84.3437,-102.858352,-117.236927,-41.181015,-72.129261,-89.594661,-103.051975,-31.527168,-55.407989,-69.165561,-80.855758,-14.722546,-13.081973,0.731236,14.354908,17.38158,32.692335,40.116599,45.03991,34.612649,48.757915,55.384661,60.023771,46.350353,60.56804,67.15403,71.212205,53.24097,66.638636,71.329024,74.092034,16.158017,30.070061,39.785168,43.579869,47.523526,64.99062,72.547474,77.423825,47.47173,63.714181,71.62325,78.145501,44.94286,64.167058,72.650586,78.838486,41.362118,60.209828,72.544499,81.661492,-17.728883,-27.816888,-36.820907,-47.436031,-26.916659,-15.816763,-10.211024,-5.990723,-22.781568,-13.616726,-8.796242,-3.257063,-16.731028,-9.564645,-3.531148,2.631703,-10.450591,-5.184917,0.467901,6.621218,84.245109,288.21123,-242.657319,-91.172291
53,-0.157928,0.04961,1.520073,0.107211,-27.982682,-52.03949,-73.146973,-87.11285,-58.023834,-88.520188,-104.197632,-116.193947,-50.602799,-84.706146,-103.19315,-117.552464,-41.400055,-72.440712,-89.980202,-103.513104,-31.697205,-55.689652,-69.568726,-81.316933,-14.715345,-12.920199,0.928232,14.558265,17.522124,32.627127,39.921221,44.787759,34.804842,48.874401,55.384723,59.903494,46.599244,60.912521,67.365723,71.279773,53.56416,67.042731,71.602616,74.17667,16.236786,29.942208,39.510807,43.535203,48.441388,65.665982,73.655777,78.889664,48.687447,64.035645,71.719231,78.227715,46.343537,64.966141,73.316975,79.368359,42.629712,61.866898,74.602284,83.920144,-17.723536,-28.381929,-38.107075,-49.832638,-27.083972,-15.113,-10.164192,-6.648519,-23.662591,-13.969981,-10.206695,-5.49767,-18.654596,-11.562963,-6.174751,-0.543614,-13.717398,-8.428611,-2.968726,2.855302,84.074015,288.334959,-241.150412,-90.990961
54,-0.279465,-0.111015,1.129286,0.612632,-28.179291,-52.219757,-73.377983,-87.390404,-58.344704,-88.777199,-104.342903,-116.244667,-50.808105,-84.933334,-103.405964,-117.764339,-41.470367,-72.574779,-90.106762,-103.64217,-31.688049,-55.735153,-69.617969,-81.371841,-14.607517,-12.625613,1.286496,14.958432,17.69048,32.88412,40.10441,44.877161,34.936741,49.180572,55.757374,60.285507,46.719868,61.25736,67.722196,71.611249,53.672915,67.321633,71.825029,74.245608,16.476769,30.055928,39.517931,44.215119,48.788412,66.333281,75.223309,81.462027,48.252543,63.023615,70.155075,77.003386,44.920378,63.373089,71.5381,77.978033,40.201996,59.560433,72.598452,82.214836,-17.256122,-27.943874,-37.771134,-50.130552,-28.589935,-15.353151,-10.757777,-7.793501,-26.723362,-15.526647,-12.563156,-7.716758,-23.075777,-15.050348,-9.431042,-3.358114,-20.132027,-14.308704,-8.007334,-1.144547,83.730995,288.298026,-240.084681,-90.304247
55,-0.143806,-0.117054,0.414585,1.753273,-28.368851,-52.391762,-73.598282,-87.662682,-58.589562,-88.874428,-104.340947,-116.223427,-51.037102,-85.050328,-103.505539,-117.925255,-41.659562,-72.611172,-90.102791,-103.623425,-31.837922,-55.751496,-69.620144,-81.386261,-14.416461,-12.259383,1.771669,15.408951,17.948893,33.178435,40.305778,45.025548,35.083756,49.422584,56.01901,60.605806,46.811332,61.548377,68.027761,71.939255,53.763503,67.633571,72.195778,74.584445,17.250836,30.89431,40.402663,45.75214,47.873263,67.160529,78.877819,87.540797,45.201067,61.415205,70.183663,78.66738,40.028143,59.754067,69.443762,77.196791,34.046254,53.99128,67.20793,76.834156,-16.971236,-28.283267,-38.586418,-51.596475,-30.320249,-17.211449,-13.620816,-11.149105,-30.209771,-18.767278,-17.358266,-12.551061,-28.324167,-20.573237,-15.337518,-9.275755,-27.752528,-22.471596,-15.800767,-8.447867,83.449488,288.259528,-239.807797,-88.472418
56,-0.100937,0.167183,0.080548,1.508375,-28.457405,-52.457726,-73.682625,-87.751385,-58.748177,-88.828057,-104.208538,-116.046616,-51.240418,-85.103417,-103.57061,-118.018662,-41.915039,-72.671986,-90.151074,-103.68108,-32.100586,-55.747261,-69.594715,-81.425457,-14.360132,-12.285022,1.733828,15.371357,17.909151,33.13889,40.235852,44.911198,35.073542,49.411198,55.99268,60.618663,46.837119,61.595678,68.066454,71.972748,53.833157,67.779376,72.442891,74.861124,17.306087,30.729172,40.416651,46.150833,45.896475,67.648573,82.054752,93.165788,42.620542,61.608774,72.760822,83.533602,37.150492,59.396465,71.141928,80.789598,31.236698,52.709018,66.722704,77.119903,-17.167281,-29.308193,-40.785369,-55.063427,-32.188466,-19.043313,-15.906925,-13.803125,-33.241076,-21.110829,-20.303693,-15.282797,-32.332668,-24.028584,-18.594179,-12.216501,-33.030815,-27.311891,-20.022113,-12.076554,83.120499,288.495554,-239.955301,-86.8952
57,0.042709,0.19854,0.531654,0.64086,-28.522339,-52.555092,-73.798714,-87.903683,-58.902946,-88.919117,-104.302597,-116.16901,-51.361176,-85.152054,-103.647526,-118.140369,-42.007484,-72.622055,-90.136448,-103.693989,-32.14856,-55.681709,-69.595081,-81.549122,-14.456772,-12.505483,1.457656,15.075844,17.815352,32.985069,40.132408,44.894538,35.046607,49.366379,56.01391,60.772829,46.852248,61.641225,68.143729,72.107907,53.883125,67.880758,72.653448,75.158131,17.046845,30.072086,39.778467,45.603264,44.034605,67.06893,83.193569,95.855135,40.922808,61.693983,75.020336,87.803335,35.987967,60.137283,73.83137,85.280645,30.940395,53.830021,68.9177,80.414463,-18.317173,-31.178928,-43.138226,-58.318353,-34.140901,-21.171403,-18.296798,-16.488977,-34.854625,-22.276424,-21.845409,-16.839491,-33.588846,-24.685727,-19.166414,-12.5955,-34.139823,-27.549912,-19.839552,-11.508019,82.821299,288.759521,-239.765556,-86.188913
58,0.134789,0.350224,0.463268,-0.919797,-28.481987,-52.586953,-73.884213,-88.108384,-58.911026,-88.969243,-104.441964,-116.379662,-51.363877,-85.152157,-103.680462,-118.17088,-42.076058,-72.625237,-90.137604,-103.625119,-32.320313,-55.720643,-69.552498,-81.413304,-14.611939,-12.755178,1.208813,14.760349,17.531189,32.749911,39.991654,44.858278,34.847387,49.328526,56.058308,60.917275,46.706962,61.621193,68.155695,72.217069,53.76454,67.856823,72.735217,75.371293,15.318043,28.320534,38.339121,44.112431,44.220824,67.049967,82.922001,95.470373,43.438002,64.67739,78.75047,92.130038,40.760931,65.743149,80.130724,92.453963,37.771717,61.564545,76.946074,89.118428,-20.496573,-33.905703,-45.777606,-61.419626,-36.47088,-23.745655,-20.595105,-18.780023,-35.232457,-22.283636,-21.727577,-16.978368,-32.049155,-22.210616,-16.582931,-9.952428,-30.678342,-22.523435,-14.6689,-6.315847,82.530482,289.162001,-239.727894,-87.056454
59,0.279716,0.316755,0.508181,-2.752086,-28.563538,-52.65802,-73.975903,-88.308964,-58.96003,-89.075329,-104.625927,-116.669575,-51.419426,-85.161346,-103.69685,-118.207844,-42.17569,-72.576187,-90.113457,-103.623505,-32.466202,-55.767723,-69.594955,-81.505726,-14.635219,-12.922447,0.9638,14.329714,17.234601,32.360661,39.659338,44.648981,34.621134,49.070755,55.82525,60.762183,46.539519,61.48507,68.046237,72.200965,53.637593,67.79569,72.784395,75.573254,15.132191,28.665173,39.350407,44.953411,47.234425,69.709934,83.828201,94.94949,48.395164,69.854393,83.689087,96.757462,47.700748,73.051277,87.265514,99.763733,46.478016,70.648212,86.072948,98.594959,-21.913572,-35.25423,-46.814574,-61.902071,-37.035137,-23.549347,-18.741046,-16.036668,-33.957175,-20.28422,-17.869519,-12.743031,-28.763027,-17.798599,-11.563617,-4.626631,-24.50591,-15.365608,-7.938886,0.025478,82.303997,289.503173,-239.725914,-89.784123
60,0.163582,0.274208,1.546864,-3.548111,-28.52932,-52.677155,-74.047428,-88.436566,-58.913567,-89.121025,-104.783524,-116.915955,-51.344833,-85.087372,-103.611408,-118.072884,-42.129089,-72.444477,-89.979847,-103.470017,-32.462563,-55.707001,-69.52731,-81.44418,-14.720174,-13.188801,0.518272,13.844566,16.996703,32.001126,39.387785,44.509858,34.528954,48.961346,55.774146,60.750513,46.540384,61.486541,68.074161,72.274029,53.663047,67.884439,72.950937,75.821541,14.255413,28.248584,39.314151,44.12178,50.24699,72.648353,85.387699,95.28004,53.477542,75.698135,89.348831,101.622104,54.753021,80.755027,95.022457,107.516223,54.958957,79.680645,95.292171,108.144516,-22.27559,-35.486381,-46.723295,-61.326146,-36.856968,-22.387618,-15.636093,-11.635475,-32.375531,-17.296037,-12.436255,-6.645017,-25.187752,-12.170932,-4.63238,2.817313,-17.88077,-7.065019,0.407738,7.929124,81.852659,289.759087,-238.79397,-93.350528
61,0.252594,0.268923,2.818233,-3.669154,-28.596062,-52.870445,-74.285957,-88.819119,-59.058014,-89.2687,-105.053249,-117.360329,-51.380333,-85.024098,-103.497814,-117.940224,-42.131012,-72.344879,-89.844154,-103.319504,-32.484902,-55.680039,-69.461472,-81.400097,-14.919381,-13.46706,0.228699,13.531504,16.773438,31.833795,39.292331,44.541338,34.407515,48.871487,55.702046,60.680858,46.46742,61.412378,68.033085,72.283946,53.597888,67.894887,73.052578,76.053401,13.795372,28.44334,39.690022,43.552048,54.201347,75.752392,86.302574,94.195015,58.463059,80.152863,92.378071,102.5392,60.690331,85.963406,99.072247,110.125259,61.514683,85.664852,100.709049,113.061024,-22.334963,-35.164642,-45.375295,-58.706743,-35.655435,-20.729767,-12.365785,-7.284282,-29.474756,-14.147112,-7.313996,-1.281568,-20.402552,-6.684809,1.568745,8.980517,-10.446076,0.694551,7.752789,14.657294,81.426802,289.964061,-236.654188,-97.083631
62,0.232773,0.19896,2.888306,-2.931409,-28.658318,-52.97976,-74.439938,-89.227318,-59.077629,-89.329342,-105.281983,-117.752587,-51.304367,-84.917588,-103.394062,-117.823643,-42.035912,-72.232704,-89.721783,-103.136067,-32.436951,-55.585854,-69.302021,-81.167805,-15.136693,-13.726647,0.017377,13.274783,16.563943,31.674689,39.167138,44.469103,34.321892,48.895631,55.688473,60.552652,46.44519,61.508079,68.075507,72.252132,53.568384,68.063688,73.268581,76.272652,13.337459,28.878868,40.511272,43.560859,57.966945,79.796745,88.762596,95.1236,62.836441,85.417442,96.609478,104.933395,65.609928,91.063556,103.062572,112.671421,66.689472,90.510509,104.589237,116.051422,-21.580003,-33.953359,-43.776164,-56.143487,-33.63004,-18.27007,-8.118413,-1.743288,-26.44136,-10.939691,-1.80108,4.973168,-16.083994,-1.8468,7.361403,14.931978,-3.982321,6.828077,13.481165,19.847675,80.922037,290.071442,-234.50342,-100.106619
63,0.204574,0.248336,3.534851,-0.763426,-28.734214,-53.067627,-74.589534,-89.563888,-59.143821,-89.457058,-105.510063,-118.099479,-51.253143,-84.857654,-103.336498,-117.765518,-41.898399,-72.079067,-89.549537,-102.940017,-32.240089,-55.398262,-69.081104,-80.949485,-15.322315,-14.047725,-0.376986,12.754523,16.283843,31.496736,39.029965,44.402473,34.092958,48.735697,55.53611,60.356964,46.2909,61.467694,68.050053,72.212982,53.439807,68.08924,73.302704,76.309109,14.240753,30.279991,41.822239,43.856975,59.671634,82.730942,91.282757,97.049286,63.536133,88.010971,99.248897,106.706268,65.731315,91.929027,103.729889,112.521309,66.455292,90.009945,103.633907,114.575866,-20.321382,-32.398114,-42.38912,-53.903729,-31.042711,-15.53562,-4.037354,3.288413,-23.516175,-8.349082,2.712207,10.165729,-12.584382,1.404963,11.425351,19.100779,0.791547,10.230721,16.424362,22.26337,80.179933,290.179694,-231.915247,-101.010129
64,0.236,0.361203,4.032383,3.291828,-28.68917,-53.106651,-74.726715,-89.94548,-59.165245,-89.527279,-105.694038,-118.373245,-51.180359,-84.836391,-103.344703,-117.808742,-41.778305,-72.068046,-89.562732,-102.963226,-32.090423,-55.345253,-69.00531,-80.868564,-15.631302,-14.525537,-0.94598,12.062202,15.901002,31.223984,38.770366,44.177986,33.812166,48.458277,55.231692,60.018535,46.152789,61.293236,67.786453,71.882987,53.442227,68.161562,73.414496,76.488148,13.440296,29.439468,40.592399,41.916698,58.416469,82.585178,92.377121,99.036323,61.743129,87.956623,100.137359,107.584888,63.521965,90.607578,103.172252,111.942867,63.823871,87.656971,101.340339,112.374515,-19.945773,-32.262676,-42.647929,-54.20986,-30.435105,-16.31181,-5.276814,2.063062,-22.548021,-8.261181,2.781183,10.247308,-11.148741,2.263455,12.444202,19.77187,2.573318,11.277663,17.633812,23.164456,79.287082,290.341931,-229.011715,-97.917267
65,0.401802,0.47917,3.750595,6.45482,-28.71199,-53.194748,-74.873737,-90.247089,-59.212989,-89.551872,-105.806865,-118.588794,-51.190589,-84.788967,-103.358882,-117.951644,-41.783638,-72.105354,-89.622367,-103.078559,-32.075729,-55.35276,-68.96252,-80.84341,-15.934162,-15.075054,-1.646809,11.245121,15.45193,30.835032,38.402594,43.830875,33.421188,47.992754,54.781446,59.619616,45.863847,60.884128,67.360623,71.498394,53.266684,67.973397,73.334283,76.577427,13.166988,29.487614,41.003448,42.814258,56.924274,81.945625,92.889267,100.503799,59.61177,86.768646,99.648022,107.448372,60.77084,88.249065,101.232719,109.957306,60.576198,84.496044,98.27124,109.484894,-20.285449,-32.582185,-43.036648,-54.051816,-30.101832,-17.871934,-8.022392,-0.985951,-21.631769,-8.714904,1.879639,9.43884,-9.96472,2.154657,11.949779,18.987331,3.773857,11.22846,17.308165,22.559376,78.496399,290.626387,-226.453605,-91.657161
66,0.287224,0.529239,0.051155,16.638395,-28.54882,-52.961952,-74.716816,-90.217026,-58.928169,-89.513706,-105.893944,-118.732017,-50.978142,-84.793865,-103.492664,-118.192508,-41.650955,-72.182293,-89.823395,-103.387733,-31.961586,-55.383178,-69.055412,-80.990352,-16.141817,-15.641639,-2.551108,10.122732,14.963718,30.241424,37.811209,43.236082,32.990886,47.380029,54.16572,59.050684,45.548771,60.394558,66.902829,71.182404,53.07643,67.710191,73.179005,76.603621,12.457397,29.855106,43.145325,46.991272,57.442886,85.871967,96.960148,103.700958,60.700733,91.294773,103.018192,108.776321,62.072857,91.880241,103.791916,110.499504,61.753841,87.494533,100.32843,109.462887,-24.119995,-37.663966,-48.01005,-58.197028,-38.540538,-26.768526,-17.732823,-11.386251,-29.678211,-16.641026,-6.668057,0.433099,-17.457959,-5.652645,3.627355,9.736385,-3.416607,3.870948,9.938747,14.578469,77.606975,291.080855,-227.579098,-75.093537
67,0.262276,0.615454,-0.133965,15.308754,-28.362053,-52.764748,-74.661038,-90.270435,-58.723183,-89.490978,-105.926411,-118.809334,-50.850174,-84.855766,-103.625279,-118.432308,-41.591515,-72.296002,-90.059578,-103.800842,-31.898506,-55.491966,-69.264084,-81.320755,-16.300442,-16.15723,-3.465001,9.026428,14.466627,29.627316,37.142798,42.532634,32.492893,46.614262,53.365113,58.297501,45.13429,59.712376,66.275408,70.727044,52.775002,67.26565,72.883319,76.575426,14.568638,33.881493,49.068066,54.744198,61.234085,91.96724,103.550492,110.170144,63.991093,97.050396,108.910366,114.06173,64.658993,96.559834,108.491959,114.722981,63.678612,90.570122,103.362648,112.237828,-26.153738,-39.931052,-49.982864,-59.404192,-41.965962,-31.480039,-23.144931,-16.900346,-32.230942,-20.500198,-11.208169,-4.518364,-19.398601,-8.940638,-0.009454,5.773009,-5.14702,1.431011,6.903215,10.688416,76.705942,291.668596,-228.876372,-59.812496
68,0.021377,0.67545,1.914849,17.374868,-28.038505,-52.406776,-74.453292,-90.09811,-58.51078,-89.482063,-105.945865,-118.787303,-50.762672,-85.018547,-103.869689,-118.705307,-41.588333,-72.512821,-90.456768,-104.390064,-31.878891,-55.725219,-69.698638,-81.939388,-16.578899,-16.854454,-4.555303,7.948711,13.98369,28.911617,36.314948,41.602735,32.11019,45.837603,52.432287,57.305877,44.851844,59.02449,65.522189,70.013432,52.606028,66.846983,72.551696,76.403612,16.548717,37.252922,54.346458,62.154854,64.316093,97.941124,110.041397,116.523445,66.395496,102.327335,114.003582,118.430259,66.26263,100.617496,112.152981,117.38966,64.730976,93.27388,105.610176,113.377098,-28.100081,-41.917476,-51.357262,-59.807173,-44.487547,-35.604046,-27.790983,-21.638184,-33.966345,-23.193955,-14.067089,-7.39203,-20.400848,-10.562266,-1.775849,3.652105,-5.613977,0.449623,5.657252,8.824418,75.720909,292.335889,-227.967933,-42.445785
69,-0.038337,0.650244,3.055435,18.933615,-27.823654,-52.109093,-74.264443,-89.904865,-58.370499,-89.465332,-105.963661,-118.812023,-50.779839,-85.126751,-104.034966,-118.90083,-41.702477,-72.718106,-90.744416,-104.745644,-32.010704,-56.004936,-70.090782,-82.404545,-16.843202,-17.470846,-5.452178,7.079068,13.514189,28.256038,35.593592,40.839352,31.694597,45.133438,51.630446,56.485807,44.498805,58.378667,64.858175,69.395694,52.323483,66.34447,72.057001,75.94803,18.822773,41.190239,60.225494,69.926823,67.791984,104.100162,115.87944,121.193619,69.157448,107.686294,118.959606,122.172123,68.106926,104.698997,115.712871,119.591537,65.842255,95.775902,107.710762,114.278423,-29.351842,-42.996639,-51.753916,-59.447078,-45.827722,-37.351682,-29.783168,-23.75048,-34.422921,-23.929019,-14.843397,-8.220894,-20.235165,-10.644344,-2.009117,3.11989,-5.008983,0.701849,5.57894,8.191279,74.834347,292.966934,-225.760723,-23.531369
70,-0.227486,0.573526,3.650906,21.358368,-27.558472,-51.707771,-73.982723,-89.779678,-58.20298,-89.581524,-106.147488,-119.024975,-50.756927,-85.345104,-104.331138,-119.202679,-41.75782,-72.998108,-91.208759,-105.345737,-32.056045,-56.314407,-70.583874,-83.003151,-17.031591,-17.953191,-6.216661,6.193937,13.135004,27.596951,34.796369,39.972944,31.340434,44.502707,50.855466,55.646038,44.18689,57.824049,64.263678,68.840199,52.044989,65.86562,71.544299,75.454903,20.716907,44.595623,65.504299,76.755546,70.988067,109.861415,121.289199,125.420185,71.97163,113.081714,124.151641,126.475479,70.309078,109.232791,120.072944,123.061031,67.431518,98.900905,110.575012,116.143672,-30.639387,-44.593257,-53.063864,-60.382121,-46.94257,-38.830307,-31.684581,-26.205979,-34.471099,-24.793272,-16.569728,-10.664055,-19.487528,-10.773995,-3.044715,1.294345,-3.683066,1.355558,5.61386,7.581599,73.751638,293.342489,-222.96504,-2.370972
71,-0.180931,0.56078,7.125583,14.911194,-27.347946,-51.464699,-73.862766,-89.847153,-58.270637,-89.737793,-106.328018,-119.240696,-50.977226,-85.639893,-104.688263,-119.612045,-42.041084,-73.32399,-91.663937,-105.913238,-32.328415,-56.796478,-71.247631,-83.808941,-17.241394,-18.419839,-6.931175,5.322589,12.74116,26.958402,33.980671,39.024346,30.992779,43.882758,50.077806,54.784929,43.894959,57.336468,63.676049,68.165823,51.824787,65.465564,71.049975,74.84229,24.28624,49.72348,71.398304,82.850773,72.656742,110.452778,123.349331,129.620808,71.573776,111.673474,125.605843,131.738171,68.232651,106.672405,120.403668,126.994595,64.011715,94.698521,107.746067,115.894936,-28.700684,-41.656069,-49.882261,-57.119829,-38.831858,-32.322531,-25.870298,-19.98554,-25.10145,-17.145978,-9.729618,-3.57924,-9.573531,-1.980361,4.938977,9.526347,6.65444,10.690447,14.07508,15.948223,72.297604,293.46652,-217.11256,12.103473
72,-0.142067,0.581343,7.706234,21.107124,-27.073975,-51.284614,-73.877186,-90.056248,-58.492813,-90.087204,-106.753372,-119.656826,-51.400864,-86.111343,-105.23291,-120.152309,-42.550621,-73.813534,-92.264946,-106.57592,-32.81678,-57.429703,-72.00634,-84.662853,-17.427053,-18.901282,-7.648245,4.434544,12.320504,26.308689,33.242606,38.273474,30.630452,43.227462,49.321561,54.036489,43.604214,56.820519,63.080047,67.51795,51.608438,65.012353,70.474313,74.141349,25.375591,51.211144,73.067345,85.274918,71.558418,108.26017,122.040447,130.04171,69.600975,108.271488,123.535858,132.436375,65.370575,102.247376,117.458725,126.446377,60.001625,89.659561,103.241032,112.572109,-28.928518,-42.065369,-50.268732,-57.341389,-35.793731,-29.97039,-24.103088,-18.400054,-21.54286,-13.850784,-7.148098,-1.239121,-5.72995,1.92904,7.970632,12.156921,10.583088,14.864318,18.167311,20.229873,70.314594,293.51249,-211.247269,32.675224
73,-0.038475,0.589062,6.410179,22.174696,-26.998856,-51.280563,-74.052338,-90.603413,-58.878479,-90.45853,-107.208881,-120.190201,-51.93251,-86.609161,-105.764946,-120.749657,-43.184463,-74.502617,-93.009876,-107.344711,-33.521439,-58.251961,-72.850868,-85.535007,-17.591136,-19.23487,-8.2719,3.417293,11.844705,25.701337,32.573404,37.570297,30.152306,42.565461,48.603465,53.300906,43.190437,56.215821,62.374869,66.738684,51.301538,64.554202,69.959845,73.580692,26.884781,53.825901,76.093506,89.686535,72.039368,106.956105,121.900578,131.863301,69.013035,105.713848,122.863426,134.839062,63.480503,98.168186,115.018891,126.563462,56.249211,83.353226,97.1754,107.524098,-28.194694,-40.933465,-49.008393,-56.526222,-32.079129,-26.103634,-20.442801,-14.822439,-17.935975,-10.117045,-3.964938,1.775448,-2.883781,4.925578,10.488166,14.716569,12.181832,17.387447,20.723575,23.076982,68.218649,293.56965,-206.89456,54.318018
74,-0.366142,0.695606,6.119374,23.250963,-26.8079,-51.199402,-74.212189,-91.208405,-59.184838,-90.983082,-107.7556,-120.664456,-52.308243,-87.238369,-106.376999,-121.30996,-43.604645,-75.120575,-93.670395,-108.026974,-33.960755,-58.876808,-73.487297,-86.167053,-17.78628,-19.537719,-8.82653,2.482515,11.433398,25.102679,31.850307,36.713152,29.702343,41.899495,47.86598,52.527198,42.739597,55.596317,61.66574,65.994308,50.873744,63.999078,69.395842,73.078414,28.682361,56.547111,79.240379,94.134533,72.055996,105.372905,122.235855,134.821701,67.790554,103.183593,122.425758,137.616829,61.003807,93.833942,112.098781,126.01387,52.158016,76.639869,90.046634,100.745533,-27.250537,-39.511723,-47.74695,-55.904482,-28.720394,-22.348184,-16.532851,-10.879848,-15.262491,-6.750555,-0.544262,5.189233,-1.426978,6.88422,12.40953,16.746014,11.721025,17.770639,21.14662,23.585052,65.604515,293.714115,-203.023178,77.01784
75,-0.599854,0.733842,10.340869,25.14047,-26.667549,-51.113044,-74.262623,-91.584491,-59.5074,-91.427318,-108.171318,-120.955227,-52.744491,-87.839092,-106.925937,-121.76128,-44.118141,-75.766479,-94.23143,-108.461654,-34.547584,-59.520859,-74.002624,-86.571991,-17.986969,-19.908938,-9.548503,1.348259,10.895922,24.51211,31.180142,35.934133,29.135635,41.201999,47.078082,51.628297,42.224895,54.957089,60.928786,65.158244,50.46713,63.483623,68.83211,72.50227,29.054524,58.080769,81.252858,96.461403,71.36308,107.078717,123.382554,134.363823,66.593617,104.841271,122.86773,135.927704,59.074322,94.194615,111.523201,123.995259,49.256264,75.248028,88.460118,98.121975,-26.238435,-37.668356,-45.734251,-54.879227,-24.666202,-16.777358,-10.581242,-5.268588,-10.155676,-0.16562,5.493595,10.098922,4.314452,13.739498,18.228722,21.472582,17.518611,24.704895,27.046032,28.544394,62.758947,294.00458,-194.928023,101.714933
76,-0.686096,0.62179,9.077122,24.932717,-26.56295,-51.136986,-74.446815,-92.190857,-59.965988,-91.955109,-108.690056,-121.384815,-53.259682,-88.424217,-107.464565,-122.207313,-44.636101,-76.460609,-94.890655,-109.0005,-35.040985,-60.094986,-74.444035,-86.818508,-18.292115,-20.159559,-9.771583,0.806991,10.317888,23.899039,30.548274,35.309589,28.525615,40.599562,46.41319,50.91587,41.673722,54.362629,60.253199,64.461489,50.019612,62.937279,68.268242,72.018023,30.100067,59.815407,83.176289,99.255684,72.069569,108.331364,124.750889,135.427689,66.517994,105.756592,124.034329,136.597973,58.617943,94.53138,112.086663,124.149891,48.679585,75.264405,88.482525,97.717106,-24.954904,-35.428403,-42.530219,-51.982837,-19.698116,-10.871518,-4.430419,0.801984,-4.857182,5.985276,11.475586,15.387882,9.3135,19.871406,24.156329,26.751279,21.735114,30.513824,32.822407,33.743402,60.090958,294.331891,-187.832794,126.353171
77,-1.038597,0.457422,8.706963,23.687106,-26.552422,-51.025085,-74.349541,-92.505787,-60.091026,-92.182205,-108.788853,-121.36536,-53.424385,-88.731651,-107.640175,-122.298592,-44.860634,-76.918499,-95.230888,-109.222664,-35.351944,-60.433434,-74.624886,-86.855106,-18.466399,-20.114987,-9.669818,0.516542,9.983288,23.471665,30.001783,34.67088,28.075455,40.096593,45.801083,50.198071,41.198763,53.876209,59.687467,63.882987,49.585235,62.454774,67.734681,71.548523,31.647651,62.176128,86.058746,103.290973,72.847229,109.051632,125.696823,136.204513,66.733978,106.326542,124.98595,137.203605,58.643303,94.749698,112.504509,124.096435,48.783188,75.514904,88.850841,97.982734,-23.329349,-32.280411,-38.240418,-47.928934,-13.450079,-3.746064,2.741836,7.870751,1.360282,13.229199,18.535597,22.228833,14.812664,26.632101,30.827381,32.93549,26.266909,36.368084,38.709808,39.074852,57.436604,294.448284,-180.741588,149.699248
78,-1.429733,0.165046,12.266269,23.703161,-26.467438,-50.722756,-73.886971,-92.126553,-60.003548,-91.998803,-108.421326,-120.883541,-53.633446,-88.783139,-107.603154,-122.157658,-45.2929,-77.183968,-95.417633,-109.335125,-35.89991,-60.754166,-74.939175,-87.211087,-18.355038,-19.873258,-9.696667,-0.070074,10.129353,23.246227,29.601246,34.163601,28.050002,39.826077,45.337301,49.515482,41.091121,53.617834,59.304602,63.308585,49.46376,62.262719,67.453495,71.108996,31.115422,62.114514,86.483655,103.871739,70.811463,110.237469,125.897107,133.45942,64.512063,107.878773,125.110394,133.645031,56.668511,96.368477,112.901551,121.518517,47.560181,77.76883,91.486451,99.476807,-22.505345,-29.784422,-34.326331,-43.591647,-7.282386,4.747539,10.163315,13.648472,9.66838,22.903413,25.991687,27.203737,23.878057,36.5043,38.109428,37.851817,34.928306,45.426567,45.896303,44.319457,54.422013,294.310639,-170.060177,173.099718
79,-1.044663,0.159897,10.163739,20.526504,-26.31665,-49.987976,-72.075382,-89.078453,-60.076057,-91.239555,-107.738479,-120.374794,-54.357353,-88.568619,-107.535621,-122.18977,-46.467018,-77.508396,-95.812465,-109.860214,-37.291809,-61.406994,-75.561619,-88.030403,-18.151015,-20.527652,-12.878864,-6.503504,9.911818,22.642122,28.982383,33.536587,27.281678,39.375125,44.952534,48.925629,40.155972,52.930477,58.692186,62.511128,48.697943,61.594109,66.88838,70.477375,31.321781,62.93565,87.810081,105.459297,70.017643,110.102703,125.17424,132.319496,63.755745,107.736488,124.639286,132.515419,56.446541,97.011577,113.622345,121.928489,48.347637,80.039715,94.773044,103.559566,-20.812729,-26.583849,-29.208735,-37.499179,-0.043731,12.939737,17.993379,21.135931,18.579217,32.059246,34.172876,34.407429,33.543553,47.064485,48.006475,46.827314,44.738779,56.591511,56.910477,54.989446,51.943039,294.229743,-161.330749,193.385429
80,-0.995933,-0.434439,10.401077,19.938084,-26.791169,-50.188912,-71.687394,-88.416275,-60.006501,-90.244904,-106.908532,-119.97519,-54.900856,-87.724469,-106.913109,-122.008461,-47.523217,-77.225075,-95.662846,-110.308869,-38.693917,-61.828789,-76.067356,-88.991845,-17.330945,-19.833071,-13.934178,-9.602683,10.501213,22.001042,27.766406,31.831337,26.94972,38.79319,44.143838,47.840613,39.442557,52.302068,58.036557,61.626146,48.045662,60.689132,66.238556,69.952769,30.651272,61.406513,86.288578,105.32016,66.960411,105.62027,122.072422,130.603901,61.014004,103.594952,121.541531,129.79406,54.79549,93.901691,111.111557,119.248558,48.200958,79.084877,93.841713,102.136963,-21.842195,-26.46693,-27.128079,-33.311667,4.524564,17.643365,21.858559,24.998432,24.2288,37.587563,39.243313,39.383808,38.840491,52.771594,54.185345,53.437029,48.619891,61.63983,62.959757,61.399213,49.613171,293.595363,-152.263607,213.123572
81,-1.4721,0.187536,9.839653,15.51967,-26.004318,-49.533737,-70.98286,-87.673404,-57.11222,-86.964054,-104.553383,-118.816143,-52.815925,-85.151367,-104.913929,-120.873241,-46.653511,-76.221107,-94.941078,-110.189472,-39.336067,-62.573639,-76.662769,-89.536708,-7.445531,-6.22149,-0.467216,3.378662,17.074792,26.69826,31.419326,34.588246,26.539129,35.491383,38.337398,39.477088,32.766831,42.615145,46.099103,47.718928,35.951448,45.883644,50.22592,52.953794,29.750919,60.036861,84.951759,104.288715,64.122917,102.166935,118.905521,128.039028,58.034866,100.01556,118.204742,126.767899,51.741291,89.90015,106.921795,115.05233,45.187557,75.014168,89.797131,97.978272,-20.380514,-23.363133,-23.027779,-28.084779,9.766778,23.725471,28.021744,30.983874,29.719917,43.795998,45.730181,45.685116,43.743498,58.407603,60.317703,59.496695,52.254903,66.036767,67.891824,66.450668,46.930933,293.524806,-143.634092,228.385149
82,-1.174118,0.31531,10.206574,12.809777,-26.04982,-49.847694,-70.633896,-86.42609,-54.391479,-83.762146,-101.918174,-116.874206,-51.205124,-82.923866,-103.27779,-120.158031,-46.299362,-75.517948,-94.906917,-111.193817,-40.141479,-62.766517,-77.005165,-90.457271,-7.219858,-6.131507,-1.16728,2.249012,16.362414,22.692881,25.092292,26.388112,25.51348,31.650865,31.844342,30.665255,31.516571,39.387747,41.45998,41.579245,34.519407,44.049447,48.502108,51.049226,28.628231,58.316848,83.425243,102.653457,61.036273,99.343643,116.053504,125.072467,54.523567,97.092865,115.262294,123.488571,48.21342,86.723545,103.619167,111.622192,42.117759,71.907257,86.350536,93.996494,-18.549935,-20.400422,-19.187681,-23.245165,13.765056,28.609509,33.137901,35.913545,34.360152,49.156477,51.523938,51.379319,48.279152,63.46059,65.734894,65.098112,55.98632,70.070736,72.043687,70.87837,44.818016,293.675376,-134.366317,241.030186
83,-1.85392,0.87278,6.638546,9.584775,-25.154113,-48.205879,-67.907627,-82.780094,-48.0615,-75.880462,-94.788677,-110.545108,-46.189636,-76.740566,-98.217052,-116.176105,-43.27272,-71.753139,-92.007694,-109.22961,-39.287979,-61.391418,-76.162491,-90.344089,-7.588705,-7.780514,-4.85289,-2.469349,15.208732,18.381962,18.840422,18.498003,24.318856,28.347515,26.502302,23.534083,30.298309,37.024152,37.574632,36.362187,33.294699,42.749292,47.295962,49.746528,29.418205,58.575656,83.655681,102.882556,60.271751,95.693012,113.288486,124.731857,53.057865,92.935203,112.755844,123.882076,46.548362,82.365211,100.737545,111.419368,40.609645,68.224491,82.829589,91.914802,-16.594188,-18.016164,-16.503934,-19.985002,16.732954,31.309719,37.296298,41.829655,36.260719,51.501202,56.200471,58.210199,49.429217,65.458352,70.286172,71.631454,56.783234,71.797155,75.565906,76.051005,42.264427,294.40859,-128.42744,250.475395
84,-4.247932,1.28691,8.364704,9.056069,-23.256672,-45.271179,-64.206499,-79.111673,-44.445425,-67.796539,-82.714508,-95.543358,-43.910511,-69.36339,-86.70817,-101.180351,-42.398518,-66.803078,-82.989573,-96.852957,-39.960136,-60.968033,-75.030573,-88.228426,-7.01744,-6.918041,-3.192521,1.266328,13.758461,16.001538,15.375303,14.101911,22.817808,25.340344,22.417054,18.653725,28.51521,34.046948,33.503507,31.668186,31.338198,40.151736,44.608763,47.305212,28.687534,57.015483,82.05693,101.385921,58.541965,93.873127,111.693237,123.142913,50.753563,90.685718,110.751365,121.897956,43.926166,79.840438,98.405445,109.364696,37.933571,65.785205,80.429615,89.676407,-16.065074,-17.129775,-15.443223,-18.887463,17.872372,33.038397,39.519325,44.5547,37.114381,53.17717,58.675463,61.278305,50.009003,66.439108,71.84196,73.82957,57.228861,72.365357,76.435327,77.365337,37.446596,295.586054,-120.632635,259.422018
85,-6.340851,2.409909,3.357731,3.684227,-19.545696,-39.663254,-56.888082,-70.612833,-43.876802,-59.314144,-65.644993,-71.77874,-44.984791,-61.241506,-69.314032,-75.517078,-44.364956,-61.265682,-68.534895,-74.490663,-42.742241,-61.977299,-73.974867,-84.331678,-6.149909,-5.729716,-1.198811,4.628477,10.83553,15.240958,15.081963,14.112198,19.797879,22.603676,20.161064,16.751071,25.044145,29.960503,29.02696,27.356352,27.775409,35.927711,40.152297,43.40261,30.620224,59.10522,84.17863,103.344875,60.581279,93.578922,111.693843,125.136714,51.195888,88.658077,110.548313,125.664241,42.825771,76.566421,96.707588,111.241161,35.453258,61.253139,76.522556,88.611476,-12.864056,-13.186418,-11.581562,-15.974078,20.371844,35.965132,43.595655,49.436873,37.781137,54.722573,61.89271,65.793532,49.40522,66.759667,73.452868,76.351507,56.040351,71.760376,76.613662,78.592664,30.67123,297.939341,-117.709419,263.049623
86,-11.748848,4.543434,5.718841,4.765106,-14.539432,-29.550934,-41.519365,-50.738691,-37.904245,-43.300255,-41.692932,-41.48259,-40.783459,-45.855635,-45.943365,-45.031723,-41.116756,-48.174156,-47.531862,-46.906694,-39.690468,-55.607815,-66.922285,-76.561025,-15.43517,-20.673476,-20.51461,-18.265969,0.180213,6.515478,7.990646,8.141391,15.28148,20.759143,21.38954,20.511202,26.142105,33.749064,35.05653,35.114576,34.326881,43.77283,49.256976,53.672952,30.917656,58.829029,83.779667,103.138584,61.017643,93.285473,111.268101,124.559773,51.284409,87.922657,109.771488,125.107281,42.351517,75.510452,95.426079,110.200939,34.396179,59.849865,74.840584,87.383549,-12.435149,-12.702294,-10.894884,-15.700116,20.47351,36.503633,44.620897,50.866495,37.459109,54.80601,62.595158,67.213348,48.985738,66.403281,73.569861,77.248975,55.801106,71.48103,76.446603,78.92645,18.642837,302.450449,-112.270123,267.782403
87,-10.735107,0.393733,5.88525,3.895945,-8.467335,-18.250695,-26.210284,-33.07271,-33.038836,-28.176773,-18.193154,-11.588562,-37.5695,-31.027125,-22.206179,-13.07729,-39.168823,-35.89674,-26.628062,-18.607333,-38.852944,-51.148293,-60.260279,-67.162096,-15.886701,-22.292831,-23.951601,-23.14766,-0.817835,9.826004,13.574958,15.202834,14.896935,24.066322,27.002591,27.674053,25.722561,35.332184,37.147338,38.043781,34.22897,43.632743,49.250196,54.277081,30.761833,58.217526,82.786434,101.897049,61.350266,93.3475,111.09478,124.08625,51.499764,87.546547,109.179291,124.393387,42.131298,74.828762,94.432102,108.977623,33.496216,58.66927,73.524422,86.087368,-12.411228,-12.620957,-10.748524,-16.106224,20.174773,36.477648,44.900972,51.391768,36.964834,54.381217,62.439707,67.226117,48.529599,65.92511,73.353413,77.234624,55.645136,71.314909,76.329548,78.814904,7.717083,302.802942,-106.57552,271.637108
88,-11.752774,0.797927,5.667126,2.997513,-3.918491,-9.127944,-12.626283,-16.832548,-29.49872,-13.272045,5.168484,17.633481,-35.108104,-16.160253,2.510107,19.109436,-36.80857,-23.59069,-5.17515,10.078886,-35.902587,-45.013275,-51.596277,-56.026697,-14.914565,-20.134025,-21.154049,-20.588205,-1.012374,13.643809,20.152413,24.092164,14.357038,25.437736,30.989382,33.545355,24.816126,34.9921,38.418519,40.639533,33.37422,42.078867,47.977692,53.707927,30.304985,57.346664,81.604168,100.415371,61.215465,93.19257,110.690563,123.486866,51.56147,87.142959,108.545711,123.648342,42.049187,74.474075,93.797298,108.116215,33.000847,58.004265,72.789448,85.399097,-12.494146,-12.776666,-10.670496,-16.278211,19.749709,35.914077,44.296708,50.71013,36.544215,53.592615,61.649117,66.269987,48.185292,65.275978,72.727956,76.488914,55.534171,70.945765,75.788294,77.979396,-4.125504,303.504109,-100.998207,274.537861
89,-7.345047,-0.042429,4.809883,2.580673,0.611321,-0.990943,-1.431095,-3.272186,-24.465705,-2.56287,19.11208,33.780453,-31.006862,-5.837802,16.832646,36.889744,-33.69564,-14.967052,7.15662,25.02158,-33.625602,-41.085743,-46.921623,-50.826118,-16.01492,-21.942379,-23.528364,-23.695733,-1.154584,15.532192,22.983627,27.551848,14.763622,28.002849,34.121932,37.067056,25.194798,36.801961,40.336678,42.731396,33.786343,42.466055,48.805019,55.105549,29.88105,56.557331,80.484753,99.177761,61.125549,92.829426,110.05862,122.537121,51.674206,86.952141,107.977421,122.730068,42.04731,74.144428,93.158123,107.089222,32.712124,57.358108,72.080189,84.596443,-12.677026,-12.994608,-10.605979,-15.934088,19.313294,35.166872,43.515244,49.813465,36.096055,52.651835,60.522925,64.990259,47.733131,64.494835,71.606186,74.999284,55.130904,70.333139,74.921516,76.699174,-11.485114,303.370904,-96.202887,277.027758
90,-6.111522,1.044446,4.067001,2.279406,2.824756,4.80067,7.911529,8.195846,-15.639656,9.742996,30.750343,44.298362,-22.724533,5.120167,27.339157,45.744529,-26.282398,-5.851033,15.556823,32.029335,-26.683411,-33.443493,-39.255066,-43.84924,-17.687343,-24.544442,-27.134106,-28.519785,-1.499201,14.063817,22.203967,27.516058,15.475061,28.072429,34.087463,36.501052,26.720305,37.851472,41.332268,43.219929,35.833295,44.286433,50.223352,55.51099,29.293717,55.733116,79.218258,97.770184,60.362538,91.966427,109.028057,121.299786,50.885113,86.18224,106.911999,121.218991,41.177227,73.319104,92.091877,105.479588,31.870869,56.449768,71.223313,83.415585,-12.824561,-13.31476,-10.469289,-14.880862,19.123349,35.075703,43.371884,49.497302,36.101526,52.361002,59.967134,64.191356,47.817197,64.196432,70.745965,73.483694,55.157728,70.025103,74.121094,75.146015,-17.577432,304.318266,-92.116682,279.21008
91,-1.338822,-0.679872,2.730183,2.014348,2.073693,4.242371,8.264317,8.185044,-13.159618,14.707329,36.147377,49.374596,-20.121254,9.394066,32.350548,50.401566,-23.855381,-2.3512,19.279816,35.526741,-24.395633,-30.795467,-35.848961,-39.961109,-17.730593,-23.25061,-23.701043,-23.051231,0.487285,15.306297,23.14771,28.985088,17.339059,29.465062,35.137047,37.644052,28.623478,39.147613,42.528855,44.647697,37.618055,46.330989,52.28584,57.670365,28.83181,55.038929,78.190521,96.511436,59.493942,91.182999,108.123436,120.382072,50.129951,85.61293,106.074783,120.241333,40.465004,72.721802,91.306412,104.422577,31.213623,55.842796,70.671215,82.669945,-12.668196,-13.309129,-10.192005,-13.926966,18.697036,34.509106,42.645167,48.477173,35.766999,51.638535,59.075223,63.006687,47.544507,63.663192,69.861958,72.050837,54.883914,69.612215,73.415781,73.873512,-18.846892,303.594748,-89.317137,281.180782
92,-4.218235,3.302524,1.761692,1.607276,3.119145,6.901028,12.26445,13.176396,-7.839431,22.202603,42.873059,55.353985,-14.598896,16.241467,38.753392,55.349591,-18.016811,3.933209,24.714718,39.995373,-18.148487,-23.316341,-28.117069,-32.23447,-14.075241,-16.88244,-14.982713,-12.040787,0.225586,13.482301,21.605925,28.093683,15.282671,26.162883,32.534353,35.47944,26.136343,36.254692,40.67155,43.329387,35.185755,44.156805,50.131812,55.436963,28.403389,54.459423,77.419956,95.736568,58.515896,90.360065,107.231335,119.517963,49.180916,84.865414,105.104679,119.141384,39.523087,71.954739,90.410786,103.298023,30.379578,55.049732,69.911247,81.755207,-12.79408,-13.587795,-9.959884,-12.726513,18.15388,34.129712,42.168579,47.760893,35.40681,51.096218,58.36912,62.023794,47.312487,63.251268,69.080705,70.760921,54.653499,69.312553,72.918234,72.943601,-22.955881,306.91149,-87.446199,282.802276
93,7.396283,1.436722,0.709991,1.316704,2.793903,4.276851,6.196392,4.557209,-14.300583,12.469779,33.089263,45.919509,-21.78677,6.627136,28.934669,46.089569,-25.474515,-5.518742,15.158798,30.397682,-26.025479,-32.856068,-38.136567,-42.529038,-14.924371,-18.960501,-17.394721,-14.04339,-0.900432,12.089199,19.296682,24.966235,14.344188,25.093737,30.830326,33.368379,25.231687,35.300154,38.855026,41.023429,34.538722,43.180112,48.591214,53.5402,28.15709,54.036519,76.814038,95.187436,57.735421,89.621533,106.43668,118.711453,48.371178,84.221798,104.220829,118.154034,38.670079,71.231266,89.595509,102.338345,29.586789,54.172097,69.039082,80.767949,-12.899587,-13.833376,-9.929812,-11.998747,17.661866,33.613664,41.525164,46.867921,34.953932,50.339047,57.455486,60.9482,46.873256,62.588761,68.134034,69.44071,54.177194,68.78823,72.28381,71.947221,-15.416084,308.39371,-86.592694,284.164478
94,-4.252327,2.318678,0.518612,0.793073,3.159153,5.693035,8.838901,8.374591,-10.074898,18.45671,38.979492,51.320571,-17.84293,12.394157,34.448318,51.082031,-21.880841,0.023288,21.012565,36.531303,-22.49968,-28.260441,-32.89222,-36.489441,-16.048499,-19.95656,-17.973544,-13.935672,-3.131808,9.316791,17.425275,23.907203,12.326593,22.929274,29.357678,32.357451,23.726596,33.362315,37.223519,39.398789,33.304183,41.990725,46.856806,50.649356,27.958981,53.699158,76.354088,94.659165,56.741101,88.709267,105.562363,117.963593,47.369522,83.232537,103.221589,117.276513,37.664498,70.348481,88.750443,101.574463,28.576504,53.323506,68.26545,80.073464,-12.829253,-13.906921,-9.853192,-11.48633,17.30769,33.160651,40.874673,45.959597,34.557717,49.750998,56.80807,60.205034,46.478621,61.967131,67.528621,68.78045,53.8214,68.336427,71.817841,71.329939,-19.495628,310.743785,-85.901299,284.988948
95,0.896266,-1.177568,0.457718,0.598028,3.94423,5.791237,7.235322,5.507126,-11.011493,16.711934,36.896336,48.667729,-19.05154,11.419064,32.956067,49.848439,-23.630081,-0.681083,20.078923,35.302403,-25.040096,-29.993236,-34.452884,-37.849857,-16.749898,-20.606952,-18.261894,-13.929003,-1.898281,11.481291,18.336909,23.360972,13.493416,25.421225,30.968486,33.313026,24.533229,35.358373,38.371126,40.030915,33.674575,43.163563,48.214487,52.108864,27.634014,53.225418,76.001587,94.270134,56.066918,88.051667,104.896202,117.391434,46.891445,82.686127,102.663002,116.791054,37.303025,70.110581,88.57013,101.577507,28.214516,53.304669,68.308995,80.308823,-12.984605,-14.166063,-10.13281,-11.792711,16.705969,32.220204,39.857285,44.846052,33.864346,48.720668,55.814061,59.161958,45.806765,61.020658,66.667338,67.991946,53.270043,67.578577,71.121099,70.73984,-18.417658,309.602304,-85.261877,285.623063
96,0.868802,-0.849858,0.581909,0.338257,3.337818,4.88903,5.609665,3.080715,-12.839573,14.979675,35.385795,47.557708,-20.843628,10.367523,32.254074,49.359787,-25.175732,-1.919117,18.988311,34.382835,-26.126336,-30.75428,-34.804882,-37.498204,-16.26554,-19.695195,-16.596918,-11.206428,-1.736484,12.231237,19.305414,24.142744,13.882703,25.908756,31.504405,33.657037,25.002742,35.829207,38.935561,40.519484,34.313296,43.785599,48.650222,52.500447,27.360329,52.851391,75.741715,94.144776,55.346959,87.330941,104.262772,116.823395,46.202912,81.97918,102.063332,116.103768,36.693718,69.705185,88.312684,101.354805,27.766068,53.082116,68.19413,80.28019,-13.22721,-14.387723,-10.337859,-12.021941,16.220178,31.719914,39.431022,44.495,33.458658,48.288562,55.379696,58.715749,45.497641,60.6382,66.178818,67.460052,53.012481,67.126452,70.566456,70.127744,-17.367954,308.765312,-84.499066,285.974186
97,-0.6335,-2.838728,0.522057,0.321126,4.552552,6.722352,6.717888,3.185315,-11.674873,14.883934,35.534203,47.31839,-20.618236,10.734971,32.73491,50.231598,-26.336265,-2.131599,19.417603,34.989167,-28.824085,-32.593334,-35.072067,-36.633476,-19.616501,-25.023552,-22.986863,-19.267154,-1.713117,13.800352,20.492689,24.609589,15.396946,28.895771,33.91135,35.64251,27.076654,38.744999,40.87198,41.84729,36.472683,46.457922,50.614009,53.401929,26.878292,52.237495,75.315628,93.724136,54.885944,86.860497,103.862526,116.498497,45.863331,81.529472,101.669632,115.651016,36.403587,69.523018,88.196938,101.231506,27.496021,53.0117,68.242882,80.476433,-13.445806,-14.68153,-10.702877,-12.34161,15.942932,31.27756,38.955124,43.999577,33.136568,47.790065,54.857214,58.228045,45.202228,60.204676,65.630117,66.872733,52.776682,66.777192,70.159151,69.746177,-17.804724,305.901121,-83.780279,286.269849
98,-5.735824,-2.037109,0.447521,0.296958,6.399765,10.626984,12.176102,10.03363,-5.849682,21.805916,42.251381,53.273758,-15.050995,18.260673,39.912598,56.844475,-21.405773,5.46381,26.810303,41.861824,-24.57898,-24.857346,-24.758995,-24.183849,-19.224843,-23.378978,-20.088509,-15.851455,-0.351348,15.670649,22.109562,25.726678,16.697805,31.274904,36.228966,37.783755,28.286221,40.745144,42.913572,43.962884,37.347056,48.459747,52.381133,54.632157,26.532555,51.757679,74.971264,93.364437,54.632012,86.525791,103.511547,116.233303,45.747975,81.200741,101.323574,115.264881,36.328926,69.424427,88.114071,101.118061,27.388802,53.02208,68.313046,80.636639,-13.571728,-14.906957,-11.027265,-12.636629,15.477383,30.754929,38.455353,43.538499,32.630684,47.187948,54.307339,57.754457,44.773211,59.651244,65.075203,66.350386,52.48564,66.425746,69.824723,69.474537,-23.308079,303.813704,-83.100289,286.516499
99,2.505535,-0.943337,0.476063,0.281459,4.139511,6.865791,7.34285,2.809536,-8.401291,19.52766,39.99638,51.242901,-16.901218,16.364216,38.542179,54.951153,-22.24831,3.828953,24.867863,39.4575,-24.440266,-23.327042,-21.608997,-19.609726,-15.908178,-18.597124,-14.747456,-10.419888,1.708696,17.343073,23.231728,26.797789,17.412678,30.769774,35.807384,37.55786,28.196622,39.881985,42.828431,44.645363,36.931773,47.502826,50.778438,53.26598,26.147839,51.047802,74.261009,92.622185,54.378902,86.14753,103.141319,115.925354,45.629803,80.870842,101.006676,114.853615,36.203224,69.240303,87.92688,100.818741,27.174397,52.777084,68.096077,80.425873,-13.792078,-15.336629,-11.534236,-12.929055,15.00104,30.196396,37.955051,43.134688,32.21083,46.649941,53.89445,57.526671,44.49421,59.244148,64.648358,65.966767,52.399337,66.336763,69.708447,69.336919,-20.549618,302.819154,-82.3713,286.746745
100,-6.319588,-0.631954,0.436409,0.296093,6.511357,11.553337,13.459259,9.417996,-1.344875,26.979756,47.252072,58.278179,-10.072952,23.77367,45.982258,61.71452,-16.145004,11.012409,32.310849,46.823307,-19.360737,-13.727886,-8.164764,-3.463634,-14.686915,-16.91571,-12.28969,-7.2339,1.481331,17.034259,23.441951,27.673942,16.617567,30.040637,35.860255,38.323899,27.406019,39.335742,43.005507,45.268239,36.275836,47.57526,50.124551,51.639635,25.875916,50.379055,73.50856,91.901665,54.096107,85.78157,102.8023,115.689926,45.39727,80.502869,100.666008,114.477287,35.885113,68.843399,87.556938,100.365601,26.709091,52.145714,67.504509,79.890427,-13.894497,-15.690261,-12.005132,-13.278957,14.481212,29.685201,37.476448,42.762481,31.735191,46.102129,53.449514,57.285326,44.157794,58.848389,64.279869,65.705711,52.24727,66.358215,69.786042,69.402967,-26.569588,302.130529,-81.635273,286.986167
101,-4.965969,-1.908618,0.503357,0.426856,10.795052,18.546833,20.685436,16.32161,4.898918,32.033272,51.886505,62.069138,-5.109855,28.474388,50.401085,65.91449,-12.91959,15.308018,36.713356,50.846787,-18.381397,-8.386013,0.938999,8.150047,-15.316029,-17.951771,-12.958398,-8.011894,1.227487,17.640722,23.595277,27.091202,16.834088,31.819962,37.445622,39.514879,28.147468,41.459868,44.566186,46.264717,37.361877,50.359585,52.179654,52.236365,25.566627,49.683414,72.70269,91.0746,53.78698,85.422592,102.439362,115.382469,45.179409,80.205688,100.388695,114.187157,35.643608,68.507378,87.199402,99.89415,26.359108,51.639027,66.995315,79.443947,-14.060359,-16.157638,-12.543905,-13.69907,13.955914,29.011603,36.755241,42.081065,31.223849,45.363359,52.722835,56.666908,43.720897,58.199751,63.657413,65.153786,51.937271,66.111065,69.644868,69.304142,-31.15139,300.168478,-80.747749,287.35959
102,0.151726,0.551517,0.472549,0.353138,10.689594,17.924549,19.781399,14.975853,4.703304,31.524971,51.437004,61.521469,-5.306019,27.77179,50.008324,65.483803,-13.10844,14.897976,36.680786,50.969673,-18.537872,-7.193058,3.97205,12.468132,-15.39581,-18.343713,-13.532331,-8.348371,0.634288,16.726112,22.867277,26.58811,16.105026,30.812023,36.759391,39.107475,27.638386,40.677109,43.965812,45.738753,37.1376,50.044646,51.244098,50.608909,25.516835,49.31337,72.139939,90.522446,53.31847,84.957711,102.019638,115.037911,44.728341,79.755387,99.994767,113.791169,35.188546,68.053299,86.741455,99.335701,25.87983,51.091519,66.416428,78.817589,-14.023346,-16.291908,-12.78094,-13.965201,13.468037,28.530333,36.314936,41.769769,30.778628,44.777459,52.191374,56.254168,43.400684,57.662646,63.121777,64.673788,51.777918,65.942153,69.471152,69.027636,-30.559359,300.674482,-79.834895,287.667215
103,-2.402241,0.058107,0.476166,0.390522,11.24176,18.996575,21.496628,16.452656,6.939949,33.600804,53.710591,64.070057,-2.883613,29.679051,52.330914,67.85352,-10.785496,17.162064,39.475559,54.134548,-16.420097,-3.186275,10.188698,20.247036,-15.282004,-18.557863,-14.027433,-9.017301,-0.430227,15.644653,22.414239,26.717514,15.112512,29.937934,36.461717,39.099645,27.068479,40.15491,43.867086,45.782756,37.053372,50.193144,50.92396,49.528153,25.23674,48.795651,71.540726,89.948387,52.796448,84.503128,101.651802,114.710014,44.282433,79.365372,99.708298,113.48703,34.764473,67.766441,86.466934,98.938706,25.450333,50.775833,66.106247,78.490448,-14.140462,-16.579504,-13.11827,-14.244239,13.013541,27.995327,35.745041,41.203666,30.389267,44.216,51.616935,55.69198,43.125524,57.175904,62.548808,64.056333,51.64161,65.733289,69.199204,68.665581,-32.474888,300.695091,-78.872017,288.020239
104,-2.346073,-0.664335,0.394146,0.301354,13.198906,23.175453,27.670395,24.51432,10.151688,36.291847,56.356133,66.829971,-0.480915,31.936363,54.863251,70.725472,-8.964786,18.930645,41.596024,56.67572,-15.094253,-1.467934,12.420982,22.852192,-16.673167,-20.493468,-16.556607,-11.643189,-2.045112,13.633873,20.389801,24.778291,14.399628,29.369348,36.261423,39.111587,27.1882,40.613937,44.628677,46.506532,37.872664,51.634817,52.645709,51.310566,25.013146,48.474003,71.18256,89.621395,52.23254,84.040501,101.298374,114.44791,43.80304,79.033184,99.534908,113.396427,34.391018,67.58971,86.35667,98.779484,25.183262,50.697281,66.042698,78.392246,-14.199495,-16.708883,-13.340954,-14.51084,12.662293,27.612969,35.31122,40.746874,30.07213,43.75223,51.072136,55.081417,42.884575,56.769538,62.017569,63.416117,51.500943,65.489857,68.854575,68.181384,-34.28496,299.980081,-77.94187,288.270918
105,2.74609,-0.411134,0.37413,0.231009,11.96854,20.225498,23.55724,19.713844,6.749828,32.21719,52.770023,63.661503,-3.796005,28.166233,51.424358,67.73457,-11.926872,15.360786,38.184345,53.614735,-17.589489,-4.957031,8.723396,19.198814,-16.039781,-19.25841,-14.782481,-9.623283,-1.286583,14.528908,21.172277,25.5076,14.969633,29.667466,36.569606,39.390056,27.533767,40.616765,44.676806,46.700132,38.071722,51.686255,52.858315,51.779918,24.870427,48.311715,70.983456,89.342343,51.884549,83.635151,100.937382,114.176319,43.513241,78.691121,99.220837,113.148091,34.192177,67.377079,86.149304,98.597042,25.051495,50.720318,66.048146,78.340336,-14.332148,-16.846106,-13.478547,-14.626388,12.460121,27.311787,34.945978,40.31241,29.881012,43.459495,50.710969,54.627465,42.721985,56.506949,61.652068,62.934945,51.391088,65.19275,68.427397,67.635041,-30.9877,299.507576,-77.01657,288.440556
106,2.909832,-0.591285,0.278229,0.149448,10.002205,16.0131,18.042618,13.23175,2.856537,27.545471,48.481979,59.820763,-6.894722,24.623497,48.040901,64.634308,-14.214912,12.610977,35.593689,51.446022,-19.167755,-6.956875,6.797665,17.43655,-14.200866,-15.800251,-10.002122,-3.961808,0.691333,16.393684,22.7428,26.96286,15.824901,29.849729,36.910814,39.929039,27.3416,40.020244,44.305327,46.589204,37.19226,50.449605,51.897331,51.344047,24.773209,48.186848,70.813969,89.17915,51.516323,83.296543,100.684124,114.018917,43.203495,78.378651,98.971241,112.987713,33.98132,67.24902,86.070934,98.576054,24.952549,50.769035,66.107586,78.342899,-14.384944,-16.927097,-13.661192,-14.758274,12.303807,27.080569,34.644871,39.915738,29.731564,43.240936,50.453223,54.285602,42.622827,56.343348,61.410105,62.598356,51.36734,65.067891,68.17737,67.227995,-27.564022,298.840986,-76.224495,288.514699
107,2.277569,-1.403266,0.260731,0.066629,8.192859,12.224258,13.343731,7.601589,-0.603836,23.940067,45.06316,56.634052,-9.714672,22.270489,45.647793,62.111927,-16.289887,10.871841,33.932499,49.997028,-20.533425,-8.050427,5.848858,16.633186,-11.695417,-11.129314,-3.655192,3.288592,3.650795,19.632555,25.688653,29.748903,17.356979,31.160085,38.324467,41.343235,27.529161,40.266048,44.851164,47.305805,36.368016,49.77718,51.793726,51.978496,24.658115,48.044575,70.592583,88.899605,51.357113,83.028145,100.444816,113.873176,43.081409,78.128059,98.747703,112.905121,33.877304,67.041046,85.929153,98.604904,24.831528,50.610432,65.948959,78.2322,-14.453821,-17.01834,-13.787805,-14.711666,12.179169,26.830097,34.285335,39.434294,29.539322,43.025278,50.203727,53.973948,42.402019,56.169842,61.272266,62.476658,51.159314,64.8962,68.04578,67.116028,-24.837049,297.357275,-75.51436,288.500883
108,-1.341271,0.859837,0.269531,0.052142,8.826634,13.752274,15.48563,10.223317,1.90749,27.251004,47.676373,58.512394,-7.47203,24.944928,47.480839,63.29337,-14.656013,12.693455,34.862904,50.214466,-19.505161,-7.739788,4.55785,14.169503,-12.382415,-12.458046,-5.696364,0.769867,2.992759,18.669077,24.27899,27.999514,16.968557,30.75814,37.296965,39.995952,27.233463,40.027013,44.18694,46.589575,36.027278,49.436306,51.744573,52.323434,24.687184,48.0019,70.417694,88.732315,51.157642,82.710365,100.103462,113.591309,42.834057,77.795334,98.433724,112.683037,33.630306,66.675591,85.618332,98.446907,24.607521,50.232605,65.551003,77.88311,-14.37557,-16.95181,-13.790399,-14.677061,12.109367,26.62616,34.007606,39.104683,29.504878,42.925885,50.036,53.720993,42.393992,56.17262,61.246751,62.415377,51.146532,64.924753,68.053449,67.026355,-25.808173,298.122202,-74.874682,288.458115
109,8.959946,-0.56982,0.232247,-0.06075,6.951038,8.149246,4.764622,-3.938438,-7.648247,14.67683,36.234295,47.845631,-17.085583,13.050396,35.723316,52.400997,-24.11721,1.331818,23.969868,39.899929,-28.843597,-19.822849,-8.721439,0.149105,-12.243477,-12.287344,-4.733466,1.824379,5.408805,22.406211,27.520578,30.240646,19.178072,33.296538,38.907885,40.800732,28.92514,41.706339,44.694528,46.572852,37.213009,50.497029,53.003651,53.698899,24.633441,47.934814,70.340995,88.639755,51.370571,82.717735,100.089225,113.581626,42.96865,77.587966,98.131851,112.441406,33.590206,66.268501,85.226966,98.267784,24.329349,49.787818,65.10894,77.582885,-14.39948,-16.913055,-13.776456,-14.615088,12.298397,26.784809,34.102542,39.077834,29.468963,42.926552,50.010411,53.674804,42.187745,56.116242,61.297979,62.613954,50.843844,64.782048,68.048546,67.182534,-16.555018,297.471402,-74.349226,288.316385
110,2.224091,3.052446,0.209747,-0.071421,5.399448,5.975578,2.894909,-4.647377,-9.017601,15.049266,36.137844,47.285419,-18.034195,12.656719,34.607196,51.008457,-24.535653,1.162033,23.118084,38.857097,-28.46354,-22.082875,-14.369007,-7.969723,-14.026161,-15.56739,-10.131563,-5.102066,2.858921,18.950041,24.753888,28.382725,17.314458,31.593351,37.131882,39.285933,27.473154,39.940426,42.935383,44.735407,35.726454,48.055888,50.745735,51.572314,24.615829,47.86179,70.246261,88.551315,51.417915,82.686951,100.058395,113.508064,42.95763,77.438278,97.984978,112.340172,33.492737,66.030899,85.011589,98.180969,24.15493,49.468254,64.765411,77.308227,-14.300284,-16.788467,-13.716656,-14.569232,12.308092,26.897739,34.23922,39.144216,29.362543,42.882648,49.956651,53.603668,42.024613,56.015972,61.267833,62.687969,50.652801,64.6851,68.053499,67.288127,-14.112018,300.460112,-73.92057,288.181228
111,7.073101,0.887848,0.218021,-0.082758,4.288044,3.679813,-1.023445,-9.06934,-14.859352,7.629432,28.875961,40.652,-24.589428,4.121635,26.0251,43.22113,-31.138642,-7.765045,14.156524,30.393974,-34.76635,-32.806446,-28.554463,-24.225335,-16.179473,-19.819907,-16.397452,-12.917989,1.81687,17.800927,23.505331,26.891785,17.552456,31.667871,36.528592,38.25685,28.42033,40.354252,42.839694,44.516786,37.134968,48.765609,51.658134,52.955634,24.530228,47.737404,70.109425,88.351879,51.623783,82.707607,100.084637,113.509289,43.118832,77.312863,97.783161,112.147145,33.497097,65.762684,84.724583,98.030125,23.938889,49.073982,64.336178,76.974026,-14.263555,-16.684455,-13.601874,-14.499812,12.343537,27.017547,34.349136,39.171596,29.21806,42.819922,49.905288,53.592182,41.797619,55.890953,61.215641,62.777618,50.430549,64.578396,68.050943,67.424262,-6.878563,301.289044,-73.542195,288.039554
112,0.285118,1.986362,0.146393,0.01461,4.168648,4.181282,0.288208,-6.271694,-14.201443,9.749817,30.73938,42.410225,-24.284203,4.901481,26.649399,43.725563,-30.956143,-7.478005,14.191429,30.446136,-34.410771,-34.27224,-32.059525,-28.94236,-18.663704,-24.285955,-22.938549,-20.893103,-1.507932,14.155171,20.797119,25.263551,15.773031,30.089679,35.037814,37.133895,27.948681,39.681161,42.2214,43.900319,37.473892,48.522597,51.227932,52.268908,24.400349,47.555901,69.915333,88.129566,51.807976,82.764896,100.142521,113.53989,43.331921,77.264362,97.701244,112.060375,33.642071,65.668728,84.600575,97.964733,23.964924,48.985142,64.1647,76.791012,-14.300049,-16.722703,-13.651336,-14.587546,12.264583,27.027872,34.457261,39.29548,29.036119,42.690925,49.834411,53.578388,41.58479,55.698217,61.113247,62.780409,50.249386,64.434493,67.969815,67.434266,-6.462839,303.221035,-73.265196,287.999793
113,0.775383,1.531719,0.078381,-0.025885,2.253204,1.267318,-2.129826,-7.919071,-15.993359,8.996589,29.877617,42.233711,-24.849655,4.463012,26.724815,44.180603,-30.005814,-6.916626,14.666656,31.203186,-32.062706,-32.864044,-32.05291,-29.875191,-15.267826,-18.245443,-15.229911,-11.936095,0.143039,14.803871,21.542409,26.794257,15.400479,28.999278,34.599151,37.440609,26.357188,37.666813,41.189205,43.584096,35.061995,45.522552,48.780813,50.801089,24.25708,47.425918,69.908294,88.129257,52.086593,82.895233,100.286796,113.670158,43.69337,77.338211,97.745979,112.104103,33.946575,65.748161,84.672546,98.105278,24.138393,49.129966,64.259193,76.885826,-14.467023,-16.824135,-13.686658,-14.645704,12.181158,27.121608,34.642376,39.487684,28.782237,42.5529,49.794149,53.649918,41.273555,55.468332,61.025832,62.898636,49.990206,64.220107,67.860146,67.542106,-5.567585,304.704833,-73.066944,287.925987
