takenoko1/special-research/HandMotion_SimilarSearch_自分用/NewProject/handData/tgt/d4_feature_d2/133.csv
,vel_0x_L,vel_0y_L,vel_0x_R,vel_0y_R,posFromWrist_1x_L,posFromWrist_2x_L,posFromWrist_3x_L,posFromWrist_4x_L,posFromWrist_5x_L,posFromWrist_6x_L,posFromWrist_7x_L,posFromWrist_8x_L,posFromWrist_9x_L,posFromWrist_10x_L,posFromWrist_11x_L,posFromWrist_12x_L,posFromWrist_13x_L,posFromWrist_14x_L,posFromWrist_15x_L,posFromWrist_16x_L,posFromWrist_17x_L,posFromWrist_18x_L,posFromWrist_19x_L,posFromWrist_20x_L,posFromWrist_1y_L,posFromWrist_2y_L,posFromWrist_3y_L,posFromWrist_4y_L,posFromWrist_5y_L,posFromWrist_6y_L,posFromWrist_7y_L,posFromWrist_8y_L,posFromWrist_9y_L,posFromWrist_10y_L,posFromWrist_11y_L,posFromWrist_12y_L,posFromWrist_13y_L,posFromWrist_14y_L,posFromWrist_15y_L,posFromWrist_16y_L,posFromWrist_17y_L,posFromWrist_18y_L,posFromWrist_19y_L,posFromWrist_20y_L,posFromWrist_1x_R,posFromWrist_2x_R,posFromWrist_3x_R,posFromWrist_4x_R,posFromWrist_5x_R,posFromWrist_6x_R,posFromWrist_7x_R,posFromWrist_8x_R,posFromWrist_9x_R,posFromWrist_10x_R,posFromWrist_11x_R,posFromWrist_12x_R,posFromWrist_13x_R,posFromWrist_14x_R,posFromWrist_15x_R,posFromWrist_16x_R,posFromWrist_17x_R,posFromWrist_18x_R,posFromWrist_19x_R,posFromWrist_20x_R,posFromWrist_1y_R,posFromWrist_2y_R,posFromWrist_3y_R,posFromWrist_4y_R,posFromWrist_5y_R,posFromWrist_6y_R,posFromWrist_7y_R,posFromWrist_8y_R,posFromWrist_9y_R,posFromWrist_10y_R,posFromWrist_11y_R,posFromWrist_12y_R,posFromWrist_13y_R,posFromWrist_14y_R,posFromWrist_15y_R,posFromWrist_16y_R,posFromWrist_17y_R,posFromWrist_18y_R,posFromWrist_19y_R,posFromWrist_20y_R,posFromBody_0x_L,posFromBody_0y_L,posFromBody_0x_R,posFromBody_0y_R
6,10.060249,-4.256864,0.428467,0.064146,1.354065,-2.543678,-8.871345,-16.260074,-25.353801,-0.860767,20.038685,32.725125,-34.693141,-7.324436,14.622448,32.283108,-38.9248,-19.388488,2.042622,18.228459,-39.73986,-47.277774,-50.698196,-52.333236,-18.942593,-27.027142,-29.226581,-30.678222,-3.276724,13.977601,20.575139,25.19423,14.187343,27.742855,31.867906,34.193253,25.875275,36.351319,38.860053,40.59214,34.970345,43.540512,48.134224,51.999047,25.960316,49.646473,72.719708,92.014881,51.449295,82.975903,100.190609,112.917904,42.442211,77.26704,97.430912,111.121845,32.756481,64.945141,84.009945,97.26685,23.447159,48.137386,63.616745,76.816784,-12.647139,-14.331937,-9.799345,-7.582617,16.509183,32.524646,39.885802,44.357804,33.004027,48.552386,56.078649,59.623827,44.752809,61.420838,67.57108,69.02198,52.318025,68.716884,73.301173,73.182674,8.089302,318.302128,-71.589729,294.025645
7,-5.001548,0.169727,0.167839,0.065048,2.28527,0.389808,-3.435288,-8.398991,-21.122132,4.469547,25.291317,37.938343,-30.140396,-1.768376,20.271892,37.947818,-34.148793,-12.897618,8.854534,25.410541,-34.582157,-39.599511,-41.818829,-42.152825,-19.111073,-26.951473,-29.11338,-30.963521,-3.695465,12.94821,20.011716,24.874215,13.883383,27.643412,32.020318,34.614676,25.674735,36.294608,39.1528,41.189304,34.49714,43.356718,48.145166,51.842621,25.873604,49.542469,72.539692,91.83585,51.212425,82.790394,99.997707,112.713261,42.152733,77.038868,97.234692,110.909329,32.463627,64.715378,83.858059,97.147877,23.219685,47.998318,63.560955,76.814816,-12.751349,-14.371605,-9.883598,-7.734189,16.455818,32.586483,39.971005,44.424642,33.032235,48.593042,56.101003,59.5797,44.815461,61.434868,67.509947,68.865085,52.367795,68.706707,73.220934,72.982318,2.292063,318.492242,-72.217581,294.11108
8,-2.133305,1.750785,0.042126,0.261291,1.693783,0.638981,-0.613895,-3.034424,-17.836578,7.483292,27.83139,40.320007,-26.035023,1.343651,23.198822,40.743942,-29.886944,-9.311554,11.962807,28.462189,-30.277485,-34.583233,-36.687721,-37.170525,-18.373329,-26.502375,-29.861104,-32.512802,-4.81647,10.215988,17.274456,22.4349,12.252813,24.980252,29.681324,32.648999,24.172322,34.341331,37.450044,39.737662,33.192687,41.804794,47.055321,51.200132,25.77919,49.392906,72.397522,91.709678,51.395496,82.941467,100.037567,112.620209,42.370067,77.24588,97.316116,110.913002,32.610123,64.849377,83.891693,97.100899,23.246944,48.060459,63.579151,76.847854,-12.924065,-14.628771,-10.137034,-8.113955,16.174397,32.141089,39.523969,43.993809,32.715603,48.08638,55.534406,59.006891,44.486429,60.889945,66.924775,68.298969,52.061241,68.274405,72.752903,72.534529,-0.366457,320.249489,-72.70067,294.378833
9,0.910984,0.995664,-0.044083,0.153129,1.554737,0.732994,-0.659386,-3.559971,-17.420494,7.11343,26.548885,38.713291,-25.574364,0.775257,22.234028,39.800137,-29.461807,-10.013145,10.757298,27.158604,-30.109886,-34.100292,-36.111786,-36.451813,-17.836508,-25.81271,-29.267658,-32.31262,-5.849382,7.993912,14.385969,19.06208,10.775792,22.712406,27.667087,30.919172,22.629093,32.776933,36.204378,38.855273,31.825149,40.43144,45.704049,50.082412,25.83292,49.396374,72.292877,91.639343,51.627182,83.031166,100.150795,112.744606,42.603367,77.377213,97.366516,110.924561,32.761437,64.894581,83.879952,97.058533,23.250653,48.082375,63.589314,76.875115,-13.026435,-14.727659,-10.227499,-8.293464,16.026405,31.884072,39.261331,43.795417,32.553038,47.706738,55.118368,58.675822,44.362212,60.546476,66.584864,68.088968,52.011618,68.015337,72.474309,72.296641,0.140264,321.239451,-73.149016,294.52626
10,-0.974235,2.917694,-0.06047,0.089698,3.910194,4.358951,3.540241,2.710407,-15.639256,7.678676,26.235889,38.165348,-24.171021,1.146114,21.49522,38.966686,-28.484059,-9.166329,11.138637,27.712223,-29.631329,-32.409508,-34.178193,-34.063134,-18.661962,-28.784719,-34.461422,-39.381992,-8.92843,4.420638,11.29152,15.717283,7.695683,20.174416,25.528633,28.744669,19.87999,30.290504,33.967605,36.427396,29.159533,37.534013,42.767768,46.582202,25.948162,49.364811,72.157196,91.592834,51.732318,83.022056,100.148643,112.781387,42.729766,77.442833,97.393249,110.989471,32.828292,64.870376,83.818199,96.990028,23.195549,47.960643,63.406082,76.680153,-13.025743,-14.754878,-10.303834,-8.50313,15.905387,31.619842,38.985678,43.604313,32.402739,47.372372,54.772554,58.418237,44.228572,60.227351,66.326488,67.990328,51.933159,67.848068,72.356194,72.248649,-1.12873,324.148966,-73.504245,294.607779
11,-9.985554,3.81583,0.006065,0.010066,6.104233,10.224769,14.269775,17.800026,-5.564701,19.017082,36.712417,48.586853,-14.398625,11.863129,31.446602,48.149208,-19.501614,1.46236,20.847862,36.621231,-21.039322,-22.121418,-24.489166,-24.919716,-18.182223,-28.266165,-34.784513,-41.099271,-11.774359,-0.293339,7.449594,12.066352,3.630356,16.173359,22.61242,25.987723,15.586533,26.828874,31.341916,33.770596,24.565858,33.084389,38.836625,42.741499,26.043743,49.251858,71.881668,91.273796,51.791519,82.971291,100.109367,112.758888,42.805504,77.413147,97.340355,110.994621,32.855484,64.779247,83.657616,96.781288,23.11409,47.792873,63.155628,76.365784,-13.053383,-14.78831,-10.331758,-8.604982,15.856357,31.420573,38.740887,43.420172,32.308902,47.145748,54.516832,58.262897,44.135242,60.010273,66.154365,67.987018,51.893589,67.73951,72.286464,72.248933,-11.344477,327.954792,-73.728373,294.607841
12,-5.218243,2.008198,0.035568,0.007595,7.23888,12.690434,18.900799,24.693615,-0.342121,23.880398,40.9025,53.026623,-8.804088,16.322239,35.325543,52.076672,-13.901104,6.625363,25.484265,40.974735,-15.384292,-16.81287,-19.354065,-19.787716,-17.212743,-27.334598,-34.202763,-40.855481,-12.734776,-2.070022,6.023394,10.675473,1.488506,14.004808,21.023557,24.642354,12.947752,24.830779,29.652325,32.038139,21.749989,30.196062,35.763455,39.822729,26.084622,49.089283,71.566292,90.938164,51.755059,82.874542,100.069496,112.788574,42.827797,77.371079,97.357041,111.134354,32.858952,64.687912,83.582726,96.726219,23.018601,47.608292,62.936257,76.142372,-13.075502,-14.847813,-10.378552,-8.707821,15.915144,31.270273,38.485672,43.19734,32.283535,46.904909,54.187431,58.029715,44.081754,59.775263,65.921442,67.928664,51.869753,67.672474,72.235397,72.280179,-16.736944,329.951755,-73.867029,294.604201
13,8.946133,-3.331559,0.036495,-0.012659,5.904259,8.254326,9.564148,11.100975,-9.83281,12.096336,29.686569,42.485344,-18.699177,5.052624,24.54927,42.095032,-23.372944,-4.307499,15.465179,31.733047,-24.590481,-27.660896,-30.347752,-30.314095,-16.205877,-25.779982,-30.992074,-35.862008,-10.647907,2.213901,10.173356,14.479299,3.678374,16.799447,23.818876,27.642054,14.99011,26.990648,31.896793,34.58606,23.926568,32.696263,38.547263,43.383024,26.155312,49.102684,71.489239,90.887227,51.77377,82.787075,100.043942,112.885563,42.78788,77.20522,97.190495,111.046269,32.745312,64.411744,83.292035,96.464253,22.776696,47.230957,62.518147,75.734013,-12.970279,-14.732179,-10.260955,-8.618715,15.857444,31.192443,38.401223,43.13375,32.20221,46.862462,54.202363,58.140199,44.000059,59.702151,65.95417,68.125105,51.819785,67.671783,72.311017,72.453648,-7.941536,326.609797,-73.981259,294.581143
14,0.289593,-2.803999,0.08503,0.015895,6.373031,8.735653,9.797916,10.972492,-11.384182,10.650089,28.505916,41.392467,-20.808289,3.86721,23.554012,41.216411,-25.576733,-5.314557,14.972156,31.212833,-26.668671,-29.252369,-32.070717,-32.008198,-17.027899,-26.432425,-30.645347,-34.645081,-8.695014,6.17514,14.371222,18.321643,6.46612,20.678916,27.210343,30.459057,17.7671,30.113094,34.668929,36.995536,26.311615,35.478032,41.428129,46.209784,26.214569,49.135048,71.531513,91.059345,51.755505,82.83308,100.142109,113.070957,42.696636,77.160862,97.160809,111.035854,32.594502,64.264778,83.11211,96.249722,22.58107,46.97081,62.204601,75.394878,-12.892103,-14.682828,-10.1934,-8.542318,15.736228,31.049626,38.310264,43.155189,32.099346,46.77154,54.173031,58.212619,43.915435,59.569659,65.862038,68.141258,51.711808,67.617923,72.290577,72.50926,-7.769342,323.802988,-74.013628,294.594228
15,0.668953,-3.147135,0.179535,0.009645,5.497409,8.377956,10.475429,11.158412,-12.602189,10.22002,28.877941,41.834072,-22.184327,3.119361,23.716541,41.419338,-26.903813,-6.87156,13.910076,30.137615,-27.829972,-31.895989,-35.123738,-35.7533,-17.519432,-26.075618,-28.48544,-30.936734,-6.817678,9.170171,17.202998,21.650448,9.306701,23.387919,29.772492,32.985045,20.96198,33.101444,37.436768,39.732809,29.997313,39.169484,44.95966,49.910573,26.183029,49.084591,71.507275,91.090794,51.815185,82.904011,100.2216,113.171551,42.697494,77.11742,97.056919,110.841259,32.517654,64.130115,82.929783,95.995892,22.431679,46.747776,61.956036,75.112644,-12.853941,-14.660363,-10.175653,-8.449766,15.619112,30.948504,38.26158,43.185373,31.973215,46.735651,54.218023,58.335651,43.772335,59.510428,65.863891,68.237737,51.551652,67.520988,72.228469,72.536085,-7.187376,320.639703,-73.92108,294.587723
16,0.012245,-2.18946,0.145454,0.042213,4.738289,7.61642,11.126049,12.12878,-12.253006,11.646618,30.458622,42.535274,-21.520363,4.501693,25.692432,43.191318,-26.04681,-6.192124,15.011135,31.262844,-27.017166,-31.541062,-34.103806,-34.917778,-18.400992,-25.964418,-27.108356,-28.194978,-4.683781,10.878077,18.279666,23.520078,11.896748,25.289771,31.400246,34.899678,23.49786,34.963158,39.268322,42.163466,32.565241,41.396402,46.990644,52.215,26.21006,49.1624,71.621075,91.263462,51.867817,83.020398,100.331234,113.28526,42.676014,77.137745,97.0677,110.795369,32.448315,64.095475,82.913899,95.988064,22.342896,46.68726,61.891274,75.004589,-12.905429,-14.689756,-10.158203,-8.375616,15.391734,30.763833,38.128088,43.109345,31.804068,46.649435,54.217528,58.35136,43.640893,59.435772,65.862693,68.295955,51.406514,67.344591,72.060606,72.411126,-7.238771,318.428775,-73.839266,294.608468
17,2.019081,-1.951399,0.062233,0.115955,4.362671,7.889339,11.964901,11.410732,-12.547383,11.369465,30.543171,42.410625,-22.591198,4.142578,26.216617,43.542103,-27.772694,-8.636799,12.77203,29.315906,-29.674954,-34.554028,-36.702244,-37.128513,-17.063652,-23.073881,-23.146067,-22.024309,-4.070921,10.373316,18.008816,24.249399,12.498728,24.307679,31.278436,35.502313,24.108744,34.394547,39.805476,43.517775,33.447901,41.931765,47.844404,53.282343,26.191269,49.341648,71.847485,91.375157,52.010056,83.148938,100.386738,113.24635,42.818722,77.349186,97.260052,110.947232,32.609345,64.384232,83.194485,96.22498,22.523941,47.091626,62.234642,75.128987,-13.185702,-14.968584,-10.34154,-8.585432,14.616643,30.12274,37.641087,42.739053,31.053368,46.259592,54.06782,58.307431,42.933023,58.937384,65.535909,68.094488,50.712488,66.559595,71.310968,71.777073,-5.277042,316.451061,-73.834385,294.698108
18,-9.315182,0.423608,0.175873,-0.35425,6.551388,13.313255,21.063194,21.885201,-2.462585,23.63459,42.102951,53.389,-12.308464,16.196068,38.208481,54.6801,-18.17934,2.535072,22.944969,38.395615,-20.72953,-23.611805,-25.261665,-25.720116,-12.489095,-14.713543,-12.403892,-9.10495,-2.483849,9.402081,17.263637,24.0856,11.801837,22.656868,30.557562,35.238848,21.942342,32.569514,39.013885,43.368364,30.001413,39.087443,45.142095,50.67287,26.384869,49.62101,72.000401,91.340595,51.415341,82.783253,100.05312,112.886959,42.314186,77.202061,97.436543,111.348026,32.360241,64.513321,83.651287,96.859234,22.619042,47.550133,62.824459,75.434338,-13.583559,-15.28324,-10.523209,-8.972903,13.637862,29.276858,36.877926,42.193809,30.242684,45.828562,53.916359,58.405639,42.307702,58.452112,65.331207,68.207109,50.19917,65.71837,70.532765,71.107155,-14.617029,316.841858,-73.683317,294.311047
19,5.681076,-4.468495,0.048191,-0.916759,3.580753,6.838944,11.153149,8.719002,-10.285274,13.761772,32.806481,45.06086,-18.94741,8.066254,30.897835,48.171959,-23.372349,-4.091835,16.655022,32.725502,-24.589886,-28.0219,-28.975033,-28.53931,-4.907231,-2.506264,3.441338,9.708919,2.48853,15.251611,23.216105,30.422131,13.202078,24.458276,33.48878,39.315994,20.738926,32.275385,39.982392,45.734455,27.29535,37.459468,44.707373,52.297425,26.622414,50.12487,72.373833,91.51387,50.56073,82.010033,99.29599,112.175858,41.654068,76.600777,97.019028,111.20723,32.161308,64.401169,83.739762,97.158051,22.973156,48.109577,63.351883,75.804451,-14.212166,-15.832892,-10.990586,-9.499202,11.620785,27.211714,35.099848,40.949205,28.477388,44.691873,53.339586,58.538452,40.872029,57.384633,64.778689,68.310393,49.134531,64.424069,69.555738,70.624885,-8.910628,312.329925,-73.609801,293.35085
20,3.018025,-5.53338,0.158158,-2.714808,3.74834,4.983776,6.141288,1.110202,-13.602848,8.23859,26.364383,38.518535,-22.509831,2.338119,24.474094,42.333286,-27.374829,-9.594624,10.663387,26.996624,-28.876488,-31.693886,-31.333466,-29.40168,0.095997,6.645987,16.699127,26.549318,5.80097,18.167441,26.152942,32.857999,14.175128,26.069171,36.095178,42.303725,20.273698,33.226378,41.603031,47.622375,25.795975,37.594849,45.664566,53.801738,26.798137,50.995582,72.854988,91.466079,49.657974,80.480873,97.483383,110.30191,40.468139,74.485908,94.761085,109.148689,30.877246,62.282043,81.451103,94.953598,21.709659,46.485649,61.54684,73.696014,-15.038658,-16.406355,-11.183567,-9.67871,8.166196,24.472726,33.293748,40.18103,25.102259,42.573229,52.331042,58.550802,38.043775,55.493996,63.823201,68.247062,47.042971,62.586908,68.335513,70.063549,-5.858968,306.766052,-73.418008,290.605549
21,16.629787,-9.190845,0.106922,-5.499578,0.243439,-4.309273,-10.321781,-20.160553,-25.71611,-15.23101,-2.675491,7.067837,-33.78447,-21.384853,-2.674679,14.331837,-37.700478,-29.265507,-11.084141,4.823914,-38.468616,-44.142322,-41.43639,-36.510418,10.33303,22.523389,35.702162,47.998744,17.82459,29.882,37.528393,43.641486,20.594726,29.113368,36.633407,40.902127,20.841369,29.488588,35.923265,40.654693,20.519909,28.791093,35.222163,42.23228,26.421936,51.14653,72.4762,90.534107,47.576294,77.265529,93.994709,106.886478,38.521488,71.161171,91.189373,105.574527,29.282524,59.370437,78.335918,91.748027,20.598827,45.009178,59.84777,71.466819,-15.12543,-15.843612,-10.651032,-9.984881,3.882594,19.977778,29.573866,37.358666,20.784349,38.66444,49.275199,56.381053,34.498473,52.753192,61.619464,66.715269,44.703099,60.238626,66.075535,68.139468,10.828411,297.541887,-73.253494,285.072651
22,17.137493,-10.658998,-1.14505,-10.186397,-8.172878,-20.307804,-32.28154,-44.823772,-38.395923,-37.903152,-31.150554,-24.803444,-41.359188,-39.89138,-28.124119,-15.128563,-40.95116,-41.215244,-29.656334,-18.150146,-38.249107,-47.36578,-46.871074,-43.826626,11.543622,25.617628,40.144906,52.893822,23.885862,40.853159,49.387646,54.902032,26.196266,40.53034,48.196678,51.278147,26.125278,39.154479,46.038539,50.231602,25.098937,36.943963,43.964009,50.331563,26.809215,52.090496,72.72385,89.334949,54.383274,80.830066,92.823864,101.085033,46.689823,74.592109,88.473438,97.03165,37.752914,63.310295,76.454715,84.318409,28.474228,49.988102,60.701728,67.852203,-14.460415,-14.686113,-10.195376,-9.93469,4.744951,24.5418,36.795329,45.757055,20.322369,42.936445,56.127913,64.107697,33.619691,55.766809,67.119166,73.294306,44.014076,61.850633,69.312553,72.406285,28.050682,286.755183,-74.313766,274.758548
23,24.638409,-17.33686,-5.606438,-15.001201,-16.340424,-35.145538,-51.894482,-66.33625,-51.317597,-61.068295,-60.103157,-57.756123,-49.930092,-59.272923,-54.191437,-45.528454,-45.578694,-54.946449,-49.71603,-42.269863,-39.824375,-52.788151,-54.086964,-52.380455,9.394374,23.775143,39.12947,51.571993,26.059452,47.696166,57.840635,63.875602,29.730193,49.785862,58.050549,60.545278,31.130494,48.650791,56.151366,59.577427,31.230085,46.226358,53.76139,59.298068,27.304161,53.604847,74.258079,89.970531,55.960602,83.021519,93.562122,99.408588,48.049713,76.026295,86.708919,91.495617,38.593002,63.495163,73.745979,78.623909,29.000141,50.0522,58.478027,63.187202,-15.013464,-16.093343,-12.477399,-11.661775,-0.391892,17.350767,28.708668,36.715449,14.226208,38.991965,51.666101,58.504094,27.418381,51.650354,61.96644,66.704413,38.351712,57.195875,63.501271,65.456363,52.791132,269.20943,-79.818163,259.548454
24,23.113266,-18.355792,-8.236485,-19.563493,-21.214417,-43.111107,-60.881035,-74.891785,-54.642826,-73.053372,-78.503678,-80.338955,-49.670895,-68.125523,-68.290146,-63.298588,-42.660759,-59.965347,-59.905369,-55.929348,-35.007294,-51.230702,-53.995171,-53.585518,5.45723,18.760479,33.292327,45.154791,22.923532,43.561557,54.794821,61.410019,28.364311,52.215136,61.243861,62.518044,32.079981,53.096104,61.062673,63.019741,34.034592,51.15724,58.622149,62.111615,28.329506,55.329621,75.239594,89.410893,57.464848,81.521416,91.275078,96.54974,48.131447,73.500344,82.642113,85.699563,37.374756,60.514401,68.611725,71.325222,26.969307,46.976006,53.854935,56.843766,-12.614782,-13.842603,-10.112742,-8.214053,-7.984032,4.747927,14.64742,21.363086,3.346242,30.114156,44.931724,53.01032,16.058663,43.170454,54.650621,59.78597,28.007726,48.59771,55.139474,57.053366,75.981703,250.726707,-87.977343,239.85803
25,30.553825,-22.47752,-8.763885,-19.208257,-27.787491,-53.971618,-73.288994,-86.992149,-61.476196,-87.702129,-99.065483,-104.932056,-51.96579,-78.680443,-82.7891,-80.696651,-40.787338,-65.00275,-68.636638,-67.414295,-30.148544,-49.551819,-54.095489,-55.246696,3.010629,14.378447,26.628222,36.82839,18.541462,37.141872,47.871179,53.980666,23.561759,51.437352,61.709854,63.094829,28.110553,52.769,61.518724,62.57562,31.215166,50.711192,58.450284,60.522764,29.247402,55.384861,73.703602,84.073231,58.95124,79.141285,88.323063,93.43055,48.827339,71.033375,77.482841,77.926781,37.085003,57.461311,62.500179,62.218609,25.668995,43.629982,49.029385,50.244152,-8.908633,-10.068762,-6.802129,-5.478978,-14.711158,-8.89774,-3.623538,-0.876269,-7.618457,16.939361,31.595723,39.538542,2.994513,29.937885,41.738425,46.949802,14.523265,34.584887,41.445457,43.741559,106.501327,228.410195,-96.775429,220.810781
26,20.802922,-23.554899,-10.328459,-21.463708,-31.517842,-58.648717,-77.0117,-89.809948,-60.996026,-85.437905,-96.895432,-103.372536,-47.676991,-70.641472,-75.788876,-75.461792,-33.387532,-54.637791,-60.383778,-61.657357,-20.472302,-37.919758,-45.043488,-48.976159,-4.860825,1.295786,10.383934,18.552198,4.493991,20.719193,30.316742,35.088008,12.333623,43.281954,55.777786,58.421389,21.361009,50.465457,62.072564,64.159969,29.587389,53.02846,62.831733,65.440651,31.48645,57.764574,75.291556,84.07021,61.975273,79.033545,87.207991,91.514362,50.230076,69.597616,72.573841,69.91804,36.779669,54.906172,56.334006,52.952442,23.818182,39.852242,43.317879,42.521839,-6.244745,-9.212047,-7.423248,-6.096078,-21.947751,-22.90395,-22.220537,-23.440453,-19.317894,5.761079,20.896639,28.04244,-11.047025,16.956095,29.157232,33.564684,-0.509453,20.358441,27.994855,30.272028,127.070555,205.473313,-107.337582,199.96509
27,22.347656,-24.992565,-10.706199,-21.80491,-31.591953,-58.774304,-76.738301,-89.145138,-60.172302,-82.091618,-92.402207,-98.158219,-46.448948,-64.627144,-66.997925,-65.380623,-31.628277,-47.203343,-50.070156,-50.346646,-18.285839,-31.120983,-36.554352,-39.81015,-6.197006,-4.01667,1.491547,7.044546,-4.82963,2.247082,7.37198,9.723118,0.733172,20.851357,29.593542,31.29739,8.302865,28.339024,38.865425,41.44792,15.794656,32.324466,41.471987,44.563349,33.856407,61.015874,78.552675,88.89466,56.454265,72.761323,83.975938,91.709667,41.357997,61.094965,65.609138,64.986757,25.934984,45.007169,47.879304,46.633689,12.438463,29.085731,34.054035,34.801036,-4.52759,-10.578059,-11.049832,-10.407399,-35.400808,-47.799827,-53.787033,-59.499285,-36.225824,-13.18107,1.009406,6.457762,-29.071625,-2.067923,8.238249,10.28048,-18.580674,1.804659,8.576728,9.33082,149.104889,181.891865,-118.357103,179.571297
28,15.902115,-21.151511,-5.885376,-19.660325,-31.431828,-57.36588,-74.639752,-87.293736,-56.256455,-73.565541,-81.741944,-86.474923,-42.265194,-54.267243,-54.295189,-52.093872,-26.79134,-36.713414,-36.836895,-35.810658,-12.640858,-20.405079,-23.559792,-25.656739,-7.622118,-10.371102,-9.791549,-8.314276,-14.00227,-18.517772,-20.863611,-24.097712,-10.350885,-1.409814,5.33803,7.007366,-4.203347,5.841954,14.555678,17.35299,2.484775,11.169702,18.90328,22.316454,35.358295,62.673379,79.978025,91.010524,55.990871,68.196561,79.25683,88.258403,39.507591,54.675893,57.609798,56.55586,23.025323,38.40331,39.993856,38.097782,8.451318,22.47544,27.17181,27.562671,-1.655034,-9.156311,-11.189073,-11.741702,-42.739887,-59.403569,-68.916124,-77.595657,-47.56381,-25.870452,-9.030908,-2.538457,-42.145379,-15.39137,-2.75154,0.293772,-32.122045,-12.051213,-2.733156,-0.556223,164.43825,163.207058,-124.811233,162.377676
29,11.626671,-19.323476,-2.265965,-16.868632,-30.353726,-54.210377,-70.9147,-84.600964,-51.413796,-64.030552,-70.247727,-74.483941,-37.242543,-44.132973,-43.142579,-41.395272,-21.460934,-26.612744,-25.32549,-24.009854,-7.083241,-10.378476,-11.954018,-13.721261,-9.264945,-16.374952,-19.886544,-21.620162,-21.466018,-34.538108,-43.558697,-52.126236,-18.683615,-21.135353,-17.778947,-16.523419,-12.901893,-13.106963,-7.443611,-4.954532,-6.311793,-5.123879,0.117267,3.237355,35.485851,63.082403,81.08856,93.940979,55.765926,67.901762,78.494871,87.186447,39.122635,52.980394,52.611877,48.850462,22.195524,35.577845,35.068182,31.690441,6.758028,19.554771,23.214088,22.160397,-0.904692,-10.402749,-15.017357,-17.283894,-46.032993,-64.026661,-76.939849,-88.798676,-52.694559,-33.45415,-16.813701,-11.400345,-49.09527,-24.126034,-11.420037,-9.096638,-40.523467,-22.068285,-11.809281,-9.286576,175.315384,146.56342,-127.826735,148.188882
30,7.400001,-17.111928,-0.296299,-16.627576,-28.745029,-50.350926,-67.057972,-82.363689,-45.968719,-54.27927,-57.845924,-60.729469,-32.050449,-32.982536,-31.081055,-29.722687,-16.510426,-15.898373,-13.635487,-12.187283,-2.295536,-0.321361,-0.147125,-1.50071,-10.303631,-20.735545,-27.502155,-32.022649,-26.477558,-45.246204,-59.492576,-72.100173,-22.831631,-35.571272,-36.45552,-36.697365,-16.581483,-26.416697,-24.55888,-23.093654,-9.792874,-15.942373,-13.726712,-11.432036,35.818382,64.991175,84.710146,102.131882,55.947464,69.513033,79.71353,87.925564,38.81551,52.959669,50.786591,45.490683,21.613993,34.949095,33.429937,29.52626,5.975218,19.173649,21.79446,19.401421,-0.708716,-12.504579,-19.586376,-22.071299,-48.430546,-66.660706,-80.353233,-93.023349,-55.779932,-35.650786,-17.549316,-12.099169,-52.594376,-27.285692,-14.097258,-12.36862,-44.458278,-25.688848,-14.959541,-12.869651,181.944025,132.065788,-128.894394,134.175602
31,7.418552,-15.574603,3.500319,-11.775649,-26.859741,-47.138626,-63.731987,-79.950691,-40.720733,-46.451225,-48.598343,-51.096336,-27.527641,-26.067993,-23.69886,-22.319046,-12.904815,-10.669006,-8.003151,-6.117897,0.452889,3.843041,4.916863,3.957047,-8.614355,-20.159725,-28.310186,-34.17734,-30.711079,-53.319751,-70.72111,-85.660912,-27.51079,-42.009842,-40.768319,-39.494748,-21.343005,-32.174385,-29.752707,-27.784548,-14.589319,-21.058774,-18.658967,-16.401094,35.542373,65.522186,86.51612,106.389289,56.166481,70.928741,81.343402,89.6945,38.986198,53.616165,50.546756,44.357036,21.706855,35.110302,32.946956,28.562175,5.85783,19.340435,21.196369,17.823841,-0.177959,-12.709865,-20.744144,-23.136657,-49.389301,-66.360599,-80.512244,-93.979638,-57.261614,-36.593813,-17.880833,-12.212694,-54.349724,-28.771944,-15.327953,-13.825973,-46.37887,-27.628271,-16.583382,-14.556481,188.468376,118.764159,-126.288276,124.672927
32,6.662613,-11.619507,7.704448,-6.568639,-24.817657,-43.457634,-59.617721,-76.22834,-35.451896,-39.568336,-40.872162,-43.543007,-23.03936,-20.823463,-18.342453,-17.111274,-9.548584,-7.962867,-5.360298,-2.971893,2.652787,5.4833,7.043976,6.47152,-6.245566,-17.445566,-25.24978,-30.990296,-33.875035,-58.551605,-76.990265,-93.187917,-30.976328,-41.970958,-35.868949,-32.138218,-24.321369,-31.022382,-27.171959,-25.047807,-16.896073,-20.070322,-16.733065,-14.52721,34.289738,64.058945,85.703167,105.832329,56.047486,72.175736,83.591732,92.749283,39.379154,54.958615,51.261704,44.517906,22.405323,36.223229,33.512318,28.630211,6.502854,20.400948,21.728153,17.633091,0.884507,-10.922005,-18.509673,-20.661644,-48.753728,-63.710549,-78.200178,-92.235738,-56.884683,-36.852355,-17.989994,-11.885145,-54.223277,-29.098875,-15.125776,-13.239282,-46.264137,-28.128949,-16.673154,-14.293331,193.919861,108.666544,-119.794956,119.62618
33,7.019921,-8.353515,10.025986,-3.660737,-22.457268,-40.541474,-56.129517,-72.008973,-31.325386,-35.426331,-36.664307,-38.795037,-19.593636,-18.435036,-16.116692,-14.185433,-7.651909,-7.171692,-4.858452,-2.018853,2.876587,4.363907,5.64917,5.481147,-4.019526,-14.095013,-21.42346,-26.355193,-35.151132,-59.708326,-76.530806,-91.502563,-33.237697,-41.084402,-32.803875,-28.44413,-27.053418,-29.511337,-23.795843,-21.274252,-20.004867,-19.820295,-15.37145,-13.255844,33.899197,63.586681,85.506832,106.315899,57.307262,74.565548,87.006237,96.883438,40.780884,57.792114,53.469246,46.165009,23.879562,38.909386,35.090687,29.540943,7.879211,23.030685,23.477669,18.390392,2.317734,-9.019105,-16.574768,-18.491964,-47.568133,-62.014296,-76.555042,-90.731943,-55.886155,-34.867679,-16.246521,-10.294677,-53.310038,-27.932527,-14.092253,-12.711853,-45.370016,-26.938568,-15.597271,-13.512769,199.554165,100.855877,-111.154587,116.508291
34,10.970775,-4.85144,11.389366,-2.17259,-21.5037,-40.425338,-55.795051,-70.857399,-28.744732,-32.882263,-34.07278,-35.585266,-16.612472,-16.625038,-15.00547,-12.981823,-5.177982,-6.029365,-4.782612,-2.257118,4.765343,4.552346,4.584194,4.092636,-1.702128,-11.914729,-19.457215,-24.149913,-37.787312,-62.42246,-78.276851,-92.216416,-37.986368,-40.245306,-28.255769,-22.562995,-33.04058,-29.398207,-20.434462,-16.928597,-26.805134,-22.214359,-15.189786,-12.499987,35.180729,64.852421,86.967144,108.134239,59.775456,78.057472,91.191204,101.545841,43.557335,62.205025,57.242661,49.126877,26.879963,43.144764,38.377796,31.940895,10.974827,27.104004,26.866985,20.838387,3.070107,-7.775994,-15.355518,-17.377096,-46.702046,-60.073789,-74.482834,-88.860189,-55.111693,-33.114319,-14.556023,-8.893874,-52.479859,-26.950954,-12.959453,-11.84053,-44.223601,-25.515189,-14.215506,-12.334027,208.877168,96.243593,-101.412993,114.574857
35,14.40017,-2.040727,11.777596,-2.054911,-21.593903,-42.210938,-57.53579,-72.018723,-27.67471,-31.999077,-33.081951,-33.98861,-14.117226,-16.315018,-15.729699,-14.091717,-2.12344,-5.156205,-5.542454,-4.034661,8.406395,5.7155,3.565761,2.148033,-0.579803,-12.186376,-20.368034,-24.670019,-42.177866,-66.935514,-82.163237,-95.415601,-45.16436,-40.159955,-24.184577,-17.194872,-41.674066,-30.899058,-18.211009,-13.390392,-36.404039,-26.716329,-16.240933,-12.45948,37.124462,67.143356,89.693367,111.088726,62.639156,81.671528,95.480152,106.34832,47.175167,67.77943,62.420185,53.493976,31.053028,48.895076,43.507564,36.105343,15.566917,32.880569,31.891422,24.687526,2.498848,-7.784955,-14.999922,-17.009126,-47.36314,-58.836842,-73.011835,-88.033092,-55.817081,-33.260686,-14.192684,-8.896993,-53.247313,-27.518336,-12.938224,-12.031586,-44.650605,-25.780686,-14.194598,-12.363717,221.251219,94.061952,-91.661516,112.379032
36,14.635482,-2.993512,11.217006,-4.066512,-21.983413,-42.955078,-58.200325,-72.718437,-27.684391,-31.280456,-31.756954,-31.830093,-12.776321,-14.982055,-14.995628,-13.56055,0.188679,-2.92955,-4.268932,-3.550918,11.862214,8.876976,5.780835,4.117653,-3.039908,-16.014932,-24.870899,-28.596178,-46.381124,-70.296175,-85.595281,-99.328533,-49.950758,-43.178056,-26.968637,-19.997223,-46.417455,-34.725317,-21.828021,-16.895395,-41.010761,-31.971146,-21.143644,-16.854676,40.082566,70.705456,93.413807,114.876984,65.858895,85.412155,99.411507,110.291703,51.474655,74.229309,68.138626,58.254204,36.061936,55.820137,49.802765,41.272374,21.007027,39.809841,38.332272,29.947838,1.184676,-8.84826,-16.214855,-18.682698,-48.553571,-58.525132,-72.257041,-87.146442,-56.846009,-35.745529,-15.656619,-9.934789,-54.899778,-30.417944,-14.706163,-12.95318,-46.929084,-29.241376,-16.955916,-14.391149,233.881691,90.414108,-82.44952,107.658188
37,14.345124,-6.547112,15.777489,-9.969493,-22.417534,-43.514649,-58.66111,-73.952179,-28.411457,-31.350426,-31.781582,-31.627808,-12.719399,-15.154976,-15.485413,-14.239712,1.042728,-2.324341,-3.989399,-3.724343,13.752044,10.761108,7.081134,5.206787,-6.493424,-21.093706,-31.078835,-35.224461,-50.333163,-71.937174,-87.312739,-101.162335,-54.19847,-46.917389,-31.16075,-24.40816,-50.828157,-39.944171,-27.10229,-21.805022,-45.605258,-38.335181,-27.485448,-22.481769,39.952686,70.806141,93.26255,114.143463,66.455521,86.085388,99.819626,110.789841,52.15329,74.740345,68.360081,58.155167,36.870632,56.413284,50.13176,41.342926,21.777809,40.393147,38.823761,30.558735,0.592045,-9.738385,-17.130793,-19.417182,-49.418157,-62.273401,-75.909577,-90.30618,-57.50449,-38.080472,-17.113929,-10.523227,-56.19816,-33.331686,-16.662181,-13.721608,-49.247806,-33.33654,-20.341296,-16.741524,246.30851,83.163084,-68.590336,96.984783
38,11.68856,-13.748865,14.706173,-15.428729,-22.774681,-44.031509,-58.858314,-74.760658,-28.825985,-31.73259,-31.952488,-31.526779,-11.706344,-13.934189,-14.801399,-14.499492,3.549236,0.600311,-1.984096,-3.050514,17.951157,15.825234,11.061756,8.25824,-9.333906,-26.3274,-38.046597,-43.038092,-57.365263,-79.791913,-96.513242,-111.2886,-61.056946,-51.766538,-34.334999,-26.793121,-57.009003,-45.395955,-31.170914,-25.362611,-50.821358,-44.140152,-32.000589,-26.458539,38.814926,70.131924,92.276745,111.987957,65.680401,84.804943,97.861118,108.798008,51.378639,71.851353,65.271915,55.502815,36.053364,53.713245,47.642452,39.335976,20.89769,37.776157,36.419209,29.180008,-0.29839,-11.296417,-18.956024,-21.514844,-50.848741,-66.942893,-80.537073,-94.620687,-58.994071,-42.290177,-20.737487,-12.906423,-58.648769,-38.156629,-20.301448,-15.196122,-53.090923,-39.742269,-26.030763,-20.686975,256.206899,68.667422,-55.674334,80.809257
39,6.671551,-17.325375,10.517338,-19.216994,-24.223549,-44.679749,-59.380829,-76.168831,-29.976608,-33.149162,-33.495438,-32.697716,-12.658585,-14.846924,-15.594818,-15.372894,3.185532,0.703262,-2.02446,-3.538651,18.435997,17.149704,12.137855,8.983772,-13.554382,-32.586922,-46.044578,-51.969925,-62.170068,-84.322189,-101.890422,-117.569243,-65.032379,-60.252829,-42.185171,-33.08363,-61.033521,-54.763779,-39.700816,-32.267641,-55.080022,-53.269808,-41.157169,-33.909862,38.974731,70.666557,92.350548,111.161407,64.429779,82.440056,94.979599,105.362571,50.007454,68.778259,63.353828,54.51828,34.474193,51.465545,46.544128,38.698551,18.910686,35.157955,34.287586,27.553024,-2.821759,-14.262795,-21.441305,-24.136408,-53.966433,-72.398332,-86.47519,-100.708185,-61.014143,-50.314983,-27.506727,-18.163902,-60.646636,-45.764261,-26.376738,-19.359829,-55.679432,-46.603925,-31.981569,-25.080294,261.350412,50.792132,-46.685034,61.042348
40,-0.963707,-26.504228,9.224052,-26.654306,-24.024948,-43.574364,-58.157364,-75.544304,-30.668793,-34.083023,-34.686905,-34.381096,-13.729797,-14.957932,-15.316864,-15.396469,2.04348,0.551765,-2.018166,-3.84613,17.159111,16.996536,12.333687,8.962395,-15.369579,-34.857836,-49.646979,-56.577957,-64.558531,-88.688007,-107.5007,-124.140861,-66.0475,-65.941116,-46.851921,-36.356901,-61.9352,-59.935512,-43.581835,-34.774158,-55.978107,-58.064925,-45.705667,-37.310241,36.52684,66.86602,87.305603,104.704399,61.878639,78.637528,89.669152,98.780686,46.306595,62.829598,60.063194,54.374474,29.561257,45.149163,42.009316,35.972306,13.000157,28.373749,29.073899,24.56955,-3.974219,-16.795785,-23.980661,-26.763277,-59.143989,-83.506922,-98.308314,-111.674314,-64.773718,-62.793685,-44.70418,-36.398703,-63.141266,-51.418839,-31.066367,-21.981887,-57.52924,-51.083658,-35.78989,-27.27265,259.469994,23.850615,-38.377693,33.950753
41,-5.24334,-25.634387,3.884663,-27.056301,-25.778411,-44.849922,-59.685081,-78.499832,-31.256881,-36.653251,-38.508316,-38.492431,-14.447822,-19.383544,-20.072204,-19.767837,0.878609,-3.975677,-6.692962,-7.732681,14.997139,12.043328,6.962334,4.107422,-17.395968,-38.359263,-55.136677,-64.067281,-67.927704,-92.971383,-110.964737,-126.976903,-69.324013,-73.773618,-54.086068,-42.523631,-65.675342,-67.703531,-50.462418,-40.477691,-59.872897,-64.33689,-51.727351,-42.557939,35.212406,64.135998,82.69305,96.59206,61.034763,77.016346,87.153477,95.436413,43.990688,58.532513,58.953449,56.526134,25.85313,39.746235,38.243717,34.005855,7.96328,22.058819,23.942676,21.693935,-6.270989,-20.94117,-28.808414,-32.605607,-62.587229,-91.495422,-107.838842,-121.744176,-66.97706,-72.638776,-60.656309,-55.017586,-64.267241,-57.925264,-39.169348,-29.384594,-57.781756,-54.803917,-40.447619,-31.620731,253.668966,-1.297852,-35.050718,7.380372
42,-14.129127,-30.004408,-8.328936,-27.70297,-26.160873,-45.298668,-60.273949,-79.262306,-32.080788,-38.689751,-41.046959,-41.221779,-14.962761,-22.629273,-23.198067,-22.00898,0.563507,-6.693352,-9.268501,-9.321877,14.973976,9.266533,4.051002,2.151237,-16.293111,-38.075081,-55.77412,-65.139262,-69.956628,-99.259823,-118.41142,-135.128642,-70.724142,-77.048215,-55.817123,-43.833104,-66.941547,-69.774152,-51.102232,-41.199066,-60.677122,-65.552687,-52.080322,-43.199347,36.391932,64.715939,82.518179,94.766997,60.829313,75.610743,85.254399,92.95162,42.918039,57.131075,61.200932,62.063376,23.850483,37.974192,38.428065,35.473406,5.047858,19.295889,22.413151,21.212546,-8.557252,-24.339786,-32.827343,-37.714297,-66.580267,-96.13655,-113.117035,-126.847894,-69.734425,-84.067103,-77.385244,-73.335722,-65.808576,-64.281915,-46.09004,-35.261609,-57.935276,-57.816273,-43.829155,-34.709686,239.165377,-30.134933,-43.754116,-19.155271
43,-19.683197,-27.024944,-15.148052,-28.403782,-26.922867,-46.656189,-62.67469,-82.61824,-34.09948,-41.432831,-44.80735,-45.821228,-17.173142,-27.3452,-27.177841,-24.402489,-1.735863,-11.23336,-12.974602,-11.464531,12.662567,4.215752,-0.190842,-0.223686,-15.424564,-37.903851,-55.877908,-64.861293,-68.391913,-97.722608,-116.75851,-133.701683,-68.963953,-78.2499,-56.674068,-45.112934,-65.709555,-70.845078,-51.688664,-42.316563,-59.98938,-65.533119,-52.026244,-43.858039,37.548391,65.491207,83.350863,95.644312,59.452738,72.709013,82.366688,90.008417,40.491423,55.457319,63.335232,67.290819,20.67905,36.720297,38.961622,36.824163,1.140902,17.015299,21.332073,20.269564,-9.93058,-26.370028,-35.157124,-40.584601,-70.420129,-100.804467,-117.71691,-129.861172,-72.121795,-94.535589,-92.511847,-89.757926,-66.475409,-68.200889,-50.196013,-39.230036,-56.648455,-57.887851,-43.871472,-35.337869,219.585257,-55.829708,-58.799091,-46.228884
44,-22.634262,-24.06119,-20.951843,-26.833116,-27.42469,-47.643471,-63.888382,-83.471398,-33.121697,-44.362839,-48.357903,-48.812874,-16.635887,-32.97805,-33.09137,-28.811554,-2.610947,-18.39592,-20.101776,-16.782852,9.458999,-4.042076,-8.77002,-7.64399,-13.280266,-35.421376,-53.943798,-63.933934,-67.496155,-96.196935,-110.955249,-125.153114,-68.721524,-77.007549,-55.364607,-44.679523,-65.835282,-69.569552,-50.155253,-41.406973,-60.139795,-63.96125,-50.257777,-43.246299,35.02672,61.861027,79.708677,91.542188,55.513235,67.915804,76.568996,83.503435,36.02429,51.801229,59.249782,62.994741,16.256241,32.980551,35.009462,32.862139,-3.082667,13.459253,18.125107,17.224382,-10.940416,-29.144172,-39.462953,-45.430771,-71.783295,-104.2409,-121.544945,-134.030711,-73.215827,-94.809508,-93.4428,-91.76889,-67.376216,-68.093527,-50.657582,-40.766082,-57.672463,-58.218386,-44.17786,-36.394765,197.560209,-78.431214,-79.14172,-71.602316
45,-29.667114,-17.101993,-28.06929,-20.529357,-27.783623,-48.320046,-63.9646,-82.098633,-34.788208,-46.315934,-51.083794,-52.34681,-18.607842,-37.500115,-37.950394,-32.83619,-4.490822,-23.39431,-24.82251,-19.939522,8.006836,-9.102562,-13.739708,-10.826958,-12.116067,-33.286451,-51.223621,-61.96593,-65.624364,-93.459863,-107.951468,-122.136519,-67.416216,-77.606439,-56.671243,-45.952758,-64.99237,-70.396173,-50.925648,-41.908183,-59.565003,-63.396795,-49.593265,-42.657428,34.045732,60.743568,79.213663,91.80879,50.698339,62.394819,71.020763,77.725782,31.625101,47.49817,53.234367,54.96187,12.779995,29.572454,31.048811,28.173563,-5.901312,10.391824,14.631809,12.848688,-11.797462,-31.346254,-43.200533,-49.649374,-69.386499,-100.734356,-118.560794,-132.258189,-70.585074,-88.626476,-82.536461,-79.462829,-65.550923,-68.042651,-51.091054,-42.636063,-57.200353,-59.267494,-45.304203,-38.456722,168.976468,-93.748157,-106.127637,-90.346623
46,-34.49762,-12.642822,-30.858365,-17.941638,-27.767441,-50.358742,-66.47216,-83.27433,-37.661797,-48.661881,-53.86306,-56.730606,-21.372162,-38.678833,-39.865517,-36.355843,-6.571976,-24.479736,-26.197266,-21.977623,7.40728,-9.354927,-14.029038,-11.595017,-10.436351,-30.65045,-46.786753,-56.03791,-65.28739,-94.104022,-108.63976,-122.181505,-66.663389,-78.023887,-59.63275,-50.5183,-63.770352,-69.291018,-49.755355,-40.653668,-57.730887,-61.2937,-47.099309,-39.974429,30.360541,56.167271,75.468836,90.839865,42.928797,53.105181,60.937649,67.081541,24.067126,38.176604,42.173962,42.497595,6.110104,21.420931,22.992686,20.249857,-11.668859,3.467578,7.701645,5.448035,-10.928375,-31.513233,-44.038445,-49.77054,-68.663259,-100.82386,-118.813535,-132.955212,-69.42441,-84.693246,-72.319626,-66.17168,-64.333578,-66.267462,-47.013724,-38.82483,-56.323963,-58.324161,-42.909518,-36.241111,135.93825,-105.103706,-135.5266,-107.000988
47,-31.816864,-2.945847,-33.20395,-8.757826,-28.219551,-51.135773,-67.090633,-84.207058,-37.16391,-47.583458,-53.957016,-58.169014,-21.314255,-36.938507,-40.616684,-39.832123,-6.849175,-23.042954,-27.14724,-25.281899,6.735626,-6.947823,-12.30027,-11.49575,-9.918444,-28.631119,-43.415313,-52.221462,-65.826378,-93.624354,-107.193232,-119.198071,-67.886378,-82.822944,-69.681808,-62.757354,-65.375989,-74.827862,-59.382892,-51.611853,-59.301909,-65.833534,-55.368532,-50.181692,27.026229,51.267448,70.75621,88.086525,36.983104,45.745388,52.173923,57.301838,18.851932,30.649337,32.467506,31.495983,1.93143,14.814022,16.231361,13.962993,-14.921563,-1.739022,2.295604,0.183975,-11.856777,-33.807468,-47.512839,-53.073859,-68.360402,-101.158074,-119.948428,-135.849533,-68.610503,-81.263453,-63.270723,-54.599393,-63.831355,-66.267464,-45.644994,-37.602759,-56.573239,-59.337079,-43.199644,-36.456922,106.39016,-107.334656,-166.461776,-115.043917
48,-29.445786,5.9099,-34.440068,1.404822,-29.296136,-52.628156,-67.870851,-84.152429,-38.722286,-49.626422,-57.243925,-62.708799,-22.961448,-38.392953,-44.17238,-45.24044,-8.555557,-24.615863,-30.62741,-30.282045,4.932713,-7.41608,-13.766504,-14.628547,-9.407014,-26.851039,-40.661993,-49.387491,-68.26449,-95.612679,-108.145948,-118.543633,-71.17725,-87.775808,-77.809131,-71.224203,-68.647332,-79.811918,-66.515685,-58.255323,-62.003619,-69.979204,-61.411496,-56.213808,23.990696,45.922394,64.603203,82.771855,32.399552,39.802391,44.322064,47.82676,15.310993,24.203751,23.538437,21.284718,-0.686336,8.558522,9.726849,8.363903,-16.716751,-6.624904,-2.966491,-4.318359,-13.765279,-37.531258,-53.05349,-58.986664,-68.359185,-101.446405,-121.698058,-140.541993,-68.026894,-77.189386,-53.909722,-43.142629,-63.612601,-66.697472,-45.448933,-37.482667,-57.160665,-61.0535,-44.719578,-37.630556,79.950388,-100.869459,-197.89583,-113.083798
49,-30.2238,10.812553,-31.903244,9.566966,-29.552496,-54.373896,-69.42045,-85.243006,-44.301739,-52.799412,-61.984125,-70.465731,-27.600907,-39.522085,-46.320013,-49.080483,-11.366593,-24.055447,-31.014702,-32.172804,4.790874,-5.162716,-11.768378,-13.617943,-8.173566,-24.945437,-37.083316,-44.307653,-70.743902,-99.67649,-115.396944,-126.987891,-74.036075,-90.132343,-80.025545,-72.319325,-70.676022,-80.789223,-66.857387,-57.345054,-62.65554,-69.458284,-60.057375,-53.863714,22.129406,42.307846,59.891247,78.607315,28.982186,34.181179,37.236615,39.817017,12.38538,17.049763,17.339093,17.230076,-3.380985,1.718445,3.997605,4.635876,-19.192405,-12.863891,-8.804397,-8.670662,-14.538115,-39.653329,-56.552583,-63.146977,-69.677877,-103.386204,-124.032813,-143.125206,-68.49544,-79.787556,-56.081572,-44.081692,-63.482998,-68.017155,-46.292761,-37.433244,-56.404308,-61.340086,-44.931665,-37.452906,52.7039,-89.875631,-226.821762,-103.335557
50,-23.792885,16.597029,-29.314155,18.832122,-31.316843,-56.524481,-71.629938,-87.608648,-46.197647,-56.049225,-66.341955,-75.465963,-29.536079,-41.304205,-47.78718,-50.79348,-13.881706,-26.280132,-33.606777,-35.802504,1.464065,-7.871166,-15.633974,-19.950245,-7.733668,-24.006161,-35.162023,-41.399752,-72.575716,-101.343035,-116.231785,-126.878476,-76.085809,-92.084524,-83.438463,-77.316215,-72.025905,-81.315695,-67.169107,-57.62881,-63.279738,-69.858204,-60.549331,-54.270217,20.099842,38.246807,54.224201,72.487896,25.642559,28.339622,29.638847,31.001335,9.281089,9.745216,10.852192,12.964622,-6.379566,-5.023396,-1.75232,0.865356,-21.936241,-18.988301,-14.455399,-12.753834,-16.461338,-42.656153,-60.901053,-68.361411,-71.628847,-106.41998,-127.491077,-146.909801,-69.85984,-82.296997,-58.447947,-45.274571,-64.2572,-69.465172,-47.716186,-38.04939,-56.43962,-61.761749,-45.527337,-37.658646,31.584326,-73.354364,-253.462606,-84.579197
51,-17.843353,23.493796,-25.235081,26.662007,-31.958296,-57.014815,-71.929488,-87.839499,-49.996983,-60.953053,-71.834936,-80.994147,-33.278881,-46.114523,-51.363447,-52.958531,-17.646561,-30.543972,-37.308129,-38.990862,-2.477726,-12.016308,-19.588137,-23.634041,-5.099148,-20.176289,-31.070166,-37.675362,-68.991123,-98.697702,-114.50251,-126.262015,-73.373005,-85.703227,-74.245845,-66.608848,-70.142878,-77.089682,-62.848967,-53.310189,-62.305489,-68.545637,-59.073558,-52.286405,18.078163,34.327343,48.904484,66.300007,21.539852,21.652943,21.558037,21.947147,5.677723,3.060001,5.064915,8.884232,-9.683979,-10.933971,-6.843086,-2.668213,-24.779446,-24.804451,-19.847591,-16.784946,-18.38805,-45.121076,-64.407529,-72.923013,-73.065737,-108.2601,-129.633542,-149.288999,-70.544292,-82.887103,-59.058483,-44.814686,-64.512073,-69.518803,-48.076191,-37.746533,-56.283445,-62.162488,-46.370475,-38.03157,16.565146,-49.870124,-275.873514,-57.926746
52,-14.440556,28.878476,-18.65728,32.143047,-33.420748,-59.905809,-75.333452,-89.856016,-55.689651,-68.657867,-79.934767,-89.073892,-38.394539,-53.528784,-56.285711,-55.367935,-22.218967,-37.338501,-41.85815,-41.304571,-6.359264,-19.19466,-26.105261,-28.799915,-3.39987,-18.547925,-29.580286,-36.400605,-65.723554,-96.066972,-112.218792,-124.942601,-70.236526,-77.305458,-60.318652,-50.010436,-66.935503,-68.723144,-50.235476,-38.563352,-59.370888,-62.269147,-48.800312,-39.309717,16.346752,30.610405,43.240929,59.200676,16.793907,14.227398,12.548676,11.382431,1.167194,-3.659431,-0.340897,4.971657,-13.984474,-16.982494,-11.777058,-6.439568,-28.54818,-30.948429,-25.303081,-21.10231,-19.060253,-46.033636,-65.992524,-75.381343,-73.558641,-108.418644,-129.916393,-149.437483,-70.315914,-80.547877,-56.931426,-42.214796,-63.474289,-67.067006,-46.174618,-35.546341,-54.436166,-60.069125,-44.739727,-36.0422,4.583279,-20.956811,-292.072105,-25.748862
53,-10.407326,31.506693,-11.092667,36.389412,-33.481853,-60.158615,-75.679561,-89.408352,-58.031124,-72.356861,-83.607193,-92.563614,-41.483162,-57.313053,-57.112381,-53.897781,-25.898048,-41.644569,-42.883129,-39.909679,-10.34777,-25.065879,-29.744396,-30.174545,-1.979039,-16.559052,-28.018354,-35.239688,-61.205826,-91.805489,-108.27659,-121.961371,-66.059646,-68.761933,-49.046919,-37.886199,-63.486481,-60.066209,-39.587392,-27.48052,-57.224965,-55.977959,-40.430921,-29.931357,15.125714,27.638981,38.341324,52.601452,11.980179,6.892983,3.78637,1.01833,-3.4972,-9.69936,-4.762825,1.63559,-18.298931,-22.313427,-15.782146,-9.802528,-32.208366,-36.470924,-29.941349,-24.883644,-19.349596,-46.201615,-66.308077,-76.268959,-73.260485,-107.586186,-128.980867,-148.136509,-69.183429,-77.6099,-54.586604,-40.149451,-61.491477,-64.183606,-43.980755,-33.512732,-51.651119,-57.506985,-42.769298,-34.095916,-4.078463,10.305066,-301.419188,10.395734
54,-0.93045,33.68301,-1.613182,39.791138,-34.234097,-61.084923,-77.218643,-90.764866,-59.782139,-75.361073,-86.126335,-94.805946,-44.189427,-59.702294,-57.886025,-54.159783,-29.572792,-44.508785,-43.243458,-38.987721,-14.729931,-29.833317,-32.423733,-31.163612,-0.549042,-14.337952,-26.062941,-33.643817,-55.906779,-86.847435,-103.462531,-117.793021,-60.967578,-62.813804,-44.614772,-35.565514,-59.191981,-52.914169,-32.789951,-21.910658,-54.03266,-51.017672,-35.581551,-25.571229,14.486264,25.153187,34.213394,46.778401,6.697003,-0.580581,-5.031612,-9.228435,-8.862384,-15.907058,-9.248142,-1.794983,-23.208378,-27.928493,-19.887073,-13.06343,-36.182235,-42.424347,-34.787246,-28.477111,-19.763163,-46.327987,-66.154327,-76.200397,-72.868407,-106.227727,-127.302651,-145.832422,-67.988216,-73.668559,-51.768828,-38.31216,-59.554765,-61.012346,-42.147959,-32.269697,-48.876649,-54.925034,-41.355239,-33.113146,-3.300728,43.079465,-301.324185,49.278261
55,8.286198,33.550703,7.165181,38.656635,-35.241835,-63.627314,-80.912241,-95.047749,-62.374466,-78.45666,-88.947276,-97.499056,-46.809397,-62.202153,-60.594252,-56.850838,-32.174355,-46.015486,-43.83783,-38.831446,-17.407408,-31.505488,-31.983931,-28.530968,0.811404,-12.700837,-24.65203,-32.278608,-51.924832,-82.477577,-98.46964,-112.234705,-57.265514,-56.415967,-38.35076,-29.219986,-55.898501,-46.646709,-27.672086,-17.447993,-51.038151,-45.953767,-31.173393,-21.443318,14.571224,24.889183,33.815757,45.641315,2.947311,-5.386551,-10.713444,-16.059597,-13.011006,-19.241181,-11.025193,-3.047516,-27.081769,-31.041539,-21.406094,-13.84377,-39.350911,-46.154618,-37.201939,-29.711209,-18.971591,-45.216504,-63.816334,-73.313034,-71.722282,-103.366176,-123.687477,-141.518365,-66.109336,-68.365851,-46.957279,-34.268088,-56.830997,-56.077327,-37.985605,-28.603174,-45.298694,-50.333594,-37.349792,-29.596806,6.355814,74.848307,-292.78866,86.153035
56,14.174469,28.372536,16.324699,35.91646,-35.950671,-65.030863,-82.31745,-96.465718,-61.175091,-76.71171,-86.91469,-95.150706,-45.761405,-59.124493,-58.246279,-54.903981,-31.612084,-43.020453,-40.980549,-36.208769,-17.987017,-29.371943,-29.131789,-25.551419,1.254944,-11.82442,-23.49962,-31.240194,-50.129031,-78.828455,-93.876478,-106.426357,-55.037534,-53.04479,-37.386657,-30.027725,-52.611175,-41.622097,-24.260542,-15.447743,-46.689403,-39.362133,-26.376306,-18.367364,15.283298,25.47797,34.460014,46.119255,1.17873,-7.402153,-13.420017,-19.604324,-15.187798,-20.212143,-10.892315,-2.659962,-28.9594,-31.536472,-20.817799,-13.0509,-40.564064,-46.501877,-36.41573,-28.285938,-17.401859,-43.335272,-60.681611,-69.418152,-69.717271,-99.646362,-119.075357,-135.852011,-63.895337,-64.199754,-44.100649,-32.506559,-53.860605,-51.668706,-34.827757,-26.098527,-41.605636,-44.995018,-32.627855,-25.481035,21.13559,101.088379,-275.858654,119.937031
57,23.039302,22.569559,23.569599,31.158381,-36.605512,-66.33851,-83.983263,-98.92773,-60.667991,-74.768543,-84.329733,-92.094228,-45.369535,-55.287208,-54.74109,-51.787468,-31.479744,-39.295858,-37.297393,-33.090093,-18.7506,-27.022504,-26.36511,-23.05759,1.440702,-10.645848,-21.532393,-28.740784,-47.840968,-74.929089,-89.20358,-100.729541,-52.207361,-49.692103,-36.503154,-30.380569,-48.763494,-37.129155,-21.62659,-14.000322,-41.901776,-33.411811,-22.508914,-15.826217,16.951515,28.511787,38.474259,50.415264,1.880196,-6.145031,-11.715008,-17.407459,-15.147217,-17.880386,-7.914596,-0.562958,-28.823341,-29.263412,-17.991817,-10.96764,-39.987442,-43.239086,-32.362461,-24.679871,-16.584369,-42.085622,-58.179163,-66.03862,-67.84669,-96.139204,-114.154176,-129.916469,-62.013339,-62.421935,-43.470524,-32.961635,-51.417925,-49.220209,-33.443609,-25.657166,-38.540432,-40.866422,-29.300045,-23.140485,44.323602,121.423061,-252.140345,148.860535
58,30.766388,16.761958,27.068127,23.564804,-38.19774,-69.239805,-87.836557,-103.681503,-60.75,-72.636326,-81.472395,-88.723589,-44.552084,-50.492271,-50.738279,-48.579826,-29.998066,-33.748575,-33.216339,-30.748151,-17.349889,-22.1676,-22.663793,-21.111488,1.582154,-9.770233,-19.284456,-25.39616,-45.316963,-70.876521,-84.620069,-95.155906,-48.428928,-46.38501,-34.881137,-29.501299,-43.358197,-33.593987,-19.653029,-12.871617,-34.884379,-28.380258,-19.571571,-13.890224,20.632427,35.149795,46.883434,59.95483,7.912262,-0.263134,-5.504997,-10.880619,-10.235344,-10.614407,-0.878964,5.123131,-24.576622,-22.509041,-11.836968,-6.096245,-35.795723,-35.964443,-25.646885,-19.506821,-15.046396,-39.736761,-54.34631,-62.052705,-65.042086,-92.900852,-109.93403,-124.498285,-60.103171,-57.42726,-39.296882,-30.359325,-49.221674,-44.337383,-30.103851,-24.1654,-35.974389,-34.766705,-24.069212,-19.143307,74.975841,136.162557,-225.186367,170.402877
59,33.194184,8.992768,29.455364,12.607297,-38.285517,-69.945792,-89.099745,-105.729058,-58.972344,-68.326138,-76.190558,-82.471499,-42.14086,-45.343357,-45.562529,-43.234108,-26.931416,-28.309496,-29.031498,-27.876223,-14.084502,-16.512183,-18.14062,-18.096051,1.575905,-9.179699,-17.591716,-22.625206,-43.718439,-68.554458,-82.178695,-92.122327,-45.919311,-42.964059,-30.422974,-24.016912,-39.8782,-31.94346,-18.84709,-12.496455,-30.704722,-25.780596,-18.306551,-13.400451,24.931206,42.884193,56.672424,70.99728,16.110558,9.047321,6.201405,2.938133,-2.452927,-2.073601,5.789337,9.864761,-17.273941,-13.98262,-4.866325,-0.431774,-28.680702,-26.078362,-16.83997,-12.159313,-14.222355,-37.255209,-50.773646,-59.718774,-58.956823,-82.567476,-97.651249,-110.947725,-53.77232,-49.194806,-33.545547,-26.468369,-42.620035,-35.719908,-23.425828,-18.767346,-29.288381,-25.517425,-16.348668,-12.315872,107.778168,143.882541,-196.12286,181.73739
60,35.37331,4.257277,31.400688,4.298459,-37.598179,-69.187866,-88.942486,-106.173878,-57.161637,-64.785982,-71.203148,-76.223065,-40.125824,-42.319474,-42.035694,-39.475617,-24.411999,-25.329827,-26.466351,-26.013165,-10.802834,-13.030701,-15.59792,-16.622841,1.486821,-9.321823,-17.207419,-21.177757,-43.469915,-69.213813,-82.894617,-92.693836,-45.408267,-42.432246,-27.76954,-19.985202,-39.206025,-32.905503,-19.305244,-12.840911,-30.063064,-26.559423,-18.980674,-14.236298,28.782234,50.044121,65.478081,80.722012,25.894684,21.183758,20.249565,18.51701,8.276791,10.016991,15.839676,17.991371,-5.877926,-1.182289,5.869629,8.716118,-16.376793,-11.482372,-3.976925,-1.214825,-12.685128,-34.043472,-46.993466,-56.399356,-53.283739,-76.038791,-90.428539,-102.703798,-48.548779,-48.63917,-39.039506,-35.303396,-38.773621,-35.855402,-28.419991,-25.972508,-27.523863,-26.067566,-20.54335,-18.103801,142.812653,147.420793,-165.060997,185.316824
61,32.923668,-1.887827,31.614155,-3.159855,-34.751736,-65.093354,-84.50401,-101.776669,-52.35054,-58.351782,-63.36541,-67.242062,-34.958176,-36.14534,-35.56342,-33.450188,-18.728543,-19.198746,-20.544491,-20.808781,-4.075035,-6.618576,-10.00874,-11.829071,0.327395,-12.114665,-20.249924,-23.393227,-45.447547,-71.911016,-85.609666,-95.747438,-47.597103,-44.285926,-27.640445,-19.125316,-41.664297,-35.783703,-20.98375,-14.162932,-32.967242,-30.137193,-21.079565,-15.966866,33.488926,58.395939,75.427608,91.985607,34.590374,31.004082,32.693928,33.118881,16.758156,17.718166,21.327393,21.570442,2.192345,5.955757,10.780346,12.028576,-8.210117,-3.436146,2.244839,3.671196,-11.524517,-31.063446,-43.472828,-53.42684,-50.542614,-72.837297,-86.659627,-98.319266,-46.562497,-46.154117,-38.616127,-36.146265,-37.756357,-33.851453,-27.680147,-25.444875,-27.654774,-25.889169,-21.422774,-18.70504,175.428818,144.994126,-133.754345,181.618129
62,29.170211,-6.798597,28.151699,-7.393427,-32.307575,-60.471576,-79.604805,-96.060676,-48.080223,-52.655113,-55.510288,-57.928585,-31.495548,-31.983158,-30.708194,-28.618446,-15.674057,-16.101253,-17.078006,-17.460685,-0.932979,-3.950649,-7.100441,-8.949794,-2.284586,-15.596465,-24.090281,-27.330593,-47.938707,-75.308042,-89.800558,-100.917522,-49.596967,-48.404774,-30.975112,-21.232045,-44.103734,-40.065427,-24.955858,-17.488936,-36.151371,-34.682273,-24.897994,-19.241138,36.6492,63.227314,81.162746,98.815876,42.093292,40.986488,44.687004,46.864277,25.191605,28.604118,31.220078,30.403267,10.634937,16.483852,19.838608,19.725323,-0.231434,6.031403,10.362717,10.439701,-11.090781,-29.582121,-42.244092,-53.168031,-49.240655,-69.141602,-82.894333,-94.609553,-46.827029,-46.188283,-38.405699,-34.434493,-39.62548,-35.030564,-28.050748,-24.439368,-30.432702,-28.763076,-23.898107,-20.053538,204.290788,137.557107,-105.910887,173.58628
63,23.706963,-10.92915,29.872902,-12.841239,-28.915066,-54.413601,-73.082611,-89.245079,-44.048492,-48.286285,-49.416653,-50.452137,-29.265072,-31.246754,-29.421421,-27.443069,-14.659676,-17.077549,-17.358295,-17.03508,-0.78281,-5.119183,-7.925148,-9.555508,-6.567619,-20.964613,-30.161507,-34.392228,-50.583958,-79.216448,-95.224146,-107.552072,-51.384913,-54.470189,-38.853686,-29.091273,-45.898429,-45.763057,-31.98516,-24.176419,-38.413795,-39.494674,-30.515318,-25.054921,36.764214,64.179508,82.657585,100.922207,44.546802,47.318436,53.181267,57.425983,28.511158,34.290825,34.981613,32.435326,14.561439,22.164288,23.790001,22.410049,3.66013,11.24667,14.863449,14.325405,-11.277366,-29.764649,-42.954636,-53.490454,-50.978546,-70.85601,-84.770693,-97.004753,-49.508726,-48.861341,-39.93564,-34.657616,-43.485134,-37.90247,-29.125835,-23.636137,-35.133378,-33.135752,-27.056054,-21.945553,227.641279,126.051048,-76.394457,160.168132
64,19.439735,-17.714211,24.460636,-12.801768,-26.121025,-49.92675,-67.21733,-82.973579,-39.152778,-42.809463,-43.086845,-43.241294,-24.235633,-26.553703,-25.036537,-23.486457,-9.390884,-12.298759,-12.878242,-12.828941,4.874497,0.421418,-2.606643,-4.319778,-7.617648,-23.887727,-34.322342,-39.122757,-53.710681,-82.678262,-99.746694,-113.445485,-54.392992,-57.293829,-40.593479,-30.338502,-49.361081,-49.154161,-34.456983,-26.111594,-42.445331,-43.780826,-33.4119,-27.359946,37.529732,65.147976,83.827274,103.015629,46.310726,53.021141,59.563316,64.058075,30.614754,42.477665,43.588314,39.891667,16.875584,29.466911,30.90033,27.953156,5.867649,17.324192,20.82946,18.719582,-11.707958,-30.901091,-44.481205,-53.525794,-57.953119,-79.329463,-95.155977,-109.589993,-58.505094,-58.430771,-45.855652,-38.078681,-53.334417,-47.676091,-36.117495,-29.022724,-44.914304,-43.448337,-35.311763,-28.695237,246.600168,107.676262,-52.414667,146.705789
65,12.818779,-19.127029,19.338192,-12.761167,-23.649192,-45.652977,-61.497093,-76.959754,-34.331657,-37.520484,-37.507347,-37.287345,-19.325546,-20.588264,-19.421218,-18.169853,-4.411834,-6.376716,-7.392631,-7.770011,9.866822,6.585938,3.408074,1.547654,-10.059297,-27.598612,-39.104214,-44.562661,-56.707966,-84.490718,-102.564156,-117.595459,-57.413718,-59.708468,-42.819854,-32.496204,-52.459062,-51.300612,-36.277873,-27.939024,-45.73359,-46.617405,-35.467053,-29.2817,38.560799,65.452904,83.549103,103.170296,46.270397,54.970276,62.317795,67.574226,30.087147,46.659313,48.161144,43.296925,15.587368,32.146511,33.555943,29.03896,3.266121,18.131985,21.95327,18.703789,-14.165594,-34.145551,-48.479828,-57.587131,-65.59369,-85.665655,-102.202094,-118.1018,-67.691685,-63.389089,-43.8664,-31.971418,-62.28091,-52.46436,-35.219724,-25.137024,-52.10961,-47.971067,-35.960772,-26.840051,258.531189,88.305285,-33.964233,133.700674
66,10.444268,-18.697364,16.416561,-15.161177,-23.102051,-44.024918,-59.545853,-75.384316,-33.011284,-36.305443,-35.967819,-35.405411,-18.217781,-19.091721,-17.542992,-15.906075,-3.345772,-4.893128,-5.712982,-5.943833,10.950988,8.033935,5.027046,3.41082,-11.307458,-29.326098,-41.784158,-47.836155,-58.093405,-85.716266,-105.153962,-121.645119,-58.451829,-61.774563,-44.045402,-33.275482,-53.635148,-53.038318,-37.139329,-28.794069,-47.144254,-48.299653,-36.472393,-30.341578,36.465534,61.941937,79.696278,99.538182,44.541847,55.938229,63.47826,69.085247,28.546028,52.286408,53.354176,46.74979,14.398339,37.367958,38.23225,32.131668,1.766316,22.003533,25.909836,21.157494,-14.985695,-36.162727,-51.335396,-59.787435,-69.432145,-90.634791,-107.887331,-124.795008,-72.193247,-66.507207,-43.715575,-30.657944,-66.906423,-56.258454,-36.662214,-26.652077,-56.370821,-51.15695,-37.410728,-28.438208,267.836088,69.692633,-18.687041,118.624209
67,6.502762,-16.435527,13.583313,-15.886553,-22.017083,-42.740136,-57.748101,-74.72406,-31.732041,-35.820809,-36.194642,-35.777939,-16.108315,-17.463845,-16.262444,-14.943581,-0.593331,-2.336472,-3.4861,-3.998795,14.333267,11.697097,8.005645,6.026893,-10.203589,-29.620221,-43.546508,-49.716683,-59.408645,-87.336757,-107.547994,-124.943616,-60.596013,-61.781059,-42.244099,-31.811256,-56.104819,-53.663776,-36.222372,-28.351732,-49.796187,-49.42947,-36.152705,-30.413276,35.427395,60.386753,77.96584,97.873776,42.290348,54.89835,62.516545,67.989384,25.715115,52.434735,52.030026,43.806553,11.723625,37.254399,36.981549,29.941143,-0.498985,21.801567,25.339543,19.829716,-14.624752,-36.675793,-51.953815,-59.496529,-72.232607,-96.47412,-114.573259,-132.018238,-74.551977,-66.988916,-42.860245,-31.064638,-68.62156,-56.320217,-36.173707,-27.592808,-57.787907,-51.384871,-36.806284,-28.545703,272.924155,53.703429,-6.518423,103.183979
68,4.15583,-13.797154,7.401684,-11.369381,-21.833427,-43.232414,-57.689575,-75.014374,-30.932053,-35.400124,-36.41304,-36.255272,-13.572075,-14.673637,-14.080811,-13.013947,3.265022,2.061676,0.113869,-1.192818,19.674133,17.370392,12.958008,10.664177,-7.131962,-27.859705,-43.061359,-48.729288,-61.336252,-89.615835,-109.774887,-127.740502,-63.831518,-60.795398,-37.484741,-26.297895,-60.205824,-53.513321,-33.351638,-25.455872,-54.368292,-50.908818,-34.955037,-28.655655,34.932587,58.964813,76.318771,96.134285,40.487663,53.640129,61.326324,66.744026,23.847313,53.420059,52.814507,44.126724,10.016235,38.157257,37.740303,30.307617,-2.00172,22.566742,26.301865,20.458237,-14.223034,-36.471016,-52.014225,-59.605672,-73.009353,-97.025502,-115.507061,-133.406412,-74.971441,-68.769705,-44.381448,-32.635334,-68.870216,-57.989936,-37.731472,-29.762371,-57.814243,-52.659949,-37.881581,-29.894783,275.570864,40.562678,-0.62586,92.471001
69,0.567467,-5.218731,5.835686,-8.642051,-21.482392,-42.887307,-57.540116,-75.328354,-31.212342,-36.138863,-37.454659,-37.601853,-13.931191,-15.029183,-14.286782,-13.133011,2.821884,1.750007,-0.00174,-1.078949,19.205864,17.005165,12.582184,10.36116,-7.228213,-28.276909,-43.885752,-49.478561,-62.010968,-90.598463,-110.933275,-129.153024,-64.688879,-61.16792,-37.771498,-27.035195,-61.059919,-53.661145,-33.45796,-26.067202,-55.272429,-50.782384,-34.811474,-28.989484,32.873291,56.58078,74.071975,93.705917,38.955642,51.229614,58.509842,63.94297,22.102203,51.683029,49.745819,40.65287,8.269455,36.538353,35.01638,27.403587,-3.929695,20.689041,24.117737,18.501297,-12.502173,-34.985752,-50.798266,-58.384119,-71.341788,-97.745104,-116.232424,-133.43841,-73.333017,-66.732169,-42.47628,-31.288649,-67.643995,-56.640405,-36.420683,-29.165936,-57.477419,-51.81122,-36.595153,-29.256734,274.515679,36.118511,3.587174,84.603514
70,-0.387795,-1.882949,3.642585,-5.750346,-21.42659,-43.206894,-57.972153,-76.06311,-31.947235,-36.954918,-38.48394,-38.943191,-14.619369,-15.980713,-14.923874,-13.704483,2.164147,1.029236,-0.243759,-0.899872,18.58413,16.103417,11.982834,10.09037,-5.782784,-27.476655,-43.516929,-49.090929,-61.910975,-91.507158,-111.93759,-130.267675,-64.273991,-60.469054,-36.987398,-26.72866,-60.737829,-53.268215,-32.937096,-25.676964,-55.155555,-50.313773,-34.227327,-28.46723,30.760895,54.329796,72.134697,91.790497,37.322526,48.836243,56.113839,61.957192,20.105279,49.791871,46.517464,36.850068,6.351334,34.915398,32.050484,24.075669,-5.682952,19.125092,21.778245,15.913514,-10.222404,-32.734023,-48.63113,-56.2361,-69.130408,-98.244288,-116.884441,-133.655167,-71.140797,-63.09541,-39.177981,-28.809124,-65.632716,-53.414786,-33.447846,-27.330986,-56.075864,-49.302029,-33.589118,-26.98916,272.60911,34.917607,5.710985,79.535213
71,-0.998497,0.954328,-0.668106,-0.468766,-21.330459,-43.556305,-58.332962,-76.459717,-32.497192,-37.614853,-39.380928,-40.186958,-15.263923,-17.101456,-15.774513,-14.334915,1.503891,-0.046142,-0.849747,-1.081238,17.959419,15.090294,11.156891,9.373787,-4.769905,-26.582836,-42.728494,-48.189552,-61.725521,-91.983346,-112.268875,-130.403026,-64.118627,-58.966382,-35.743911,-25.879332,-60.702409,-52.018547,-32.060468,-24.974287,-55.330018,-49.504898,-33.644058,-27.934985,30.758629,54.640137,72.729607,92.334984,37.897088,49.035164,56.00425,61.715744,20.673249,50.046547,46.444016,36.931321,6.780945,35.110268,31.930664,24.096451,-5.454002,19.17437,21.596009,15.816674,-9.886649,-32.474128,-48.490475,-56.416961,-68.815549,-98.013984,-116.803461,-133.692267,-71.193137,-63.428115,-39.23155,-28.572929,-65.921202,-53.823222,-33.655185,-27.40965,-56.477785,-50.235992,-34.19481,-27.320488,270.246546,36.324597,3.678812,79.519109
72,-0.79042,2.84142,-0.833656,1.304774,-21.357514,-44.152565,-58.918648,-77.056801,-33.078301,-38.233818,-40.19355,-41.265953,-15.889778,-18.35669,-16.822655,-15.000801,0.919624,-1.123352,-1.647515,-1.467705,17.503463,14.10736,10.269607,8.675949,-4.503433,-26.283982,-42.157722,-47.463132,-61.893642,-92.286583,-112.266812,-130.120912,-64.247493,-58.545942,-35.830707,-26.141734,-60.812361,-51.42544,-31.871413,-24.693001,-55.456828,-49.025566,-33.473397,-27.643658,30.364929,54.539887,72.82489,92.404266,38.351097,48.976067,55.767929,61.45221,20.969902,49.856049,45.991173,36.528809,6.794586,34.75692,31.431999,23.761711,-5.823349,18.568359,20.934357,15.418488,-9.529633,-32.038714,-48.247567,-56.655021,-68.381863,-98.061717,-117.001223,-133.930876,-71.213854,-63.333804,-39.056099,-28.0625,-66.256124,-54.193422,-33.871046,-27.237113,-57.13476,-50.949728,-34.759554,-27.537133,268.373783,39.417257,1.762813,81.075123
73,-0.172257,3.194324,-1.155258,1.716927,-21.665176,-44.817535,-59.80442,-78.033211,-33.821228,-39.204552,-41.196853,-42.460945,-16.678299,-19.332916,-17.545692,-15.583397,0.074478,-2.017982,-2.293693,-2.024757,16.603569,13.298401,9.617958,8.061928,-4.5221,-26.201298,-41.857578,-47.099132,-61.93741,-92.185794,-111.947013,-129.600048,-64.563427,-58.524453,-36.116655,-26.37302,-61.280584,-51.350382,-31.952108,-24.573947,-55.960983,-48.878415,-33.347494,-27.366016,30.41938,54.666161,72.971168,92.495521,38.411957,49.047386,55.700729,61.239784,20.883087,49.790016,46.060844,36.705322,6.572021,34.484802,31.303093,23.779655,-6.153809,18.194641,20.777481,15.491547,-9.701855,-32.171144,-48.360891,-56.916096,-68.564484,-98.093457,-117.011677,-134.042089,-71.523675,-63.372917,-39.081984,-27.957296,-66.557219,-54.258883,-33.944646,-27.159869,-57.396644,-51.209419,-35.033386,-27.631482,267.231737,42.684138,-0.362234,82.864607
74,-0.081917,2.608492,-0.78392,1.363449,-21.978241,-45.258728,-60.52256,-78.925918,-34.513618,-40.049606,-42.027946,-43.41925,-17.328918,-20.118896,-17.998443,-15.869362,-0.653938,-2.868255,-2.929458,-2.658004,15.765816,12.322678,8.805062,7.248162,-4.690221,-26.340107,-41.96742,-47.109284,-61.937658,-92.054988,-111.782695,-129.330038,-64.85324,-58.765539,-36.69504,-26.647384,-61.729515,-51.381523,-32.253728,-24.686005,-56.381275,-48.808643,-33.34605,-27.198123,30.40979,54.573349,72.695411,92.158584,37.861564,48.893531,55.648361,61.196113,20.257049,49.60572,45.993942,36.635604,5.98249,34.209961,31.046882,23.546447,-6.629792,17.899429,20.510284,15.23545,-9.910046,-32.334998,-48.500367,-57.11907,-68.940655,-98.106122,-116.870689,-133.95063,-71.920001,-63.255819,-39.068523,-28.023412,-66.814156,-54.002316,-33.873868,-27.238292,-57.410958,-50.936458,-34.83132,-27.473117,266.350851,45.287215,-1.945123,84.222641
75,-0.194915,1.888303,-0.430321,0.706517,-22.113076,-45.518921,-61.070847,-79.669281,-35.041558,-40.733941,-42.667054,-44.102189,-17.809342,-20.749283,-18.317162,-16.060845,-1.150544,-3.417458,-3.389031,-3.239823,15.234764,11.754707,8.250824,6.535537,-5.01133,-26.692912,-42.259209,-47.128766,-61.948433,-91.676959,-111.406777,-128.913494,-65.143202,-59.148688,-37.443887,-26.967485,-62.142181,-51.497083,-32.65681,-24.782879,-56.71892,-48.738612,-33.381204,-27.045359,30.359917,54.373466,72.376167,91.833984,37.421287,48.854828,55.574249,61.007561,19.750831,49.161415,45.768951,36.631302,5.445831,33.599281,30.656341,23.373024,-7.214264,17.256065,20.130569,15.117943,-10.08533,-32.651135,-48.810984,-57.256279,-69.294657,-97.913701,-116.50788,-133.660607,-72.141567,-63.424163,-39.210684,-28.122749,-66.81699,-53.822067,-33.779742,-27.139936,-57.114185,-50.57423,-34.560125,-27.157609,265.60104,47.11624,-2.93034,84.86988
76,-0.975403,1.195025,-0.258659,0.029665,-22.144524,-45.403862,-60.970459,-79.712311,-35.111435,-40.774292,-42.64563,-44.09578,-17.751435,-20.81099,-18.190544,-15.887512,-1.055351,-3.426361,-3.401848,-3.395439,15.292236,11.721771,8.242561,6.425537,-5.282458,-27.169286,-42.603153,-47.044817,-61.932279,-91.511807,-111.314831,-128.808618,-65.063989,-59.737731,-38.323646,-27.204484,-61.98176,-51.717316,-33.099036,-24.69378,-56.333129,-48.686507,-33.478109,-26.720231,30.233619,54.008926,71.788513,91.230766,36.675453,48.530433,55.396568,60.865402,19.011543,48.712669,45.553619,36.530159,4.811782,33.175598,30.361129,23.175521,-7.645707,16.925651,19.890472,14.919456,-10.189306,-32.721704,-48.849849,-57.226978,-69.585422,-97.812529,-116.3466,-133.549932,-72.253323,-63.589636,-39.493371,-28.44374,-66.694582,-53.530975,-33.738999,-27.286136,-56.666426,-49.817058,-33.951686,-26.681631,264.189978,48.198772,-3.624658,84.787052
77,-1.972756,1.132293,-0.282189,-0.355022,-22.286636,-45.664215,-61.273155,-79.986694,-35.065361,-40.605697,-42.426407,-43.882553,-17.609504,-20.651275,-18.004394,-15.784996,-0.831527,-3.330116,-3.255912,-3.228035,15.56044,11.75235,8.404885,6.730248,-5.396215,-27.403154,-42.702275,-46.898413,-61.774149,-91.423282,-111.154879,-128.497569,-64.675264,-59.946238,-38.646811,-27.019949,-61.439999,-51.82467,-33.207686,-24.140385,-55.572901,-48.941543,-33.850378,-26.529256,30.104141,53.675148,71.370415,90.840042,36.049667,48.178093,55.165009,60.712006,18.36834,48.298073,45.379669,36.55957,4.271713,32.859398,30.188187,23.118324,-7.977676,16.754791,19.807526,14.850105,-10.389,-32.936694,-48.986595,-57.175645,-69.802795,-97.680222,-116.198973,-133.539341,-72.309621,-63.639795,-39.731295,-28.976683,-66.5268,-53.232455,-33.770071,-27.76246,-56.199025,-49.104471,-33.422515,-26.431819,261.817005,49.071651,-4.307064,84.172616
78,-3.89003,2.187039,-0.632973,-0.199676,-22.397392,-45.701889,-61.038482,-79.568618,-34.530647,-39.643478,-41.549446,-42.959106,-16.972641,-20.214363,-18.220161,-16.186454,-0.134376,-2.893821,-3.444168,-3.419128,16.372376,12.104004,8.433037,6.840798,-5.101066,-27.15354,-42.365538,-46.508144,-61.639978,-91.399088,-110.904944,-127.936925,-64.137473,-60.237836,-39.292306,-27.857112,-60.596347,-51.983788,-33.591817,-24.515624,-54.528949,-49.38735,-34.556661,-27.092481,29.982079,53.41372,71.036705,90.444374,35.820076,47.615319,54.739037,60.535767,18.182122,47.849167,45.116021,36.493905,4.185952,32.78048,30.124878,23.057717,-7.899284,16.882142,19.670334,14.459107,-10.54266,-33.001643,-49.073497,-57.572453,-69.371864,-97.578624,-116.201277,-133.471984,-71.785873,-63.642333,-39.85965,-29.243655,-65.991214,-53.163492,-33.76615,-27.983434,-55.687985,-48.783443,-33.143527,-26.388248,257.564758,51.007894,-5.302254,83.722144
79,-6.109863,3.949908,-1.402565,0.099863,-22.689949,-45.877601,-60.432014,-78.153786,-33.728851,-38.478424,-40.410965,-41.662193,-16.031776,-19.390137,-18.068024,-16.303367,0.879707,-1.943619,-3.253418,-3.357948,17.535645,13.211472,9.123001,7.504921,-4.854262,-26.532769,-41.793093,-46.815173,-61.046396,-90.571163,-109.468302,-125.824208,-63.146095,-60.231698,-39.67861,-28.243996,-59.195316,-51.770539,-33.455484,-23.9584,-52.84139,-49.111325,-34.612878,-26.935987,29.81733,53.119309,70.594529,89.858071,35.752465,47.238808,54.534279,60.604592,18.278481,48.064293,45.485802,36.835534,4.55056,33.371842,30.748513,23.601517,-7.189636,17.678009,20.259247,14.82573,-10.823384,-33.238672,-49.343136,-58.301899,-68.94959,-97.497565,-116.114586,-133.116888,-71.192902,-63.534678,-40.021294,-29.433717,-65.341773,-52.844292,-33.541101,-27.729597,-55.058217,-48.216228,-32.669988,-25.974323,251.145166,54.770226,-7.014548,83.634431
80,-9.046715,6.319648,-2.271469,1.115398,-22.89759,-45.528373,-58.988914,-75.588157,-32.313079,-36.89804,-39.143074,-40.46965,-14.275085,-18.213958,-17.715522,-16.479698,2.530129,-1.291099,-3.329704,-3.526085,18.824273,13.753785,9.255181,7.585808,-4.702639,-25.839867,-41.128923,-47.717847,-60.457667,-88.766822,-106.320179,-121.296229,-62.613855,-58.120124,-38.307985,-27.57083,-58.018384,-49.506219,-31.863144,-22.696802,-51.031664,-46.246328,-32.385405,-24.976689,29.979744,53.112786,70.142968,88.98008,35.884529,47.391175,55.069016,61.576447,18.707886,48.524941,46.234612,37.662575,5.328965,34.214333,31.748017,24.51725,-6.020462,18.691521,21.218857,15.668679,-11.275508,-33.83055,-50.229162,-59.923069,-68.454599,-97.258776,-115.56171,-132.082736,-70.364922,-62.967593,-39.761017,-29.498462,-64.257769,-52.152175,-33.07178,-27.454406,-53.80561,-46.980745,-31.843274,-25.528355,241.781971,60.936038,-9.602497,84.595993
81,-11.308502,8.144725,-2.950309,2.491728,-22.940529,-44.631592,-57.368751,-72.513748,-30.676803,-35.110634,-38.136406,-40.034088,-12.626587,-16.362648,-17.616394,-17.673843,3.799851,-0.040695,-3.542679,-4.431312,19.352623,14.631546,9.379097,7.222046,-4.585023,-24.408283,-39.146581,-47.163254,-58.509089,-84.306843,-98.646573,-109.91585,-60.012953,-54.835255,-35.964452,-25.786811,-54.519889,-45.515914,-28.547493,-19.898508,-46.889693,-41.008949,-28.108293,-21.387212,30.212997,52.942611,69.44252,87.488822,36.443939,48.024581,56.351326,63.652153,19.601097,48.963844,47.21054,38.994163,6.471038,34.996765,32.9038,25.700843,-4.545788,19.51538,22.212226,16.875022,-12.30892,-35.033121,-51.555327,-62.225749,-67.812469,-96.337115,-113.801823,-129.291037,-69.252785,-61.706323,-38.886303,-28.943993,-62.664467,-50.707846,-31.938234,-26.188665,-51.854038,-45.014322,-30.538914,-24.30939,230.242264,68.926838,-12.784011,86.933796
82,-11.755417,12.333638,-3.690102,4.265527,-24.056659,-45.422744,-58.122047,-72.367412,-31.203426,-37.61943,-41.918918,-44.179573,-13.424812,-19.521881,-22.128101,-22.72166,2.339402,-3.790306,-8.268024,-9.206795,16.865227,10.675724,4.932759,2.781384,-5.163414,-23.242651,-36.767374,-45.454342,-56.391945,-76.721036,-86.01882,-92.665555,-57.087039,-48.726484,-30.661509,-21.383775,-50.395625,-38.802918,-22.736517,-15.15749,-41.628092,-33.225056,-21.418797,-15.764429,30.385849,52.733871,68.46096,84.96991,36.850548,49.312088,58.990265,67.585487,20.244186,49.111931,47.753197,39.971214,7.453537,36.404045,34.210373,26.872627,-2.774448,21.229225,23.38179,17.997368,-12.857646,-35.940976,-52.885696,-64.773527,-67.329482,-94.504196,-109.596101,-122.386618,-68.394553,-59.670788,-37.409703,-27.936381,-61.249907,-47.833883,-29.585734,-23.909389,-49.861748,-41.575707,-27.89163,-21.88045,218.331688,81.090378,-16.629272,91.029225
83,-11.577278,15.78251,-4.761292,5.503351,-26.142071,-48.153213,-61.690567,-75.639553,-33.999035,-44.69252,-50.671406,-53.108894,-16.797249,-27.778107,-30.859165,-31.114483,-1.867447,-12.687469,-16.890621,-16.881409,11.387444,1.782269,-3.638065,-4.890186,-6.547846,-22.38663,-34.026267,-42.657647,-54.095102,-66.177573,-68.657803,-69.812518,-53.810531,-39.264623,-21.502422,-13.081086,-45.641406,-28.992383,-13.650752,-7.138625,-35.253906,-22.806409,-12.099715,-7.560862,30.824776,53.049363,68.401886,83.384674,37.601509,52.303116,63.235726,72.016022,21.360535,50.619919,50.580483,43.698807,8.895356,38.683113,36.902756,29.845322,-0.728588,23.662743,25.672371,20.550225,-13.345851,-36.514575,-53.52903,-66.458671,-66.15045,-90.414355,-101.187375,-109.417402,-66.043344,-56.985294,-35.682457,-26.156931,-57.834349,-42.979769,-25.34211,-19.224762,-45.595591,-35.732173,-23.181068,-17.496183,206.656511,96.654461,-21.488463,96.314149
84,-12.452179,15.62191,-5.771793,6.054924,-26.819744,-50.426079,-66.265846,-80.603222,-38.172718,-53.103126,-61.674625,-65.904602,-21.827224,-37.674889,-43.059025,-44.818508,-7.765091,-23.333313,-28.698635,-29.364258,4.306069,-8.855632,-14.937,-16.876888,-7.91526,-20.549543,-28.638699,-35.762967,-48.38942,-51.036645,-47.179584,-42.848528,-46.494843,-26.293239,-8.562476,0.367128,-37.02589,-15.859189,-0.47295,6.290249,-25.017158,-8.585284,1.541012,5.840416,30.825382,53.058163,68.651333,82.814312,38.991726,56.563625,69.106739,78.515453,23.398441,52.741734,54.797184,49.858349,11.368881,41.080639,40.661419,35.110096,2.247482,26.30151,28.785244,24.913342,-13.004661,-34.662649,-50.395339,-62.403595,-62.715787,-82.300535,-88.547615,-92.66507,-61.661232,-50.679786,-29.684343,-19.354215,-52.440833,-35.014034,-17.321281,-10.235989,-39.317512,-27.64285,-15.957257,-10.146834,194.165697,111.905221,-27.298891,101.997923
85,-12.572525,16.270931,-5.459724,6.566304,-28.180469,-53.908378,-72.52343,-87.930141,-44.3157,-64.034431,-74.646755,-80.43306,-29.215027,-49.688141,-57.529369,-60.78986,-15.748558,-35.27092,-42.722637,-45.036644,-4.216049,-20.663051,-27.913937,-31.171589,-8.831569,-17.896826,-21.866105,-26.207221,-40.033638,-33.974018,-24.82549,-16.319093,-35.46039,-12.10946,5.94758,15.976533,-24.539506,-1.0336,14.674124,22.263172,-11.32853,6.823723,16.745403,21.215799,29.852977,52.373622,68.72961,81.50481,40.620174,61.515758,75.038005,84.095821,25.755008,55.693737,60.073963,57.416919,14.162544,44.020076,45.778255,42.366291,5.495086,29.229778,32.878315,30.931263,-13.91774,-32.822764,-45.597109,-55.502394,-57.014872,-71.294247,-73.144048,-72.846924,-54.155722,-41.540354,-21.503593,-10.289922,-43.4792,-24.636593,-7.108423,1.198242,-29.372596,-16.196256,-5.157944,1.142704,181.65513,127.659276,-32.696657,108.047351
86,-10.839752,17.951635,-4.116738,7.866262,-29.775501,-57.904518,-78.470856,-94.974644,-52.61832,-76.371643,-89.359005,-97.466721,-39.090866,-64.36908,-74.383564,-79.994648,-26.116837,-50.043709,-59.418583,-64.123169,-14.467026,-34.248035,-42.712589,-48.146633,-10.358594,-16.390566,-16.575595,-17.646026,-31.699463,-19.427269,-6.786305,3.728968,-24.868157,0.216682,18.505595,29.755563,-13.008901,11.252491,27.122532,35.932923,0.804944,19.044179,29.450624,35.283111,28.665905,51.390164,68.655888,80.153012,40.670552,64.137806,78.396115,87.280438,26.527027,56.40604,64.022907,64.863178,15.10754,44.584545,49.764118,49.948597,6.791657,29.891407,35.52586,36.478558,-14.597958,-30.430715,-40.378366,-48.459624,-49.401207,-58.817922,-56.575857,-52.092494,-44.740434,-31.991308,-13.614861,-1.3541,-33.370596,-13.892966,3.246429,13.019364,-18.988221,-4.617844,6.128802,13.149799,170.892454,145.057186,-36.736319,115.359888
87,-14.591721,17.925255,-0.700619,6.407346,-29.933166,-59.708175,-81.5988,-98.288429,-58.633758,-86.182479,-100.369697,-109.571273,-46.611213,-76.460083,-89.15641,-96.649223,-34.241317,-62.31427,-74.407562,-81.358245,-22.593086,-45.534347,-55.744651,-63.121399,-11.498618,-14.301556,-10.782288,-8.587314,-22.170781,-4.503828,9.582868,20.480692,-12.722567,13.814982,31.377731,42.670511,0.08374,24.840635,40.386462,49.778675,14.08041,32.618989,42.962689,49.086292,26.508545,48.447144,65.794625,76.60785,38.448899,61.254204,75.746636,85.005524,25.251069,52.585831,63.595437,68.434227,13.915844,39.898179,48.997445,53.29097,5.362164,24.909863,32.70916,36.543435,-14.912836,-26.660722,-32.961993,-39.193227,-37.352886,-39.412559,-33.476257,-26.119856,-30.668805,-17.409609,-1.374151,10.950435,-19.804913,-1.576723,14.247191,24.982945,-7.229893,7.45672,17.479726,24.573935,156.461523,162.519726,-37.276148,121.304519
88,-14.316398,15.185402,-5.698837,14.983108,-29.397537,-59.032768,-81.026207,-96.672432,-62.528343,-91.321953,-106.820435,-118.214539,-52.244751,-83.468949,-99.545288,-110.525734,-40.833939,-69.766388,-85.443421,-96.368866,-29.556404,-53.052544,-65.399986,-75.885109,-11.73012,-11.908437,-5.46162,-0.7774,-10.932706,7.523843,20.818806,31.355205,0.803528,24.374493,40.854592,52.777682,14.175511,36.161597,51.223474,61.44686,27.76201,44.775607,55.388416,62.369127,25.849537,48.646363,67.172928,78.081024,47.25602,69.77829,80.135857,86.054695,35.992127,61.084809,69.429703,72.710449,24.60561,47.539627,55.125984,58.452004,14.747189,31.558605,37.979325,41.103333,-16.143979,-25.175705,-29.908263,-35.873563,-27.409125,-22.286298,-15.438672,-9.212254,-18.126365,-1.044083,12.730847,22.898065,-6.496033,12.942231,26.461014,35.451862,5.847541,20.856732,29.242444,35.044921,142.367323,177.225602,-42.752787,135.808101
89,-17.146958,17.161224,-5.567047,16.958194,-29.059124,-57.806087,-79.414352,-94.457044,-63.225746,-93.420038,-108.462684,-119.120361,-55.106849,-87.72916,-103.819622,-114.077184,-45.347088,-75.11745,-91.461879,-102.553774,-35.242183,-59.162853,-71.814113,-82.181442,-8.205765,-5.746993,2.40658,9.007866,-1.002573,15.200889,26.316723,34.813487,9.400562,28.17843,41.848909,51.473989,20.182949,37.254252,49.22775,57.253401,30.115713,42.716576,51.371638,56.959327,25.43494,49.453903,68.497673,78.408554,50.677231,74.739876,83.903847,88.64447,39.908032,65.987297,74.958824,78.632103,28.175457,52.225845,61.221817,65.371376,17.552811,35.150883,42.005699,45.28878,-17.355731,-25.266206,-29.68057,-36.686161,-20.27652,-9.956995,-1.324812,5.553715,-8.946227,9.307985,21.551993,30.054426,3.405344,21.960534,33.398692,40.758724,15.841432,30.57613,37.672117,42.042848,125.562114,193.888007,-47.978085,152.267476
90,-20.091087,17.725308,-5.140411,18.33605,-27.091129,-54.837261,-76.394188,-91.079538,-60.282646,-91.32736,-105.31501,-113.866425,-54.689323,-88.560299,-102.962734,-109.976389,-47.362965,-77.958378,-92.786488,-101.007277,-39.315411,-63.110539,-74.895115,-82.944397,-1.394201,4.477368,14.028366,21.905835,8.763945,20.832934,28.536477,34.224659,14.226356,25.998911,35.460112,41.364631,18.899084,28.271222,35.769358,40.181857,22.209424,27.451997,32.333479,35.080748,25.449154,49.815284,69.292602,79.416778,51.96849,75.097984,84.498665,90.94899,40.83855,65.127868,75.669639,81.831619,27.950432,50.680916,61.609771,68.24842,15.994377,32.442398,40.125663,45.001682,-16.96926,-24.272963,-29.882976,-38.438958,-13.76592,0.055884,10.114224,17.897826,-1.854371,16.859826,28.814311,37.308586,9.824114,27.840704,38.331568,45.517834,21.176785,35.571646,42.465561,46.895894,106.094095,211.135564,-52.495428,170.125775
91,-21.474037,16.799397,-8.606942,19.959524,-24.947239,-50.383701,-69.434487,-80.693728,-53.147804,-82.537749,-94.581413,-101.093868,-49.088059,-81.458599,-95.322029,-101.345163,-43.747822,-73.734547,-88.454155,-95.834479,-37.532467,-60.769169,-72.711491,-80.148239,-3.043134,0.244093,5.314728,8.266589,7.46862,16.288561,21.643785,25.115881,14.609332,23.30589,29.191667,31.213098,19.973418,27.393168,31.998804,33.508453,23.062013,27.904147,31.965706,33.644755,26.346463,51.921547,71.785241,82.697503,58.960534,84.819695,92.592179,96.64547,48.730099,76.016625,84.098832,86.559334,35.888112,61.161919,69.285302,72.417916,22.787499,41.154465,47.110177,49.353596,-17.063102,-23.895897,-30.096428,-39.766506,-8.41605,10.986831,21.638073,28.011148,5.264309,28.034465,38.688498,43.927205,17.810338,38.124396,46.575804,50.786206,29.263891,45.427123,50.611144,52.481045,85.523729,227.433971,-60.198699,189.584309
92,-12.500176,12.807035,-12.909667,21.920803,-25.134578,-49.978786,-68.152404,-77.062334,-48.936515,-77.802412,-88.434963,-93.460807,-45.970184,-77.202518,-91.500801,-98.215971,-42.220195,-72.015689,-87.321361,-95.430078,-37.907444,-60.342418,-73.057823,-81.451515,-4.000661,-3.902978,-2.708811,-3.38885,7.704877,10.298252,10.607616,11.08352,15.78101,18.519603,20.28916,19.939597,21.148528,24.694626,26.636115,26.535536,23.47542,26.905532,30.789867,32.718339,28.176853,56.501243,78.22966,90.147216,66.068801,97.125938,104.393623,106.340927,56.296325,89.608131,97.3469,97.654312,43.942234,75.04026,82.27185,83.174171,31.022289,54.667053,60.7882,61.718067,-17.701126,-25.058774,-32.388325,-43.155646,-7.943017,13.46264,23.706972,28.769159,8.027221,32.312348,42.250522,45.812792,23.090888,44.923351,51.781636,53.49379,36.591133,52.708732,56.380201,56.42996,74.141664,239.637056,-71.990255,210.901162
93,-10.700248,11.290853,-7.266404,13.3362,-25.290242,-51.239949,-70.006394,-78.605833,-45.792549,-74.808386,-84.94685,-89.135491,-43.589539,-74.792645,-89.370518,-96.16606,-40.877118,-71.483586,-87.378331,-95.394808,-37.770871,-59.97511,-73.703682,-83.063587,-5.018283,-7.280602,-8.726895,-11.10365,8.189408,5.595316,1.170411,-2.010939,17.134949,15.579147,13.068919,9.128545,22.253058,23.346763,22.12311,19.048384,23.43643,27.085287,30.27004,31.473685,28.492619,57.246323,79.139946,91.627488,61.11454,94.495285,106.463082,112.649231,50.637955,87.30304,100.671181,105.691155,38.918816,73.506604,86.140801,91.427857,27.294365,53.849259,63.953373,68.496014,-16.830211,-23.485843,-29.759932,-39.716235,-5.0148,16.131826,26.990611,33.532585,11.224607,34.473143,44.785598,49.425326,26.547552,47.60527,54.698317,56.978254,39.863324,56.396083,60.528248,61.050323,64.605492,250.231932,-78.092583,223.541385
94,-5.185524,8.067846,-6.156772,12.056385,-27.299195,-53.609963,-72.103501,-80.575219,-45.30455,-73.782109,-85.451329,-91.361195,-42.19146,-73.535363,-89.866871,-99.021664,-39.320343,-70.966667,-88.312008,-98.008953,-36.990601,-60.118996,-74.68578,-85.114437,-7.622545,-11.251703,-14.963236,-19.230622,11.927376,7.773648,1.502387,-3.353332,21.991014,18.762369,13.800834,7.892147,26.951288,26.810016,24.05549,19.798133,27.108949,30.692412,33.321708,34.340935,29.147735,57.767235,79.811542,93.673176,61.059047,93.623829,106.943218,115.007503,50.650211,86.535518,101.490772,108.787777,39.271671,72.929054,87.234913,94.52663,27.824981,53.889942,65.614895,72.221615,-16.134987,-21.81258,-27.21169,-36.75776,-0.522865,20.034464,30.462577,37.359987,16.216696,38.88232,48.755186,53.985446,31.327948,51.974297,59.056439,62.055928,43.675856,60.400264,64.887679,66.320683,60.557631,257.592186,-83.111692,234.890178
95,-2.545269,5.85631,-5.787117,10.95724,-28.699711,-55.142395,-73.092356,-81.507763,-49.169369,-73.420515,-83.102806,-88.784232,-45.408938,-72.224888,-87.119814,-96.962775,-41.625761,-69.607453,-85.066916,-94.989332,-38.689608,-60.879553,-74.856938,-85.7799,-9.940198,-14.604065,-19.621737,-24.830847,13.214675,10.525179,4.894616,0.512424,25.326351,24.469953,20.194923,15.050693,31.887271,34.841052,33.707031,31.00332,33.392814,40.537942,45.382045,48.818375,29.805977,58.668319,80.748081,95.687267,62.06551,95.50288,109.296444,117.132007,52.411239,90.234935,105.592655,112.64027,42.210399,77.565284,92.08073,99.201816,31.697593,59.513454,71.670547,78.189148,-15.494512,-20.622019,-24.999444,-34.463819,2.407439,23.120923,33.067296,39.315648,20.206143,43.09644,52.0183,56.328306,35.837173,56.968176,63.435766,65.802672,48.051095,65.442444,69.531507,70.462098,58.995003,262.731886,-87.916168,245.130808
96,-3.289124,4.686474,-2.848229,8.304245,-28.608867,-56.567207,-77.205442,-89.621807,-57.82877,-77.630945,-80.979034,-81.76581,-54.698507,-75.510807,-82.37055,-85.048193,-50.271189,-71.635551,-78.478426,-81.71224,-46.556745,-66.992334,-76.773708,-83.102234,0.950771,2.658756,3.066476,3.322326,24.302072,24.96009,19.854035,15.965748,29.314217,31.122349,28.858011,25.583905,29.383921,33.659952,34.184719,33.314267,25.611187,32.028413,36.800022,41.198534,29.48021,57.84026,80.008576,95.734829,58.787361,90.015278,106.190632,117.423443,48.679436,84.258568,102.933758,114.568531,38.669037,72.340073,90.355648,101.816174,28.768765,55.897579,70.195542,79.884568,-13.962806,-18.630927,-22.342003,-31.409928,5.425379,23.840895,33.862839,41.363044,22.846269,43.010483,52.521047,58.816699,37.727093,56.681345,63.726227,67.664311,48.846675,64.726374,69.574819,72.02179,56.591778,266.688019,-89.878498,252.704712
97,-7.719887,6.237248,-0.916454,7.315275,-25.697216,-52.668525,-73.292902,-87.474151,-60.473144,-73.624815,-72.580021,-70.555898,-57.748975,-70.407108,-69.402677,-65.347841,-52.709856,-65.667972,-64.412115,-61.020052,-47.750478,-65.045007,-70.888572,-72.79153,10.048126,17.726685,21.966808,25.660859,30.508174,35.357168,34.229556,32.659157,28.930747,34.19936,35.638441,34.742011,23.33984,29.396593,32.638724,33.726426,15.298078,20.736672,25.627174,30.604721,29.309978,56.57444,78.481934,95.057693,57.933437,86.886978,103.781914,116.782539,47.755382,80.693424,100.381073,114.319382,37.651886,68.692131,87.992157,101.941452,27.425892,52.58662,67.333088,78.902424,-12.815545,-16.627867,-19.404894,-27.833603,9.388063,25.457953,35.336784,43.589517,25.905644,44.187471,54.468136,62.291284,39.417128,57.180116,65.415286,71.056359,49.141002,64.703551,70.548857,74.435293,49.619751,272.293178,-90.047092,259.387898
98,-8.205139,5.607456,0.046635,6.852159,-21.994159,-45.976272,-65.431921,-80.86393,-62.761505,-67.438963,-58.70763,-51.604185,-61.576738,-64.415611,-54.278314,-42.722803,-57.053484,-61.127678,-50.343366,-39.522394,-52.180601,-66.286955,-67.303127,-63.960354,13.787682,24.503373,31.852851,37.898074,31.792632,42.784471,45.578603,46.639154,27.947187,36.623212,41.880111,44.222613,20.651549,27.725132,33.339665,37.170753,12.168271,16.629528,21.592613,27.727115,28.865787,55.406341,77.265358,94.384449,57.384018,85.706302,102.675144,115.974598,47.16782,79.309707,99.191608,113.806079,37.018695,67.062664,86.283817,100.829486,26.712444,51.008342,65.685493,77.73571,-12.23162,-15.310397,-17.345604,-25.279297,12.00717,26.928502,36.431718,44.582945,28.252715,45.545017,55.77212,63.688807,40.958122,58.222376,66.834052,72.980255,49.778551,65.186896,71.467321,75.899481,42.199127,277.360676,-89.215942,265.700099
99,-12.049599,6.698277,0.899906,6.427539,-15.572353,-35.463729,-52.278757,-65.76622,-60.054119,-55.366819,-38.629268,-25.77559,-61.3509,-52.955738,-34.015279,-15.266035,-57.927434,-51.394455,-31.885042,-14.40331,-52.763563,-61.299757,-58.833377,-52.526504,13.43253,24.265424,33.245928,40.442574,26.620615,41.419688,46.775659,49.960462,23.510889,35.457599,43.860423,49.151198,17.717058,27.966169,35.917263,42.225963,11.659806,18.649162,25.755838,34.070772,28.115318,53.830925,75.85619,93.224281,56.69355,85.327789,102.37445,115.492538,46.739364,79.260853,99.353004,114.036827,36.789356,67.075584,86.129059,100.649414,26.799682,51.045089,65.763256,78.129867,-12.551883,-15.263986,-16.154711,-23.126728,13.468147,28.014704,37.011233,44.594912,29.909009,46.530454,56.265839,63.566763,42.304515,59.218237,67.569499,73.367652,50.704646,66.056478,72.23762,76.459619,30.937133,283.643098,-87.528431,271.711783
100,-2.30302,3.293187,1.098793,5.408051,-13.28714,-32.274605,-48.738361,-61.936523,-61.853394,-52.313644,-30.817909,-15.005287,-64.585407,-50.607342,-26.669586,-4.238914,-61.8521,-50.533367,-26.20491,-5.085663,-56.619129,-61.497265,-55.922264,-47.138317,11.970404,22.143722,31.997211,40.559844,23.357069,40.817961,47.845195,52.420653,22.199619,35.89444,46.186282,53.348095,18.699124,30.381338,39.522598,47.071277,15.341569,24.24872,31.566712,40.10914,27.426613,52.468197,74.697338,92.212669,56.645222,85.890037,102.826675,115.676353,47.082264,79.926578,100.014221,114.539429,37.314937,67.894672,86.762237,100.934624,27.490139,51.838989,66.560554,79.087692,-13.140253,-15.563623,-15.193479,-21.306547,14.56428,29.12741,37.803269,44.907839,31.078674,47.00539,56.122616,62.588773,43.256547,59.544206,67.406577,72.455982,51.40423,66.288722,71.954149,75.5139,29.360126,286.687295,-85.703625,276.870844
101,-0.083199,2.933848,1.113945,4.336559,-11.042106,-28.157112,-42.563049,-53.224754,-58.062778,-47.877388,-27.186332,-11.752143,-61.410278,-47.084552,-23.442123,-1.239601,-59.581111,-47.792575,-23.807075,-2.750541,-55.055431,-56.934093,-49.310806,-39.545597,5.47373,13.610767,23.444372,32.306186,20.050458,38.11953,45.849224,51.025267,22.590858,36.332708,46.623883,54.00859,22.57726,34.235009,43.023785,50.239765,22.321552,32.331405,39.179723,46.644829,26.861881,51.460705,73.834739,91.427101,56.199531,86.270576,103.042305,115.60865,47.054924,80.765877,101.01281,115.421562,37.670414,68.98677,87.882202,101.680549,28.334129,52.80241,67.550205,80.03334,-13.937735,-16.172532,-14.810219,-20.352319,14.705576,29.376511,37.738715,44.41055,31.529353,46.810097,55.346486,61.118174,43.733272,59.443713,66.776957,71.0551,51.7907,66.314879,71.567369,74.494486,29.899898,289.494922,-83.966709,281.081182
102,1.560242,1.341195,0.843384,2.989547,-10.19181,-26.394378,-40.877163,-51.562042,-59.507583,-47.258354,-24.647095,-8.518158,-64.531608,-48.583031,-23.388588,-0.818298,-63.933803,-51.287235,-26.015579,-4.689903,-60.333332,-61.221634,-52.282883,-42.166992,-2.499262,1.133651,9.367463,17.586579,16.128627,34.93548,42.114139,47.076303,24.290302,37.224111,46.35696,53.311415,29.060843,39.598094,46.474027,52.651538,32.877055,43.666038,48.865929,55.005007,26.215187,50.477565,72.883323,90.368774,55.648555,86.603874,103.550193,116.172363,46.929737,81.541442,102.024971,116.476135,37.784042,69.876937,89.066597,102.820221,28.653144,53.545715,68.561279,81.238906,-14.515595,-16.759901,-14.628994,-19.489541,14.534133,29.307264,37.460937,43.797196,31.449213,46.274104,54.307771,59.479405,43.628543,58.927307,65.835968,69.48822,51.732692,66.070508,71.117666,73.539183,32.015619,290.799292,-82.567846,284.033904
103,-1.319343,1.846349,0.537689,2.011001,-8.177811,-23.503739,-37.201378,-46.289051,-57.328205,-43.85241,-21.910698,-6.049462,-62.556382,-45.759785,-20.409668,2.137024,-62.008999,-48.18124,-22.849022,-1.77285,-58.211975,-56.716336,-46.337437,-35.591114,-5.341917,-3.233856,3.730602,10.671842,15.04434,33.60823,40.691632,45.730318,23.93777,37.052619,45.608324,52.209208,29.244995,40.157306,46.638839,52.60425,33.364921,44.527024,49.23101,54.571828,25.616409,49.578735,71.994381,89.451896,55.349178,87.030121,104.07431,116.668922,47.01654,82.35244,102.941139,117.295212,38.030102,70.849582,90.282394,103.996742,28.954273,54.382793,69.573635,82.306572,-15.017478,-17.424422,-14.766993,-18.849004,14.317722,29.221234,37.231386,43.258313,31.27131,45.46915,53.016446,57.707094,43.401598,57.977758,64.354612,67.423571,51.544712,65.295775,69.964094,71.896968,31.153176,292.713857,-81.573257,286.113121
104,0.764442,-2.524863,0.057575,1.029861,-7.932198,-23.114616,-36.551113,-45.041416,-58.314445,-45.549019,-23.594582,-7.611397,-62.585518,-45.829102,-20.287514,1.861954,-60.885017,-46.105236,-20.964821,-0.327713,-56.088135,-51.673244,-38.863071,-26.525162,2.081569,7.375753,15.152884,23.490536,21.729464,40.170347,47.067387,51.585776,26.609512,40.439814,48.810675,54.493281,28.563468,40.051552,46.948468,52.556603,29.703356,41.048253,45.82214,50.83431,25.350781,49.26226,71.677265,89.115772,54.974007,87.024845,104.134495,116.865429,47.02232,82.781811,103.476231,117.96278,38.264671,71.495201,91.188755,104.98978,29.311901,55.007996,70.303574,83.069218,-15.107769,-17.523581,-14.626931,-18.543723,14.173226,29.013295,36.818313,42.578663,31.024185,44.73989,51.849833,56.068399,43.042964,57.119922,63.095361,65.636711,51.160649,64.545755,68.969492,70.470188,32.283834,290.288264,-81.149466,287.242252
105,0.645149,1.114348,-0.341423,0.414173,-7.222595,-22.006508,-35.409771,-43.71437,-57.804668,-45.66069,-23.810417,-7.631126,-62.702236,-46.47932,-21.005287,1.097534,-61.393284,-46.878799,-21.893532,-1.310486,-56.886062,-52.278923,-38.618992,-25.647743,-0.648256,2.64687,9.161106,16.631387,19.926623,38.096559,44.935565,49.323006,26.376367,39.895126,47.849493,53.13492,29.718905,40.633019,46.986296,52.019016,31.88238,42.910979,46.878776,50.913314,25.349384,49.298241,71.613041,88.992634,54.59935,86.781086,103.993984,116.864101,46.818409,82.926968,103.740406,118.36488,38.195068,71.721897,91.608318,105.49165,29.369362,55.233822,70.634571,83.377567,-15.15822,-17.524557,-14.501603,-18.132083,14.139806,28.844889,36.455911,42.028429,30.944946,44.338277,51.19203,55.192691,42.834865,56.658682,62.329371,64.550682,50.876954,64.10819,68.455691,69.775125,33.246128,291.46054,-81.173744,287.714353
106,0.906876,0.104926,-0.369987,0.027898,-7.900017,-23.708771,-38.053574,-47.402893,-59.620983,-48.075131,-26.186279,-9.996254,-64.212776,-48.35725,-22.889649,-0.818047,-62.597683,-48.347099,-23.336632,-2.711792,-57.908558,-53.197781,-39.491512,-26.468124,0.298761,3.408376,9.327462,16.557015,20.162473,38.388601,45.51928,50.077189,26.137591,39.830362,48.038005,53.522392,29.089162,40.159146,46.626724,51.767124,30.96924,42.165985,46.052815,50.071545,25.382366,49.407875,71.719642,89.095195,54.408004,86.584224,103.803028,116.674472,46.711944,82.859149,103.717998,118.458377,38.133613,71.696811,91.687671,105.726047,29.297893,55.259948,70.66183,83.406291,-15.00015,-17.332649,-14.208918,-17.588061,14.197976,28.780953,36.267573,41.758025,30.861621,44.110481,50.85717,54.75025,42.631867,56.329517,61.899256,63.94049,50.654987,63.788534,68.163958,69.428459,34.435764,291.606916,-81.260971,287.783701
107,-2.057625,0.622654,-0.184788,0.020687,-6.023758,-19.873215,-32.336288,-40.431873,-56.054832,-44.065452,-23.156044,-7.138252,-60.471954,-44.507263,-19.802994,2.126244,-58.656738,-43.918453,-19.543991,0.771011,-53.820202,-46.990139,-32.122936,-18.374176,0.523372,4.970056,12.472917,20.330385,19.450256,37.448525,45.05977,49.753641,24.86573,39.389353,48.001621,53.103305,27.763863,39.719891,46.864648,51.948239,29.700454,41.245509,45.991436,50.281706,25.379562,49.447231,71.854866,89.395706,54.188541,86.381424,103.589447,116.409141,46.506294,82.590408,103.464363,118.229141,37.966232,71.550155,91.535797,105.585891,29.180282,55.196171,70.56522,83.287834,-14.822693,-17.06916,-13.849556,-17.135653,14.290441,28.845791,36.261138,41.666078,30.881467,44.087744,50.692864,54.448006,42.658024,56.203879,61.614734,63.466172,50.736522,63.726746,68.016251,69.224336,32.617567,292.254128,-81.206331,287.828946
108,0.874214,-0.068086,0.009384,0.253275,-6.388183,-20.630562,-33.826103,-42.732822,-56.784199,-45.706169,-24.109886,-7.927505,-62.017891,-46.571365,-21.476166,0.355614,-60.866638,-46.685199,-21.957435,-1.517578,-56.674049,-50.236107,-34.614509,-20.156593,0.060874,3.087731,9.411368,17.283126,17.738461,35.565373,43.334365,47.989691,24.450941,38.759684,47.519524,52.596013,28.580117,39.969708,46.893078,51.694321,31.512125,42.792863,46.580695,49.862334,25.2495,49.35252,71.90498,89.66851,54.102482,86.16774,103.307762,116.061172,46.455528,82.402222,103.213692,117.978424,37.933296,71.421879,91.295059,105.300178,29.15427,55.154777,70.422008,83.088249,-14.794571,-17.085647,-13.838131,-17.112891,14.26768,28.787116,36.239959,41.680627,30.80607,43.927008,50.442664,54.138921,42.61622,55.997892,61.326916,63.09809,50.781328,63.609198,67.787182,68.925884,33.698753,292.189003,-80.989975,288.085182
109,-3.055938,4.51377,0.098774,0.077201,-5.236245,-18.430253,-30.542679,-38.581639,-52.917332,-39.696122,-18.337304,-2.682152,-59.628422,-43.05217,-18.125496,3.817543,-59.935902,-45.647759,-20.846879,-0.50441,-57.012017,-51.22815,-36.078347,-21.808297,-9.593346,-12.282774,-8.803274,-3.146566,8.225205,25.393721,33.14572,38.112169,20.626392,33.935693,42.260895,47.413436,29.448574,39.789533,45.648264,49.821196,36.258817,47.187442,49.653087,51.352754,25.110729,49.182346,71.783764,89.669071,54.162334,86.027355,103.100452,115.770046,46.484241,82.214435,102.889057,117.516804,37.902992,71.166893,90.876491,104.722332,29.09182,54.979866,70.169323,82.743358,-14.654361,-16.949463,-13.736281,-17.006249,14.436653,28.842493,36.362001,41.866977,30.955296,44.026944,50.497807,54.146861,42.751279,56.032274,61.311712,63.053308,50.907867,63.628575,67.729395,68.838791,30.840912,296.699698,-80.693104,288.159308
110,-1.414673,0.783761,0.094917,-0.048956,-4.508194,-16.972367,-28.981854,-37.228524,-51.062874,-37.941811,-16.632752,-1.105179,-58.46711,-41.618615,-16.685692,5.222534,-59.324456,-44.895848,-20.222718,-0.094345,-56.957119,-51.805001,-37.183514,-23.442868,-10.132711,-13.365024,-10.268439,-4.723042,6.049083,23.302099,31.393515,36.422098,19.15236,32.674539,41.284288,46.46374,28.601951,39.277165,45.324716,49.604588,36.18978,47.192567,49.592201,51.178001,24.992123,49.096173,71.792599,89.793812,54.295223,86.031109,103.044857,115.667324,46.5886,82.175938,102.752415,117.320309,37.90995,71.03397,90.618839,104.38377,28.995747,54.855,69.970127,82.50642,-14.46396,-16.710193,-13.477991,-16.816465,14.604405,28.886546,36.45769,41.985711,31.115983,44.12677,50.559582,54.132436,42.90988,56.080477,61.29299,62.964573,51.069875,63.720139,67.759678,68.825984,29.616967,297.478738,-80.407459,288.105631
111,-4.073708,1.521395,0.044609,-0.116832,-2.775215,-12.852333,-23.459976,-30.352306,-47.017776,-31.898769,-10.482078,4.801369,-55.094398,-36.640926,-11.740631,9.5896,-56.454574,-41.197472,-16.594002,2.904968,-54.451343,-49.279426,-34.919941,-21.681484,-14.579483,-19.942358,-17.728655,-12.781879,2.939196,19.57015,26.892884,31.354031,18.633545,31.414188,39.29811,43.913089,30.11181,40.218907,45.499976,49.210348,39.215179,49.870521,51.632742,52.500966,24.969177,49.131146,71.881874,89.967304,54.571038,86.184643,103.179989,115.7757,46.787922,82.172184,102.61314,117.096188,37.98959,70.898838,90.326695,103.983341,28.95773,54.785729,69.83749,82.315281,-14.314511,-16.474466,-13.215354,-16.568426,14.820013,28.98184,36.610634,42.168158,31.305841,44.347034,50.784169,54.307252,43.063231,56.262529,61.475388,63.139475,51.196007,63.840342,67.83841,68.869333,25.714416,299.009324,-80.191693,287.99799
112,0.446434,-0.812426,-0.131847,0.081078,-3.637962,-14.864067,-27.100044,-35.445534,-48.515133,-34.374973,-12.073082,3.568703,-57.480835,-39.579231,-13.933273,7.786835,-59.646606,-44.926678,-19.536919,0.69722,-58.527889,-54.440849,-39.719147,-25.77618,-14.538282,-21.320392,-20.747224,-16.097604,2.222113,19.465422,27.289594,31.969893,18.849264,31.61757,40.179425,45.334077,30.912009,40.773538,46.107217,49.975992,40.547173,51.151374,52.051633,52.256743,25.097671,49.280605,72.065895,90.214027,54.874363,86.388496,103.369423,115.934578,47.066574,82.326965,102.651535,117.068184,38.199406,70.910923,90.205742,103.778366,29.093708,54.840191,69.859165,82.327835,-14.327355,-16.493572,-13.211871,-16.489187,14.806317,28.86859,36.535756,42.11661,31.274732,44.372735,50.82627,54.334213,42.985635,56.291096,61.529655,63.23262,51.082955,63.765649,67.749947,68.762888,26.301515,298.212302,-80.182875,288.094472
