takenoko1/special-research/HandMotion_SimilarSearch_自分用/NewProject/handData/tgt/d4_feature_d2/135.csv
,vel_0x_L,vel_0y_L,vel_0x_R,vel_0y_R,posFromWrist_1x_L,posFromWrist_2x_L,posFromWrist_3x_L,posFromWrist_4x_L,posFromWrist_5x_L,posFromWrist_6x_L,posFromWrist_7x_L,posFromWrist_8x_L,posFromWrist_9x_L,posFromWrist_10x_L,posFromWrist_11x_L,posFromWrist_12x_L,posFromWrist_13x_L,posFromWrist_14x_L,posFromWrist_15x_L,posFromWrist_16x_L,posFromWrist_17x_L,posFromWrist_18x_L,posFromWrist_19x_L,posFromWrist_20x_L,posFromWrist_1y_L,posFromWrist_2y_L,posFromWrist_3y_L,posFromWrist_4y_L,posFromWrist_5y_L,posFromWrist_6y_L,posFromWrist_7y_L,posFromWrist_8y_L,posFromWrist_9y_L,posFromWrist_10y_L,posFromWrist_11y_L,posFromWrist_12y_L,posFromWrist_13y_L,posFromWrist_14y_L,posFromWrist_15y_L,posFromWrist_16y_L,posFromWrist_17y_L,posFromWrist_18y_L,posFromWrist_19y_L,posFromWrist_20y_L,posFromWrist_1x_R,posFromWrist_2x_R,posFromWrist_3x_R,posFromWrist_4x_R,posFromWrist_5x_R,posFromWrist_6x_R,posFromWrist_7x_R,posFromWrist_8x_R,posFromWrist_9x_R,posFromWrist_10x_R,posFromWrist_11x_R,posFromWrist_12x_R,posFromWrist_13x_R,posFromWrist_14x_R,posFromWrist_15x_R,posFromWrist_16x_R,posFromWrist_17x_R,posFromWrist_18x_R,posFromWrist_19x_R,posFromWrist_20x_R,posFromWrist_1y_R,posFromWrist_2y_R,posFromWrist_3y_R,posFromWrist_4y_R,posFromWrist_5y_R,posFromWrist_6y_R,posFromWrist_7y_R,posFromWrist_8y_R,posFromWrist_9y_R,posFromWrist_10y_R,posFromWrist_11y_R,posFromWrist_12y_R,posFromWrist_13y_R,posFromWrist_14y_R,posFromWrist_15y_R,posFromWrist_16y_R,posFromWrist_17y_R,posFromWrist_18y_R,posFromWrist_19y_R,posFromWrist_20y_R,posFromBody_0x_L,posFromBody_0y_L,posFromBody_0x_R,posFromBody_0y_R
6,8.96632,-1.54013,0.749039,0.220314,0.190785,-3.682651,-9.450016,-15.565292,-33.188679,-14.052452,8.325153,21.597553,-42.617752,-19.226326,5.697567,23.624462,-46.445045,-28.774624,-5.668293,11.229366,-46.781639,-43.427467,-30.940086,-18.860332,-17.880202,-25.184522,-20.725365,-13.022297,-8.019168,5.28423,10.614834,12.828871,11.849484,23.637033,27.718006,28.745299,27.640534,36.501064,37.363668,37.063993,39.560883,48.767462,47.392379,44.764022,25.887325,50.289436,73.056793,93.944984,51.152927,84.637779,102.984718,116.120636,43.094684,79.50785,99.991653,113.683731,35.103172,68.608566,87.366577,99.683761,27.75523,52.224117,66.737468,77.614379,-14.335988,-15.258811,-8.090268,-2.167823,15.870597,28.384824,32.901953,34.695,33.34968,45.626786,48.698375,47.961705,45.239809,58.954513,61.131104,58.455261,52.183099,67.603276,69.341489,65.970299,16.51831,313.320198,-68.940136,296.838038
7,0.756352,0.059071,0.757724,-0.068642,1.204742,-2.295342,-7.96241,-12.997227,-33.34211,-15.423924,6.957962,20.518638,-43.038266,-21.043202,3.772819,21.619171,-47.050827,-30.410717,-7.062584,9.716743,-47.492375,-44.105187,-31.443638,-19.456353,-18.047065,-26.333365,-23.508469,-16.364292,-8.678897,4.670344,10.180988,12.159298,11.156582,23.567637,27.603187,28.487181,27.004517,36.754055,37.605593,37.202746,38.569245,48.711318,47.960581,45.55066,25.667347,49.982254,72.564846,93.423123,50.648426,83.913105,102.143269,115.201275,42.579369,78.834698,99.246907,112.849491,34.570736,67.96296,86.677609,98.97163,27.184971,51.583351,66.03463,76.835278,-14.428774,-15.295515,-8.046252,-2.159684,15.833275,28.350688,32.807561,34.57818,33.32524,45.606495,48.596981,47.757682,45.206427,58.915117,60.987621,58.230046,52.086287,67.525792,69.232685,65.80177,16.907753,313.52725,-68.549321,296.917377
8,1.249099,-0.212619,0.614296,-0.069334,1.861222,-1.472511,-7.558296,-12.839149,-33.192512,-16.27367,5.949234,19.651703,-43.326141,-22.256698,2.6101,20.748116,-47.776703,-31.839706,-8.534729,8.538369,-48.60617,-46.068432,-34.065204,-22.286716,-18.107666,-27.20118,-25.2935,-19.03848,-8.876807,4.430752,10.065539,12.066327,11.061808,23.504973,27.49153,28.314465,27.038443,36.57756,37.62418,37.448129,38.820211,48.927519,48.505455,46.496072,25.545273,49.749825,72.248509,93.09264,50.151421,83.260632,101.360539,114.374005,42.102002,78.22736,98.581707,112.201916,34.11739,67.389874,86.131199,98.509472,26.741444,50.956181,65.344208,76.130894,-14.472135,-15.38199,-8.083845,-2.163425,15.982674,28.374018,32.717505,34.446665,33.425696,45.529641,48.41052,47.49328,45.23981,58.82406,60.756206,57.876587,52.041185,67.447777,69.104467,65.593906,17.814892,313.425619,-68.276985,296.959031
9,-9.14336,2.070923,0.547314,-0.142075,5.538769,6.115757,3.924969,1.713169,-23.33741,-4.596279,16.330387,29.314556,-33.936001,-11.656757,12.166866,30.119831,-39.062382,-21.532528,0.830898,17.441242,-40.635143,-35.679966,-23.491813,-11.517792,-19.566371,-30.287725,-30.317587,-24.855739,-10.977753,1.062774,7.294082,10.017807,8.606439,20.65928,25.242161,26.543131,24.453657,33.745477,35.336538,35.538326,36.15378,46.371015,46.191766,43.792614,25.473621,49.580784,72.0214,92.801971,49.747925,82.736481,100.680313,113.646355,41.644203,77.623833,97.911049,111.582092,33.631668,66.730694,85.555916,98.117569,26.230259,50.171196,64.52203,75.380836,-14.41057,-15.321018,-8.071557,-2.214703,16.167703,28.519206,32.705056,34.345246,33.489422,45.503471,48.262418,47.238892,45.204834,58.792913,60.643548,57.673205,51.912275,67.347877,69.056066,65.566637,8.361025,315.572399,-68.040178,296.892813
10,-0.849117,0.625396,0.558941,-0.001655,4.924965,5.348511,3.204391,1.520576,-22.286797,-3.866203,16.65818,29.548233,-32.564953,-10.580155,12.855652,30.524826,-37.854263,-20.100632,1.95092,18.379738,-39.507225,-35.778317,-24.714043,-13.48597,-19.351566,-30.146687,-30.528428,-25.110039,-11.694972,0.88476,7.46229,10.539005,7.71832,20.470249,25.065591,26.539018,23.328528,33.166159,34.926552,35.200649,34.908397,45.316701,46.150467,44.840617,25.420555,49.359569,71.733158,92.392055,49.420303,82.303013,100.112354,113.000988,41.234882,77.110508,97.324665,110.963505,33.174534,66.170837,85.023891,97.66341,25.752788,49.435421,63.773254,74.703106,-14.283451,-15.260317,-8.192032,-2.386196,16.269653,28.567865,32.707217,34.338824,33.473911,45.416663,48.087985,46.979071,45.086681,58.687345,60.424495,57.327008,51.699014,67.139111,68.877892,65.383263,7.23848,316.252648,-67.754665,296.946011
11,-10.245072,3.057362,0.463051,-0.05019,7.028286,10.882164,12.990029,14.528573,-12.298645,8.280121,27.564538,39.668587,-22.090541,1.74804,24.001351,40.960717,-27.415248,-6.949813,14.249657,29.884278,-29.01535,-22.947109,-12.103809,-1.042568,-19.920856,-31.502603,-33.520792,-29.144688,-12.863821,-1.104678,5.641468,8.972174,5.599638,18.399165,23.170335,24.918329,20.430692,30.646062,32.506565,32.72426,31.322797,42.164984,43.427335,42.213656,25.2453,49.089695,71.387798,91.95869,49.175709,81.946781,99.653171,112.532467,40.923912,76.678745,96.860447,110.502582,32.822033,65.695289,84.620441,97.357441,25.346019,48.886963,63.226604,74.181942,-14.316414,-15.273866,-8.230429,-2.465781,16.287276,28.618475,32.713231,34.314815,33.455508,45.364619,47.954134,46.736984,45.029339,58.673401,60.263696,56.99316,51.564743,66.988081,68.716797,65.18035,-3.260359,319.343287,-67.545381,296.929098
12,3.337761,-2.923574,0.469127,0.057205,7.492894,10.135941,10.373406,10.189614,-14.895755,5.453774,25.4133,37.525887,-25.340583,-1.040931,21.571358,38.303605,-31.43407,-10.592628,10.992508,26.473961,-33.816146,-27.747825,-16.64075,-5.740127,-19.379366,-31.021776,-33.305603,-29.767094,-11.107454,2.221583,8.064999,10.398264,7.936349,22.124543,25.880574,26.572784,23.116156,34.410615,35.486937,35.159956,34.52657,46.146281,46.800168,45.235512,25.122506,48.827294,71.037529,91.533142,48.984284,81.708298,99.388871,112.263222,40.66333,76.384232,96.566346,110.152451,32.501656,65.364865,84.311783,96.997147,24.973137,48.50607,62.836075,73.691071,-14.366913,-15.364305,-8.42425,-2.742879,16.265911,28.544647,32.666548,34.326647,33.421781,45.264275,47.851049,46.662563,44.978197,58.59625,60.106147,56.762374,51.460817,66.842203,68.521604,64.900276,-0.143755,316.436806,-67.297411,297.003396
13,-10.098724,2.465991,0.297753,0.024169,9.592323,15.149414,19.06794,21.694176,-5.717022,18.470512,37.150543,47.622025,-15.60664,12.316155,33.94043,49.735794,-21.528728,3.063789,23.813507,38.508774,-24.149723,-13.955028,-1.979702,9.068939,-20.448192,-32.319931,-34.53004,-30.171289,-13.237078,-0.96753,5.313894,8.437453,5.277116,19.124547,23.330121,24.285906,20.301436,31.495983,32.595165,31.9919,31.498255,43.057833,43.226116,40.61868,24.831676,48.515133,70.746025,91.111816,48.994938,81.839309,99.537826,112.414032,40.511673,76.341385,96.518715,110.055748,32.194713,65.213802,84.214142,96.960113,24.535034,48.272678,62.684807,73.61174,-14.581767,-15.489535,-8.547751,-2.948767,15.988158,28.438893,32.682974,34.447715,33.191118,45.055633,47.747716,46.692438,44.831874,58.428944,59.983436,56.740453,51.3521,66.690371,68.415986,64.887642,-10.449537,318.917839,-67.206716,297.042607
14,-5.806515,-0.23932,0.380058,-0.013782,10.424126,17.70282,23.237286,26.825695,0.120014,26.06535,44.496792,54.872601,-9.425731,20.578663,41.656346,56.46333,-15.681804,11.410366,32.101193,46.037739,-18.577091,-6.861717,5.259671,16.019726,-20.087607,-31.252513,-33.237357,-29.488563,-11.386418,1.859354,7.360316,9.678019,6.759163,21.363382,24.922466,25.443529,21.215157,33.406528,33.832075,32.593979,31.855728,44.163215,44.208552,41.676069,24.673611,48.250111,70.424767,90.742539,48.965595,81.837593,99.533844,112.416092,40.459408,76.244476,96.390198,109.858269,32.089245,65.16227,84.095284,96.793167,24.374096,48.27705,62.692921,73.622932,-14.735563,-15.576246,-8.601228,-3.074763,15.832101,28.37876,32.746539,34.640844,33.109175,44.94316,47.735538,46.799945,44.831231,58.369379,60.022227,56.923308,51.381072,66.649899,68.442563,65.050563,-16.455963,318.692002,-67.026569,297.042308
15,5.993214,-4.093274,0.3093,-0.066654,9.949688,15.419025,17.967567,18.339203,-5.189507,20.871963,40.177872,50.27877,-15.44846,15.61029,36.740158,50.737884,-21.937866,5.336678,25.992096,39.085327,-25.170731,-12.856728,-0.157826,10.240826,-19.723205,-30.157543,-31.112044,-27.225942,-8.768337,5.997867,10.371154,11.419652,10.360163,25.852983,28.474127,27.877445,25.400476,38.393923,37.775456,35.77436,36.541189,49.380026,47.798375,44.004121,24.498115,48.090374,70.238628,90.52827,48.919784,81.863674,99.516025,112.401409,40.397449,76.180927,96.296871,109.725093,32.012111,65.105678,84.053844,96.818286,24.309333,48.328754,62.791053,73.809803,-14.95427,-15.659435,-8.559459,-3.162411,15.699647,28.274699,32.660448,34.620998,33.099518,44.852239,47.693153,46.805207,44.926327,58.381841,60.100342,57.102187,51.506229,66.676304,68.486073,65.151847,-10.658346,314.622332,-66.912866,296.999258
16,1.351067,-0.628743,0.365913,-0.143496,10.226165,15.530124,17.903389,18.342338,-6.410408,20.224021,39.52034,49.080345,-16.895176,14.833419,36.284751,50.453475,-23.320347,4.217308,24.657463,37.818557,-26.799958,-13.536404,-0.588994,9.755252,-20.351343,-30.910144,-30.946268,-26.004037,-9.748426,4.460702,9.060749,10.594382,10.003381,24.950205,27.76117,27.041679,25.689382,37.802466,37.329063,35.315937,37.419688,49.562918,47.310597,42.695618,24.411232,47.964466,70.135769,90.380939,48.784813,81.840099,99.466656,112.371952,40.230766,76.066463,96.154369,109.561031,31.803623,64.989933,83.92416,96.70966,24.095776,48.25217,62.758324,73.861599,-14.931027,-15.553434,-8.447135,-3.127942,15.665944,28.223878,32.637489,34.678982,33.126713,44.818375,47.742801,46.970686,45.009394,58.441504,60.270305,57.386696,51.620097,66.772598,68.627408,65.350585,-9.476652,314.013661,-66.716326,296.875834
17,-8.005864,4.537284,0.241115,-0.183509,10.58812,18.211407,23.882412,27.186573,1.779671,29.942723,48.173298,57.262493,-7.534492,24.927235,45.408863,59.278828,-13.615757,15.156166,34.636746,47.461247,-16.923259,-3.302559,8.851982,19.007687,-21.125865,-32.189378,-33.358116,-29.19515,-12.604877,0.401613,5.851469,8.264713,6.345016,20.531308,24.067619,24.222242,21.396456,32.828742,32.984638,31.378818,32.351461,43.983534,42.890206,39.053135,24.296986,47.916035,70.142602,90.296265,48.723839,81.923859,99.527504,112.457177,40.132908,76.022187,96.102173,109.564888,31.672795,64.89132,83.884369,96.824227,23.979275,48.182946,62.747933,74.027115,-14.962743,-15.470121,-8.308592,-3.016817,15.662708,28.284356,32.706266,34.798716,33.15014,44.79465,47.791311,47.133509,45.076331,58.497066,60.419221,57.645726,51.693258,66.829791,68.795207,65.667055,-17.643294,318.564895,-66.635989,296.706275
18,2.894348,-2.628023,0.368157,-0.207173,11.376423,18.749875,23.431881,25.319081,0.754487,28.54414,46.925366,55.716671,-9.025371,23.362416,42.644063,54.967381,-15.868858,12.530114,30.730671,41.722928,-19.941238,-6.958248,3.695206,12.083027,-20.691007,-31.836425,-33.928739,-31.556412,-10.248815,4.557193,8.562633,9.412319,9.12124,24.586927,26.554863,25.484852,24.035669,36.694787,35.837531,33.789294,34.867173,47.343016,45.845531,42.053735,24.373718,48.023621,70.248184,90.420341,48.661079,81.82402,99.382759,112.343788,40.16011,75.954826,96.04779,109.587913,31.750328,64.816521,83.781006,96.768539,24.101658,48.129787,62.637783,73.928398,-14.850418,-15.374469,-8.238962,-2.980223,15.822604,28.290346,32.66419,34.809386,33.296415,44.847583,47.904438,47.324849,45.188803,58.616554,60.626554,57.883342,51.768655,66.968433,69.01168,65.896853,-14.924378,315.947076,-66.443264,296.509306
19,11.614838,-3.632295,0.347454,-0.056119,4.730507,5.315083,4.769577,1.639927,-13.352852,14.294163,33.230404,42.217243,-21.074879,10.953518,30.954907,43.732601,-25.359421,2.073486,20.374203,31.555813,-27.013252,-15.295017,-4.835415,3.202114,-15.021726,-21.849074,-20.663405,-16.697423,-3.881606,9.853525,13.390972,14.209671,13.043095,27.15178,28.929191,27.436078,25.860097,37.346439,36.570397,34.761851,35.339489,46.748038,44.772445,41.192181,24.313351,48.06094,70.329037,90.527561,48.521324,81.805149,99.388538,112.353527,39.990223,76.042545,96.198521,109.734386,31.60199,64.883617,83.918232,96.915974,24.044071,48.122326,62.682827,74.000965,-14.830522,-15.399095,-8.279532,-3.039207,15.729769,28.205699,32.554459,34.721565,33.280656,44.752068,47.823731,47.309498,45.19341,58.554322,60.499732,57.710354,51.756404,66.956145,68.917536,65.677319,-3.476298,312.320255,-66.262568,296.458661
20,-4.014473,0.434402,0.351746,-0.138037,6.388115,8.506771,9.890488,8.236714,-9.171581,18.983242,38.008221,47.227398,-16.861748,14.959385,35.475117,49.062298,-21.55125,5.716313,24.359951,36.178997,-23.721268,-12.160618,-1.726158,6.684311,-15.318499,-22.396356,-21.790202,-18.573709,-4.992694,8.153499,11.949038,13.246414,11.758525,25.706301,27.8946,26.703978,24.610491,36.027537,35.780103,34.531732,34.250125,45.75235,44.39804,41.463005,24.305923,48.093486,70.392894,90.563907,48.480732,81.794918,99.38451,112.379299,39.935691,76.117,96.299823,109.871807,31.514373,64.905246,83.950389,96.987568,23.9118,48.027637,62.586193,73.947521,-14.720545,-15.386375,-8.325771,-3.040565,15.596166,28.190817,32.533501,34.712105,33.164504,44.626146,47.786767,47.434382,45.099722,58.490991,60.541846,57.864545,51.673622,66.950229,68.981855,65.807402,-7.646828,312.757106,-66.066879,296.323073
21,1.723847,-1.596718,0.379245,0.030851,4.60215,5.515926,5.332672,1.21804,-10.837464,17.420368,36.65546,46.133319,-18.331524,13.661487,34.436222,48.22475,-22.763684,3.993473,22.932117,35.049099,-24.587552,-14.916378,-5.025032,3.351585,-14.082848,-19.206342,-16.4315,-12.08952,-3.246528,9.85954,13.812308,15.379805,13.480486,26.675808,29.292407,28.309958,26.238652,36.935799,37.098215,36.123077,35.932355,46.700268,45.15468,42.402304,24.22498,48.046589,70.384919,90.558701,48.527081,81.853363,99.408738,112.342896,39.977875,76.27034,96.440438,109.941582,31.538647,65.03872,84.068001,97.086663,23.924801,48.048947,62.590165,73.970902,-14.865461,-15.602057,-8.512616,-3.239983,15.447928,28.109294,32.441369,34.622369,33.073644,44.439351,47.630242,47.383734,45.022003,58.2915,60.358928,57.798447,51.597619,66.81628,68.845361,65.759594,-6.093355,311.166995,-65.858008,296.360531
22,0.083782,-3.773567,0.296254,0.054414,6.40757,8.334629,7.546863,1.7318,-9.925781,18.675979,38.140159,47.40921,-18.255512,14.283096,34.966896,48.355293,-23.486469,3.259231,22.147453,33.794792,-26.477017,-15.746361,-5.220246,3.06522,-13.931795,-18.775016,-15.293293,-10.948546,-1.890625,12.426801,15.817219,16.781057,15.737463,29.766428,31.826187,30.019555,29.141933,40.772031,40.556423,39.296653,39.644703,51.29892,48.802412,45.221086,24.17498,48.086597,70.491886,90.669719,48.699108,81.983036,99.51012,112.419307,40.130424,76.476139,96.623989,110.055805,31.617931,65.244587,84.217929,97.176006,23.892746,48.09391,62.606323,73.955005,-14.974808,-15.804956,-8.747662,-3.472608,15.165716,27.923697,32.277052,34.487655,32.839932,44.132538,47.336841,47.153689,44.858377,58.035088,60.121103,57.626917,51.526137,66.684394,68.670744,65.581371,-6.193765,307.399535,-65.745946,296.421052
23,-3.327095,-0.094528,0.282875,-0.081103,7.320213,10.719692,10.93864,5.610317,-6.311795,21.843178,41.489227,51.593582,-14.653164,16.617645,38.372085,53.24105,-20.240021,5.379993,25.365852,38.483803,-23.804535,-13.555378,-1.979244,7.725139,-13.506038,-18.237515,-14.656423,-10.421222,-2.257916,11.321901,15.659756,17.560273,15.262825,28.637964,31.712258,30.754731,28.745657,39.970819,40.628671,39.992062,39.45114,51.153621,49.334973,46.19904,24.038543,48.039962,70.468311,90.635799,48.767292,82.033298,99.55569,112.461353,40.149948,76.526447,96.701122,110.067386,31.57386,65.307346,84.269588,97.148357,23.775501,48.135315,62.651195,73.930446,-15.048402,-15.880365,-8.851637,-3.589168,14.970103,27.909877,32.316251,34.554135,32.731819,44.143394,47.334705,47.16809,44.823315,58.062777,60.144099,57.686457,51.548726,66.650332,68.58995,65.496847,-9.700052,307.32691,-65.642263,296.361852
24,-8.819882,2.144826,0.220859,-0.209753,14.615078,24.338917,28.205075,25.841881,6.364998,34.612736,53.910359,63.115185,-4.173523,27.042263,48.19907,62.393612,-12.682525,12.86316,32.539433,45.224705,-19.816326,-8.184539,3.830716,13.79789,-19.424827,-29.124717,-29.345018,-27.566273,-9.571387,4.987433,9.792467,11.803493,11.267104,25.906274,28.864897,27.802716,27.624677,39.840168,40.223206,39.307596,40.567662,53.252,51.265353,47.325825,24.03035,48.108032,70.542504,90.601891,48.995316,82.14988,99.586121,112.454979,40.335045,76.523369,96.64801,109.963692,31.657929,65.258057,84.129456,96.958923,23.717732,48.016033,62.433884,73.612496,-15.042722,-15.870363,-8.891949,-3.587699,15.028815,28.065327,32.526066,34.814622,32.795816,44.371079,47.607282,47.495181,44.910259,58.275209,60.451949,58.084524,51.665668,66.7724,68.772421,65.773648,-18.701146,309.494939,-65.602616,296.175302
25,-3.900901,0.19386,0.01799,0.029072,15.755332,27.386455,32.587635,30.650596,10.901744,40.016475,58.735736,67.596096,0.634449,32.289356,52.915546,66.599842,-7.943161,18.225517,37.510677,49.82452,-15.620842,-2.050599,10.948471,21.346813,-19.709509,-29.636641,-29.742667,-27.749845,-10.090326,4.343993,9.200008,11.236142,10.845212,25.360079,28.177627,27.116841,27.36814,39.675899,39.882417,38.729599,40.500341,53.289815,50.759888,46.093471,24.109577,48.265972,70.719452,90.816628,49.156449,82.38501,99.865998,112.705971,40.468552,76.735131,96.878014,110.104203,31.809231,65.479981,84.337189,97.019028,23.91869,48.340702,62.754273,73.806084,-15.141547,-16.067038,-9.142384,-3.748843,14.674256,27.828761,32.404368,34.740164,32.492992,44.282159,47.536702,47.397294,44.677028,58.150004,60.348393,57.996555,51.496879,66.623643,68.568386,65.553348,-22.791704,309.710164,-65.774283,296.225739
26,-4.648659,-0.967395,0.030682,-0.119858,19.507335,34.1124,40.926143,40.138241,17.056789,46.605709,65.427006,74.210735,6.484314,38.039417,58.01469,70.923603,-3.190327,23.349312,42.291904,53.756664,-12.568382,3.444317,17.424774,27.832432,-20.585994,-32.289401,-35.151261,-35.573103,-10.645857,5.331,9.39971,10.286755,10.719823,26.987438,28.515612,26.395103,27.579908,41.931568,41.135346,39.303693,40.94161,55.573148,52.860119,47.76161,24.263557,48.487896,70.914539,91.074657,49.221222,82.413334,100.017483,112.880916,40.579376,76.902202,97.13673,110.330326,31.964619,65.715076,84.524975,96.995716,24.111442,48.614216,62.990559,73.80962,-14.992592,-15.957578,-9.210062,-3.821387,14.425674,27.617711,32.34163,34.761789,32.230232,44.319493,47.61168,47.422773,44.482465,58.192366,60.427978,58.057527,51.400796,66.60292,68.517837,65.41851,-27.622289,308.758929,-65.925527,296.122041
27,5.159569,-0.843387,0.134239,0.021427,18.371646,31.118213,36.905811,35.765682,11.43037,40.279415,59.910221,69.234775,0.630821,31.542057,52.323726,65.877353,-8.629956,17.307689,36.870586,48.73479,-17.171746,-2.065865,11.797634,22.024543,-20.294754,-31.687434,-34.192747,-34.113373,-9.669373,6.500194,10.336587,11.101885,11.600482,27.888598,29.287196,27.089116,28.398138,42.643909,41.695484,39.815826,41.728039,56.052294,53.122472,47.931362,24.412479,48.623978,70.999958,91.231854,49.223511,82.47282,100.123524,112.885792,40.642101,77.139393,97.423382,110.548611,32.143696,66.03986,84.812061,97.089603,24.446755,49.146881,63.536671,74.190914,-15.011278,-16.047721,-9.354471,-3.981777,14.027743,27.30176,32.145412,34.630669,31.904376,44.21768,47.516955,47.294036,44.224633,58.063765,60.293473,57.937238,51.209963,66.404986,68.208419,65.033163,-22.657167,307.937689,-65.985735,296.165615
28,4.169815,1.284088,0.171375,0.069371,14.699833,24.938633,30.038234,28.457691,5.334056,34.702022,54.142444,63.284465,-4.83331,27.127475,48.388195,62.226139,-12.500576,14.352653,33.889858,46.017803,-18.901989,-3.952114,9.822326,20.27536,-20.319554,-30.606641,-30.510027,-27.95456,-9.658864,5.448745,9.542698,10.974505,11.2087,26.019697,27.962673,26.332364,27.789624,40.457437,39.702934,37.77763,40.951107,53.482464,50.133986,44.807568,24.582539,48.681244,70.94426,91.267365,49.076146,82.375695,100.125367,112.837258,40.562989,77.304955,97.673882,110.767708,32.220509,66.360009,85.111679,97.186592,24.710541,49.610562,63.978768,74.411385,-15.097655,-16.233628,-9.606722,-4.25369,13.544656,26.988042,31.99642,34.54423,31.470085,44.046581,47.349697,47.075217,43.873569,57.833509,60.042408,57.697732,50.947535,66.060331,67.747884,64.466306,-18.705871,309.235674,-66.032879,296.248883
29,2.916137,-0.537056,0.033543,-0.053303,14.367749,23.518307,28.24355,26.875775,2.071358,31.560597,51.453839,60.678852,-8.035595,23.922329,45.45345,59.428036,-15.347557,11.70044,31.416172,43.590397,-21.223755,-5.825718,8.075558,18.298027,-20.332793,-30.516374,-30.266927,-27.296658,-9.039532,6.496218,10.242529,11.383244,11.668099,26.88445,28.459295,26.592593,28.148394,41.091528,40.077685,38.130151,41.221463,53.74783,50.129973,44.689601,24.600529,48.604076,70.80463,91.337528,48.833759,82.14513,100.133709,112.935276,40.395367,77.349781,97.897533,111.007816,32.232468,66.603458,85.444553,97.351719,24.963169,50.174183,64.680416,75.030132,-15.311682,-16.466563,-9.764803,-4.455144,13.091075,26.598162,31.796534,34.424965,31.102793,43.919449,47.266791,46.964128,43.583688,57.662757,59.760171,57.320561,50.720837,65.794273,67.294463,63.792634,-16.024269,308.717134,-66.233871,296.214096
30,1.01841,-1.417456,0.145317,-1.174542,13.820458,22.111645,26.354977,24.678097,0.201233,30.084675,50.47768,59.731625,-10.191055,22.750454,44.743847,59.062145,-17.491573,10.551979,30.527515,42.803593,-23.081394,-7.359547,6.35566,16.312843,-20.260421,-29.804244,-29.180392,-25.865667,-6.920072,9.069876,12.778544,14.067843,13.509471,28.91237,30.504259,28.750226,29.478313,42.40964,41.430747,39.815949,41.86321,54.331631,50.724666,45.428728,24.539898,48.469048,70.558399,91.146389,48.497223,81.703205,99.797527,112.743725,40.161335,77.017605,97.692295,110.998821,32.160645,66.304356,85.184567,97.188366,25.107376,50.50375,65.085537,75.600094,-15.489301,-16.372011,-9.543625,-4.448068,13.22511,27.140207,32.879303,36.061709,31.161406,44.687698,48.670847,49.045413,43.589591,58.259513,60.79864,58.901174,50.759147,65.830002,67.453729,64.211252,-15.25787,307.335635,-66.340565,295.075511
31,9.302948,-3.360754,0.162941,-3.408635,9.37183,11.768932,10.960533,6.599442,-11.489056,13.618412,31.184326,39.077889,-20.946854,6.882202,25.540684,38.028477,-26.655395,-3.304459,13.925491,24.477413,-30.164417,-18.666939,-8.093903,-0.619606,-15.755074,-21.100548,-17.465252,-12.741036,-2.152347,13.712939,16.714318,17.24384,15.110388,30.349488,31.903635,29.969217,28.494963,41.465377,40.573306,38.844974,38.98784,51.292041,49.107089,45.167796,24.632,48.640091,70.212559,90.200695,48.978447,81.999149,99.595608,111.859371,40.644115,76.714932,96.63818,108.847149,32.494972,65.356213,83.461201,94.351467,25.107239,49.396614,63.013058,72.024365,-16.979869,-17.368724,-9.893454,-4.462122,11.553057,26.630421,33.000754,36.944357,29.728056,44.603347,49.477036,50.682008,42.70015,58.487693,61.837863,60.93764,50.501388,66.291796,68.486949,65.771524,-6.213924,304.022799,-66.436626,291.714794
32,7.901894,-2.115643,1.271633,-5.347401,0.984798,-2.811894,-7.566582,-13.140107,-22.234177,-7.125023,5.024139,11.006138,-28.167973,-11.626808,1.2793,11.397354,-30.61282,-16.692879,-4.52995,4.017311,-31.561455,-25.405278,-18.35669,-12.813458,-12.323344,-13.701169,-7.317461,-1.061885,4.643273,18.223139,19.46541,19.406191,18.518973,30.764401,30.929275,28.846594,28.188026,38.149689,36.267623,34.29629,35.003962,43.870556,41.525349,38.406039,23.871746,46.862606,67.293755,86.495957,48.857426,79.752709,95.677025,106.100075,40.502163,73.486176,89.985855,98.745781,31.747273,60.297798,74.34811,81.550392,23.378105,43.646382,53.899967,59.562378,-17.853143,-18.13386,-10.862651,-5.660129,8.957614,25.177039,33.075447,38.415882,27.065638,44.899243,51.816574,54.574841,40.503936,58.989983,64.175647,64.881331,48.810391,66.076572,69.655885,68.131342,1.461176,301.964649,-65.391787,286.424886
33,10.890381,-4.263619,-5.285888,-15.917231,-3.494397,-12.282704,-21.906086,-29.896203,-30.587975,-27.963112,-22.637467,-20.721611,-33.760312,-31.368119,-26.889977,-22.691254,-33.963089,-32.558121,-27.961213,-24.973378,-33.031735,-34.646531,-32.953537,-32.024975,-11.974343,-12.161571,-5.562773,0.095491,8.253474,22.208462,23.340285,22.923754,21.729167,34.719157,34.832691,33.15329,30.861189,42.182596,41.120143,40.049341,36.979345,47.203596,46.290715,44.487232,24.304344,48.854278,69.600757,86.645416,50.676063,82.035278,92.865314,98.577816,42.271945,75.604934,86.926815,90.911773,33.397155,62.789989,72.339328,75.106819,24.736747,46.620632,54.340908,56.966205,-12.575755,-11.277095,-4.832253,-0.449765,7.64459,24.284684,31.544939,35.513811,21.469458,40.119552,46.918964,49.006029,31.996075,50.771424,56.283043,57.066323,38.753546,55.052938,58.834163,57.767387,12.086432,297.804048,-70.9428,270.610673
34,13.817997,-3.086866,-11.168335,-23.906647,-12.036553,-27.457352,-42.444237,-53.511075,-43.058167,-52.675713,-54.706765,-57.152928,-43.177872,-53.68673,-57.218468,-58.782612,-40.111027,-50.195836,-53.214936,-55.461583,-35.761277,-45.705472,-49.747571,-53.17035,-11.477351,-9.385519,0.049227,7.700536,11.853362,24.585334,26.243629,26.715377,24.741019,36.218543,37.228051,36.963463,33.163022,43.827343,44.199648,44.261399,38.317576,48.084675,48.651556,48.385783,23.74221,49.002422,70.305381,85.182552,49.60255,81.867919,87.697311,88.68148,42.317333,76.115043,81.934719,81.199607,34.68124,65.097061,69.31105,67.681125,27.232463,49.933227,53.554733,52.459693,-15.464254,-16.334676,-10.534707,-5.15343,-1.884314,15.210077,21.676642,24.379557,12.979035,31.666871,37.57893,39.179006,25.615936,43.265439,47.722336,48.320784,34.988895,48.974499,51.395029,50.282867,25.469101,294.877054,-82.546463,246.863898
35,15.183631,-1.938753,-13.688221,-26.799074,-20.376297,-42.604843,-62.995742,-76.852684,-56.279686,-78.77647,-88.350929,-95.065738,-52.944316,-77.914135,-89.665443,-97.037853,-46.457256,-69.39426,-80.032127,-87.401481,-38.690437,-57.518611,-67.230709,-74.945068,-10.873791,-7.291575,4.435927,13.817902,14.081144,25.217263,27.295745,28.340648,26.45726,36.277416,38.044281,38.915122,34.476898,44.337438,46.038538,46.945788,39.130656,48.31046,50.355497,51.53456,17.727367,39.019397,57.772327,70.633403,42.55323,71.022617,74.524223,73.059013,39.211223,68.745185,71.131507,67.323131,34.674076,61.072506,61.34159,56.245262,29.560421,49.3633,49.684867,45.231113,-17.134615,-21.817674,-19.6402,-16.379574,-13.247692,-2.231023,2.107672,4.22468,0.560379,13.322967,17.888341,19.431744,13.430122,25.200103,28.730022,29.818978,24.041387,33.383607,34.859491,33.95696,40.008493,293.16587,-96.878923,220.292393
36,7.584,-0.146114,-17.681031,-29.546794,-25.110901,-49.474182,-71.044613,-85.601097,-60.155811,-90.415592,-104.340294,-114.082855,-54.533993,-88.038242,-104.356396,-115.457096,-46.224564,-76.564579,-92.016575,-102.812725,-36.948463,-60.34251,-72.890144,-82.828777,-14.778331,-13.226271,-1.753255,8.261934,13.748149,23.970263,27.108888,29.626502,28.443512,37.090249,39.676381,42.065406,38.08038,47.112662,50.078127,52.37502,43.455939,52.166242,54.346353,55.853594,9.614285,25.636906,42.123425,53.389378,31.771317,55.09964,56.339196,53.464085,32.883225,57.062714,56.372578,50.856137,32.393944,54.377426,51.399502,44.445179,30.912037,48.049462,45.780876,39.798237,-17.125538,-27.086966,-30.105524,-30.538178,-26.526124,-23.545784,-22.27249,-21.259586,-14.651088,-9.638214,-6.916213,-5.194049,-2.501947,2.187873,4.586833,6.493445,8.70088,11.971429,12.593101,12.739197,46.770618,293.594711,-115.381829,191.320554
37,2.787872,-0.720961,-21.88298,-33.200479,-24.470604,-48.218742,-70.312202,-86.054317,-58.510025,-90.382461,-106.690475,-119.224697,-52.937965,-88.044204,-107.077583,-121.789993,-44.775283,-76.908245,-95.229251,-109.324699,-35.219123,-60.426269,-74.83263,-87.044998,-18.10506,-18.652415,-7.36134,3.115852,10.179482,21.452365,26.923304,30.880665,27.61334,37.84831,42.5849,46.369953,40.197604,51.584146,56.951578,60.64776,48.179846,59.832185,63.667108,65.859557,3.352581,14.625343,28.359318,37.098026,18.270687,37.792786,38.736546,36.56163,23.452251,44.024734,44.12875,40.361446,27.563415,47.897655,45.813778,40.336544,30.777328,47.821278,46.107742,41.089348,-18.561884,-33.770924,-41.800052,-46.309191,-36.11957,-40.564525,-43.380863,-45.044801,-25.526855,-29.657624,-30.478824,-29.991323,-13.97402,-18.01919,-18.435894,-16.995603,-2.408421,-6.20659,-7.441098,-7.236901,48.531589,293.588239,-138.29171,158.834564
38,0.805916,-0.657456,-17.848023,-23.572232,-25.239624,-48.91246,-71.096443,-86.850643,-58.836983,-90.618278,-106.965683,-119.671646,-53.307998,-88.191215,-107.207588,-122.155277,-45.313133,-77.073246,-95.366077,-109.476723,-35.975807,-60.816616,-75.287727,-87.682537,-18.081311,-18.840174,-7.534699,3.434335,10.499916,21.715026,27.191831,31.332813,27.98625,37.856127,42.546725,46.350291,40.532736,51.623567,57.061394,60.807014,48.395786,59.859466,63.803835,66.036174,-3.363006,1.174679,10.342164,16.742833,4.665585,17.042679,18.691189,18.343346,12.720475,25.590146,26.153046,24.164498,19.986546,33.366257,30.690148,26.255597,26.598187,37.959057,34.588681,29.423699,-25.201566,-45.681349,-56.638626,-63.105185,-46.709963,-57.740785,-62.998215,-64.843496,-34.567146,-45.329304,-46.544521,-44.678825,-21.467228,-31.464138,-31.602342,-28.645923,-8.231719,-16.246435,-17.239171,-15.929519,47.909654,293.95048,-157.567584,136.282029
39,0.226135,-0.470514,-18.557956,-17.921254,-25.459762,-49.078788,-71.20816,-86.947448,-58.820549,-90.484371,-106.809322,-119.506244,-53.206306,-88.039283,-107.033523,-121.954765,-45.217369,-76.925754,-95.198822,-109.276119,-35.928039,-60.671642,-75.093177,-87.469173,-17.919636,-18.801654,-7.456065,3.656983,10.610759,22.201052,27.783499,31.918208,28.120805,38.286429,43.018005,46.755288,40.626757,51.845165,57.284586,60.973642,48.401727,59.959984,64.039019,66.347039,-11.19191,-13.761669,-9.194607,-3.692059,-9.545174,-4.265316,-0.841919,1.29332,2.157657,8.516075,10.179645,9.99139,13.147842,20.161274,18.371372,15.573807,23.2565,30.114315,26.946132,22.622177,-23.425667,-46.738646,-62.599597,-74.114487,-46.667614,-66.452638,-75.056459,-78.11261,-37.530715,-57.6808,-57.199654,-52.968077,-27.506604,-45.443079,-42.641772,-36.915156,-17.051221,-30.902561,-29.231348,-25.236529,46.454063,294.903075,-177.807266,119.783884
40,0.449181,-0.39356,-16.838516,-14.659208,-25.675713,-49.267136,-71.387272,-87.045994,-58.850006,-90.390484,-106.656933,-119.334995,-53.155083,-87.831207,-106.808979,-121.772964,-45.113777,-76.688656,-94.894421,-108.88599,-35.813713,-60.407776,-74.6987,-86.948788,-17.8114,-18.734544,-7.329107,3.810742,10.489568,22.431245,28.129079,32.326378,27.971146,38.496455,43.34753,47.155665,40.457611,51.947744,57.509814,61.305303,48.233408,59.995256,64.228765,66.680022,-14.308857,-20.087666,-16.820744,-12.220093,-18.78724,-15.848431,-14.07177,-12.504776,-5.828717,-2.03769,-1.065697,-1.226555,7.282367,11.750793,9.497039,7.100601,19.92588,23.663028,19.997428,16.466732,-21.840658,-46.02449,-63.781155,-77.054078,-45.487682,-67.187493,-78.65321,-84.857385,-38.680291,-60.812769,-58.065555,-52.353895,-30.784526,-50.519117,-45.092189,-37.63406,-22.349555,-38.255374,-34.11914,-27.987436,45.120048,295.966381,-196.428978,106.581542
41,0.781036,-0.04525,-12.638432,-9.73846,-25.845199,-49.378486,-71.459598,-86.944908,-58.912124,-90.418464,-106.683631,-119.352344,-53.227363,-87.735614,-106.748085,-121.768341,-45.181114,-76.613422,-94.732978,-108.59785,-35.854248,-60.25653,-74.348053,-86.345295,-17.679687,-18.726134,-7.377952,3.900366,10.269377,22.436221,28.237833,32.440616,27.764986,38.495244,43.489246,47.355748,40.230418,51.899381,57.570971,61.393976,47.92426,59.854168,64.208016,66.688481,-15.720646,-22.96907,-21.436008,-18.080086,-26.08334,-25.662094,-24.751911,-23.483093,-12.984272,-10.795074,-10.612175,-11.203342,1.412167,5.221333,3.1982,1.063854,15.71204,18.354458,14.954624,11.926586,-21.044188,-44.320951,-62.416989,-76.182941,-38.90862,-61.415274,-74.993757,-84.229464,-33.438237,-58.715459,-59.521475,-57.23311,-27.913224,-52.176208,-47.269082,-39.937635,-22.414097,-42.547053,-38.556562,-32.05107,43.713312,297.173494,-211.255182,98.095445
42,1.210648,0.016586,-11.136452,-10.587053,-25.916679,-49.391167,-71.506107,-87.004429,-58.967033,-90.503529,-106.831512,-119.548897,-53.244598,-87.688751,-106.699436,-121.784386,-45.187775,-76.604061,-94.658558,-108.468704,-35.909866,-60.349205,-74.31086,-86.133625,-17.596904,-18.744684,-7.493079,3.828809,10.006049,22.202966,28.041405,32.255686,27.497137,38.300112,43.412886,47.417277,40.017095,51.729184,57.396822,61.283332,47.830362,59.844127,64.168027,66.630831,-17.571075,-26.436561,-26.088855,-23.181438,-30.731701,-31.242553,-31.605125,-31.566353,-16.697273,-13.854332,-14.356693,-15.842571,-0.737308,3.780419,1.34309,-1.385673,15.246987,17.944245,14.193947,10.885254,-20.778112,-44.382849,-63.395282,-76.668836,-36.349009,-63.197205,-79.7337,-91.041454,-31.577968,-62.956335,-62.02906,-57.657884,-27.261528,-57.816219,-50.790312,-41.624767,-23.55541,-48.560388,-43.152589,-35.041475,42.164989,298.458032,-225.150605,88.776344
43,1.482674,0.24936,-7.936935,-15.20694,-25.943459,-49.303231,-71.456223,-87.126229,-58.919999,-90.512123,-106.91486,-119.671166,-53.206353,-87.644669,-106.696267,-121.824303,-45.17759,-76.637822,-94.633725,-108.415169,-35.943421,-60.404732,-74.232949,-85.917229,-17.496287,-18.816252,-7.702919,3.590021,9.830987,22.045663,27.855031,31.995433,27.28647,38.136388,43.265179,47.289071,39.793645,51.606549,57.294614,61.244442,47.574864,59.680934,64.007847,66.515815,-19.811703,-29.835777,-29.023293,-24.863514,-36.424496,-36.880348,-35.976208,-35.356064,-20.281357,-15.371052,-14.602375,-16.225937,-1.840382,3.810676,2.873291,0.591408,16.410759,19.321335,16.582752,13.732258,-22.186176,-47.944557,-69.60407,-83.929036,-35.441278,-67.633683,-86.679164,-99.774272,-29.825603,-68.205819,-65.42936,-58.851638,-25.299459,-62.974114,-54.769855,-44.144067,-22.359911,-52.698228,-46.51519,-37.11779,41.038451,299.677636,-235.696752,74.539648
44,1.607208,0.244124,-0.201016,-18.716704,-25.956116,-49.307236,-71.475826,-87.413372,-58.821259,-90.441765,-106.935356,-119.751698,-53.173851,-87.661343,-106.82262,-122.060497,-45.251381,-76.809609,-94.861782,-108.709957,-36.083382,-60.57415,-74.448074,-86.192997,-17.448937,-18.782141,-7.672476,3.459147,9.852167,21.988569,27.710807,31.734649,27.271316,37.96818,43.004333,46.980974,39.748592,51.462633,57.113833,61.105849,47.498553,59.560767,63.859572,66.40543,-19.371357,-28.751484,-27.242843,-22.89664,-37.266437,-37.974975,-37.087417,-36.454021,-21.049759,-15.190624,-13.869873,-15.748077,-2.172969,4.105111,3.606217,1.070332,16.688908,19.383797,16.917962,14.102337,-24.419892,-50.924775,-73.175517,-86.968323,-38.023119,-73.12645,-93.704534,-107.749508,-32.123849,-73.492871,-70.151247,-62.56984,-27.602675,-68.477274,-60.208134,-49.144955,-24.976838,-57.319931,-51.024903,-41.474455,40.161444,300.407232,-238.381983,56.308416
45,1.413551,0.190994,2.92812,-22.874372,-26.033386,-49.328705,-71.495109,-87.672695,-58.612518,-90.353679,-106.980388,-119.943054,-52.955108,-87.544269,-106.784168,-122.08921,-45.113846,-76.81216,-94.907146,-108.831184,-36.058136,-60.629516,-74.556587,-86.42324,-17.367834,-18.749821,-7.727953,3.243774,9.748353,21.91968,27.666581,31.676344,27.196537,37.846507,42.847105,46.792808,39.747641,51.345838,56.951825,60.965108,47.577569,59.574995,63.816853,66.394389,-18.311108,-26.116001,-23.784656,-18.989456,-36.666676,-37.103943,-35.450558,-34.231682,-20.752441,-12.829788,-11.456222,-13.667644,-1.740475,6.962071,6.484921,3.779938,17.418915,22.369824,19.837429,16.514202,-27.372537,-55.140259,-78.073917,-90.9867,-39.819617,-78.739445,-100.592036,-115.061281,-32.050267,-78.155267,-75.199473,-67.058589,-26.376306,-72.130891,-64.247222,-52.982582,-23.276972,-59.131133,-53.192429,-43.507408,39.216013,300.944242,-237.812845,33.78006
46,1.156265,0.283509,4.275444,-23.857321,-25.890403,-49.217582,-71.510089,-88.052753,-58.319435,-90.2364,-106.978031,-120.033782,-52.617485,-87.501045,-106.792385,-122.060977,-44.848182,-76.779888,-94.938343,-108.917243,-35.941978,-60.707656,-74.756961,-86.740505,-17.41952,-18.826515,-7.829619,2.994191,9.559655,21.704072,27.472314,31.549397,27.076012,37.749496,42.651541,46.551511,39.69771,51.27669,56.786272,60.837963,47.586473,59.547911,63.676086,66.30385,-17.051193,-22.895279,-18.014946,-12.342567,-33.991207,-31.843105,-29.399036,-27.754875,-17.530151,-6.259197,-4.048668,-6.428661,1.846905,12.542679,11.879231,8.743984,21.519825,27.302857,24.58176,21.125656,-29.220771,-59.050789,-83.361235,-96.57833,-45.220543,-86.414848,-109.40905,-124.735656,-36.594603,-83.56322,-75.32926,-62.375969,-29.382958,-75.021613,-64.917807,-52.521535,-24.722494,-60.372662,-53.158231,-42.716928,38.409164,301.410078,-235.500515,10.105066
47,0.765404,0.184461,8.12859,-18.710344,-25.834625,-49.088699,-71.366546,-88.151104,-58.100395,-90.00571,-106.764873,-119.890548,-52.456856,-87.378639,-106.683792,-121.941925,-44.803528,-76.80051,-94.98183,-109.022529,-35.991874,-60.774673,-74.933017,-87.07505,-17.420817,-18.872692,-7.918799,2.791822,9.628371,21.667812,27.407784,31.479322,27.217013,37.715163,42.419803,46.134708,39.84964,51.26266,56.676331,60.682685,47.688398,59.566263,63.626377,66.255586,-15.781369,-18.653687,-10.821305,-3.707863,-29.367291,-25.68726,-22.804001,-20.589032,-12.805229,-0.092377,1.370819,-1.89782,6.341514,17.739567,16.523563,13.102432,25.860157,31.421779,28.210441,24.722866,-29.70188,-59.832339,-84.008459,-97.493675,-49.310051,-89.93611,-113.037572,-129.121041,-40.748307,-85.628555,-76.896337,-63.824127,-32.994184,-76.378634,-66.308179,-54.158829,-27.259269,-61.544055,-54.580479,-44.506739,37.844553,301.489264,-228.70194,-8.710553
48,0.228035,0.154672,10.89291,-12.189402,-25.645958,-48.942421,-71.280247,-88.317444,-57.873848,-89.885513,-106.711441,-119.922855,-52.268898,-87.369518,-106.629684,-121.740749,-44.728386,-76.868465,-95.128647,-109.217846,-36.041359,-61.007927,-75.381237,-87.695343,-17.641969,-19.032675,-8.053254,2.579105,9.709104,21.541187,27.283432,31.434924,27.457123,37.816607,42.30296,45.851768,40.108078,51.341034,56.59781,60.533472,47.87633,59.661655,63.660501,66.308136,-14.866207,-15.792916,-6.284203,1.717838,-25.207638,-20.272797,-17.034039,-14.391758,-8.600716,4.926304,5.545131,1.851894,10.233856,22.238891,20.354999,16.669269,29.403362,34.952614,31.373634,27.860607,-29.370645,-59.341176,-83.041929,-96.884822,-52.16455,-91.147986,-114.000196,-130.706044,-43.918856,-85.544655,-77.810632,-65.677151,-35.750092,-75.568734,-66.204889,-54.578626,-29.05883,-61.010203,-54.565461,-45.079548,37.128404,301.137234,-218.753214,-21.406657
49,-0.264198,0.199553,13.449074,-4.449197,-25.344681,-48.746658,-71.250721,-88.00827,-57.949379,-90.114922,-106.928833,-120.101257,-52.253677,-87.594189,-106.766853,-121.650948,-44.659584,-77.018509,-95.234699,-109.231361,-36.020462,-61.312821,-75.806912,-88.110661,-18.031763,-19.501101,-8.661891,2.307526,9.452259,21.166028,26.941952,31.19448,27.393755,37.732762,42.150584,45.622266,40.175843,51.309615,56.415954,60.255126,48.058369,59.721898,63.543063,66.069285,-14.547032,-13.831101,-3.116101,5.116951,-21.610096,-15.529645,-12.053628,-9.14478,-4.860981,8.973644,8.841659,4.991924,13.614257,25.339416,22.917594,19.372592,32.105323,36.993026,33.201564,29.947723,-28.110437,-57.974819,-81.428095,-95.723087,-53.571632,-91.304579,-113.650423,-130.742471,-45.726329,-84.603264,-77.807557,-66.508102,-37.17444,-74.070058,-65.419745,-54.253684,-29.472231,-59.24902,-53.538151,-44.721896,36.094837,300.735791,-206.073509,-26.45685
50,-0.269669,0.268219,14.453384,2.475889,-25.276085,-48.786483,-71.466259,-88.125457,-58.212959,-90.463909,-107.258697,-120.356128,-52.48677,-87.962585,-107.002716,-121.664989,-44.858757,-77.353775,-95.535759,-109.39397,-36.246048,-61.795646,-76.380294,-88.594345,-18.489889,-19.971368,-9.126476,2.052719,9.185065,20.656019,26.416468,30.793214,27.272761,37.536198,41.932482,45.439164,40.121416,51.1842,56.179438,60.011125,48.072622,59.576019,63.196742,65.588101,-13.361927,-10.99506,0.205433,7.786068,-17.487579,-10.640431,-6.96413,-3.609535,-1.326553,12.587448,12.333252,8.628685,16.303825,27.80555,25.498478,22.049583,33.86198,38.533791,34.866314,31.65279,-27.914712,-56.952103,-79.846655,-94.256996,-53.866404,-90.071751,-111.236924,-127.887777,-46.103673,-82.629375,-75.984574,-65.120805,-37.221234,-71.515332,-63.415765,-52.884739,-28.611097,-55.980571,-50.99299,-42.897987,35.306339,300.129501,-192.138954,-24.85547
51,-0.285736,0.077941,17.527576,2.382287,-25.349098,-48.931549,-71.669918,-88.12706,-58.484367,-90.784412,-107.54441,-120.582493,-52.79219,-88.256138,-107.134678,-121.619167,-45.193107,-77.745094,-95.897094,-109.678974,-36.623657,-62.304588,-76.969162,-89.213848,-18.883288,-20.427839,-9.613662,1.649514,8.967407,20.240451,26.026453,30.519005,27.177629,37.278082,41.667919,45.202759,40.098174,51.011435,55.971352,59.811215,48.142029,59.516443,63.043614,65.361379,-11.855884,-9.651981,0.079193,6.691933,-14.422359,-8.662834,-4.989521,-1.533119,0.195031,12.219521,12.382153,9.778519,15.734608,25.85582,24.288346,21.748192,31.11818,36.003582,33.365307,30.526291,-26.80255,-52.856,-74.020299,-88.170863,-47.487147,-79.522452,-98.369428,-113.232823,-39.355581,-69.529352,-63.501764,-54.240635,-30.161562,-57.815941,-50.248477,-41.140427,-21.508156,-42.683947,-37.720406,-30.440044,35.301727,299.357343,-174.330254,-23.323282
52,-0.233917,0.153586,16.493752,23.179734,-25.43248,-49.205955,-72.040455,-88.420578,-58.926498,-91.159813,-107.809914,-120.684391,-53.157898,-88.503857,-107.048367,-121.130905,-45.507957,-78.037296,-96.115265,-109.759415,-36.946838,-62.722939,-77.433197,-89.643597,-19.30681,-20.919298,-10.020141,1.194068,8.508083,19.623787,25.433994,30.002179,26.884474,37.030833,41.466365,45.064858,39.958469,50.853453,55.757152,59.553592,48.166927,59.530126,62.994868,65.227059,-11.427418,-9.050457,0.21413,6.502636,-10.853966,-5.050278,-1.667828,1.388134,3.974728,14.355858,13.461857,11.053768,19.07436,27.675705,24.979088,22.46228,33.665302,37.923775,34.526813,31.64994,-29.593199,-56.663598,-78.743563,-92.933598,-50.839608,-83.822115,-101.726353,-114.668107,-42.434284,-72.908372,-66.911357,-57.521213,-32.804838,-60.416331,-52.573628,-43.159864,-23.518929,-44.541727,-39.702433,-32.625534,35.935724,298.767154,-156.968588,-0.887323
53,-0.105034,0.10789,15.664341,25.234374,-25.55516,-49.519478,-72.465752,-88.784054,-59.28273,-91.476105,-107.707695,-119.97472,-53.474579,-88.79116,-106.825207,-120.278732,-45.757873,-78.379749,-96.309757,-109.705593,-37.145965,-62.9935,-77.65329,-89.734337,-19.660578,-21.320614,-10.2881,1.000999,7.904238,18.889266,24.754221,29.380772,26.428818,36.614845,41.235579,44.98667,39.67853,50.601956,55.592266,59.430931,48.113896,59.450246,62.865686,65.02437,-10.782566,-7.968693,0.653766,6.0084,-8.586731,-2.039875,0.942741,3.769077,6.285679,16.182461,14.294632,12.561138,21.220825,29.578285,25.685943,23.841957,35.563019,39.750481,35.192711,32.48481,-31.849436,-60.594451,-84.113169,-98.651433,-50.990094,-84.514214,-100.932981,-111.583081,-41.227965,-72.986974,-66.441146,-56.385703,-30.815358,-60.119849,-52.144456,-42.539933,-20.913117,-43.317,-38.585103,-31.192356,37.101196,298.443662,-140.033741,23.915669
54,0.113823,-0.110274,14.436241,30.64718,-25.822517,-49.825859,-72.718059,-89.18074,-59.480324,-91.561329,-107.204212,-118.595924,-53.658211,-88.751736,-106.128479,-118.694034,-45.923469,-78.502808,-96.269989,-109.393707,-37.295998,-63.064155,-77.639351,-89.702785,-19.67662,-21.30283,-10.203329,0.881821,7.479865,18.464324,24.403479,29.036761,26.054216,36.42085,41.249498,45.102415,39.398924,50.540996,55.693586,59.596718,47.94223,59.459707,63.003612,65.256885,-10.570198,-7.942978,0.719799,6.304585,-6.535458,0.30558,2.720375,5.24065,8.902931,17.73064,14.346634,12.566483,23.850746,31.124863,25.618172,23.834976,37.933914,41.481857,35.71122,33.145718,-33.112028,-62.798532,-87.256827,-102.182711,-50.445616,-84.583948,-101.260857,-111.678939,-40.519527,-74.188402,-67.267681,-56.378478,-30.402056,-61.664381,-53.640218,-43.146519,-21.150942,-45.422485,-40.561505,-32.190539,38.955242,297.99076,-123.857277,54.220221
55,0.143372,-0.138234,13.082359,31.327534,-25.78402,-49.803131,-72.649842,-89.084931,-59.530014,-91.499955,-106.672566,-117.394387,-53.69529,-88.620198,-105.448861,-117.344902,-45.939949,-78.444363,-96.053845,-109.034626,-37.267708,-62.896935,-77.39407,-89.521111,-19.657021,-21.309413,-10.25005,0.844387,7.26669,18.31122,24.145905,28.51576,25.856972,36.297781,41.180621,44.991313,39.264703,50.501068,55.771799,59.662445,47.88469,59.556296,63.343955,65.764077,-11.345981,-9.080475,0.178528,6.461563,-5.514999,1.138047,3.121662,5.719025,11.242241,19.094422,13.425442,11.275566,26.527336,32.871655,25.054585,23.311432,40.487,42.811146,35.417393,33.163365,-32.489411,-63.774319,-89.46714,-105.437365,-49.419102,-84.506933,-101.662772,-111.920213,-39.663876,-75.607464,-69.202112,-57.611516,-30.066133,-63.529367,-55.985171,-44.781325,-21.660797,-48.166371,-43.600873,-34.68822,40.753041,297.802974,-109.120491,85.498203
56,0.263099,-0.149856,8.49907,34.196236,-25.834076,-49.833595,-72.515716,-88.973762,-59.523147,-91.353836,-106.423633,-117.067646,-53.649147,-88.35474,-105.050937,-116.862018,-45.841438,-78.144184,-95.766975,-108.82188,-37.059036,-62.390327,-76.789524,-88.917377,-19.456616,-21.078293,-10.040666,0.937878,7.296861,18.436536,24.190366,28.356901,25.80241,36.287975,41.193836,44.93496,39.173893,50.487594,55.935067,59.878325,47.753063,59.522753,63.584745,66.158626,-11.938694,-8.882035,2.02391,9.706947,-3.688672,4.527935,6.275379,9.092983,14.935386,23.535587,15.354583,12.249938,31.651565,38.160095,27.404171,24.833221,46.493213,47.963001,38.121883,35.541194,-33.052198,-67.315242,-94.562586,-110.409582,-52.45227,-92.635319,-111.32255,-122.244537,-42.766403,-86.878291,-80.650923,-67.37091,-33.646663,-75.352879,-68.256287,-55.529818,-25.72009,-59.459589,-55.648576,-45.83672,42.017469,297.568915,-99.620092,119.610236
57,0.196289,-0.070062,6.263271,14.785272,-25.705856,-49.588897,-72.200317,-88.511833,-59.09452,-91.128009,-106.456272,-117.268364,-53.300834,-88.192428,-105.328033,-117.579357,-45.5224,-77.851604,-95.665386,-108.921615,-36.660667,-61.929107,-76.333557,-88.476333,-19.170057,-20.797736,-9.933073,1.147409,7.563524,18.770903,24.603834,28.820004,25.933938,36.342526,41.387979,45.23456,39.194925,50.482345,56.122652,60.233291,47.642752,59.351791,63.655795,66.459832,-11.454723,-7.929817,3.71022,12.130428,-2.412827,5.935638,7.778755,11.143181,16.363209,25.117206,16.896572,13.736629,32.876369,39.342419,28.253631,25.389793,47.071895,48.754886,38.821129,35.941601,-29.845086,-62.860049,-89.243937,-104.746576,-45.877926,-85.591172,-105.036933,-117.484192,-36.18681,-81.225863,-78.103947,-67.070587,-28.068521,-70.810896,-66.403053,-55.278037,-21.620635,-56.054517,-53.792106,-44.389636,42.724828,297.412992,-92.845751,134.309647
58,0.160584,-0.051191,3.688476,11.284542,-25.679695,-49.341774,-71.82494,-87.879788,-58.638359,-90.870346,-106.69788,-118.114735,-52.871544,-87.946289,-105.829468,-118.961849,-45.123642,-77.452835,-95.599548,-109.277378,-36.232041,-61.456902,-75.940373,-88.285309,-18.805767,-20.567605,-9.968752,1.084177,7.853763,19.216135,25.031023,29.190679,26.077619,36.409463,41.513863,45.415155,39.251365,50.483889,56.229925,60.46399,47.617966,59.311505,63.765945,66.744019,-11.329044,-7.700763,4.871911,14.679635,-0.00888,7.512875,9.392029,13.115879,19.217217,26.567448,18.139309,14.420346,35.204144,40.06334,28.779385,25.168225,48.195832,49.272572,39.500622,36.120026,-27.484275,-58.521508,-83.402509,-98.360793,-42.600301,-82.69338,-103.417744,-117.494152,-33.808969,-79.675483,-78.836047,-69.254996,-27.068763,-69.71319,-67.300379,-57.026111,-22.330123,-56.459328,-55.603233,-46.605259,42.923418,297.276765,-89.119269,145.509153
59,0.10572,0.169888,1.148003,3.523385,-25.598327,-49.055259,-71.532806,-87.438251,-58.065994,-90.611137,-107.145504,-119.494457,-52.408195,-87.812244,-106.607986,-120.937465,-44.758987,-77.1683,-95.729049,-109.932575,-35.885788,-61.11882,-75.706981,-88.199569,-18.553109,-20.510758,-10.152213,0.869396,8.033432,19.473795,25.295673,29.48613,26.134058,36.266313,41.394462,45.396581,39.261294,50.252658,56.09216,60.484738,47.633094,59.204961,63.731834,66.790567,-10.686687,-6.55378,6.537632,17.191441,1.703327,8.949703,11.294094,15.705586,20.956581,27.876274,19.928364,16.193493,36.422825,40.962742,29.98867,25.917881,48.63002,49.956928,40.515919,36.549763,-26.468857,-56.310503,-80.315339,-94.665808,-40.182536,-80.330931,-101.097126,-115.167037,-31.345558,-77.257941,-78.866737,-71.033024,-25.061577,-67.38434,-66.88376,-57.860179,-20.955397,-54.741425,-55.3495,-46.992409,42.77053,297.344033,-88.229874,148.929918
60,-0.023254,0.183831,-0.775555,0.248089,-25.693062,-49.048988,-71.452858,-87.360489,-57.654167,-90.407135,-107.4986,-120.580776,-52.051712,-87.673645,-107.259693,-122.554241,-44.491585,-76.900051,-95.806583,-110.396221,-35.628983,-60.857162,-75.547256,-88.123432,-18.336057,-20.383083,-10.141419,0.646477,8.26775,19.678189,25.63157,30.033041,26.262092,36.212281,41.443838,45.59559,39.304902,50.195205,56.149155,60.664209,47.584583,59.112063,63.731389,66.862308,-9.931697,-5.368091,7.904995,19.165844,3.457512,10.434494,13.074109,17.59385,22.530671,28.751931,21.766137,18.112427,37.574868,41.298294,31.147625,26.689145,49.165112,50.817398,42.016343,37.403298,-26.240016,-54.925615,-78.066371,-92.094003,-39.914213,-79.821522,-100.781606,-115.293824,-31.090863,-76.474366,-79.9732,-73.865213,-25.122606,-66.551877,-67.43166,-59.379622,-21.463573,-54.577151,-56.254311,-48.26963,42.577389,297.412267,-89.175316,149.06241
61,-0.322815,0.310703,-0.905822,-1.843608,-25.539963,-48.865105,-71.386368,-87.392807,-57.491249,-90.323959,-107.543552,-120.72036,-51.929192,-87.772522,-107.749123,-123.410374,-44.349014,-76.848667,-95.97068,-110.793217,-35.406738,-60.909004,-75.808823,-88.628471,-18.438488,-20.664146,-10.435486,0.302157,8.213027,19.64724,25.670251,30.18065,26.255633,36.16403,41.453311,45.761551,39.369333,50.290264,56.157578,60.652218,47.738021,59.248298,63.778555,66.873103,-9.844048,-5.39003,7.64661,19.102512,4.39896,10.460586,13.025791,17.509758,23.497341,28.670791,22.015274,18.358188,38.202449,40.902088,31.187404,26.682037,49.299579,50.689235,42.217243,37.391178,-26.603059,-54.715299,-77.577061,-91.820078,-40.651284,-80.191265,-101.611192,-116.57701,-31.872049,-76.424348,-81.234069,-76.345826,-26.036604,-66.353263,-68.056154,-60.679598,-22.428108,-54.669029,-57.1423,-49.663189,42.185125,297.600195,-90.150587,147.096027
62,-0.253212,0.172592,-0.127739,-2.229178,-25.528816,-48.932419,-71.578434,-87.716297,-57.702438,-90.603012,-107.756824,-120.900284,-52.028274,-88.000912,-107.99287,-123.695629,-44.319466,-76.899696,-96.111385,-111.070965,-35.281105,-60.90406,-75.882648,-88.817219,-18.522999,-20.763749,-10.496965,0.170271,7.971954,19.499051,25.496326,30.041279,26.044076,36.049557,41.38404,45.790957,39.284019,50.396512,56.260319,60.793639,47.818433,59.495337,63.950172,67.027269,-10.282357,-6.152848,6.933872,18.485778,3.539589,9.523773,12.168365,16.875984,22.746666,27.739254,20.855484,17.324569,37.529457,39.973423,30.16254,25.853279,48.73875,49.906505,41.342994,36.700859,-26.831393,-54.864771,-77.670329,-91.939422,-41.151024,-80.732667,-102.151026,-117.077465,-32.430711,-76.973043,-80.661661,-74.794346,-26.525889,-66.860048,-67.659562,-59.399073,-22.814257,-55.165669,-57.211361,-49.121267,41.95986,297.650009,-90.250379,144.744071
63,-0.212471,0.136889,-0.132912,-1.801778,-25.533829,-49.031731,-71.711655,-88.006462,-58.056312,-90.867176,-107.917419,-120.961086,-52.318451,-88.191719,-108.089561,-123.698467,-44.47744,-77.004764,-96.180736,-111.130119,-35.25721,-60.814339,-75.790272,-88.716968,-18.584404,-20.755388,-10.314468,0.297661,7.96805,19.623008,25.673857,30.32307,26.065071,36.12777,41.459844,45.882569,39.347239,50.550665,56.402567,60.942037,47.925149,59.657307,64.112525,67.181311,-10.74408,-6.730362,6.685089,18.637711,2.164581,8.554447,11.411476,16.30061,21.492073,26.679016,19.994305,16.588417,36.62804,39.065048,29.32568,25.118214,48.308338,49.175388,40.69915,36.361919,-26.785729,-55.016406,-78.067131,-91.882124,-41.549895,-81.024833,-102.915818,-118.291707,-32.889128,-77.35098,-80.872878,-74.653253,-26.85702,-67.601788,-68.013818,-59.191203,-22.874847,-55.720564,-57.456597,-48.923548,41.841928,297.66407,-90.288752,142.819465
64,-0.203041,0.133084,-0.277622,-1.244048,-25.480888,-49.057411,-71.75766,-88.167515,-58.50824,-91.185871,-108.14114,-121.161644,-52.727852,-88.478668,-108.246048,-123.733177,-44.771484,-77.208401,-96.355934,-111.296837,-35.388039,-60.90255,-75.947193,-88.925468,-18.623912,-20.721203,-10.151212,0.414716,8.080857,19.636038,25.6529,30.396517,26.213828,36.181049,41.411469,45.823561,39.524673,50.718862,56.485362,60.983398,48.115526,59.842534,64.236829,67.243358,-10.971222,-7.072872,6.373501,18.268627,1.282573,8.063873,10.974117,15.70602,20.526924,26.056171,19.703613,16.320637,35.90316,38.453979,28.976829,24.893932,47.975063,48.903351,40.652916,36.48373,-26.58401,-55.018111,-78.215659,-91.814304,-42.344246,-81.708399,-103.699696,-119.36267,-33.66099,-77.998551,-81.213438,-74.747299,-27.417881,-68.289139,-68.170065,-59.023576,-23.113692,-56.184971,-57.588046,-48.841822,41.806829,297.653099,-90.398432,141.431362
65,-0.072121,0.126774,-0.516426,-0.862802,-25.458023,-49.063408,-71.826942,-88.231819,-58.929084,-91.543419,-108.429702,-121.427581,-53.131141,-88.814254,-108.50291,-123.919567,-45.068504,-77.516578,-96.699646,-111.687137,-35.534202,-61.073684,-76.22224,-89.303833,-18.59321,-20.7215,-10.151941,0.536784,8.160835,19.707866,25.70519,30.486512,26.357138,36.315664,41.419447,45.768985,39.735031,50.889416,56.509716,60.915398,48.398417,60.087794,64.359947,67.284249,-11.072354,-7.265637,6.259174,18.347179,0.688144,8.10498,11.184047,15.942753,19.934177,25.949478,19.875114,16.481964,35.551986,38.213894,28.836811,24.81673,47.994083,48.874786,40.79187,36.806854,-26.752378,-55.456995,-78.831564,-92.171351,-42.653961,-82.021794,-104.34513,-120.408814,-33.897401,-78.122101,-81.687236,-75.435211,-27.520386,-68.733605,-68.451011,-59.127526,-23.009333,-56.541851,-57.708162,-48.749869,41.913036,297.633062,-90.73653,140.421749
66,0.172211,0.075298,-0.642792,-0.416284,-25.599174,-49.203094,-71.982868,-88.311596,-59.281082,-91.926018,-108.802071,-121.832085,-53.45771,-89.108231,-108.734173,-124.115158,-45.371292,-77.829483,-97.011921,-111.975094,-35.800964,-61.276428,-76.408585,-89.437946,-18.368685,-20.505027,-10.087918,0.707697,8.28551,19.716326,25.692482,30.523883,26.472525,36.39783,41.50281,45.850422,39.868388,50.947141,56.552732,60.946916,48.576085,60.230166,64.457501,67.353299,-10.906551,-7.068741,6.63715,19.002537,0.227817,8.39875,11.688801,16.434277,19.505333,26.004673,20.353134,16.921886,35.385509,38.300789,29.17178,25.112778,48.207996,49.264629,41.356235,37.350929,-26.883548,-55.827566,-79.305375,-92.379962,-42.678964,-81.984237,-104.450581,-120.754938,-33.64767,-77.902566,-81.726201,-75.582405,-27.120775,-68.5528,-68.230482,-58.863154,-22.496311,-56.335734,-57.272198,-48.063192,42.269611,297.571311,-91.194958,139.868416
67,0.172211,-0.0113,-0.475765,-0.197552,-25.770516,-49.347451,-72.036839,-88.384449,-59.461624,-91.967594,-108.771744,-121.826832,-53.698242,-89.180294,-108.753159,-124.128136,-45.675522,-78.054005,-97.198757,-112.140415,-36.112679,-61.447586,-76.536438,-89.602078,-18.141604,-20.286838,-9.930615,0.769657,8.501438,19.929538,25.901025,30.692141,26.66547,36.565716,41.612071,45.884459,40.047365,51.037913,56.615482,60.933281,48.772377,60.382727,64.603367,67.445269,-10.796334,-7.010971,6.773872,19.522453,0.139377,8.574062,11.935695,16.614727,19.385273,26.050071,20.628868,17.193878,35.315574,38.346988,29.327957,25.275467,48.278274,49.469238,41.641811,37.576732,-26.942372,-56.050651,-79.598164,-92.489545,-42.531442,-81.809829,-104.37687,-120.807901,-33.332588,-77.703927,-81.75983,-75.734805,-26.725066,-68.27296,-67.984406,-58.616449,-22.07668,-56.057036,-56.868962,-47.531089,42.617758,297.40879,-91.494787,139.519643
68,0.166855,-0.038557,-0.681336,0.109681,-25.859963,-49.45514,-72.135281,-88.409535,-59.651528,-92.077492,-108.904713,-122.031395,-53.900093,-89.274514,-108.872132,-124.295586,-45.925209,-78.171891,-97.299672,-112.257157,-36.42968,-61.633095,-76.679284,-89.76828,-17.909386,-20.100303,-9.942212,0.725333,8.603734,20.039738,26.026119,30.80749,26.734767,36.69575,41.776142,46.073773,40.13836,51.170837,56.759052,61.049137,48.894001,60.529483,64.728572,67.528423,-10.502529,-6.662121,6.916077,19.53431,0.669308,9.112107,12.477219,17.138718,19.796368,26.477211,21.231674,17.816254,35.602089,38.620823,29.598862,25.455826,48.496319,49.843048,42.035557,37.809174,-26.909804,-56.116156,-79.597683,-92.680267,-42.345295,-81.518806,-104.074478,-120.584716,-32.970762,-77.374131,-82.23834,-76.974964,-26.331808,-67.923199,-68.170133,-59.392145,-21.749563,-55.755657,-56.765832,-47.757929,42.951279,297.220871,-92.009457,139.479962
69,0.092079,-0.052179,-0.346573,0.107816,-25.89624,-49.580429,-72.32357,-88.876992,-59.800209,-92.188236,-109.088173,-122.262108,-54.015175,-89.350147,-108.986859,-124.417282,-46.041298,-78.230656,-97.368622,-112.315979,-36.562683,-61.696335,-76.702217,-89.779747,-17.831432,-19.964341,-9.85423,0.648762,8.764878,20.34718,26.357756,31.094864,26.840607,36.992399,42.119067,46.392566,40.186736,51.417542,57.054799,61.320839,48.876711,60.615106,64.868128,67.689962,-10.517749,-6.681289,6.815609,19.423302,0.728955,8.981026,12.489464,17.353924,19.912743,26.46468,21.292981,17.912957,35.680996,38.853653,29.715878,25.416424,48.496891,50.062512,42.177166,37.797295,-26.975574,-56.239539,-79.751848,-93.119028,-41.977139,-81.163284,-103.759711,-120.224995,-32.421979,-77.070825,-82.560109,-77.827564,-25.835464,-67.613391,-68.55682,-60.255193,-21.39154,-55.513077,-56.828329,-48.06757,43.147705,297.057881,-92.251683,139.476967
70,-0.136437,0.057835,-0.248714,0.124205,-25.756187,-49.545387,-72.416301,-89.182605,-59.793297,-92.295994,-109.219322,-122.324363,-54.023826,-89.5158,-109.153827,-124.452541,-46.055992,-78.348335,-97.486862,-112.352874,-36.627182,-61.762619,-76.699516,-89.673156,-17.881659,-19.885905,-9.659567,0.79374,8.793432,20.532963,26.591926,31.328405,26.832827,37.221259,42.356016,46.582449,40.128839,51.56567,57.231233,61.493061,48.759459,60.605485,64.908612,67.768657,-10.46957,-6.69421,6.787651,19.365189,0.889515,9.041233,12.65728,17.664894,20.143227,26.59267,21.324486,17.965988,35.882835,39.184559,29.96846,25.660526,48.61195,50.261913,42.358681,38.027882,-26.820137,-56.040666,-79.527812,-92.949326,-41.604136,-80.694734,-103.306395,-119.756304,-31.968898,-76.770199,-82.178022,-77.390692,-25.451408,-67.243414,-68.303687,-60.093043,-21.118443,-55.269255,-56.593166,-47.786032,43.118911,296.988461,-92.392754,139.473917
71,-0.022682,0.073841,-0.351894,-0.08361,-25.802467,-49.72142,-72.693798,-89.688904,-59.701767,-92.380543,-109.360611,-122.437042,-53.929642,-89.56723,-109.202019,-124.449852,-45.978584,-78.423878,-97.495319,-112.229713,-36.647621,-61.783882,-76.597549,-89.377533,-17.894503,-19.658638,-9.209666,1.209036,8.879784,20.84274,27.008173,31.815332,26.874953,37.532197,42.78118,47.043156,40.100755,51.777066,57.578061,61.957844,48.637539,60.61728,65.029804,67.996578,-10.517006,-6.532792,7.347438,20.303787,1.07452,9.118492,12.822555,18.021686,20.327716,26.739761,21.305728,18.043716,35.977592,39.574585,30.203407,25.948803,48.589119,50.366169,42.389442,38.193351,-26.7804,-56.135484,-79.732175,-92.872348,-41.311637,-80.354508,-103.009623,-119.486843,-31.643412,-76.571863,-81.659103,-76.649033,-25.137926,-66.953532,-67.910034,-59.558285,-20.883742,-55.065751,-56.160141,-47.038277,43.199341,296.948539,-92.641536,139.276544
72,-0.058617,0.208309,-0.479016,-0.139371,-25.846344,-49.819908,-72.905067,-90.004497,-59.6567,-92.517608,-109.566135,-122.619255,-53.825408,-89.623867,-109.24514,-124.400722,-45.845191,-78.389774,-97.39635,-111.982543,-36.567672,-61.725791,-76.469444,-89.076599,-17.975359,-19.629826,-9.09013,1.453617,8.938385,21.081307,27.370562,32.268999,26.949695,37.882952,43.272552,47.592117,40.13452,52.04305,57.971954,62.448995,48.580482,60.658974,65.17057,68.223708,-10.623379,-6.425091,7.724339,20.85315,1.356194,9.345406,13.088162,18.422127,20.561428,27.04295,21.336777,18.093212,36.090649,39.931504,30.435677,26.259785,48.582916,50.439686,42.396858,38.335156,-26.786587,-56.155583,-79.761895,-92.74771,-41.256493,-80.303984,-102.993456,-119.388598,-31.619687,-76.55653,-81.147494,-75.710093,-25.09265,-66.879234,-67.651645,-59.064022,-20.823474,-55.030837,-55.978489,-46.590395,43.244201,297.064905,-93.017075,139.04523
73,-0.261703,0.154376,-0.653229,-0.09612,-26.067375,-49.979851,-72.941116,-90.078369,-59.639465,-92.398544,-109.344429,-122.281677,-53.719254,-89.41967,-108.899437,-123.986378,-45.664742,-78.193932,-97.027805,-111.478352,-36.321648,-61.464088,-76.087761,-88.609943,-17.973186,-19.474388,-8.685343,1.966405,9.060218,21.478288,27.889463,32.80193,27.101614,38.360319,43.908199,48.299925,40.251241,52.326114,58.386163,62.982753,48.694226,60.926229,65.694374,68.964157,-10.643005,-6.194263,8.23946,21.406243,1.681298,9.48832,13.238286,18.697438,20.833947,27.19051,21.448964,18.247971,36.291893,40.17239,30.724629,26.638344,48.712487,50.534134,42.511345,38.609551,-26.849876,-56.144179,-79.752782,-92.590513,-41.395253,-80.463134,-103.139855,-119.50209,-31.857408,-76.641678,-80.96133,-75.294569,-25.363284,-66.936323,-67.599238,-58.916871,-21.059009,-55.164175,-56.042451,-46.573939,43.105637,297.179718,-93.547165,138.909547
74,-0.254585,0.089501,-0.887924,-0.254597,-26.348122,-50.140801,-72.874123,-89.893078,-59.471146,-92.086762,-108.842594,-121.634022,-53.448601,-88.950497,-108.279728,-123.374897,-45.276924,-77.679245,-96.290886,-110.658314,-35.818428,-60.801567,-75.24923,-87.718586,-17.852649,-19.242132,-8.202344,2.625183,9.288448,22.036536,28.606953,33.580467,27.336253,38.952074,44.691083,49.183635,40.471727,52.77021,59.020562,63.780593,48.913959,61.367733,66.397341,69.895452,-10.519935,-5.830993,8.772114,21.983403,2.020775,9.961773,13.766705,19.26701,21.080921,27.56036,21.793762,18.601765,36.511791,40.51735,31.108544,27.072247,48.927567,50.772492,42.711205,38.823979,-26.968381,-56.184841,-79.702622,-92.405929,-41.432372,-80.418142,-103.153415,-119.536942,-31.947058,-76.514528,-80.73733,-74.939578,-25.422737,-66.839832,-67.476701,-58.748749,-20.985341,-55.009651,-55.843856,-46.324641,43.075865,297.270466,-94.210276,138.656197
75,0.029754,-0.0216,-1.142841,-0.000877,-26.597511,-50.320495,-72.880977,-89.955642,-59.200149,-91.575233,-108.246185,-121.057846,-52.997635,-88.235939,-107.453487,-122.664653,-44.706321,-76.890644,-95.383575,-109.78894,-35.153137,-59.999176,-74.352504,-86.853756,-17.70246,-18.983015,-7.806364,3.152914,9.675734,22.686694,29.368595,34.392114,27.740681,39.720594,45.721549,50.373763,40.859025,53.473177,59.970963,64.889013,49.308457,62.111578,67.434006,71.111849,-10.465954,-5.521133,9.185337,22.39587,2.255917,10.373588,14.223415,19.767906,21.17252,28.064117,22.428863,19.241878,36.541981,40.921623,31.466434,27.250545,48.894493,50.98494,42.840248,38.742073,-26.875391,-56.10141,-79.62389,-92.327839,-41.288938,-80.264618,-103.028741,-119.460865,-31.912335,-76.278493,-81.018035,-75.656074,-25.38444,-66.728045,-67.761512,-59.354231,-20.846248,-54.670437,-55.875299,-46.797828,43.422002,297.279615,-95.036734,138.686069
76,0.241562,-0.016796,-1.431896,0.983869,-26.73571,-50.515892,-72.94812,-89.863048,-58.952568,-91.027565,-107.65805,-120.558552,-52.573402,-87.441147,-106.574913,-121.926487,-44.186416,-76.017998,-94.408493,-108.917221,-34.556877,-59.139564,-73.399624,-86.004238,-17.613749,-18.888599,-7.699535,3.293223,10.082051,23.356723,30.092631,35.07789,28.189582,40.343347,46.450339,51.193018,41.310359,54.018519,60.61476,65.612641,49.748244,62.808258,68.378578,72.261616,-10.22889,-5.029175,9.322254,21.641384,2.640163,11.088409,15.092731,20.838707,21.254894,28.44833,22.9617,19.973442,36.536773,41.281906,31.939773,27.695274,48.881756,51.232269,43.147419,38.978759,-26.411972,-55.514861,-79.001149,-92.276981,-41.465408,-80.652108,-102.791224,-118.72559,-32.078474,-76.344004,-81.371803,-76.515837,-25.394783,-66.635888,-67.930949,-60.011922,-20.561905,-54.251559,-55.741337,-47.337526,44.204298,297.283783,-95.927896,139.690902
77,0.426041,-0.042447,-1.876316,1.950103,-26.698219,-50.598862,-72.947456,-89.727207,-58.643166,-90.48119,-107.113552,-120.045364,-52.161827,-86.782517,-105.914337,-121.390434,-43.709358,-75.279282,-93.651363,-108.266155,-33.998795,-58.364777,-72.59412,-85.309616,-17.546491,-18.845806,-7.771858,3.187457,10.487072,23.810514,30.533133,35.501102,28.555626,40.645652,46.785063,51.59668,41.605958,54.309425,60.971665,66.018205,49.968272,63.179736,68.95193,73.020368,-9.620694,-3.756295,10.694446,22.280147,3.205455,12.377941,16.617176,22.39064,21.437633,29.045459,24.317104,21.631382,36.702495,41.883327,33.031837,28.82595,49.193355,51.828872,43.985149,39.783016,-25.796519,-54.958429,-78.374284,-92.012733,-41.482815,-80.82228,-101.140802,-115.609949,-31.883788,-76.094205,-82.350473,-79.029746,-24.957553,-66.144355,-67.768879,-60.557332,-19.864076,-53.439677,-54.979059,-47.223739,45.48432,297.245133,-96.950231,141.644802
78,0.749771,-0.216905,-1.979531,3.133253,-26.547157,-50.652763,-73.232586,-90.02203,-58.157982,-90.006386,-106.793919,-119.902897,-51.679207,-86.394814,-105.649876,-121.208027,-43.323738,-74.853539,-93.425343,-108.203281,-33.795845,-58.182655,-72.582584,-85.456673,-17.683996,-19.055634,-8.165701,2.947508,10.709769,24.006029,30.700218,35.712202,28.795551,40.72557,46.730835,51.445417,41.850638,54.512967,61.093079,66.045388,50.16191,63.418118,69.179258,73.27441,-9.123035,-2.952209,11.578526,23.325531,4.034169,14.843342,18.441021,23.470265,21.948212,30.962437,26.354771,23.605007,37.117905,43.394921,34.398102,30.001396,49.600411,52.793988,44.858849,40.521973,-25.722752,-55.14121,-78.503632,-92.475676,-40.882398,-80.010509,-96.98658,-108.445518,-30.775831,-74.751338,-81.394225,-78.882866,-23.375847,-64.573579,-65.850436,-58.389973,-17.941903,-51.617991,-52.98102,-45.30884,47.34153,296.920196,-97.822323,144.670023
79,0.872543,-0.404564,-2.258331,4.793721,-26.434959,-50.75029,-73.610492,-90.431865,-57.781677,-89.775776,-106.797786,-120.081344,-51.303154,-86.24176,-105.647804,-121.198517,-43.079635,-74.67025,-93.45552,-108.32753,-33.829628,-58.315292,-72.86,-85.760662,-17.977928,-19.459407,-8.820947,2.38369,10.65906,23.771859,30.369396,35.335018,28.830008,40.579889,46.441744,51.050325,41.878722,54.469223,60.932911,65.754803,50.05954,63.289628,68.996798,73.079661,-8.422771,-1.645672,13.185459,24.897549,5.74474,18.272621,20.660522,24.76553,23.101891,33.927898,28.486164,25.433178,37.821831,45.814053,36.331352,31.86359,49.95314,54.301598,46.194466,41.900379,-25.261611,-54.896116,-78.169556,-92.282427,-39.481854,-78.299151,-91.733602,-99.930488,-28.783046,-72.558413,-78.107102,-74.804399,-20.901427,-61.912074,-62.72508,-54.777635,-15.215252,-48.651031,-49.876351,-42.236423,49.48637,296.280937,-98.808357,149.229049
80,0.836197,-0.741289,-2.488792,6.358959,-26.268081,-50.813507,-73.890472,-90.628807,-57.64872,-89.784462,-106.950325,-120.299824,-51.30796,-86.441059,-106.009987,-121.558159,-43.253975,-74.877937,-93.806831,-108.73827,-34.193779,-58.743324,-73.404739,-86.365539,-18.158795,-19.832096,-9.489964,1.681513,10.578068,23.408655,29.865908,34.747488,28.730145,40.061025,45.711175,50.205975,41.778143,54.126076,60.462558,65.209596,49.89726,62.953273,68.600138,72.725943,-7.579342,0.476772,16.281795,28.346077,7.645729,22.377182,23.007785,26.140251,24.298702,37.429035,30.650779,26.94683,38.44408,48.621574,38.592659,34.132804,50.265129,56.068645,47.612766,43.309913,-25.346086,-54.877628,-77.523171,-91.502989,-37.874831,-76.577501,-85.732456,-89.919851,-26.313703,-69.669328,-73.500219,-68.593877,-17.841738,-58.362315,-58.388997,-49.63282,-11.911216,-44.880866,-45.552915,-37.489274,51.712257,295.190931,-99.907459,155.239291
81,0.444535,-1.022895,-2.500832,6.937881,-26.12185,-50.709733,-73.920994,-90.693249,-57.61615,-89.84768,-107.155484,-120.509469,-51.384591,-86.710236,-106.43644,-121.882657,-43.437378,-75.118561,-94.234177,-109.180871,-34.516503,-59.218415,-74.05235,-87.067383,-18.282667,-20.031636,-9.849105,1.282815,10.390396,23.063704,29.453019,34.312839,28.493826,39.719334,45.233411,49.583901,41.518988,53.918953,60.18552,64.795485,49.572897,62.586994,68.147223,72.17645,-6.599178,2.315552,19.049641,32.036259,9.968559,26.747211,25.456169,27.492073,26.042084,41.63895,33.614353,29.056641,39.625442,51.86665,41.304703,36.537037,50.913906,58.274231,49.525818,44.888649,-25.623062,-54.665633,-76.395133,-89.607566,-35.488709,-73.272662,-79.553618,-80.962058,-23.263665,-65.902003,-69.049453,-63.11194,-14.417122,-54.294118,-54.313655,-45.066087,-8.420589,-40.730868,-41.472027,-33.297008,53.561617,293.779219,-101.003466,161.788355
82,0.307914,-1.263908,-1.31575,9.055599,-26.080238,-50.771209,-74.118839,-91.096103,-57.773552,-90.001259,-107.453647,-120.981594,-51.706924,-87.063812,-106.904194,-122.302437,-43.930183,-75.621551,-94.877849,-109.853965,-35.204841,-60.063446,-75.076389,-88.193527,-18.499225,-20.316602,-10.281295,0.705758,10.246962,22.548855,28.785782,33.53676,28.412069,39.54032,44.859476,48.97214,41.447334,53.879791,59.934789,64.297123,49.478963,62.436657,67.849117,71.736775,-7.04353,1.964573,19.025253,33.091278,12.363453,31.013546,30.306141,32.955139,28.127701,45.583603,35.315723,29.569244,40.765102,54.532471,42.838051,37.698658,50.901409,59.43536,50.007191,45.097492,-25.753552,-53.16795,-73.29672,-84.792856,-32.208317,-68.231729,-74.815589,-75.438588,-20.118531,-61.244799,-63.23365,-55.343454,-11.773803,-49.763243,-49.839591,-40.267981,-6.379175,-36.761798,-37.574267,-29.439805,55.379505,292.031422,-100.809242,170.360065
83,0.206612,-1.122882,-0.918194,9.426176,-25.963097,-50.78112,-74.272488,-91.529057,-58.081604,-90.428158,-107.951489,-121.549164,-52.136421,-87.581566,-107.465904,-122.840527,-44.466477,-76.266895,-95.593609,-110.592281,-35.816254,-60.80706,-75.885567,-88.979622,-18.718204,-20.691192,-10.853796,-0.093366,9.971988,21.932932,27.964465,32.548025,28.164351,39.146266,44.258003,48.201347,41.15581,53.56868,59.49672,63.728784,49.092405,62.026264,67.304837,71.05862,-6.673588,3.193382,20.970451,35.677071,15.27309,35.600613,34.502884,37.042694,30.150284,49.585716,37.610722,30.874031,41.50264,56.995388,44.736351,39.18615,50.414932,60.370972,50.55217,45.161133,-25.40386,-50.680749,-68.638955,-77.740317,-27.855018,-61.550927,-68.948077,-69.35784,-16.256562,-55.055185,-56.861107,-47.988758,-8.793135,-44.041345,-45.064339,-36.23177,-4.456675,-32.248091,-33.682028,-26.458817,57.34683,290.341813,-99.966723,179.219514
84,0.026619,-1.142049,-0.039528,9.108779,-25.930573,-50.791351,-74.306282,-91.607231,-58.439461,-90.7481,-108.343849,-122.08524,-52.622955,-87.979797,-107.972408,-123.46368,-45.058365,-76.804264,-96.152149,-111.206658,-36.46035,-61.415199,-76.467075,-89.549183,-18.65869,-20.790203,-11.183481,-0.571648,9.60067,21.565146,27.508327,31.879972,27.784882,38.806787,43.866492,47.697994,40.819863,53.294212,59.19145,63.354268,48.841501,61.81651,67.059885,70.753795,-6.185737,5.256352,24.581417,40.569077,16.731434,39.073906,37.136467,38.797154,30.571667,52.207489,39.663654,32.10117,41.039429,58.200897,45.838989,39.696213,49.374699,60.84676,50.745529,44.404804,-26.194402,-49.267239,-64.637751,-71.208797,-24.033434,-55.352959,-63.004285,-62.685616,-12.612856,-49.06174,-52.069387,-43.625956,-5.733835,-38.59817,-40.702136,-32.586557,-2.233624,-27.849375,-30.046578,-23.698586,59.196402,288.562914,-98.183298,187.691443
85,-0.838303,-0.708228,-1.000259,10.815294,-25.798919,-50.426399,-73.88713,-91.232517,-58.652138,-91.043415,-108.561962,-122.206215,-52.979599,-88.334736,-108.24258,-123.67297,-45.53389,-77.269123,-96.450702,-111.373249,-37.003532,-61.938194,-76.891971,-89.878086,-18.693023,-21.14586,-11.762119,-1.22272,9.384359,21.129299,26.902605,31.028891,27.599211,38.409226,43.245815,46.883111,40.635909,52.792799,58.41116,62.315589,48.686903,61.372401,66.307889,69.680672,-3.929581,9.00353,29.38266,46.42404,20.409817,45.87109,45.712291,47.454706,32.875992,57.786306,45.801979,37.626972,42.06019,62.124424,50.335922,43.408842,49.167177,63.403536,53.879642,46.736515,-26.678605,-47.599101,-60.368055,-64.358694,-20.678898,-47.832832,-56.786587,-57.191428,-8.672555,-41.773925,-46.814414,-39.947157,-1.444886,-31.343429,-35.432819,-28.832095,2.297801,-20.801874,-24.556095,-19.674348,60.131069,287.316491,-97.410587,197.968542
86,-0.780029,-0.584356,-2.062351,13.001574,-25.683174,-50.168541,-73.573345,-90.919384,-58.965614,-91.226818,-108.675797,-122.32338,-53.547752,-88.705593,-108.568359,-124.024223,-46.279724,-77.833328,-96.825508,-111.593102,-37.816567,-62.544708,-77.346199,-90.203304,-18.635237,-21.375301,-12.222148,-1.794912,9.335439,20.735504,26.166959,29.940255,27.467756,37.870045,42.397808,45.813544,40.459104,52.241948,57.610183,61.318826,48.541122,60.899503,65.606997,68.790539,-0.115517,15.121255,36.753685,54.829336,25.909526,56.218379,59.992858,62.702837,36.54491,66.585554,55.744159,46.722496,43.959314,68.903984,58.027873,50.1005,49.384855,67.971158,59.462803,51.549682,-27.1372,-46.035642,-55.974112,-57.501539,-17.771096,-39.743343,-49.6211,-50.907027,-4.228069,-32.67717,-39.861873,-34.959107,4.329272,-21.778648,-28.233536,-23.587571,9.347289,-10.587948,-16.260199,-13.069796,61.051334,286.201736,-97.772644,210.439717
87,-1.171967,-0.238134,-2.5784,11.592084,-25.481643,-49.288925,-71.543781,-87.276661,-59.232421,-91.187736,-108.464332,-121.923786,-54.201255,-88.929302,-108.667659,-124.068466,-47.071769,-78.247993,-97.036491,-111.72813,-38.573959,-62.995674,-77.573581,-90.306152,-18.510353,-21.697897,-13.289788,-3.612857,8.860751,20.167622,25.491595,29.072242,26.820167,37.061411,41.382186,44.548229,39.833671,51.42636,56.602453,59.952585,48.140497,60.3303,64.916997,67.843411,5.998718,24.309408,47.105129,65.641565,31.575851,65.378162,71.895744,76.00934,39.428192,74.623163,69.891815,63.573234,44.966005,75.459869,70.309398,64.468958,49.011892,72.153745,68.4058,62.684269,-27.079933,-44.351622,-52.228419,-52.069936,-14.892539,-31.253823,-38.797877,-39.767661,1.083454,-20.799367,-29.409122,-28.098611,11.655378,-8.837182,-17.05744,-15.954047,17.956445,2.575412,-4.608119,-4.833329,61.279375,285.387242,-98.951036,221.455441
88,-1.387939,-0.170827,-2.35603,12.092373,-26.523972,-50.292984,-72.232269,-88.232231,-59.398132,-90.381306,-107.436985,-120.557991,-54.616264,-87.970322,-107.726166,-123.136848,-47.566155,-77.617539,-96.309391,-110.885021,-38.885307,-62.3405,-76.719486,-89.354702,-17.640771,-21.070451,-14.525376,-6.600489,8.690136,19.750363,24.616703,27.510834,25.791542,36.418714,40.561746,43.362621,38.536629,50.482839,55.396813,58.310643,46.928226,58.912783,63.639061,66.568575,11.963402,33.084875,56.851685,76.038386,37.65128,73.989212,85.541062,92.911761,42.557545,81.418883,84.016068,82.341912,46.163264,80.75528,82.327732,80.667464,48.762606,75.439608,76.981442,74.966824,-26.977464,-42.180329,-48.16266,-47.263074,-11.895112,-22.960557,-28.999457,-30.186553,6.03685,-9.318125,-17.463134,-17.854699,18.361559,4.020761,-3.826475,-4.325999,25.979318,15.75521,9.004994,7.440974,60.756678,284.799442,-100.441824,233.130841
89,-1.664818,0.734435,-1.89402,11.980617,-25.49144,-49.859596,-72.236687,-88.782749,-58.28627,-88.183777,-105.589027,-119.175121,-54.455887,-85.974644,-104.493484,-118.854023,-48.231628,-77.004753,-93.891941,-106.537639,-40.203964,-63.449638,-76.613926,-87.604683,-7.698436,-7.040337,-1.073778,6.372754,13.807021,22.847788,27.054671,29.249762,23.482261,31.673367,34.72606,35.960587,29.890102,38.778024,42.467672,43.960316,33.400995,42.142705,45.718918,47.585868,17.543942,40.650416,64.444519,83.786036,44.389389,82.537388,99.530411,110.442839,46.68433,87.867022,96.918766,98.961754,48.073157,85.657665,92.949864,94.217257,48.602389,77.500197,83.52023,84.257641,-25.453019,-38.738917,-43.15669,-41.647071,-8.743148,-14.064582,-19.236556,-21.511274,10.876625,2.194153,-5.713339,-8.094861,24.895543,17.026769,8.972125,5.997225,33.916111,29.350836,22.701224,19.222002,59.641897,285.265532,-101.785807,244.843113
90,-1.123741,0.909411,0.301461,10.521634,-25.72419,-50.800758,-72.632275,-88.082176,-54.464722,-84.854874,-101.080582,-113.088032,-51.046028,-83.111584,-101.83065,-115.471825,-45.995316,-75.834972,-93.570705,-106.138973,-39.426682,-63.136162,-77.133579,-88.650833,-8.20847,-8.790233,-4.349897,1.984547,11.14916,18.340551,20.030697,20.248836,21.644346,28.506608,29.464838,28.753832,28.773073,36.801356,38.720361,38.29821,32.775908,41.648182,45.062597,46.348192,22.207855,46.830791,70.580143,90.521312,49.861644,87.08115,107.178772,120.717819,49.298561,90.283905,105.394443,112.120468,48.406173,86.348533,99.39933,105.226547,46.979175,76.228775,86.696949,91.604621,-23.441703,-34.188226,-37.326543,-35.933231,-4.134857,-4.691747,-7.708526,-9.509328,15.771797,13.631367,7.675626,4.631541,30.033165,28.824586,22.533331,18.700458,39.011231,39.876613,35.093772,31.167323,58.900972,285.900956,-101.10153,255.09076
91,-1.413757,1.575216,2.905998,8.397711,-24.6801,-49.913109,-71.868553,-87.49942,-48.394249,-79.094628,-95.151856,-106.373017,-46.074555,-78.146897,-97.114907,-109.561489,-42.949517,-73.145771,-91.598202,-103.857285,-38.698952,-62.740803,-77.409039,-89.133293,-8.755258,-10.514787,-7.483484,-1.727752,9.131156,14.388562,13.793473,12.656771,20.332125,25.701892,24.102346,21.122135,27.975653,34.989351,34.760307,32.09096,32.101618,40.801127,43.561297,43.716488,24.990623,50.582016,74.204738,94.51712,52.43518,87.430836,108.903854,124.528152,49.477409,88.779098,109.878021,122.025558,46.746506,83.449196,102.276077,113.394676,43.989475,71.985969,86.445247,95.787781,-21.186838,-29.406078,-31.384833,-30.184367,1.279073,4.284589,3.755981,3.170883,20.641791,24.112671,20.862413,18.072196,34.232279,39.298493,35.751685,31.677146,42.109977,48.253871,46.227778,42.395696,57.700842,287.246399,-97.981905,263.258698
92,-2.4917,1.781894,3.286812,7.619025,-23.204956,-48.56575,-70.969654,-88.118648,-44.625206,-71.479763,-85.056552,-94.147659,-42.901702,-70.743461,-87.370994,-97.197521,-40.806106,-67.775562,-84.284088,-94.510608,-37.740943,-59.564037,-73.003738,-83.434032,-9.04814,-11.187223,-8.851032,-3.383552,7.631573,12.138106,11.049718,9.306182,18.851092,24.111548,21.835131,17.818403,26.643932,33.46387,32.03105,28.244787,30.766982,39.127815,40.839635,39.762856,26.112865,52.156299,76.136432,96.884239,54.52708,88.941364,110.19564,125.689521,49.878055,88.349041,110.806114,124.763763,45.698467,81.283115,101.278999,114.363876,41.838169,68.860405,83.973152,94.860031,-19.73211,-26.120832,-26.826923,-26.337107,5.594143,11.033823,11.836035,12.28601,24.398094,30.692672,29.6256,28.332892,37.474954,45.862525,44.535644,41.970915,44.915323,53.883928,53.739765,51.402562,55.306938,288.938863,-94.597297,270.788293
93,-3.972381,2.178443,4.139843,6.329096,-18.042389,-41.131554,-61.871029,-77.242012,-41.722675,-61.351925,-68.285488,-72.111706,-41.396027,-61.728378,-70.227425,-72.980267,-40.306664,-60.484863,-69.274304,-73.120754,-38.260643,-55.585591,-63.840511,-69.507466,-9.456223,-12.175353,-9.292016,-3.414575,6.307719,11.43451,10.61623,8.929147,17.709772,22.716409,20.951742,17.147633,25.578046,30.983924,29.717893,26.155375,29.864068,37.410364,38.58766,36.963365,26.774952,53.05141,77.167156,97.907375,55.799228,89.644432,110.080364,124.964504,50.021221,87.753318,109.974872,123.973285,44.55043,79.353653,99.250179,112.619419,39.435573,65.936931,81.13433,92.574611,-17.796889,-22.785087,-22.726609,-23.097618,9.237207,16.658174,18.751328,19.989917,27.75171,36.047581,36.443883,35.933454,40.637341,51.071716,50.909139,48.944142,48.042142,58.750379,59.287213,57.438158,51.433834,291.048247,-90.358177,277.04833
94,-16.92754,3.893586,3.897251,6.160999,-10.818581,-26.125797,-40.838024,-52.563915,-28.613377,-36.628475,-36.43578,-35.645908,-30.033749,-38.331596,-40.264023,-38.442982,-31.168018,-39.903763,-42.541328,-42.899128,-31.678333,-39.917908,-43.043083,-45.572491,-20.246564,-28.964623,-27.743991,-22.933016,-2.060957,5.912195,4.723635,2.73726,17.26008,25.951562,24.25802,20.418515,32.025629,40.975128,39.137066,35.18089,42.12229,53.439363,53.642583,50.672339,27.343174,53.468948,77.542556,98.291542,56.830604,90.217735,110.236931,125.135399,50.006412,87.483844,110.086326,125.108001,43.5004,77.924011,98.616211,113.527084,37.539985,63.87767,79.921154,93.131355,-16.588482,-20.297842,-19.623466,-20.952915,12.17917,21.255492,24.684073,26.743449,30.306349,40.839018,42.90615,42.963393,42.70866,55.479917,57.067397,55.942811,49.730274,61.958597,63.69145,62.552451,34.590546,294.911427,-86.376674,283.178923
95,-13.937794,3.601655,3.432552,4.629774,-3.332508,-12.13742,-22.931293,-32.964374,-21.501159,-16.88966,-10.728161,-7.127575,-25.125354,-19.900428,-13.163315,-5.606941,-28.005226,-23.782116,-17.066265,-11.419143,-30.199882,-29.020179,-24.543159,-21.406871,-20.172501,-29.083209,-28.348355,-23.773563,-2.149075,8.68275,9.647106,9.007545,16.774005,28.155162,28.240946,25.168579,31.462724,41.92517,40.525128,37.085346,42.096355,53.999031,52.660838,48.308916,26.912979,52.904526,76.950943,97.179829,56.551746,90.415546,110.272373,125.230991,49.339737,87.113079,109.822552,125.096088,42.333721,76.951424,97.958691,113.116894,36.049553,62.336495,78.662407,92.236897,-15.826655,-19.058141,-17.881845,-19.39652,13.868859,24.474776,28.480834,30.752903,31.971424,43.737879,46.493244,46.68898,44.253433,58.402416,60.592567,59.368168,51.213618,64.637923,66.555187,65.146067,20.726423,298.512937,-82.870451,287.808552
96,-12.636097,4.018754,2.477726,3.297979,1.124806,-1.544506,-6.738395,-13.12841,-17.260711,-0.86935,11.861939,19.545147,-22.497802,-4.747547,10.35014,22.853005,-25.677601,-10.749664,4.200806,15.339535,-27.50243,-19.168945,-8.791282,-0.685936,-19.62233,-28.593035,-28.178529,-24.295169,-2.630963,10.023228,13.526995,14.460415,16.13327,28.777841,31.731684,30.45986,30.699378,41.095578,41.509256,39.608603,41.965147,52.917447,51.077248,46.517993,26.521568,52.394817,76.355084,96.108078,56.582336,90.404755,109.712769,124.363518,48.836288,86.455055,108.611527,123.519218,41.316158,75.627754,96.355225,111.220001,34.697022,60.62804,76.933811,90.501137,-15.214734,-17.916055,-16.569007,-18.750822,15.352473,27.279356,31.913749,34.547873,33.238456,45.973589,49.276297,49.507256,45.172822,60.201847,62.794809,61.598506,51.926637,65.928284,67.846696,66.215139,8.145349,302.546616,-80.337702,291.121456
97,-12.992191,6.223021,2.444973,2.790538,5.591652,9.14962,10.133446,8.505913,-7.513927,15.7939,32.558716,43.028732,-14.534718,10.13427,30.119019,45.937798,-19.168911,1.65818,20.607262,34.818855,-22.322582,-10.48772,2.467976,13.041035,-19.591121,-29.901624,-30.894991,-28.537595,-5.852136,6.94082,11.205613,13.163335,13.248304,25.731372,29.952247,29.965524,28.221309,37.700812,38.865141,37.708976,40.225848,50.09039,47.922815,43.347702,26.648129,52.465233,76.110912,95.518467,56.649708,89.851902,108.788899,123.222004,48.403267,85.414227,107.151432,121.948299,40.354317,74.067741,94.417751,109.035542,33.229305,58.81311,74.906971,88.225033,-14.551053,-16.678799,-15.17278,-17.907916,17.019759,30.238065,35.603348,38.620387,34.483962,48.478025,52.430657,52.988275,46.013517,61.892537,64.866992,63.80244,52.596951,66.958936,69.009716,67.517839,-4.790932,308.816935,-77.836819,293.959292
98,-3.744942,3.147789,1.442436,2.089733,7.800774,12.933609,14.190377,12.139046,-5.533779,20.868714,38.016747,47.393532,-14.207542,14.416008,34.494164,49.212067,-20.398636,4.216153,23.493553,36.93805,-25.054344,-10.562931,3.00269,13.391957,-19.689502,-31.224738,-33.324178,-31.383696,-6.358181,7.657446,11.425308,12.847148,14.008476,27.813003,30.968943,29.746112,29.767836,40.513754,40.116427,37.735096,42.434908,53.378526,49.479926,43.482997,26.394242,52.097649,75.578579,94.858967,56.190125,89.18993,107.934002,122.266194,47.739247,84.66267,106.085736,120.708103,39.532025,73.109391,93.141094,107.332455,32.365689,57.761593,73.561512,86.331562,-14.492439,-16.42908,-14.499726,-17.182497,17.822725,32.020812,37.806096,41.01245,35.167798,49.806758,54.080862,54.745803,46.474397,62.650177,65.678775,64.459464,52.915632,67.231526,69.236994,67.615145,-8.481778,312.020231,-76.340287,296.104532
99,2.812111,4.540372,0.798477,1.433362,7.297886,11.751183,12.381729,10.493134,-7.889797,17.158516,34.432961,44.215096,-17.106308,10.373474,30.689369,45.53064,-23.101318,0.293919,18.957688,32.242836,-27.227646,-13.524833,-0.941494,8.894314,-20.133314,-32.118514,-35.063317,-34.166861,-7.320919,5.716717,10.58901,13.099547,12.618042,24.959257,28.669679,28.460987,27.860897,37.204994,37.371683,36.039677,40.04981,49.091824,45.743285,40.746577,26.318539,52.151974,75.587025,94.790623,55.919747,88.765767,107.406292,121.651852,47.221173,84.063527,105.273343,119.803036,38.828717,72.271752,92.001927,105.835179,31.531792,56.888741,72.451573,84.752736,-14.291478,-15.987144,-13.747469,-16.286362,18.605325,33.378482,39.40342,42.826381,35.772829,50.581245,55.079244,56.099706,46.855596,62.896685,65.981711,64.867215,53.214035,67.365834,69.322569,67.765903,-5.621372,316.614484,-75.493515,297.591775
100,-3.011936,6.888407,0.672593,0.823195,7.53503,13.536976,16.669086,17.373287,-3.566631,21.476955,38.390865,48.501995,-13.087784,14.226391,33.527905,47.907772,-19.085186,3.825394,20.51128,32.771153,-22.929829,-10.456043,0.248634,9.035912,-20.494197,-33.894653,-39.227024,-41.39287,-10.863343,0.826442,6.047934,9.372378,8.427177,19.545326,23.127196,23.532909,23.245004,31.406543,31.683975,30.858829,34.982398,42.115349,38.953049,34.442132,26.30421,52.186134,75.589725,94.752491,55.711589,88.484607,106.97755,121.063098,46.777736,83.643871,104.591159,118.939556,38.177421,71.632255,91.018512,104.507389,30.668552,56.047393,71.360836,83.298969,-14.242584,-15.726422,-13.222628,-15.806611,19.252556,34.106395,40.074746,43.498003,36.304204,50.991181,55.424095,56.53974,47.209932,62.908751,65.95543,64.933955,53.490319,67.333835,69.192572,67.697458,-8.588562,323.572971,-74.776176,298.48505
101,7.599003,-0.05418,0.456035,0.743327,7.725666,10.74559,9.635948,7.422947,-12.039723,11.237594,29.487625,40.224403,-22.102226,4.123237,24.813263,40.229759,-28.029476,-5.180157,13.033218,26.093948,-31.665756,-19.202648,-7.313439,2.090504,-20.23608,-34.495213,-40.057616,-42.16869,-10.457507,2.632543,7.713404,10.30786,9.170418,21.308894,24.426338,24.259884,24.251721,32.988527,32.376815,31.004116,36.111739,43.806545,39.961408,35.096414,26.295159,52.246491,75.733795,94.982048,55.595215,88.390778,106.703613,120.572228,46.642582,83.480004,104.097565,118.205567,38.008415,71.480736,90.467606,103.642639,30.396584,55.86509,70.990734,82.701073,-14.355736,-15.960678,-13.203708,-15.34068,19.154965,33.851514,39.750074,43.116706,36.207675,50.564757,54.861622,55.951443,47.137412,62.398631,65.330565,64.286563,53.525455,67.154425,68.792466,67.131046,-0.936888,323.577408,-74.26747,299.286994
102,-2.197552,0.06648,-0.134067,0.355497,9.863388,13.465771,11.628536,8.534546,-10.759243,13.546703,31.989704,42.054325,-20.951671,6.761067,27.7626,42.903294,-27.132809,-2.032139,17.391163,30.558483,-31.294029,-16.027084,-2.472622,7.525417,-21.425874,-35.763887,-41.036989,-42.274665,-10.082619,4.45712,9.413554,11.542301,9.538315,22.732599,25.097442,24.249585,24.459499,34.171665,33.009733,31.408964,36.047482,44.783597,40.779935,35.581958,26.224216,52.266849,75.933277,95.442157,55.330169,88.27589,106.538921,120.363361,46.489208,83.431217,103.917171,117.892696,37.936123,71.553531,90.428913,103.485935,30.34782,55.87706,70.968761,82.547184,-14.350438,-16.032074,-13.135165,-14.667649,18.881424,33.245755,38.850482,42.055316,35.967034,49.822591,53.904269,54.828364,46.955643,61.853646,64.700711,63.538457,53.396421,66.972706,68.609166,66.803609,-3.09811,323.702199,-74.365207,299.700802
103,2.788422,0.320905,-0.315388,-0.073396,8.47998,10.835918,7.897419,4.211094,-14.803379,7.374904,26.929905,38.347194,-24.788418,0.979877,23.40366,40.036754,-30.233483,-7.310738,13.181041,27.722225,-33.515568,-20.384056,-6.465878,4.483532,-21.325073,-35.567978,-40.260108,-40.96205,-10.074222,3.993387,9.542501,12.176885,9.617589,21.51346,24.488632,24.136223,24.541355,32.95249,32.26543,30.873489,36.148357,43.646055,39.830312,34.895713,26.372086,52.480167,76.25219,95.998672,55.001656,88.078903,106.325249,120.127441,46.148449,83.116127,103.48748,117.338402,37.623482,71.332306,90.167015,103.222069,30.060013,55.598053,70.671226,82.227402,-14.187417,-15.846762,-12.894104,-13.955853,18.675572,32.859222,38.28996,41.341814,35.793527,49.482939,53.324271,53.937675,46.799612,61.694639,64.406988,63.036364,53.179788,66.966123,68.614637,66.62242,-0.26972,324.066227,-74.640627,299.670529
104,2.835583,-1.414603,-0.274349,-0.210619,7.747501,8.869743,5.110336,0.956954,-17.970051,3.819145,23.738525,35.543998,-27.883828,-2.652123,19.782897,36.902458,-32.971974,-10.851632,9.735626,24.658309,-35.794671,-23.763897,-10.101883,0.984123,-20.925017,-34.820045,-38.859201,-38.877171,-9.083313,5.338817,10.43945,12.591538,10.603249,22.725942,25.502463,24.98618,25.39661,33.909584,33.150844,31.573578,36.737197,44.527678,40.67076,35.449355,26.386951,52.517647,76.35561,96.251323,54.786243,87.98402,106.150165,119.854397,45.836162,82.896618,103.179302,116.867809,37.243892,71.127228,89.962131,103.029201,29.618202,55.194523,70.234302,81.728656,-14.155936,-15.765547,-12.641742,-13.243561,18.414344,32.536206,37.903243,40.87797,35.59216,49.332948,53.026857,53.352196,46.618251,61.681906,64.320119,62.777186,52.906037,66.939312,68.66962,66.593374,2.626305,322.689097,-74.854534,299.497383
105,11.636764,-5.725844,-0.428696,-0.191364,5.450707,1.692925,-7.788368,-16.796139,-31.876671,-11.614471,9.38372,21.703949,-41.844784,-17.140503,6.905617,24.96167,-45.954906,-24.435505,-1.715355,14.685333,-47.447994,-36.271442,-21.435825,-9.152573,-19.860057,-32.725261,-34.424274,-31.845626,-4.648312,11.030476,15.867966,17.247569,15.980203,28.175379,31.034201,30.080996,31.039091,39.208979,38.397764,36.535261,42.466326,50.743351,46.549029,41.20106,26.455444,52.61245,76.506466,96.577938,54.595905,87.921101,106.051746,119.677242,45.65958,82.809551,103.015514,116.518124,37.114677,71.150654,89.913014,102.789288,29.553555,55.183891,70.134762,81.408978,-14.11985,-15.715727,-12.431741,-12.616511,18.105628,32.175472,37.579164,40.543048,35.392594,49.162479,52.782634,52.862107,46.50379,61.664467,64.184057,62.432568,52.783239,67.006582,68.710992,66.483297,14.348345,316.978182,-75.197954,299.320948
106,-9.462902,3.583006,-0.267082,-0.064406,7.766361,7.322994,1.376392,-5.327419,-21.017166,1.22858,20.946201,32.078945,-30.462318,-4.115421,17.939701,34.34856,-34.872688,-11.812351,8.819172,23.5872,-37.215134,-24.031986,-10.186066,0.897411,-21.786571,-34.923403,-37.334201,-35.545106,-7.605515,6.908043,11.494061,13.193518,12.399272,24.125589,26.59006,25.937939,27.078963,35.303587,34.518949,32.999852,38.154962,46.192692,42.349766,37.043788,26.413799,52.55793,76.515713,96.725498,54.346207,87.793728,105.926731,119.504482,45.460487,82.85384,103.109035,116.529476,36.974636,71.35461,90.16428,102.945614,29.493027,55.419193,70.395126,81.543194,-14.167755,-15.749838,-12.319652,-12.15957,17.805941,31.929928,37.343488,40.247943,35.26545,49.069829,52.5795,52.408501,46.507125,61.676904,64.04791,62.103019,52.808569,67.031616,68.683489,66.355585,4.985172,320.576002,-75.365307,299.271356
107,2.243694,2.548451,-0.218788,-0.217337,6.061318,4.337883,-1.17604,-6.714683,-22.986271,-1.223076,18.655678,30.426682,-32.290752,-6.570144,15.396584,32.098274,-36.362949,-14.432785,5.467438,20.240891,-37.902157,-27.579197,-15.70174,-5.617069,-21.043552,-34.799074,-38.520907,-38.665934,-8.544169,4.637963,8.932617,10.911311,11.178011,21.794154,23.928433,23.526932,25.561139,32.850787,31.918146,30.541692,36.462816,43.012559,38.988544,33.792765,26.537693,52.621822,76.484676,96.661342,54.296699,87.752689,105.800251,119.311535,45.352592,82.720859,102.93465,116.295742,36.848568,71.239196,90.012005,102.726917,29.391803,55.345596,70.223945,81.221065,-14.202743,-15.774315,-12.169363,-11.792859,17.762025,32.019293,37.444783,40.298467,35.316024,49.251981,52.723354,52.430657,46.580016,61.826686,64.195827,62.235153,52.824748,67.071174,68.72753,66.404183,7.346586,323.128318,-75.466375,299.057884
108,-3.026481,-0.458534,-0.020222,0.047721,7.083366,6.527366,1.9113,-2.824986,-20.612606,2.930328,22.733642,34.279541,-30.027592,-2.382134,19.407829,35.696319,-34.344395,-10.466458,9.33094,23.615661,-36.220654,-24.153798,-12.131379,-2.266217,-21.10508,-34.989833,-38.944749,-39.265407,-8.488569,4.428752,8.542133,10.424335,11.479921,22.248056,24.065581,23.266852,25.936334,33.562066,32.331578,30.723103,36.846718,43.703929,39.57248,34.076842,26.413261,52.421207,76.23381,96.359253,54.226662,87.738144,105.718391,119.152931,45.23592,82.759827,103.017357,116.35144,36.709934,71.238453,90.000572,102.649773,29.29866,55.281509,70.088631,80.951683,-14.390971,-16.03452,-12.283318,-11.651871,17.630175,32.014711,37.416909,40.172101,35.288755,49.280003,52.727281,52.37192,46.57573,61.808272,64.174177,62.208143,52.782214,66.989576,68.659505,66.370936,4.453812,322.676598,-75.35289,299.112419
109,-7.22992,0.991428,-0.089184,-0.046955,8.609127,10.612244,8.213562,4.732075,-14.072777,10.557862,29.967201,41.196076,-23.338897,5.234871,26.954498,42.939469,-27.949482,-2.83865,16.728905,30.670326,-30.423294,-16.538887,-4.187313,5.510159,-21.820891,-36.183691,-40.481273,-40.755803,-10.398411,2.428977,7.063309,9.384988,9.853353,20.672445,22.625153,21.964301,24.858888,32.558683,31.297604,29.726599,36.352048,43.253335,38.964769,33.37469,26.363056,52.380398,76.230183,96.292225,54.03495,87.480526,105.478558,118.935597,45.10746,82.612507,102.916752,116.24255,36.737641,71.282627,89.998844,102.474644,29.527474,55.712059,70.571903,81.369793,-14.564304,-16.2524,-12.519402,-11.877284,17.694618,31.970634,37.36694,40.186847,35.446898,49.231899,52.586243,52.21805,46.779049,61.782559,63.949196,61.85913,52.992746,66.953983,68.439562,66.031593,-2.653834,323.675609,-75.3198,299.073047
110,-0.224258,-0.724406,0.064865,-0.009028,8.287136,10.650123,8.593666,5.537693,-13.538223,10.119953,29.7285,41.389251,-22.963291,4.566891,26.49852,42.776367,-27.798386,-3.513451,16.374481,30.639358,-30.482174,-16.914768,-4.248207,5.695232,-21.29789,-35.559222,-39.887457,-39.853309,-10.251186,2.919436,7.847785,10.193511,9.892873,21.196421,23.386029,22.701662,24.94519,33.18808,32.081982,30.437235,36.616463,43.829479,39.608801,33.934235,26.218094,52.171246,76.066098,96.054394,53.754204,87.148533,105.170552,118.69328,44.950997,82.384976,102.776287,116.253491,36.765759,71.202336,89.953732,102.51186,29.762535,56.012593,70.984188,81.933781,-14.69293,-16.447148,-12.682596,-11.958461,17.685071,31.861039,37.220987,40.042932,35.47145,49.135149,52.512464,52.261103,46.857324,61.730096,63.885865,61.865046,53.122929,66.928839,68.331388,65.888789,-2.739315,322.958508,-75.116158,299.071324
111,-2.272774,0.771608,0.080715,0.03132,8.416248,11.862145,10.985092,8.769962,-11.1171,12.116604,31.40934,43.111633,-20.475014,6.3204,28.20916,44.4925,-25.496326,-1.908165,17.705589,31.86351,-28.40839,-15.055378,-2.59108,7.204388,-21.417142,-36.08909,-40.693423,-40.776403,-11.252543,1.686663,6.921381,9.524186,8.835126,19.892302,22.353131,22.021123,23.993678,32.046253,31.113773,29.656537,35.854216,42.963825,38.864672,33.33864,26.094098,51.941666,75.818207,95.798699,53.510846,86.794831,104.891922,118.511696,44.823258,82.137612,102.645264,116.28582,36.780396,71.077984,89.870156,102.430413,29.912625,56.116517,71.137276,82.094948,-14.798202,-16.5829,-12.779767,-12.05809,17.706622,31.697017,37.019928,39.857137,35.44996,48.957517,52.399139,52.315702,46.837539,61.578091,63.745049,61.783671,53.154409,66.873658,68.190967,65.65536,-4.875652,323.727418,-74.899006,299.099946
112,9.11578,-5.352513,0.38173,0.155426,6.851623,7.258106,1.366665,-5.141739,-21.737183,-0.819832,19.688747,32.189518,-31.481701,-6.1497,17.541607,35.076244,-36.13298,-13.429161,8.583309,24.329029,-38.56707,-24.751545,-9.624172,2.236965,-20.212812,-34.192315,-37.134895,-34.880696,-7.528611,7.156687,12.474682,14.216822,13.30688,25.091242,27.930316,26.937172,28.863797,37.234115,36.290359,34.299921,41.00851,49.238654,44.996117,39.384869,25.807594,51.557636,75.433319,95.409713,53.042209,86.234184,104.402687,118.058532,44.472999,81.802139,102.454788,116.159454,36.552578,70.936557,89.747978,102.216018,29.82938,56.214935,71.348133,82.319938,-14.928805,-16.746749,-12.918199,-12.167055,17.589518,31.49245,36.876815,39.741935,35.408748,48.806142,52.267833,52.209911,46.904205,61.518131,63.583287,61.521688,53.317664,66.920453,68.089277,65.361218,4.368147,318.364691,-74.389257,299.245158
113,-10.287884,4.922088,0.292614,0.021637,9.008045,13.280548,12.242569,9.24123,-9.731426,11.717205,30.493881,41.78183,-18.934147,6.45591,28.34816,44.536904,-23.976482,-0.952011,19.154389,33.531853,-27.230038,-11.959167,2.280613,13.002388,-22.192653,-37.17439,-41.124737,-39.423711,-11.917113,1.436401,6.935572,9.295833,8.067988,19.416664,22.305459,22.123752,23.370827,31.701068,31.15144,29.791993,35.396386,43.307565,39.575839,34.328338,25.645958,51.33942,75.215595,95.167957,52.727062,85.81438,103.979702,117.645893,44.176723,81.353862,102.000904,115.662586,36.329029,70.635521,89.414234,101.766849,29.683639,56.285453,71.508487,82.493969,-15.092455,-16.961084,-13.153023,-12.403682,17.513973,31.302161,36.742915,39.758534,35.397794,48.68631,52.18058,52.206503,46.969809,61.47771,63.511571,61.43073,53.418948,66.919255,68.012731,65.196036,-5.800083,323.26747,-73.976989,299.247486
