takenoko1/special-research/HandMotion_SimilarSearch_自分用/NewProject/handData/tgt/d4_feature_d2/14.csv
,vel_0x_L,vel_0y_L,vel_0x_R,vel_0y_R,posFromWrist_1x_L,posFromWrist_2x_L,posFromWrist_3x_L,posFromWrist_4x_L,posFromWrist_5x_L,posFromWrist_6x_L,posFromWrist_7x_L,posFromWrist_8x_L,posFromWrist_9x_L,posFromWrist_10x_L,posFromWrist_11x_L,posFromWrist_12x_L,posFromWrist_13x_L,posFromWrist_14x_L,posFromWrist_15x_L,posFromWrist_16x_L,posFromWrist_17x_L,posFromWrist_18x_L,posFromWrist_19x_L,posFromWrist_20x_L,posFromWrist_1y_L,posFromWrist_2y_L,posFromWrist_3y_L,posFromWrist_4y_L,posFromWrist_5y_L,posFromWrist_6y_L,posFromWrist_7y_L,posFromWrist_8y_L,posFromWrist_9y_L,posFromWrist_10y_L,posFromWrist_11y_L,posFromWrist_12y_L,posFromWrist_13y_L,posFromWrist_14y_L,posFromWrist_15y_L,posFromWrist_16y_L,posFromWrist_17y_L,posFromWrist_18y_L,posFromWrist_19y_L,posFromWrist_20y_L,posFromWrist_1x_R,posFromWrist_2x_R,posFromWrist_3x_R,posFromWrist_4x_R,posFromWrist_5x_R,posFromWrist_6x_R,posFromWrist_7x_R,posFromWrist_8x_R,posFromWrist_9x_R,posFromWrist_10x_R,posFromWrist_11x_R,posFromWrist_12x_R,posFromWrist_13x_R,posFromWrist_14x_R,posFromWrist_15x_R,posFromWrist_16x_R,posFromWrist_17x_R,posFromWrist_18x_R,posFromWrist_19x_R,posFromWrist_20x_R,posFromWrist_1y_R,posFromWrist_2y_R,posFromWrist_3y_R,posFromWrist_4y_R,posFromWrist_5y_R,posFromWrist_6y_R,posFromWrist_7y_R,posFromWrist_8y_R,posFromWrist_9y_R,posFromWrist_10y_R,posFromWrist_11y_R,posFromWrist_12y_R,posFromWrist_13y_R,posFromWrist_14y_R,posFromWrist_15y_R,posFromWrist_16y_R,posFromWrist_17y_R,posFromWrist_18y_R,posFromWrist_19y_R,posFromWrist_20y_R,posFromBody_0x_L,posFromBody_0y_L,posFromBody_0x_R,posFromBody_0y_R
6,2.863049,-0.514801,0.328811,0.143804,17.046204,27.832271,32.564953,32.620731,8.559986,33.289776,51.733372,60.846256,-5.009537,21.752678,42.651272,56.696194,-17.012386,5.368835,25.78696,39.920185,-26.199623,-18.329979,-6.931046,3.500095,-19.479316,-26.3407,-23.966323,-20.012246,-10.761578,7.205409,15.856209,20.114814,9.04767,27.343243,34.382061,35.458433,25.175989,39.398171,43.647328,44.631037,38.080528,50.858109,52.120682,50.860356,25.89671,50.383873,72.94756,92.109833,51.300019,82.697182,99.687195,112.196915,42.383652,76.697068,96.566872,109.632523,32.874344,65.18517,83.334275,95.331322,23.821713,47.901604,62.123589,73.775277,-13.775911,-13.484153,-5.081021,0.700015,13.687275,31.338939,38.992434,43.590048,30.674307,46.827771,53.990818,57.056739,43.115953,59.494386,64.432998,64.692782,51.098083,67.705165,71.415043,70.481204,-24.371458,308.527474,-77.032557,292.034161
7,-4.936157,-0.469809,0.539498,0.05628,18.143692,30.695697,37.05138,37.828571,13.992965,40.547664,57.958316,65.989208,0.596351,29.381973,49.198482,62.018154,-11.908676,12.286743,31.762607,44.802532,-21.925301,-13.193402,-2.36649,7.425876,-19.84846,-26.03847,-22.969808,-19.156349,-10.694332,7.932457,16.24946,20.012382,9.295203,28.312823,35.00679,35.385011,25.360177,40.378347,44.310564,44.546969,38.075242,51.622146,52.95735,51.504153,25.632763,49.838287,72.270527,91.424331,51.005081,82.345161,99.370903,111.899071,42.154392,76.411812,96.357284,109.410003,32.617664,64.856724,83.021278,95.017341,23.486812,47.57365,61.728527,73.325557,-13.861362,-13.665885,-5.182157,0.629582,13.537789,31.218945,38.869253,43.530718,30.481201,46.548646,53.685882,56.761534,42.938544,59.218793,64.098212,64.32423,50.950227,67.557334,71.242376,70.278069,-29.1278,307.303593,-76.313244,291.336369
8,-3.76458,-1.49294,0.347191,0.036198,20.986027,35.488666,42.485676,43.19331,20.842071,47.800358,64.510174,71.76701,7.165352,36.605747,55.107845,66.196255,-6.837582,17.737415,36.080944,47.678043,-18.723438,-9.915962,0.09938,8.992676,-19.652563,-25.296254,-23.032817,-20.791105,-10.458964,9.309356,16.442035,18.795738,9.821946,30.092692,35.455394,34.59053,26.230327,42.697582,45.80648,45.373906,39.252143,54.183726,55.329913,53.879371,25.340217,49.357898,71.630916,90.639381,50.884037,82.16819,99.212677,111.775612,42.0172,76.213256,96.184158,109.270568,32.387844,64.577465,82.800224,94.885299,23.097988,47.142563,61.318885,72.997455,-14.049541,-13.951765,-5.38182,0.518604,13.411078,31.024617,38.579545,43.158622,30.380202,46.300261,53.327618,56.341063,42.823441,58.955329,63.762993,63.968622,50.822231,67.390929,71.115751,70.194225,-32.714247,305.268195,-75.78792,290.830109
9,-0.653114,0.067024,0.167015,-0.023675,21.07814,35.729267,43.074428,44.219066,21.472469,48.382587,65.092449,72.373409,7.941124,37.356227,55.843311,66.96619,-5.937779,18.501308,36.612087,48.054508,-17.653313,-9.512158,-0.273606,8.149761,-19.894587,-25.514505,-23.141523,-21.098436,-10.405957,9.082423,15.929803,18.028242,9.936024,29.930745,35.01047,33.880228,26.316704,42.423817,45.478425,44.934787,39.278054,53.990225,55.348438,54.147899,25.003601,48.97134,71.213493,90.232338,50.855335,82.16098,99.320297,111.937568,41.97417,76.241535,96.30352,109.427856,32.24414,64.543945,82.835724,94.952247,22.820469,46.936672,61.175949,72.902412,-14.305817,-14.209968,-5.570184,0.380197,13.458131,30.994162,38.450264,42.947016,30.382104,46.171857,53.055781,55.99263,42.759344,58.810277,63.526613,63.702083,50.690629,67.238887,70.992559,70.138019,-33.231216,304.920321,-75.48476,290.391536
10,0.237087,0.529645,0.155216,-0.029727,20.720901,35.158996,42.385208,43.40728,20.781532,47.766884,64.599106,72.02893,7.413196,37.024223,55.663124,67.017013,-6.202812,18.370766,36.51709,48.103844,-17.639706,-9.659123,-0.66766,7.712208,-20.176515,-26.07589,-24.014747,-22.237113,-10.996291,8.29376,15.094592,17.12991,9.533189,29.493158,34.411998,33.074954,26.041026,42.03232,45.028771,44.349369,39.064707,53.702889,55.068067,53.772605,24.842743,48.84304,71.046925,90.067898,50.675159,82.135609,99.366314,111.986126,41.753002,76.267605,96.399799,109.530636,32.020431,64.627075,82.970707,95.124058,22.631287,46.855568,61.180962,72.972828,-14.423167,-14.341076,-5.689695,0.368242,13.438446,30.98401,38.34724,42.73294,30.450882,46.242525,52.984632,55.757757,42.854625,58.944189,63.541791,63.591784,50.734274,67.343925,71.095448,70.191261,-32.907085,305.121565,-75.2425,290.033408
11,0.391868,0.214163,0.133438,-0.025799,20.294529,34.401925,41.466591,42.258362,20.047371,46.946709,63.947045,71.561715,6.806397,36.466278,55.305794,67.028435,-6.563438,18.03415,36.26326,47.891007,-17.775833,-10.049732,-1.331497,6.775452,-20.479512,-26.9503,-25.55132,-24.12307,-10.957487,8.127219,14.56344,16.267232,9.833235,29.671925,34.087747,32.388091,26.366487,42.258191,44.864268,43.961032,39.279968,53.83727,55.029114,53.549525,24.72068,48.782307,71.000416,89.999897,50.615593,82.224186,99.465603,112.064564,41.652981,76.329083,96.412228,109.512119,31.885643,64.705364,83.041477,95.210461,22.482044,46.807571,61.202019,73.049572,-14.507531,-14.424748,-5.813604,0.307097,13.429158,31.034485,38.358133,42.64991,30.482893,46.326221,52.975666,55.572962,42.880264,59.050894,63.611557,63.57258,50.705177,67.376319,71.15043,70.20035,-32.458208,305.033089,-75.052053,289.70497
12,-0.376716,0.459448,0.060814,-0.005817,20.581112,35.00766,42.42762,43.482239,20.774082,47.506187,64.430351,72.132294,7.515838,36.78289,55.66626,67.589813,-5.806515,18.779274,37.143722,48.898636,-17.128876,-8.374558,1.156666,9.801224,-20.730107,-27.985941,-27.583205,-26.677018,-11.593195,6.76929,13.146218,14.994754,9.26686,28.695256,33.07525,31.528587,25.927121,41.504737,44.071281,43.223831,38.943935,53.489973,54.376351,52.415256,24.588673,48.770588,71.076279,90.16048,50.519211,82.294224,99.639484,112.244556,41.544823,76.441669,96.558231,109.594791,31.803234,64.889866,83.239162,95.384022,22.461422,46.881157,61.362625,73.258884,-14.504011,-14.405075,-5.878961,0.19334,13.476014,31.213129,38.49491,42.646106,30.56486,46.509113,53.033958,55.406557,42.964911,59.241468,63.702515,63.510237,50.72805,67.468636,71.271078,70.293878,-32.795339,305.212066,-74.951654,289.418682
13,2.137367,0.239801,-0.101509,-0.20516,19.522545,33.055367,39.833382,40.315064,17.821358,43.609337,61.186592,69.790878,4.851185,32.578514,52.408836,65.70433,-8.027515,15.339352,34.596222,47.35286,-18.954414,-10.770481,-0.523659,8.823246,-20.961387,-28.924485,-29.273474,-28.926066,-11.937515,5.833636,12.532605,14.703724,8.976818,27.717636,32.596771,31.564106,25.647219,40.59808,43.573289,43.253237,38.796055,52.912434,53.952459,52.125549,24.466369,48.922325,71.445591,90.661342,50.743778,82.589001,99.958752,112.585659,41.718899,76.67902,96.769077,109.796253,31.861564,65.001446,83.324055,95.465778,22.399967,46.865284,61.356445,73.233078,-14.530057,-14.337519,-5.816901,0.141322,13.511348,31.302852,38.590216,42.727321,30.607876,46.621895,53.189508,55.546114,42.990081,59.380666,63.89351,63.719225,50.71922,67.634214,71.45155,70.458369,-30.610754,305.190793,-75.005945,288.952448
14,0.266052,0.228279,-0.041371,-0.233799,19.353642,32.700623,39.196015,39.125359,17.647225,43.753166,60.902825,69.13337,4.8303,32.647934,52.122597,65.07106,-7.879898,15.922612,35.047943,47.558579,-18.841896,-9.440574,1.615288,11.375634,-21.141995,-29.750545,-31.201767,-31.659201,-12.261828,5.601726,12.146171,14.10356,8.672772,27.530631,32.155725,31.017158,25.41668,40.574307,43.297463,42.792036,38.72235,53.13187,53.655329,51.146656,24.651741,49.24442,71.884598,91.205269,50.850518,82.712975,100.119576,112.746369,41.785618,76.741723,96.816926,109.806519,31.906918,65.019574,83.305848,95.397904,22.453331,46.856564,61.309262,73.085793,-14.258998,-13.989643,-5.528379,0.264316,13.724387,31.559808,38.86792,42.967851,30.807663,46.903513,53.537385,55.846121,43.157338,59.636794,64.191368,63.993681,50.850661,67.878078,71.68215,70.619883,-30.292477,305.208055,-74.995091,288.507632
15,0.019501,-0.17006,-0.049358,-0.233392,19.602665,32.752029,38.968163,38.433472,18.277382,44.831749,61.280182,68.803299,5.397995,33.592461,52.272949,64.470795,-7.395584,17.0014,35.629921,47.559151,-18.605679,-8.16283,3.273525,13.126259,-21.115924,-30.043441,-32.263146,-33.318386,-11.995265,6.270458,12.45444,14.038326,8.797013,28.108503,32.252141,30.893286,25.414147,41.05528,43.376342,42.663594,38.660401,53.450354,53.467693,50.405441,24.792492,49.483463,72.235531,91.602001,51.101246,82.959606,100.378864,112.982334,41.95966,76.856815,96.880772,109.817951,31.983902,64.970181,83.222454,95.268734,22.448811,46.75137,61.156769,72.842812,-14.048787,-13.725672,-5.291998,0.408047,13.827609,31.694819,39.019171,43.101639,30.865931,47.060298,53.79791,56.127111,43.158697,59.776745,64.443965,64.294788,50.803867,67.9782,71.825745,70.767182,-30.213781,304.875632,-74.985254,288.111877
16,-0.227634,0.336922,-0.160835,-0.196576,20.18177,33.579151,39.994068,39.46281,19.821498,46.542789,62.093639,68.855495,6.820873,34.865535,52.601589,63.816318,-6.261406,18.310535,36.333171,47.739841,-17.938775,-6.296975,5.841064,16.17818,-21.307412,-30.496021,-33.524471,-35.404537,-12.694032,5.709653,11.775829,13.253417,7.971213,27.628061,31.535602,30.186022,24.683134,40.645863,42.82937,42.017167,38.150096,53.240143,52.740694,49.060666,24.971351,49.697822,72.520717,91.964069,51.308075,83.148685,100.630153,113.241451,42.131115,77.005977,97.077473,109.995334,32.113128,65.008335,83.278278,95.264614,22.556694,46.750637,61.113567,72.685306,-13.8644,-13.498282,-5.053852,0.531597,13.934104,31.73014,39.046366,43.12918,30.938364,47.137312,53.97007,56.392267,43.20086,59.852735,64.598785,64.54195,50.842671,68.110926,71.957816,70.918557,-30.375875,305.097019,-75.080549,287.799766
17,-0.131871,-0.507576,-0.225403,-0.186252,20.300434,33.728554,40.140679,39.460488,20.218861,47.128624,62.24421,68.649605,7.16985,35.174607,52.430443,63.166443,-6.173343,18.580159,36.415055,47.633332,-18.054439,-6.398494,5.774174,16.187485,-21.18112,-29.945454,-33.040521,-35.157103,-12.490515,6.664253,12.803034,14.031806,8.125021,28.531173,32.335529,30.78184,24.851392,41.385744,43.594359,42.65921,38.446165,53.787511,53.297781,49.565203,25.083424,49.830448,72.691841,92.157314,51.614273,83.404896,100.915524,113.602993,42.432461,77.15221,97.189922,110.167385,32.347137,64.974369,83.22591,95.268871,22.672909,46.722027,60.982338,72.46479,-13.794857,-13.399555,-4.93571,0.671869,14.126148,31.706058,39.016356,43.130255,31.045316,47.135819,54.091261,56.650001,43.206788,59.824874,64.69193,64.752013,50.782625,68.132391,71.985049,70.96755,-30.435494,304.520918,-75.2337,287.544989
18,-0.86206,-0.635115,-0.042744,-0.08771,20.687977,34.799881,41.503692,40.961151,21.646545,48.569435,63.148796,69.130348,8.415069,36.069099,52.792785,63.148063,-5.427464,19.183365,36.667099,47.650131,-17.690895,-6.684391,4.723617,14.77613,-20.80364,-29.149282,-32.29328,-34.545836,-12.128238,7.642638,13.919654,15.162875,8.358264,29.431864,33.146695,31.584681,24.911462,41.907448,44.139997,43.278616,38.435358,53.72292,53.439103,50.003619,25.207501,49.798634,72.559101,91.987862,51.666607,83.369088,100.923821,113.64386,42.535984,77.120179,97.156403,110.137688,32.506382,64.965454,83.182,95.205048,22.862297,46.787361,60.997719,72.415455,-13.644334,-13.280637,-4.86597,0.858726,14.383721,31.887184,39.186255,43.27501,31.224713,47.27856,54.225185,56.768784,43.343676,59.967183,64.837204,64.892507,50.904038,68.247432,72.076711,71.030696,-31.222166,303.86542,-75.201056,287.436896
19,-0.018929,-0.620493,-0.014385,-0.008213,20.60812,34.935242,41.904854,41.593598,21.57383,48.261315,62.667298,68.429993,8.464966,35.491162,51.872956,62.149727,-5.482109,18.595391,35.818955,46.636872,-17.72763,-8.155105,1.782635,10.902626,-20.563468,-28.646609,-31.744121,-34.085375,-11.333806,8.862345,15.082921,16.263799,9.004396,30.581361,34.156722,32.569625,25.234652,42.518135,44.699345,43.989857,38.472384,53.44613,53.467064,50.605216,25.180641,49.733116,72.453999,91.857708,51.724686,83.439297,100.986729,113.723637,42.612866,77.165806,97.176304,110.172329,32.581329,64.980457,83.184551,95.223415,22.90361,46.813442,61.030655,72.484428,-13.710728,-13.390453,-4.976614,0.859072,14.292059,31.736723,39.021246,43.123091,31.125357,47.165409,54.131424,56.71621,43.255385,59.93143,64.840551,64.914565,50.842671,68.266105,72.099126,71.029671,-31.172556,303.239502,-75.146902,287.423258
20,2.556038,-0.492163,0.008892,0.092243,19.899193,33.449158,39.873528,39.280037,18.737297,44.107453,58.788025,65.116676,5.634018,30.805756,47.681008,58.978821,-8.235832,14.230408,31.990585,43.663651,-20.172924,-12.590835,-3.320892,5.731247,-20.063141,-28.057794,-31.158813,-33.597485,-10.739311,9.605993,16.092256,17.375578,9.443243,31.013947,34.813091,33.475405,25.486667,42.550789,44.958005,44.671705,38.608025,53.062882,53.507769,51.331969,25.176727,49.656544,72.35978,91.760834,51.754452,83.310288,100.860993,113.66565,42.712086,77.1213,97.131249,110.146797,32.679028,64.962902,83.121208,95.132469,22.918064,46.810684,61.020962,72.467114,-13.724375,-13.506631,-5.1786,0.704337,14.277597,31.676405,38.971475,43.073147,31.080057,47.040957,54.005811,56.61852,43.241047,59.820637,64.714086,64.791323,50.933147,68.302303,72.073734,70.960263,-28.547259,302.749806,-75.068751,287.517968
21,4.131661,-0.381828,0.115322,0.11756,18.854816,30.862037,35.915863,34.364593,14.524555,38.032058,53.201843,60.315719,1.290744,24.155605,41.736259,54.216179,-12.448803,7.997703,26.532096,39.200454,-24.055081,-18.044358,-8.32766,1.431976,-19.321469,-27.295892,-30.331925,-32.485348,-10.117459,10.248506,17.138099,18.697494,9.818291,31.244449,35.556789,34.696001,25.639772,42.419409,45.303882,45.627565,38.627909,52.828429,53.698912,52.075222,25.090977,49.596897,72.294583,91.638302,51.758366,83.156765,100.667507,113.494824,42.741692,77.023075,96.998806,109.986065,32.674393,64.889534,82.960385,94.879933,22.819199,46.738655,60.930153,72.332325,-13.80796,-13.644494,-5.371261,0.561138,14.217921,31.585274,38.894016,43.012398,31.017331,46.928436,53.889609,56.518436,43.191993,59.692382,64.531218,64.577778,50.938458,68.233662,71.914394,70.730318,-24.344844,302.376274,-74.882675,287.643824
22,7.203003,-1.789638,0.231766,0.10237,12.000526,18.397567,19.262935,14.454219,2.719356,26.429592,42.764556,51.283241,-8.618718,15.27238,34.228775,47.896888,-19.417546,1.297393,20.828018,34.390251,-27.787182,-22.370957,-12.533661,-2.824906,-13.986036,-18.137701,-17.438439,-16.717133,-3.571952,15.616778,22.260826,24.314571,13.64489,32.854801,37.531209,37.233016,27.171466,42.41642,45.515871,46.341746,38.409139,51.549825,52.105171,50.798335,25.053383,49.573254,72.240955,91.580212,51.59111,82.901997,100.374035,113.204281,42.564331,76.839741,96.820599,109.799435,32.479225,64.788551,82.818272,94.654987,22.610996,46.574272,60.796989,72.199654,-13.799253,-13.71962,-5.49554,0.454705,14.009896,31.441667,38.756806,42.863184,30.8798,46.793721,53.723538,56.353167,43.155844,59.592482,64.357218,64.368061,51.042372,68.278097,71.851446,70.549957,-17.077949,300.595892,-74.587017,287.75545
23,0.083358,0.070705,0.209747,0.168418,11.910839,18.081208,18.808331,14.031636,2.627232,26.336712,42.527481,50.876587,-8.579704,15.26286,34.028,47.561371,-19.312454,1.262135,20.576042,33.987168,-27.614547,-22.638794,-13.42773,-4.167972,-14.164372,-18.580712,-18.016091,-17.370453,-3.548858,15.762496,22.284254,24.173273,13.69156,32.864483,37.504557,37.155679,27.219828,42.284397,45.342389,46.132942,38.462578,51.42431,52.076036,50.95534,24.928986,49.456112,72.110688,91.49136,51.477825,82.772129,100.199879,113.00845,42.436123,76.737362,96.672123,109.580029,32.308022,64.677613,82.660733,94.437916,22.410965,46.410805,60.652771,72.070141,-13.913553,-13.92494,-5.732365,0.225253,13.713951,31.195975,38.52791,42.65779,30.627661,46.526243,53.451601,56.10167,42.954476,59.350754,64.095507,64.104078,50.900457,68.128797,71.643223,70.269412,-16.935643,300.67359,-74.318322,287.930861
24,1.685784,0.309703,0.190464,0.113151,11.428528,16.752525,16.729236,11.581295,0.950557,23.721645,40.159515,49.021431,-10.339199,12.68526,31.948013,46.158851,-21.003296,-1.225113,18.404285,32.425529,-29.170349,-24.760678,-15.267266,-5.4688,-14.222219,-18.876718,-18.374305,-17.746155,-3.839258,15.360946,22.214574,24.317744,13.389366,32.156193,37.23099,37.319466,26.928428,41.437058,44.865169,46.091026,38.227988,50.898975,51.71755,50.835137,24.832489,49.268292,71.892884,91.254227,51.419209,82.541748,99.91372,112.758362,42.391365,76.570977,96.452843,109.348252,32.172284,64.462052,82.425545,94.221863,22.120549,46.15511,60.410065,71.86718,-13.987888,-14.091369,-5.913713,0.039064,13.526416,31.049046,38.406176,42.572538,30.422971,46.296446,53.261225,55.982084,42.793481,59.130837,63.925818,64.029818,50.844709,68.042261,71.549598,70.19719,-15.200695,300.992781,-74.078694,288.0535
25,-4.302349,0.193711,0.111832,0.172235,12.636943,19.69733,21.438835,17.680709,5.652259,29.572197,45.393756,53.321331,-5.367062,19.253299,37.381198,50.292354,-16.117527,5.038799,23.460777,36.233287,-24.612774,-19.101105,-10.816132,-2.355835,-15.245448,-20.448649,-20.701567,-20.723784,-4.482401,14.764091,21.078861,22.96641,13.110773,32.151006,36.7194,36.465075,26.749945,41.499488,44.62864,45.539224,37.950333,50.691938,51.433869,50.444405,24.800194,49.119312,71.717892,91.147293,51.284489,82.414856,99.735649,112.568069,42.305477,76.490799,96.359413,109.293892,32.151066,64.443684,82.42907,94.262077,22.189064,46.328945,60.562958,72.034275,-14.096113,-14.284834,-6.151342,-0.348569,13.365963,30.783383,38.152047,42.434562,30.251588,45.99866,52.966342,55.802958,42.636696,58.839423,63.677976,63.922791,50.724369,67.773386,71.263174,69.971405,-19.459722,301.209772,-73.92354,288.249015
26,-6.291275,-0.02207,0.069557,0.136876,14.252632,23.807876,27.913948,25.859802,11.867786,37.971061,52.888858,59.523273,1.25275,28.741264,45.304035,56.340351,-9.55132,14.089027,30.793533,41.784221,-18.335999,-11.504151,-5.58759,0.492851,-16.398884,-21.982603,-22.934412,-23.760076,-4.963597,14.6923,20.15342,21.42785,13.13267,32.899002,36.507511,35.478835,26.880572,42.290066,44.609955,44.759934,37.933896,50.718824,51.179804,49.992677,24.880909,49.054024,71.600121,91.086685,51.11538,82.302315,99.602669,112.418518,42.139229,76.381348,96.266007,109.234337,32.055073,64.393009,82.45459,94.365715,22.220375,46.45491,60.72789,72.288803,-14.180192,-14.426823,-6.350894,-0.684837,13.210376,30.54946,37.907157,42.27238,30.139548,45.772838,52.711769,55.630847,42.592433,58.675735,63.526428,63.888273,50.735225,67.635843,71.134856,69.912705,-25.718187,301.212007,-73.821173,288.410196
27,-9.042584,1.417604,0.030785,0.111533,21.511025,37.279862,46.085335,47.562492,25.535946,52.117699,65.273232,69.571655,13.393067,40.844204,54.748833,63.301964,-0.180988,23.84681,38.177845,46.902443,-12.096622,-4.63472,-1.035496,3.009384,-22.072722,-31.816307,-37.138982,-41.350916,-10.8936,10.513329,15.334258,15.407926,10.06328,32.770154,35.071851,32.810995,25.865408,43.339478,44.660467,43.872223,38.20356,51.991204,52.6341,51.296216,24.985187,48.967426,71.416225,90.865768,51.131012,82.334907,99.605324,112.411194,42.139984,76.313072,96.194206,109.219345,32.03033,64.260235,82.426529,94.454841,22.17009,46.474422,60.822372,72.508941,-14.384906,-14.668859,-6.626338,-1.062144,13.023409,30.318662,37.678336,42.135357,29.912517,45.527887,52.490271,55.510212,42.356485,58.451483,63.42107,63.959126,50.501179,67.344802,70.95651,69.8987,-34.734409,302.655556,-73.764026,288.547674
28,-1.615803,-0.13464,0.149574,0.081276,21.88155,38.18636,47.295216,48.76656,27.279168,54.840809,67.444371,70.863682,15.284088,44.244919,56.985363,64.079625,1.777531,27.122177,40.381737,47.739453,-10.040931,-1.628997,0.809109,3.389225,-22.404063,-32.121379,-37.667542,-41.960381,-10.434931,11.291791,15.47348,15.021578,10.660183,34.034233,35.459272,32.515618,26.324596,44.494222,45.011876,43.642412,38.29821,52.444822,52.670458,50.958576,25.138733,48.923561,71.310242,90.696327,51.193817,82.304077,99.515625,112.284874,42.178974,76.221062,96.081619,109.141022,32.009914,64.095039,82.290115,94.368393,22.081455,46.428417,60.817452,72.598778,-14.422969,-14.751902,-6.774144,-1.291189,13.099263,30.292443,37.676063,42.250879,29.945307,45.438547,52.450393,55.629501,42.368798,58.333009,63.368545,64.07529,50.546516,67.206876,70.865761,69.944087,-36.329768,302.547166,-73.594008,288.6552
29,-3.022236,-0.3522,-0.021561,0.008546,22.669018,40.08957,50.192254,52.183823,30.324372,59.312783,71.357644,73.860672,18.516037,49.034363,60.788727,66.792801,4.939671,31.707722,44.160988,50.439515,-7.041996,2.08873,3.201497,4.210854,-22.852086,-32.412964,-38.060052,-42.444985,-10.207121,11.676262,15.377396,14.617236,11.067638,34.993761,35.785673,32.223637,26.706683,45.429605,45.409796,43.489765,38.545015,52.843792,53.000169,51.17637,25.237381,48.932625,71.272969,90.60125,51.364289,82.381028,99.52668,112.302132,42.39053,76.241936,96.039025,109.209732,32.221184,64.099057,82.321564,94.5336,22.272652,46.589219,61.014061,72.915242,-14.480372,-14.809564,-6.879811,-1.440612,13.130052,30.167806,37.538508,42.146336,29.955656,45.313021,52.318383,55.582349,42.365958,58.218647,63.317638,64.159024,50.563745,67.088871,70.777149,69.944927,-39.331427,302.216844,-73.594992,288.685624
30,0.708756,-0.157303,0.023129,-0.147003,22.286602,39.277325,48.8554,50.359611,29.233726,58.279266,70.382355,72.962517,17.540348,47.766312,59.739532,65.963814,4.037876,30.680626,43.474319,49.973122,-7.781765,1.091915,2.121666,3.005665,-22.64085,-31.800128,-37.013259,-41.014438,-9.822552,11.958906,15.94613,15.359723,11.25384,35.094995,36.143084,32.758927,26.796814,45.418379,45.618314,43.850042,38.724042,52.943161,53.332386,51.701088,25.328751,48.980759,71.253857,90.480801,51.525787,82.354923,99.452808,112.25877,42.529472,76.142338,95.884563,109.127369,32.275211,63.916191,82.117893,94.408939,22.200039,46.433659,60.867725,72.840546,-14.439802,-14.710603,-6.751394,-1.240059,13.30882,30.36295,37.735023,42.344296,30.09352,45.413316,52.437265,55.758189,42.478418,58.311507,63.45402,64.35197,50.691161,67.173926,70.91736,70.148061,-38.605837,302.069801,-73.555029,288.548881
31,1.715412,-0.088229,-0.053753,-0.140445,21.671688,37.867779,46.798588,47.83762,27.292935,55.802273,68.201351,71.14555,15.683247,44.869068,57.446446,64.348698,2.189942,27.99614,41.484272,48.541477,-9.529655,-1.577499,-0.306381,0.852699,-22.328319,-31.275052,-36.096413,-39.691819,-9.632793,11.988941,16.451569,16.20442,11.211232,34.794542,36.284592,33.17368,26.702138,45.12068,45.640779,44.119941,38.784557,52.941382,53.605854,52.206688,25.263451,48.906567,71.171619,90.354698,51.835785,82.480156,99.522652,112.370544,42.847595,76.2071,95.852531,109.167458,32.47768,63.896896,82.03997,94.406342,22.200817,46.403584,60.836735,72.888886,-14.484522,-14.75121,-6.724792,-1.069974,13.322541,30.398913,37.787016,42.385409,30.044614,45.371177,52.45206,55.80428,42.381642,58.27542,63.515424,64.466072,50.612577,67.157674,70.987187,70.314404,-36.87513,301.987753,-73.593487,288.414617
32,1.037579,0.19376,-0.130634,-0.109174,21.324154,37.078823,45.71093,46.51522,26.182766,54.389763,66.939262,70.075836,14.647636,43.354294,56.26252,63.553917,1.198185,26.695587,40.555504,47.946418,-10.424721,-2.960141,-1.62022,-0.35756,-22.409817,-31.409519,-36.066983,-39.529736,-9.966627,11.476759,16.257945,16.303233,10.860255,34.22135,35.964367,33.039188,26.408231,44.69338,45.381366,43.991439,38.704319,52.791354,53.503558,52.103751,25.253002,48.919922,71.234024,90.418728,51.973446,82.505161,99.55418,112.446773,43.055935,76.272365,95.904773,109.256824,32.72707,63.972542,82.032886,94.39722,22.469982,46.530567,60.858604,72.831962,-14.390687,-14.686237,-6.698735,-1.01388,13.584942,30.566169,37.973354,42.586505,30.261839,45.461641,52.571114,55.981169,42.552085,58.343308,63.576766,64.531428,50.758208,67.223301,70.999302,70.275229,-35.824218,302.201675,-73.710788,288.325605
33,0.187282,0.163923,-0.192936,-0.178249,21.565316,37.267983,46.210865,47.530895,25.803108,53.637989,66.844105,70.813717,14.128647,42.269474,56.276356,64.808407,0.697598,25.835678,40.601612,49.169094,-11.050712,-3.272781,-0.403702,2.462117,-22.602948,-31.769031,-36.420134,-39.929471,-11.047803,9.757738,15.000077,15.674107,9.832555,32.517088,34.920723,32.540553,25.741759,43.39262,44.86969,43.943384,38.543755,52.595839,53.50525,52.010754,25.355873,49.113441,71.428253,90.594452,51.823791,82.50222,99.657806,112.671615,42.964748,76.331589,96.063263,109.556465,32.794807,64.215683,82.364296,94.786697,22.728367,46.886787,61.233524,73.165054,-14.293529,-14.607023,-6.705626,-0.9886,13.492452,30.376127,37.735318,42.254201,30.186392,45.412315,52.505708,55.842206,42.524569,58.377357,63.587536,64.432393,50.741857,67.217003,70.973737,70.175947,-35.629727,302.396849,-73.896515,288.178607
34,-0.596065,-1.049473,-0.004933,-0.276519,21.973869,38.104259,48.013183,50.25547,26.724037,54.448837,68.082916,72.476257,14.818748,42.985748,57.529152,66.294616,1.031547,26.139541,41.330795,50.312759,-11.123955,-2.819756,1.011738,4.708912,-22.404964,-31.050713,-35.039308,-38.255652,-10.733061,9.78581,15.323353,16.516506,10.233945,32.394859,35.137257,33.200591,26.274319,43.66174,45.494357,44.885016,39.168805,53.472955,54.434754,52.866936,25.301091,48.948441,71.169274,90.339558,51.656479,82.480511,99.754475,112.812481,42.896748,76.384381,96.183918,109.749974,32.893559,64.361962,82.461079,94.808018,23.010315,47.280178,61.548706,73.299946,-14.389241,-14.734562,-6.77854,-0.965776,13.623685,30.180008,37.526961,42.060911,30.285367,45.420874,52.505981,55.847567,42.536945,58.260761,63.411005,64.18843,50.66173,66.90898,70.576856,69.692368,-36.224579,301.392677,-73.900235,287.947389
35,6.984146,-2.868739,0.265675,-1.643524,20.099968,33.303108,40.457336,40.876877,18.497703,44.120144,58.960876,64.689125,6.106876,33.127338,49.134865,59.365539,-7.209057,16.776661,33.378662,43.54969,-18.564663,-11.182491,-5.837597,-0.800949,-20.355566,-27.428582,-28.999858,-29.881963,-8.347791,13.062386,19.456999,21.111429,11.824599,34.186029,38.042614,37.076405,27.205169,44.847756,47.403025,47.697513,39.548595,54.281021,55.746012,54.940058,25.324402,49.018158,71.234413,90.353645,51.489372,82.267433,99.403564,112.283363,42.624001,75.988907,95.653633,109.263039,32.605442,63.822464,81.906898,94.394806,22.751049,46.892647,61.071075,72.817841,-14.537072,-14.797202,-6.939709,-1.491803,13.076687,30.031955,38.023039,43.167836,29.693773,45.746743,53.511956,57.277373,41.908708,58.349595,64.159728,65.477358,50.023713,66.565956,70.677558,70.171909,-29.247454,298.58286,-73.641581,286.362787
36,10.46315,-1.43729,0.980095,-5.099695,12.439819,18.851269,21.333069,19.22414,1.955692,20.327053,35.143135,42.825931,-7.118603,15.366337,32.631603,44.384514,-15.908352,4.841389,22.308655,33.959587,-22.697445,-15.981491,-8.351303,-1.190804,-10.039147,-12.56038,-12.043874,-12.076232,-1.583984,17.672079,24.694422,27.005839,11.768035,32.08644,37.284788,37.085643,21.426454,37.939922,42.156821,43.248284,28.951199,42.809745,45.523725,45.668271,26.115887,50.224377,71.756824,89.954063,51.392486,80.809433,96.98996,108.984192,42.163513,74.130787,92.533012,105.381729,31.754871,60.605736,76.820389,87.779606,21.381946,43.156666,55.413208,64.909698,-14.135657,-13.470901,-5.095162,0.277297,13.141229,30.750112,39.70328,45.796156,29.341153,47.210673,56.281623,61.198598,41.434897,59.980164,67.280075,69.850918,49.545937,67.343098,72.057112,71.654104,-18.795296,297.23178,-72.672478,281.349302
37,8.490921,-1.176135,-0.440815,-13.13924,4.560757,4.949673,3.415855,0.478008,-7.64986,2.490726,13.675587,19.870903,-12.376213,2.138363,15.265022,24.330288,-16.624752,-2.13937,10.987633,19.558754,-19.562325,-14.608326,-8.153412,-2.317566,-6.602157,-7.545036,-5.669775,-4.256975,-0.827197,15.694892,23.55488,27.368918,10.196783,28.101834,35.578043,37.936291,18.701087,33.951253,40.411099,43.385839,25.363537,38.267002,42.462275,44.032909,27.250534,51.060757,70.788093,87.071892,58.905991,85.409534,96.291515,103.098553,49.458767,78.196197,90.053615,96.750755,38.014675,63.156029,73.431255,78.950054,25.533485,44.758793,53.058609,58.487606,-11.257458,-9.061663,-0.998739,4.483982,17.727728,39.363022,50.435575,57.504627,31.373495,54.50846,65.683679,71.796661,41.66656,64.332913,73.718704,77.541919,48.452053,68.399647,74.605539,75.64607,-10.270294,296.137337,-73.079212,268.291754
38,27.003822,-16.984093,-7.13831,-24.0969,-8.161915,-16.590694,-23.44828,-28.550319,-28.859195,-30.736461,-24.532551,-20.516739,-28.924793,-26.578102,-19.04005,-13.256229,-27.876079,-24.734905,-17.25531,-11.909889,-25.777176,-28.139007,-25.803978,-23.086979,-3.234758,0.57129,7.319894,12.646657,5.05563,23.676244,33.8558,39.290268,15.090874,35.671533,45.78551,50.046844,22.986307,41.101778,49.690161,53.90622,29.04149,43.777473,49.860802,53.002305,29.430954,54.960778,74.487385,87.772362,62.926037,90.146096,95.450375,97.353241,52.655182,81.633236,88.283696,90.383767,40.552849,66.399056,72.516758,74.058209,27.725041,48.67202,54.685914,57.042813,-11.951694,-10.294461,-1.688059,6.131099,12.297014,36.908814,47.054938,52.201266,25.941829,52.642238,62.695218,67.245618,37.352157,62.45554,71.192482,74.203358,46.007453,66.313088,71.784915,72.400246,16.777067,279.315722,-80.173983,244.357332
39,29.41198,-22.440248,-9.439739,-32.514902,-19.232712,-37.120411,-50.263046,-58.79884,-48.840717,-62.093617,-60.604603,-58.313999,-44.188328,-53.596253,-51.120197,-47.959087,-37.667004,-45.112507,-42.750115,-40.169952,-30.581383,-39.163685,-39.639645,-39.005505,-1.47313,5.515337,15.992863,24.892752,6.638293,26.511539,38.869044,45.825969,15.481359,39.038314,51.602535,57.23311,23.098878,44.361138,54.84395,59.662001,29.092274,45.810309,53.419256,57.239619,30.210411,55.742844,74.333439,85.137921,65.109856,89.006493,89.497914,87.316006,54.911213,79.807205,81.132294,78.948292,42.372986,64.709667,66.083359,63.702015,28.729271,46.796734,50.142529,49.986569,-5.939673,-3.117408,4.171648,11.470596,6.809193,26.436389,36.312101,41.695175,13.702429,35.37573,45.198739,50.397877,20.179565,40.046735,48.415262,52.191183,25.604061,39.333253,42.660791,42.785891,46.163962,257.176087,-89.638807,212.143043
40,23.614288,-29.871539,-15.952469,-43.282729,-27.334144,-51.245739,-67.447128,-75.458439,-59.193912,-80.673134,-83.483402,-82.274929,-50.209316,-68.405124,-70.885883,-70.233593,-39.556549,-54.683246,-57.35511,-57.257629,-28.599987,-40.545124,-43.496303,-44.4337,-3.840209,2.736667,13.316056,22.870018,4.32217,23.207286,35.627987,42.784328,13.088036,37.280465,50.415654,56.195246,21.005625,43.343688,54.353169,58.482147,27.112284,44.608263,52.750919,56.118317,24.954506,47.621006,63.549832,71.697739,59.241234,78.962746,76.304913,71.215885,52.688153,73.076123,70.290676,64.671925,43.37788,62.356453,59.458145,53.507893,32.496666,48.621987,48.714844,45.083565,-10.051917,-12.4485,-10.142178,-5.807478,-6.312991,4.792654,11.904801,16.455577,0.146917,13.533289,20.862711,26.035209,7.255316,19.8766,26.194618,30.125723,13.975885,22.324522,23.971733,24.222569,69.710438,227.728835,-105.659088,169.284601
41,21.299149,-42.651368,-20.440326,-48.203446,-27.637985,-52.155213,-69.271248,-76.57917,-57.422882,-80.732277,-86.07494,-86.915634,-48.597405,-71.258801,-77.900849,-79.950016,-38.468651,-58.467671,-65.12693,-67.622544,-28.134522,-43.590615,-50.195,-53.900368,-15.348522,-15.086886,-8.239568,-1.362375,-8.589235,9.298346,21.765334,29.47851,5.457816,30.36311,43.760109,50.423423,18.767253,42.547324,54.057478,58.796402,30.024402,48.957357,57.796125,61.725391,23.440143,43.125675,55.006954,58.449829,50.156101,62.959133,56.880294,49.380775,42.767189,59.292377,56.270771,49.526779,33.919384,50.528549,48.081951,41.749282,24.113525,38.797405,39.974098,36.870998,-12.118222,-20.943578,-24.348718,-23.147389,-25.148664,-25.637702,-24.730243,-24.490225,-20.025547,-13.596644,-5.729543,-0.152739,-12.709068,-6.325168,0.272406,4.691185,-4.827202,-2.580037,-0.65892,1.173678,90.850765,185.979267,-126.258236,121.982955
42,25.661201,-50.247342,-24.662201,-49.534254,-30.388847,-54.829742,-70.549186,-77.261947,-60.01062,-82.460792,-88.616501,-89.68127,-50.907234,-75.553859,-82.500904,-83.624107,-40.688667,-63.82695,-70.422958,-71.537086,-30.283859,-49.054023,-56.268791,-59.378906,-16.846321,-20.290747,-16.983611,-12.869218,-20.093121,-7.635963,2.065249,8.535161,-7.959442,15.748362,30.012325,37.978511,4.722956,28.345033,40.976709,47.171714,16.482309,35.385345,45.414742,50.690494,20.872547,36.8153,44.594696,43.945781,31.648956,39.078712,33.620418,27.31842,23.257965,36.891094,39.382278,38.123542,15.338184,30.68565,33.612053,32.241634,8.067318,21.251507,26.233223,26.880214,-18.091956,-34.149416,-42.800982,-45.546078,-48.769882,-63.077928,-70.028916,-75.31757,-42.574624,-47.681753,-41.373659,-35.558165,-33.50657,-36.737425,-31.486047,-26.552924,-23.036744,-28.59086,-27.906369,-25.827918,115.848255,137.044915,-151.584148,73.761691
43,6.976685,-42.421279,-23.337765,-46.175506,-27.676918,-49.226486,-61.676651,-65.79261,-49.713776,-65.498634,-69.686142,-69.794872,-39.979958,-60.340141,-66.911133,-67.55484,-30.023735,-49.340035,-55.64106,-56.543175,-19.982804,-36.100411,-42.933472,-45.60949,-18.47463,-29.340591,-33.357715,-35.405297,-37.521804,-37.210094,-34.733557,-33.551129,-28.001873,-14.189244,-0.089563,9.320169,-16.76323,-1.440761,11.814527,20.031556,-5.284273,6.770784,17.272628,24.086298,16.776134,25.832382,27.20248,23.361671,15.272621,13.431885,8.51104,2.923691,6.964073,13.573437,20.316502,23.475975,-0.354504,8.733742,15.360752,17.885502,-6.988026,0.459984,7.867355,11.67041,-21.634523,-42.737238,-57.180061,-65.957267,-63.497656,-90.058666,-100.961205,-107.988812,-58.768331,-74.825053,-66.970144,-57.719018,-51.014523,-63.040638,-56.176728,-48.081662,-41.292594,-53.537379,-52.267859,-47.938457,121.843752,96.443368,-175.903101,29.405917
44,5.235145,-44.33742,-22.991547,-39.992914,-25.687545,-43.696197,-52.193847,-53.18621,-39.39315,-48.597862,-50.974433,-50.625274,-29.149704,-45.78321,-52.932769,-53.894622,-19.32415,-36.022476,-42.78392,-43.688987,-9.144218,-23.648094,-30.883827,-33.278801,-19.37513,-37.100827,-48.43183,-56.85135,-51.564212,-62.839559,-67.706952,-72.00831,-44.565791,-41.498734,-27.730652,-16.53216,-35.232759,-29.227859,-15.156626,-4.386909,-24.852095,-20.243316,-9.285014,-0.444732,12.647873,15.973687,11.728455,3.788121,-0.746463,-8.792312,-14.375381,-20.506508,-9.498012,-7.426597,4.009621,11.152176,-16.533325,-11.365665,-0.116764,6.323696,-22.419181,-18.300934,-8.255321,-1.48946,-33.839349,-61.923366,-80.971015,-93.644803,-78.101526,-107.900885,-123.743235,-134.688338,-68.192663,-87.761316,-80.032894,-69.753028,-55.857397,-70.266087,-62.86543,-53.152723,-41.883483,-54.858896,-52.233374,-45.211305,126.225992,54.020476,-199.747553,-8.672469
45,4.980355,-42.512577,-16.226177,-30.851661,-24.520043,-38.993637,-43.16169,-41.858414,-29.045792,-32.803253,-34.569306,-34.886765,-18.027832,-31.681755,-40.646874,-43.164917,-8.074585,-22.733803,-31.384255,-33.319405,2.02288,-11.493988,-20.165428,-23.273117,-18.367092,-40.473894,-57.279497,-70.933254,-63.702262,-84.984746,-95.4298,-103.669262,-59.236794,-66.246741,-52.050015,-38.648996,-51.546576,-54.37468,-38.957989,-25.217782,-41.621081,-44.257113,-32.747102,-21.698045,13.665527,13.38723,4.737213,-7.327492,-11.256603,-25.392963,-33.750687,-41.979057,-23.29842,-25.141205,-9.336513,1.678345,-32.693436,-31.309627,-15.345486,-5.082825,-40.295483,-40.222813,-26.72168,-15.977268,-36.205927,-64.675739,-84.269138,-97.975791,-83.749144,-113.34729,-132.007764,-146.577289,-74.686345,-94.975579,-86.217713,-75.073576,-63.175349,-78.310816,-69.695677,-58.860489,-49.300683,-64.194258,-61.218046,-53.070743,130.366951,13.677337,-216.813126,-37.354692
46,7.066772,-33.697712,-9.863113,-24.641409,-26.256866,-38.705635,-39.261612,-35.311088,-23.940422,-23.777206,-26.264465,-27.178734,-11.639374,-22.508056,-33.666755,-37.278305,-0.812164,-13.103302,-24.202904,-27.498047,10.158074,-1.381462,-11.31871,-15.52137,-17.942781,-41.403337,-59.532501,-73.884242,-70.136236,-97.450493,-111.589414,-122.372252,-68.300029,-83.698806,-69.518485,-54.442887,-63.000167,-74.446306,-59.051722,-43.198082,-55.076165,-64.972861,-54.40027,-41.796928,11.19564,7.254032,-3.539589,-16.263897,-18.219807,-32.841282,-41.867054,-51.077122,-28.994671,-31.795899,-14.186119,-0.598378,-37.614624,-36.576233,-18.525387,-5.773773,-44.519783,-44.704113,-29.736889,-16.718674,-39.592129,-67.577863,-87.114116,-101.810035,-83.795658,-111.412817,-129.809339,-144.817045,-74.422069,-97.342312,-91.166789,-80.036917,-63.124007,-81.132656,-73.989745,-62.895249,-49.415993,-66.195676,-64.496011,-56.724256,136.701084,-17.99248,-227.408878,-59.968206
47,7.396889,-33.979542,1.902008,-14.199946,-24.207802,-36.025955,-35.522209,-29.952278,-20.276733,-17.635231,-17.959076,-17.300011,-7.985939,-15.533409,-27.06443,-31.216347,3.04882,-5.91005,-17.786385,-21.814087,14.917877,5.923622,-4.706452,-9.776894,-18.730425,-42.745382,-61.24998,-76.053623,-70.148316,-99.755305,-116.374721,-130.248356,-67.935608,-90.045219,-77.01445,-62.208841,-63.219003,-82.111221,-67.733406,-51.837905,-56.132844,-72.396581,-63.427145,-50.793647,11.591194,7.419834,-3.887799,-16.851288,-16.467453,-31.934201,-41.364819,-50.860977,-26.903366,-30.373409,-13.777497,-1.469685,-35.686981,-35.126438,-18.015507,-6.492897,-43.000866,-43.096035,-28.790314,-16.905339,-39.03438,-66.723645,-86.241656,-100.299542,-83.402502,-110.634705,-128.385006,-142.776699,-74.73699,-98.84888,-92.020643,-80.794977,-64.306023,-83.362639,-75.22584,-63.981343,-51.492214,-69.069259,-66.597881,-58.355606,143.533396,-50.070158,-226.071447,-72.266288
48,11.600876,-27.887326,12.533661,-3.120878,-23.277558,-34.699837,-33.678543,-26.917557,-18.613243,-15.343117,-15.978333,-15.375298,-6.746155,-11.914627,-22.762505,-26.71328,4.459305,-1.93673,-13.611031,-17.781624,16.974838,9.907814,-0.943199,-6.922852,-20.673543,-44.741409,-63.834611,-77.984746,-69.312524,-98.201992,-111.715606,-121.473412,-67.518255,-92.190364,-80.940436,-66.428854,-63.249461,-85.317814,-72.696428,-56.966338,-56.669134,-75.774557,-69.291366,-56.944751,13.849754,12.511184,3.716606,-7.209103,-9.71172,-21.917656,-27.820187,-34.825116,-20.102246,-21.541924,-5.881646,4.556865,-29.288155,-27.047356,-10.97271,-1.135495,-37.373555,-35.963574,-22.169976,-11.387112,-36.089386,-62.920147,-82.527104,-97.142287,-80.742131,-107.060799,-119.373473,-128.69868,-73.438928,-97.144241,-89.412679,-78.06722,-64.35301,-83.168993,-74.547533,-62.986488,-52.931394,-70.107104,-66.850391,-58.031107,154.843146,-76.422332,-213.828912,-73.852014
49,12.504844,-20.486613,14.52951,0.306949,-22.374641,-32.636444,-30.733062,-22.593246,-15.149391,-10.025207,-9.276466,-7.055213,-3.767234,-5.935134,-17.010177,-21.552246,7.263451,4.214608,-8.340499,-13.415702,19.760445,15.090294,3.683052,-3.216339,-22.15643,-46.630283,-66.032219,-79.66253,-69.774587,-97.826086,-111.948946,-122.055523,-67.31848,-93.577232,-84.013516,-69.829292,-62.497632,-86.743493,-75.431895,-59.926301,-55.269379,-76.326494,-71.624756,-59.709242,18.432839,21.992455,16.886261,9.512238,3.079079,-2.364647,-4.454853,-8.236519,-8.084152,-4.017185,9.018231,16.587799,-18.128586,-10.995712,2.042153,8.803368,-27.35004,-21.510212,-8.906685,-0.506023,-29.826289,-54.265144,-73.552327,-88.503846,-76.17968,-102.08558,-113.346568,-122.185049,-71.426868,-92.136051,-81.628045,-69.026259,-64.239358,-79.842674,-68.260258,-56.020394,-54.614858,-68.838427,-62.678882,-53.234156,167.092723,-95.680183,-199.554669,-72.316303
50,9.784813,-12.009961,12.423535,3.350207,-21.214828,-30.559867,-27.825622,-18.528671,-12.334259,-5.627266,-3.479644,-0.150879,-1.064552,-1.446281,-12.552795,-17.8507,9.993508,8.93763,-3.979614,-10.195884,22.475922,19.713021,8.032494,0.046852,-22.47513,-47.015791,-66.397572,-79.327858,-68.5914,-96.37493,-111.018654,-121.308,-65.875447,-92.780571,-84.164406,-70.210814,-60.66127,-85.557678,-75.122368,-59.85699,-53.005911,-75.104889,-71.419026,-59.481251,23.063209,31.940391,30.922588,26.28622,17.879859,19.465896,21.301448,20.684188,5.476089,14.49393,23.529453,27.228252,-6.254002,4.942829,14.38227,17.693,-17.645909,-7.603856,3.183277,8.593975,-23.193035,-45.674751,-64.526846,-79.226408,-72.037111,-98.50644,-108.531221,-116.205615,-69.984598,-89.246987,-75.997862,-62.977303,-64.856007,-78.944842,-65.023045,-52.582196,-57.252392,-70.017801,-61.387378,-51.458054,176.711591,-106.87414,-187.297079,-68.150092
51,3.240006,-7.896383,6.587299,5.252107,-19.048096,-27.706101,-24.925118,-15.257721,-9.447647,-1.640419,1.369766,5.066368,2.222168,1.314651,-9.625214,-15.243485,13.204445,12.047264,-0.934479,-7.586014,25.161712,22.656326,10.827347,2.810806,-21.072692,-44.500842,-62.865609,-74.377034,-67.076277,-95.804214,-112.138612,-124.013425,-63.387033,-88.575032,-78.636028,-64.851694,-57.055164,-80.361696,-69.088825,-54.366554,-48.294497,-68.984189,-64.746128,-53.622625,25.069839,37.785416,39.077042,35.983704,31.029694,35.8866,38.565079,38.88604,18.172165,27.552967,31.473198,31.2033,5.008633,15.906406,20.899006,20.920521,-8.510204,1.573597,9.222656,11.881519,-19.53696,-42.053766,-61.454751,-75.787302,-69.243006,-95.454623,-102.181679,-105.885941,-69.037195,-89.301917,-77.204993,-65.88504,-65.683039,-81.282762,-68.63826,-56.994627,-59.919395,-73.202912,-65.319567,-55.818445,179.653364,-114.532148,-181.008013,-62.65961
52,-2.992882,5.018971,-5.875214,1.382987,-19.10321,-28.104584,-25.944683,-16.678997,-10.579616,-3.323742,-0.752941,2.577404,1.443627,-0.844242,-11.140228,-16.033585,12.55045,10.083355,-2.448452,-8.468387,24.264542,20.759766,9.193806,1.790016,-21.010898,-44.143799,-62.506142,-73.88126,-67.62179,-96.555682,-112.705556,-124.327441,-63.893781,-87.624172,-76.559665,-62.590044,-57.358503,-78.99067,-66.560504,-51.658398,-48.414362,-67.577843,-62.165617,-50.884723,24.634117,37.246388,39.184719,36.608734,30.101589,35.892529,38.891453,39.376499,17.150929,27.936024,32.033478,31.739422,4.129006,16.453972,21.39196,21.190018,-9.147537,2.316296,10.152397,12.650643,-20.580609,-43.491692,-63.258558,-78.209907,-70.145146,-96.946825,-103.741124,-107.445214,-69.680773,-90.2098,-77.827308,-66.189072,-65.863656,-81.27181,-68.361399,-56.573887,-59.588264,-72.719959,-64.663738,-55.159275,176.424477,-109.726373,-187.119232,-61.489819
53,-10.610916,11.97351,-12.462352,-2.219464,-19.988548,-30.216637,-29.222179,-21.256817,-13.484402,-8.03928,-5.82114,-2.789005,-1.01223,-6.536762,-16.881912,-21.0103,10.016155,3.993198,-7.933308,-12.641315,21.350807,15.190567,4.327915,-1.330536,-19.033026,-42.227591,-60.907838,-73.05641,-67.679916,-97.777865,-116.445621,-131.380774,-64.303365,-87.219757,-74.335851,-59.680047,-58.216028,-78.231794,-63.61212,-48.188939,-49.671928,-67.268837,-59.082524,-46.990424,21.074203,30.414104,29.687633,24.434932,21.18465,21.763263,20.251167,17.749717,8.891201,14.924663,19.911289,21.498275,-3.198681,5.007614,11.111835,12.323272,-15.642266,-7.368004,0.81895,4.180732,-23.716184,-47.467023,-66.87414,-80.824994,-72.108034,-99.287367,-111.693509,-120.813011,-69.891361,-91.508775,-79.518457,-68.258427,-64.211802,-80.702787,-68.109003,-57.056035,-55.761443,-70.188075,-62.708331,-53.844133,165.372013,-98.182211,-200.023132,-64.138631
54,-11.381722,13.912646,-14.441277,-3.310088,-21.821228,-34.214332,-35.294025,-29.023464,-20.162738,-18.388813,-18.638133,-17.63618,-7.433349,-16.119541,-25.669075,-28.445892,3.740376,-5.109912,-15.466838,-18.662075,15.241196,7.234383,-2.514942,-6.905113,-17.291326,-39.529651,-58.119255,-70.596367,-66.49722,-96.640911,-113.983806,-127.989557,-64.326479,-86.625885,-72.544821,-57.824074,-59.497745,-78.443997,-62.735508,-47.050848,-52.225304,-68.904974,-59.299185,-46.422845,17.222843,21.947811,17.702934,9.097504,7.960705,1.266312,-4.073433,-9.666035,-3.643398,-2.514484,5.286816,9.757793,-14.322647,-10.088997,-0.811775,3.256325,-24.762005,-19.715172,-10.031525,-4.804001,-26.912058,-52.665237,-71.907308,-84.101245,-75.14658,-103.621344,-116.802519,-126.534625,-69.941638,-93.623223,-83.80857,-74.033013,-61.951638,-80.518816,-70.386303,-60.540486,-51.403457,-67.653584,-62.38842,-54.738643,153.138805,-84.586702,-215.315895,-67.765856
55,-8.14682,10.98693,-9.870197,-2.33004,-23.521728,-38.032814,-40.669063,-35.039279,-26.234653,-26.722881,-28.715023,-29.117557,-13.388305,-23.489788,-31.823547,-33.326225,-1.893825,-12.096027,-21.091289,-22.924198,10.339806,0.802712,-8.401371,-12.023368,-16.690871,-38.152407,-56.994064,-70.070961,-66.873021,-96.788007,-112.842689,-125.625912,-65.715307,-87.573991,-72.978192,-58.025439,-61.846579,-80.263538,-63.986591,-48.000209,-55.60509,-71.473189,-61.362708,-48.288872,14.77724,16.271782,9.353187,-0.801934,-2.191864,-13.997052,-21.87061,-29.235867,-13.420143,-16.372856,-5.673249,1.818042,-23.199669,-22.067665,-9.952298,-2.998078,-32.262726,-30.067921,-18.785237,-11.144451,-29.186228,-56.394648,-75.805958,-87.994072,-77.732487,-106.651539,-121.559784,-133.083618,-70.166466,-95.024332,-87.244416,-77.82016,-60.175499,-79.696842,-71.007142,-61.142282,-47.786915,-65.214191,-61.671887,-54.143061,144.069202,-74.236336,-226.108875,-70.73246
56,-2.284286,7.516402,-4.606854,-0.869391,-24.725899,-39.888588,-41.971378,-36.201107,-29.667652,-30.828427,-32.194759,-31.992153,-16.896904,-25.994145,-33.226914,-34.298218,-5.053768,-14.678547,-22.656658,-24.037891,7.998596,-1.968704,-10.697628,-14.260002,-17.320546,-39.546345,-59.384499,-73.711333,-66.969348,-96.62087,-110.706078,-121.683546,-66.449881,-89.968993,-77.171196,-62.200539,-63.293011,-83.168039,-67.796974,-51.623824,-57.759997,-74.728819,-65.084692,-51.752847,14.89373,15.156143,7.885952,-2.989975,-8.543598,-20.834369,-27.99242,-35.275326,-20.143318,-21.658241,-7.203678,2.143067,-29.302746,-26.28138,-11.417072,-3.304951,-37.333031,-33.558838,-19.772495,-10.939453,-30.40983,-57.361733,-76.876783,-89.290885,-79.633998,-109.37533,-127.613491,-142.838916,-71.061225,-93.60271,-82.724927,-70.739012,-59.666193,-76.361819,-64.706765,-53.479802,-45.592292,-61.439603,-55.670904,-46.965399,141.034676,-67.621876,-231.465969,-72.503793
57,4.929726,0.597241,4.251263,2.660962,-24.717408,-39.644509,-40.958657,-34.462853,-29.292069,-29.347321,-29.542786,-28.175354,-16.755066,-24.003731,-30.934914,-32.143868,-4.719361,-12.712533,-20.71605,-22.245209,8.929206,-0.61924,-9.375046,-13.028115,-18.209017,-40.906826,-61.140788,-75.89419,-67.595577,-97.234712,-111.275015,-122.182265,-66.769668,-91.506321,-79.816011,-64.911376,-63.320012,-84.230054,-69.451902,-53.446347,-57.51066,-75.346544,-66.138276,-53.093844,15.526188,17.448864,11.999691,2.878235,-5.914272,-13.850315,-17.927422,-22.883103,-16.870789,-16.550079,-1.502998,7.569282,-25.52591,-21.129353,-6.030602,1.784946,-33.354321,-28.922299,-14.936005,-5.893273,-28.697245,-53.912769,-73.054165,-85.695518,-76.367149,-104.68108,-121.396528,-134.946529,-68.852892,-90.114615,-79.503384,-67.133329,-58.127164,-73.458254,-61.346775,-49.291143,-44.668587,-59.515239,-53.399324,-44.145216,145.698155,-67.887078,-227.480953,-70.705274
58,9.475273,-5.575513,9.196094,4.865105,-23.25087,-36.359162,-36.350418,-29.21576,-24.43293,-22.637741,-21.422745,-18.677994,-12.33696,-17.45588,-25.44088,-27.726792,-0.532608,-6.623909,-15.868492,-18.160767,12.749748,4.587753,-4.886902,-8.901535,-18.872013,-42.131627,-62.216442,-76.745768,-68.595414,-97.983494,-113.298199,-125.602968,-66.700229,-92.216367,-80.532223,-65.713269,-62.128176,-83.592122,-68.886385,-53.29251,-55.0661,-73.3656,-64.739305,-52.267593,18.485756,23.485051,21.030156,16.216416,2.378758,1.99973,2.778683,1.142315,-8.895687,-1.793037,12.601742,19.076958,-17.861332,-7.77063,5.819287,11.234093,-25.973911,-17.243339,-4.263359,2.773007,-25.299731,-48.485915,-68.063673,-81.739987,-72.376748,-100.00114,-115.73596,-127.97165,-67.174072,-86.024549,-74.654081,-61.044942,-58.384719,-71.403104,-57.823407,-44.615692,-47.071765,-60.017961,-52.377719,-42.260525,155.436093,-74.757547,-218.022194,-67.135125
59,8.513237,-6.63804,14.80037,7.007881,-21.733956,-33.182991,-31.959595,-24.036507,-19.402016,-15.73098,-12.996895,-9.072579,-7.391671,-11.01027,-19.710068,-22.833458,4.373542,-0.747712,-10.891823,-13.949616,17.360664,10.001449,-0.118927,-4.612633,-19.333769,-43.341539,-63.46502,-77.998995,-68.745822,-98.801363,-115.507563,-128.967421,-66.11578,-92.251725,-80.456408,-65.48566,-60.527244,-82.363221,-67.679618,-52.485377,-52.420063,-71.090807,-62.855275,-50.943994,21.1371,29.401508,29.645073,27.611938,10.975719,16.242267,20.181415,21.197078,-0.776974,10.9445,23.792312,28.174781,-10.852478,3.280094,14.626876,17.680549,-20.609024,-8.395993,3.615326,9.03606,-22.24705,-44.017472,-63.738164,-78.879902,-69.191457,-95.860095,-111.589259,-123.641103,-66.162383,-83.893255,-71.043902,-55.854156,-59.132195,-70.787276,-55.016264,-40.476074,-49.657773,-61.508474,-52.025093,-40.827477,164.673849,-82.768675,-202.497305,-61.500332
60,5.477348,-4.513924,13.65715,6.334715,-20.824104,-30.65332,-29.028442,-21.961121,-15.466713,-11.285889,-8.035881,-3.491043,-3.347855,-7.231613,-16.932243,-20.419968,8.346428,2.632828,-8.195938,-11.493141,20.565308,12.857185,2.639694,-1.503387,-19.243873,-44.129327,-64.109611,-78.878587,-69.257175,-100.228449,-118.49021,-133.675995,-65.836819,-92.011473,-79.536686,-64.421874,-59.512302,-81.370114,-66.092803,-51.000712,-50.740122,-69.325705,-60.603846,-48.994583,22.359203,32.900722,34.789307,33.578339,15.951347,24.299686,30.020153,32.77597,3.960262,19.162949,30.734161,33.243153,-6.789162,10.365314,20.061653,21.130154,-17.528916,-2.583527,8.652122,12.390598,-19.928124,-41.746236,-61.87553,-77.452467,-67.125032,-93.673312,-109.229726,-121.206672,-65.423416,-82.234336,-67.028028,-50.504173,-59.565077,-70.392691,-52.467429,-37.004465,-51.30394,-62.128349,-50.773047,-38.863931,170.980259,-88.372892,-188.011093,-56.25591
61,1.125481,-2.079902,10.952934,5.219923,-20.266869,-29.795655,-28.50087,-22.161599,-12.204529,-8.063393,-5.590897,-1.98713,-0.231903,-4.764862,-15.519768,-19.514626,11.338714,4.656601,-6.765885,-10.223603,23.359405,15.416725,4.96257,1.181991,-18.17992,-43.522104,-63.565142,-78.359568,-68.457986,-99.299287,-119.969988,-137.693412,-64.943235,-91.250733,-78.193061,-62.910214,-58.474979,-80.230803,-64.399023,-49.169682,-49.553977,-68.560825,-59.661717,-47.777643,22.539082,34.375992,37.196469,36.989628,17.97789,26.890423,33.323216,37.263073,6.033554,21.422264,31.988365,33.781609,-5.153034,11.887356,20.775181,21.34433,-16.511925,-1.351204,9.025555,11.970818,-17.247149,-39.574443,-59.536166,-75.581532,-64.641677,-90.706965,-106.785904,-119.783579,-63.452198,-81.101185,-65.468559,-48.928902,-58.521446,-69.821697,-51.514009,-35.678567,-51.316908,-62.603852,-50.818181,-38.203658,172.937336,-91.0763,-176.226563,-51.659493
62,-2.614586,0.591063,8.333416,4.365081,-19.836228,-29.07312,-27.975495,-22.405152,-10.536324,-7.27565,-5.7789,-3.215241,1.256584,-4.071739,-15.267288,-19.554016,12.768997,5.085045,-6.554787,-10.25869,24.571861,16.19284,5.482795,1.605629,-17.229668,-42.969858,-62.934263,-77.657729,-66.921247,-96.759759,-117.806671,-135.994035,-63.793273,-89.932559,-77.070205,-61.958351,-57.642222,-79.201823,-63.530396,-48.256252,-48.970911,-67.986046,-59.348642,-47.086693,22.269367,34.353447,37.012962,36.074387,17.871529,25.063019,30.261864,33.841713,5.518147,20.179871,29.815293,31.650913,-6.502464,9.743271,17.994988,18.716744,-18.838234,-3.676346,6.207539,8.724404,-15.603977,-39.088857,-58.939947,-75.263693,-64.063909,-90.627899,-108.672049,-124.062388,-62.600054,-80.930213,-64.740188,-48.000139,-57.842216,-70.095319,-51.788792,-35.972356,-50.975706,-62.8161,-50.90502,-38.159087,170.999399,-91.17884,-167.216498,-47.988015
63,-3.454331,2.059703,4.627384,2.5821,-19.774521,-29.415893,-29.107635,-24.09288,-10.953506,-8.25119,-7.197624,-5.373069,0.880555,-4.885551,-15.968216,-20.518844,12.627755,4.18998,-7.099823,-11.152015,24.711891,15.915322,5.277581,0.976593,-16.546634,-41.879679,-61.428451,-76.539419,-64.688147,-94.505143,-115.590908,-133.750481,-62.015565,-88.058844,-76.005278,-61.073427,-56.222854,-77.913227,-62.857714,-47.542568,-48.063961,-66.997804,-58.779028,-46.470757,21.434086,33.599545,35.872547,32.755612,16.771008,21.001328,24.171433,26.705143,3.885052,16.461056,25.290619,27.724343,-8.94247,5.909661,13.895291,15.364037,-22.004757,-7.541176,2.319283,5.215313,-14.702576,-39.879065,-59.773071,-76.269342,-64.136003,-91.908535,-111.479007,-128.691706,-62.001773,-81.533021,-65.083286,-48.70465,-56.910384,-69.922974,-51.619405,-35.977649,-49.841228,-61.985947,-49.899557,-37.009961,167.998066,-89.470178,-162.136116,-45.756956
64,-2.994529,4.718059,1.009999,1.333173,-19.915146,-30.113297,-29.975876,-25.497895,-11.86512,-9.431191,-8.752945,-7.472237,0.097023,-6.067795,-16.886788,-21.34758,12.03067,3.296447,-7.770516,-11.799042,24.344696,15.217483,4.537124,0.125701,-15.920596,-41.192755,-60.561707,-75.907895,-64.423816,-93.868215,-114.8687,-133.011255,-62.00416,-87.84479,-75.706842,-60.48351,-56.419008,-77.681302,-62.382035,-46.804237,-48.361061,-66.940213,-58.394929,-45.767936,20.561245,32.667171,34.544998,30.256199,15.077087,17.995639,20.372932,22.335228,2.126381,13.495811,21.919098,24.580272,-10.613434,3.234878,11.566005,13.717094,-23.441037,-9.711892,0.011409,3.084755,-14.4941,-40.785061,-60.897923,-77.300864,-64.375552,-93.14594,-113.438965,-131.594404,-61.69107,-81.06181,-64.245703,-48.532712,-56.140776,-69.255829,-51.268774,-36.063284,-48.573307,-61.034009,-48.9224,-36.039992,165.336983,-85.235341,-160.792671,-44.907005
65,-2.839852,6.125357,-0.557225,2.135718,-19.65786,-30.44442,-30.191505,-25.690384,-11.994255,-9.555382,-8.880066,-8.033912,0.051796,-6.254333,-16.992256,-21.672432,12.148682,3.221695,-7.874473,-12.11737,24.750939,15.499054,4.569443,-0.171821,-15.123374,-40.134384,-59.447888,-74.844467,-63.60491,-92.716336,-113.874722,-132.122531,-61.507715,-87.201894,-75.13981,-59.569567,-56.057552,-76.816225,-61.437686,-45.739154,-47.939945,-66.060007,-57.46381,-44.627677,20.423024,32.294289,34.019337,29.555157,14.582566,17.458317,19.830014,21.523362,1.603043,13.016613,21.308442,23.932675,-10.974346,3.052815,11.402321,13.562382,-23.550441,-9.8558,-0.11055,2.969548,-14.560648,-40.941746,-61.06342,-77.054739,-64.444082,-93.958686,-114.579563,-132.870764,-61.609961,-80.394485,-63.565016,-48.150835,-55.903636,-68.362949,-50.661952,-35.823828,-48.1614,-60.274133,-48.199272,-35.543809,162.77976,-79.919779,-161.067267,-43.581082
66,-2.346611,8.479109,0.360569,3.298935,-19.514145,-30.601867,-30.527618,-26.655235,-12.580627,-10.191192,-9.348381,-8.58522,-0.316978,-7.105522,-18.022087,-22.790794,11.931061,2.378563,-8.702362,-12.858467,24.434052,14.546608,3.636749,-0.966911,-14.626622,-39.389328,-58.481811,-74.056907,-64.206133,-93.831291,-115.543493,-134.34017,-62.135416,-87.295828,-74.615369,-58.480088,-56.655283,-76.492875,-60.666837,-44.803128,-48.328101,-65.316964,-56.202344,-43.329677,20.488736,32.428196,33.992134,28.889065,14.737896,17.752957,20.025742,21.439053,1.487206,12.69286,20.644467,23.216813,-11.196476,3.082009,11.328564,13.476128,-23.771862,-9.977108,-0.325744,2.791466,-14.514792,-40.666196,-60.998582,-76.548959,-64.605306,-94.715375,-115.327496,-133.478955,-61.803375,-79.477899,-62.02819,-46.635998,-55.861287,-67.084461,-49.227854,-34.642895,-47.830813,-58.953982,-46.693704,-34.29117,160.695825,-72.537092,-160.444022,-41.378569
67,-2.835663,11.256205,1.016579,4.922564,-19.605468,-31.146034,-31.335937,-28.126785,-13.386177,-11.037529,-9.883438,-9.253852,-0.638282,-8.305664,-19.554359,-24.47882,11.736718,1.117241,-10.070137,-14.138054,24.023095,13.447953,2.587876,-1.772323,-14.186978,-38.705454,-57.592896,-73.534234,-65.431471,-96.109425,-118.701288,-138.57342,-63.204788,-87.854302,-74.289142,-57.512685,-57.555577,-76.550488,-60.153518,-43.990715,-48.960142,-64.628632,-54.857923,-42.005088,20.464359,32.723854,34.28112,28.637146,15.117497,18.236195,20.538769,21.850411,1.516628,12.381271,20.009205,22.754688,-11.289665,3.226502,11.384983,13.711441,-23.899349,-10.054401,-0.541248,2.753483,-14.170052,-39.899399,-60.539912,-75.661884,-64.577901,-95.457665,-116.005932,-133.899874,-61.763348,-78.240094,-60.353062,-45.076621,-55.684459,-65.30198,-47.255052,-32.723173,-47.547521,-57.455368,-44.92293,-32.730522,158.171768,-62.261767,-159.115837,-37.436885
68,-3.650528,14.816499,1.45158,6.682148,-20.199211,-32.294586,-32.20008,-28.82563,-14.840698,-12.75959,-11.812774,-11.503486,-1.626434,-10.313072,-21.678405,-26.43782,10.814438,-0.511482,-11.841659,-15.831573,22.915535,11.369522,0.626404,-3.328582,-14.238737,-38.843306,-57.558442,-73.097557,-66.725593,-97.546598,-119.963952,-139.800287,-64.351691,-88.039001,-73.690465,-56.616217,-58.673932,-76.719944,-59.920982,-43.588825,-50.108891,-64.40597,-53.767232,-40.788784,20.222569,32.540337,34.252739,28.41782,14.873428,18.321865,21.107369,22.799961,1.142498,12.602188,20.160599,22.772278,-11.448864,3.524666,11.59544,13.775448,-23.839611,-9.959988,-0.46352,2.958561,-13.744789,-38.781068,-59.325523,-73.649049,-64.539474,-96.087753,-116.362726,-133.872692,-61.726471,-76.745338,-58.304467,-43.321946,-55.383944,-63.724974,-45.827642,-31.742046,-46.954031,-55.878862,-43.39244,-31.661789,154.916977,-48.300802,-157.26852,-31.610271
69,-4.656601,17.819631,2.027218,8.145608,-21.369278,-33.799301,-33.659843,-29.929847,-16.427261,-14.90689,-14.636718,-15.013572,-2.722114,-12.593147,-24.219429,-29.087837,9.53048,-2.920051,-14.293212,-18.352821,21.040169,8.381424,-2.236267,-6.077796,-14.403413,-39.230685,-57.831095,-72.768402,-67.9375,-99.309226,-121.294157,-140.759499,-65.261213,-87.272024,-72.092624,-55.083714,-59.241264,-75.93592,-58.845438,-42.381345,-50.346945,-63.125112,-51.82951,-38.904204,19.893974,32.139484,34.049114,27.896988,14.327328,17.889576,21.207504,23.519165,0.465374,12.814167,20.204716,22.498936,-11.915657,3.64658,11.395569,13.281132,-24.012325,-9.864452,-0.62114,2.644741,-13.568622,-37.782625,-57.881909,-71.303762,-64.543883,-96.789028,-116.554375,-133.413571,-61.589237,-74.390585,-55.454,-40.668809,-54.688425,-61.053003,-43.22346,-29.449271,-45.731355,-53.236802,-40.742088,-29.332576,150.713155,-30.896303,-154.788523,-23.879795
70,-4.230491,20.995258,2.779507,9.445979,-23.246453,-36.583145,-37.464798,-34.101105,-19.520737,-19.191902,-20.011185,-21.362343,-5.488083,-17.499825,-29.268219,-34.106896,6.236641,-8.228806,-19.429939,-23.391152,16.677475,2.506302,-7.940964,-11.7472,-14.182705,-38.721331,-56.937894,-71.208359,-68.775812,-99.883055,-120.820088,-139.357228,-66.017292,-84.879498,-69.730344,-53.617716,-59.497134,-72.994248,-56.521326,-40.719346,-49.955738,-60.235798,-48.74254,-36.151217,19.471138,31.34563,33.437256,27.600746,12.911956,16.466869,20.34827,23.264969,-0.984959,12.170849,19.621959,21.714054,-12.91277,3.153476,10.82452,12.603023,-24.23362,-10.027611,-0.968502,2.259681,-13.340225,-36.726804,-55.912602,-67.803385,-64.094741,-96.810641,-115.752703,-131.632309,-60.692059,-70.699214,-51.402772,-36.964951,-52.924432,-56.784592,-39.082206,-25.729575,-43.268872,-49.224884,-36.960678,-26.107432,146.930672,-8.938455,-151.561008,-13.471226
71,-5.558098,21.934289,3.611766,9.852359,-25.18483,-39.309288,-41.565033,-39.304298,-22.500732,-24.124626,-28.0746,-31.534538,-8.934814,-24.540459,-35.800896,-39.360329,1.594459,-16.100189,-26.222557,-28.911095,10.471825,-6.058754,-15.456665,-18.044792,-13.673004,-37.457855,-53.8759,-66.070242,-68.110914,-98.250512,-115.681069,-129.956011,-64.671509,-77.924641,-62.519414,-48.17525,-56.470634,-64.891278,-49.251998,-35.546315,-45.215528,-51.453382,-40.216765,-29.305529,18.954529,30.237408,32.30357,26.633572,11.487648,14.686707,18.956658,22.520543,-2.488643,11.275177,18.918503,20.849087,-14.069938,1.863236,9.667294,11.600682,-24.637321,-11.009891,-2.116424,1.12008,-12.856195,-34.705837,-52.219996,-62.261138,-62.725785,-95.094986,-112.630942,-127.22874,-58.851045,-64.967306,-45.238883,-31.210678,-49.89153,-50.524261,-33.028517,-20.220994,-39.252292,-42.853051,-31.151471,-21.083091,141.922709,14.347232,-147.399107,-2.267469
72,-6.849083,22.137733,3.177544,18.535534,-25.169128,-41.0186,-46.294762,-46.761475,-25.041824,-31.671387,-39.011673,-44.05101,-12.962608,-33.330093,-44.211227,-46.630898,-4.090828,-25.696678,-34.85202,-36.160538,3.010643,-16.111473,-24.427139,-25.840759,-16.15894,-38.773429,-53.884984,-64.429083,-64.66337,-91.124799,-103.152217,-111.578693,-59.31208,-65.756439,-50.535407,-38.014183,-48.936547,-51.424514,-36.940924,-25.657907,-35.981446,-37.724098,-27.371642,-18.688521,19.696484,31.542984,34.161656,28.324219,11.261616,14.593918,19.159332,23.008255,-3.159828,12.684734,20.928509,22.730793,-14.540394,2.948307,11.122444,12.983139,-24.471851,-9.922085,-0.331249,3.368031,-13.051085,-35.052633,-51.855458,-60.567595,-64.329028,-96.198706,-113.440582,-127.776722,-60.422,-63.944342,-43.795423,-29.839478,-50.865166,-49.611806,-32.599623,-20.266324,-39.323428,-41.553463,-30.318569,-20.724907,135.535624,38.019099,-143.759565,17.802199
73,-7.950806,23.735284,4.140312,21.535568,-25.075035,-42.972999,-52.666969,-57.228378,-30.535194,-44.114708,-52.78997,-56.972442,-20.410766,-45.078712,-54.241859,-54.800262,-12.995613,-37.318016,-44.627357,-44.013404,-7.117263,-27.594337,-34.605217,-34.870124,-18.883363,-39.001252,-50.641346,-57.285011,-59.817643,-80.032523,-85.672114,-88.57941,-52.389494,-52.146883,-37.331255,-26.874891,-40.168563,-36.348923,-22.867623,-13.859868,-25.695668,-22.430195,-13.035895,-6.393551,20.68594,33.30122,36.209427,29.757351,11.719426,15.234936,19.937725,23.885742,-3.132396,14.058369,22.828411,24.517571,-14.513557,4.23642,12.872681,14.848847,-23.96418,-8.282581,2.058426,6.073815,-13.469865,-35.562538,-52.125536,-60.346881,-65.511025,-96.260902,-113.469402,-127.94515,-61.396027,-63.114473,-42.748816,-28.462364,-51.228753,-48.494105,-31.738928,-19.38238,-38.801853,-39.556845,-28.805894,-19.542406,128.090887,63.047992,-139.113184,40.631376
74,-8.247711,26.417759,2.461956,24.588619,-24.249138,-44.69323,-59.117271,-67.946869,-37.395561,-57.4319,-68.452377,-73.436245,-29.840515,-58.181351,-66.62471,-66.25692,-23.855324,-50.75647,-57.146118,-55.52845,-18.677856,-40.205086,-46.079521,-45.433639,-21.383069,-37.935841,-44.87857,-47.145551,-53.238649,-66.397711,-65.956449,-63.424127,-43.355267,-35.875384,-21.949172,-13.417173,-29.220746,-19.144919,-7.091943,-0.552673,-13.57815,-5.691641,2.600346,7.278638,23.113369,36.739163,40.80383,35.17677,14.79189,18.818619,24.098774,28.407589,-0.172989,19.67704,29.013611,30.281834,-10.894432,10.54216,18.816147,19.963166,-19.080551,-1.235309,8.888134,12.141289,-13.994434,-35.966657,-52.143197,-59.953475,-66.586563,-95.633357,-112.254537,-126.44401,-62.774259,-61.465243,-41.418194,-27.654243,-52.142684,-46.308654,-30.397511,-19.127339,-38.755775,-36.37292,-26.391626,-18.343263,120.244629,90.297103,-136.249775,66.051347
75,-8.022972,23.967125,2.139382,22.65764,-23.078476,-45.56266,-62.95301,-74.732941,-42.998497,-68.783592,-82.686047,-89.835937,-37.279106,-68.697464,-78.545322,-79.839523,-31.751541,-61.179336,-69.149345,-69.618942,-26.534866,-49.121223,-56.033752,-57.333641,-23.640182,-36.818041,-39.550361,-37.913295,-44.081229,-49.16908,-43.068492,-35.707886,-31.966904,-19.852825,-6.354753,1.610043,-16.567567,-3.463636,8.102111,14.04134,-0.572037,10.453301,18.876644,23.156133,22.380798,37.676285,44.907463,41.523685,17.829792,24.852733,31.389759,36.144825,4.601955,27.616024,35.47039,35.644363,-4.153851,19.543236,26.015018,26.051513,-10.301777,9.358108,17.801525,19.58012,-15.463162,-36.696214,-51.06664,-57.494574,-64.255645,-90.225151,-104.757277,-116.632912,-58.975985,-54.125737,-36.16219,-24.3497,-46.607383,-37.571353,-23.962507,-14.959155,-31.839846,-26.671621,-18.33216,-12.017415,112.585173,113.816121,-133.746877,88.26088
76,-7.490066,27.575042,3.635879,27.73873,-23.372109,-48.594544,-69.206887,-83.330006,-50.510354,-82.126111,-95.907876,-102.463292,-46.250382,-80.36253,-91.533154,-94.614052,-40.928009,-72.172635,-81.893361,-84.193509,-35.235695,-59.064423,-67.314137,-70.285492,-25.103253,-34.146941,-33.012017,-28.080259,-34.286089,-31.822754,-22.707634,-14.414183,-19.623552,-5.410744,6.338877,13.151479,-3.549,10.695474,20.706438,25.741431,11.946012,23.872147,31.078173,34.423298,21.739987,39.322254,50.042954,50.617951,22.038792,32.609734,40.994889,46.089981,11.279686,37.208096,45.163342,45.345406,4.595032,30.698628,36.252194,35.543232,0.215195,21.612511,28.620106,29.404553,-17.648589,-38.210717,-50.333206,-54.782298,-61.807266,-85.027835,-96.444455,-104.639377,-54.781551,-49.444784,-33.231269,-22.390428,-41.551192,-32.331077,-20.405035,-12.736054,-26.134306,-20.177726,-12.984457,-8.199177,105.255175,140.749082,-129.95093,115.357529
77,-5.890275,26.278894,3.742356,22.733667,-25.948837,-52.125755,-73.486724,-87.381626,-58.566055,-91.615058,-105.309471,-112.45531,-54.670349,-88.880115,-101.876907,-107.878166,-48.919212,-80.001949,-92.083099,-97.791572,-42.19812,-65.666976,-75.585102,-81.671676,-23.691126,-29.32067,-24.319368,-15.795564,-24.7704,-17.260543,-6.791378,1.53364,-8.849698,6.128617,17.481307,24.182703,7.128375,21.666429,31.395898,36.492925,21.745519,34.070259,41.742377,45.660515,21.554214,41.160049,55.101219,59.964008,28.10329,43.937862,54.225322,59.293521,19.660652,48.789207,57.03527,56.734497,14.416236,42.854702,48.28125,47.066871,11.292011,34.481689,40.178192,39.740295,-19.585761,-37.34342,-45.965,-47.197872,-55.444664,-73.3499,-79.052556,-82.317992,-45.803578,-37.928585,-23.563395,-14.450492,-30.796573,-19.229387,-8.895956,-3.259483,-14.365573,-6.227764,-0.882333,1.531287,99.482986,166.158434,-126.090488,137.221654
78,-4.825355,23.847268,2.255813,19.652112,-28.539757,-55.454201,-76.086388,-88.572189,-63.991241,-95.341324,-110.690117,-121.03838,-60.274841,-93.819923,-109.707905,-119.570972,-54.185806,-85.04892,-100.334061,-110.074402,-46.844444,-70.103966,-82.020767,-91.361572,-21.368705,-24.173779,-17.382061,-7.937435,-15.359803,-5.743189,4.145231,11.916582,1.384099,16.414285,27.152805,33.950377,17.35751,31.824545,41.272074,46.575236,31.08927,43.107444,51.282038,56.032423,21.951737,44.342743,61.790932,71.057087,35.742634,57.159188,69.779469,76.561936,28.594231,60.556229,71.017937,73.244911,23.742279,54.044232,61.12349,62.006378,20.804558,44.990891,50.609963,50.931164,-20.478895,-34.313321,-37.856955,-35.276492,-46.174155,-56.449306,-55.600528,-53.403862,-34.537376,-22.853538,-9.249662,-0.831815,-18.530404,-4.342277,5.082472,9.425144,-1.661457,8.385965,13.090006,14.442433,94.68346,189.126445,-123.808846,155.994509
79,-4.188789,20.103958,9.951531,20.099981,-29.710556,-57.110779,-78.118939,-90.911911,-65.670914,-96.097928,-112.783482,-125.682576,-62.439194,-96.581932,-115.32835,-128.936554,-56.786728,-88.982598,-106.652596,-119.235295,-49.855477,-74.319535,-86.907109,-96.878643,-10.376094,-8.676179,-1.475377,7.249054,1.35331,11.752042,20.522058,27.327756,11.538621,22.290195,29.825869,34.636189,20.323259,29.277871,34.737411,37.611114,26.942273,34.106618,39.489352,42.628693,21.872703,45.541534,64.951996,76.781055,45.284568,69.638157,79.184612,82.165672,39.770084,70.768329,76.725059,75.259185,34.52203,62.545646,66.189468,64.294223,29.76107,52.126545,55.291546,53.546653,-19.17927,-28.760551,-28.654994,-23.800492,-32.122391,-31.064039,-24.149474,-18.181328,-18.555573,-0.469272,12.625125,19.487874,-1.864541,17.011362,27.125252,31.037807,14.96683,28.164931,33.957293,35.554257,90.722758,208.42506,-113.629228,175.289147
80,-5.049614,18.636127,7.429195,22.687361,-31.356949,-58.906289,-80.3485,-93.928059,-66.070679,-96.742974,-113.789223,-126.835362,-63.431717,-98.207726,-117.00705,-130.616181,-59.089875,-91.868191,-108.373787,-119.257908,-53.930603,-79.586426,-91.070492,-98.977707,-2.094537,2.82103,9.877398,17.24484,16.065209,23.738488,29.765316,34.122796,21.602393,27.750906,30.85342,31.652087,24.478382,28.547314,29.378326,28.342648,24.566561,27.74525,29.858176,30.398171,25.27121,51.482426,71.955929,85.681664,52.953209,79.92532,89.929047,92.98843,45.7267,77.154007,86.44685,87.66148,37.926945,66.970127,74.211777,74.984573,30.533318,53.953663,59.737587,60.48056,-17.664446,-23.77586,-21.78473,-17.046732,-22.591277,-13.293968,-2.756285,4.904983,-7.995159,12.126731,25.656617,32.769993,8.282336,28.038021,38.693154,42.996972,24.226514,38.467752,44.585884,46.238523,86.067782,226.45615,-105.805395,197.371471
81,-16.864426,14.6161,5.067307,19.057004,-27.98497,-52.473862,-72.468361,-85.268406,-57.669067,-83.757614,-99.551605,-111.462765,-55.399155,-85.861702,-102.309872,-113.101044,-51.974957,-80.333027,-94.460781,-103.122665,-48.2654,-70.387665,-79.527569,-85.576481,6.924135,15.622681,23.501935,30.76839,29.277056,34.529151,36.400126,37.888743,28.384577,30.881443,29.818039,28.101637,24.004052,24.295082,21.49927,18.724775,16.986785,16.433847,16.429549,16.150375,28.774555,56.745838,78.108226,92.432396,59.384056,88.056335,98.668476,102.871765,50.382087,82.416126,93.77742,97.293914,40.536712,70.329917,80.333793,83.791511,30.859932,55.301364,63.50822,66.832065,-15.708131,-19.150939,-16.487211,-13.486166,-12.824325,2.927538,15.289143,23.615235,2.031478,24.85075,38.519278,45.836121,17.815846,39.626067,50.532944,55.113355,32.841043,48.98044,55.655548,57.992307,69.665897,240.565168,-100.275547,215.921393
82,-27.792961,14.108647,5.652465,16.411235,-18.120072,-35.452698,-50.859959,-62.019459,-39.671448,-53.774449,-65.261032,-75.035259,-39.911282,-56.725022,-68.226608,-75.606377,-39.492668,-55.65564,-64.153038,-69.322827,-39.048145,-53.009525,-58.162937,-61.016338,11.875099,24.232912,34.715008,41.841215,35.263499,40.591436,40.043858,39.094013,30.822237,33.811883,30.269744,26.123142,22.375398,23.478125,18.419889,13.911294,11.620823,11.75949,9.795493,8.284646,30.513199,59.220875,81.147217,96.450406,62.393235,90.276707,101.639958,107.994175,52.498925,83.126633,95.977616,102.265664,41.616452,70.086926,81.950776,88.217709,30.422825,53.771885,63.543995,69.19114,-13.092755,-14.702712,-12.052816,-12.203883,-2.988165,16.29329,28.907615,37.682966,11.762465,35.940024,49.781971,57.906004,26.553467,48.875932,60.25121,65.875006,40.000249,57.289068,65.064272,68.733469,42.347798,254.253835,-94.14822,231.912648
83,-16.429184,11.400473,6.763779,16.121884,-12.312103,-26.105999,-40.092877,-52.837727,-32.422257,-37.629616,-42.059166,-46.428738,-34.327217,-40.136456,-43.800785,-44.003964,-35.488117,-41.977112,-42.615463,-41.308399,-36.391594,-47.478047,-50.364555,-50.032425,19.210219,34.874558,47.709381,55.652472,40.492116,47.767871,47.541037,46.758214,31.918355,35.890055,32.654581,28.394062,19.660405,21.170844,15.898421,11.622724,6.285747,6.703698,5.249624,5.2331,31.462303,59.74395,81.689083,98.044361,63.21587,89.794155,101.432968,108.1791,53.296703,82.79805,95.494492,102.067864,42.363075,69.843819,82.016419,88.991066,30.597416,53.448189,63.667271,70.31781,-11.349479,-12.416452,-11.178838,-14.209412,5.049405,24.954391,37.054668,45.735356,19.985854,44.262645,57.095591,64.826854,34.050152,56.930298,68.219632,74.37884,45.966364,64.564156,72.686348,77.087238,26.295096,265.427928,-87.007959,247.808152
84,-19.203655,8.381223,0.923252,12.032339,-6.665451,-15.303395,-24.787491,-35.337181,-22.906861,-17.189438,-14.131874,-12.81918,-25.526642,-17.523503,-13.004105,-6.444546,-27.571507,-21.047951,-14.103848,-7.667897,-29.453087,-35.364533,-36.983574,-36.13987,14.290762,29.951444,45.435681,55.136745,37.622154,47.068041,47.091197,46.297359,32.746873,40.430736,39.231666,36.586699,24.069791,30.388872,27.889474,26.111223,14.727028,19.865762,22.100435,25.616874,31.500275,60.549042,83.334686,101.425976,60.041668,87.806992,104.619129,116.782345,49.250656,80.075443,99.328594,112.782681,38.254955,67.525795,85.847477,99.296963,27.041645,51.275219,65.389813,77.153664,-11.494049,-12.889855,-11.966143,-16.22639,8.614553,24.909462,35.960118,45.159818,24.278965,43.369513,55.111946,63.657289,37.796402,56.44762,66.315212,72.80276,48.260738,64.757682,71.579991,75.981276,7.296278,273.685801,-85.87987,259.717141
85,-20.004559,9.341676,3.411106,10.163883,1.212776,-0.262012,-3.661686,-10.379196,-11.944347,6.593994,17.256283,23.400684,-16.955372,5.751949,18.202503,30.542908,-20.726475,-1.426975,11.812019,21.4823,-22.977035,-24.353382,-25.278088,-24.939022,5.837501,18.361361,33.301837,42.973248,28.352986,41.739734,43.498497,44.242169,29.070847,42.348309,44.111209,43.816264,25.904742,38.330123,38.187764,38.503185,22.47694,31.515607,36.275872,42.19071,30.735031,58.808693,81.502991,99.975632,59.199761,86.525688,103.837853,117.039002,48.979889,79.56752,99.261498,113.66613,38.524704,67.135929,85.767174,100.106346,27.586876,51.071823,65.377075,78.070141,-11.460382,-13.179427,-12.341079,-17.081708,12.113122,26.964639,37.298274,46.360196,27.706274,45.219716,56.425563,65.226331,40.379805,57.967372,67.711291,74.668117,49.729422,66.074374,73.145068,78.159559,-12.627417,283.0009,-82.3879,269.854447
86,-3.984089,6.307644,3.857849,7.53381,5.023899,6.838932,6.638672,1.840485,-9.51448,16.999306,32.330349,40.349453,-16.473724,16.039982,32.519589,46.18475,-21.826938,4.911999,21.716458,32.267773,-24.770977,-25.401329,-27.559856,-29.108871,-3.606014,3.91941,16.448581,24.562054,19.339686,36.009814,41.003743,44.355914,26.13769,43.305934,48.708083,51.001061,28.889572,45.864946,48.170657,50.01177,31.581779,44.851547,52.55543,60.739558,29.582589,56.670044,79.219071,97.946,57.942662,85.494576,102.744278,116.015076,47.933499,78.828988,98.655007,113.143937,37.584698,66.288918,84.96896,99.356095,26.855427,50.102749,64.572384,77.395283,-11.643213,-13.503407,-12.403163,-16.920305,14.524339,29.344574,38.966881,47.028681,30.499541,47.307151,57.600352,65.526462,42.753774,59.812919,69.048915,75.48253,51.211975,67.330043,74.03347,78.598851,-16.531283,289.324905,-78.449828,277.404618
87,8.24968,3.960955,2.849259,5.290676,-0.008515,-0.495461,-1.433533,-7.211609,-17.162922,7.813717,26.186588,37.724476,-23.676602,7.765709,27.835041,43.870777,-27.717488,-2.094315,17.28178,29.870258,-28.922539,-32.433243,-34.324745,-34.964001,-2.937244,3.963587,15.229628,24.236259,18.481405,34.93947,41.685431,46.607161,25.48447,41.757445,49.086502,53.353369,29.108515,45.166598,48.994284,52.221002,33.03368,46.125842,55.118048,64.012626,28.706291,54.951588,77.485691,96.256851,57.385322,85.549553,102.501686,115.402748,47.417976,78.983059,98.872581,113.223106,36.996139,66.260834,84.960033,99.07798,26.330932,49.966358,64.675426,77.57064,-12.353602,-14.170793,-12.457577,-15.937596,15.591214,30.753694,39.839995,46.939971,31.739749,48.081712,57.595388,64.502233,43.727443,60.353124,68.934962,74.540948,51.819032,67.468488,73.623102,77.526445,-8.218408,293.386911,-75.537374,282.796345
88,0.337188,2.977655,1.844478,3.489516,1.711785,2.755429,2.789818,-1.176795,-15.321784,9.541947,27.649121,38.359532,-22.537994,8.561703,28.49889,43.703969,-27.499603,-2.38829,16.83482,28.547734,-29.541561,-33.955238,-36.62471,-38.695095,-10.361645,-8.047326,-0.320176,6.403925,14.564884,31.167582,37.435903,41.768621,25.164182,41.645256,47.690263,50.997504,31.332048,47.602059,49.891492,51.725615,37.1622,49.858629,57.918799,65.572132,28.023411,53.883351,76.873616,95.693448,57.221146,86.002133,102.668873,115.203312,47.312748,79.739628,99.42326,113.2878,36.784344,66.8023,85.25726,98.639271,26.201512,50.167386,64.826443,77.223301,-13.102215,-14.961186,-12.596047,-15.252438,15.256872,30.84853,39.335457,45.611744,31.71064,47.768661,56.469801,62.268436,43.744684,60.032763,67.800112,72.263407,51.717872,66.970014,72.3886,75.093157,-7.797604,296.534195,-73.60928,286.45549
89,0.946988,4.60474,1.27747,1.793936,1.901722,4.485145,7.406753,6.498928,-13.728093,11.073383,30.243461,41.848343,-21.796967,8.08057,29.075386,44.458854,-27.200032,-4.615712,14.963012,27.079467,-29.228417,-35.722035,-38.807648,-41.578789,-14.972671,-17.032023,-13.584584,-9.366957,7.526363,23.826347,30.841861,35.681438,21.50878,37.279119,43.085078,45.7225,30.577903,46.031153,48.054788,48.994975,38.461121,50.739956,57.334616,62.790388,27.263615,52.776215,75.960297,94.824532,56.617275,86.051399,102.477539,114.661675,46.960968,80.083145,99.67408,113.087814,36.453106,67.135414,85.543236,98.296211,26.039795,50.125465,64.775494,76.662357,-13.802674,-15.58384,-12.476029,-14.589263,14.516176,30.648372,38.664687,44.323235,31.312312,47.367111,55.358454,60.331523,43.457544,59.629211,66.623532,70.105626,51.395226,66.376123,71.162928,72.78878,-6.738716,301.377304,-72.21991,288.487795
90,3.199653,2.706718,0.512158,0.781106,0.608643,2.301602,5.048355,3.958271,-15.507408,8.758862,28.620644,40.881661,-23.277202,5.392594,26.799843,41.618065,-27.84692,-7.15884,12.466095,24.870278,-29.070968,-36.269989,-38.973198,-41.364132,-14.107029,-16.161848,-12.48182,-7.630844,6.033633,21.356319,28.743026,34.000271,19.782745,33.71806,39.431072,42.018797,28.919904,42.484123,44.92692,45.903046,36.890734,48.386907,54.148961,58.669857,27.091838,52.364112,75.577308,94.636356,56.217556,85.961299,102.432827,114.558345,46.745956,80.359531,100.040691,113.328128,36.311897,67.544597,86.057865,98.640369,26.068004,50.259738,65.014366,76.720356,-14.173338,-15.794755,-12.247046,-13.843047,14.332097,30.358207,38.11086,43.474179,31.291021,46.869637,54.359888,58.791307,43.447219,59.341577,65.762002,68.612599,51.288892,66.020588,70.410005,71.315736,-3.41573,304.335031,-71.584419,289.51991
91,-0.231079,2.29509,-0.132534,0.38878,0.503517,2.964398,7.937336,8.857395,-13.93499,10.62299,31.292702,44.195618,-21.725315,6.736496,29.359566,44.490097,-25.87001,-5.377109,15.502442,29.08168,-26.587349,-33.708469,-35.926735,-37.800533,-13.140957,-14.663574,-10.713622,-5.70407,4.401743,19.138849,27.140085,32.840277,17.818514,31.232852,36.99508,39.329554,27.287606,39.848418,43.093032,44.132563,35.455518,46.089582,51.278778,54.964067,27.155525,52.54597,75.904575,95.167442,55.968921,85.992645,102.479255,114.561538,46.57862,80.687576,100.320167,113.519142,36.288082,68.157085,86.776039,99.369689,26.294574,50.932651,65.863277,77.56636,-14.392032,-15.87629,-12.154506,-13.268953,14.01354,29.839059,37.428456,42.622395,31.099237,46.393072,53.651401,57.776637,43.311628,59.128181,65.131914,67.562163,51.145915,65.679752,69.859118,70.4774,-3.483278,306.881312,-71.553422,290.159881
92,-0.546158,3.869701,0.115871,0.153796,2.958676,7.108589,14.588929,17.723133,-11.222545,13.454613,33.164337,44.742073,-19.775058,8.336964,30.296952,45.109543,-24.372745,-4.715618,15.431008,28.788391,-25.178215,-33.11071,-36.357628,-38.913997,-18.261128,-23.610752,-22.365925,-19.161968,-1.539228,11.967329,19.491209,25.358523,14.714815,26.979755,32.089318,33.935149,26.556926,37.678694,40.581148,41.418089,36.623428,45.51345,50.171234,53.812866,27.287773,52.723389,76.105213,95.542019,55.494026,85.904949,102.490185,114.549992,46.06089,80.736523,100.412029,113.539638,35.847393,68.161285,86.90015,99.552509,26.086636,50.855324,65.887402,77.595898,-14.349017,-15.783307,-11.801097,-12.555304,13.879726,29.627502,36.99461,41.975435,31.164062,46.322726,53.325,57.126862,43.49594,59.355064,64.940426,66.912302,51.241208,65.692953,69.694701,70.016816,-3.841582,310.960523,-71.249697,290.523187
93,0.44188,0.625421,0.1623,0.360449,2.856731,7.040886,14.229103,16.937267,-10.94751,14.134437,33.560417,44.871093,-19.929257,8.544284,30.123298,44.491516,-24.727604,-5.210667,14.495624,27.403793,-25.608422,-33.776493,-37.246422,-40.042248,-18.733742,-24.620668,-23.668118,-20.852719,-1.607388,11.678855,18.361559,23.514347,15.054948,27.312503,31.361725,32.466748,27.04216,38.136708,40.169482,40.45656,37.05988,46.095003,50.303503,53.567049,27.260548,52.708065,76.04314,95.664288,54.805298,85.735256,102.506298,114.609638,45.37191,80.779575,100.630772,113.789257,35.361671,68.357563,87.292294,100.047329,25.977116,51.119144,66.400692,78.266087,-14.451412,-15.870683,-11.657724,-11.977394,13.653622,29.497616,36.672656,41.384398,31.201372,46.25674,52.920375,56.305224,43.67104,59.524594,64.578902,65.995,51.403884,65.74496,69.470869,69.44933,-3.225093,311.719547,-70.912788,291.017239
94,1.760284,-0.413148,-0.085705,0.474194,2.756653,5.94318,11.184631,11.763039,-13.62394,12.194847,31.633438,42.625992,-22.749825,6.380001,27.735008,41.557869,-27.225986,-7.311344,12.208637,24.77385,-27.688374,-35.829082,-39.226341,-41.822044,-18.789378,-24.169543,-21.744827,-17.655406,-1.332166,11.972701,17.962022,22.426515,15.481755,27.636311,31.011786,31.796942,27.774693,38.594452,39.985911,40.208448,38.131682,46.764612,50.569327,53.861217,27.233814,52.756645,76.177346,95.99762,54.303475,85.757973,102.696717,114.90976,44.857235,80.948822,100.896607,114.082649,35.057453,68.805943,87.884217,100.705742,26.02018,51.805001,67.28793,79.227448,-14.633637,-16.109274,-11.69286,-11.453083,13.279562,29.205759,36.316615,40.937843,30.994397,45.960498,52.439105,55.604838,43.586528,59.324992,64.087937,65.204051,51.405995,65.537886,68.994637,68.748525,-1.315887,311.369789,-70.849571,291.554823
95,-2.110233,2.30623,0.100296,0.246903,2.94683,6.001281,10.8605,11.905575,-10.764611,15.235576,34.455242,45.083805,-19.812424,9.166191,29.946384,43.49715,-24.63216,-4.047856,15.121055,27.290279,-25.660137,-33.176594,-36.934628,-40.083035,-19.008321,-24.806573,-23.031755,-19.226188,-3.073713,9.885142,16.047932,20.720808,13.553635,26.353199,29.979911,31.186045,25.816736,36.90012,38.361245,38.697069,35.9173,44.205996,48.049292,51.226388,27.092697,52.68005,76.142945,96.125016,53.801491,85.51387,102.665772,115.022118,44.350971,80.809113,100.850281,114.049851,34.615082,68.818932,88.025963,100.896515,25.685658,51.925347,67.599221,79.621605,-14.709813,-16.101469,-11.400213,-10.584453,13.307844,29.419131,36.43157,40.936028,31.092827,45.990114,52.217791,55.198841,43.714203,59.354558,63.848567,64.789211,51.494595,65.463267,68.701248,68.354421,-3.317041,313.700673,-70.640196,291.82638
96,4.703235,-1.732074,0.156544,0.28462,2.582142,3.504067,4.154812,1.642903,-14.979675,9.711411,28.077668,37.953026,-24.444397,3.682778,23.082322,36.087777,-29.761596,-10.154937,7.885586,18.993759,-31.39785,-39.62986,-43.865043,-47.489307,-19.710374,-26.388644,-25.322967,-21.827981,-1.901876,12.189667,17.273368,20.652758,15.456264,28.820559,31.674145,32.422078,27.645424,39.202224,39.599217,39.395774,37.543435,46.31844,50.225525,53.707828,27.059898,52.61237,76.107342,96.210125,53.659836,85.458973,102.694874,115.137348,44.185581,80.697498,100.723515,113.890194,34.405678,68.731865,87.913753,100.738804,25.413906,51.835888,67.578175,79.711521,-14.751111,-16.243347,-11.305327,-9.979929,13.137277,29.379105,36.337796,40.734017,30.909613,45.797304,51.944027,54.846432,43.565731,59.071358,63.44325,64.240436,51.411849,65.363774,68.421383,67.897752,1.452781,311.92839,-70.417065,292.070791
97,0.982853,-1.818105,0.455978,0.235281,2.663773,2.807362,1.86834,-1.111313,-17.252723,8.348866,27.553608,37.484265,-26.668899,2.182766,21.770016,34.834179,-31.982471,-12.263694,6.206703,17.456715,-33.628223,-43.736995,-49.48352,-55.054744,-20.372635,-27.015324,-24.882811,-21.014147,-0.907583,15.530228,21.513003,25.087549,16.869619,31.527179,34.353829,34.57697,29.29684,41.422423,41.567783,41.102716,39.483361,48.626559,52.59637,56.195159,26.699959,52.073845,75.437874,95.579029,53.092427,85.084271,102.381833,114.758343,43.678414,80.50668,100.581974,113.648449,34.001793,68.722447,87.910458,100.636448,25.118237,51.890625,67.71959,79.917057,-15.071262,-16.585148,-11.292075,-9.391929,12.892869,29.286257,36.199339,40.530192,30.843183,45.6432,51.640339,54.479301,43.585899,58.932408,63.121889,63.842455,51.467746,65.300345,68.207184,67.584702,2.45902,310.021751,-69.937701,292.217538
98,-4.029224,3.113282,0.470181,0.305825,2.8633,4.529217,7.73846,8.792221,-13.259457,14.135788,34.118706,44.561737,-22.160957,7.656864,28.158806,41.255653,-26.955265,-6.138668,13.198128,25.060432,-27.902527,-37.24284,-42.424358,-47.844017,-20.278785,-26.713364,-24.554779,-20.315231,-3.474238,11.967823,19.23949,24.171434,13.98695,27.885326,31.474988,32.197431,26.837409,37.568828,38.689239,38.649423,37.337671,45.764132,49.591509,52.598297,26.38932,51.59317,74.874172,94.950394,52.779522,84.965126,102.198738,114.382027,43.375465,80.355698,100.334976,113.198273,33.653721,68.504677,87.618278,100.216896,24.676369,51.5415,67.379608,79.535522,-15.415372,-17.006372,-11.398459,-9.06685,12.644299,29.002872,35.843916,40.169347,30.610791,45.319888,51.288547,54.195126,43.331006,58.556978,62.720314,63.514461,51.132713,64.894842,67.759851,67.122772,-1.555452,313.024858,-69.452768,292.413188
99,-0.826286,0.164751,0.444397,0.237258,2.17313,4.039501,7.860099,9.061248,-11.902565,14.919822,34.297256,44.795196,-20.378884,9.592174,30.166259,43.496887,-24.915402,-3.341675,16.170433,28.399154,-25.604485,-33.642712,-38.436528,-43.25845,-17.664249,-22.478966,-19.587898,-14.484683,-1.628717,13.169201,20.513276,25.850772,14.32423,27.891932,31.775477,32.849193,25.975681,36.74068,38.528478,38.81022,35.391421,43.968429,48.181981,51.667063,26.138569,51.154209,74.290409,94.209961,52.555069,84.678818,101.757179,113.68119,43.161495,80.050712,99.945305,112.641312,33.334648,68.043365,87.071983,99.546455,24.170185,50.831612,66.617889,78.68367,-15.6675,-17.319929,-11.483724,-8.846698,12.390504,28.767479,35.598507,39.942587,30.415783,45.103081,51.11998,54.107267,43.154337,58.361957,62.542991,63.392602,50.893973,64.663179,67.586233,66.932939,-2.378173,313.059695,-69.004806,292.520532
100,3.997741,-3.426543,0.35091,0.347729,2.59346,3.800503,5.671761,4.736618,-15.838073,9.93219,28.819199,39.176262,-24.754131,4.630909,24.925827,38.892288,-29.692554,-8.669449,10.706383,23.117913,-30.851246,-39.282108,-44.148113,-48.5919,-17.969074,-22.760473,-19.567248,-14.812479,0.610501,17.049437,23.43417,27.39909,17.186831,31.248166,34.389632,34.789676,28.815286,40.256711,41.303405,41.186253,38.251947,47.714025,52.171107,56.05117,26.036453,50.801674,73.835529,93.739231,52.47337,84.620945,101.555775,113.331219,43.125744,79.925114,99.731014,112.33643,33.317505,67.838024,86.72517,99.100674,24.130737,50.562172,66.197193,78.228527,-15.845687,-17.688591,-11.791105,-8.989712,11.873604,28.175503,35.057537,39.460304,29.945121,44.604854,50.769521,53.870294,42.740622,57.933125,62.234794,63.159519,50.539464,64.37657,67.391929,66.715515,1.611013,309.473552,-68.662451,292.708661
101,-4.166267,1.828899,0.287613,0.231033,2.613521,5.62936,11.663647,14.07098,-12.802139,14.597671,34.552986,45.696991,-21.327335,9.102882,30.748649,45.107483,-25.675438,-3.716869,16.924072,30.295715,-26.024597,-34.103485,-38.371937,-42.376431,-18.172986,-22.577976,-18.216174,-12.263755,-1.242875,14.601601,22.335494,27.753698,15.19459,28.660478,32.857987,33.805004,27.092549,37.553772,39.797733,40.420078,36.748979,45.647004,50.09927,53.732874,26.001503,50.577084,73.479549,93.402409,52.152397,84.295475,101.206135,112.939716,42.826332,79.669109,99.519871,112.127895,33.054451,67.557896,86.398899,98.698894,23.919685,50.174332,65.692509,77.642933,-15.834473,-17.813389,-11.951706,-9.113583,11.522874,27.815868,34.808966,39.340446,29.701244,44.349232,50.560533,53.742038,42.607908,57.856394,62.181368,63.166991,50.481653,64.377991,67.427362,66.708612,-2.570841,311.114816,-68.390425,292.752059
102,-1.048885,0.805349,0.13512,0.186708,2.445899,6.074409,13.888801,18.011283,-11.331437,16.504932,36.424312,47.730548,-19.726319,10.952304,32.700977,47.071781,-24.229363,-1.693635,19.00027,32.593608,-24.735329,-31.538338,-35.306683,-38.617836,-17.716342,-22.015245,-18.227437,-12.877172,-0.664855,14.889975,22.518535,28.090028,15.183327,28.562196,32.641465,33.981745,26.742819,37.497987,39.840785,40.433466,35.952757,44.956165,49.785862,53.764947,26.09935,50.545327,73.480488,93.523911,52.294087,84.199425,101.08635,112.883927,42.955021,79.497185,99.325058,111.973801,33.118401,67.372193,86.041993,98.198456,23.930443,49.897911,65.264912,77.229676,-15.672291,-17.734175,-11.958708,-9.240652,11.449243,27.6197,34.65984,39.205683,29.544831,44.131377,50.449037,53.708273,42.481505,57.686062,62.053335,63.048048,50.480209,64.51336,67.567523,66.787468,-3.666212,311.737489,-68.301791,292.756091
103,0.891677,-0.180027,0.123356,0.047672,2.344231,5.890595,13.094605,15.472596,-11.966125,15.743328,34.931729,46.029889,-20.714996,10.615528,32.189312,46.362683,-25.226211,-2.237148,18.07275,31.556042,-25.71627,-29.964363,-31.376117,-32.19968,-16.664127,-20.262175,-15.852467,-9.837212,-0.069766,15.019985,22.205633,27.528037,15.496562,27.89539,32.070187,33.607402,26.709918,36.983507,39.550286,40.414545,35.694862,44.570237,48.532192,51.931775,26.222683,50.54496,73.48542,93.710461,52.572922,84.264073,101.135067,113.014149,43.211643,79.410954,99.199986,111.925816,33.297558,67.241169,85.78822,97.904331,24.034378,49.660492,64.881088,76.874027,-15.443433,-17.546034,-11.858685,-9.174531,11.326816,27.444019,34.60724,39.219539,29.377573,44.003541,50.479764,53.832934,42.365265,57.700844,62.19704,63.24429,50.525706,64.815628,67.894837,67.041496,-2.843834,311.396466,-68.247734,292.642767
104,-2.674724,-1.675993,0.036701,-0.064381,4.791034,9.629665,16.723572,19.073135,-9.153465,18.434326,37.049904,47.065361,-18.398987,12.346103,32.83445,46.723617,-24.240772,-1.596279,17.6082,29.935707,-26.277672,-31.099434,-33.506252,-35.732311,-19.697863,-25.269639,-22.78132,-19.235562,-0.557853,15.486299,22.018554,26.503548,16.397575,30.616311,34.252077,35.4467,28.36909,40.433194,41.785479,42.20637,38.003846,47.575901,51.496311,54.968377,26.30832,50.589306,73.536473,93.927475,52.75589,84.258179,101.133889,113.090722,43.41457,79.323716,99.099907,111.888474,33.483227,67.127129,85.571274,97.633095,24.254769,49.578175,64.641839,76.609909,-15.273076,-17.389349,-11.729145,-9.061083,11.491702,27.674089,35.013595,39.774379,29.488069,44.084459,50.692864,54.184331,42.502635,57.821344,62.39826,63.498875,50.783045,65.170359,68.255645,67.34884,-5.601024,309.565341,-68.293499,292.423254
105,-5.144863,-0.986488,-0.000423,-0.140668,5.928028,12.628109,22.003612,25.772564,-5.216687,23.090297,41.302265,50.694156,-14.222706,17.251957,37.324779,50.55566,-20.377911,3.019684,21.818355,33.426372,-22.628369,-27.095604,-29.698643,-32.617298,-20.112689,-25.526138,-22.823853,-19.125251,0.373887,16.023343,22.465887,27.220447,17.146484,32.129209,35.830541,37.083605,29.157545,42.348705,43.393015,43.677882,38.986531,48.625659,52.539326,56.195716,26.354633,50.65329,73.640911,94.129658,53.0289,84.329441,101.190273,113.175121,43.648819,79.243069,98.952724,111.733784,33.578728,66.915218,85.280697,97.305187,24.199242,49.251995,64.261997,76.269047,-15.140065,-17.245852,-11.518996,-8.735312,11.757587,28.012309,35.441266,40.28939,29.670073,44.267512,50.951438,54.529751,42.655703,58.033951,62.675755,63.815321,50.958083,65.510074,68.622196,67.695977,-10.839374,308.460971,-68.387409,292.164704
106,-3.083119,-2.331423,0.040901,-0.054402,7.376942,15.043099,23.819504,26.34494,-2.804603,25.242279,42.641075,51.165367,-11.85474,19.720379,38.788971,51.862015,-18.840042,4.953118,22.585488,33.139298,-22.126167,-26.142677,-29.336002,-32.947414,-20.778829,-26.308368,-24.578813,-22.183577,1.650699,17.523902,22.945008,26.659616,18.742324,35.165859,38.194976,39.031731,30.875317,46.111613,46.12547,45.951667,40.820233,51.279332,55.386525,59.465313,26.241074,50.539421,73.555767,94.05621,53.181782,84.472309,101.370564,113.317692,43.780014,79.263188,98.924412,111.606869,33.619217,66.854416,85.151631,97.0956,24.153008,49.121887,64.12294,76.16177,-15.210608,-17.268922,-11.329867,-8.232898,11.977839,28.342501,35.812856,40.689421,29.861277,44.392421,51.113101,54.76975,42.818835,58.154105,62.812877,63.995966,51.095675,65.689854,68.829158,67.943608,-14.029072,306.062354,-68.453087,292.043108
107,-3.805778,-2.289496,0.043236,-0.069605,9.197811,17.95626,26.030845,26.929046,0.120449,28.348343,44.84539,52.193687,-8.928383,22.963955,40.837738,53.469017,-16.739571,7.536346,23.802726,32.934082,-21.032685,-25.240265,-29.385876,-34.202534,-22.119961,-28.177602,-27.084718,-25.497733,2.129043,18.218879,22.540271,25.222104,20.087175,37.78441,40.178795,40.584236,32.545629,49.422572,48.279597,47.849493,42.770979,53.884003,57.952515,62.313551,26.217693,50.553326,73.59795,94.158657,53.276253,84.59499,101.548611,113.519634,43.833389,79.265362,98.90086,111.52335,33.578545,66.79525,85.089947,97.018696,24.010334,48.915264,63.90089,75.924305,-15.192343,-17.241567,-11.205798,-7.811094,11.944222,28.605187,36.201537,41.15413,29.788152,44.536064,51.377763,55.11086,42.755924,58.272172,63.024422,64.277202,51.042557,65.818011,69.008975,68.149274,-17.931501,303.723992,-68.506502,291.924637
108,-4.321564,-2.439302,0.044907,0.048919,11.091579,21.030338,29.146133,30.172852,3.602829,32.350891,48.401871,54.738831,-5.143593,26.839794,43.269424,55.294624,-13.838345,10.327103,24.988541,32.495888,-19.242668,-25.621719,-32.907795,-41.096226,-24.386361,-31.457858,-31.111154,-30.525204,2.711819,19.652662,23.256181,25.230725,21.703146,41.386201,43.157697,43.310702,34.745352,53.787919,51.214742,50.324573,45.476153,57.211992,61.940752,67.279989,26.156856,50.490543,73.577465,94.186145,53.198146,84.506252,101.499195,113.490703,43.824314,79.312488,98.974536,111.531131,33.624721,66.942112,85.205188,97.038517,24.1207,49.129531,64.06644,76.037235,-15.256637,-17.361178,-11.259941,-7.648987,11.934094,28.801553,36.491072,41.53781,29.845159,44.618711,51.531385,55.343597,42.887316,58.329809,63.06241,64.320637,51.231686,65.926802,69.097266,68.252681,-22.342558,301.226679,-68.551088,291.915545
109,-1.247704,-0.260512,-0.036885,0.114757,11.605671,22.003968,30.923562,32.735825,4.338902,33.267403,49.587891,56.354119,-4.189464,28.007653,44.777573,57.186631,-12.720085,11.811345,26.868966,34.724167,-18.078517,-24.310581,-31.51926,-39.66909,-24.703265,-31.43627,-30.573123,-29.197979,2.684142,19.215147,22.8973,25.162589,21.566047,41.198035,43.214408,43.76085,34.711055,53.788931,51.458248,50.764841,45.631084,57.287858,62.445376,68.195092,26.186749,50.645794,73.818489,94.477318,53.176323,84.620316,101.611611,113.604515,43.847306,79.476197,99.047745,111.514,33.721195,67.231545,85.460839,97.272995,24.31548,49.541085,64.502564,76.518723,-15.279213,-17.387249,-11.24028,-7.405826,11.745039,28.688587,36.39778,41.430549,29.712483,44.492938,51.434104,55.221133,42.815883,58.224266,62.981073,64.252897,51.18315,65.835881,68.976643,68.150014,-23.716879,300.921669,-68.71459,291.985804
110,-0.479255,0.047906,-0.018436,0.074471,11.971744,22.578724,31.721237,33.652611,4.89125,33.822487,50.538093,57.747505,-3.598412,28.75732,46.062561,58.961952,-12.035477,12.845798,28.52845,36.905754,-17.402298,-23.318264,-30.168434,-37.916725,-24.788999,-31.349585,-30.295802,-28.529654,2.352122,18.715796,22.461984,24.767547,21.250638,40.920726,43.044347,43.728937,34.474044,53.361902,51.475884,51.102825,45.45002,57.119909,62.555155,68.457816,26.207519,50.777641,74.021931,94.774647,53.057819,84.58588,101.621166,113.663212,43.821304,79.5657,99.125004,111.574871,33.835636,67.471229,85.691471,97.507747,24.616505,49.975216,64.898472,76.901745,-15.236001,-17.324646,-11.185952,-7.195714,11.692169,28.800145,36.569483,41.611392,29.662032,44.498643,51.504203,55.293418,42.777573,58.175372,62.973428,64.22769,51.150188,65.7468,68.899776,68.120214,-24.336067,300.919051,-68.872959,292.009751
111,-0.164269,0.159032,-0.034939,0.021427,12.2505,23.05576,32.582726,34.856896,5.378529,34.18142,50.896614,58.275833,-2.999805,29.208996,46.591713,59.560478,-11.35247,13.573105,29.436905,38.019745,-16.729065,-22.509384,-29.262348,-36.917473,-24.931322,-31.51667,-30.322194,-28.34623,2.351764,18.380282,22.066164,24.482235,21.223752,40.570082,42.73415,43.62758,34.453445,52.958042,51.192672,50.943682,45.47714,57.0022,62.564628,68.561383,26.213573,50.940514,74.273735,95.112282,52.956276,84.554215,101.577667,113.659744,43.802753,79.667473,99.183151,111.602371,33.937843,67.725483,85.952408,97.786743,24.884697,50.403374,65.319649,77.311386,-15.172867,-17.252719,-11.180604,-7.151365,11.535026,28.821215,36.68445,41.750306,29.526058,44.514785,51.626037,55.384982,42.694186,58.142854,63.018136,64.235656,51.132886,65.715208,68.906667,68.161587,-24.638809,301.015567,-69.046371,291.968662
112,1.695832,-0.287448,-0.16254,0.052241,11.906215,22.232288,31.304809,33.193359,3.843795,31.900291,48.663848,56.37426,-4.498959,27.066249,44.628845,57.906669,-12.607876,11.96838,28.394325,37.496154,-17.838044,-23.88905,-30.461449,-37.864769,-24.886738,-31.221626,-29.65697,-27.348332,2.737507,18.63862,22.353254,24.886638,21.429591,40.673934,42.94425,43.994007,34.563261,52.930983,51.345294,51.116941,45.615436,57.068051,62.842492,68.971875,26.327854,51.225677,74.622402,95.497982,52.940403,84.625156,101.648449,113.750942,43.854709,79.836559,99.328456,111.734516,34.126819,67.98666,86.216571,98.072055,25.267501,50.918666,65.823028,77.799648,-15.117217,-17.195748,-11.174243,-7.14677,11.498371,28.811285,36.73369,41.846142,29.504334,44.505609,51.672671,55.427775,42.674388,58.063184,62.981431,64.168052,51.125377,65.577974,68.795072,68.08677,-23.093908,300.633172,-69.359842,291.925956
113,1.53059,-0.358202,-0.159645,-0.083079,11.606517,21.446491,29.878933,31.195392,2.584922,29.647144,46.633014,54.830417,-6.014408,24.783245,43.048175,57.151645,-14.147873,9.946037,27.411838,37.450733,-19.475384,-25.775837,-31.958107,-38.794545,-24.696559,-30.83539,-29.270461,-27.00579,2.946631,19.125325,23.127295,25.82459,21.433605,40.938757,43.45542,44.613697,34.452382,52.901183,51.861713,51.887871,45.467038,57.026653,63.234361,69.6629,26.434501,51.51099,74.962039,95.846294,53.004501,84.725177,101.773441,113.889507,43.925056,79.927196,99.371646,111.777294,34.236991,68.113941,86.329708,98.217235,25.466972,51.152275,66.072235,78.0909,-15.017478,-17.022452,-10.982755,-6.934621,11.612239,29.01947,36.988237,42.092699,29.562269,44.639694,51.840731,55.579347,42.697063,58.10095,63.063917,64.224578,51.110816,65.511383,68.793639,68.168342,-21.722231,300.162717,-69.6784,291.730624
114,1.149433,0.164528,0.069637,-0.164553,10.982654,20.33052,28.211128,29.040802,1.774509,28.636093,45.263534,53.108574,-6.967129,23.696354,41.487304,55.182609,-15.242764,8.610592,25.634102,35.21299,-20.631134,-27.070118,-33.395119,-40.45126,-24.539911,-31.061038,-30.095496,-28.629986,3.205834,19.493197,23.404246,25.922748,21.654399,41.149165,43.576006,44.625466,34.517801,52.950434,51.81461,51.818463,45.366162,56.902263,62.935328,69.276774,26.471878,51.56654,75.028404,95.943649,53.061115,84.722397,101.798858,113.895881,43.9701,79.929405,99.384247,111.748398,34.22755,68.104637,86.334617,98.209625,25.401901,51.073711,65.99945,78.024559,-14.955838,-16.907126,-10.801863,-6.717111,11.728232,29.305894,37.294606,42.384137,29.630491,44.890018,52.130995,55.837378,42.739017,58.273938,63.277945,64.40983,51.149497,65.621595,68.996119,68.46803,-20.713245,300.186235,-69.74921,291.425061
