takenoko1/special-research/HandMotion_SimilarSearch_自分用/NewProject/handData/tgt/d4_feature_d2/144.csv
,vel_0x_L,vel_0y_L,vel_0x_R,vel_0y_R,posFromWrist_1x_L,posFromWrist_2x_L,posFromWrist_3x_L,posFromWrist_4x_L,posFromWrist_5x_L,posFromWrist_6x_L,posFromWrist_7x_L,posFromWrist_8x_L,posFromWrist_9x_L,posFromWrist_10x_L,posFromWrist_11x_L,posFromWrist_12x_L,posFromWrist_13x_L,posFromWrist_14x_L,posFromWrist_15x_L,posFromWrist_16x_L,posFromWrist_17x_L,posFromWrist_18x_L,posFromWrist_19x_L,posFromWrist_20x_L,posFromWrist_1y_L,posFromWrist_2y_L,posFromWrist_3y_L,posFromWrist_4y_L,posFromWrist_5y_L,posFromWrist_6y_L,posFromWrist_7y_L,posFromWrist_8y_L,posFromWrist_9y_L,posFromWrist_10y_L,posFromWrist_11y_L,posFromWrist_12y_L,posFromWrist_13y_L,posFromWrist_14y_L,posFromWrist_15y_L,posFromWrist_16y_L,posFromWrist_17y_L,posFromWrist_18y_L,posFromWrist_19y_L,posFromWrist_20y_L,posFromWrist_1x_R,posFromWrist_2x_R,posFromWrist_3x_R,posFromWrist_4x_R,posFromWrist_5x_R,posFromWrist_6x_R,posFromWrist_7x_R,posFromWrist_8x_R,posFromWrist_9x_R,posFromWrist_10x_R,posFromWrist_11x_R,posFromWrist_12x_R,posFromWrist_13x_R,posFromWrist_14x_R,posFromWrist_15x_R,posFromWrist_16x_R,posFromWrist_17x_R,posFromWrist_18x_R,posFromWrist_19x_R,posFromWrist_20x_R,posFromWrist_1y_R,posFromWrist_2y_R,posFromWrist_3y_R,posFromWrist_4y_R,posFromWrist_5y_R,posFromWrist_6y_R,posFromWrist_7y_R,posFromWrist_8y_R,posFromWrist_9y_R,posFromWrist_10y_R,posFromWrist_11y_R,posFromWrist_12y_R,posFromWrist_13y_R,posFromWrist_14y_R,posFromWrist_15y_R,posFromWrist_16y_R,posFromWrist_17y_R,posFromWrist_18y_R,posFromWrist_19y_R,posFromWrist_20y_R,posFromBody_0x_L,posFromBody_0y_L,posFromBody_0x_R,posFromBody_0y_R
6,8.278382,-2.885757,0.056294,0.107186,8.4711,12.050548,14.236164,16.076832,-7.184521,14.403843,32.946934,45.302685,-17.709046,5.314693,25.723194,43.552585,-24.484886,-5.617848,13.507519,28.760181,-28.681401,-24.280014,-17.527085,-9.855023,-21.663786,-34.866864,-40.304234,-41.81996,-13.495873,-4.019594,-0.80299,1.316704,6.146624,18.109408,21.319775,23.333579,21.165608,29.716126,30.92825,32.367553,32.534329,41.022404,40.000312,37.258766,25.322433,49.170067,72.471084,92.620857,50.943512,82.61158,99.883323,112.729225,42.21484,77.226402,97.226692,110.36737,33.032982,65.802017,83.959831,95.87558,24.4319,48.292385,62.889084,74.245697,-13.425466,-15.456906,-11.522936,-10.370414,14.632217,28.52417,34.981374,38.870489,31.852715,45.108441,50.661569,52.056684,44.254013,59.277938,63.238004,62.569926,51.956253,67.836693,70.999574,68.919623,-2.767725,329.24499,-67.641409,305.099591
7,-6.768185,1.660987,0.262024,-0.146867,9.290302,15.194504,20.879608,26.453819,-0.827396,21.805756,40.491692,53.486389,-11.00497,12.355568,33.006043,51.38649,-17.933109,1.786217,20.959694,36.29702,-22.046425,-16.777599,-9.957138,-2.383861,-21.462726,-35.154719,-41.402305,-42.546145,-15.905695,-8.509392,-4.998362,-2.393853,3.283863,15.672033,19.549761,21.942318,18.395745,27.736371,29.663737,31.257874,29.769467,38.767823,38.836848,36.708805,25.335514,49.06636,72.241173,92.291839,50.829815,82.44326,99.694816,112.510048,42.001407,76.9655,96.990509,110.142425,32.757625,65.569107,83.708908,95.581077,24.134502,48.070369,62.673202,73.999168,-13.328295,-15.336246,-11.453849,-10.271452,14.729017,28.750621,35.271959,39.181007,31.927001,45.275192,50.950981,52.410217,44.331263,59.31605,63.363592,62.738283,52.087522,67.940347,71.138611,69.029859,-9.354979,330.846403,-67.198454,304.89315
8,4.708683,-1.711289,0.032547,-0.122723,9.410717,14.083614,17.449986,20.090092,-5.170097,17.021496,35.390591,47.530644,-15.695309,7.334599,27.713734,45.442028,-22.538967,-2.98605,16.421551,31.746174,-26.897232,-20.526798,-12.220299,-3.704578,-22.823421,-36.602272,-41.858937,-42.06485,-14.958543,-5.65057,-2.17496,0.098566,5.117393,17.468117,20.710508,22.569628,20.599888,29.448834,30.553956,31.838562,32.301777,40.807649,39.678678,36.675645,25.27573,48.998417,72.11895,91.938034,50.891865,82.496292,99.696785,112.534538,42.004257,76.878502,96.876503,110.109718,32.687862,65.360847,83.545212,95.566223,23.981392,47.917339,62.590805,74.103836,-13.411053,-15.425648,-11.561147,-10.303167,14.551262,28.684252,35.248642,39.199013,31.738378,45.147147,50.950599,52.551132,44.150693,59.15871,63.35633,62.875381,51.972061,67.805633,71.117468,69.14758,-4.539448,329.060103,-67.059059,304.695416
9,-7.188366,1.256461,0.191585,-0.267873,10.428578,17.483185,23.830536,29.109467,1.329598,25.241089,43.283272,55.102455,-8.83992,15.884468,36.238655,53.66391,-15.862781,6.225483,25.608627,40.651337,-20.259075,-10.842041,-1.098713,8.323975,-23.111463,-37.338005,-42.629014,-41.915921,-16.560102,-7.608936,-3.944777,-1.430313,3.150345,16.35036,20.027523,22.195234,18.713215,28.542547,30.061199,31.312312,30.411398,39.827867,39.42082,36.529098,25.259503,48.891999,71.997998,91.728482,50.810543,82.364559,99.463497,112.258633,41.880329,76.689068,96.646878,109.864804,32.516556,65.126232,83.264157,95.282879,23.759846,47.659138,62.25729,73.749424,-13.321083,-15.336666,-11.497408,-10.160203,14.601008,28.797304,35.378997,39.399628,31.744578,45.242514,51.199872,53.011876,44.135884,59.187313,63.470581,63.110428,51.972493,67.829616,71.246884,69.402325,-11.644375,330.247234,-66.784035,304.358213
10,7.034363,-1.417259,0.042424,-0.009744,10.011555,14.976791,17.643356,18.666389,-4.935837,18.147583,36.172188,47.298042,-15.474655,8.689819,28.695579,45.260467,-22.343937,-1.344898,17.882812,32.386185,-26.823086,-17.993568,-8.23518,0.85881,-23.166111,-36.755142,-41.908041,-42.29098,-14.122443,-3.170278,0.244359,2.322038,5.690004,18.744807,21.698144,23.330257,20.875023,30.372508,31.098854,32.190021,32.268308,41.417051,40.148636,36.958499,25.242015,48.827613,71.90776,91.593429,50.93486,82.32994,99.359138,112.133033,42.041152,76.668045,96.591041,109.837051,32.688457,65.110107,83.229332,95.289367,23.883625,47.737186,62.306716,73.817207,-13.445226,-15.478556,-11.611523,-10.283741,14.382819,28.509004,35.093191,39.181995,31.55609,44.934317,50.920526,52.811854,44.017163,58.976855,63.28218,62.950185,51.983312,67.742412,71.134091,69.281492,-4.541977,328.782526,-66.673576,304.30102
11,-4.161037,2.021511,0.305671,-0.160811,10.262832,16.181499,20.408786,23.303043,-1.028813,23.016323,41.180065,52.786479,-11.206215,13.748737,34.108234,51.337268,-18.006444,3.840534,23.276721,37.970592,-22.072037,-13.156357,-3.878083,4.600238,-22.772033,-36.811903,-42.896035,-43.937196,-16.231022,-6.806167,-3.250579,-0.898962,3.041974,16.341629,19.969194,22.033967,18.167379,28.269635,29.780347,31.106745,29.60274,39.058988,38.87633,36.45895,25.090336,48.619469,71.718773,91.483658,50.861607,82.05819,99.025749,111.795387,42.064408,76.508423,96.409767,109.642731,32.718395,65.006859,83.074448,95.103081,23.854351,47.732002,62.233292,73.686836,-13.570715,-15.569082,-11.591108,-10.054671,14.40132,28.591614,35.134219,39.193147,31.521412,44.920658,50.970285,52.908828,43.966417,58.978658,63.297631,62.964042,51.950177,67.743376,71.111923,69.240107,-8.673923,330.773828,-66.338814,304.11
12,7.577716,-2.117286,0.121536,0.040187,9.430607,13.099114,13.940438,13.277138,-8.343967,14.501656,32.797715,44.098366,-19.017528,5.350113,25.900315,42.75721,-25.527031,-4.791206,14.953858,29.66137,-29.471408,-20.950081,-11.131805,-2.33551,-22.820717,-36.3951,-41.505329,-42.426744,-13.68998,-2.222298,1.165663,3.140663,5.931387,18.920401,21.974984,23.667019,20.945864,30.419192,31.355081,32.517767,32.399688,41.450211,40.301333,37.36662,25.023308,48.500233,71.633355,91.371003,50.772023,81.848237,98.755875,111.493081,42.024273,76.41092,96.30748,109.563767,32.691628,64.917756,82.960648,94.976441,23.8182,47.745163,62.221848,73.664956,-13.715865,-15.77623,-11.758698,-10.14537,14.118269,28.424073,34.96217,39.038339,31.254354,44.725317,50.848501,52.898367,43.730938,58.749812,63.081257,62.805554,51.792726,67.518827,70.865823,69.025278,-1.090617,328.641194,-66.211688,304.134839
13,-4.101219,1.822922,0.392212,-0.077941,9.528225,14.432511,16.842156,18.049278,-4.858143,18.941414,37.407555,49.285057,-14.976551,10.249054,31.03244,48.446388,-21.268993,0.331078,20.060028,34.982712,-24.640663,-17.268001,-8.918598,-0.993427,-21.792906,-35.516169,-41.490201,-43.02807,-14.968115,-5.40615,-2.072467,-0.02386,3.920188,16.541564,20.064067,22.108586,18.643684,28.195263,29.841973,31.219724,29.849235,39.134348,39.104745,36.880298,24.969521,48.387337,71.499413,91.287026,50.376252,81.461792,98.398293,111.142708,41.582188,76.035119,95.980866,109.193551,32.269055,64.575119,82.676377,94.658844,23.5108,47.508797,62.006745,73.409157,-13.733662,-15.75626,-11.719462,-10.048385,14.10435,28.526319,35.00022,39.003067,31.237607,44.966255,51.043607,53.005368,43.680648,58.854392,63.190148,62.935884,51.651638,67.370095,70.70989,68.897096,-5.192225,330.444353,-65.819865,304.037135
14,9.843487,-1.790132,0.157883,0.007632,8.195057,9.602383,7.696072,5.117809,-14.315678,8.317348,27.342808,39.442966,-24.710266,-0.418819,20.817226,38.220028,-30.43214,-10.565655,9.751087,24.912403,-33.296928,-27.403336,-18.828667,-10.832817,-20.997314,-34.036568,-39.89667,-42.813685,-13.100745,-2.89192,0.283669,2.030514,6.016108,17.985746,21.101165,22.723188,20.856572,29.676927,30.913046,32.060665,32.39739,41.218326,40.516014,38.147441,24.84169,48.351791,71.449356,91.090256,50.165852,81.28672,98.255425,110.999382,41.349518,75.852036,95.820122,109.075424,32.055508,64.337311,82.554794,94.663857,23.391975,47.428768,62.072685,73.690361,-13.927805,-15.879452,-11.808506,-10.068898,13.83371,28.413131,34.896418,38.857917,31.005352,44.910544,50.967667,52.84851,43.466288,58.787615,63.156556,62.893697,51.422656,67.131158,70.492319,68.716822,4.639355,328.628045,-65.673889,304.018591
15,-3.577492,1.337415,0.373501,-0.435525,8.709423,11.928921,11.850163,11.146214,-10.69701,12.307629,31.066326,43.529125,-21.04826,3.544499,24.809132,42.914807,-26.730652,-6.000423,14.148274,29.742199,-29.161377,-23.57373,-15.4067,-7.11248,-20.536631,-33.786479,-40.362206,-43.710671,-14.5842,-5.280932,-1.609697,0.516357,4.034117,16.420571,20.271116,22.035462,18.691516,28.177355,30.215539,31.382177,29.94853,39.333506,39.771279,37.937107,24.967243,48.391754,71.373974,90.985256,49.761005,80.936771,97.950794,110.783443,40.854572,75.344891,95.372623,108.721401,31.542309,63.738682,82.113956,94.417889,22.949455,46.916691,61.695568,73.554211,-13.747396,-15.490388,-11.302956,-9.520815,14.104448,28.78157,35.215074,39.129359,31.237952,45.410067,51.475353,53.329891,43.618045,59.192685,63.671442,63.527391,51.408416,67.251793,70.785534,69.178109,1.040726,329.93038,-65.321525,303.547986
16,-2.456646,-1.067801,0.114601,0.003371,10.123009,14.661507,14.875649,13.778046,-8.09285,15.316475,33.870117,45.839173,-18.716606,6.356003,27.142639,44.318665,-24.798717,-3.123276,16.678322,31.614121,-27.672054,-21.416427,-13.13277,-4.690601,-20.644471,-33.146966,-38.982207,-41.802546,-12.567184,-1.566706,2.43146,4.301225,5.694253,18.469141,22.068955,23.494982,19.841025,29.937415,31.660894,32.453769,30.463418,40.602786,41.012166,38.881543,24.982121,48.401413,71.325062,90.816296,49.557289,80.8587,97.890873,110.745655,40.588657,75.135716,95.187618,108.598698,31.268143,63.430126,81.954151,94.468769,22.722256,46.636368,61.565563,73.70866,-13.810035,-15.557855,-11.365422,-9.546873,14.004413,28.707495,35.171417,39.100682,31.15338,45.480908,51.426608,53.073775,43.502523,59.260599,63.761784,63.566751,51.188313,67.072248,70.696108,69.189225,-1.446247,328.817578,-65.237251,303.506356
17,1.367707,-0.158179,0.16531,-0.176198,9.988838,14.023864,13.698005,12.264678,-9.625283,13.721649,32.451301,44.590965,-20.193421,4.90924,25.929084,43.19989,-26.124047,-4.412385,15.661674,30.816307,-28.816555,-22.305783,-13.452908,-4.524434,-20.416514,-32.870572,-38.722412,-41.874017,-12.541991,-1.706127,2.40918,4.336496,5.703058,18.236724,22.095297,23.69677,19.982779,29.941478,31.864299,32.702215,30.798289,40.916909,41.401477,39.305569,25.020149,48.501457,71.416122,90.873505,49.406937,80.809204,97.869072,110.777458,40.420166,74.960243,95.050575,108.532814,31.099159,63.140831,81.803444,94.49826,22.592365,46.43652,61.443764,73.757446,-13.848679,-15.49844,-11.206169,-9.404897,13.997064,28.679744,35.100453,39.010588,31.106016,45.592577,51.545934,53.176873,43.40245,59.346974,63.994656,63.921531,50.976632,66.946536,70.726699,69.391358,-0.12763,328.603432,-65.121031,303.274191
18,3.843154,-1.022427,0.022236,0.034345,9.68557,12.803902,10.929314,8.165177,-13.536712,9.385804,27.976456,39.876389,-24.766799,0.363213,21.47802,38.670914,-30.4873,-8.643608,11.415848,26.636742,-32.6716,-25.654975,-15.996276,-6.151039,-20.469026,-32.558831,-37.751423,-40.738438,-11.442969,1.10826,5.688028,7.724656,6.92668,20.156829,24.009894,25.346482,21.022014,31.319068,33.183894,33.799385,31.547187,41.782095,42.179002,40.035188,24.946953,48.450188,71.388325,90.778621,49.548168,80.938923,97.982975,110.866253,40.595844,75.061283,95.1114,108.584141,31.279072,63.270778,81.895557,94.586094,22.768387,46.607757,61.609897,73.978054,-14.032954,-15.687198,-11.326199,-9.583738,13.796203,28.386726,34.86905,38.842343,30.907168,45.342908,51.347777,53.036688,43.2367,59.173926,63.823942,63.738961,50.878178,66.867286,70.667777,69.374711,3.606422,327.524426,-65.207897,303.251957
19,-5.870498,1.528224,0.032444,0.049116,10.86351,16.38929,16.524467,15.032753,-8.171871,15.406654,34.034157,46.317535,-19.361092,6.343071,27.176834,44.569656,-25.183045,-1.971268,17.675537,32.774277,-27.157471,-19.951275,-10.613491,-0.60466,-20.578065,-32.620507,-38.0231,-40.53938,-12.711989,0.174087,5.74243,8.155365,4.922545,19.0234,23.706366,25.232713,18.485999,30.119295,32.815034,33.303566,28.520898,39.549484,40.997988,39.150169,24.908958,48.372345,71.268379,90.696464,49.572052,81.064155,98.211159,111.156875,40.649265,75.119224,95.273392,108.818802,31.366436,63.418098,82.067665,94.733871,22.873066,46.815765,61.790909,74.075867,-14.19201,-15.932791,-11.543807,-9.858675,13.689807,28.103934,34.59725,38.631737,30.808343,45.162473,51.218485,53.05903,43.152275,58.989107,63.644038,63.638518,50.830346,66.735276,70.499137,69.192992,-2.435806,329.003595,-65.347183,303.252018
20,-1.872986,1.215582,-0.166706,0.215905,10.391144,15.975632,16.760376,16.093918,-6.330746,17.662651,36.358864,48.45108,-17.065601,8.925842,29.315895,46.358459,-23.001171,-0.022728,19.361046,34.214195,-25.316734,-19.966084,-13.414021,-6.012508,-20.721006,-33.010066,-38.753484,-42.021007,-12.88662,-0.063455,6.056801,9.051474,4.663008,18.382122,23.363861,25.682984,17.946843,29.073218,31.686446,32.567439,27.873543,37.715929,39.042599,37.592502,24.789448,48.310169,71.201259,90.516781,49.721889,81.191082,98.527416,111.676975,40.886261,75.331409,95.702144,109.443271,31.667495,63.756923,82.502048,95.213894,23.185798,47.296898,62.254886,74.496151,-14.433282,-16.417039,-12.237882,-10.758577,13.352094,27.909086,34.745783,39.115156,30.503419,44.821623,51.084337,53.228176,42.907409,58.543713,63.265557,63.361628,50.738177,66.381779,70.113665,68.901381,-4.558239,330.171648,-65.763336,303.420394
21,-0.300453,-1.415233,-0.277394,-0.301676,10.280216,15.849792,17.113266,16.383087,-6.383698,18.035568,36.652061,49.033218,-16.876145,10.01548,29.92575,46.55484,-22.442551,1.163429,20.316192,34.87635,-24.313385,-18.919659,-12.730877,-5.766426,-20.102081,-31.931286,-37.052742,-40.439493,-11.411501,2.194523,8.958465,12.398359,6.166952,20.634221,26.247543,28.9624,19.338562,31.284068,34.110804,34.963663,29.211254,39.265469,40.425747,39.313782,24.688843,48.080109,70.640397,89.507172,49.631607,80.91005,98.269318,111.572983,40.816945,75.071801,95.584214,109.592492,31.636013,63.462502,82.347817,95.201203,23.106057,47.253903,62.203377,74.482224,-14.508914,-16.601771,-12.647793,-11.766813,13.183046,28.047408,35.42552,40.479964,30.357133,45.003071,52.054301,55.318329,42.721541,58.279224,63.672011,64.780937,50.642217,66.084723,70.205019,69.763763,-5.154642,328.702658,-66.33668,303.064961
22,-1.487892,-3.075862,-0.991184,-0.387002,9.051029,14.885147,15.646431,13.968772,-7.103291,16.431541,35.580345,48.27848,-17.854248,9.048122,29.357528,46.929405,-23.668156,0.257846,19.75486,35.122512,-25.563034,-20.803391,-15.308602,-8.425061,-17.983943,-26.902135,-28.596122,-28.635593,-9.399932,6.513483,15.293255,20.310204,7.595214,23.497699,31.326712,35.487603,20.340116,33.348742,38.200398,40.487905,30.083145,40.819566,43.312146,43.767037,24.679905,47.890309,70.043575,88.430226,49.132084,80.176861,97.400837,110.679142,40.222332,74.209225,94.609944,108.755894,31.197567,62.77105,81.726071,94.859356,22.861347,47.26791,62.173199,74.490704,-14.726436,-16.996332,-13.241129,-12.527924,12.593651,28.279157,36.602396,42.666151,29.896054,45.613658,53.917804,58.58164,42.358461,58.443344,64.973771,67.399772,50.481987,66.074929,70.918113,71.536185,-7.006055,325.554965,-67.691385,302.606128
23,-0.856682,-4.551413,-1.28841,-1.126735,8.445568,13.781936,13.772049,10.560539,-10.473702,12.76506,31.716499,43.963417,-20.917008,5.82304,25.921531,43.641792,-26.483231,-3.620877,15.780899,31.576996,-28.107605,-25.073925,-21.475388,-16.195336,-14.72567,-20.175502,-18.319483,-15.724582,-5.613026,13.028299,23.524881,29.995201,10.049694,27.308181,37.285232,43.495286,21.943206,36.426185,43.446923,47.879972,31.385017,42.852143,46.749705,49.654716,24.801887,47.639957,68.754936,86.32766,47.583927,77.728226,94.38604,107.211479,38.45113,71.784714,91.823181,106.093208,29.437054,60.443275,79.351662,92.739647,21.117954,45.599224,60.315193,72.51963,-15.03993,-17.686195,-14.547817,-13.925842,11.090917,27.767122,37.279144,44.648154,28.381934,45.527121,55.421044,61.884793,41.040596,58.067395,66.145991,70.268684,49.556163,65.547519,71.548103,73.51988,-8.233331,320.940378,-69.350389,301.416219
24,12.678886,-3.391605,-1.18483,-2.782671,0.79382,-1.397644,-7.509647,-14.378094,-20.195492,-11.290558,2.757363,13.150418,-28.983284,-17.458431,-1.927322,14.646893,-33.788944,-24.770759,-10.068775,4.189522,-35.51144,-40.538292,-39.909473,-36.050251,-8.704288,-10.194462,-5.773305,-1.773039,4.865254,14.059668,19.289446,23.686038,17.261933,23.811429,28.587057,32.526511,24.718419,29.954891,32.440073,35.194401,29.447413,34.283693,35.339415,37.685462,24.360764,46.604656,66.135784,82.665756,45.039322,73.685807,89.413857,101.1931,35.637566,67.188504,86.140572,99.444695,26.688938,56.01582,74.094487,86.760681,18.525135,42.061913,55.862812,67.065972,-15.934546,-19.011544,-16.32944,-15.391587,7.936867,25.900556,36.471127,44.901775,25.310753,43.896725,55.320774,63.309634,38.555524,56.495019,65.996333,71.683682,47.938685,64.135731,71.284045,74.588668,4.089958,317.461995,-70.890816,298.54677
25,14.253067,-6.990072,-2.290912,-6.182044,-5.730434,-13.826042,-24.705974,-34.838516,-32.575229,-34.507553,-27.416462,-21.730293,-38.529339,-38.951626,-31.282493,-21.282738,-40.471744,-41.701538,-34.121967,-25.547584,-39.548572,-48.963192,-50.067993,-47.843719,-7.947735,-6.92437,1.177037,8.557384,10.81619,20.585747,25.417285,29.428702,22.937153,29.834477,34.803088,38.918024,30.273423,36.657033,39.938178,43.121782,34.848289,41.036767,42.455261,45.17008,23.363319,44.172077,62.095607,77.433689,44.7766,69.928505,82.522842,90.835075,35.894622,63.822281,78.533031,87.561676,26.727676,52.431392,66.492576,75.235119,17.782688,38.763851,49.57806,57.275859,-16.74234,-20.042887,-17.748291,-16.769683,5.614273,23.940598,34.431005,42.101542,22.996088,42.857367,54.756412,62.65471,36.649092,55.712062,66.012376,72.363381,46.701318,64.065917,72.00329,75.876943,18.021698,310.392549,-73.503055,292.285352
26,16.539345,-3.537125,-5.695828,-11.755179,-14.18898,-29.673225,-46.751232,-60.696888,-47.063438,-60.63208,-60.302113,-59.724953,-49.791985,-63.093155,-62.600739,-58.395618,-48.741829,-61.632099,-60.963615,-57.360008,-45.433445,-60.658676,-64.88641,-65.414303,-7.739847,-4.901007,6.389772,16.486421,13.823842,22.870487,27.28064,31.534774,26.097576,31.691089,36.412785,40.899557,33.559879,38.800303,42.529324,46.42801,38.063028,43.842175,45.700763,48.71874,24.17244,44.675057,61.240563,73.948734,44.900723,67.898689,75.556526,79.729969,35.8438,61.059837,70.113053,74.617584,26.337925,49.598385,58.284439,62.762032,16.989075,36.605267,43.276806,46.914562,-16.673686,-20.862871,-20.249973,-19.930896,0.967444,20.211256,27.8339,32.622792,17.880696,38.857929,47.704861,53.010518,32.070274,51.692814,59.117918,63.319935,43.172998,60.620305,66.099494,68.230562,34.280874,306.813885,-79.479052,280.488634
27,7.930984,-0.519013,-6.460018,-14.223491,-19.289726,-38.814788,-57.584724,-71.8106,-51.064762,-73.667701,-81.10976,-85.792385,-50.040515,-74.35643,-82.52742,-85.667633,-46.091949,-68.497673,-75.912712,-78.922405,-40.44556,-60.736141,-69.301872,-74.037666,-9.304762,-6.810638,4.632813,14.234829,15.475926,22.316006,25.337108,28.618192,27.91646,32.532316,35.534522,39.048911,35.336945,40.803265,43.331499,46.157309,39.107487,45.177787,46.854891,49.221031,23.770466,43.38541,57.881229,68.350925,44.994141,63.269863,66.587105,67.336819,35.524796,54.86404,58.776157,59.830444,25.09877,42.910103,47.080044,48.464596,14.47451,29.488174,32.973587,33.959644,-17.052623,-23.910735,-26.615082,-28.450811,-4.368212,7.064852,11.114679,14.076636,9.97552,22.284649,28.073948,32.318881,22.211253,33.639624,38.69718,42.47407,31.864225,42.208753,45.762638,47.716828,41.952507,306.288595,-86.198421,266.258866
28,12.283951,-1.149175,-8.509792,-19.956634,-26.246475,-51.181938,-73.435249,-89.213642,-57.36898,-90.348221,-104.170017,-113.21093,-53.10942,-88.965637,-104.724186,-114.563656,-46.682213,-78.75341,-93.229786,-102.393013,-39.251953,-64.057743,-75.169143,-82.513561,-11.702395,-9.845733,2.122683,12.075874,17.506193,22.053357,23.615655,25.86579,31.287896,34.066208,35.088437,37.133462,39.333049,43.57571,44.301734,45.414896,42.928541,48.72788,49.175447,49.419584,24.158455,43.171566,55.295562,63.086746,44.42197,58.264789,58.661728,56.93827,34.007538,47.451152,47.814342,45.798534,22.589756,34.590648,35.513992,34.391212,10.691414,20.856914,22.138,21.253452,-14.786828,-24.5428,-31.331554,-36.500878,-15.592881,-12.428277,-11.409198,-9.580638,-5.699946,-2.941079,-0.354515,3.195769,4.124236,6.811256,9.298074,12.462678,13.003204,16.673698,18.504017,20.381082,53.899372,305.146027,-95.045299,246.308839
29,0.029343,-2.331411,-10.883858,-24.831977,-26.622688,-50.136452,-70.468048,-84.938107,-58.038551,-87.716686,-103.763878,-116.085045,-51.942856,-84.650803,-103.699127,-118.788666,-43.491852,-72.798924,-89.906982,-103.119049,-33.802025,-56.68998,-69.563576,-79.983204,-16.84387,-16.432995,-3.244453,8.062208,12.327333,25.894072,32.529845,37.251467,29.642828,42.530127,48.777391,53.591799,42.070988,55.372767,60.995908,64.497243,49.939682,62.427208,65.996926,67.495843,25.164757,42.798054,52.543579,57.805332,42.79953,51.892227,49.457268,45.761982,31.493294,39.417068,36.722568,32.686294,19.107376,25.835026,23.817501,20.931335,5.97139,11.824287,11.428505,9.546043,-13.259049,-26.681884,-37.793883,-46.761605,-28.120391,-34.006644,-37.365724,-37.987804,-22.35376,-29.374554,-31.612685,-30.487945,-15.013742,-21.184461,-22.76655,-21.629811,-7.085903,-10.245814,-11.37429,-10.57264,53.527062,302.916903,-106.33081,221.579149
30,0.579369,-0.372269,-11.206478,-27.850029,-27.28434,-51.285302,-72.390954,-87.719433,-58.563492,-88.693108,-104.546746,-116.850449,-52.30291,-85.293137,-103.959767,-118.893334,-43.734581,-73.485592,-90.499398,-103.656407,-34.08181,-57.095971,-70.074749,-80.656781,-16.63892,-15.57417,-1.46267,10.55049,12.371238,26.188103,33.024009,37.935032,30.02016,42.618294,48.652063,53.167043,42.520655,55.507174,61.018509,64.312474,50.167937,62.820312,66.526522,67.962899,26.753952,43.661327,50.540245,52.262821,37.303528,42.64611,39.455761,36.587723,24.139995,27.901336,25.11224,22.489609,11.075615,14.323288,12.398723,10.765137,-2.144795,0.911407,0.641556,-0.025521,-13.231866,-31.337686,-47.159277,-59.794338,-42.482264,-58.764532,-66.644978,-69.191299,-39.941994,-58.407621,-65.928377,-67.232515,-34.497281,-51.355205,-58.070841,-59.700786,-27.188459,-39.594704,-44.893636,-46.310938,53.706837,302.688552,-117.936882,193.873038
31,0.659019,-0.799841,-9.510132,-28.963821,-27.595413,-51.615303,-72.711742,-88.050259,-58.8265,-89.011803,-104.85379,-117.202412,-52.497643,-85.586517,-104.252758,-119.254017,-43.9086,-73.740818,-90.820026,-104.120281,-34.239647,-57.176994,-70.231373,-81.047848,-16.333194,-15.195467,-1.097811,11.006987,12.676705,26.467672,33.246607,38.048764,30.29537,42.951821,48.937659,53.285629,42.737683,55.885235,61.476735,64.749827,50.344247,63.14796,66.978202,68.534967,26.452492,41.653507,45.701042,45.962551,31.411777,32.183475,30.056889,28.238365,17.024139,15.868778,14.557686,13.462727,3.339981,1.951927,1.748703,1.783871,-10.339542,-11.389435,-10.23016,-8.965656,-13.702731,-36.14677,-55.870303,-71.421076,-55.264012,-82.212726,-92.300137,-95.730576,-55.750575,-85.787889,-95.848835,-98.166229,-52.517002,-79.757035,-88.542637,-91.005738,-46.580052,-67.351971,-74.010406,-75.983011,53.862516,302.131844,-127.950354,165.15235
32,0.5411,-0.937173,-10.780277,-28.341648,-27.814843,-51.762566,-72.774228,-87.931504,-58.906861,-89.055005,-104.944966,-117.421212,-52.549462,-85.611889,-104.328942,-119.453923,-43.967537,-73.844662,-90.977738,-104.415871,-34.281258,-57.116387,-70.167916,-81.144345,-15.999347,-14.786532,-0.71444,11.550439,13.074884,27.024536,33.832643,38.587968,30.609494,43.489666,49.546122,53.842691,42.97699,56.310398,62.037292,65.366738,50.531597,63.504679,67.545169,69.271661,28.033504,42.305294,44.425232,43.739387,27.510601,26.322773,24.90422,23.17329,12.023391,9.983825,10.077072,9.202297,-1.933892,-4.247349,-3.462971,-3.096806,-15.435311,-16.887062,-15.204026,-13.393341,-16.01161,-41.143608,-63.085406,-80.949801,-67.383291,-96.357319,-109.598299,-117.472329,-68.877039,-100.718263,-115.05903,-122.598039,-65.627702,-94.77276,-107.970589,-115.298436,-58.707586,-81.122251,-90.756038,-96.506156,53.860028,302.02334,-139.274219,137.639371
33,0.704704,-0.726099,-8.81567,-30.543958,-27.889984,-51.896324,-72.839733,-87.832066,-58.990288,-89.073944,-105.017029,-117.590801,-52.59185,-85.663731,-104.446987,-119.687954,-44.032746,-73.918694,-91.043862,-104.516556,-34.363655,-57.057861,-70.069084,-81.151051,-15.724248,-14.470171,-0.408862,11.934441,13.381179,27.596828,34.402452,39.049417,30.753533,43.897257,50.043411,54.285652,43.011188,56.535269,62.42485,65.799189,50.520087,63.614954,67.848377,69.741681,28.241523,41.218265,42.051624,40.529617,23.641948,21.63668,20.259739,18.643078,8.255012,5.720352,5.793823,5.208263,-5.645851,-8.356625,-7.601441,-7.173523,-19.138012,-21.062016,-19.57758,-17.813473,-18.53267,-45.537582,-68.549145,-86.647061,-73.458167,-104.237752,-120.581839,-132.435621,-74.28913,-107.775594,-125.779371,-138.297199,-70.772493,-101.520092,-118.39953,-130.066573,-63.561163,-87.871547,-100.614547,-109.889508,53.82094,302.540444,-148.833681,108.338616
34,0.774101,-0.305331,-7.440708,-26.31471,-27.963112,-51.950134,-72.87854,-87.949722,-59.111069,-89.112087,-105.021824,-117.544716,-52.667313,-85.722004,-104.44321,-119.683445,-44.119308,-74.062408,-91.113819,-104.572792,-34.490616,-57.083908,-70.049835,-81.234558,-15.612653,-14.421821,-0.347222,11.906665,13.518092,28.02151,34.799605,39.327146,30.839724,44.071813,50.156575,54.332706,43.014991,56.510655,62.396297,65.783677,50.439416,63.522822,67.890046,69.940999,28.337516,41.394001,41.81314,39.831413,22.573036,20.293144,19.267753,17.727333,7.093906,4.874633,5.136611,4.475727,-6.723553,-9.160069,-8.130558,-7.60643,-20.009285,-21.87386,-20.648632,-19.13609,-20.523861,-48.701969,-72.641641,-91.364168,-76.92205,-108.879092,-127.39181,-142.628156,-77.439197,-112.105674,-132.78359,-149.098043,-73.960494,-106.176548,-125.708407,-140.73038,-66.736937,-92.642661,-107.466953,-119.833467,53.327528,303.478568,-157.541902,83.267361
35,0.786324,-0.147114,-6.686738,-22.292349,-28.046563,-51.966248,-72.889458,-88.089226,-59.139908,-89.146992,-105.094117,-117.631131,-52.666649,-85.758408,-104.450032,-119.660145,-44.156845,-74.162648,-91.128479,-104.457631,-34.631218,-57.23394,-70.166565,-81.282658,-15.583927,-14.32817,-0.192031,11.951656,13.733736,28.364879,35.107542,39.570269,31.058617,44.31091,50.315137,54.42028,43.188967,56.674516,62.447636,65.741662,50.512702,63.584757,67.934197,69.94174,28.364663,41.911332,42.500565,41.483803,23.631695,22.452038,21.901898,20.000554,8.187356,7.071499,7.574868,6.613427,-5.600967,-7.288822,-5.908664,-5.166126,-18.942844,-20.439788,-19.091205,-17.435817,-21.321677,-49.61227,-73.919492,-93.116485,-79.657105,-110.709591,-130.457039,-148.205673,-80.748952,-114.713722,-136.685914,-155.433589,-77.789341,-109.711945,-130.363067,-147.344786,-70.8286,-96.811926,-112.258464,-126.073464,52.442356,304.527155,-165.900136,62.170713
36,0.671653,0.105544,-4.85725,-17.657327,-28.037452,-51.893165,-72.841564,-87.931617,-59.07209,-89.104213,-105.058788,-117.589519,-52.64566,-85.82143,-104.528251,-119.746788,-44.212417,-74.217968,-91.13982,-104.428802,-34.798072,-57.308738,-70.209549,-81.294777,-15.572824,-14.387747,-0.277222,11.964241,13.752088,28.387553,35.122868,39.544865,31.098261,44.390605,50.38447,54.467544,43.215532,56.744084,62.502421,65.775934,50.513294,63.60679,67.953784,69.93964,28.386223,42.604191,43.725323,43.293034,24.951577,24.811364,24.846737,23.12415,9.640011,9.889836,10.565907,9.443379,-4.09964,-4.521984,-3.068241,-2.237365,-17.584888,-18.28997,-16.886009,-15.282222,-22.434956,-50.322028,-74.434626,-93.63893,-81.354006,-111.985385,-132.576208,-151.749498,-82.847841,-116.256284,-139.146513,-159.629579,-80.281358,-111.785449,-133.161101,-151.601121,-73.31924,-99.130838,-114.980767,-130.000907,51.368293,305.697906,-172.503102,45.578593
37,0.676392,0.344938,-2.217853,-17.455304,-27.892662,-51.691681,-72.759201,-87.91523,-59.011482,-89.221001,-105.174442,-117.603252,-52.570839,-86.037083,-104.731064,-119.830914,-44.157555,-74.504539,-91.432629,-104.603668,-34.847031,-57.703217,-70.643829,-81.576382,-15.836054,-14.691844,-0.563695,11.78493,13.610198,28.196868,34.932455,39.375743,31.08591,44.281677,50.224722,54.27692,43.241479,56.623337,62.248268,65.459907,50.549603,63.523649,67.697409,69.543882,27.688865,42.535068,44.032905,43.503238,25.085151,26.115829,26.643963,25.57323,10.110946,10.989658,11.680401,10.816761,-3.435711,-3.122486,-1.675713,-0.749474,-17.052601,-17.640061,-16.205178,-14.651791,-20.569772,-47.774805,-71.872021,-90.403733,-82.352202,-112.998301,-133.00675,-151.279663,-84.246667,-117.895016,-140.340908,-160.21228,-81.828922,-113.321182,-134.062182,-152.095241,-74.685857,-100.232453,-115.876537,-131.024938,50.25428,306.501925,-176.51136,28.58237
38,0.625534,0.359128,-2.350834,-10.256157,-27.850685,-51.509949,-72.713722,-87.843578,-58.894958,-89.296749,-105.291286,-117.696934,-52.513573,-86.265507,-104.951214,-119.934174,-44.186737,-74.855415,-91.740761,-104.734634,-35.083237,-58.216415,-71.147758,-81.850788,-16.058689,-14.962854,-0.91219,11.583093,13.386439,27.826823,34.575216,39.041253,31.012662,44.147395,50.025688,53.985421,43.254891,56.586842,62.017248,65.080846,50.624988,63.615756,67.558137,69.169736,27.880634,43.640613,45.88694,46.21796,27.56591,29.33543,30.187351,29.370964,12.489681,14.385223,15.554031,14.845722,-1.056633,0.425377,2.023235,2.890732,-14.654675,-14.41753,-12.792309,-11.193375,-20.308296,-46.90024,-70.833755,-89.331894,-81.578154,-112.181176,-132.324087,-150.758274,-83.796655,-117.569388,-140.253457,-160.209569,-81.676034,-113.524316,-134.370483,-152.453736,-74.751306,-100.392621,-116.050692,-131.603311,49.23777,306.905525,-180.504238,18.370685
39,0.712853,0.141952,-1.618572,-8.723993,-27.791085,-51.458291,-72.815049,-87.827694,-58.828995,-89.426194,-105.491856,-117.925816,-52.490754,-86.478642,-105.22221,-120.186814,-44.203263,-75.13678,-92.056057,-104.95998,-35.232789,-58.665436,-71.616623,-82.160042,-16.208681,-15.080069,-1.081843,11.550488,13.193234,27.525246,34.314197,38.820495,30.848529,44.049051,50.023934,54.0046,43.176172,56.610888,61.981741,64.966867,50.68969,63.768736,67.533066,68.958488,28.013408,44.350799,47.335991,48.397453,29.464622,32.593917,33.920734,33.621517,14.499538,17.638984,19.444141,19.452552,0.881263,3.683269,5.787391,6.98751,-12.999058,-11.827023,-9.580388,-7.482766,-18.56302,-44.338858,-68.227734,-86.19543,-80.222381,-110.65073,-130.278018,-147.780576,-83.002804,-116.863679,-139.036406,-158.184273,-81.276139,-113.132602,-133.385255,-150.787414,-74.645639,-100.139525,-115.433954,-130.499791,48.802077,307.022543,-183.271356,9.621758
40,0.648353,-0.046239,-1.336979,-6.556059,-27.741623,-51.479095,-72.952972,-87.976948,-58.784752,-89.558327,-105.641315,-118.048942,-52.43573,-86.614059,-105.407787,-120.356438,-44.147461,-75.327404,-92.327145,-105.227211,-35.232696,-58.927231,-71.952072,-82.451088,-16.31462,-15.123541,-1.135405,11.585785,13.004637,27.360706,34.194056,38.724264,30.725671,44.015237,50.082091,54.082172,43.157029,56.641343,61.989781,64.932522,50.814068,63.96262,67.637597,68.970912,28.186168,45.0718,48.936104,50.554321,31.505928,35.851787,37.535442,37.678699,16.787521,21.262081,23.842392,24.699543,3.159015,7.31139,10.060341,11.65971,-11.004021,-8.939942,-6.100354,-3.60894,-16.575015,-41.399366,-65.260831,-82.428847,-78.237062,-108.344421,-127.325207,-143.669182,-81.597205,-115.408217,-136.977735,-155.231996,-80.422866,-112.181214,-131.558759,-148.003382,-74.295138,-99.481501,-114.258887,-128.633861,48.608574,306.943014,-185.450191,3.032409
41,0.519081,-0.088377,-1.687008,-4.588013,-27.788017,-51.619262,-73.212112,-88.397598,-58.705856,-89.725445,-105.828644,-118.198311,-52.279083,-86.745643,-105.568062,-120.45631,-43.994476,-75.533821,-92.573799,-105.429073,-35.182525,-59.255562,-72.345176,-82.737385,-16.535884,-15.160171,-1.072766,11.668963,12.933759,27.384035,34.24789,38.778925,30.765611,44.087361,50.113139,54.031017,43.298722,56.779528,62.013691,64.856186,51.040321,64.20152,67.709993,68.88955,28.513172,45.802688,50.328689,52.436828,33.826629,39.297661,41.582874,42.310398,19.373039,25.037544,28.521915,30.180656,5.824688,11.173084,14.703323,16.748668,-8.449276,-5.446209,-1.925102,0.999332,-14.698778,-38.48114,-62.238277,-78.633123,-76.105919,-105.773818,-124.114154,-139.574993,-80.000042,-113.567498,-134.461649,-151.970536,-79.31733,-110.897028,-129.541879,-145.30801,-73.652742,-98.613123,-112.9068,-126.659959,48.301094,306.830529,-187.96376,-1.579712
42,0.406471,-0.268639,-2.060898,-2.930773,-27.969863,-51.849586,-73.400939,-88.625862,-58.693107,-89.763507,-105.832099,-118.236019,-52.237175,-86.729965,-105.541923,-120.442485,-43.972915,-75.565486,-92.615364,-105.505966,-35.225852,-59.29866,-72.395233,-82.793827,-16.387349,-14.941031,-0.890651,11.750943,13.000931,27.570151,34.422483,38.8541,30.797672,44.270488,50.257388,54.09488,43.350468,57.018774,62.282614,65.115439,51.125376,64.417375,67.916042,69.08457,28.768249,46.393204,51.658024,53.874138,35.897472,42.476223,45.495369,46.866497,21.860813,28.751781,33.145901,35.573696,8.470161,14.964706,19.28801,21.811592,-5.8503,-1.896915,2.275452,5.634785,-13.351477,-36.192837,-59.746161,-75.324666,-73.826446,-102.983144,-120.748781,-135.408181,-78.298312,-111.544067,-131.895765,-148.723052,-78.291217,-109.549368,-127.543877,-142.644443,-73.338476,-97.991463,-111.726558,-124.648922,47.88117,306.559674,-190.851053,-4.512701
43,0.352318,-0.333897,-1.573151,-1.514738,-28.050888,-52.044204,-73.565872,-88.894558,-58.751198,-89.839634,-105.881366,-118.30212,-52.234337,-86.689144,-105.511047,-120.481098,-43.922767,-75.466644,-92.602466,-105.619514,-35.098434,-59.147918,-72.294227,-82.77127,-16.30658,-14.7819,-0.64439,11.911086,13.109711,27.754093,34.620554,39.053628,30.872254,44.423246,50.450296,54.373312,43.429892,57.1979,62.571606,65.515359,51.246889,64.58299,68.161945,69.413971,28.640408,46.583039,52.382172,53.902703,37.041001,44.368321,47.878064,49.703728,23.370747,31.159985,36.064316,38.900929,10.210614,17.506028,22.43026,25.332104,-3.965789,0.579884,5.046444,8.586171,-12.664725,-34.775004,-58.254295,-73.23944,-72.323163,-100.876763,-118.218088,-132.546351,-77.091283,-109.54494,-129.451202,-145.893826,-77.472172,-108.017186,-125.461412,-140.082606,-72.96575,-97.229871,-110.624171,-123.071624,47.530552,306.186673,-193.12714,-6.066543
44,-0.068435,0.014326,-1.305656,-0.880727,-28.065537,-52.037819,-73.602906,-89.247769,-58.654221,-89.939942,-105.973011,-118.359627,-52.051049,-86.726624,-105.549946,-120.424965,-43.730118,-75.465237,-92.641365,-105.665543,-34.922837,-59.19104,-72.397889,-82.837304,-16.395747,-14.841205,-0.644304,11.859698,13.060669,27.714388,34.589839,39.034547,30.939043,44.505276,50.37259,54.183899,43.554739,57.340556,62.623958,65.531995,51.336748,64.650187,68.143864,69.338327,28.404797,46.479904,52.518505,53.180694,37.504898,45.195843,48.906052,50.833877,24.191734,32.361786,37.516468,40.44627,11.263985,18.839767,24.059257,27.107632,-2.776257,2.03603,6.583271,10.125824,-12.3991,-33.965635,-57.398478,-72.051351,-70.94976,-99.069786,-116.086872,-130.213283,-75.86886,-107.767369,-127.3152,-143.473245,-76.537901,-106.613569,-123.6972,-138.035204,-72.441237,-96.519044,-109.751231,-121.977639,46.818003,306.159645,-195.07691,-6.988624
45,-0.377289,0.016228,-0.249516,0.054772,-28.092934,-52.003281,-73.564888,-89.358605,-58.593498,-90.0168,-106.009701,-118.348652,-51.920517,-86.769173,-105.518898,-120.278847,-43.554978,-75.424336,-92.572426,-105.555611,-34.746735,-59.207131,-72.45591,-82.84441,-16.498413,-14.922666,-0.693025,11.839406,13.155246,27.665037,34.542291,38.987716,31.132335,44.614845,50.360771,54.040836,43.764419,57.502058,62.704431,65.531204,51.491643,64.703539,68.041519,69.088658,27.976445,45.492382,50.901959,50.162087,36.130223,43.636162,47.355011,49.17104,22.998585,30.833668,35.766335,38.435795,10.26241,17.582199,22.712666,25.67046,-3.528534,1.168419,5.551506,8.936509,-12.657494,-34.435327,-58.03066,-72.107037,-70.501946,-98.320895,-115.100767,-129.333746,-75.229749,-106.685748,-126.117291,-142.24924,-75.766854,-105.370853,-122.506905,-136.874327,-71.643995,-95.570705,-108.843981,-120.996375,45.936407,306.132472,-195.830733,-6.977253
46,-0.375595,-0.069766,1.464867,0.58143,-28.141342,-52.055901,-73.599404,-89.435211,-58.711853,-90.194767,-106.169358,-118.455002,-51.912094,-86.846112,-105.536293,-120.178723,-43.427971,-75.472195,-92.665684,-105.606102,-34.590798,-59.30587,-72.623223,-82.959011,-16.543688,-14.911279,-0.726827,11.771877,13.211353,27.702211,34.608994,39.054048,31.226974,44.710633,50.429462,54.025386,43.886105,57.587669,62.734739,65.456277,51.618837,64.755434,67.978028,68.898097,26.918266,42.231617,45.578373,43.559772,31.929462,38.312336,41.753391,43.331692,19.21146,25.779476,30.278835,32.757626,6.951153,13.231899,17.90387,20.642097,-6.227177,-2.426205,1.301285,4.217583,-13.595496,-36.318814,-59.650114,-73.24598,-71.059299,-98.778615,-115.58591,-130.217052,-75.180386,-106.308781,-125.890114,-142.466892,-75.111899,-104.478542,-122.042604,-136.799529,-70.419336,-94.211505,-107.830651,-120.395106,45.25022,306.010391,-194.676458,-6.448138
47,-0.458336,-0.24694,3.050835,1.873828,-28.12207,-52.066406,-73.621205,-89.488575,-58.80249,-90.260605,-106.241753,-118.551006,-51.933174,-86.854099,-105.51186,-120.172692,-43.389038,-75.43943,-92.67651,-105.663094,-34.557404,-59.365814,-72.736633,-83.107052,-16.611107,-14.910303,-0.738288,11.746003,13.317082,27.773372,34.727629,39.200236,31.341904,44.776015,50.532227,54.118914,44.015842,57.626016,62.745743,65.402591,51.779005,64.829708,67.960478,68.769137,24.139286,35.064857,35.777057,32.411567,21.075542,26.963688,30.359802,31.87841,10.457977,16.304248,20.761127,23.422405,0.802047,6.668552,10.866954,13.306995,-8.926609,-5.985627,-3.116856,-0.955582,-15.560041,-38.354576,-60.426032,-73.393724,-70.634351,-99.171612,-116.708569,-132.36302,-74.321851,-105.582929,-125.642464,-143.256296,-73.808693,-103.303369,-121.642602,-137.065592,-68.919647,-92.952129,-107.166259,-120.235363,44.719849,305.653411,-191.697658,-4.68435
48,-0.749039,-0.091736,2.233177,1.610402,-28.012047,-51.946129,-73.593052,-89.731979,-58.719406,-90.380104,-106.427719,-118.705227,-51.739471,-86.91592,-105.57233,-120.114635,-43.133125,-75.384041,-92.666405,-105.646454,-34.341591,-59.496734,-72.967003,-83.355594,-16.724692,-14.931917,-0.776042,11.596851,13.318354,27.82292,34.830135,39.40321,31.4081,44.853511,50.567091,54.122717,44.122225,57.682431,62.729502,65.347966,51.859206,64.787408,67.800137,68.553282,15.534496,20.933143,19.831409,16.468826,6.790237,13.684273,17.66114,19.833332,0.445679,7.015217,11.708771,14.778145,-3.908981,1.858795,6.128597,8.603313,-7.269356,-4.953472,-2.537979,-0.772728,-19.145771,-42.911325,-64.138128,-76.685194,-69.796127,-99.031668,-117.044881,-132.934617,-71.482623,-103.636439,-124.202815,-142.328516,-69.583187,-100.27487,-119.422015,-135.227123,-64.174641,-89.169701,-104.040201,-117.582251,43.809637,305.413536,-189.625654,-3.222087
49,-0.437462,-0.445826,2.225578,2.1593,-28.133583,-52.213508,-73.823261,-89.813095,-59.012535,-90.610702,-106.649769,-118.976944,-51.90628,-86.962509,-105.593685,-120.214073,-43.173317,-75.42905,-92.785034,-105.891014,-34.340538,-59.648826,-73.226268,-83.746227,-16.776846,-14.868573,-0.722245,11.634902,13.467802,28.040331,35.064206,39.610222,31.478533,44.934935,50.784824,54.439818,44.151409,57.706847,62.853213,65.564464,51.917178,64.771033,67.787256,68.642573,5.606827,4.786572,1.802204,-0.74041,-6.78796,0.820633,5.35516,8.135605,-7.310062,-0.497085,4.21003,7.447701,-5.529259,-0.329166,3.522606,5.612858,-2.565033,-1.062984,0.502258,1.427559,-21.292801,-45.334812,-66.318417,-78.797848,-66.638494,-98.244578,-117.263952,-133.50163,-66.483642,-101.457532,-123.0265,-141.490309,-63.700743,-97.206751,-117.664255,-133.643576,-58.461282,-85.389068,-101.348833,-115.213233,42.917638,304.775778,-187.854613,-1.254719
50,-0.791908,-0.272393,2.24445,2.322384,-28.134247,-52.310509,-73.959881,-89.923771,-59.120796,-90.742184,-106.738049,-118.976818,-51.951714,-86.991634,-105.574322,-120.040718,-43.178856,-75.456505,-92.805851,-105.887466,-34.351593,-59.844887,-73.488384,-84.104977,-16.897259,-14.921086,-0.733138,11.590342,13.174809,28.058696,35.207516,39.868795,31.191949,44.933638,50.827554,54.526836,43.950782,57.677701,62.855954,65.622928,51.812696,64.676752,67.70078,68.645389,-4.153359,-10.76833,-14.865452,-15.908776,-19.328682,-10.657952,-5.291817,-1.747948,-14.007271,-6.719639,-1.895359,1.382171,-6.056877,-1.296753,2.264545,3.987442,3.12775,4.008854,4.802341,4.943905,-22.415048,-46.303059,-66.953792,-79.5927,-62.057645,-96.305516,-116.367466,-132.493672,-60.40279,-98.516354,-120.968495,-139.297015,-57.029229,-93.683668,-115.156269,-131.000449,-52.229709,-81.356149,-98.206626,-112.269634,41.578531,304.264432,-186.157362,0.828712
51,-0.679115,-0.172914,1.728287,2.950324,-28.128228,-52.327744,-74.061447,-89.986462,-59.310677,-90.87426,-106.873638,-119.085812,-52.183159,-87.05801,-105.582276,-120.003136,-43.428314,-75.560566,-92.794785,-105.747277,-34.614258,-60.14399,-73.774761,-84.389065,-16.985648,-15.039312,-0.857305,11.532347,13.013159,27.879237,35.056191,39.807613,31.02631,44.802444,50.789974,54.587896,43.800803,57.564661,62.706445,65.459661,51.68428,64.551868,67.576613,68.511465,-13.453022,-24.408349,-28.414753,-27.538559,-28.972012,-18.972451,-12.981904,-8.8377,-17.819001,-9.452099,-4.524903,-1.294625,-3.998154,0.800743,4.118671,5.462219,10.917411,11.666496,12.055606,11.64854,-22.59263,-45.772283,-66.658527,-79.357128,-56.112841,-92.829111,-113.914196,-129.800148,-53.303271,-94.488437,-117.912789,-135.924955,-49.799497,-89.342516,-111.748406,-127.330807,-45.977795,-77.193233,-94.721168,-108.647102,40.243876,303.831388,-185.084615,3.518906
52,-0.679276,-0.036556,1.469181,2.553632,-28.077781,-52.339165,-74.189918,-90.066089,-59.393211,-91.055809,-107.101867,-119.220394,-52.207283,-87.152057,-105.688797,-119.970863,-43.398376,-75.622616,-92.825683,-105.623783,-34.566147,-60.337372,-74.007717,-84.594372,-17.145483,-15.191552,-1.004679,11.520589,12.78546,27.719303,34.959947,39.833956,30.834006,44.737531,50.778698,54.611818,43.649242,57.535366,62.629417,65.344163,51.539759,64.500813,67.53508,68.468165,-20.815762,-34.181935,-37.824109,-34.591347,-31.872277,-21.501126,-15.098168,-10.390892,-16.910122,-8.195229,-3.464871,-0.472447,0.49364,4.650112,7.86692,9.038189,18.315651,19.006267,19.303665,18.593227,-21.657394,-44.921387,-67.014486,-80.371039,-51.34367,-89.592141,-111.1814,-126.476345,-47.19676,-90.869726,-115.200617,-132.601448,-43.18875,-85.263839,-108.551321,-123.921381,-39.698944,-72.85702,-91.046931,-104.974039,38.7919,303.567844,-184.388134,5.84555
53,-0.244629,0.114424,2.388919,3.104243,-28.149261,-52.475738,-74.356373,-89.93407,-59.685287,-91.188057,-107.24802,-119.374454,-52.55738,-87.332794,-105.873539,-120.186618,-43.79187,-75.913776,-93.072681,-105.758835,-34.990631,-60.636429,-74.217601,-84.71656,-17.269973,-15.481471,-1.3552,11.344205,12.461183,27.345577,34.603844,39.480002,30.542112,44.354629,50.515418,54.461949,43.385963,57.152315,62.252615,64.970622,51.341355,64.272731,67.323164,68.260288,-22.102878,-36.279178,-40.105785,-35.800449,-30.508987,-21.19432,-15.022064,-10.456455,-14.065544,-6.415832,-2.067157,0.638455,4.053063,7.352772,10.022129,10.843575,21.699006,22.21843,22.102559,20.882618,-19.05635,-41.356388,-63.973081,-77.943587,-47.319804,-87.042214,-109.374948,-124.962821,-43.501541,-88.864123,-114.073494,-131.421867,-39.97216,-83.447728,-107.547519,-123.014484,-37.073879,-71.426949,-90.180666,-104.063048,37.871349,303.511411,-182.675137,8.778936
54,-0.599464,0.442911,2.269387,2.404691,-27.839081,-52.053131,-73.969906,-89.498188,-59.657272,-91.228375,-107.266628,-119.17432,-52.560722,-87.470043,-105.983906,-120.049736,-43.797066,-75.973572,-93.01466,-105.425675,-34.961334,-60.606285,-74.057247,-84.384235,-17.246223,-15.624954,-1.601658,11.108257,12.23325,27.150285,34.417358,39.307644,30.383327,44.190793,50.352619,54.279291,43.235613,56.962532,61.951212,64.519955,51.101269,64.056271,67.128922,67.986524,-21.754738,-36.092194,-39.963799,-34.824063,-29.218895,-20.515766,-14.432431,-9.626072,-12.844403,-5.558453,-1.2197,1.648475,5.142814,8.305275,11.137653,12.219658,22.592594,23.185409,23.15966,22.019497,-17.708617,-39.825114,-62.396754,-76.345635,-45.601377,-85.088054,-107.670933,-123.453425,-42.004378,-86.97159,-112.494752,-129.902891,-38.519105,-81.605381,-105.857768,-121.559787,-35.444854,-69.929921,-88.552969,-102.367759,37.007183,303.825801,-180.670452,11.055106
55,0.187157,0.443689,1.525531,1.500819,-27.911568,-52.081398,-74.045083,-89.271996,-59.969078,-91.400013,-107.46579,-119.430737,-52.921395,-87.714673,-106.232312,-120.409001,-44.171128,-76.249833,-93.209576,-105.469586,-35.346154,-60.798432,-74.111275,-84.256657,-17.124266,-15.746071,-1.881177,11.041752,12.272091,26.899047,34.07405,38.896201,30.414214,43.894428,50.122797,54.112318,43.24117,56.744899,61.659577,64.114094,51.130712,64.113131,67.120376,67.803434,-21.264553,-35.63158,-39.699771,-34.075515,-27.767818,-19.578231,-13.621593,-8.557468,-11.556827,-4.371116,0.212243,3.548253,6.229855,9.453186,12.624447,14.125786,23.568604,24.239537,24.430172,23.477383,-16.855251,-38.724696,-61.137898,-75.232707,-44.652026,-83.728588,-106.547045,-122.729043,-41.125867,-85.519634,-111.416114,-129.154853,-37.541268,-80.098238,-104.67489,-120.770604,-34.149534,-68.608821,-87.225631,-101.070716,37.094542,304.206063,-179.244719,12.492498
56,0.041679,0.51406,0.656846,0.497529,-27.84169,-51.925667,-73.925446,-88.978798,-60.167038,-91.506477,-107.474682,-119.386219,-53.10656,-87.890888,-106.37653,-120.555336,-44.296532,-76.35474,-93.253532,-105.506916,-35.366867,-60.733154,-73.959606,-84.097435,-17.090934,-15.933163,-2.219261,10.842359,12.297335,26.785056,33.885958,38.650719,30.442026,43.729011,49.949933,53.993683,43.239441,56.61421,61.521565,64.000634,51.097762,64.061655,67.064059,67.74839,-20.655774,-34.843655,-38.970829,-33.316876,-26.886132,-18.602108,-12.399903,-6.852208,-11.025204,-3.62724,1.321437,5.141922,6.584987,10.170433,13.808441,15.76292,23.95198,24.865905,25.242679,24.441055,-16.096424,-37.903607,-60.159981,-74.562283,-44.395243,-83.103297,-106.090092,-122.657826,-40.953071,-84.850624,-110.893236,-128.818257,-37.194385,-79.367545,-104.10862,-120.499334,-33.398587,-67.945769,-86.565186,-100.47546,37.188171,304.69039,-178.535923,12.960294
57,0.300018,0.381395,-0.330277,-0.234652,-27.924179,-51.963661,-73.965854,-88.962467,-60.334442,-91.601543,-107.485325,-119.376571,-53.303123,-88.030987,-106.451534,-120.670566,-44.462608,-76.470829,-93.346298,-105.641521,-35.471397,-60.656502,-73.846653,-84.041794,-16.894938,-15.853838,-2.223966,10.860218,12.530505,26.791985,33.755467,38.393158,30.682261,43.697469,49.895308,53.988138,43.420506,56.612518,61.500286,63.967054,51.222312,64.128099,67.169406,67.884019,-20.243488,-33.993507,-37.919128,-32.492878,-26.304394,-17.57983,-11.182194,-5.329685,-10.546028,-2.587921,2.641434,6.762932,6.963215,11.124275,15.164154,17.500031,24.277565,25.47591,25.989887,25.417042,-15.646758,-37.592255,-59.68307,-73.916453,-44.444013,-82.715356,-105.660512,-122.386661,-40.91854,-84.426583,-110.403253,-128.32082,-37.033568,-78.865699,-103.572126,-120.047234,-32.981358,-67.441163,-85.891266,-99.730552,37.681772,305.075126,-178.672617,12.728983
58,0.13662,0.260834,-0.353142,-0.582115,-27.958374,-51.986069,-73.973694,-89.026497,-60.452202,-91.710262,-107.515778,-119.413033,-53.352699,-88.077072,-106.492848,-120.741646,-44.386734,-76.42305,-93.317551,-105.7095,-35.271103,-60.407547,-73.624203,-83.909764,-16.784442,-15.701994,-2.068948,10.938319,12.76749,27.048557,33.978868,38.559773,30.926915,43.983287,50.078892,54.040984,43.644635,56.969102,61.815781,64.201211,51.367117,64.417461,67.472822,68.124746,-20.04554,-33.771755,-37.640831,-32.160701,-26.186176,-17.263229,-10.624191,-4.403675,-10.347255,-2.114216,3.306198,7.701165,7.201744,11.665787,15.886128,18.496891,24.563931,25.862732,26.427967,26.041043,-15.150976,-37.438083,-59.593834,-73.643819,-44.148358,-82.270055,-105.227901,-122.006569,-40.566488,-83.913604,-109.834494,-127.70473,-36.647572,-78.35398,-103.090787,-119.595493,-32.544424,-67.036154,-85.317808,-99.050273,38.119372,305.372751,-178.724779,12.183659
59,0.474678,0.017314,-0.295864,-0.564781,-28.269859,-52.381188,-74.392056,-89.526924,-60.678955,-91.800087,-107.618626,-119.697098,-53.590553,-88.135632,-106.562748,-120.986927,-44.603027,-76.523712,-93.468075,-105.992638,-35.445854,-60.4235,-73.694939,-84.075737,-16.738091,-15.580617,-1.921265,11.079062,13.014604,27.160252,34.073199,38.674852,31.191035,44.18967,50.221561,54.152642,43.922525,57.270766,62.113023,64.501813,51.679587,64.78137,67.835384,68.445676,-19.940689,-33.558815,-37.386715,-32.264946,-26.108173,-17.028408,-10.291763,-3.973514,-10.169231,-1.711189,3.7538,8.193226,7.383099,12.120335,16.326885,18.972691,24.741017,26.179985,26.701836,26.306992,-14.980922,-37.435669,-59.56249,-73.514459,-43.896577,-82.026827,-104.954008,-121.732935,-40.128499,-83.420738,-109.293289,-127.212617,-36.069793,-77.825761,-102.637274,-119.234476,-31.92865,-66.515247,-84.804101,-98.570164,38.903029,305.477583,-178.711664,11.706396
60,0.191986,-0.113756,-0.103741,-0.468112,-28.33786,-52.536575,-74.505947,-89.863575,-60.6912,-91.892132,-107.712044,-119.848229,-53.539764,-88.127792,-106.61768,-121.103886,-44.45501,-76.445789,-93.523132,-106.261746,-35.169411,-60.10508,-73.470646,-84.015747,-16.748997,-15.413879,-1.63178,11.205909,13.230705,27.550008,34.475082,39.034473,31.426205,44.582834,50.563695,54.433852,44.097784,57.619247,62.57499,65.081106,51.720811,64.889049,68.110927,68.901394,-20.005622,-33.555667,-37.239669,-32.206752,-26.161937,-16.915237,-10.119964,-3.784103,-9.975185,-1.339015,4.096138,8.527829,7.647973,12.593651,16.678666,19.251229,24.975071,26.529545,26.954796,26.493519,-14.94032,-37.562967,-59.730685,-73.543468,-43.701408,-81.91118,-104.782051,-121.549616,-39.781153,-83.192909,-109.007187,-126.898313,-35.643467,-77.582989,-102.410884,-119.012211,-31.524011,-66.198893,-84.496719,-98.271902,39.348742,305.478498,-178.561678,11.352955
61,0.285301,-0.242902,-0.202182,-0.138481,-28.599655,-52.96669,-74.96014,-90.712578,-60.628853,-91.901642,-107.814995,-120.106693,-53.470047,-88.125149,-106.753624,-121.394485,-44.393761,-76.378326,-93.67543,-106.628082,-35.129219,-59.937881,-73.417076,-84.09169,-16.789245,-15.209126,-1.163019,11.473993,13.240734,27.731863,34.764408,39.409311,31.490858,44.847941,50.802151,54.640779,44.218581,57.933842,62.988212,65.584804,51.833617,65.10814,68.501523,69.449207,-20.121643,-33.52771,-37.032715,-32.019551,-25.890976,-16.458172,-9.666973,-3.398415,-9.56234,-0.699498,4.715286,9.141929,8.027034,13.204445,17.25468,19.805877,25.229725,26.989528,27.38919,26.934047,-15.176041,-37.799119,-59.966208,-73.761028,-43.6857,-81.89904,-104.676544,-121.364988,-39.670941,-83.088637,-108.881964,-126.769125,-35.475,-77.432812,-102.255385,-118.831449,-31.355748,-66.021138,-84.359893,-98.151496,39.83139,305.362938,-178.566513,11.341816
62,0.201645,-0.224018,-0.157585,-0.160724,-28.726364,-53.251396,-75.243896,-91.195953,-60.712509,-91.974358,-107.956913,-120.370502,-53.537338,-88.103531,-106.825996,-121.567303,-44.474144,-76.294979,-93.706066,-106.802422,-35.179871,-59.801468,-73.296215,-84.08012,-16.868335,-15.14351,-0.874768,11.671656,13.200818,27.908914,35.047706,39.793855,31.481027,45.013074,50.971409,54.807628,44.252247,58.13721,63.302892,65.996815,51.839891,65.188403,68.76479,69.895156,-20.280968,-33.594876,-36.90849,-31.684067,-25.540444,-16.022404,-9.305489,-3.168915,-9.127293,-0.192376,5.157154,9.499626,8.43172,13.714656,17.690517,20.151271,25.486953,27.394397,27.846656,27.448551,-15.287543,-37.864538,-60.071925,-73.873642,-43.570609,-81.875631,-104.621574,-121.188154,-39.592524,-83.023861,-108.764842,-126.582262,-35.454116,-77.411033,-102.090937,-118.543186,-31.340366,-66.068026,-84.385285,-98.128784,40.131884,305.264514,-178.625249,11.306686
63,0.130348,-0.191315,-0.26817,-0.085006,-28.742317,-53.41008,-75.437084,-91.542057,-60.670143,-92.032413,-108.093052,-120.530891,-53.477211,-88.083572,-106.873443,-121.654518,-44.422302,-76.196548,-93.689037,-106.895061,-35.093261,-59.615753,-73.117275,-83.9809,-16.904262,-15.080204,-0.661001,11.915619,13.197088,28.030599,35.182285,39.92957,31.462662,45.103748,51.129156,55.041131,44.192547,58.17762,63.486611,66.328464,51.678673,65.044821,68.861775,70.27844,-20.256283,-33.429325,-36.588604,-31.253208,-25.149101,-15.530182,-8.837139,-2.777435,-8.786281,0.278206,5.632233,9.923481,8.734039,14.152542,18.159119,20.600796,25.697136,27.832134,28.423233,28.140164,-15.397656,-37.898185,-60.13662,-74.074386,-43.569213,-81.921042,-104.643458,-121.111787,-39.624263,-83.015284,-108.702893,-126.453407,-35.490289,-77.419752,-101.980046,-118.351741,-31.30941,-66.027017,-84.325473,-98.071047,40.357321,305.193096,-178.79833,11.341577
64,-0.010528,-0.064504,-0.238518,-0.01674,-28.696999,-53.42537,-75.500862,-91.757801,-60.633545,-92.074482,-108.177418,-120.619595,-53.444985,-88.093174,-106.929451,-121.751473,-44.407975,-76.116783,-93.672158,-106.990013,-35.06472,-59.497536,-72.981903,-83.918152,-16.936693,-15.070954,-0.53587,12.021224,13.024322,27.984187,35.181828,40.013538,31.278214,44.987719,51.101565,55.154196,44.023437,58.072804,63.520166,66.552939,51.499053,64.880404,68.873198,70.523293,-20.187126,-33.244251,-36.304939,-30.693855,-24.843692,-15.021778,-8.243293,-2.110519,-8.683834,0.606022,6.10825,10.472466,8.758656,14.37727,18.581475,21.132409,25.700901,28.138733,28.926762,28.74654,-15.557257,-38.081183,-60.372649,-74.279478,-43.794955,-82.011198,-104.749725,-121.196243,-39.868814,-83.079554,-108.790678,-126.534523,-35.681179,-77.418029,-101.958285,-118.381622,-31.369617,-65.92918,-84.299088,-98.154083,40.420412,305.228063,-178.963229,11.424308
65,-0.138222,-0.096282,-0.307914,0.048215,-28.638588,-53.396393,-75.450474,-91.884842,-60.555473,-91.992622,-108.141895,-120.552166,-53.387695,-88.025173,-106.911839,-121.729065,-44.388657,-76.006428,-93.647564,-107.00227,-35.027275,-59.311386,-72.823986,-83.866379,-16.898531,-14.98475,-0.342764,12.102068,12.916396,27.969837,35.249853,40.2021,31.149428,44.91173,51.114966,55.273906,43.940976,57.996975,63.5277,66.642107,51.470401,64.867215,69.030625,70.847273,-20.061344,-32.823452,-35.783444,-30.374268,-24.586533,-14.467141,-7.500698,-1.176453,-8.713486,0.893451,6.632229,11.147117,8.641628,14.579006,19.099468,21.869877,25.656006,28.446579,29.45787,29.406761,-15.751462,-38.160069,-60.295542,-74.220142,-44.028304,-82.057264,-104.832761,-121.300163,-40.097155,-83.071564,-108.774129,-126.542008,-35.85894,-77.416399,-101.934221,-118.442212,-31.437351,-65.900627,-84.310289,-98.275577,40.352749,305.226861,-179.200584,11.567603
66,-0.085396,0.011585,-0.140156,-0.192791,-28.466995,-53.178566,-75.154198,-91.577007,-60.569275,-91.911815,-108.041965,-120.411484,-53.433792,-87.912632,-106.772804,-121.560814,-44.452286,-75.910721,-93.535709,-106.854435,-35.053505,-59.219101,-72.707336,-83.790081,-16.790505,-14.893076,-0.278803,12.010751,12.883532,27.987448,35.275997,40.266048,31.079093,44.76559,51.045027,55.314981,43.863553,57.791939,63.404063,66.611392,51.43398,64.771477,69.024647,70.947617,-19.888802,-32.480209,-35.425163,-30.125404,-24.528511,-14.230946,-7.107147,-0.585869,-8.884609,0.92189,6.866146,11.537613,8.447342,14.612446,19.362636,22.296684,25.579021,28.620735,29.794533,29.798515,-15.821685,-38.232669,-60.258362,-74.000404,-44.025506,-81.980385,-104.801089,-121.28806,-40.056727,-82.883058,-108.594053,-126.320144,-35.76106,-77.251137,-101.833574,-118.42013,-31.27036,-65.682648,-84.07368,-98.065138,40.345081,305.33465,-179.263012,11.471016
67,-0.15921,0.092897,-0.194344,-0.109947,-28.326599,-52.957054,-74.894096,-91.342243,-60.462799,-91.822884,-108.000206,-120.329773,-53.320381,-87.843567,-106.736023,-121.523792,-44.313446,-75.789848,-93.445564,-106.776123,-34.86834,-59.091042,-72.613358,-83.713566,-16.800681,-14.889963,-0.321559,11.915965,12.802367,27.911989,35.234649,40.285524,30.984628,44.608498,50.966505,55.366506,43.792528,57.62604,63.296272,66.611985,51.402315,64.686619,68.988215,70.978591,-19.71167,-32.196739,-35.177215,-30.044964,-24.258087,-13.92033,-6.650928,0.086953,-8.792164,1.065251,7.16185,12.027775,8.460629,14.733548,19.658581,22.750798,25.662175,28.856346,30.082924,30.060746,-15.903565,-38.385532,-60.399603,-74.14246,-44.061253,-81.912292,-104.778599,-121.34981,-39.992123,-82.599185,-108.379272,-126.140308,-35.561488,-76.903339,-101.685972,-118.447034,-30.962669,-65.208935,-83.631312,-97.661722,40.26796,305.511948,-179.375267,11.44547
68,-0.063835,0.161749,0.021916,-0.182256,-28.269699,-52.843094,-74.763142,-91.233799,-60.398323,-91.689961,-107.897701,-120.22601,-53.291725,-87.767189,-106.681664,-121.465691,-44.322418,-75.757027,-93.47247,-106.80922,-34.925812,-59.166619,-72.760288,-83.901055,-16.840943,-14.915207,-0.369243,11.801331,12.688252,27.763393,35.097255,40.207855,30.876281,44.367066,50.712983,55.182552,43.742905,57.420992,63.079355,66.435799,51.466659,64.644469,68.903049,70.882359,-19.723137,-32.194142,-35.293465,-30.234993,-24.401963,-13.81231,-6.366017,0.480331,-9.022408,1.098324,7.40419,12.368179,8.220886,14.74768,19.872333,23.052154,25.47417,28.872482,30.205925,30.151977,-15.877692,-38.302676,-60.180915,-73.928291,-44.095611,-81.835419,-104.756833,-121.378988,-39.897479,-82.353752,-108.1777,-125.959516,-35.358922,-76.57003,-101.415549,-118.266612,-30.702534,-64.892533,-83.340314,-97.415147,40.274655,305.739838,-179.282821,11.329355
69,-0.128975,0.089143,0.264759,0.022094,-28.26622,-52.792282,-74.681248,-91.267365,-60.11293,-91.460987,-107.749798,-120.118355,-53.035378,-87.581898,-106.607128,-121.469055,-44.109718,-75.558701,-93.368202,-106.78775,-34.754562,-59.021668,-72.70015,-83.954716,-16.734695,-14.74012,-0.250484,11.696491,12.665565,27.706125,35.030725,40.130049,30.788657,44.235253,50.578602,55.052036,43.672003,57.332886,63.027793,66.419114,51.452098,64.629426,68.92476,70.975887,-19.811119,-32.235226,-35.426686,-30.577664,-24.461151,-13.968064,-6.464676,0.456653,-9.054508,1.017803,7.351993,12.403335,8.203983,14.750313,19.887359,23.086544,25.497539,28.926304,30.258167,30.148395,-15.963278,-38.251138,-59.986357,-73.717679,-43.72509,-81.52148,-104.499827,-121.171049,-39.529996,-82.095444,-108.030753,-125.852724,-35.027779,-76.34845,-101.312783,-118.196816,-30.497886,-64.722595,-83.210199,-97.289207,40.236614,305.867927,-178.927128,11.390395
70,-0.320847,0.577663,0.254574,0.081541,-28.122139,-52.546211,-74.531833,-91.165512,-59.782219,-91.194362,-107.493862,-119.884288,-52.779579,-87.441204,-106.478691,-121.365738,-43.951721,-75.472435,-93.242832,-106.687763,-34.709106,-59.107841,-72.77021,-83.997963,-16.85559,-14.993433,-0.688431,11.214245,12.417612,27.262202,34.485098,39.500133,30.583781,43.86338,50.061232,54.469334,43.516491,57.013846,62.56443,65.89915,51.356706,64.438308,68.592234,70.584302,-19.872391,-32.388108,-35.603497,-30.439431,-24.290955,-13.978455,-6.44323,0.568931,-8.804581,1.116279,7.440559,12.570442,8.418766,14.96252,20.049007,23.256408,25.652195,29.14183,30.508014,30.430732,-15.828532,-38.171758,-60.04184,-73.840074,-43.429126,-81.283216,-104.315354,-120.988996,-39.29007,-81.844082,-107.873536,-125.7548,-34.787736,-76.09657,-101.203392,-118.186534,-30.289052,-64.482565,-82.997543,-97.097218,40.045372,306.461521,-178.542949,11.487867
71,-0.172645,0.644921,0.410911,0.490329,-28.049538,-52.438271,-74.525608,-91.189179,-59.63514,-91.171086,-107.574269,-120.024697,-52.648705,-87.457043,-106.55698,-121.412201,-43.852364,-75.49498,-93.285462,-106.678276,-34.656967,-59.165543,-72.829651,-83.936405,-17.01009,-15.294317,-1.220991,10.693862,12.275451,26.840224,33.925726,38.866957,30.490921,43.574561,49.548234,53.770147,43.471142,56.929323,62.258346,65.403665,51.340824,64.463849,68.478243,70.320085,-19.824795,-32.411785,-35.588653,-30.331661,-24.267151,-13.924827,-6.282944,0.782421,-8.744568,1.222779,7.618733,12.800869,8.456921,15.119774,20.266846,23.512814,25.670506,29.289356,30.711834,30.671231,-15.72405,-38.019111,-59.96346,-74.086853,-43.257503,-81.158134,-104.225611,-120.921484,-39.074468,-81.728485,-107.824364,-125.759734,-34.512601,-75.932357,-101.131064,-118.186879,-29.993447,-64.268982,-82.900453,-97.1064,40.056605,307.111246,-177.94816,11.983
72,-0.208626,0.761864,0.890145,1.094076,-27.73716,-52.028938,-74.322029,-91.27684,-59.29525,-91.021008,-107.546494,-120.11467,-52.368301,-87.472652,-106.61879,-121.381874,-43.69899,-75.640926,-93.486935,-106.798164,-34.684937,-59.463501,-73.233639,-84.254025,-17.202701,-15.728287,-2.037776,9.700879,12.192347,26.353755,33.222673,38.012023,30.516572,43.27832,48.822445,52.637348,43.558284,56.930805,61.864935,64.660512,51.45652,64.625549,68.302255,69.779744,-19.767392,-32.234631,-35.380063,-30.53127,-24.456425,-13.855134,-6.120152,0.881973,-9.023186,1.264171,7.853153,13.132736,8.119606,15.113445,20.401325,23.696765,25.339016,29.243442,30.81031,30.844207,-15.701623,-37.858091,-59.770836,-74.243447,-43.153584,-81.162037,-104.220839,-120.941047,-38.971889,-81.875137,-108.057682,-126.132738,-34.322003,-76.041502,-101.290276,-118.458922,-29.804528,-64.173807,-82.954701,-97.313185,40.064821,307.885013,-176.841173,13.088979
73,0.385666,0.863777,0.721984,1.779832,-27.616699,-51.904267,-74.413548,-91.507439,-59.135307,-91.115616,-107.790379,-120.57787,-52.303047,-87.609295,-106.787613,-121.557736,-43.76326,-75.872234,-93.755905,-107.034874,-34.932152,-59.819573,-73.636562,-84.655335,-17.460101,-16.354028,-3.158051,8.445505,11.795614,25.602722,32.235247,36.855684,30.189382,42.610391,47.813937,51.299637,43.277554,56.51147,61.292965,63.958076,51.220411,64.44031,67.980449,69.333487,-19.260189,-31.156654,-33.867965,-29.238773,-24.178905,-12.724205,-4.661121,2.53505,-8.790664,2.414223,9.398117,14.902234,8.267647,16.074326,21.571965,24.977898,25.447495,29.955998,31.761578,31.987793,-16.670747,-39.106017,-60.888197,-75.121859,-43.656411,-81.468671,-104.242087,-120.829402,-38.990878,-81.890346,-108.006664,-126.264309,-33.959466,-75.803268,-101.086604,-118.404859,-29.356381,-63.763982,-82.650815,-97.192722,40.828863,308.769498,-175.740813,14.889519
74,0.465568,0.705585,1.110821,2.61739,-27.337532,-51.556984,-74.278633,-91.553112,-58.987953,-91.043678,-107.875934,-120.864807,-52.262626,-87.744712,-106.951572,-121.665538,-43.875686,-76.237266,-94.186603,-107.409828,-35.226928,-60.28862,-74.234905,-85.235447,-17.78565,-17.071099,-4.412462,7.121045,11.593578,25.011572,31.362504,35.754872,30.132448,42.11803,46.814717,49.851874,43.232526,56.245524,60.616119,62.927066,51.097799,64.357638,67.60986,68.621492,-18.461929,-29.37838,-31.42202,-27.434543,-24.324028,-11.093525,-2.132767,5.532681,-9.336399,3.797905,11.718167,17.742703,7.584664,17.017868,23.289562,27.267952,24.833965,30.493504,33.000172,33.941036,-17.90933,-40.735827,-62.320023,-76.581274,-44.946019,-82.083328,-104.170988,-120.299176,-39.396837,-81.859415,-107.42931,-125.586568,-33.659545,-75.207192,-100.131195,-117.418693,-28.676286,-62.784021,-81.554658,-96.228545,42.015712,309.682549,-173.908711,17.714375
75,1.229691,0.217288,1.748841,3.552699,-27.243874,-51.635422,-74.590096,-91.973877,-58.943436,-91.336773,-108.485035,-121.811737,-52.266335,-88.015125,-107.368103,-122.165554,-43.98793,-76.600342,-94.810352,-108.205673,-35.516762,-60.826378,-74.996658,-86.183121,-18.065688,-17.7723,-5.628909,5.81306,11.266239,24.365317,30.432566,34.652639,29.876837,41.363451,45.668196,48.406728,43.010705,55.807577,60.036467,62.275043,50.8794,64.08207,67.208592,68.154164,-17.320679,-26.876336,-27.986607,-24.630925,-24.35495,-9.065026,1.308803,9.639781,-9.923378,5.421707,14.618282,21.181835,6.757965,18.233631,25.655696,30.28807,24.137432,31.175994,34.661991,36.40995,-19.651803,-43.033603,-64.343275,-78.485472,-46.007843,-82.258848,-103.475524,-118.80013,-39.189973,-81.09242,-105.935568,-123.793608,-32.563555,-73.522795,-98.012848,-115.37841,-27.239046,-60.771113,-79.332095,-94.119305,44.381058,310.138425,-171.024215,21.505662
76,0.934181,-0.020329,2.59386,4.372793,-26.92868,-51.340759,-74.469887,-92.013599,-58.471664,-91.264023,-108.611526,-122.103824,-51.951118,-88.116108,-107.529774,-122.370083,-43.9132,-76.968086,-95.370483,-108.98735,-35.70964,-61.271438,-75.694633,-87.218651,-18.340922,-18.507055,-7.034273,4.20445,10.875125,23.743256,29.505027,33.412852,29.527417,40.56287,44.387814,46.75882,42.597361,54.987717,58.961986,61.085151,50.334527,63.263285,66.240939,67.201949,-16.219265,-24.238724,-24.365398,-21.117073,-23.891361,-6.888782,5.226643,14.428391,-10.211391,7.297302,18.133827,25.391499,6.003594,19.636906,28.468643,33.916523,23.23193,31.817654,36.467262,39.099014,-21.599818,-45.646485,-66.450748,-80.01819,-46.375683,-81.33931,-101.511971,-115.840549,-38.355817,-79.02722,-103.023208,-120.437015,-30.75599,-70.420978,-94.289976,-111.658465,-24.849681,-57.265245,-75.36471,-89.906673,47.092575,310.364814,-166.653019,26.125173
77,1.206345,-0.323522,3.364174,4.65529,-26.761894,-51.308281,-74.572747,-92.06527,-58.221039,-91.31234,-108.796108,-122.474419,-51.875176,-88.209996,-107.705933,-122.769516,-44.048722,-77.269993,-95.83841,-109.708374,-36.093888,-61.732109,-76.275627,-88.049229,-18.552504,-19.230437,-8.334713,2.768703,10.282592,22.959741,28.461654,32.09979,28.948173,39.666068,43.230018,45.421775,41.961825,53.978122,57.932186,60.103602,49.627657,62.257197,65.174756,66.211175,-14.622105,-20.684566,-19.683598,-16.19696,-22.594048,-3.824833,9.877419,20.008564,-10.157009,9.777569,22.624786,31.101528,5.117924,21.448254,32.302506,39.071205,21.652233,32.505672,38.725777,42.329453,-23.879595,-48.487504,-68.054289,-80.60595,-46.506137,-78.584235,-96.889311,-109.728815,-36.643053,-74.143806,-96.638963,-113.43355,-27.560253,-64.203373,-86.717166,-103.845538,-20.600907,-50.553315,-67.579342,-81.704403,50.407545,310.162199,-161.18022,30.90137
78,0.529289,-0.745735,4.057686,3.922151,-26.358124,-50.862556,-74.156696,-91.675117,-57.977554,-91.188698,-108.718174,-122.454529,-51.800835,-88.251617,-107.782825,-122.95443,-44.150871,-77.548885,-96.237671,-110.303558,-36.287201,-62.096832,-76.801094,-88.816601,-18.72932,-19.774779,-9.516542,1.301945,10.096106,22.419771,27.626751,30.997323,28.717585,38.978515,42.160242,44.122991,41.647528,53.160299,56.787519,58.766397,49.179497,61.470349,64.326367,65.409111,-13.117424,-17.099785,-14.708428,-10.730415,-19.277218,0.325539,14.898594,25.527855,-8.447662,12.76831,27.320709,37.04211,5.134197,23.432304,36.380939,44.775661,19.97311,33.150684,41.018303,45.607201,-24.655309,-48.545024,-66.636061,-78.169618,-43.748685,-72.297444,-88.515973,-99.77353,-32.628497,-65.413668,-85.549076,-100.608365,-22.376842,-54.352082,-74.813662,-90.918793,-14.562612,-40.30923,-55.522302,-68.391644,53.021799,309.203715,-155.037569,34.610772
79,0.41478,-0.741326,5.93399,12.177848,-26.081749,-50.594124,-73.936638,-91.339177,-57.963318,-91.271851,-108.79414,-122.486756,-51.916031,-88.376026,-107.91568,-123.112679,-44.321137,-77.6792,-96.422539,-110.626145,-36.435196,-62.249245,-77.023648,-89.25008,-18.956105,-20.399743,-10.541907,0.208667,9.690887,21.770441,26.752575,29.885507,28.328335,38.250206,41.245743,43.060711,41.244989,52.361212,55.947318,57.917638,48.758434,60.658022,63.607024,64.896904,-11.004776,-12.809257,-9.21635,-4.482456,-11.480289,10.972779,22.336647,29.428185,-2.561084,21.627434,32.964272,39.601284,8.416352,29.853619,40.032589,45.726334,20.376435,36.176228,42.526955,45.482746,-27.922579,-52.782251,-70.148344,-79.416686,-47.785599,-74.637648,-85.277955,-91.955885,-35.045872,-64.901399,-79.60558,-89.679135,-23.137545,-51.888167,-67.425299,-79.26142,-13.249674,-36.659941,-48.829187,-58.644594,55.261374,307.628496,-147.278784,45.954727
80,-0.334351,-0.61228,6.52668,12.458523,-25.669372,-50.00029,-73.310989,-90.778702,-57.875084,-91.175297,-108.567215,-122.064125,-52.031822,-88.490215,-107.839153,-122.87582,-44.57943,-77.932766,-96.536144,-110.649673,-36.719009,-62.414658,-77.152336,-89.402664,-19.163142,-20.831045,-11.311515,-0.768991,9.430708,21.224629,25.993613,28.950149,28.04001,37.631306,40.371666,42.040742,40.90798,51.624542,54.977491,56.814071,48.354759,59.97258,62.909467,64.276238,-9.48159,-9.018985,-4.153278,0.644955,-0.624939,21.999012,28.259674,31.28991,7.158486,30.272908,36.76767,40.299134,15.430001,35.925637,41.303204,43.991604,23.346829,38.428299,41.396817,42.006764,-29.715546,-54.926837,-70.907795,-77.442976,-49.827501,-73.642918,-78.994789,-81.516114,-35.953844,-62.079659,-71.282342,-76.368921,-22.410052,-47.365697,-57.962148,-65.281924,-10.262209,-30.965177,-39.862151,-46.133208,56.483723,306.09733,-139.195404,57.494364
81,-0.28141,-0.602709,6.318112,16.46039,-25.607735,-49.848999,-73.135185,-90.612854,-58.175697,-91.299259,-108.567639,-121.963337,-52.411125,-88.612679,-107.862499,-122.840458,-44.942116,-77.971218,-96.422299,-110.43219,-37.029762,-62.601242,-77.189873,-89.298901,-19.239687,-21.105908,-11.722031,-1.275554,9.182607,20.696614,25.329216,28.155273,27.767147,37.148294,39.912267,41.581109,40.674601,51.293091,54.717682,56.585212,48.190577,59.69353,62.618227,63.94391,-6.848505,-3.881401,2.354164,7.263084,12.097395,35.605007,36.153848,34.650999,18.480211,41.339189,42.76672,43.162056,23.796049,44.166052,44.914936,44.588791,27.457741,42.754646,42.88896,41.454265,-30.831814,-55.945885,-70.808651,-74.907668,-50.950317,-71.282511,-72.505858,-71.783029,-35.73668,-57.808867,-62.646237,-63.650558,-20.538465,-41.5716,-48.33917,-51.742059,-6.386057,-24.224214,-30.755206,-34.300066,57.176663,304.521079,-131.902942,72.981212
82,-0.500748,-0.362315,5.885731,20.782805,-25.541908,-49.677978,-72.991516,-90.418064,-58.496841,-91.452061,-108.624264,-121.900028,-52.835724,-88.830082,-108.000057,-122.822227,-45.350258,-78.1058,-96.450577,-110.348442,-37.283478,-62.719276,-77.284344,-89.38211,-19.353283,-21.379869,-12.204017,-1.73153,8.942535,20.130622,24.685283,27.49179,27.505116,36.620156,39.394664,41.091701,40.450719,50.907793,54.291617,56.131298,48.039437,59.421792,62.467248,63.917679,-3.577063,1.80352,9.498813,15.018116,26.315752,51.076114,45.836843,39.520814,31.382669,54.471239,50.557445,47.347904,33.809812,54.374147,50.317245,46.630748,33.301814,49.156185,46.752966,43.547321,-31.106424,-55.866937,-70.431238,-72.492757,-50.645807,-68.280478,-67.223573,-64.486773,-34.512385,-53.543235,-55.628371,-53.341883,-18.091351,-36.125114,-40.693234,-40.819992,-2.432339,-18.207742,-23.655767,-25.120138,57.277073,303.189752,-125.416053,92.795005
83,-0.611687,-0.340911,6.343105,25.813031,-25.55548,-49.648406,-72.992935,-90.545185,-58.751884,-91.611454,-108.73241,-121.901962,-53.104248,-89.016506,-108.132934,-122.849075,-45.571083,-78.159805,-96.439052,-110.262382,-37.372169,-62.694717,-77.240821,-89.274501,-19.265104,-21.272239,-11.931106,-1.380085,8.87136,19.938146,24.511962,27.376983,27.493235,36.501619,39.345164,41.126873,40.529475,50.964776,54.409115,56.313831,48.233123,59.522741,62.555378,63.976391,-0.34334,7.049658,16.054659,22.177185,39.965292,65.309463,55.68548,45.18508,44.135273,67.538732,59.223369,52.224254,44.223833,64.930343,56.915359,49.540683,40.259119,56.131136,51.623285,46.565735,-31.734194,-56.830581,-70.999296,-70.903712,-51.338672,-66.549246,-63.455162,-58.884856,-34.12689,-51.003589,-51.090364,-46.798281,-16.508719,-32.48193,-35.25871,-33.037745,0.744553,-13.749887,-18.474741,-18.773462,57.069019,302.07362,-118.669315,117.832815
84,-0.418602,0.027763,5.027859,21.653949,-25.604667,-49.724716,-73.074691,-90.693695,-59.007133,-91.86454,-108.942569,-122.121402,-53.414634,-89.281082,-108.315845,-123.014236,-45.94725,-78.490802,-96.735271,-110.558647,-37.778366,-63.173423,-77.738433,-89.752029,-19.275083,-21.316675,-11.962204,-1.379764,8.764903,19.704951,24.239914,27.111444,27.45101,36.206193,39.038104,40.91791,40.600463,50.772967,54.230681,56.195221,48.469924,59.613069,62.601851,64.009452,2.292188,11.414457,22.086118,29.054626,51.210531,73.381393,63.895975,53.380354,55.242942,76.06212,68.686981,61.852409,53.768366,72.538524,65.927467,58.755454,47.101873,62.071054,58.862051,54.166328,-29.189602,-52.412172,-64.881195,-63.213742,-43.338634,-54.020779,-52.5316,-49.399116,-25.721208,-38.085817,-39.381461,-36.851432,-7.749362,-19.643025,-23.414086,-22.422782,9.594332,-1.078313,-6.040011,-7.131447,56.941205,301.661517,-113.350668,139.046898
85,-0.195625,-0.084784,5.24105,23.382837,-25.759804,-49.877128,-73.183662,-90.716995,-59.248077,-91.959286,-109.004356,-122.233429,-53.652397,-89.369304,-108.441353,-123.270824,-46.138069,-78.61449,-96.877384,-110.788364,-37.865249,-63.358955,-78.019317,-90.121204,-19.030476,-20.927066,-11.514747,-0.88303,9.085314,19.886091,24.310693,27.032392,27.69653,36.333609,39.1971,41.110634,40.781368,50.925751,54.495171,56.524487,48.61957,59.826591,62.948049,64.393972,5.265799,15.940172,27.884096,36.853867,50.868365,75.090157,71.187922,65.269335,54.347855,78.767641,77.530289,75.192421,53.371382,76.063156,75.8974,73.091767,48.161059,66.820776,68.455668,67.320649,-28.627852,-49.240034,-59.845609,-57.511314,-35.777648,-42.902593,-42.667873,-40.950344,-18.085226,-26.31722,-28.650968,-27.577181,-0.895091,-9.36013,-13.565358,-13.484687,15.026719,7.100893,1.991717,-0.264857,56.854803,301.097509,-108.000395,161.950511
86,-0.514068,0.041349,3.861923,23.76045,-25.678025,-49.746643,-73.025734,-90.602349,-58.979554,-91.927483,-109.00573,-122.263928,-53.466752,-89.47189,-108.563038,-123.437714,-46.052308,-78.873242,-97.280514,-111.362893,-37.750557,-63.472367,-78.398713,-90.790547,-18.809546,-20.522169,-10.984485,-0.227884,9.609722,20.289024,24.584296,27.298548,28.157496,36.580116,39.22228,41.128899,41.134333,51.015547,54.475855,56.516385,48.865805,60.159919,63.474409,65.116649,8.705842,21.951788,36.165934,47.012948,50.193684,78.768071,81.205914,79.408688,52.552168,82.87571,87.857426,88.422627,51.580273,80.203818,85.825688,85.6474,47.461104,70.79428,76.788792,77.686078,-27.911844,-45.910236,-53.572517,-49.56662,-28.561276,-31.606778,-31.381682,-29.993434,-9.632681,-13.83479,-16.42506,-16.442489,7.664468,2.429092,-2.218,-3.401006,22.649903,17.27997,11.942098,8.719115,56.336747,300.650286,-104.14246,185.222389
87,-0.062142,0.685763,2.747166,20.367336,-25.202957,-48.016365,-69.303268,-84.936264,-58.962913,-91.594517,-108.632583,-122.025501,-53.921882,-89.525482,-108.835808,-124.020778,-46.75312,-79.46022,-97.958645,-112.275822,-38.468376,-63.780922,-78.656639,-91.350609,-18.148138,-20.720314,-14.034436,-6.352994,9.607857,20.046468,24.24851,26.835864,27.523961,36.162177,38.929645,40.645887,40.247473,50.180397,53.783151,55.716137,48.125257,59.65911,63.246513,65.069064,12.196244,27.871645,43.959624,55.915501,48.114189,77.884793,87.169464,91.56276,49.275255,81.899243,93.3368,98.767113,48.244114,78.97978,90.593148,95.162853,45.101469,69.903345,79.765114,84.15358,-26.512351,-40.947078,-45.260078,-39.990805,-19.764411,-19.209512,-18.031849,-16.117166,-0.809004,-0.692722,-1.490908,-0.877674,15.425309,14.507898,12.310686,11.713958,28.592639,27.452992,24.35319,21.496856,56.27358,300.92615,-101.396319,205.179826
88,-0.194824,0.271566,1.208325,18.610784,-26.250961,-49.629845,-70.953575,-86.442844,-56.861641,-89.758175,-107.594318,-121.700729,-51.899506,-87.490631,-107.801685,-123.873516,-45.376328,-78.092068,-97.404202,-112.335926,-37.971703,-63.135819,-78.141804,-90.938873,-16.558151,-19.002665,-13.594909,-6.92111,8.397512,18.72307,22.944291,25.546898,25.705585,34.150521,37.068772,38.780839,38.480917,48.095345,51.741991,53.363755,46.861016,58.239641,62.258173,64.2825,16.018833,34.270065,51.862747,65.273437,45.561275,76.514408,91.792442,102.078403,45.121982,79.235332,96.190807,106.762951,43.905613,75.739185,92.08041,101.561199,41.733352,66.797859,79.394256,87.286434,-24.762619,-35.468325,-37.124261,-31.157035,-11.098105,-7.322512,-4.899883,-2.233105,6.909303,10.772409,11.61361,13.102165,21.371966,24.204198,24.380804,24.819825,32.167222,34.156993,33.530029,32.120959,56.009686,300.882906,-100.257064,223.4758
89,-0.589783,0.533227,3.122543,18.193339,-25.900337,-49.643509,-70.597412,-85.851494,-53.22274,-85.866028,-104.016517,-118.784363,-48.452133,-84.088829,-105.166569,-122.173393,-42.662224,-75.48016,-95.457687,-111.014099,-36.348747,-61.504989,-76.726398,-89.868576,-10.883214,-11.053089,-5.991309,-0.147287,11.343859,18.742065,21.459886,22.866301,24.65936,30.464356,31.922801,32.19212,34.338045,41.77818,44.265955,44.853597,40.500811,50.571426,54.174105,55.848542,19.232403,39.769386,58.646645,73.48613,41.267143,77.943088,96.990189,109.333271,39.50703,79.307705,98.997951,110.324055,38.707615,75.15723,93.302113,103.469753,38.070831,65.221928,78.927635,87.049221,-24.672106,-32.407061,-31.354278,-24.628386,-3.47708,4.14754,6.388339,8.398031,15.636081,23.018812,22.900239,23.222613,30.001116,36.598147,36.658379,36.164079,39.601601,45.660465,45.841258,44.029847,55.278127,301.12862,-97.276297,241.381626
90,-1.529846,0.808967,-0.08551,15.452312,-25.10408,-48.564308,-68.773613,-83.969616,-47.859032,-78.739231,-97.036697,-112.340641,-43.478943,-77.642807,-99.017441,-116.605694,-38.581718,-70.246479,-90.481373,-106.493191,-33.437073,-57.306358,-72.29631,-85.661968,-9.552369,-10.107443,-7.230961,-3.689834,12.555699,17.505192,18.916325,19.1521,24.104656,28.115864,28.11022,26.960897,32.494685,38.952691,40.150019,39.587164,37.816768,47.478546,50.832692,52.21584,22.95758,46.527065,67.554256,83.000518,45.774822,84.070049,103.754871,116.08707,41.77676,83.982628,104.255344,115.1319,39.054931,77.304199,95.890194,105.842617,36.633281,64.643623,79.021179,87.362766,-22.26752,-27.199464,-23.483571,-15.111746,3.947506,14.868536,17.469833,19.615191,23.950996,34.347357,34.600719,34.593717,38.327813,48.404764,48.995938,48.124183,47.277523,57.151352,58.073965,56.339594,53.531856,301.694723,-97.578232,256.591074
91,-0.911041,-0.244593,0.783004,10.503807,-25.785691,-50.103607,-70.480431,-85.953083,-48.529083,-77.660042,-93.276272,-106.135723,-44.723625,-76.283798,-94.78101,-108.720738,-40.468117,-70.093334,-87.759133,-100.451603,-36.19867,-58.979313,-72.875714,-84.515156,-3.507918,-1.200823,2.88877,6.928322,15.210621,21.479547,22.344633,21.176044,23.720618,29.133881,28.254135,25.023811,29.770281,37.19,36.82755,34.100924,33.298008,43.105357,45.685017,46.057286,25.467339,50.441254,72.263478,88.331784,49.339154,85.357144,104.86163,118.143528,43.636918,83.694695,104.290913,116.729657,39.273137,75.016205,94.13062,106.063397,35.360184,60.997056,75.453827,85.558285,-19.333968,-21.510855,-16.045808,-7.907684,11.121792,24.073126,27.428298,29.99299,30.134867,43.226696,45.045035,45.830995,43.161018,56.894297,59.742646,59.940779,50.794308,64.514002,67.453667,66.628348,52.342575,301.197401,-97.073468,266.842152
92,-2.203491,0.767755,1.984978,9.737792,-24.07544,-48.794861,-69.880005,-86.98843,-49.482411,-72.660931,-80.567769,-87.053364,-47.146546,-71.987378,-81.3387,-87.107094,-44.064469,-68.095746,-77.703473,-83.12946,-40.745167,-60.719353,-70.42075,-77.417221,-2.142122,1.387198,7.992961,14.182761,14.177166,22.396306,24.793272,24.648863,22.454204,28.785436,29.731675,27.90926,28.550426,35.867677,36.834936,35.139689,32.505874,41.47564,43.794553,44.224929,27.069111,52.940506,75.504811,92.737164,52.251858,88.413071,107.19405,119.340809,45.167221,85.366654,105.69936,117.561894,39.338688,75.106316,93.84676,105.45567,34.126328,59.540852,73.779076,83.938671,-17.232736,-17.932134,-11.233548,-3.412216,14.996261,30.011133,34.283842,37.123348,33.806696,48.977031,51.686293,52.448639,46.441781,62.481192,66.067643,66.374333,53.704396,69.074728,72.536616,72.160495,49.833355,301.72226,-95.394219,276.337048
93,-2.554139,2.161993,3.112015,7.397255,-21.1287,-45.402008,-65.42498,-82.565368,-53.855026,-69.17403,-68.49028,-67.930046,-52.096401,-67.883297,-67.329837,-64.376724,-48.344318,-64.442699,-64.559452,-62.288475,-43.783481,-60.009773,-66.27182,-70.049697,5.374521,12.087828,19.868924,27.034899,19.154904,28.83417,31.974956,32.26296,21.794092,29.714669,32.158441,31.240139,22.598477,30.56039,33.341011,33.276198,21.900796,29.231138,31.609073,32.780836,27.887478,54.32753,77.65226,95.591595,54.085625,91.538486,109.474972,120.319668,46.065994,87.687069,107.702122,118.760158,39.136997,76.228512,94.729214,105.744221,32.86766,59.529293,74.048618,84.260639,-16.11908,-16.127911,-8.146238,-0.777598,17.487149,34.015511,38.729797,41.551605,37.03849,53.529679,57.029359,57.840907,50.020316,67.681984,71.687239,71.780322,57.550359,74.62788,78.002713,77.158103,47.064319,303.670526,-92.497101,283.520576
94,-4.859687,3.850521,0.900902,3.231239,-16.106781,-37.191811,-56.06733,-72.784436,-55.073845,-61.519764,-52.578999,-45.292923,-55.490239,-60.339867,-50.047543,-38.970486,-52.367455,-58.715092,-49.534161,-39.953751,-47.676327,-57.656662,-58.265683,-57.04707,-0.188289,2.823365,8.742895,14.713962,13.499307,26.756133,31.862706,33.595238,19.626121,30.593068,35.224263,36.178084,23.345793,33.265046,37.460678,38.849444,25.057934,33.510318,36.217049,37.90591,28.983993,56.062065,79.859356,98.273952,55.842705,91.126796,109.638347,122.583332,46.625805,86.006618,107.6422,122.307163,38.297733,73.57275,93.814647,108.359333,30.828644,57.030761,72.804027,86.229984,-13.583695,-12.51587,-3.774581,2.476241,19.795934,36.131018,42.377912,46.54462,37.91584,54.628749,60.968948,63.994693,49.571786,67.497325,73.707527,75.47722,56.206596,72.784506,77.205811,77.7041,42.091874,307.38665,-91.708957,286.617418
95,-14.778878,0.806633,3.172703,3.380748,-8.697303,-23.134666,-37.359008,-50.897781,-47.067638,-43.433429,-26.623615,-14.116745,-49.948311,-42.927681,-24.309642,-6.626014,-49.18721,-44.909328,-27.56575,-11.885891,-46.547973,-51.038887,-47.093731,-41.672607,-1.585343,1.719305,8.909622,16.409567,11.014051,28.216876,34.914782,38.088457,18.662235,33.48631,40.091492,42.5128,23.479236,35.586701,40.884714,43.591592,26.284174,35.476168,38.223913,40.228628,29.690746,56.391826,79.9113,99.209358,57.127258,91.327537,109.262283,121.931144,47.394207,85.204444,106.534446,121.527168,38.1874,72.072074,91.962318,106.862297,29.824653,55.090656,70.462669,84.348312,-12.341338,-11.106478,-2.467423,2.136787,20.655081,37.025473,44.071393,48.860508,37.880914,54.816446,62.103798,65.906857,49.03541,67.348445,74.335789,76.727777,55.540964,72.455303,77.536349,78.780917,27.321888,308.121736,-88.527362,289.926619
96,-10.181923,2.595679,3.308269,3.187902,-0.781791,-8.920234,-18.375961,-28.607769,-38.46215,-25.795852,-3.707611,11.777939,-43.944934,-27.501789,-3.136184,17.507882,-45.261268,-32.368251,-8.852211,9.925301,-44.067913,-42.914325,-34.298835,-25.654975,-7.174015,-6.903622,-2.123362,4.000389,7.322327,24.329625,31.930879,36.860291,17.491644,32.350485,40.654755,45.554526,24.392512,36.125498,43.126871,48.386067,29.218998,38.329185,41.525337,44.387962,29.857945,56.143215,79.497631,99.338047,57.095089,91.017002,108.588146,120.681141,47.505249,84.94939,105.951565,120.684872,38.175911,71.872158,91.463322,106.016636,29.50272,54.801292,70.05827,83.934505,-12.355602,-11.313033,-2.749437,1.347963,20.564258,37.041158,44.255829,49.033063,37.420972,54.135117,61.39473,65.220786,48.410977,66.347212,73.27294,75.663151,54.944603,71.696675,76.908644,78.356099,17.296966,310.712355,-85.062092,293.109461
97,-9.902984,1.158401,2.47538,2.415899,2.535049,-1.164597,-5.929848,-13.04884,-29.806515,-11.272557,10.124496,24.123848,-35.946808,-13.710823,10.634628,30.403175,-37.724098,-19.226853,4.527923,22.483726,-36.873059,-31.890507,-21.585148,-12.2509,-8.004595,-6.99505,-0.867544,6.414287,7.908684,23.933088,30.800352,35.573597,18.309367,33.016759,40.562166,44.750647,25.26565,37.188518,43.441254,48.253241,29.964918,39.627598,42.560446,45.481092,29.790218,56.041088,79.467373,99.739529,56.822079,90.718494,108.260616,120.200741,47.438095,84.84026,105.547771,120.021755,38.304291,71.981609,91.404705,105.610165,29.799465,54.958202,70.129177,83.847004,-12.573668,-11.867898,-3.343316,0.738683,20.494665,36.747361,43.908001,48.609628,37.196768,53.297843,60.113655,63.664255,48.06226,65.295318,71.643309,73.512643,54.519463,71.084024,76.170677,77.424173,7.629124,311.887027,-82.35157,295.541631
98,-9.784882,-0.29476,1.930229,1.586467,7.343308,9.212425,8.30864,4.570633,-19.139843,3.111099,24.46241,37.331726,-27.629322,-1.715446,22.226486,40.733803,-32.045048,-10.419067,13.27105,30.453552,-33.739345,-25.659633,-12.73756,-1.582077,-15.977388,-17.409491,-11.418602,-4.660007,4.021014,19.734086,25.959972,30.471494,19.759675,34.086215,40.652902,44.288087,31.331628,43.189622,47.592883,51.305503,40.065681,51.671263,53.908085,55.816161,29.851742,56.110691,79.62727,100.249317,56.282273,89.91061,107.306912,119.062489,46.968945,84.199986,104.606381,118.730061,37.994122,71.648312,90.902241,104.69157,29.766964,54.715599,69.752964,83.150311,-12.562529,-11.90611,-3.391543,0.683157,20.475214,36.72418,43.77436,48.3658,37.095942,53.01305,59.421186,62.587278,47.940685,64.783283,70.52023,71.831006,54.357084,70.717189,75.524199,76.455087,-1.849789,311.615355,-80.115372,297.151186
99,-9.916065,0.913684,1.194981,1.142629,8.420712,14.222111,18.946369,19.861713,-9.023312,15.716663,35.778912,47.592648,-17.895916,9.545574,33.047894,51.425823,-23.455879,-0.233929,22.319584,38.97147,-26.350227,-17.007008,-4.049332,7.377651,-16.612293,-17.384976,-9.815191,-1.539487,2.257052,16.933223,23.809082,29.451489,18.169071,33.379877,40.741551,44.61655,30.341855,42.925688,47.813789,51.301168,39.890865,51.741794,53.946593,55.451598,29.890102,56.182503,79.837898,100.777244,55.77967,88.966003,106.088516,117.693443,46.358711,83.263,103.361389,117.164909,37.362087,70.900932,89.939209,103.356949,29.245765,54.058262,69.022087,82.126213,-12.600369,-11.918261,-3.465667,0.802867,20.282553,37.013975,44.088436,48.572084,36.918176,53.125189,59.426386,62.318788,47.835784,64.779492,70.232696,71.210625,54.247651,70.702135,75.313248,76.007644,-11.411808,312.554774,-78.566345,298.31955
100,0.74873,4.719189,0.724045,0.723789,7.172767,12.785865,18.996734,21.762268,-9.828518,14.826805,33.926193,45.979019,-18.516415,7.97351,31.906517,51.281318,-23.354016,-0.694725,21.236206,38.241165,-25.296398,-15.239159,-1.648671,10.594597,-17.025762,-18.603386,-11.142417,-2.881978,-1.137727,11.875963,19.794267,26.572054,14.517015,28.947086,37.234152,41.580097,27.228189,38.941489,44.615784,48.061939,37.43426,48.744713,50.836891,51.954722,29.5452,55.795841,79.428909,100.444496,54.953899,87.978538,105.053878,116.660133,45.470031,82.437744,102.468017,116.048378,36.506664,70.358505,89.282959,102.378707,28.579525,53.672561,68.714538,81.578247,-12.878641,-12.1921,-3.71798,0.866717,19.877446,36.893142,43.95592,48.261232,36.735802,53.195313,59.478553,62.175119,47.824373,64.840255,70.0511,70.704704,54.288789,70.653401,74.998741,75.397327,-10.32502,317.294303,-77.504242,299.063679
101,-4.596691,5.357972,0.267585,0.279458,7.22517,14.168941,22.881259,27.94099,-4.517155,21.467159,39.283618,50.42554,-12.690525,14.278644,37.775402,57.023769,-17.364533,5.850254,26.371501,42.888485,-19.43557,-8.719746,4.31837,16.086742,-17.953648,-20.449958,-13.065794,-5.089803,-5.401099,6.238138,14.763461,22.321465,10.007827,24.06085,32.725915,37.236116,23.194702,34.56998,40.524313,43.827429,33.993145,44.37292,46.154061,46.884321,29.358319,55.782864,79.44912,100.5504,54.592678,87.698021,104.749329,116.469269,44.885765,81.945969,101.809067,115.244477,35.828957,69.897812,88.670975,101.589203,28.008339,53.39407,68.51516,81.259278,-12.977096,-12.352762,-4.045554,0.720578,19.415367,36.387826,43.416196,47.643481,36.476277,53.09398,59.411294,62.032389,47.696611,64.891198,69.979519,70.417465,54.190729,70.566456,74.736956,74.893098,-14.627483,322.670964,-76.942429,299.361826
102,5.65702,0.03216,0.258866,-0.014351,6.004292,10.376049,15.028324,17.46381,-10.372478,13.738278,32.63641,44.545246,-18.672066,7.054081,30.605106,49.633953,-23.373985,-1.497276,19.570713,36.338116,-25.366081,-15.391777,-2.226482,9.51257,-16.313051,-19.103367,-12.968279,-5.726474,-5.525082,6.663067,14.677097,21.699811,9.331771,23.109239,31.405135,35.955634,21.948739,33.314384,38.749433,41.694038,32.23264,42.758838,44.624775,44.960931,29.088215,55.553158,79.272102,100.34571,54.178081,87.232406,104.272018,116.102302,44.472839,81.657142,101.536949,114.948257,35.42054,69.788063,88.490089,101.294174,27.687195,53.432281,68.641845,81.287979,-13.060002,-12.358591,-4.097819,0.842893,19.113963,36.040912,43.113483,47.377312,36.357235,52.967602,59.325585,61.960759,47.747,64.974932,69.928439,70.234919,54.320516,70.607212,74.517544,74.42482,-8.669357,322.723885,-76.382457,299.368236
103,-0.487541,5.927335,0.16595,-0.088377,6.471325,11.456943,16.785129,20.278255,-8.426056,14.810085,32.697338,44.592281,-16.590981,7.830517,30.833851,50.105175,-20.989941,-0.169762,19.567829,36.195362,-22.679031,-13.723011,-2.446518,8.285282,-17.506736,-23.332578,-20.345661,-15.687359,-11.218667,-0.531584,8.146522,15.625732,4.034414,17.067493,25.806769,30.518066,17.4654,28.143862,34.247618,37.262138,28.561579,38.228285,39.856223,39.478607,28.858544,55.301308,78.972714,99.921673,53.77747,86.888592,104.052784,116.085629,44.032219,81.379475,101.336598,114.777318,34.955475,69.593571,88.331715,101.155415,27.259678,53.336209,68.678021,81.30225,-13.00539,-12.248997,-3.967217,1.348654,18.999169,35.878088,42.965924,47.300013,36.349182,52.953139,59.287534,61.977258,47.823792,65.152415,70.019286,70.269412,54.381797,70.683634,74.417719,74.147696,-8.860794,328.682456,-75.920403,299.311095
104,-0.904701,-0.34726,0.055607,-0.0206,7.530315,12.856647,17.796467,21.305179,-7.470532,15.93806,33.762737,45.435322,-15.673691,9.002071,30.65308,48.795902,-20.071484,1.370269,20.929172,36.987934,-21.467354,-14.027859,-4.478016,4.736023,-16.671512,-22.969399,-21.330395,-17.821119,-9.210592,2.918695,11.11279,17.170345,5.777826,19.379861,27.208232,31.289045,18.362906,30.002772,35.134009,37.542608,28.461877,38.577607,40.196505,39.957259,28.749058,55.173729,78.786621,99.611458,53.357827,86.593209,103.867722,116.067719,43.559407,81.148407,101.126129,114.595734,34.510186,69.418991,88.208199,101.131073,26.907063,53.31815,68.778923,81.40535,-12.932315,-12.127929,-3.870491,1.690096,19.056437,35.921363,42.959984,47.293838,36.474425,53.054991,59.333958,62.105341,47.981527,65.397317,70.178652,70.420096,54.47278,70.728687,74.292118,73.918639,-9.479644,328.369288,-75.578945,299.324587
105,8.957828,-4.094237,-0.189331,-0.07557,3.970757,4.366539,3.996552,3.033806,-18.93465,2.802407,21.84597,34.328476,-26.409485,-2.417839,19.670952,37.921944,-29.634796,-9.110698,11.996773,28.909401,-29.641193,-22.943561,-12.248565,-2.285877,-11.342946,-14.788606,-12.002316,-8.001594,-3.935835,9.539179,16.832063,21.943478,9.036629,22.349808,30.06546,34.34054,19.467509,31.347893,36.46736,39.026532,27.624084,38.325418,40.367887,40.562685,28.73576,55.191433,78.768219,99.494866,53.338326,86.513466,103.741905,116.00663,43.482159,80.960655,100.814827,114.337876,34.397232,69.115196,87.859017,100.933708,26.765591,53.102154,68.545922,81.235222,-12.850458,-12.153568,-3.985853,1.83542,19.131167,35.941271,42.929553,47.307398,36.510882,53.014952,59.272084,62.161435,47.967423,65.41499,70.249652,70.591626,54.370052,70.667715,74.200345,73.811972,-0.187872,324.327227,-75.434332,299.301193
106,5.137425,-5.036314,-0.051819,-0.088797,3.873653,2.673877,-0.4987,-3.768391,-24.956417,-4.373394,15.802219,28.971347,-33.386593,-9.528569,12.912426,31.229633,-37.001049,-16.744973,5.642749,23.055164,-36.92331,-30.803479,-19.416424,-8.885514,-10.725787,-13.299199,-10.30444,-6.167026,-1.084387,13.773935,20.5834,24.844722,12.506731,26.075791,33.55647,37.663231,22.93882,35.027032,39.970029,42.433722,30.923001,42.618479,44.828316,45.019397,28.637902,55.041813,78.541832,99.13543,53.191155,86.243798,103.52044,115.86335,43.323613,80.735596,100.622864,114.188759,34.201584,68.848298,87.622719,100.783677,26.507378,52.804974,68.287491,81.028336,-12.754758,-12.095078,-3.881063,2.035738,19.280084,36.139194,43.061143,47.430454,36.595418,53.032489,59.259697,62.251442,48.021863,65.40511,70.224421,70.634493,54.389602,70.641866,74.129109,73.742762,5.2901,319.352729,-75.145604,299.274212
107,-5.632622,1.470598,-0.214531,0.009114,5.353764,6.321155,6.815906,6.435917,-19.682957,2.924457,21.904713,33.928585,-28.053932,-2.723888,19.30022,37.115169,-31.707172,-9.97665,11.639957,28.523312,-31.814655,-24.591625,-13.677464,-3.664787,-13.135646,-16.991342,-13.772985,-9.694407,-2.264783,12.171155,19.429162,24.283362,11.967094,25.652974,33.108323,37.322517,23.023654,34.948066,39.784753,42.304318,31.557511,42.460065,44.184421,44.307057,28.568905,54.901635,78.372391,98.844223,53.203995,86.189942,103.411446,115.752297,43.31242,80.624062,100.433739,113.997872,34.123204,68.671349,87.41288,100.583153,26.317784,52.528359,67.985116,80.708222,-12.722993,-12.250281,-4.123729,1.877114,19.276873,36.108665,43.006198,47.422168,36.524233,52.822044,59.147892,62.354912,47.933646,65.210399,70.158571,70.748966,54.305474,70.532976,74.083402,73.747961,-0.006861,320.897986,-75.024474,299.357985
108,0.892662,-5.228679,-0.174076,-0.047795,5.846798,6.104679,5.347744,3.253246,-20.717136,2.512539,22.364307,34.142498,-29.705532,-3.449123,18.938953,36.342167,-34.284691,-11.734028,10.909206,27.778782,-35.357151,-27.390953,-14.91069,-4.122093,-12.681287,-14.583138,-9.39929,-3.374499,1.80783,17.91046,24.56398,28.815768,16.139755,30.974451,37.910282,41.749972,26.872631,39.855359,44.002516,46.241055,35.044717,47.136066,48.903165,49.324636,28.481427,54.73605,78.174374,98.557583,53.139508,85.977253,103.12167,115.416699,43.258473,80.441563,100.21304,113.772068,34.053498,68.483586,87.186711,100.336842,26.188923,52.301022,67.709668,80.381756,-12.661564,-12.27366,-4.213971,1.798321,19.369005,36.15599,42.997775,47.410658,36.561357,52.768333,59.123772,62.420318,47.955827,65.13972,70.137514,70.804813,54.337127,70.448007,74.044895,73.756496,1.212524,315.750879,-74.871827,299.391762
109,2.810314,-0.152746,-0.21278,0.010152,4.392609,3.073471,1.970307,-0.922806,-24.695492,-1.202957,19.035118,30.664421,-33.648125,-7.281303,16.248322,34.139053,-37.89727,-16.172333,6.635193,23.677757,-38.842941,-29.911434,-16.241958,-4.792007,-13.040563,-14.948848,-8.77088,-2.052546,1.304688,16.543788,23.255601,28.515118,16.082055,29.821806,36.968564,41.184981,27.382887,38.548695,42.87751,45.550982,36.209046,46.566505,47.209845,46.899413,28.416722,54.520787,77.893044,98.153458,53.244931,85.936272,102.991333,115.20488,43.420544,80.368721,100.085839,113.621224,34.166268,68.379479,86.94999,99.944115,26.156674,52.031044,67.271393,79.811692,-12.661798,-12.556699,-4.576558,1.516726,19.104849,35.776423,42.718861,47.277721,36.233573,52.353605,58.880179,62.331311,47.641851,64.666847,69.828996,70.623885,54.130547,70.234104,73.954652,73.751333,4.306703,315.669656,-74.800742,299.473437
110,-8.701629,4.751645,0.076275,0.043225,7.898162,10.920181,15.017829,16.882278,-13.607483,11.604675,30.66893,41.354896,-23.355652,3.623886,26.506141,44.018508,-28.768937,-6.919922,14.281333,30.370216,-30.96531,-23.453717,-13.252579,-4.62521,-18.416455,-23.767857,-19.386085,-13.322639,-4.379537,9.320842,16.35083,22.049565,12.654006,26.044879,32.641367,36.575634,26.024057,36.44786,40.467367,43.096811,36.607336,45.283813,45.156718,44.185742,28.299866,54.186928,77.497044,97.732418,53.064217,85.690281,102.803135,115.026753,43.348652,80.247677,100.087727,113.658772,34.108612,68.305241,86.862248,99.721173,26.03833,51.925885,67.119953,79.554852,-12.623587,-12.605247,-4.555673,1.394028,18.91204,35.513132,42.519259,47.161137,36.020905,52.072332,58.724012,62.296731,47.491341,64.325652,69.550477,70.403275,54.121161,70.083643,73.788099,73.559561,-4.161643,320.486932,-74.491184,299.582293
111,-1.576333,-0.203171,0.002426,0.152598,8.410401,11.821312,16.265625,18.512261,-11.991542,13.561776,32.402619,43.074532,-21.527114,5.58078,28.001061,45.640068,-26.927364,-5.232479,15.549317,31.510209,-29.296096,-23.620502,-15.96278,-9.194618,-18.509884,-23.887492,-19.739174,-14.174054,-4.145824,9.872223,16.771844,22.353982,12.918013,26.556073,32.706118,36.421961,26.079879,36.683042,40.378681,43.003814,36.557244,44.937961,45.460517,45.456232,28.189396,53.963997,77.25832,97.480557,52.948803,85.636998,102.699131,114.850354,43.303654,80.207554,100.040509,113.569416,34.076741,68.323025,86.824894,99.506459,25.946812,51.911225,67.002652,79.223912,-12.748953,-12.900192,-4.908046,1.007409,18.44197,35.017621,42.12907,46.890558,35.571498,51.566769,58.35945,61.99871,47.116565,63.80638,69.113655,69.995599,53.881211,69.774433,73.468849,73.167952,-5.482207,320.357917,-74.232989,299.809047
112,-1.033813,-0.010275,0.128495,0.102432,7.528656,11.273231,15.761536,17.304222,-10.587513,15.15493,34.096825,44.888122,-20.254818,7.171692,29.213448,46.374916,-25.795773,-4.31377,16.065651,31.605286,-28.320648,-23.939301,-17.456051,-11.525986,-18.583318,-23.752618,-19.536917,-13.577187,-4.29237,9.383864,16.27973,21.885926,13.064658,26.47061,32.707019,36.244589,26.257954,36.374969,40.218883,42.883919,36.776791,44.516526,44.571435,44.195313,28.050533,53.647785,76.847408,97.068592,52.742065,85.342998,102.414951,114.514309,43.222011,80.031635,99.908832,113.404918,34.04013,68.204944,86.667148,99.216282,25.877334,51.797538,66.835407,78.9631,-12.794908,-12.996634,-4.938996,0.929368,18.170367,34.715587,41.823776,46.56291,35.313825,51.226054,57.995418,61.578894,46.893645,63.400926,68.680907,69.526604,53.737061,69.498384,73.141658,72.78237,-6.248377,320.425216,-73.836851,299.989053
113,1.189247,0.019723,0.080921,0.093144,7.124748,10.568985,15.076881,16.896057,-12.361748,13.518654,32.424271,43.398354,-22.027771,5.399368,27.302033,44.648621,-27.215767,-6.060562,14.133064,29.582428,-29.261112,-26.894325,-22.959,-18.932751,-18.894256,-24.410333,-20.404275,-14.888556,-4.276908,9.592235,16.281793,21.708443,13.468024,26.840397,32.595041,35.915818,26.703706,36.596604,40.058727,42.593964,37.169376,44.404672,44.89145,45.197794,27.938358,53.359772,76.462578,96.673485,52.638691,85.258392,102.338013,114.409447,43.199982,79.961014,99.872131,113.374969,34.008739,68.124023,86.583961,99.067337,25.745018,51.663906,66.674446,78.768928,-12.861635,-13.180527,-5.09746,0.771929,17.757405,34.378504,41.549592,46.335076,34.908792,50.727161,57.548198,61.178603,46.547028,62.883767,68.237799,69.142652,53.498124,69.221285,72.861238,72.451351,-4.787184,320.50958,-73.483984,300.146838
