takenoko1/special-research/HandMotion_SimilarSearch_自分用/NewProject/handData/tgt/d4_feature_d2/15.csv
,vel_0x_L,vel_0y_L,vel_0x_R,vel_0y_R,posFromWrist_1x_L,posFromWrist_2x_L,posFromWrist_3x_L,posFromWrist_4x_L,posFromWrist_5x_L,posFromWrist_6x_L,posFromWrist_7x_L,posFromWrist_8x_L,posFromWrist_9x_L,posFromWrist_10x_L,posFromWrist_11x_L,posFromWrist_12x_L,posFromWrist_13x_L,posFromWrist_14x_L,posFromWrist_15x_L,posFromWrist_16x_L,posFromWrist_17x_L,posFromWrist_18x_L,posFromWrist_19x_L,posFromWrist_20x_L,posFromWrist_1y_L,posFromWrist_2y_L,posFromWrist_3y_L,posFromWrist_4y_L,posFromWrist_5y_L,posFromWrist_6y_L,posFromWrist_7y_L,posFromWrist_8y_L,posFromWrist_9y_L,posFromWrist_10y_L,posFromWrist_11y_L,posFromWrist_12y_L,posFromWrist_13y_L,posFromWrist_14y_L,posFromWrist_15y_L,posFromWrist_16y_L,posFromWrist_17y_L,posFromWrist_18y_L,posFromWrist_19y_L,posFromWrist_20y_L,posFromWrist_1x_R,posFromWrist_2x_R,posFromWrist_3x_R,posFromWrist_4x_R,posFromWrist_5x_R,posFromWrist_6x_R,posFromWrist_7x_R,posFromWrist_8x_R,posFromWrist_9x_R,posFromWrist_10x_R,posFromWrist_11x_R,posFromWrist_12x_R,posFromWrist_13x_R,posFromWrist_14x_R,posFromWrist_15x_R,posFromWrist_16x_R,posFromWrist_17x_R,posFromWrist_18x_R,posFromWrist_19x_R,posFromWrist_20x_R,posFromWrist_1y_R,posFromWrist_2y_R,posFromWrist_3y_R,posFromWrist_4y_R,posFromWrist_5y_R,posFromWrist_6y_R,posFromWrist_7y_R,posFromWrist_8y_R,posFromWrist_9y_R,posFromWrist_10y_R,posFromWrist_11y_R,posFromWrist_12y_R,posFromWrist_13y_R,posFromWrist_14y_R,posFromWrist_15y_R,posFromWrist_16y_R,posFromWrist_17y_R,posFromWrist_18y_R,posFromWrist_19y_R,posFromWrist_20y_R,posFromBody_0x_L,posFromBody_0y_L,posFromBody_0x_R,posFromBody_0y_R
6,-19.618435,2.19703,-0.601044,0.553222,8.930214,15.269657,16.775974,14.783935,2.198169,26.783764,42.07489,48.420616,-5.20364,23.530506,39.06546,49.617325,-12.568222,10.451912,25.448524,33.065643,-17.843972,-18.699269,-20.088982,-22.974896,-14.31603,-13.794572,-7.103434,-0.368045,6.669724,24.256303,27.869456,28.498927,20.968588,40.803129,43.490877,42.61801,30.719842,47.905081,48.589683,47.706911,38.318095,50.063813,55.182675,59.070333,26.415928,51.337063,74.751171,95.422531,52.690785,84.168686,101.364556,113.60669,43.52758,78.840729,98.46872,110.659172,33.833782,66.99987,85.242806,96.847344,24.937855,49.56435,64.611706,76.477913,-13.965226,-15.223082,-8.716799,-3.996326,13.856187,30.688041,37.718992,41.863667,31.653755,46.571247,52.512143,54.917297,44.497236,60.309824,64.363541,64.219465,52.650106,68.36771,71.137413,69.288001,-17.104351,301.556707,-72.388287,293.747923
7,-18.801476,0.581183,0.308659,0.257759,13.494999,24.668209,28.693016,27.377678,17.15688,47.712593,62.925179,67.519913,8.319294,44.261376,59.434868,67.977013,-1.729133,27.360123,42.386101,48.113983,-10.098907,-9.500072,-12.575569,-17.85133,-19.867788,-20.030574,-11.249863,-3.138292,4.076453,23.518015,26.233353,26.075556,21.676025,44.001009,44.80253,42.553172,34.037667,53.720117,52.421184,50.431018,44.363089,57.429365,61.938417,65.710663,26.267647,50.927547,74.278209,94.74567,52.767002,84.005138,101.098469,113.317692,43.643394,78.77441,98.198787,110.412243,33.713161,66.851681,84.895008,96.468738,24.374531,49.395344,64.486679,76.431953,-13.947751,-15.333492,-8.982573,-4.284787,13.60217,30.474606,37.516895,41.545961,31.161258,45.953606,52.162783,54.689363,43.982373,59.621566,63.99289,64.054665,52.243417,67.899246,70.788362,68.941099,-34.967131,301.527703,-71.140932,293.395495
8,-2.764492,-0.649182,-0.04517,0.109286,14.704617,26.710739,31.051792,29.985626,19.990551,50.861653,66.139332,70.804333,10.846607,47.241451,62.438107,70.620289,0.420628,30.242878,45.407272,51.006672,-8.42268,-6.679046,-9.232361,-14.29929,-19.382862,-19.204403,-10.099058,-1.514022,4.392924,23.978809,26.613513,26.389112,21.939514,44.680338,45.581881,43.554986,34.172974,54.22353,53.164066,51.308479,44.30634,57.497439,62.00822,65.722519,26.145939,50.809421,74.091145,94.593224,52.738232,83.841682,100.987793,113.338028,43.596851,78.4823,97.933548,110.262474,33.628372,66.451904,84.500473,96.189995,24.245064,48.959461,63.984901,75.946335,-13.92604,-15.328947,-9.048819,-4.317639,13.809689,30.547768,37.57037,41.590952,31.407049,45.996004,52.171305,54.735281,44.204662,59.70073,64.011736,64.035658,52.425395,68.02455,70.899575,68.979866,-37.314835,300.493452,-70.769314,293.119712
9,-4.172344,0.318731,-0.039894,0.026021,15.954426,29.90007,35.724197,35.609962,24.115837,55.458618,70.397598,75.182167,15.056305,51.546867,66.337509,74.092232,4.380295,34.552196,49.308792,54.555771,-4.854435,-2.315128,-4.945736,-10.091904,-19.656404,-19.603607,-10.518874,-1.835593,3.891041,22.786704,25.378307,25.157945,21.628304,44.084273,45.071292,43.121053,33.947005,53.878395,52.819178,50.93006,44.083742,57.185969,61.607015,65.209682,26.066528,50.612469,73.959171,94.341476,52.902626,83.913116,101.073555,113.481216,43.82492,78.474483,97.919746,110.316971,33.779159,66.411415,84.429863,96.138084,24.242111,48.972851,64.065502,76.12524,-13.885197,-15.414224,-9.343059,-4.324492,13.757696,30.285329,37.301028,41.379136,31.191059,45.652203,51.950733,54.652437,43.937715,59.399426,63.911998,64.101114,52.202712,67.890984,70.866391,68.992328,-41.266605,300.434811,-70.588634,292.768361
10,-0.790249,0.089291,-0.126686,0.005224,16.749436,31.690727,38.981232,39.669628,24.409573,55.577602,70.790211,76.203266,15.014729,50.993076,66.414127,75.064442,4.151722,34.059528,49.287369,55.186054,-5.132446,-2.868851,-5.572437,-10.514065,-19.804247,-19.883806,-10.8854,-2.350937,3.191014,21.932029,24.926072,24.766546,21.278537,43.945841,45.107416,42.871434,33.97725,54.190679,53.095672,50.958379,44.360742,57.599006,62.148628,65.709391,26.115005,50.688984,74.003345,94.468872,52.760238,83.833122,101.144623,113.715614,43.649769,78.311908,97.912536,110.457985,33.668209,66.300853,84.420456,96.258133,24.247158,48.931343,64.036686,76.135563,-13.808368,-15.296034,-9.238454,-4.298569,13.835674,30.346561,37.320393,41.348051,31.372235,45.771604,52.011582,54.719646,44.18568,59.562336,63.966017,64.096236,52.499459,68.076865,70.983618,69.077099,-41.885302,300.259653,-70.543768,292.509136
11,-0.130657,-0.00431,-0.016056,0.055007,16.89949,32.245994,40.484081,41.760383,24.310238,55.55912,70.783493,76.375534,14.943169,50.676281,65.97908,74.734405,4.204468,33.933586,49.01168,54.915047,-4.841709,-2.78849,-5.728306,-10.838848,-19.997229,-20.014223,-11.006814,-2.412428,2.776916,21.609507,24.711848,24.500254,21.137116,44.031032,45.163078,42.80972,34.048139,54.578052,53.219432,50.85896,44.509734,57.690223,62.135215,65.522991,26.041866,50.555339,73.936947,94.330867,52.602871,83.816127,101.193065,113.769893,43.541061,78.36581,98.099476,110.678707,33.58398,66.475044,84.68668,96.48698,24.14629,49.108154,64.338546,76.489563,-13.849172,-15.408358,-9.452678,-4.378795,13.68441,30.207289,37.112542,41.107682,31.103325,45.59748,51.846202,54.579559,43.887821,59.320151,63.795067,64.003512,52.225239,67.894776,70.851411,69.015435,-41.917396,300.029457,-70.461261,292.338257
12,0.06459,0.794406,-0.183358,0.096158,17.91782,34.4828,43.791081,45.531178,24.273388,55.829544,70.989876,76.551178,14.466946,49.909207,64.898827,73.822014,3.540985,33.092137,47.780331,53.471741,-5.354953,-4.338237,-8.682998,-15.036552,-22.430689,-24.327464,-17.370144,-10.100243,0.733632,19.406759,22.473186,21.929214,20.555514,43.702051,44.553034,41.667227,34.545354,55.324738,53.54251,50.681429,45.630776,58.456003,63.000352,66.428846,26.116997,50.682988,74.053677,94.454625,52.45728,83.830708,101.31419,113.951535,43.343743,78.345955,98.220623,110.862431,33.459813,66.554787,84.871685,96.697873,24.162404,49.250725,64.528141,76.665677,-13.893447,-15.437677,-9.5076,-4.512942,13.715545,30.237238,37.060584,40.989306,31.247734,45.758303,51.917721,54.619672,44.08089,59.471736,63.794672,63.911084,52.437203,67.946412,70.811631,68.941754,-41.796559,300.603732,-70.588372,292.214284
13,-0.613449,0.240827,0.179558,0.03689,17.95776,35.037106,44.752133,46.701828,24.504582,56.165772,71.623581,77.56176,14.976597,50.272007,65.696663,75.146118,4.175194,33.76355,48.860379,54.978791,-4.577511,-3.549431,-7.998436,-14.345077,-22.741306,-24.940041,-18.398004,-11.543696,0.353731,18.750463,21.891892,21.397049,20.24344,43.166181,44.046309,41.095887,34.234218,54.904798,53.279688,50.419273,45.345353,58.076559,62.781817,66.268517,26.040619,50.625355,74.037655,94.328213,52.136902,83.770169,101.252598,113.788365,42.968376,78.422173,98.39304,110.96204,33.108788,66.835762,85.211346,96.924626,23.872319,49.578667,65.047611,77.176975,-13.928386,-15.43601,-9.476885,-4.423898,13.516511,30.220886,37.070699,41.009017,31.060642,45.807715,51.948571,54.594749,43.882053,59.38831,63.719423,63.836267,52.219223,67.707474,70.571434,68.762517,-42.354338,300.659332,-70.353144,292.065947
14,1.301239,-0.578392,0.253704,0.142668,17.583,33.386959,41.511875,42.513954,23.157406,54.686234,70.636986,76.665734,13.663742,49.211804,65.308892,75.120117,2.932904,32.838089,48.643605,55.232849,-5.815372,-4.437011,-8.21006,-14.040378,-21.651929,-23.094283,-15.674749,-8.089316,1.552702,20.115135,23.282685,22.958297,20.760526,43.553912,44.636372,42.005805,34.170233,54.644039,53.534508,51.136529,44.906061,57.692793,62.672358,66.447297,25.954892,50.626419,73.988869,94.221749,51.871949,83.662445,101.035172,113.429558,42.571484,78.442097,98.450615,110.937149,32.711426,66.924671,85.320557,96.973,23.525666,49.597435,65.129769,77.167591,-14.055419,-15.534008,-9.416543,-4.307486,13.296605,30.191666,37.052421,40.994839,31.061334,45.999426,52.044791,54.576966,43.957105,59.540081,63.719991,63.674814,52.278442,67.635844,70.375104,68.460002,-40.973683,299.919633,-70.020024,292.047308
15,3.920231,0.048783,0.121422,0.087056,16.416309,29.723053,35.378769,34.881043,18.914932,49.92754,66.474461,72.563656,9.745056,45.024811,61.697102,71.950504,-0.461048,29.10022,45.593411,52.670208,-8.718807,-7.927139,-11.371651,-17.087952,-20.733713,-21.725054,-13.776023,-5.692214,3.087052,21.607655,24.384732,24.186896,21.299335,43.704213,44.811978,42.774251,33.888466,54.056015,53.245281,51.627223,44.054004,56.794114,62.126929,66.608614,25.857651,50.647293,74.00108,94.133949,51.774696,83.718224,100.977127,113.235077,42.351677,78.523533,98.490051,110.893204,32.391838,66.959622,85.362236,96.960457,23.110359,49.422283,65.033569,77.036099,-14.150107,-15.654767,-9.559087,-4.292345,13.006489,30.008144,36.899057,40.862841,30.871377,46.06372,52.159906,54.687844,43.762183,59.565003,63.788497,63.724449,51.998935,67.485049,70.286776,68.385741,-36.96575,299.836813,-69.8109,292.002761
16,2.784863,0.189018,0.116879,0.013017,15.714454,27.203888,31.071075,29.372646,15.948658,46.521972,63.722534,70.04441,6.941826,42.108421,59.521362,70.355575,-2.937138,26.435394,43.623951,51.236412,-10.949936,-10.274254,-13.105694,-18.38189,-19.922263,-20.82892,-12.91616,-4.858843,4.105044,22.494836,25.123514,25.025479,21.603382,43.69306,44.891772,43.171393,33.639476,53.393914,53.005084,52.047039,43.296783,56.201137,61.816102,66.720975,25.851127,50.774311,74.02613,94.080883,51.707553,83.700016,100.844158,113.015384,42.110595,78.497635,98.429271,110.802578,32.085697,66.873321,85.269138,96.884639,22.807342,49.215603,64.826854,76.752685,-14.164656,-15.606281,-9.411455,-4.117814,12.905107,30.051122,37.007256,41.032173,30.953579,46.326419,52.418504,54.929708,43.875965,59.81587,63.981874,63.847789,52.041629,67.49073,70.275624,68.360682,-34.082588,299.903056,-69.595722,291.893003
17,2.31372,0.204271,0.240669,-0.042954,15.141964,25.323761,28.180607,25.915821,13.272869,43.610848,61.50293,68.165085,4.513207,39.563794,57.480698,68.841019,-4.935653,24.215676,41.861595,49.796471,-12.493595,-12.214588,-14.840046,-20.08937,-19.612289,-20.896117,-13.718138,-6.284105,4.900352,23.087466,25.544305,25.565411,21.956063,43.640757,44.908752,43.513107,33.5942,52.95635,52.852647,52.431126,42.813672,55.805588,61.705445,66.894085,25.769176,50.742016,73.942131,93.92609,51.657761,83.759571,100.809299,112.852123,41.930397,78.545803,98.446003,110.762249,31.781616,66.816421,85.198643,96.800342,22.39563,48.924362,64.594265,76.545513,-14.17125,-15.57359,-9.321274,-3.923349,12.772258,30.056136,37.0861,41.176533,30.845541,46.429641,52.583057,55.123284,43.722268,59.840052,64.084849,63.995509,51.794097,67.389213,70.259767,68.406341,-31.661173,300.00212,-69.247358,291.744842
18,-0.07394,-0.201381,-0.01545,0.060417,14.788742,24.786358,27.635639,25.430935,12.887352,43.503971,61.435352,68.083523,4.400127,39.73082,57.617878,68.896397,-4.849674,24.605965,42.242489,50.082813,-12.290256,-11.733444,-14.257759,-19.468185,-19.406746,-20.202993,-12.469594,-4.535543,5.398789,23.694547,25.990996,25.990637,22.236311,44.023771,45.292347,44.04258,33.655,53.153606,53.001404,52.700148,42.688122,55.815494,61.68823,66.991787,25.750615,50.778992,73.93364,93.935566,51.717259,83.875615,100.931294,112.969883,41.902806,78.627743,98.547238,110.875294,31.67569,66.748787,85.120114,96.709362,22.241215,48.602188,64.183159,76.061795,-14.242338,-15.698844,-9.445183,-4.012826,12.650313,29.964153,37.029672,41.157539,30.802945,46.495343,52.680054,55.270583,43.71198,59.895516,64.122542,64.030867,51.765975,67.449864,70.317145,68.424668,-31.636425,299.718326,-69.16412,291.722846
19,-0.976559,-0.193106,-0.080406,-0.064505,15.123459,25.599575,28.785302,26.546151,13.803074,44.76297,62.280785,68.562241,5.217144,40.802021,58.099366,68.811013,-4.168087,25.537033,42.541798,49.741906,-11.650039,-10.969974,-13.865192,-19.390445,-19.600556,-20.501371,-13.093236,-5.343078,5.26095,23.94434,26.089031,25.822331,22.258677,44.714832,45.678497,44.095204,33.808499,54.029697,53.501533,52.853018,42.912807,56.319068,61.986002,67.126798,25.736447,50.804318,73.938709,93.982075,51.888073,84.103192,101.224148,113.27615,41.991005,78.75182,98.677174,111.003193,31.636265,66.726162,85.094479,96.672215,22.105133,48.341835,63.899151,75.788704,-14.294985,-15.728274,-9.47029,-4.065177,12.676162,29.971489,37.079344,41.254808,30.812184,46.579546,52.810361,55.478559,43.684922,59.923292,64.172276,64.164508,51.677549,67.479492,70.39873,68.585232,-32.536658,299.472226,-69.1682,291.605347
20,-4.039352,-0.150041,-0.056866,-0.058811,15.912987,28.316517,33.185348,32.132641,17.875305,49.51474,66.542931,72.686645,9.148624,45.138187,61.804413,71.92559,-0.674675,29.453957,45.737308,52.270683,-8.549492,-6.980759,-9.990097,-15.508312,-20.216196,-21.120308,-13.655634,-5.746839,4.321467,22.972549,25.220511,24.818454,21.845345,44.455283,45.329063,43.472154,33.838448,54.2539,53.521021,52.470387,43.296894,56.804538,62.102155,66.725668,25.791687,50.873234,74.004239,94.119141,52.038701,84.365136,101.52578,113.551278,42.099701,78.943223,98.866311,111.133942,31.685269,66.889058,85.238251,96.746521,22.113877,48.428055,63.983403,75.861569,-14.304532,-15.74202,-9.446911,-4.07365,12.608965,29.939885,37.106267,41.342457,30.746642,46.591723,52.822155,55.50437,43.639832,59.905014,64.139017,64.171325,51.665471,67.509429,70.39694,68.597236,-36.519316,299.276539,-69.168372,291.50089
21,-4.144386,0.034988,-0.130989,-0.046461,16.90353,31.657058,38.666073,39.219543,22.118671,53.995262,70.608673,76.972229,13.184395,49.162834,65.586067,75.635032,2.941372,33.100341,49.125412,55.459465,-5.276276,-3.176022,-6.276146,-11.739727,-21.224135,-22.527526,-15.373901,-7.443728,3.180912,21.523687,24.039176,23.756828,21.448709,43.857094,44.835134,42.977941,34.030578,54.304041,53.526196,52.280529,43.913398,57.363008,62.515215,66.769782,25.892075,50.968506,74.121598,94.310944,52.101426,84.624596,101.850724,113.862603,42.152653,79.183754,99.143624,111.364312,31.741929,67.138916,85.474411,96.886277,22.214287,48.628601,64.173226,76.010514,-14.333419,-15.804721,-9.460929,-4.076478,12.497827,29.863043,37.106786,41.412037,30.691561,46.563874,52.804432,55.5091,43.650885,59.845832,64.031756,64.059742,51.732137,67.542403,70.357407,68.508032,-40.623006,299.28281,-69.258665,291.425712
22,-3.569092,-0.11267,-0.081722,-0.071914,17.248958,33.637207,41.958034,43.617267,25.559246,57.574562,73.883468,80.507263,16.522591,52.591221,69.122566,79.342255,5.978783,36.496124,52.889465,59.465538,-2.603954,0.253761,-2.392662,-7.229576,-21.531368,-22.172967,-13.873341,-4.806331,2.515045,20.563381,23.388599,23.26243,20.950297,43.007211,44.095488,42.321522,33.830951,53.693181,53.015952,51.754441,44.04069,57.660843,62.752979,66.896173,25.940197,51.043327,74.240547,94.507748,52.203243,84.781208,102.010998,113.966732,42.257286,79.375042,99.312229,111.460133,31.839615,67.347096,85.623287,96.91824,22.3232,48.80048,64.290344,76.064015,-14.360157,-15.847651,-9.451185,-4.04296,12.416044,29.886347,37.205487,41.533685,30.647915,46.645915,52.899145,55.56696,43.635743,59.886056,64.033547,64.004845,51.741028,67.601276,70.380069,68.505907,-44.17234,299.148278,-69.320629,291.331936
23,-2.46563,0.171234,-0.133449,-0.071618,17.79253,35.90593,46.119793,49.252751,27.622376,59.632256,76.057801,83.180695,18.521302,54.489086,71.401062,82.255669,7.936146,38.63181,55.54921,62.673592,-0.573738,2.412438,-0.203556,-4.750557,-22.611012,-23.47889,-15.28377,-5.92431,1.062107,18.878941,22.170362,22.153677,20.25458,42.16943,43.194203,41.158564,33.890849,53.366954,52.686316,51.220287,44.634742,58.31168,63.400124,67.277111,26.004776,51.13013,74.35176,94.691436,52.328132,85.015365,102.247444,114.150146,42.359058,79.596038,99.533775,111.638855,31.935596,67.555034,85.808647,97.022689,22.425075,49.001037,64.502517,76.270809,-14.391984,-15.919269,-9.494188,-4.038737,12.354602,29.856077,37.206475,41.567228,30.656868,46.677321,52.888165,55.514176,43.684081,59.928009,63.99825,63.926657,51.802519,67.649046,70.36021,68.431658,-46.633976,299.301934,-69.450084,291.24274
24,-1.91114,0.172395,-0.124066,-0.063813,18.149002,37.333729,48.894413,53.418068,29.197666,61.294968,78.087936,85.901115,20.124115,56.201774,73.905395,85.547333,9.611389,40.577522,58.390446,66.439476,1.117767,4.743908,2.87059,-0.733887,-22.900684,-23.275398,-14.242943,-4.360592,0.442046,17.827467,21.439607,21.653807,19.655514,40.902979,42.174272,40.48457,33.510565,52.101638,51.76679,50.778697,44.486034,58.275,63.439755,67.344777,26.059353,51.183769,74.470928,94.88744,52.42432,85.133091,102.343998,114.218685,42.552899,79.790623,99.745823,111.856281,32.23423,67.873078,86.086292,97.223866,22.803578,49.471264,64.950714,76.678528,-14.412485,-15.989813,-9.528175,-4.049074,12.289591,29.775863,37.11117,41.446642,30.640468,46.651152,52.832405,55.381116,43.734136,59.926058,63.953321,63.798105,51.924871,67.747995,70.41949,68.41606,-48.545082,299.457808,-69.574116,291.162406
25,-0.550438,0.445418,-0.188942,-0.113917,18.506058,38.314041,50.827675,56.075706,29.56319,61.931763,78.942375,87.0187,20.43433,56.986244,75.034378,86.938499,10.0299,41.365425,59.569302,67.953117,1.743576,5.511017,3.761112,0.353542,-23.664783,-24.94398,-17.015857,-8.10752,-0.303689,17.014832,20.927622,21.302768,19.293163,40.350708,41.640464,39.956246,33.497178,51.616045,51.328313,50.409677,44.619193,58.571352,63.724387,67.41926,26.150299,51.25446,74.61525,95.110531,52.616158,85.219242,102.390209,114.240017,42.807495,79.928364,99.776768,111.791439,32.532738,68.011975,86.123394,97.171475,23.133499,49.691803,65.089794,76.725575,-14.274905,-15.870091,-9.436773,-4.038613,12.504409,29.993706,37.335583,41.631127,30.845145,46.782803,52.950015,55.449807,43.947953,60.056536,64.036301,63.838687,52.176023,67.867321,70.472126,68.426162,-49.097917,299.880215,-69.765455,291.025478
26,-0.802311,0.320855,0.013939,-0.122266,18.789734,38.956169,51.917805,57.691475,30.102402,63.188152,80.311535,88.315533,20.950195,58.487549,76.62125,88.169369,10.648178,42.765953,60.823872,68.901936,2.503704,6.840408,5.124527,1.789993,-23.75321,-25.399636,-17.721775,-9.190623,-1.12177,16.444789,20.538632,20.906998,18.610327,39.818172,41.046018,39.269397,33.097727,51.127587,50.697335,49.662411,44.482971,58.793716,63.75015,67.199799,26.093743,51.212025,74.683136,95.232479,52.716248,85.193585,102.326397,114.106327,43.041401,80.075855,99.869396,111.861225,32.84705,68.266777,86.255001,97.227894,23.481079,50.040939,65.360653,76.932106,-14.187318,-15.791717,-9.415123,-4.045541,12.604333,30.128557,37.472311,41.701276,30.897275,46.889607,53.078925,55.524772,43.967009,60.120905,64.105733,63.828128,52.196339,67.896072,70.500803,68.435548,-49.922791,300.189121,-69.774079,290.891263
27,-0.959106,0.391979,-0.26627,-0.090267,19.813167,40.783412,54.807712,61.410461,31.144271,65.072628,82.220867,89.982868,21.787948,60.230392,78.063457,88.951343,11.4192,44.071632,61.404659,68.839839,3.381214,8.011402,5.861366,2.086063,-24.282448,-27.388172,-21.565108,-14.797103,-2.015607,15.9291,20.067402,20.255123,18.319952,39.889939,40.859865,38.709765,33.247052,51.38605,50.555371,49.171014,44.823896,59.274184,63.836539,66.726038,26.223164,51.379258,74.91235,95.555352,52.864106,85.38453,102.498253,114.267289,43.294831,80.318734,100.026238,111.943726,33.214474,68.590874,86.506211,97.425911,23.935936,50.454438,65.739613,77.275715,-14.149724,-15.803462,-9.480034,-4.118543,12.62849,30.054333,37.377129,41.581702,30.979712,46.85084,53.017866,55.43747,44.106183,60.128105,64.077328,63.766761,52.405981,68.005556,70.530765,68.35783,-50.908887,300.572606,-70.067339,290.792502
28,1.179016,0.334651,-0.064212,-0.207605,19.940185,40.242565,53.746284,60.156372,30.502864,64.779041,81.702861,89.008541,20.847828,59.86322,77.184299,87.307651,10.346695,43.141605,59.755336,66.470523,2.330955,6.819969,4.500148,0.530491,-24.320697,-28.247862,-23.652693,-18.325954,-2.011915,16.409591,20.350651,20.247997,18.22241,40.121687,40.792791,38.427306,33.113744,51.389866,50.200009,48.715344,44.592109,59.31458,63.60348,66.264428,26.266559,51.453941,75.111248,95.874126,52.996215,85.465725,102.534496,114.239422,43.554245,80.573513,100.215763,112.066234,33.556949,68.96981,86.780216,97.607906,24.363739,50.973266,66.185978,77.631557,-14.085713,-15.682258,-9.282717,-4.035883,12.715583,30.192568,37.569235,41.792444,31.049429,46.899339,53.152495,55.639937,44.19929,60.173875,64.158518,63.86666,52.559938,68.053326,70.55528,68.413788,-49.758545,300.89876,-70.160225,290.5764
29,1.599586,0.41185,-0.21436,-0.247755,19.90662,39.736656,53.130879,59.579441,29.281368,63.650768,80.328793,86.989437,19.505516,58.580738,75.167759,84.61932,8.918049,41.453007,57.173344,63.077351,1.004563,4.594013,1.470062,-3.399307,-24.994949,-30.49039,-28.020423,-24.477209,-2.49111,16.4202,20.196991,19.737198,18.259955,40.792557,40.976116,37.997993,33.459387,52.121028,50.326117,48.279313,44.969441,59.655369,63.658549,65.975931,26.443016,51.680375,75.423626,96.299355,53.172867,85.709336,102.76046,114.416771,43.74305,80.821129,100.348412,112.098771,33.749485,69.207184,86.975121,97.778321,24.575478,51.192387,66.379315,77.790081,-14.000671,-15.600933,-9.230624,-3.988014,12.811852,30.325541,37.705666,41.908844,31.151675,47.029546,53.339561,55.88337,44.281826,60.277158,64.305681,64.073351,52.644733,68.099985,70.588662,68.497102,-48.186625,301.308483,-70.402251,290.326518
30,3.26659,-0.079287,-0.088108,-0.174914,18.779778,36.788555,48.481774,53.744225,25.954434,59.744316,76.670998,83.261376,16.359238,54.814842,71.57293,81.325608,6.059773,37.699997,53.551895,59.655304,-1.554485,0.737503,-2.675548,-7.807903,-24.632314,-29.930845,-27.327349,-23.717037,-1.887649,17.069913,20.81426,20.539718,18.417109,40.941424,41.190562,38.36884,33.39009,52.015434,50.3511,48.640478,44.852078,59.204701,63.540939,66.426116,26.616783,51.90437,75.694451,96.624218,53.343945,85.855877,102.874638,114.451664,44.01162,81.11871,100.632122,112.411274,34.10598,69.631337,87.365788,98.158825,25.023011,51.757588,66.909565,78.267495,-14.026927,-15.615741,-9.171233,-3.945469,12.774048,30.336643,37.73974,41.94046,31.088899,46.965017,53.357086,55.962373,44.228683,60.180259,64.293627,64.117478,52.639324,68.014028,70.50194,68.465954,-44.945721,301.248598,-70.516045,290.171006
31,3.688717,0.114361,-0.253017,-0.181176,17.440544,33.610977,43.920902,48.136265,22.390743,55.286808,72.309826,78.739346,13.022026,50.498291,67.288891,77.422314,2.963001,33.383354,49.31575,55.729374,-4.4435,-3.698559,-7.429378,-12.795353,-24.676848,-29.940687,-27.379416,-23.91276,-1.288175,17.528645,21.261211,21.254764,18.686996,41.002434,41.361278,38.816902,33.466649,52.00411,50.436835,49.081797,44.862391,58.742525,63.253887,66.546209,26.896271,52.211735,76.015388,97.078743,53.785732,86.142837,103.120422,114.681999,44.516922,81.384773,100.817894,112.587364,34.617645,69.849953,87.570488,98.371147,25.531242,52.066795,67.166256,78.500313,-13.965559,-15.532785,-9.051128,-3.919039,12.946456,30.440459,37.883409,42.091452,31.197803,46.912455,53.363101,56.014342,44.335252,60.143963,64.323885,64.238003,52.816054,68.101491,70.578646,68.579575,-41.267235,301.391494,-70.779293,290.018365
32,3.167015,-0.152795,-0.009522,-0.229501,16.147064,30.779949,39.910561,43.22406,19.208611,51.319714,68.570446,75.081654,10.043633,46.806198,63.85175,74.491299,0.231835,29.543003,45.694187,52.487583,-6.973514,-7.536655,-11.400295,-16.786159,-24.592707,-29.511707,-26.508834,-22.666761,-0.968209,17.77803,21.657969,21.972748,18.753427,40.967805,41.602451,39.404111,33.487162,52.069392,50.746513,49.742205,44.994771,58.57565,63.402211,67.191315,27.031071,52.36726,76.221108,97.366745,54.104485,86.224434,103.166588,114.723702,44.888478,81.461426,100.906151,112.788712,34.956208,69.866089,87.608529,98.520287,25.822358,52.16787,67.208462,78.565739,-13.858645,-15.351585,-8.797446,-3.776137,13.191444,30.767612,38.251836,42.43676,31.30757,46.95421,53.50935,56.185995,44.38091,60.15546,64.464651,64.452239,52.873345,68.168033,70.719486,68.859465,-38.111183,301.280569,-70.799778,289.830734
33,1.656613,-0.398043,-0.047241,0.100233,15.577343,29.229103,37.301879,39.597908,18.180164,49.588073,66.990669,73.410072,9.013206,45.322872,62.586021,73.443924,-0.866192,27.865242,44.30809,51.480171,-8.318402,-9.253727,-12.941025,-18.182854,-24.063296,-28.345168,-24.489522,-19.967564,-0.681453,18.227227,22.390366,23.091566,18.855785,40.984749,42.053673,40.205347,33.573081,52.112902,51.286298,50.63598,45.200845,58.372985,63.525378,67.731384,27.224018,52.589195,76.367214,97.467888,54.130772,86.199372,103.21463,114.843979,44.93383,81.285233,100.763397,112.760834,35.055966,69.732834,87.587563,98.657158,25.961277,52.125183,67.191055,78.603813,-13.744703,-15.229924,-8.736164,-3.651487,13.392133,30.960039,38.309931,42.305825,31.443483,47.02589,53.506176,56.064002,44.479686,60.233266,64.535491,64.46023,52.977741,68.222497,70.776161,68.91982,-36.465774,300.925276,-70.858223,289.973717
34,4.414535,-1.066825,0.306977,0.284348,11.489514,21.275334,26.098801,25.957249,13.221668,43.108692,61.0746,68.186508,5.239014,40.753819,58.712814,70.571869,-3.662567,24.278961,41.294129,49.681297,-10.74107,-11.92448,-14.940136,-19.138573,-20.379427,-21.404718,-13.880801,-6.551274,1.96801,20.616598,25.135468,26.64534,19.938924,40.955911,42.916314,41.772696,33.550987,51.608599,51.565003,51.45363,44.607831,57.695028,63.70396,68.667236,27.133495,52.450401,76.118911,97.015182,53.919376,85.848243,102.94931,114.703193,44.746982,80.958274,100.633872,112.858108,34.898197,69.421863,87.441558,98.725639,25.818889,51.957103,67.08292,78.554752,-13.768872,-15.144004,-8.537698,-3.409709,13.545509,31.03241,38.335681,42.327573,31.579482,47.052801,53.525899,56.086751,44.610289,60.337563,64.658844,64.554461,53.104144,68.290324,70.855202,68.986264,-32.069773,299.897322,-70.56978,290.296936
35,3.072121,-1.38642,0.249252,0.145534,8.700462,15.833988,18.776665,16.410461,9.501297,37.961437,56.04174,63.817611,2.788616,37.894535,56.364532,68.937813,-4.956997,23.267109,41.151718,50.711654,-11.397652,-10.421997,-11.012512,-12.842251,-11.733023,-8.242013,2.079976,10.526914,8.788738,27.276417,31.753433,33.290524,21.776431,42.344678,44.805061,43.790626,31.06662,49.307815,49.897791,50.076188,38.453118,52.260571,58.508972,63.541001,26.789474,52.231808,75.883919,96.602554,53.183452,85.167389,102.566276,114.736404,44.000473,80.23859,100.359695,112.975982,34.307499,68.827663,87.231811,98.921837,25.362636,51.531463,66.822269,78.456379,-13.786076,-14.976377,-8.372949,-3.239649,13.739083,31.172558,38.432493,42.448567,31.842131,47.64768,54.102648,56.562031,44.845631,60.957561,65.253339,64.965669,53.243724,68.728134,71.386909,69.478439,-29.048075,298.537674,-70.370951,290.469242
36,11.824093,-0.509947,-0.002506,-0.060689,5.15998,7.685337,5.953479,0.09494,-2.831211,23.147918,42.799999,52.458721,-9.470055,23.24525,43.42361,57.876056,-15.7309,10.352245,29.904831,41.905666,-20.492066,-19.894467,-18.929261,-18.379498,-7.4574,-2.218977,9.735903,19.965946,10.432423,30.114515,35.12214,36.927203,22.636441,42.396301,45.866304,45.490676,31.133014,48.213103,49.802127,50.549788,37.949703,51.6136,58.083647,63.458873,26.547363,52.07817,75.579059,95.945194,52.0746,84.205936,101.813839,114.484096,42.741703,79.13705,99.607807,112.697994,33.267002,67.583324,86.384388,98.539798,24.664501,50.537338,65.781017,77.197689,-14.015083,-14.884554,-8.072187,-3.296965,13.897276,31.131186,38.512892,42.869112,32.317856,48.742873,55.447708,58.090712,45.303301,62.093695,66.509689,66.256599,53.475153,69.071825,71.84926,69.938751,-17.311557,298.040815,-70.461032,290.421641
37,12.784034,4.514992,-1.056279,-0.612514,0.030396,-2.277809,-7.518779,-15.863605,-14.730732,5.196373,24.699543,35.562001,-19.225456,5.067696,22.452851,35.216137,-22.580806,-4.828708,10.555252,20.174046,-24.319839,-25.591003,-24.862312,-24.521724,-6.670106,-3.069489,6.818691,14.799363,9.29035,27.14064,32.256415,34.434154,20.624082,37.188346,41.91718,42.81077,28.354517,43.396584,46.802095,48.917528,34.633077,47.372619,54.223704,59.993613,26.300721,51.884091,74.796662,94.493134,49.986763,81.981079,99.804108,112.864151,40.986019,77.486653,98.298752,111.981469,32.200871,66.148808,84.575364,96.352043,24.310044,49.498032,63.925656,74.200573,-14.857594,-15.503306,-8.474812,-3.664715,13.019802,30.127593,37.708234,42.403983,31.692398,49.089329,56.081724,59.062021,44.818325,62.354145,67.128452,67.391299,52.835307,68.685588,71.670875,69.898724,-4.647927,302.540808,-71.637715,289.794128
38,13.428669,1.232588,-1.561157,-3.170057,-8.40715,-17.292606,-26.547569,-36.385162,-26.690208,-15.081928,-0.42873,8.031258,-26.463798,-11.515823,0.376488,9.122361,-24.957435,-14.53759,-4.210006,1.907307,-22.533863,-24.466129,-24.227771,-24.704452,-2.629926,2.858006,13.563984,22.227085,10.520133,26.296079,31.702365,34.850512,19.151964,34.247223,41.33244,44.78603,25.016351,39.649248,46.065128,50.82543,29.487723,42.878436,51.280456,58.565869,25.758419,50.9217,72.967621,91.67498,47.658886,79.721008,97.531357,110.443634,39.377884,75.783257,96.680786,110.044876,31.474491,64.964127,83.060108,93.998154,24.415135,49.533634,63.162369,71.855644,-16.090292,-16.485618,-9.623863,-4.538223,11.491641,28.041406,35.171627,39.779937,30.046306,47.944132,55.023718,58.292488,43.125759,60.753044,65.62656,66.415915,51.443528,66.996727,69.788463,68.131206,8.641605,303.730754,-73.338009,286.581429
39,21.499627,-11.328854,-4.028103,-10.08525,-15.250649,-28.684044,-39.487301,-49.470372,-40.739045,-39.270001,-30.061146,-23.842701,-37.457966,-34.565266,-28.858292,-23.846581,-31.904068,-31.585762,-27.084664,-24.312905,-25.200749,-30.595128,-32.213265,-33.813595,-1.958229,4.934524,15.321858,23.686556,14.884801,33.033593,40.457906,44.679819,23.716011,42.33602,51.825935,56.572887,29.704615,47.691337,56.680592,62.33136,33.677056,49.583444,58.570747,65.469478,25.214974,50.357861,71.885124,88.902123,47.85323,79.310457,94.497288,104.953812,41.021771,75.976313,93.710798,104.179253,34.295477,66.255404,81.096863,88.891823,27.967621,52.422552,63.249974,68.680258,-12.063474,-11.220111,-6.081248,-2.852122,12.276346,26.547533,32.431187,36.497612,26.690591,43.105548,49.459468,52.696067,36.353011,52.261047,56.899899,58.243964,42.125162,55.646977,58.471583,57.543048,30.010558,292.325231,-77.496786,276.41951
40,20.706848,-14.84333,-6.256633,-16.7137,-22.706784,-39.87751,-51.48626,-59.593621,-55.538624,-61.543934,-54.623532,-49.056336,-49.917538,-56.652157,-53.673661,-50.23066,-41.086922,-49.510826,-48.470421,-46.912903,-30.817486,-40.701153,-44.049969,-45.994606,-5.234236,1.94888,13.012381,22.11512,17.206963,37.30272,43.667854,46.144947,29.427369,49.70145,57.839289,60.988943,38.322047,57.355475,64.674134,67.977114,44.278775,60.471252,67.286991,71.627922,24.67702,49.982402,71.252174,85.720081,50.902851,80.941972,90.698684,96.159061,46.212077,78.299829,89.480832,94.348606,40.75673,70.077855,78.631942,80.883693,34.858074,58.141267,64.169174,64.639188,-3.022942,0.010473,2.047329,1.476212,15.21921,25.336237,29.157056,32.319641,21.473125,34.050011,38.885945,41.918532,24.367392,36.431984,40.576745,42.694729,24.774432,34.308924,37.377024,37.84495,50.576701,277.410058,-83.894124,259.633967
41,17.080192,-25.411628,-7.458287,-24.264022,-27.767475,-48.782982,-61.623241,-68.059673,-56.932937,-73.570072,-71.659435,-67.449829,-48.693821,-67.532375,-70.261093,-69.455589,-38.560524,-57.593776,-62.013176,-62.785217,-27.62899,-42.43832,-47.616268,-50.02193,-9.342417,-2.994759,9.42194,19.200525,13.613224,31.513606,36.906183,38.684756,26.849734,46.456403,53.006035,54.995324,36.985459,56.224652,61.830725,63.432505,43.600867,59.725764,64.528822,66.553186,20.254051,44.02351,64.991364,78.196736,46.705204,75.610296,80.619496,81.423706,45.99313,75.452402,80.559134,80.651779,43.937719,70.620146,72.904061,70.566536,40.689057,62.067015,63.084595,59.535902,-5.729301,-6.619125,-8.390948,-11.103582,4.757493,11.734857,14.104431,16.169438,10.460212,20.000792,23.543846,26.184343,14.324404,22.882956,26.102733,28.272353,16.790314,22.962089,25.21333,26.02276,67.251371,252.219394,-91.757933,235.590909
42,19.623368,-38.090371,-8.456005,-32.479222,-27.898762,-51.230507,-67.300576,-74.30547,-60.130955,-81.779286,-81.733921,-77.978966,-53.97028,-75.148087,-76.323521,-73.840439,-45.454903,-64.404282,-65.685826,-63.301896,-35.81424,-50.312394,-52.268601,-51.259095,-12.315601,-6.963829,7.593263,21.322646,4.441373,20.795556,26.719317,28.585525,18.280116,37.241327,43.268964,44.72901,30.120628,48.086948,52.254199,52.693578,38.708517,53.244749,56.45955,57.077264,15.38134,36.402134,56.072914,68.116699,42.743786,68.36891,69.677845,67.060776,44.687599,69.166861,68.920984,65.058701,44.817747,66.849215,64.490376,59.311672,43.323429,62.002424,59.760349,54.292986,-7.358154,-13.308844,-19.07782,-23.379305,-9.796653,-10.026723,-9.088839,-7.417002,-5.41824,-2.758076,1.16218,4.308771,-1.328233,1.333204,4.994015,7.798145,2.892019,4.029246,6.550885,8.239487,86.627284,215.049839,-100.461393,204.032503
43,22.100853,-45.67825,-9.710003,-40.6613,-23.839577,-47.752785,-67.063591,-76.06057,-54.573132,-82.323338,-81.33458,-74.650292,-52.108658,-80.463627,-79.614235,-73.113144,-48.023644,-74.52903,-73.298035,-66.342808,-42.841736,-63.832123,-64.152741,-59.635689,-18.296363,-19.172515,-7.607342,5.20112,-8.32222,2.938141,10.661697,12.739567,8.108731,21.645768,27.423871,27.688725,22.501363,34.59431,37.531641,36.49952,34.140432,42.836243,44.242188,43.376688,8.507469,25.950978,45.541706,57.99543,34.840531,58.932032,57.803124,52.652058,40.656418,62.1104,56.508642,49.078743,44.310946,63.329859,55.707333,47.714928,45.758972,62.302775,56.126095,48.510447,-8.979689,-20.80104,-31.154923,-37.613318,-23.051805,-30.723596,-31.212301,-29.755078,-19.710762,-24.21246,-19.87182,-16.285473,-15.466163,-19.302469,-14.684161,-10.863744,-10.457747,-15.136174,-11.727027,-8.537495,108.90156,170.607314,-109.997973,164.606928
44,10.903472,-40.342668,-8.118233,-42.542273,-16.385696,-36.546226,-56.084678,-66.101738,-40.984531,-68.648552,-67.870857,-60.165424,-42.490493,-71.081268,-69.145225,-60.621894,-43.121704,-70.005661,-67.089798,-57.649681,-42.657371,-64.073043,-62.869514,-56.142402,-23.933008,-32.916353,-27.409266,-18.188059,-29.229119,-27.984897,-21.393504,-19.013723,-14.066163,-11.294866,-6.423957,-5.295666,0.309629,2.339686,4.639,4.718312,13.13732,13.808646,14.394682,14.412824,8.007798,22.159871,37.83807,47.666211,25.847455,46.980938,45.852276,40.434918,30.2123,49.525681,43.700524,36.028576,33.405865,50.918381,43.414319,35.481514,34.93776,50.117535,44.463639,37.258416,-15.855907,-34.118233,-47.846078,-54.951507,-41.283967,-53.840289,-51.923742,-48.545902,-36.136347,-44.917602,-38.567974,-33.284331,-29.251337,-36.700944,-30.666212,-25.340801,-21.325079,-29.369015,-24.828705,-20.06374,120.24749,132.480624,-117.673748,124.280633
45,12.722306,-43.482145,-8.580184,-41.500495,-6.970322,-23.258606,-43.306069,-55.318245,-24.084664,-51.890602,-53.639878,-46.876488,-29.879563,-59.060898,-59.067284,-51.017716,-35.524452,-62.665901,-60.713974,-51.869522,-40.157044,-61.577111,-60.154084,-53.57602,-30.766241,-48.931977,-50.920013,-45.186123,-52.251216,-62.045134,-52.919696,-46.984308,-38.041811,-46.502926,-38.467555,-33.135561,-23.489869,-31.241367,-25.446215,-21.167393,-9.175117,-15.90979,-12.939064,-9.693345,1.377376,11.749774,27.366325,38.853721,9.951564,30.594944,32.221,28.371013,16.894397,36.440357,33.188404,27.350166,23.687358,41.141933,35.398922,29.223976,29.210552,42.708126,37.912319,32.2928,-28.559306,-54.601727,-70.117568,-75.518765,-58.450834,-76.9719,-72.175203,-66.703017,-47.019289,-62.572773,-54.011344,-46.78812,-34.188794,-47.787229,-40.476061,-33.825511,-20.878252,-32.888053,-28.156224,-23.020689,133.561112,92.09224,-125.662616,85.873899
46,8.821747,-36.080871,-8.652821,-35.288341,0.727386,-10.587021,-28.58899,-41.46167,-10.373131,-34.85138,-39.187684,-34.85344,-19.121819,-45.010666,-47.023133,-40.935723,-28.236535,-52.195015,-51.627938,-44.500374,-36.610726,-55.169587,-53.69236,-48.057404,-32.166858,-55.042211,-63.406749,-62.255048,-64.248136,-82.197301,-72.850548,-65.080296,-52.793582,-70.00044,-61.282677,-53.831681,-40.020596,-56.444106,-49.648535,-42.698174,-26.433363,-40.669259,-37.359863,-31.935158,-1.334702,6.159748,19.496613,30.397945,1.007229,19.837315,25.124084,24.328514,8.080662,27.508232,28.588348,25.605366,16.085232,34.018398,32.383244,28.325386,23.669998,37.628117,35.787987,32.027332,-29.110867,-56.61074,-73.732344,-80.35754,-63.658148,-87.670678,-84.42294,-78.888337,-53.802658,-76.090537,-69.249833,-62.560176,-42.536419,-62.501482,-56.241954,-49.479975,-30.953586,-47.918221,-44.368159,-39.364844,143.154746,59.008202,-133.54355,53.582391
47,7.093872,-30.021537,-6.814316,-28.129813,4.750396,-2.590966,-17.303925,-29.587143,4.264389,-18.495095,-27.544144,-26.686158,-4.672509,-31.030793,-38.712227,-35.83223,-15.696923,-40.806702,-45.22284,-41.133934,-27.220826,-46.604004,-48.838074,-45.939972,-30.948689,-55.432264,-67.555766,-70.902459,-67.429987,-91.892128,-84.166046,-75.442658,-58.534377,-83.373054,-75.81547,-67.298927,-48.268494,-71.996263,-65.632932,-57.304833,-37.017229,-56.999422,-54.363457,-47.912262,-3.90065,1.41156,13.280651,23.421375,-7.554794,11.177948,19.062195,20.465779,0.548435,21.602406,26.509083,25.644596,10.555584,30.560841,32.365265,29.778717,20.64632,35.801148,36.071091,33.130303,-29.849421,-57.244003,-75.139989,-83.621142,-63.63033,-89.337631,-88.257129,-83.670994,-54.817891,-80.570913,-77.411996,-72.298686,-44.847188,-69.060828,-65.820987,-60.046311,-35.023611,-55.700428,-54.685609,-50.524978,150.356438,31.384712,-140.250046,27.850625
48,3.643524,-19.780627,-5.280086,-18.49541,8.179069,5.159729,-5.620217,-17.010864,10.316894,-7.164894,-18.918297,-20.862007,0.311279,-20.431206,-31.448891,-31.458275,-11.567963,-31.035919,-38.948662,-37.944878,-23.870384,-38.907578,-43.279244,-42.66053,-29.934019,-54.836694,-69.293935,-75.660822,-68.837896,-96.830339,-92.029794,-82.953256,-62.55812,-92.5231,-87.454787,-78.462655,-54.514814,-82.877346,-78.56855,-69.958907,-45.457387,-68.49126,-67.410016,-60.980458,-4.292908,0.156429,10.146045,18.997169,-12.132065,4.945999,14.587658,17.213928,-4.478508,16.431518,25.332172,26.483539,6.10445,26.315391,32.168357,31.223201,17.463604,32.367942,35.491584,34.069175,-29.167492,-55.52576,-72.998879,-82.574972,-63.497312,-91.041139,-89.971844,-84.529515,-55.810516,-85.071196,-84.13262,-79.109317,-46.836397,-74.675928,-73.855617,-68.640986,-38.188288,-61.18069,-62.7451,-59.853556,153.425154,13.737404,-146.10494,11.488534
49,2.786201,-10.656404,-3.750252,-8.480455,10.626343,9.01751,-0.534073,-11.269043,15.688225,0.241837,-13.107582,-16.585167,5.383095,-13.128639,-26.217544,-27.941803,-7.316047,-24.852813,-34.860557,-35.603279,-20.947151,-34.683059,-40.131019,-40.630462,-29.019779,-54.200665,-69.329473,-76.729691,-67.135598,-98.343676,-95.053391,-86.144517,-61.089806,-95.330614,-92.403829,-83.660447,-53.62969,-86.17383,-84.105321,-75.739369,-45.469138,-71.941447,-72.882628,-67.016988,-11.314133,-9.078369,2.701069,14.150104,-19.276623,-2.097897,9.722751,13.690006,-7.167652,13.438248,24.372425,26.810005,7.922985,27.21199,34.689239,34.971073,23.708919,37.561397,40.961826,40.17651,-28.576887,-54.444233,-71.694452,-82.154959,-59.567437,-90.540968,-92.784397,-88.38552,-51.687257,-86.210189,-88.68898,-84.758338,-43.040865,-76.071179,-78.312978,-74.405005,-35.076532,-61.678739,-66.456294,-65.603194,154.975404,4.228817,-151.091143,4.155896
50,0.939194,-2.076698,-1.067722,-2.073505,11.561348,10.473495,1.37986,-9.451401,18.990738,4.407509,-10.970467,-16.419159,8.978325,-8.639488,-24.525352,-28.716522,-3.837067,-20.748871,-33.637276,-36.656456,-18.001419,-31.335709,-38.997093,-41.354782,-27.908185,-52.546544,-67.731032,-76.067516,-64.530415,-97.045657,-96.592199,-88.57434,-58.69523,-94.563907,-95.281392,-87.979739,-51.583848,-85.954856,-87.625594,-80.764852,-44.0996,-72.166885,-76.697618,-73.257978,-12.591042,-12.716149,-4.332745,5.384697,-21.683648,-7.979348,5.357242,12.059749,-9.974854,7.056026,20.313308,25.80812,5.38195,21.679664,31.997348,34.693473,22.27375,35.661163,41.278667,42.160251,-27.2011,-51.461892,-68.254731,-79.599665,-55.499128,-86.045081,-93.345399,-92.14034,-48.460285,-82.297757,-89.872667,-88.991798,-40.550001,-72.871303,-79.837472,-79.420367,-33.099184,-59.13569,-67.582671,-70.032149,154.534052,2.29981,-153.539411,2.230082
51,-2.763474,6.510538,0.729343,10.278782,13.205613,13.3266,6.095719,-4.422065,19.34198,5.804421,-9.713562,-16.007171,8.573388,-8.736282,-24.75579,-29.31372,-4.563468,-20.241325,-33.660736,-36.945648,-18.70269,-31.744194,-39.548515,-41.697807,-28.609719,-54.631405,-71.16049,-80.456446,-66.849564,-102.1924,-103.848533,-97.731754,-61.126116,-100.041546,-101.358744,-93.900857,-53.568217,-89.521302,-91.383256,-84.512936,-44.982285,-72.629402,-77.327324,-74.508918,-15.139881,-17.032574,-11.419819,-3.26255,-22.596176,-11.085754,0.846977,6.70966,-8.35302,6.609295,17.517197,21.891449,8.961983,23.30286,31.094009,32.947208,27.111717,39.449581,42.898373,42.529781,-29.421293,-54.684393,-72.396566,-83.718862,-55.666064,-89.607005,-96.080708,-93.324028,-48.511797,-85.604164,-90.808408,-87.15405,-40.827903,-75.695273,-80.435729,-77.928532,-33.682966,-61.340198,-67.688659,-68.148903,150.539857,8.691578,-154.040789,12.390094
52,-2.980201,21.578477,-0.468144,19.73072,15.93457,17.048538,10.230285,-0.190132,19.159149,7.63536,-4.626755,-9.3937,5.821563,-8.24215,-20.471009,-23.544754,-8.923188,-21.215813,-30.849198,-32.528275,-23.7342,-34.74115,-39.692871,-39.908318,-30.808398,-58.033895,-75.97034,-85.725491,-68.573369,-105.97384,-106.362651,-99.451039,-62.549289,-103.392166,-103.809679,-95.221488,-54.494503,-91.584012,-92.600417,-84.993847,-45.208452,-72.975229,-76.972592,-73.869257,-16.278522,-19.098587,-14.698997,-7.718307,-21.442211,-13.383888,-3.211898,1.39032,-5.635437,5.978051,14.317875,16.93348,12.487656,25.004666,31.172379,31.950211,30.713734,44.158928,48.686944,49.167584,-29.81978,-55.572258,-74.720543,-87.752788,-52.762226,-87.037558,-95.288783,-94.564346,-45.421769,-80.670646,-86.860766,-83.943096,-37.507787,-70.140212,-76.68281,-75.815451,-30.244969,-54.641223,-61.20531,-62.563196,146.501095,29.661813,-155.567494,31.512572
53,-3.563988,23.801901,2.526742,19.129481,16.719749,18.317459,12.079056,2.08326,18.792961,9.771858,-1.030403,-5.465515,4.559692,-6.549133,-17.504127,-20.734177,-10.575233,-20.569061,-29.490143,-31.745956,-25.321083,-36.549133,-41.900871,-42.719307,-30.987253,-58.866514,-78.51137,-90.325076,-66.338048,-106.79196,-110.792497,-106.736378,-60.464794,-104.346872,-109.027362,-103.471393,-52.514768,-91.495629,-96.784169,-93.047615,-43.219305,-70.494647,-76.407472,-76.238572,-17.15086,-22.561203,-21.774559,-18.076745,-21.219063,-18.757496,-11.471192,-7.561032,-4.446511,2.508029,8.277511,10.391613,13.905933,24.610199,29.435199,30.233551,32.085376,45.609478,50.971664,52.752685,-28.825364,-53.949254,-73.912662,-88.02851,-44.636742,-72.300482,-80.219583,-81.700216,-36.821375,-65.687099,-73.734901,-74.416588,-29.284904,-56.275058,-64.924679,-67.894788,-22.636324,-42.085968,-48.383313,-51.079403,141.251999,52.845988,-154.72586,50.024327
54,-2.391266,23.064902,1.82864,17.333328,15.963547,18.419197,13.91098,5.419007,16.311356,9.987328,1.66285,-2.15213,1.949707,-6.99749,-15.795685,-18.991424,-13.010216,-21.460647,-29.12606,-31.758156,-27.377243,-39.417847,-45.571403,-47.7033,-30.661383,-58.807251,-79.082678,-92.163311,-63.218732,-103.307679,-111.44161,-111.731448,-56.839753,-100.057589,-109.509953,-108.689574,-48.323235,-85.619854,-95.031315,-96.170635,-38.370187,-61.667981,-68.505932,-70.908189,-15.101521,-21.957791,-23.911721,-23.227593,-19.22128,-20.694512,-16.617428,-13.766579,-3.745183,-1.119507,1.271358,2.148387,13.120594,21.222301,23.912132,23.938396,30.075187,42.320159,47.977352,50.379844,-27.831392,-50.968333,-69.707848,-83.893066,-36.68876,-56.180012,-64.190275,-68.439105,-28.343334,-47.831251,-57.230318,-61.758958,-20.936773,-39.838722,-49.502934,-55.736953,-15.457239,-28.195793,-33.617115,-37.317608,137.233354,75.364661,-154.524599,66.811426
55,-2.009994,21.42015,-0.736016,23.787241,15.744072,19.887359,18.038612,12.096748,14.189254,8.840492,4.242393,3.100158,-1.168351,-8.316536,-13.390183,-14.735367,-16.472397,-23.494263,-27.725418,-28.555664,-30.44767,-43.378762,-49.552941,-52.314972,-28.980586,-56.587769,-77.038684,-90.229437,-57.822746,-94.609282,-103.956016,-107.050521,-51.398709,-88.526076,-96.025991,-95.660774,-42.931956,-74.500118,-81.506919,-82.625127,-33.280656,-53.036212,-58.637531,-60.860743,-13.872631,-21.2738,-24.993564,-26.708072,-17.116161,-20.557251,-19.341556,-18.890053,-0.82489,0.380551,0.113846,-1.195473,16.022862,24.781826,26.491139,25.949169,32.259133,46.382389,53.220532,56.947117,-28.529228,-53.498816,-73.942858,-90.693868,-38.302737,-51.977576,-57.969706,-62.538261,-28.859969,-40.007135,-47.895065,-53.85083,-20.434811,-33.018316,-41.174255,-47.489253,-14.5384,-24.179751,-28.680121,-32.107256,133.757796,96.336518,-156.726179,90.150374
56,0.286789,16.450433,-1.142784,11.418151,14.992057,20.653999,20.187881,17.136016,14.173095,10.994659,9.231536,10.301879,-1.949776,-5.88588,-8.137642,-8.267968,-17.672814,-22.878159,-24.741326,-24.951485,-31.644036,-44.502869,-51.254792,-55.430535,-25.883401,-51.091216,-70.826944,-83.471261,-49.677299,-82.909271,-94.054973,-99.470595,-43.92631,-73.619582,-79.991632,-80.232489,-36.278077,-61.665925,-67.811956,-69.479168,-28.025412,-45.247867,-51.07426,-54.152271,-11.51841,-18.725727,-21.726894,-24.561207,-15.540333,-19.968063,-20.176449,-20.707409,-0.705872,-0.047802,-0.083393,-1.346947,14.60194,23.779907,27.201862,27.54578,29.109329,44.588986,55.350483,62.467781,-25.257474,-49.066754,-68.995538,-86.360625,-34.866789,-43.741688,-52.384906,-61.573731,-25.373831,-26.903963,-35.666649,-44.616982,-16.509516,-20.958614,-30.530422,-39.275824,-10.388309,-14.516941,-20.821195,-27.120651,132.677285,112.403969,-159.236263,101.185543
57,-0.230118,2.485973,0.662258,1.965411,13.529548,19.974037,21.585502,21.450805,14.318321,11.649765,9.853157,11.419121,-0.74643,-4.57267,-6.903191,-7.008408,-15.499603,-21.289719,-23.890915,-24.376671,-28.595833,-43.35537,-53.108208,-59.8293,-21.252676,-43.588504,-62.011061,-74.078981,-42.763803,-72.150021,-87.57641,-97.845319,-38.183756,-60.043952,-66.279082,-68.270193,-31.26713,-49.803659,-55.763333,-58.633338,-23.61295,-37.319689,-43.908736,-48.595592,-10.748623,-17.992321,-21.343208,-25.34967,-15.788841,-19.497665,-20.744957,-21.786323,-1.622623,-1.544929,-1.891022,-2.668705,13.231053,22.552746,26.501347,27.791588,27.744827,42.572216,53.709767,61.925137,-22.929645,-45.409919,-63.855965,-79.700639,-32.949847,-38.476237,-44.894464,-53.041412,-23.653588,-22.339657,-30.870717,-41.378871,-14.825082,-16.732793,-24.29594,-32.523213,-8.60768,-12.156056,-17.917327,-24.313014,131.57717,114.984803,-159.444002,103.245815
58,0.955948,0.353978,-2.625721,2.821679,13.37931,20.971573,24.658538,27.388572,13.842155,11.304771,11.215507,14.177009,-1.812859,-5.507836,-5.324868,-3.691269,-16.9021,-22.438568,-22.436715,-20.91758,-29.988968,-44.648827,-54.285164,-61.217217,-19.163438,-39.450393,-56.40986,-66.7534,-40.604971,-64.379732,-79.498265,-91.270332,-36.698171,-49.050433,-50.358282,-50.147139,-29.831815,-40.246374,-41.179781,-40.782794,-21.941663,-32.474122,-37.516278,-40.895871,-10.007,-15.288357,-16.729191,-20.278129,-13.806598,-15.200649,-16.62426,-18.088405,-0.017051,0.895134,0.51772,0.05357,14.562367,24.109177,28.18412,29.77953,28.866715,44.252175,55.813385,64.632511,-23.018781,-45.115648,-62.863982,-78.514062,-36.10081,-43.547663,-50.915098,-59.026731,-27.33022,-26.56738,-34.663341,-44.319463,-18.407483,-20.843222,-27.028001,-33.146893,-11.867509,-16.901502,-23.008778,-29.388688,132.847641,115.488989,-161.7552,106.217702
59,-0.106705,-0.581034,-2.337375,3.075899,14.358284,22.54509,26.900413,30.711937,14.643745,12.102814,13.095978,17.216629,-2.285294,-5.016769,-3.234375,-0.330711,-18.096794,-22.719292,-20.699295,-17.53846,-31.277344,-45.14534,-54.233048,-60.987923,-17.726234,-36.45117,-52.932182,-62.395488,-39.990882,-61.278188,-75.56393,-87.263398,-37.253153,-43.646019,-39.716229,-36.042184,-30.968252,-36.617834,-33.146825,-29.216745,-23.491957,-33.609848,-37.961418,-40.569027,-12.223675,-15.958558,-16.286076,-19.374504,-12.801258,-13.422696,-15.300602,-17.28059,2.583469,4.609577,4.69376,4.9174,18.474598,29.456577,33.891906,36.05516,33.597862,51.174671,63.629619,73.564247,-22.666823,-45.675292,-64.279437,-80.162403,-39.822748,-50.392121,-58.633436,-66.689445,-31.824606,-34.348086,-42.38678,-51.256565,-22.987511,-28.406462,-34.237806,-39.042241,-15.410068,-23.226874,-30.17592,-36.854208,133.458258,115.131637,-163.375253,109.517283
60,0.018288,-0.8053,0.58485,-3.775945,14.205963,22.052559,26.185295,30.691932,14.72541,13.085083,14.04158,18.10968,-2.512757,-4.430764,-2.575791,0.439407,-18.577973,-22.646416,-20.528641,-17.170693,-31.94133,-45.232705,-54.197594,-60.933861,-17.666484,-35.983558,-52.554046,-62.512307,-42.689764,-64.054672,-78.921627,-91.536402,-40.432638,-46.01427,-41.927745,-38.325739,-33.850693,-38.85925,-35.770531,-32.022541,-25.711828,-35.51436,-39.912027,-42.643482,-12.770382,-15.67487,-15.093601,-17.504654,-12.060219,-11.802269,-13.882713,-15.950031,2.973335,5.736156,5.852451,6.572147,18.471851,29.63847,33.473362,35.496448,33.219246,50.322464,62.756836,72.846416,-20.53116,-41.520119,-58.369021,-71.87383,-36.861452,-49.071453,-57.880884,-65.611671,-29.708123,-35.995884,-44.422814,-52.517132,-21.721282,-29.942806,-36.00535,-40.55052,-14.613173,-23.49991,-30.331691,-36.978215,134.233578,114.577371,-162.033371,105.992372
61,-0.680878,-2.07206,1.018135,-0.843245,14.176208,22.162102,26.189415,30.699097,14.369224,12.910812,13.994385,18.089104,-2.88382,-4.275055,-2.475655,0.32476,-18.899368,-22.615814,-20.319099,-16.931534,-32.150528,-45.147057,-53.963654,-60.683167,-16.830852,-34.681902,-50.728957,-60.844508,-42.781198,-63.774059,-78.495604,-91.464166,-40.430977,-44.882311,-40.519027,-37.437922,-33.602826,-37.909522,-34.870519,-31.599019,-25.202757,-34.325726,-38.62387,-41.641958,-13.447735,-16.094273,-15.510658,-17.671909,-11.422108,-11.408901,-13.698429,-15.59325,3.163582,4.73774,4.393055,5.568558,18.302937,28.684902,32.003254,34.179039,33.059029,49.620701,61.840473,72.068241,-19.198703,-39.573233,-55.626099,-68.264241,-35.074209,-45.613517,-52.184446,-57.72263,-28.421757,-37.217523,-47.168577,-55.950955,-21.122865,-31.407501,-39.175036,-45.031877,-14.311899,-24.074429,-31.348295,-38.631984,134.306442,112.762294,-160.261494,105.40611
62,-1.293778,-1.487579,0.667683,1.25349,13.672692,22.191056,26.160782,30.333664,14.391655,12.958214,14.321549,18.620636,-2.877731,-4.2033,-3.013343,-0.76966,-18.933425,-22.815536,-21.065162,-18.063674,-32.159729,-45.165458,-54.225357,-61.154754,-16.460981,-34.162113,-49.945852,-59.748118,-41.117086,-61.168643,-75.101061,-88.447684,-38.155432,-41.974942,-38.14089,-36.300542,-31.263888,-35.190319,-32.757205,-30.597749,-23.285154,-31.721249,-35.83931,-38.99365,-13.573735,-16.143837,-15.625981,-17.471192,-10.874485,-11.25396,-13.810021,-15.882489,3.524139,5.744922,5.797691,7.679489,18.411232,28.990127,32.125431,34.517646,32.796878,49.423439,61.641277,71.980533,-19.04208,-39.735896,-56.183742,-68.695845,-34.720768,-44.885263,-51.478441,-57.13229,-28.245392,-37.338356,-46.416599,-53.896593,-21.333452,-32.426006,-40.852202,-47.093983,-14.916714,-25.24828,-32.78945,-40.537015,133.772111,111.499514,-158.834364,106.884399
63,-1.964492,0.305911,1.204193,2.579204,13.464958,22.326141,26.299461,30.328697,14.062729,12.84407,14.715591,19.355804,-3.092469,-3.947365,-3.181252,-1.610573,-18.95208,-22.762368,-21.620293,-19.273705,-31.988274,-44.674118,-53.889496,-61.15947,-15.946544,-33.32608,-48.929674,-58.569697,-39.743429,-59.026669,-71.758709,-84.921834,-36.314559,-39.822019,-36.038053,-35.002202,-29.4258,-33.215182,-31.038542,-29.667325,-21.83544,-29.77025,-33.678526,-36.927814,-13.895542,-17.098606,-17.122662,-18.845398,-10.874199,-11.336369,-14.077206,-16.190884,3.664375,6.172119,6.411426,8.669071,18.508426,29.065223,32.091911,34.759987,32.577896,49.025676,61.186352,71.75893,-19.058345,-40.200253,-56.905166,-69.231963,-35.28053,-46.433439,-53.655644,-59.997676,-28.901898,-38.550542,-47.30667,-54.402786,-21.957681,-33.670012,-42.534796,-49.231387,-15.562907,-26.374188,-33.883514,-41.787406,132.318753,111.957619,-157.119037,109.615797
64,-1.602677,1.661809,0.918514,2.897631,13.227516,22.149102,26.016495,29.900734,13.606797,12.409539,14.698883,19.63179,-3.515648,-4.156219,-3.423042,-2.236313,-19.257545,-23.025421,-22.023903,-20.176506,-32.154739,-44.784713,-53.953811,-61.360496,-15.898379,-33.177262,-48.596074,-57.967872,-39.484109,-58.643453,-71.2585,-84.488421,-35.836648,-38.960212,-34.752441,-33.820627,-28.939992,-32.618056,-30.014072,-28.619476,-21.507366,-29.262539,-33.044578,-36.323976,-14.030823,-18.023403,-18.785076,-20.824848,-10.750935,-11.310677,-13.920605,-15.621895,4.013557,6.76506,7.476688,10.501316,18.793476,29.522758,32.970875,36.43808,32.563145,48.951176,60.9757,71.856846,-19.187569,-40.791667,-57.837912,-70.415748,-36.458678,-48.825186,-57.348404,-65.045173,-29.975706,-39.731845,-47.97156,-54.412314,-22.848368,-34.639764,-43.785846,-50.670936,-16.42459,-27.68526,-35.219785,-43.197377,131.143106,113.697443,-155.773493,112.591443
65,-1.282013,2.420289,0.249172,2.604707,13.406891,22.345734,25.924805,29.264443,13.439804,11.98423,14.172959,18.926216,-3.673645,-4.889259,-4.269859,-3.258018,-19.386451,-23.821655,-22.958061,-21.343162,-32.27449,-44.986473,-53.970314,-61.224449,-15.819703,-33.062455,-48.335216,-57.619137,-40.003214,-59.793826,-73.278226,-86.751351,-36.251562,-39.483442,-35.250643,-34.22177,-29.394228,-33.30059,-30.548744,-28.978228,-21.987828,-29.670196,-33.392814,-36.720204,-14.269878,-18.947353,-20.322109,-22.683002,-10.268326,-10.91019,-13.437492,-14.885078,4.669098,7.453675,8.222512,11.598622,19.523323,30.151005,33.725086,37.71809,33.226513,49.270935,60.873471,71.766438,-19.24438,-40.989071,-58.325938,-71.33457,-37.924219,-51.224387,-60.985917,-69.988238,-31.423402,-41.348644,-49.148888,-55.219213,-24.134963,-36.107386,-45.330212,-52.155676,-17.604975,-29.146898,-36.662875,-44.524814,130.149805,116.234104,-155.235609,115.312522
66,-0.663803,1.834555,0.083348,1.367179,13.415085,22.211586,25.619522,28.470566,13.300484,11.666657,13.979645,18.871033,-3.788383,-5.329628,-4.56118,-3.433021,-19.460518,-24.147011,-23.027961,-21.216934,-32.355125,-45.270927,-54.294525,-61.593635,-16.106928,-33.575589,-49.09695,-58.196132,-40.372778,-59.852667,-73.311806,-86.596925,-36.643065,-40.20481,-36.051706,-34.752947,-29.865828,-33.966623,-31.039808,-29.229755,-22.482751,-30.218101,-33.996739,-37.311025,-14.431092,-19.532948,-21.01561,-23.446393,-10.819703,-11.967865,-14.445237,-15.786381,4.36948,6.634437,7.895027,11.835788,19.410518,29.868015,34.164756,39.093406,33.281833,49.131294,60.528568,71.542831,-19.750771,-41.386911,-58.969995,-72.973735,-38.009231,-52.137392,-64.44281,-76.151849,-31.416251,-41.069106,-49.424802,-56.049435,-24.218444,-35.969072,-45.529252,-52.499805,-18.030676,-29.860462,-37.329359,-44.875291,129.693174,118.246892,-154.945089,116.857934
67,-0.157928,2.042123,-0.142731,0.401816,13.625084,22.03022,25.201698,27.465202,12.803627,11.30159,13.836914,19.012138,-4.276383,-5.354645,-3.943199,-2.520882,-19.899605,-24.137902,-22.252579,-20.000336,-32.795403,-45.713654,-54.488068,-61.629799,-16.581727,-34.380987,-50.368866,-59.507007,-42.23869,-62.199782,-75.653925,-88.288053,-38.7403,-43.308293,-38.55608,-36.165357,-31.81128,-36.529524,-32.961178,-30.208221,-23.897249,-31.94539,-35.964811,-39.389958,-14.545052,-19.806713,-21.14764,-23.651127,-10.962788,-11.748871,-13.956471,-15.020622,4.325249,6.908535,8.68,12.919945,19.32304,29.833076,34.253437,39.299217,33.113125,48.977737,60.254665,71.061882,-19.994728,-41.616147,-59.312494,-73.651186,-37.614461,-52.16313,-65.252346,-77.822037,-30.948992,-40.713276,-49.619235,-56.802315,-23.682179,-35.655651,-45.628503,-52.861064,-17.538173,-29.725605,-37.52517,-45.357147,129.666458,120.417298,-154.956608,117.388033
68,0.153534,1.02271,-0.464882,-0.119086,13.781616,21.953132,25.020103,26.856216,12.890396,11.290649,13.862388,19.178604,-4.172905,-5.633904,-3.895272,-2.055703,-19.851013,-24.263672,-21.944802,-19.210671,-32.859513,-45.911934,-54.283333,-60.925164,-17.204016,-35.3741,-51.601867,-60.448904,-43.555801,-64.319062,-78.270499,-90.719111,-40.151025,-45.790499,-40.912099,-37.83649,-33.125113,-38.683107,-35.034868,-31.798739,-24.897488,-33.228501,-37.501618,-41.144182,-14.5746,-19.471092,-20.301361,-22.609474,-11.789394,-12.590939,-14.405708,-15.169338,3.480251,6.592644,9.26152,13.98175,18.623417,29.461372,34.335743,39.442737,32.695198,48.726414,60.090225,70.609943,-20.381088,-42.434093,-60.4987,-75.261476,-37.498413,-52.066354,-65.813354,-79.04506,-30.489019,-40.547747,-50.09044,-57.862223,-23.054701,-35.194159,-45.677607,-53.341722,-16.841072,-29.262322,-37.391893,-45.612658,130.053515,121.554055,-155.187967,117.382994
69,0.076286,0.064264,-0.493595,-0.407324,13.889534,22.030289,25.092659,26.723419,12.288666,11.255241,14.346451,19.886261,-4.677338,-5.373413,-3.45227,-1.687454,-20.130936,-23.918221,-21.259506,-18.169624,-32.951111,-45.68042,-53.67112,-59.919067,-17.533424,-35.999107,-52.567872,-61.075931,-43.921055,-64.58073,-77.9667,-89.91349,-40.553305,-46.339948,-41.700627,-38.845196,-33.448142,-39.417826,-36.109696,-33.074089,-25.198484,-33.70582,-38.268397,-42.318496,-14.378094,-18.814625,-19.190895,-20.912842,-12.290291,-12.779618,-14.025742,-14.694798,2.85133,6.447132,9.713196,14.451301,18.076446,29.379959,34.529857,39.380321,32.405662,48.593536,60.193073,70.471859,-20.674625,-42.866704,-60.867764,-75.336596,-37.007053,-51.432264,-64.776065,-77.35928,-29.886483,-40.39334,-50.627199,-59.216978,-22.294498,-34.879547,-45.635543,-53.787326,-15.965551,-28.497926,-37.000013,-45.692446,130.504126,121.701219,-155.307237,117.05857
70,0.433777,-0.27658,-0.44315,-0.450321,14.059776,21.913719,24.913124,26.232193,12.57328,11.733856,14.710762,20.017708,-4.308655,-5.106949,-3.312492,-1.363335,-19.785118,-23.626167,-21.094093,-17.614838,-32.700279,-45.438698,-53.401886,-59.34771,-18.422136,-37.32516,-54.306505,-62.69339,-43.353575,-64.068553,-76.034832,-86.741971,-39.764876,-47.80355,-43.839927,-41.191569,-32.768455,-40.763942,-38.249039,-35.50532,-24.804677,-34.065837,-39.158264,-43.687422,-14.164535,-18.07671,-17.737713,-18.761432,-13.429161,-13.851345,-14.410389,-14.832721,1.625656,5.823223,10.187966,15.244538,17.05259,28.715344,34.331806,38.991348,31.768261,48.163868,59.991932,69.857735,-21.414586,-44.14708,-62.448538,-77.036832,-36.486695,-51.04152,-64.582422,-77.086769,-28.930747,-39.842873,-50.94464,-60.314277,-21.036958,-34.104512,-45.431174,-54.16283,-14.686928,-27.614222,-36.58523,-45.804239,131.494337,121.461001,-155.193953,116.644611
71,1.214058,0.175309,-0.483558,-0.556909,14.109627,21.183059,23.721863,24.066833,13.003509,12.315925,14.616897,18.852699,-3.445198,-5.440521,-4.720642,-3.359299,-19.029282,-24.109062,-22.745911,-19.500023,-32.432625,-45.892822,-53.979172,-59.512413,-19.716017,-39.311269,-56.564705,-65.01355,-42.501085,-63.93335,-76.956846,-88.472242,-38.145032,-49.575367,-47.441872,-45.7152,-30.935536,-41.897691,-41.944288,-40.761224,-23.294472,-33.976169,-40.248109,-45.799348,-14.004353,-17.462517,-16.478875,-16.647767,-13.876271,-13.912262,-13.615002,-13.526196,1.193687,6.000629,11.041557,16.117973,16.717449,28.633964,34.40269,38.697063,31.53004,47.890606,59.772125,69.033382,-21.611279,-44.364398,-62.400971,-75.925818,-35.453733,-50.286948,-63.302786,-74.824406,-27.765943,-39.404302,-51.335816,-61.563672,-19.649487,-33.458732,-45.237042,-54.598818,-13.210568,-26.48787,-36.26777,-46.475885,133.33683,121.602005,-155.049076,116.053397
72,0.903259,0.188154,-0.074742,-0.111978,14.145149,20.196625,21.704887,21.342384,13.079384,12.305901,13.982002,16.751129,-2.76638,-6.012863,-6.740501,-6.824135,-18.333549,-24.647026,-25.000488,-23.121117,-32.223541,-45.824799,-53.752876,-59.11599,-20.774426,-41.381168,-58.897234,-68.071962,-41.495678,-63.607358,-78.168006,-91.117834,-36.35763,-50.4984,-51.840675,-52.997902,-28.916477,-42.202022,-45.836775,-47.86737,-21.57221,-33.374745,-40.952157,-48.151372,-14.025467,-17.05941,-15.27856,-14.486412,-14.380371,-14.408054,-13.591907,-13.368164,0.601937,4.975571,10.032154,14.905449,16.353813,27.973892,34.014199,38.401016,31.480271,47.133053,58.565838,67.308872,-21.843004,-44.484694,-62.423911,-75.55274,-35.24648,-51.378448,-64.987819,-76.678703,-27.169644,-40.232456,-53.264435,-64.648266,-18.90101,-33.698966,-46.14683,-56.278504,-12.408381,-26.258214,-36.635136,-47.287249,134.915955,121.763096,-154.447952,115.914356
73,1.381485,1.188263,0.8172,-0.521,12.522812,16.813774,16.86264,15.781448,11.450157,9.662018,10.108017,11.493485,-3.704796,-9.892845,-12.397224,-13.379951,-18.829124,-27.373787,-29.839691,-29.19635,-32.550865,-47.038284,-54.961098,-59.882652,-24.329526,-47.251792,-66.380254,-77.455339,-42.903519,-65.868473,-80.87938,-93.804254,-36.126702,-53.228102,-57.935218,-61.09185,-27.839204,-43.982768,-51.209845,-55.877546,-20.471534,-34.040415,-43.302019,-51.881313,-14.216515,-17.315117,-14.688538,-12.663769,-14.973049,-15.226914,-14.526947,-14.60566,0.109875,3.882179,8.298557,12.355717,16.097156,27.168125,32.91457,37.135746,31.421036,46.141788,56.780125,64.828262,-21.618962,-44.062402,-61.609566,-74.027123,-34.372151,-52.057858,-66.99062,-79.81518,-26.367599,-40.801313,-54.975528,-67.768089,-18.226585,-34.126773,-47.215915,-58.139841,-11.691558,-26.013831,-36.960629,-48.056536,136.855677,122.922114,-153.072515,115.364111
74,2.08358,2.447712,1.5191,-0.553661,11.256569,12.888863,9.890648,7.031777,9.989502,5.033135,2.832619,1.765137,-4.73053,-15.953934,-21.518394,-24.630386,-19.812973,-32.739784,-38.056663,-39.707863,-33.833176,-50.088982,-58.428406,-63.501594,-27.56547,-52.85319,-73.418473,-86.639953,-43.784142,-68.095168,-83.947048,-97.515052,-35.18355,-56.687755,-65.807037,-71.932579,-26.152621,-46.076873,-57.355802,-65.197715,-18.481842,-34.571462,-45.552254,-55.45542,-13.966919,-17.074093,-13.684799,-10.490879,-15.806019,-16.247406,-15.398506,-15.171009,-0.784675,2.973793,7.80336,11.905003,15.316315,25.968819,31.951264,36.366737,30.762989,44.582417,54.482895,61.829579,-22.184119,-44.580234,-62.013271,-74.222624,-34.413998,-52.580747,-68.257176,-82.038596,-25.82354,-41.032803,-56.363985,-70.380186,-17.26568,-33.521736,-47.721515,-59.71823,-10.337309,-24.883674,-36.797459,-48.702939,139.374859,125.243701,-151.117813,114.684325
75,1.487091,3.555398,2.996407,0.022768,9.344238,7.466103,0.7817,-4.033584,6.254036,-3.052414,-8.391174,-12.147583,-7.598717,-24.115745,-33.125587,-39.068413,-22.0494,-39.631142,-48.200775,-52.716362,-35.796089,-54.10469,-63.155731,-68.73008,-30.560038,-57.977314,-79.347816,-94.16631,-46.020495,-71.264928,-88.159211,-102.496446,-35.244091,-59.667417,-72.671788,-81.819784,-24.77103,-47.32091,-62.132925,-72.996947,-16.101254,-34.39711,-46.88058,-57.944926,-14.262955,-17.336918,-13.462406,-9.032982,-17.791546,-17.417256,-15.644303,-14.234986,-2.994953,2.24707,8.499344,13.50222,13.288513,24.697746,31.914596,37.1422,28.927929,42.354,51.706546,58.327789,-22.124784,-44.765023,-62.383873,-74.571237,-34.127174,-53.688279,-70.047389,-84.636406,-24.751776,-41.936977,-58.516599,-73.398701,-15.738044,-33.18553,-48.568564,-61.313886,-8.545189,-23.564149,-36.406197,-48.926599,141.079439,128.54612,-147.903917,114.454114
76,0.179283,3.761365,3.229946,0.456113,6.933747,1.355416,-9.347374,-15.819946,0.030281,-14.752144,-23.60273,-30.236114,-12.851646,-34.31932,-46.693062,-55.421287,-25.979233,-47.721061,-59.101478,-66.230827,-38.371055,-58.305427,-68.30413,-74.967293,-32.873307,-61.319425,-82.850935,-99.086742,-48.728633,-73.484774,-88.563157,-101.230982,-36.104675,-61.359346,-76.453549,-87.596843,-24.137254,-47.84257,-63.787842,-76.025841,-13.798407,-33.067802,-45.972805,-57.542967,-14.100838,-16.923351,-12.635216,-8.183762,-18.522766,-15.15588,-11.538506,-8.407013,-4.539082,4.21558,12.731998,19.83443,11.171459,24.08012,32.993969,39.895523,26.52792,40.60152,49.974735,56.596412,-23.296745,-46.221517,-63.974156,-77.014175,-33.29765,-52.279844,-68.90069,-84.444053,-22.711894,-40.177202,-57.645195,-73.077247,-12.963826,-30.126569,-46.845616,-60.250859,-5.322003,-20.007547,-33.430901,-45.769473,141.388395,131.882658,-144.544298,114.4854
77,-0.791748,4.899328,1.561935,4.876905,4.028023,-5.293876,-19.746986,-28.182312,-7.245323,-27.739769,-40.749367,-50.646446,-19.064941,-46.053154,-61.991295,-73.279266,-30.597336,-57.060699,-71.434913,-80.739258,-41.058838,-63.361496,-75.122772,-83.348327,-35.605288,-64.296425,-85.327708,-102.201014,-50.936971,-74.624033,-87.891412,-98.540505,-36.227034,-61.160029,-76.031751,-86.877273,-22.667601,-46.634782,-62.107713,-73.850122,-10.6316,-30.188283,-42.686838,-53.734252,-13.120067,-14.485039,-9.262161,-5.285248,-12.229202,-3.076675,-1.16526,0.447453,1.919232,15.800617,21.443333,26.11108,16.971886,32.850975,38.381767,42.933369,31.415234,45.950054,51.47192,55.423771,-26.651218,-50.62592,-69.123855,-83.086531,-37.820244,-57.661089,-70.641853,-82.26249,-25.799106,-45.211292,-58.939625,-69.396724,-14.863231,-33.957681,-47.567027,-56.943049,-5.944329,-22.610351,-33.686263,-42.332414,140.732837,136.117045,-142.846173,118.697364
78,-2.671119,5.091259,1.417603,5.899505,1.773284,-10.999306,-28.994019,-40.110627,-14.630539,-40.226487,-57.133553,-70.349625,-24.888703,-55.625473,-75.079354,-89.875306,-34.562188,-64.690728,-81.867852,-93.96238,-42.998681,-67.074852,-80.909684,-91.604348,-35.27315,-62.385768,-81.040956,-96.776771,-49.97772,-71.125835,-82.679269,-91.856535,-34.068869,-57.061339,-70.784225,-81.356896,-19.391247,-41.922441,-55.698556,-66.558521,-5.915782,-24.229139,-35.073542,-44.927599,-10.697949,-10.368668,-4.485249,-0.474335,-5.529282,8.604343,12.715656,16.076111,7.39413,25.48653,33.097881,38.508636,20.66391,39.375217,46.00645,50.789188,33.202389,49.052604,54.186744,57.366428,-28.177608,-52.85847,-72.026965,-86.52548,-39.899942,-58.328309,-68.649223,-77.625449,-25.739424,-44.63061,-56.733858,-65.101848,-12.885495,-31.369759,-44.191497,-52.533613,-2.407531,-18.464441,-29.117456,-37.119451,138.28382,140.109773,-141.206468,123.498338
79,-4.600045,6.19721,0.98727,8.349125,-1.451454,-17.326149,-37.469856,-50.255264,-22.211357,-51.019592,-70.493637,-85.765617,-30.824936,-64.241272,-86.049499,-103.163921,-38.359657,-70.819221,-90.374633,-104.442112,-44.334869,-69.429794,-84.924888,-97.516731,-34.699699,-59.721874,-75.694174,-89.851314,-48.882417,-66.175447,-75.467729,-82.586286,-32.114012,-51.477021,-62.659421,-71.288622,-16.362137,-35.828466,-46.941904,-55.653343,-1.833073,-17.505878,-26.272256,-34.368347,-7.938995,-5.046821,2.06963,6.71941,0.731941,20.95673,28.364994,34.509361,11.34914,35.014732,45.749645,53.69838,22.249672,45.473042,54.774296,61.505859,32.542854,51.392269,57.764374,61.701061,-28.944616,-53.931871,-73.696955,-88.504,-39.178716,-56.182155,-64.762134,-71.999412,-23.522405,-41.487496,-52.30899,-59.352872,-9.622863,-27.006388,-38.703732,-46.160557,1.674048,-13.283841,-22.85279,-29.989977,133.943933,144.702569,-139.95904,130.243049
80,-6.085876,6.358539,-0.405521,9.451691,-5.814469,-24.133118,-44.96965,-58.783653,-30.983139,-60.95858,-82.181992,-99.306336,-36.979294,-70.389496,-93.592804,-112.805111,-41.298317,-73.582421,-94.508835,-110.195355,-43.627213,-67.817597,-83.988991,-97.984657,-33.108151,-54.969705,-68.007458,-80.713013,-44.714314,-57.00288,-63.765137,-68.527329,-28.35742,-42.544318,-50.646929,-56.458921,-12.864291,-27.835771,-35.901363,-41.883366,1.505079,-10.230562,-16.129591,-21.585468,-3.352856,3.081161,11.729553,17.344986,12.145168,36.328766,46.035289,54.092434,19.148838,45.475239,57.714237,67.243194,25.553432,50.64299,61.453788,69.638843,31.253414,50.459541,57.547977,62.465183,-29.967537,-53.587946,-72.319335,-86.913612,-37.953081,-51.440038,-57.234913,-61.98867,-21.592032,-35.664698,-43.770365,-49.027252,-7.150253,-20.484205,-29.43526,-35.516484,4.671641,-5.991797,-12.684238,-17.872866,128.089148,149.218543,-140.13347,137.852175
81,-7.378555,8.726345,1.02697,14.724034,-9.805138,-29.979035,-50.857888,-65.467141,-37.839547,-67.111817,-88.667336,-106.527947,-41.940651,-74.304932,-98.035538,-118.498707,-43.894387,-75.179993,-96.765084,-113.395924,-43.513276,-66.437188,-82.530213,-96.852356,-31.119799,-50.134974,-60.71445,-71.392047,-40.038973,-47.835561,-52.216494,-55.057,-24.649745,-33.981233,-39.161913,-42.079262,-10.112173,-20.594565,-25.867655,-29.159804,2.943075,-5.274905,-8.443967,-11.086341,1.228351,11.108711,22.176979,30.31097,26.912716,56.899864,69.988254,80.677002,32.849762,64.587227,79.590831,91.18935,36.900077,67.197853,80.587497,90.424736,39.250751,61.396534,69.652851,74.932743,-30.422162,-52.576894,-69.90322,-83.588402,-36.752647,-47.791627,-50.622469,-52.397639,-19.609016,-31.568373,-36.723804,-39.547804,-4.428178,-16.265015,-22.424391,-26.542982,8.475015,-1.808589,-7.420769,-11.668741,120.945958,156.045365,-138.871135,150.676686
82,-8.081498,11.19175,1.622314,12.538001,-13.592663,-35.618705,-56.423332,-71.769087,-45.868446,-76.06965,-97.837669,-115.653328,-48.170208,-81.019483,-105.15838,-126.186767,-47.779483,-79.13962,-101.373859,-118.836874,-44.848732,-67.425121,-83.349969,-97.49271,-28.726532,-45.041306,-53.034662,-61.484119,-34.243067,-37.67124,-40.069774,-41.657211,-19.537095,-24.254858,-27.108029,-28.101575,-5.830085,-12.027659,-14.876465,-16.1453,6.005246,1.248532,-0.119079,-1.000499,6.508667,19.753956,33.26944,44.381882,34.029076,66.681885,85.928433,102.106945,36.757439,72.267334,94.616181,112.057182,37.977642,71.815201,92.708027,107.949795,37.66729,63.288345,76.934635,85.860443,-28.298299,-47.993248,-63.454779,-75.306313,-28.12018,-34.931485,-38.936982,-42.41269,-10.255095,-17.665737,-24.24575,-29.514264,4.907886,-2.025988,-9.181533,-15.452448,17.272628,11.44555,4.810147,-1.982312,113.010372,165.363954,-137.102909,161.341526
83,-8.303741,13.58104,1.001278,15.246362,-16.854778,-40.754082,-61.586014,-77.29719,-55.269013,-87.995482,-109.895302,-127.414742,-56.161663,-90.808954,-115.304426,-136.567337,-53.659573,-86.076101,-109.107891,-127.420778,-48.36026,-71.667744,-87.575392,-101.249531,-26.729154,-40.638854,-45.940009,-52.256212,-27.573226,-26.924754,-28.19149,-29.702899,-12.927196,-13.279766,-14.623868,-14.985281,0.142415,-1.835278,-2.843928,-3.107355,11.013995,9.460422,8.840312,8.422194,12.225769,29.189529,44.995308,58.550159,41.969593,76.955475,98.58601,116.6926,42.063046,81.11174,105.749348,125.787312,41.322178,77.753094,101.470791,119.310848,39.542095,67.156712,83.112591,94.525761,-28.327384,-45.262688,-58.448253,-68.779789,-21.266891,-24.918718,-27.864836,-30.468295,-3.784596,-7.422344,-12.034723,-15.745639,10.289113,7.781281,3.206168,-1.30478,21.284107,19.115013,14.56176,9.258499,104.755056,177.330409,-136.053206,174.973303
84,-6.479714,14.065076,1.426094,15.91996,-20.546733,-45.727294,-66.553596,-82.985681,-63.965881,-98.483133,-120.929248,-138.940384,-63.307079,-98.919004,-123.878076,-145.333053,-59.055507,-91.480722,-115.033527,-134.089467,-51.86174,-74.978256,-90.98002,-104.583011,-25.10513,-36.653154,-39.399041,-43.611839,-19.818553,-15.693694,-16.222642,-17.77824,-5.418654,-2.298584,-2.605138,-2.721488,6.781659,8.470459,8.671191,8.790826,16.257124,17.86106,17.980547,17.76544,17.818142,37.922791,55.549278,70.977276,51.490437,86.228016,108.277668,126.775784,49.631149,88.923649,113.830753,134.055576,46.982884,82.749058,106.940666,125.268036,43.452152,70.156872,86.650887,99.162712,-27.871061,-41.941682,-52.786419,-61.871072,-15.042857,-15.269148,-16.264317,-17.276888,1.588394,2.227733,0.375542,-0.907854,14.56029,16.17767,14.631266,12.696638,24.196232,25.39813,23.225084,20.075874,98.281448,190.336789,-134.621006,189.834567
85,-5.617836,16.077103,2.513958,16.535476,-23.00703,-48.917701,-70.964378,-88.834951,-68.01828,-104.976648,-127.245826,-144.389705,-67.822414,-106.015417,-131.286294,-151.855407,-64.550731,-98.939478,-122.906627,-141.812055,-58.694343,-83.813232,-100.48998,-114.148361,-24.408252,-35.150601,-36.247523,-38.458095,-14.549206,-9.332525,-10.448176,-13.429047,1.155171,5.613421,4.903119,3.303042,13.852303,17.341918,17.598126,16.656655,23.072863,26.462645,26.535017,25.401965,22.19228,44.751835,64.289772,81.486614,57.625992,92.758118,115.032188,133.682156,55.172321,95.27124,120.301575,140.14658,52.452004,88.502976,112.558102,130.604038,49.081009,76.538086,93.252651,106.145977,-26.620047,-38.48193,-47.392688,-54.845598,-8.750293,-6.725966,-5.992124,-5.408113,7.376099,10.797492,11.09918,11.850917,19.478007,23.267531,23.702624,23.858297,28.056584,29.397741,28.111776,26.259128,92.713829,205.717261,-132.056831,205.673412
86,-4.635841,15.358624,1.87199,13.108625,-25.359478,-52.519134,-76.36615,-95.796679,-71.55542,-111.60153,-133.877643,-149.96973,-71.016964,-112.004076,-137.06864,-156.19574,-67.863773,-104.209871,-128.032528,-146.43588,-62.583321,-89.555912,-106.525595,-120.090385,-23.819079,-33.675297,-32.936058,-33.224093,-8.494331,-2.687921,-4.214484,-7.750084,8.832736,13.903229,12.491701,9.28478,22.171406,26.744592,26.638288,24.355981,31.353334,35.947509,35.247679,32.587984,27.027352,52.135151,72.622147,91.128239,59.454151,90.710793,111.124523,128.688687,54.418556,90.286057,113.508717,131.426548,50.19904,82.182793,104.581032,121.282391,46.224438,70.804035,86.875305,100.16343,-24.414668,-33.695051,-40.716172,-46.019865,-2.05782,2.272168,4.54383,6.771463,13.234669,20.266608,22.69934,25.340615,24.082673,31.788,34.724208,36.870701,30.845849,35.754143,37.196978,37.29489,88.085644,220.607403,-130.177185,218.313555
87,-3.5625,13.440095,4.978741,13.779234,-28.271919,-57.167335,-82.742317,-103.923134,-72.656067,-112.8731,-133.441624,-147.329945,-71.176163,-112.643692,-135.347259,-151.49873,-68.006149,-104.457275,-125.728329,-141.500496,-63.45266,-90.541443,-106.021534,-118.013889,-22.883777,-31.552732,-29.225272,-28.243008,-3.823759,2.435276,0.43765,-3.500619,14.276683,19.95036,17.622814,13.279142,27.881274,33.515369,32.619618,29.225037,36.884954,42.391756,41.217449,37.751337,29.937401,57.673141,79.795097,99.77853,63.274635,94.538109,113.112442,127.507851,56.464577,91.82436,113.155678,128.011551,50.69038,82.045612,102.202629,116.112431,45.31842,69.767097,85.258976,97.459019,-23.585262,-30.40184,-34.267601,-37.888225,4.395295,12.240475,14.518052,16.183609,20.021657,30.626784,32.948611,34.556839,30.45282,41.306283,44.322037,45.688376,36.287283,44.414193,46.330086,46.253022,84.498579,233.796258,-125.223009,231.841549
88,-2.706665,11.163103,4.900257,10.750153,-30.555771,-60.358314,-86.457676,-108.504387,-73.100281,-108.172142,-122.309509,-130.151894,-71.23621,-107.578434,-122.284161,-130.571903,-68.070328,-100.029488,-113.680344,-122.066425,-63.814453,-87.861546,-99.065197,-106.700741,-20.948357,-28.417897,-25.410208,-24.131184,-0.521494,6.853321,6.409545,3.5815,16.837275,23.720693,22.924705,19.705607,30.025595,36.794663,36.686105,33.906818,38.640086,45.027734,44.802938,42.101777,31.767574,61.324493,85.292244,106.363518,66.255901,97.514374,115.406879,129.193829,58.359478,93.328033,114.170883,128.346611,51.277863,82.288204,101.487053,114.559147,44.649902,68.638504,83.756298,95.461178,-21.120715,-25.687047,-27.104194,-30.01417,9.9514,20.307278,23.795621,26.083881,26.108272,38.972007,41.929568,43.397807,36.553997,49.221748,52.440006,53.290532,42.135691,51.892811,54.032772,53.76727,81.745239,244.894683,-120.369427,242.527024
89,-4.333466,10.411984,5.223873,9.421273,-30.430961,-60.349136,-86.787803,-108.726642,-72.890384,-102.318695,-108.434028,-108.682434,-71.577152,-101.84729,-106.526744,-105.512924,-68.927776,-95.433631,-99.867782,-99.936367,-65.23265,-85.882759,-91.02301,-92.853595,-19.111542,-25.841855,-22.313671,-20.824857,0.515937,9.385767,11.099155,9.928293,17.64355,25.940361,27.327151,25.784367,30.981392,38.44866,39.749679,38.115825,40.171546,46.901106,47.272127,45.055077,32.789108,63.443928,88.982781,110.87574,68.04847,100.520004,118.136318,131.133442,59.702648,95.76416,116.355652,129.913101,52.005535,84.301644,103.087109,115.663468,44.800873,70.001358,84.942822,96.151943,-19.044605,-22.054196,-21.4412,-23.617309,14.038771,26.020858,30.401173,33.298984,31.229975,45.274068,48.542468,49.798039,42.151041,55.911454,59.003346,59.34327,47.953653,58.649726,60.509624,59.814537,77.331596,255.296654,-115.225731,251.938284
90,-4.613342,7.866225,5.692887,8.350336,-29.248764,-59.020683,-84.303818,-104.280681,-73.794502,-96.320675,-94.713558,-88.396648,-72.300396,-95.297081,-90.312664,-80.944313,-68.783008,-88.503067,-83.725342,-76.247761,-63.820209,-79.782955,-78.519447,-74.678444,-16.18629,-21.164176,-17.032764,-14.755372,3.782744,16.00609,20.523527,21.287306,18.90542,30.182885,34.430683,35.101762,31.040697,40.479976,43.739015,43.760034,39.675838,47.701119,48.783628,47.249896,33.504604,64.723434,91.448341,113.618202,68.784931,102.923137,120.426933,132.729709,60.009441,97.840301,118.519294,131.947711,51.808559,85.932392,104.852119,117.513004,44.33741,71.089508,86.42942,97.656772,-17.684824,-19.682561,-17.662977,-19.361076,17.225907,30.975118,35.694418,38.537641,35.50987,50.700842,53.689068,54.102364,47.033127,61.984631,64.586571,63.944502,53.260298,65.327403,66.71675,65.201,72.603275,263.156522,-109.647823,260.282263
91,-4.448456,5.834191,5.538517,6.957233,-27.17839,-55.598991,-78.696533,-96.885028,-73.29372,-89.252815,-80.842678,-68.812259,-71.834816,-87.861854,-74.65678,-58.432594,-67.945335,-81.23125,-68.636398,-54.716915,-62.294014,-73.322387,-66.522628,-57.811409,-10.727862,-13.246513,-8.971384,-6.139745,8.605192,24.388412,30.850086,32.168494,20.076381,35.064317,42.226957,44.685328,29.637814,41.957429,47.722497,49.374765,36.580154,47.07082,50.120228,50.082573,33.317207,64.707126,92.220371,114.151187,69.325859,105.002815,122.271411,133.727199,59.916744,99.472549,119.981311,133.16328,50.968677,86.711437,105.488983,117.997592,42.942112,70.747249,86.052795,96.854187,-16.2565,-17.34406,-14.234211,-16.354349,20.230905,35.219681,40.161554,42.749712,39.105733,54.840714,57.387968,56.740651,50.822047,66.506095,68.392101,66.482816,57.214424,70.608855,71.437224,68.989635,68.036831,268.970379,-104.227294,267.219162
92,-7.900474,6.237946,3.754978,4.919273,-21.991722,-46.640351,-66.704899,-82.374184,-69.207321,-77.098086,-62.88307,-47.152703,-69.845844,-76.837538,-57.291796,-36.434933,-67.237747,-72.399525,-53.751194,-35.60162,-62.100512,-68.487694,-58.011269,-46.35228,-7.805085,-9.598582,-6.22764,-3.2756,10.604386,29.79634,37.830804,39.56541,20.28288,38.480085,47.671164,51.232403,28.479204,43.093594,50.454206,53.215882,34.629897,47.260833,51.661192,52.635564,33.46471,63.730728,90.540458,111.947525,68.083042,101.560512,119.443382,132.659385,58.468403,96.24987,117.390793,132.287887,49.290939,83.387649,102.839504,116.863861,41.226963,66.916843,82.050647,93.447567,-13.979145,-14.184613,-10.792231,-13.445745,21.581028,36.895142,43.611944,47.613606,39.595241,56.05937,60.522999,61.408327,50.898678,67.454038,70.520563,69.527802,57.14514,70.773999,72.583126,71.224469,60.005745,275.084321,-100.602928,272.014431
93,-11.134987,7.000163,4.549587,5.056099,-14.877342,-34.64875,-51.964119,-65.458077,-59.755245,-60.475702,-44.462992,-29.736431,-63.397282,-62.579962,-42.055704,-22.143803,-63.567776,-61.660092,-41.383415,-23.841351,-60.72761,-64.187153,-52.897968,-41.519188,-8.071946,-10.585391,-8.50649,-5.546595,9.764333,31.41362,38.564361,39.215902,20.174656,40.46431,48.135058,50.323511,28.521182,44.74806,50.790152,52.640392,34.852704,49.038812,53.047908,53.699116,32.661083,62.168827,88.196514,109.062458,66.593719,99.555634,117.237408,130.078045,56.62302,94.141376,115.00288,129.419071,46.946835,80.796581,100.008327,113.767147,38.321972,63.469837,78.202286,89.046284,-13.487636,-13.25974,-9.472514,-11.475722,22.665353,38.453982,45.15342,48.96715,40.364688,57.02816,61.391407,62.034068,51.328733,68.038938,70.873986,69.75529,57.194824,70.954125,72.686928,71.34671,48.702627,281.896241,-96.221472,276.882287
94,-17.388897,8.833014,3.467846,3.569285,-9.345074,-23.178989,-35.354816,-45.159084,-45.331226,-38.71277,-22.794405,-10.149971,-49.723206,-41.45212,-21.668581,-3.863709,-50.980579,-42.896381,-22.993298,-6.969749,-49.46549,-49.71563,-39.744278,-30.4449,-8.137241,-10.845546,-9.610859,-6.071153,8.335935,28.752264,34.879639,35.429675,18.390044,37.606241,44.099075,45.726575,25.907768,41.544115,46.439872,47.870951,31.520528,45.275284,49.001465,49.884916,31.844765,61.124348,86.648609,107.087471,65.384949,98.068165,115.464569,128.109146,55.151539,92.314831,112.631698,126.554054,45.052849,78.397785,97.09108,110.271515,35.953422,60.329967,74.683124,84.978172,-13.348105,-12.689302,-8.275519,-9.438316,23.550977,39.675183,46.176229,49.840684,40.933681,57.40879,61.649363,62.149159,51.460928,68.144803,70.759488,69.343489,56.906364,70.788251,72.377559,70.822893,31.152397,290.495252,-92.914959,280.217569
95,-6.008263,3.937305,2.298134,2.287519,-5.216251,-16.384449,-27.987991,-38.471969,-40.44984,-29.778013,-13.008745,-1.542389,-46.954479,-33.347849,-13.892229,2.461579,-49.854263,-37.364147,-17.387317,-2.251419,-49.808286,-49.154216,-39.869258,-31.351581,-9.168201,-12.793105,-12.149159,-8.917958,6.904165,28.333793,33.160187,32.539213,18.61279,38.484555,43.116675,42.963022,26.789996,43.026359,46.025503,45.904002,32.715671,46.96874,49.747027,49.914642,31.064106,60.095352,85.168327,105.304298,64.352382,96.790786,114.092857,126.72361,53.968059,90.761856,110.772171,124.420532,43.565105,76.460186,94.913189,107.778831,34.02436,57.721893,71.822296,81.865276,-13.394961,-12.392344,-7.428883,-7.973275,23.857185,40.137237,46.438804,50.001939,40.898175,57.075733,61.256816,61.740717,51.083868,67.730569,70.342562,68.800074,56.234742,70.399422,72.0807,70.441659,24.966888,294.163248,-90.794071,282.235779
96,-9.724662,4.72461,1.817093,1.273812,-1.868855,-10.137738,-20.342949,-30.06197,-34.874142,-17.961794,-0.106047,10.553581,-42.697152,-21.921141,-1.632048,13.965087,-46.270936,-28.124177,-7.457257,7.099273,-46.737139,-43.140851,-33.854794,-26.043412,-12.370923,-16.782329,-15.72867,-12.301596,4.004267,24.454164,28.279361,27.891902,17.78783,35.856235,38.938458,38.334285,27.17501,42.076379,43.132719,42.451994,34.181972,47.308899,48.544784,48.170367,30.339923,59.120899,83.989402,104.10482,62.82011,95.419693,112.740944,125.395088,52.440158,89.425792,109.430832,122.963264,41.96862,75.116867,93.614238,106.398353,32.306259,56.116882,70.375488,80.532131,-13.695006,-12.725587,-7.356808,-7.071719,23.278621,39.58998,45.505966,48.692831,40.377866,56.483065,60.649797,61.041752,50.581356,67.294512,69.914335,68.207035,55.666095,69.953547,71.639333,69.807618,15.015879,298.635552,-89.203325,283.257285
97,-2.88778,1.083133,1.279163,0.606006,-0.70721,-8.112659,-18.062759,-27.665474,-33.500896,-14.926941,3.858868,14.527691,-42.168457,-19.101574,1.852719,17.545338,-46.502678,-26.623535,-5.023555,9.843029,-47.635448,-43.673607,-34.009712,-26.006092,-13.326467,-17.665076,-15.772451,-11.776952,2.444637,23.082329,26.861047,26.453852,17.380531,35.445058,38.072723,36.993202,27.610413,42.655629,42.917413,41.685962,35.485183,48.695474,49.238877,48.332986,29.794624,58.33596,83.114193,103.261494,61.236683,94.236076,111.722134,124.642605,51.038944,88.524204,108.648525,122.277157,40.868111,74.524349,93.209003,106.228855,31.591736,55.996239,70.609978,81.183517,-13.966251,-13.37625,-7.959628,-7.077363,22.491896,38.594835,44.225176,47.311709,39.753063,55.421501,59.525915,59.985289,50.128664,66.546184,69.188558,67.618542,55.31061,69.476377,71.055174,69.12577,11.861807,299.557269,-88.190454,283.701875
98,-3.386799,2.309873,0.788979,0.131109,-3.214004,-11.020431,-20.459918,-29.447467,-33.22808,-14.490886,4.415211,15.885659,-39.065963,-15.282302,6.268891,22.551819,-40.703556,-20.309577,1.369881,16.863877,-39.577159,-33.56195,-23.187675,-14.671211,-8.430141,-9.630495,-6.053566,-0.595249,5.763302,23.259133,27.029526,27.860724,16.783491,31.792089,35.505141,35.927044,23.694461,36.716919,38.13514,38.071006,28.831218,40.3143,41.276977,41.273161,29.433975,57.854381,82.580108,102.717807,59.824962,92.964603,110.564746,123.844287,49.98286,87.620956,107.894245,121.840747,40.308586,74.25896,93.141803,106.50452,31.571571,56.429363,71.326343,82.339531,-13.968721,-13.58698,-8.180263,-6.995766,21.707097,37.616054,43.167329,46.316687,39.110179,54.412388,58.554618,59.186634,49.745934,65.848132,68.515738,67.093613,55.162199,69.07737,70.543337,68.601027,8.232227,301.7653,-87.644256,283.731142
99,10.068615,-5.003438,0.82323,0.116906,-4.940654,-15.849437,-28.325088,-39.863136,-41.230762,-25.678173,-6.614845,5.00243,-47.536731,-26.481491,-5.009113,11.563054,-49.475383,-31.429756,-9.493904,6.533467,-48.570819,-44.453933,-33.324531,-23.729484,-6.343212,-6.227566,-1.530966,4.366285,8.955489,28.66732,32.107892,31.521276,19.664283,36.841123,40.210386,39.512866,26.371403,41.378395,42.609624,41.643502,31.333159,44.812286,45.457813,44.598556,29.250389,57.351929,81.969887,102.045868,58.096012,91.416241,109.25837,122.835022,48.553677,86.470929,107.019562,121.281761,39.406929,73.729718,92.882721,106.616959,31.304581,56.569588,71.711495,83.071896,-13.925768,-13.6904,-8.300602,-6.931447,21.132794,37.016531,42.577526,45.767651,38.712062,53.860413,57.950699,58.619999,49.610355,65.508826,68.166477,66.855466,55.206424,68.982546,70.449155,68.505944,18.044643,296.687095,-87.077225,283.773281
100,-4.974884,3.365212,0.831791,0.148386,-4.758258,-14.068267,-24.203624,-33.677272,-36.988975,-20.507812,-2.190445,9.329579,-41.952495,-20.61296,0.770222,17.542157,-42.791542,-25.086628,-3.804954,12.215321,-41.029575,-35.795059,-25.584617,-16.856746,-6.887962,-7.102903,-2.749919,3.397594,7.823703,24.280707,27.892241,28.521268,17.800433,32.050588,35.951263,36.627257,24.035607,36.73737,38.582806,38.840355,28.649388,40.514952,41.334281,41.092985,29.048939,56.968861,81.503563,101.57729,56.712307,90.166775,108.136563,121.922116,47.336861,85.424549,106.082028,120.520214,38.55756,73.162651,92.40231,106.330433,30.963524,56.604218,71.909111,83.488907,-13.839268,-13.675987,-8.286424,-6.792274,20.930883,36.753005,42.162835,45.221951,38.620066,53.609448,57.558745,58.174878,49.702462,65.370567,67.946498,66.729903,55.415091,68.943347,70.260002,68.279616,12.839727,300.011162,-86.475466,283.880522
101,3.956269,-1.446367,0.544785,0.446184,-5.586079,-15.936013,-26.717469,-36.590905,-38.650646,-24.877659,-6.787216,4.558994,-43.896538,-25.28151,-4.652607,11.902759,-45.493973,-30.024159,-9.19471,6.673061,-44.609207,-41.994427,-32.442169,-23.91869,-6.19532,-6.689472,-2.659331,3.249578,7.284251,24.634252,28.371004,28.304141,17.565225,33.226414,37.019396,37.061436,24.310581,38.097089,39.945365,39.69624,29.411029,42.252867,43.029836,42.247631,28.686126,56.453316,80.959785,101.064525,55.694584,89.286186,107.326298,121.26131,46.575382,84.805366,105.489452,120.092045,38.228508,73.04805,92.323803,106.437549,31.15884,57.264061,72.747059,84.667717,-13.889076,-13.947887,-8.568537,-6.848121,20.47572,36.181011,41.468168,44.47298,38.245945,52.856944,56.60785,57.197307,49.525485,64.768698,67.278926,66.247484,55.447745,68.677128,69.877593,68.000369,16.612868,298.525173,-86.113809,284.287084
102,-3.790398,3.865279,0.537208,0.273925,-5.299805,-14.161789,-23.470985,-32.029518,-35.548633,-20.412872,-2.818611,8.399677,-39.749348,-20.055668,0.472401,16.894444,-39.9948,-24.213215,-4.285904,11.101238,-37.943687,-35.02977,-27.664593,-21.10714,-7.112882,-8.525842,-5.322725,0.232058,6.099323,20.800194,24.314163,25.15923,15.988046,28.770863,32.696534,33.796779,22.367629,33.69305,35.77688,36.393791,26.988833,38.057804,38.9674,38.758622,28.435479,55.913498,80.248913,100.404339,54.908661,88.426609,106.458447,120.423397,45.928849,84.108261,104.877491,119.580632,37.765389,72.673176,91.996228,106.123638,30.873127,57.215126,72.76997,84.795788,-13.949604,-14.107845,-8.602475,-6.651668,20.007504,35.672052,40.906202,43.850943,37.797513,52.326422,56.021221,56.580655,49.201592,64.319142,66.834422,65.826939,55.275868,68.449677,69.647153,67.76137,12.684282,302.357904,-85.714789,284.528461
103,5.591297,-2.489493,0.580399,0.203294,-4.083744,-13.370899,-23.606472,-33.102585,-38.021244,-24.71101,-6.953933,4.183663,-44.689499,-27.013206,-6.304481,10.37455,-47.253238,-33.316086,-12.796875,2.852097,-47.30841,-46.416607,-38.410938,-31.184234,-11.511277,-15.369998,-13.058001,-8.165652,2.854969,19.308107,23.357625,23.648469,16.495388,30.928658,34.638536,34.915684,26.33213,38.692784,40.148303,39.909687,33.933877,46.339967,46.403348,44.682932,28.186363,55.31274,79.448513,99.597233,54.23909,87.616802,105.621036,119.585026,45.352478,83.347767,104.10886,118.815136,37.271152,72.032604,91.351742,105.449009,30.441215,56.794338,72.355671,84.443115,-13.974958,-14.237619,-8.618332,-6.484695,19.754266,35.37113,40.581667,43.46472,37.465556,52.006432,55.731649,56.229209,48.873784,64.021012,66.631893,65.588089,55.02021,68.257732,69.575795,67.680724,18.149145,299.850472,-85.260824,284.713816
104,-5.652786,2.722082,0.563793,0.195453,-4.03521,-12.208797,-21.374622,-29.680424,-35.566944,-19.758648,-1.441177,10.240952,-40.930378,-20.484432,0.835648,17.866837,-41.784222,-25.721935,-5.036854,10.727303,-40.087452,-37.563664,-30.246815,-23.785778,-11.408253,-14.817678,-12.161904,-6.679591,2.963896,17.804509,21.783755,23.182574,15.725385,28.069885,31.962643,33.364538,24.767213,35.517244,37.179664,37.762118,31.581446,42.693914,43.234502,42.461424,27.958626,54.821045,78.807106,99.00428,53.754959,87.034618,105.013756,118.977882,44.824516,82.701691,103.481873,118.200142,36.730099,71.392147,90.739334,104.845345,29.894177,56.27346,71.809307,83.861149,-13.960756,-14.358984,-8.723642,-6.495267,19.533693,35.13985,40.364033,43.199143,37.176452,51.771125,55.551745,56.022073,48.595944,63.831648,66.502637,65.418028,54.774949,68.117052,69.505461,67.566596,12.395674,302.567031,-84.797716,284.903746
105,0.792755,-3.419182,0.43634,0.388113,-3.141289,-11.486023,-21.176891,-30.376007,-34.821327,-19.825722,-1.685028,9.353737,-41.247986,-21.519344,-0.613586,15.884583,-43.723102,-27.512524,-6.33601,9.458176,-43.67775,-40.971474,-31.734535,-23.717617,-11.081766,-13.656338,-10.381998,-4.855694,3.413205,20.458257,24.435144,24.865755,16.693718,31.502096,35.086634,35.463632,26.351914,39.324811,40.690236,40.39334,33.84776,46.896029,47.173029,45.456911,27.7072,54.319863,78.204037,98.433106,53.359761,86.590554,104.55835,118.519478,44.467987,82.308804,103.137909,117.885865,36.426796,71.023053,90.416062,104.529419,29.612606,56.030068,71.532109,83.525917,-14.116823,-14.715345,-9.052116,-6.733289,19.079729,34.631175,39.853272,42.669955,36.753154,51.354545,55.162372,55.619374,48.236162,63.479078,66.167308,65.059852,54.472509,67.825146,69.242281,67.248842,13.091509,299.141192,-84.458296,285.285202
106,-6.972324,5.488562,0.413395,0.300391,-0.896954,-6.334477,-12.949013,-19.262821,-28.43866,-11.16045,6.855045,18.132442,-34.883091,-13.467144,7.727726,24.729435,-37.003269,-19.424057,1.555114,17.662731,-36.447544,-32.345696,-23.885422,-16.355965,-13.82861,-18.881683,-17.481208,-13.046331,-1.250224,12.908504,17.189882,18.790922,12.902625,25.61207,29.482277,30.687312,23.42487,34.407712,35.954363,36.171156,31.483843,42.372355,42.366871,40.485892,27.53769,53.862614,77.620205,97.866772,53.02779,86.201271,104.199841,118.166188,44.103951,81.929581,102.824353,117.541043,36.023518,70.639607,90.085202,104.098378,29.16235,55.638886,71.142907,82.994683,-14.16894,-14.912242,-9.265809,-6.90729,18.833814,34.309604,39.588054,42.438156,36.542647,51.204084,55.077132,55.544743,48.072437,63.382031,66.066,64.875638,54.34965,67.673944,69.048175,66.886836,6.034556,304.624394,-84.12953,285.580233
107,-5.058449,0.212335,0.503048,0.337355,0.617008,-3.139572,-7.458401,-11.393498,-23.497078,-5.703735,12.16618,23.521488,-30.130474,-8.197414,12.737743,29.864994,-32.924732,-13.776627,7.242233,23.484638,-32.930878,-27.069969,-16.837647,-7.602127,-14.303483,-19.933749,-19.225077,-15.04287,-2.257015,12.621636,17.40176,18.735668,12.177416,26.443181,30.274745,31.01102,23.012341,35.53546,36.862057,36.417441,31.243448,43.02765,42.996614,40.812737,27.212448,53.367359,77.09071,97.264481,52.736218,85.993138,104.0327,117.980118,43.775254,81.6698,102.609307,117.30629,35.673226,70.315098,89.796318,103.77697,28.809803,55.337918,70.864952,82.671776,-14.261813,-15.135038,-9.567448,-7.230825,18.789774,34.124451,39.384191,42.256869,36.518576,51.157438,54.969538,55.415808,48.030743,63.348254,65.98759,64.770007,54.259272,67.511355,68.859626,66.654605,0.898579,304.831465,-83.70401,285.912324
108,-2.332443,0.245606,0.364277,0.47722,1.520496,-1.079109,-4.566742,-7.835907,-20.846226,-2.028992,15.443126,26.407161,-27.329006,-4.645729,15.782924,32.553028,-30.148247,-10.203209,10.52045,26.413341,-30.333115,-23.361626,-13.000248,-3.907517,-15.097198,-21.191519,-20.718931,-16.507009,-2.439611,12.252998,16.615344,17.664879,12.303658,26.439859,29.861437,30.297383,23.295466,35.667952,36.600803,35.926834,31.50133,43.264599,42.90163,40.438653,26.955849,53.105335,76.905384,97.096996,52.52734,86.003449,104.097737,117.997021,43.515129,81.645195,102.644131,117.297856,35.437889,70.26479,89.812901,103.767483,28.647789,55.364811,70.946709,82.677361,-14.554412,-15.535749,-10.024377,-7.797867,18.583379,33.766805,38.984665,41.876511,36.414045,50.93442,54.598047,55.005303,47.950664,63.164891,65.681813,64.426428,54.119592,67.207234,68.45516,66.206643,-1.494518,305.072977,-83.400387,286.38545
109,-2.269341,3.054311,0.183506,0.238443,4.434277,3.80492,2.006413,0.058434,-16.350288,2.694042,19.816052,30.789677,-24.316601,-1.816292,18.650562,35.930157,-28.505665,-8.46896,11.997128,28.108875,-30.034218,-22.161518,-10.780586,-0.534794,-18.599693,-28.265078,-30.611556,-29.574792,-8.084648,5.429208,10.337686,11.819906,8.945918,22.852519,26.448233,26.828306,22.081849,33.880018,34.893367,34.192191,32.112796,42.959922,41.896543,38.427825,26.809067,52.984486,76.792946,96.832123,52.564099,86.286999,104.524567,118.461502,43.436142,81.70055,102.788796,117.466622,35.309681,70.221394,89.851616,103.792076,28.524571,55.300415,70.93935,82.635601,-14.733525,-15.660979,-10.248605,-8.183869,18.515935,33.531165,38.775455,41.709032,36.366868,50.921279,54.598578,55.04717,47.842614,63.068845,65.584124,64.298024,53.921707,66.95612,68.254336,65.999742,-3.815735,308.113366,-83.268757,286.609971
110,-9.779365,2.870517,0.151474,0.165108,6.568302,9.701969,11.518158,12.779033,-8.338589,13.075092,30.372127,42.139995,-15.689816,9.316349,30.064716,47.591663,-19.172139,3.434143,23.549411,39.398769,-20.024243,-9.823162,1.340938,11.424465,-19.507091,-30.377929,-33.5015,-32.377284,-9.236033,2.887499,8.103939,10.259696,7.917675,20.763465,24.68558,25.833965,20.972738,31.996643,33.209421,32.791717,30.737849,40.681394,39.671565,36.31932,26.746811,52.970204,76.828697,96.826515,52.642834,86.588986,104.927971,118.872437,43.461445,81.87909,103.023239,117.691361,35.325028,70.362751,90.044655,103.948036,28.582581,55.47115,71.192322,82.882508,-14.813356,-15.678825,-10.354914,-8.372467,18.506463,33.40328,38.693957,41.641872,36.391333,50.98487,54.642841,55.061472,47.846232,63.095595,65.59072,64.257541,53.883891,66.879525,68.170578,65.899237,-13.631784,310.966608,-83.153967,286.757804
111,6.930828,-5.897831,-0.067222,0.080115,5.041145,5.432281,4.34238,2.741604,-15.304425,4.305702,22.437904,34.682052,-23.010189,0.592312,22.185081,40.120125,-26.972809,-5.240742,16.441292,33.013321,-28.23301,-17.752487,-3.916958,8.193317,-16.187673,-24.652123,-26.074889,-23.442667,-4.105414,11.105058,16.406974,17.692691,12.196571,27.25846,31.351265,31.834314,24.38525,37.383403,38.727512,37.913642,33.716911,45.756957,44.996784,41.714997,26.907486,53.275394,77.207897,97.152511,52.710571,86.893879,105.33863,119.336059,43.443809,82.039856,103.239486,117.919281,35.350296,70.476539,90.200042,104.099258,28.743724,55.610893,71.367187,83.056514,-14.818148,-15.600439,-10.42757,-8.48878,18.470882,33.361722,38.677593,41.684072,36.392148,51.11972,54.747582,55.162236,47.835117,63.163064,65.604799,64.239843,53.836566,66.838053,68.143543,65.88538,-6.733074,305.052821,-83.253307,286.821963
112,4.128753,0.919452,-0.050641,0.103654,4.851849,4.288044,1.468724,-2.036167,-18.084423,1.107525,19.286545,31.505402,-25.984806,-2.742622,18.804268,36.691658,-29.847278,-9.360866,11.917717,28.366471,-31.158954,-22.188961,-10.048347,0.742917,-16.907016,-26.203059,-28.111913,-26.892836,-4.995448,9.2316,14.202224,15.732399,11.948939,25.639055,29.578286,30.184601,24.568759,36.018014,37.422404,37.116381,34.260104,45.334064,44.283332,40.792766,27.07338,53.56065,77.53323,97.484746,52.836251,87.209885,105.72028,119.716702,43.489598,82.278958,103.528256,118.183011,35.406682,70.689835,90.450978,104.314785,28.876992,55.80391,71.569417,83.185982,-14.876254,-15.575084,-10.467102,-8.555593,18.364042,33.28656,38.631021,41.638204,36.345132,51.233465,54.846692,55.21234,47.79314,63.206092,65.584804,64.145488,53.768356,66.750862,68.038704,65.750147,-2.630356,305.952337,-83.329983,286.905681
113,-5.430873,5.216538,-0.175975,-0.071371,5.702522,6.754795,5.542099,3.800674,-13.400631,7.708442,25.792247,38.05466,-20.807637,4.13554,25.614727,43.60136,-24.080521,-2.120087,18.464572,34.754299,-24.691235,-14.978211,-4.261322,5.709915,-17.188313,-27.82786,-31.538084,-31.966101,-7.9928,4.44687,10.030083,12.540336,8.346569,20.649264,25.308926,26.852093,20.676484,31.08969,33.220104,33.53576,30.046417,39.694771,39.36406,36.461346,27.353943,53.901912,77.8339,97.675872,53.305629,87.712234,106.212982,120.222152,43.806759,82.49636,103.686676,118.33239,35.567939,70.68901,90.415008,104.250732,28.863018,55.543224,71.217968,82.766052,-14.75368,-15.40548,-10.416208,-8.546368,18.332833,33.266145,38.638962,41.665473,36.236031,51.325201,55.03713,55.494824,47.607555,63.210142,65.695769,64.335037,53.562962,66.654939,68.073346,65.873685,-8.08509,311.146092,-83.529819,286.811527
