takenoko1/special-research/HandMotion_SimilarSearch_自分用/NewProject/handData/tgt/d4_feature_d2/22.csv
,vel_0x_L,vel_0y_L,vel_0x_R,vel_0y_R,posFromWrist_1x_L,posFromWrist_2x_L,posFromWrist_3x_L,posFromWrist_4x_L,posFromWrist_5x_L,posFromWrist_6x_L,posFromWrist_7x_L,posFromWrist_8x_L,posFromWrist_9x_L,posFromWrist_10x_L,posFromWrist_11x_L,posFromWrist_12x_L,posFromWrist_13x_L,posFromWrist_14x_L,posFromWrist_15x_L,posFromWrist_16x_L,posFromWrist_17x_L,posFromWrist_18x_L,posFromWrist_19x_L,posFromWrist_20x_L,posFromWrist_1y_L,posFromWrist_2y_L,posFromWrist_3y_L,posFromWrist_4y_L,posFromWrist_5y_L,posFromWrist_6y_L,posFromWrist_7y_L,posFromWrist_8y_L,posFromWrist_9y_L,posFromWrist_10y_L,posFromWrist_11y_L,posFromWrist_12y_L,posFromWrist_13y_L,posFromWrist_14y_L,posFromWrist_15y_L,posFromWrist_16y_L,posFromWrist_17y_L,posFromWrist_18y_L,posFromWrist_19y_L,posFromWrist_20y_L,posFromWrist_1x_R,posFromWrist_2x_R,posFromWrist_3x_R,posFromWrist_4x_R,posFromWrist_5x_R,posFromWrist_6x_R,posFromWrist_7x_R,posFromWrist_8x_R,posFromWrist_9x_R,posFromWrist_10x_R,posFromWrist_11x_R,posFromWrist_12x_R,posFromWrist_13x_R,posFromWrist_14x_R,posFromWrist_15x_R,posFromWrist_16x_R,posFromWrist_17x_R,posFromWrist_18x_R,posFromWrist_19x_R,posFromWrist_20x_R,posFromWrist_1y_R,posFromWrist_2y_R,posFromWrist_3y_R,posFromWrist_4y_R,posFromWrist_5y_R,posFromWrist_6y_R,posFromWrist_7y_R,posFromWrist_8y_R,posFromWrist_9y_R,posFromWrist_10y_R,posFromWrist_11y_R,posFromWrist_12y_R,posFromWrist_13y_R,posFromWrist_14y_R,posFromWrist_15y_R,posFromWrist_16y_R,posFromWrist_17y_R,posFromWrist_18y_R,posFromWrist_19y_R,posFromWrist_20y_R,posFromBody_0x_L,posFromBody_0y_L,posFromBody_0x_R,posFromBody_0y_R
6,-8.184757,1.869309,0.191391,0.178027,3.642849,0.349319,-7.487892,-15.271557,-25.869038,-3.265377,16.527328,28.089454,-36.360775,-8.277249,13.504657,31.222709,-41.310814,-19.030209,2.834518,20.140205,-42.792927,-42.290623,-38.125157,-32.026623,-14.508161,-17.258561,-12.257,-6.610925,-2.265919,17.782278,25.977447,30.620103,14.163556,31.497675,38.229075,41.36565,26.671102,39.851246,44.224978,46.501777,36.667259,47.240819,49.599894,50.650578,25.983581,49.903553,72.338436,91.74892,50.301189,82.330307,99.968708,113.28416,41.130741,76.91439,98.119091,112.651279,31.821155,65.397159,85.321506,98.96458,23.163952,49.262329,64.818958,77.645038,-14.518733,-15.162715,-8.117364,-3.502978,13.961335,31.067323,38.76471,43.57708,31.30258,47.550793,55.071215,58.405614,43.842372,60.940431,66.643107,67.677327,51.930626,68.025884,72.399418,72.434999,-2.807481,311.755152,-83.331464,294.998437
7,4.537502,-3.840542,0.056408,0.203072,2.562653,-3.022419,-13.643612,-23.515068,-31.201767,-9.172405,11.371662,23.472164,-42.693775,-14.885033,7.444679,25.817951,-48.165848,-26.471706,-3.111145,15.248486,-50.129047,-52.407989,-49.31337,-43.865513,-13.705183,-15.328416,-8.60681,-0.783625,-0.237604,21.524798,30.007563,34.657381,16.709464,35.253952,42.219287,45.86313,29.229977,43.039432,47.671762,50.505365,39.287699,50.285176,53.150111,54.988618,25.987129,49.814357,72.167919,91.648567,49.977562,82.045772,99.785087,113.256958,40.748714,76.457462,97.767723,112.397415,31.449417,64.892154,84.879799,98.624542,22.847202,48.78202,64.339107,77.206707,-14.46764,-15.14582,-8.196429,-3.648807,13.939859,31.022876,38.70028,43.576018,31.236582,47.41067,54.919915,58.272752,43.794689,60.908001,66.674019,67.787873,51.927539,68.063243,72.419241,72.403581,1.541136,307.913768,-83.463941,295.200667
8,-4.146698,2.196573,0.20747,0.087624,3.467068,-0.086803,-8.250767,-16.459236,-28.007847,-3.693798,16.737202,28.498272,-39.515305,-9.760254,12.656387,31.110271,-44.689877,-21.474781,1.692341,19.88039,-46.481564,-46.161507,-41.887413,-35.667709,-14.919517,-18.321928,-13.25212,-6.620015,-1.141777,19.241478,27.550181,32.45598,16.130628,33.659409,40.412903,44.254594,28.829267,41.70529,45.929154,48.672799,38.640444,49.376543,51.046806,51.380221,25.934635,49.712905,72.107174,91.770755,49.986202,81.888015,99.587001,113.052623,40.660617,76.052661,97.250988,111.853923,31.232013,64.349544,84.231285,97.980159,22.482227,48.158397,63.634437,76.584846,-14.40852,-15.057122,-8.196515,-3.790907,14.321316,31.284364,38.915517,43.781412,31.437777,47.519066,54.991039,58.287844,43.840125,60.96896,66.793852,67.926268,51.843077,68.082163,72.519251,72.549781,-2.718418,310.124512,-83.369327,295.302462
9,-1.65707,1.368513,0.04327,0.121092,4.310943,2.09658,-3.29385,-8.522507,-26.397366,-2.122513,18.524826,30.553299,-37.86747,-8.682095,13.966495,32.629692,-43.183949,-20.295502,2.634933,20.563774,-44.963413,-43.855671,-38.973129,-32.499676,-15.116402,-19.615155,-16.0763,-11.180678,-1.676796,18.372871,26.775695,31.740144,15.611689,32.695978,39.335531,42.822688,28.312242,41.078523,45.252307,47.794189,38.00208,48.764683,50.650491,51.26781,25.733574,49.530555,71.9286,91.694137,50.052452,81.831207,99.451057,112.875068,40.697159,75.860172,96.941116,111.51503,31.205349,64.024635,83.81393,97.595718,22.37582,47.839016,63.258705,76.306034,-14.500392,-15.142534,-8.204518,-3.765651,14.625252,31.430837,38.974847,43.758726,31.714172,47.636121,54.981036,58.17331,44.003332,61.098736,66.87482,67.949536,51.882684,68.172492,72.615756,72.646001,-4.437773,311.519958,-83.388342,295.450487
10,-6.810036,4.130818,-0.056099,0.039656,4.406582,4.61919,3.5476,1.2636,-20.232387,6.589348,27.09391,38.603668,-30.600506,-0.0294,22.655319,40.918648,-35.28368,-11.306122,10.72007,27.966339,-36.556686,-33.673027,-28.261768,-21.681141,-15.821085,-20.811988,-17.842127,-14.043982,-2.829836,15.362354,23.766906,29.325962,14.03414,29.68698,36.234166,39.485227,26.607487,38.365334,42.366377,44.638941,36.062167,46.169141,47.359861,47.298926,25.500091,49.397758,71.886909,91.653877,50.253238,81.869407,99.36454,112.705696,40.944969,75.899379,96.906601,111.513908,31.382274,63.992008,83.687187,97.464248,22.39405,47.748768,63.101211,76.182941,-14.65625,-15.245596,-8.179076,-3.708803,14.846776,31.456883,38.952704,43.711067,31.891038,47.630119,54.916927,58.076201,44.0904,61.063007,66.826099,67.868483,51.895516,68.256671,72.741825,72.77233,-11.273661,315.687925,-83.470293,295.527292
11,9.09708,-2.81241,-0.111214,0.156637,1.187153,-2.083671,-6.019512,-10.248172,-29.829654,-6.228721,15.086529,28.085987,-39.473774,-12.192638,11.183499,30.774594,-43.059597,-22.213783,0.664914,19.309399,-43.297657,-42.325813,-36.591968,-29.145332,-10.675881,-13.812653,-10.096798,-5.650978,0.621555,19.434571,28.000033,33.379284,15.469985,31.150934,38.595131,42.539748,26.513317,38.581163,43.732593,46.916543,34.992822,45.656427,48.083304,49.620803,25.395641,49.308941,71.779518,91.546692,50.410275,81.934342,99.316063,112.552689,41.122936,76.035816,96.932648,111.456825,31.527386,64.08046,83.635941,97.312111,22.464203,47.753689,63.049908,76.124714,-14.736193,-15.329133,-8.143114,-3.644806,14.865374,31.316363,38.781074,43.543661,31.998964,47.528477,54.728883,57.88717,44.229448,60.965144,66.613182,67.602313,52.054473,68.269119,72.685508,72.695796,-2.144978,312.91572,-83.549904,295.724134
12,-4.490856,2.06686,-0.097309,0.148065,2.38385,0.833073,-1.117515,-4.143757,-25.246273,-0.931389,19.692307,32.11306,-34.327789,-6.774982,16.481323,35.61319,-37.745292,-16.453502,5.659046,23.436859,-37.860203,-33.976787,-26.556793,-18.128586,-11.956374,-16.017834,-13.273769,-9.96144,-0.061342,17.592149,25.878832,31.405531,14.752396,29.574669,36.898045,40.663326,25.74082,37.297076,42.216892,45.176046,33.872016,44.515761,46.397037,47.183428,25.155189,49.113464,71.614895,91.312214,50.559128,82.067379,99.357616,112.443432,41.342903,76.293125,97.10574,111.570751,31.693645,64.299877,83.763908,97.322651,22.494106,47.822296,63.054806,76.08308,-14.926001,-15.478754,-8.179917,-3.742927,14.960902,31.202063,38.612409,43.309454,32.061728,47.374879,54.501284,57.65195,44.207317,60.677622,66.2328,67.19828,51.958698,68.055129,72.464503,72.513163,-6.575546,315.020131,-83.586925,295.90975
13,8.991944,-1.530718,-0.270813,0.29429,-0.403782,-5.52966,-11.255196,-16.634537,-33.914475,-12.470307,8.758117,22.35601,-42.606698,-17.911297,5.70504,25.615997,-45.206303,-26.907578,-4.142853,14.576705,-44.581021,-44.844201,-39.833931,-33.261818,-10.159524,-13.234843,-9.787478,-6.087689,1.683835,19.969478,28.295916,33.87509,15.841315,30.277696,37.782335,42.098948,26.278703,37.635838,43.044829,46.488427,34.293906,44.601322,47.817036,50.321979,24.917519,48.897514,71.520985,91.183788,50.955002,82.347713,99.527332,112.464901,41.890045,76.789787,97.451008,111.853397,32.129459,64.645214,84.005218,97.512257,22.64241,47.999439,63.170208,76.16518,-15.291057,-15.881268,-8.440306,-3.935552,14.714061,30.898325,38.265693,42.927404,31.756903,46.983171,54.112232,57.3616,43.844744,60.185656,65.773723,66.834509,51.608154,67.668324,72.076019,72.185528,2.524104,313.532666,-83.750032,296.247293
14,3.550849,-1.979101,-0.324806,0.217522,-1.814769,-8.926071,-17.912555,-26.738822,-37.858932,-17.615695,3.501046,17.101365,-46.4664,-22.051265,1.615311,21.557076,-48.653915,-30.819339,-7.425544,11.643357,-47.754043,-48.319129,-42.541831,-35.207965,-10.187435,-11.837875,-6.53659,-0.898752,3.258816,21.564837,29.120568,34.074186,17.122451,31.487844,39.050738,43.890439,27.281703,38.628946,43.954116,47.823792,35.069245,45.897612,49.153686,51.845757,24.835052,48.838508,71.565284,91.208622,51.123985,82.499096,99.694301,112.633632,42.221546,77.160358,97.801929,112.206905,32.444687,65.013508,84.334121,97.795269,22.823124,48.266121,63.391971,76.3297,-15.527005,-16.163269,-8.666658,-4.215429,14.374261,30.618398,37.98237,42.685701,31.435554,46.601344,53.774679,57.200506,43.572165,59.714229,65.358661,66.618444,51.409787,67.334415,71.720399,71.929868,6.222845,311.599337,-83.926946,296.510587
15,11.808838,-3.048889,-0.329373,0.087648,-4.175583,-15.397373,-29.962577,-42.816227,-48.880703,-32.429214,-10.969528,3.378891,-57.730304,-36.389156,-12.737182,8.000702,-59.350879,-44.850277,-20.63174,-0.552131,-58.144569,-63.081092,-60.277061,-55.510345,-9.083622,-11.02051,-5.681211,0.663224,5.01359,24.333219,31.737995,36.451317,18.70457,33.161762,40.7735,46.477077,28.540324,39.92027,45.358691,49.674303,36.249801,46.890422,51.10569,54.943342,24.727181,48.744027,71.536549,91.145623,51.417378,82.740395,99.932877,112.846299,42.593239,77.478825,98.037873,112.402497,32.734669,65.207325,84.470501,97.930275,22.929085,48.361702,63.447327,76.40696,-15.750677,-16.417396,-8.865383,-4.424762,14.30126,30.558204,37.887299,42.620641,31.337717,46.419551,53.616784,57.185785,43.428559,59.453458,65.17057,66.644429,51.221745,67.06222,71.469693,71.838651,18.254007,308.592361,-84.033995,296.640148
16,-3.934433,2.492073,-0.391697,0.103309,-2.009285,-11.220153,-24.255466,-36.043727,-44.480827,-26.479007,-5.317405,8.381585,-53.724632,-31.00962,-7.636711,12.157975,-55.992324,-40.374561,-16.478656,2.670937,-55.407371,-59.330921,-56.234687,-51.771732,-14.062903,-17.955426,-13.210488,-7.051057,2.140578,20.434298,27.044544,31.430466,17.727012,31.517065,38.108514,43.320792,28.954756,39.576741,43.672547,47.334853,37.598196,47.699896,50.736473,53.58765,24.738373,48.833737,71.707226,91.306172,51.752747,83.070912,100.278408,113.202267,43.002079,77.876496,98.3905,112.783276,33.108799,65.485543,84.73526,98.269055,23.193078,48.633374,63.693764,76.693154,-16.016464,-16.712687,-9.06932,-4.634109,14.15249,30.413053,37.685671,42.412295,31.179277,46.165583,53.398125,57.087947,43.241689,59.149435,64.977686,66.646491,50.994009,66.79258,71.215317,71.679816,14.582782,311.13097,-84.162484,296.789993
17,-3.827682,2.671755,-0.478351,0.149745,-1.708901,-9.85318,-21.28434,-31.75494,-41.093868,-21.856716,-0.46225,13.102615,-50.196041,-26.690769,-3.794563,15.552452,-52.577545,-36.227749,-12.717384,6.22538,-51.967461,-57.508576,-57.239033,-55.481323,-14.320896,-18.615884,-15.130827,-9.910163,-0.245025,17.820935,24.990306,29.799848,15.138892,29.41308,35.995625,41.299528,26.316606,37.520082,41.454077,45.08962,35.035257,44.405524,48.037474,51.829282,24.861168,49.006084,72.002392,91.667587,51.994514,83.370575,100.645798,113.654709,43.388889,78.28474,98.782951,113.251236,33.573692,65.844704,85.081398,98.702179,23.675606,49.078583,64.082554,77.114181,-16.190082,-17.013363,-9.337922,-4.891386,13.759535,30.017418,37.244106,41.993034,30.82399,45.759068,53.069415,56.946538,42.927095,58.752738,64.738316,66.63582,50.721282,66.480036,70.941787,71.510163,11.058735,313.857222,-84.3372,296.994235
18,-12.813,5.219899,-0.264576,-0.012388,1.393971,-2.220806,-8.852897,-15.695274,-28.061577,-6.199825,14.005634,26.515263,-36.938816,-11.561909,10.091023,27.552944,-40.236591,-21.575924,0.38633,17.567837,-40.39785,-43.347313,-43.504566,-42.597267,-15.595166,-21.465024,-20.822165,-18.324015,-4.103649,12.356479,20.274932,25.560002,10.806173,25.268169,32.085896,37.142304,21.834599,33.626458,37.693315,41.183165,30.193543,39.425526,43.100095,46.446486,25.030815,49.148929,72.090351,91.734547,52.067882,83.440361,100.753544,113.810222,43.522098,78.428352,98.972591,113.440304,33.822441,66.042675,85.261253,98.868015,24.066501,49.359432,64.274174,77.249405,-16.148856,-17.04152,-9.368303,-5.008613,13.656573,30.004007,37.249664,42.045992,30.807306,45.706914,53.050347,57.017058,42.996133,58.698423,64.732636,66.770005,50.822504,66.395402,70.882174,71.587043,-1.425368,319.119322,-84.272879,297.024048
19,9.38982,-2.623961,-0.279854,-0.067666,-1.861381,-8.837105,-17.8461,-25.790119,-37.348995,-18.554489,2.109764,15.62098,-44.720981,-22.765011,-0.959141,17.554024,-46.394439,-30.795009,-8.424076,9.724686,-44.923164,-50.611816,-52.51807,-52.654106,-8.236084,-11.868935,-11.561739,-9.474983,0.64607,17.344345,25.655123,31.172189,12.061535,26.961971,34.308591,39.665242,20.145541,32.714862,37.874937,41.942831,26.223276,35.759973,41.156699,46.241179,25.112011,49.283318,72.258431,91.934521,52.146206,83.545601,100.897808,113.96616,43.640568,78.625042,99.198109,113.673443,34.010731,66.271305,85.498009,99.10017,24.323341,49.642353,64.54129,77.475941,-16.086439,-16.995356,-9.335019,-5.045601,13.680977,29.991706,37.223717,42.020946,30.815321,45.675335,53.046297,57.043339,42.990477,58.672685,64.727696,66.77592,50.800706,66.310767,70.807753,71.530702,8.304559,316.513846,-84.212626,296.974867
20,-0.106178,-0.348,-0.133003,0.152993,-3.117851,-10.839214,-18.750412,-26.029369,-37.376015,-19.71587,0.259277,13.959091,-42.815289,-22.236649,-0.560234,18.041244,-43.107548,-27.580959,-6.099049,11.575882,-40.112801,-42.22451,-40.295105,-36.914188,-0.814649,-0.511084,0.363796,2.898663,5.606035,21.383204,29.814457,35.377984,12.053952,27.014607,35.212802,40.615963,15.675638,28.380427,34.805916,39.562698,17.4633,26.615082,32.30106,37.410585,25.207626,49.353721,72.432186,92.262783,52.290973,83.651481,101.013531,114.056705,43.868797,78.882259,99.428753,113.839359,34.311035,66.61417,85.754402,99.22736,24.679275,49.984806,64.80701,77.616428,-15.981402,-17.006459,-9.4468,-5.283316,13.461084,29.76129,37.018557,41.785158,30.568035,45.458974,52.8627,56.85295,42.774634,58.476208,64.517621,66.512789,50.685084,66.199406,70.662973,71.358764,8.500837,316.165052,-84.043173,297.127066
21,3.769684,-1.107222,-0.088864,0.066221,-5.264191,-14.631375,-22.932312,-30.288059,-40.738117,-25.480419,-6.211212,7.74852,-44.152931,-26.093044,-4.73124,14.36673,-42.592117,-28.462052,-7.727486,10.025505,-37.8456,-38.984505,-36.194939,-31.936547,8.199318,12.540533,14.297307,17.322003,11.808296,27.487603,35.842421,41.302813,12.773912,27.679004,36.361853,41.940027,11.718882,24.749935,32.488954,38.006625,9.535745,18.278406,25.213113,31.48525,25.166806,49.302487,72.4357,92.371949,52.251126,83.631752,101.038674,114.0523,43.956242,79.059792,99.640252,113.919846,34.517132,66.940693,86.063096,99.375252,24.995991,50.369935,65.149487,77.787781,-15.90409,-16.99459,-9.464448,-5.352476,13.340942,29.741864,37.054274,41.845463,30.459898,45.394889,52.801061,56.804921,42.718849,58.387942,64.360923,66.313817,50.697336,66.146436,70.565333,71.265879,12.540882,315.034035,-83.861676,297.169492
22,5.287227,-2.940049,0.042412,0.001902,-7.059047,-18.164634,-27.617477,-35.635139,-45.731163,-32.55384,-13.539253,0.521656,-47.56192,-30.99757,-9.556697,9.699292,-44.41175,-30.923412,-10.32471,7.452221,-38.382225,-37.292381,-31.727932,-25.035209,15.2062,24.053404,29.137093,34.799877,18.417295,33.988786,41.381212,46.133103,15.436455,29.681423,38.480622,44.039925,11.180234,23.917281,32.294799,38.099054,6.4328,15.701216,22.871242,29.362988,25.137062,49.21542,72.372975,92.330933,52.303116,83.720066,101.173462,114.149323,44.014733,79.192166,99.773575,113.914559,34.562886,67.046345,86.162567,99.361359,25.014942,50.441769,65.213757,77.745266,-15.818899,-16.956033,-9.504771,-5.439618,13.411387,29.748866,37.046728,41.826679,30.502604,45.419429,52.776867,56.729424,42.731335,58.438342,64.344572,66.23821,50.696619,66.195676,70.583006,71.282601,18.092371,312.053502,-83.555002,297.13091
23,14.8793,-6.867312,0.040386,0.068234,-13.274163,-31.224266,-46.286671,-58.913052,-62.741238,-52.872425,-32.702637,-17.457619,-62.229504,-48.265503,-25.670597,-4.445939,-56.10957,-45.220814,-23.016129,-3.348519,-47.391632,-47.905301,-41.06036,-32.536469,24.462425,38.303064,46.851927,55.748654,27.971615,44.588614,51.384605,55.881344,20.694168,35.344713,44.523319,50.408504,12.487254,25.768755,34.850512,41.238975,4.439175,14.430898,22.371791,29.962176,25.132771,49.188767,72.366555,92.359211,52.263463,83.837311,101.38226,114.352925,43.998013,79.343697,99.972256,114.069432,34.590157,67.202076,86.361432,99.491467,25.096882,50.579499,65.380154,77.849785,-15.818813,-17.026342,-9.625456,-5.471432,13.338793,29.430679,36.666753,41.42256,30.431641,45.262114,52.531928,56.471333,42.621679,58.331292,64.150849,65.982378,50.569475,66.165061,70.479414,71.079467,33.198773,305.144203,-83.287514,297.157157
24,-1.558686,0.992218,0.177098,0.094182,-13.304924,-30.971031,-45.359379,-57.855297,-61.294029,-51.414367,-31.995117,-16.921096,-60.164623,-45.998645,-23.739074,-2.539695,-53.57024,-41.909488,-20.345924,-1.08062,-44.438999,-42.933792,-34.326015,-24.447166,26.107111,40.98891,49.884304,58.996948,29.237152,45.252282,51.791478,56.299925,20.2961,34.44664,43.747746,49.675872,10.466312,23.087515,32.425586,39.064866,0.834927,9.683712,17.24521,24.655865,25.187793,49.140426,72.268902,92.290878,52.370258,84.020164,101.592544,114.511459,44.09008,79.472362,100.080597,114.076835,34.638004,67.24229,86.387192,99.41082,25.076088,50.487076,65.287662,77.723339,-15.840055,-17.139518,-9.785205,-5.569578,13.354305,29.16961,36.324149,41.055391,30.440533,45.08978,52.248395,56.176894,42.599115,58.205049,63.949246,65.770068,50.545442,66.166962,70.443759,71.029548,31.82789,306.104156,-82.922613,297.219074
25,-2.176277,0.742363,-0.062943,-0.299329,-12.554878,-29.523491,-43.791458,-56.298649,-59.810188,-49.200268,-29.643963,-14.550133,-58.707241,-43.414764,-21.119922,-0.058502,-52.042648,-38.969066,-17.326744,1.817619,-42.898968,-40.254936,-31.49992,-21.725441,25.954649,40.682641,49.594177,58.688382,29.467272,45.082383,50.982363,55.055037,20.557256,34.12602,42.858627,48.512433,10.764394,23.102892,31.896459,38.270905,1.257424,10.198081,17.584912,24.951242,25.197121,49.209149,72.3097,92.281517,52.178879,84.070416,101.806664,114.903351,43.851242,79.429653,100.225251,114.381638,34.4133,67.162949,86.504288,99.69262,24.896427,50.423596,65.37426,77.923989,-15.758421,-16.938755,-9.601868,-5.463639,13.506828,29.097918,36.174281,40.915465,30.643667,45.148592,52.216951,56.154392,42.819354,58.37674,64.090617,65.946204,50.750737,66.442011,70.723019,71.270103,29.79804,306.821504,-82.839129,296.89473
26,-3.558792,1.005,0.029171,-0.308394,-11.377853,-27.027832,-40.306995,-51.861145,-56.825672,-44.852211,-25.102203,-10.175697,-56.084358,-39.518108,-17.266926,3.363075,-49.827667,-35.471844,-13.889763,5.049912,-41.151363,-37.377628,-28.564236,-18.889526,23.349251,37.198362,46.158372,55.045306,27.101392,42.730977,48.530316,52.622392,19.9492,33.291463,41.603698,46.91306,12.017569,24.527696,32.669772,38.416315,4.308598,13.843739,21.070649,28.246924,25.321575,49.254765,72.344319,92.376446,52.168579,84.175038,101.998387,115.197727,43.74321,79.360108,100.212948,114.536991,34.214207,67.00446,86.432408,99.797436,24.612362,50.096443,65.131359,77.839943,-15.580567,-16.728569,-9.536165,-5.498207,13.695933,29.032648,35.940963,40.514927,30.78589,45.202537,52.165884,55.992767,42.932851,58.584432,64.317402,66.184388,50.853885,66.725421,71.088532,71.647398,26.350222,307.814948,-82.698984,296.57478
27,3.642197,-2.407228,0.011147,-0.284002,-13.858086,-32.572049,-49.101757,-63.420296,-62.542717,-49.627659,-29.290673,-13.923821,-62.050656,-44.421444,-22.012425,-0.711228,-55.72522,-41.426812,-18.89391,1.052078,-47.090275,-45.808571,-38.221012,-28.908234,22.564119,35.554121,44.307279,53.527048,27.286716,43.80426,49.876178,53.9645,21.404903,35.872296,43.937147,49.058442,14.297851,27.583884,35.357792,40.724989,7.283572,17.662594,25.103531,32.131419,25.347278,49.301937,72.412056,92.513569,52.271519,84.361931,102.240932,115.532055,43.736789,79.352245,100.218395,114.63351,34.101986,66.951233,86.374397,99.82703,24.415054,49.873478,64.95718,77.76852,-15.516261,-16.577788,-9.407836,-5.456267,13.862757,29.096819,35.906395,40.413372,30.948133,45.296866,52.173676,55.940254,43.09928,58.789072,64.489376,66.343333,51.009063,66.982018,71.367013,71.905279,30.049788,305.401137,-82.630468,296.284195
28,-5.329377,2.417491,-0.022064,-0.248434,-10.985252,-27.156063,-41.662982,-54.622066,-56.536434,-43.293045,-23.566131,-8.439628,-56.452697,-38.001091,-15.789459,5.052887,-50.574852,-34.417556,-12.820392,6.388527,-42.424175,-37.244739,-27.186275,-16.423072,21.619943,34.727086,43.32073,52.430892,26.748513,42.529078,47.902006,51.468833,20.493147,33.763508,41.264404,46.000649,13.067734,25.301812,32.698931,37.895314,5.869476,15.516138,22.547632,29.432877,25.351261,49.332859,72.471439,92.530849,52.387836,84.51995,102.462696,115.853794,43.751804,79.313289,100.179256,114.63541,33.987053,66.87886,86.298214,99.804668,24.170482,49.677074,64.835952,77.730136,-15.438011,-16.417792,-9.336021,-5.488896,14.062779,29.249688,35.987152,40.424857,31.12916,45.474757,52.301573,55.988703,43.285371,59.017709,64.686076,66.506811,51.20312,67.236812,71.658623,72.201175,24.746795,307.810437,-82.626148,296.02757
29,-1.488075,0.375072,0.038097,-0.219721,-8.849327,-23.807487,-38.55281,-51.210102,-54.155102,-39.405807,-19.326484,-4.404121,-56.286175,-36.256897,-14.191841,6.217644,-52.123649,-35.586273,-13.528461,5.883614,-45.708,-43.056232,-35.763233,-27.227646,14.521906,24.184772,32.411742,41.302591,21.419403,38.082406,43.387643,46.595725,20.093868,33.431723,40.103756,44.563593,16.92648,29.04632,35.395534,40.001361,13.580571,23.858075,30.840972,37.562825,25.309364,49.358883,72.53952,92.53569,52.4053,84.660038,102.658218,116.101295,43.671352,79.261002,100.147087,114.629814,33.819912,66.821411,86.288567,99.86895,23.952084,49.544392,64.77578,77.747475,-15.40527,-16.308605,-9.27522,-5.514003,14.124728,29.334348,36.020411,40.376026,31.177771,45.599123,52.395743,56.003005,43.346097,59.142309,64.780443,66.543331,51.259202,67.379975,71.827869,72.362245,23.270702,308.177704,-82.576069,295.800044
30,-6.537391,1.510811,0.255981,0.047017,-6.039872,-17.985981,-31.016785,-42.601914,-46.935254,-29.773121,-9.72678,4.137359,-51.230004,-28.848359,-6.920334,12.498344,-49.258313,-31.793999,-9.75879,9.047905,-44.850781,-42.910939,-36.475468,-28.807263,5.38466,11.085779,18.495483,26.805372,14.304693,31.019689,36.654501,40.099433,18.482738,32.065198,38.450252,42.93432,20.211317,32.272939,37.744815,41.875856,20.997597,32.015106,38.158753,43.865652,25.315876,49.284028,72.419815,92.352951,52.579262,84.845833,102.802437,116.177971,43.745121,79.256379,100.027199,114.408257,33.763173,66.760437,86.15585,99.687012,23.782643,49.367398,64.603707,77.580986,-15.485793,-16.475257,-9.452444,-5.557796,13.974711,29.282268,35.950299,40.236605,31.069386,45.569914,52.372216,55.918258,43.278591,59.143989,64.760843,66.486076,51.21389,67.319855,71.748458,72.281648,16.740017,309.678943,-82.313382,295.837489
31,2.233429,-1.358584,0.233288,0.060071,-4.923615,-16.998036,-31.351994,-44.090424,-47.840252,-31.256608,-11.005463,3.066879,-54.416337,-32.251751,-10.024373,9.880851,-54.268822,-38.04562,-14.887539,4.706359,-51.521142,-53.870202,-50.131863,-44.4394,-0.127749,2.552837,9.223017,17.4418,10.786575,28.406376,34.703609,38.413746,18.660629,32.911772,39.499862,44.335487,23.282895,35.214321,40.477223,44.801271,26.565682,37.357073,43.560532,49.535601,25.339657,49.325558,72.447121,92.306385,52.602757,84.938278,102.882305,116.20332,43.701176,79.228123,99.957745,114.235623,33.668347,66.707577,86.068245,99.482083,23.693344,49.321964,64.571858,77.492008,-15.612345,-16.617332,-9.556815,-5.59292,13.828696,29.204153,35.909322,40.277274,31.011995,45.539867,52.369511,55.966596,43.272132,59.121487,64.703761,66.441134,51.219497,67.214743,71.573976,72.082812,18.966797,308.303514,-82.086743,295.880715
32,-9.260285,1.811535,0.356381,0.043065,-1.476242,-9.738865,-21.103203,-32.114834,-37.805214,-19.843277,-0.106647,13.004334,-45.453083,-21.476097,0.663357,19.530899,-46.786571,-28.472511,-5.783546,12.644692,-45.493423,-45.265652,-40.105179,-33.77401,-5.830301,-4.486093,2.493852,10.817166,7.700659,24.500415,30.499603,34.286311,17.689925,31.303322,37.871651,42.826467,24.196331,35.535979,40.303605,44.596802,28.861142,39.39417,44.615982,49.693484,25.33192,49.2518,72.329921,92.132858,52.568309,84.837261,102.707199,115.917869,43.636013,79.133926,99.813858,114.001854,33.538124,66.589084,85.912845,99.220298,23.517814,49.189521,64.441932,77.331459,-15.696609,-16.687691,-9.572673,-5.588956,13.758621,29.232435,36.001996,40.405147,30.984812,45.560948,52.435251,56.071473,43.263289,59.060848,64.602811,66.368367,51.204985,67.072013,71.377659,71.908416,9.678554,310.08803,-81.75832,295.896761
33,2.464302,-1.685033,0.086139,-0.144002,-1.424126,-10.104389,-22.498455,-34.231064,-38.990112,-20.970623,-0.585331,12.659317,-48.472229,-24.607132,-2.193741,16.968498,-51.431099,-34.333431,-10.700683,8.464211,-51.586887,-55.311916,-52.402107,-47.366833,-10.780634,-11.437707,-4.029893,4.465864,4.144762,22.202139,28.685537,32.640107,18.179803,32.612529,39.19584,44.201303,28.15005,39.764475,44.200204,48.277893,35.855711,46.942824,51.942212,56.713975,25.379689,49.381256,72.426545,92.187413,52.553067,84.82481,102.667385,115.868237,43.585694,79.08585,99.76862,113.984997,33.415192,66.5052,85.885792,99.228207,23.308056,49.089604,64.336625,77.21846,-15.757051,-16.69977,-9.472032,-5.538605,13.58551,29.205721,36.087718,40.590682,30.840045,45.50273,52.516329,56.329306,43.17154,58.911955,64.525524,66.434724,51.174283,66.9783,71.30751,71.910034,12.096691,308.374391,-81.718346,295.724153
34,-3.535675,-0.501783,-0.007312,-0.433958,-3.201897,-12.597942,-24.737228,-37.433144,-38.549492,-20.114994,0.169384,13.094444,-45.173206,-20.542923,2.11956,20.810532,-46.135792,-26.801536,-3.557671,14.865028,-44.417896,-43.390766,-37.259743,-30.28545,-4.601863,-1.580589,6.684395,15.553582,10.312652,27.66164,33.717663,37.800699,19.305809,33.521816,40.733115,46.239116,24.748157,36.913828,42.543786,47.533849,28.456886,39.703205,44.950249,50.263476,25.467189,49.460826,72.464115,92.224388,52.574936,84.628051,102.400703,115.621055,43.606865,78.964267,99.66687,113.999862,33.362285,66.347705,85.75605,99.166877,23.101123,48.948497,64.176006,77.024185,-15.681541,-16.552136,-9.220337,-5.407693,13.615707,29.514388,36.643547,41.404368,30.822558,45.733368,53.043913,57.186723,43.168552,58.988119,64.88537,67.150585,51.250916,66.899866,71.317021,72.082392,8.491344,307.846413,-81.79533,295.264
35,-2.446701,1.014435,-0.058239,-1.060057,-3.001133,-11.068462,-21.525284,-33.085796,-35.245274,-16.471493,3.325069,15.701408,-41.377407,-17.428242,4.971314,23.858139,-42.453644,-23.79871,-1.284233,17.054878,-41.041809,-41.460503,-37.423977,-32.222202,-3.343624,0.939842,9.519666,17.89769,10.339983,27.365807,34.247446,39.653151,18.30239,32.3925,40.72168,46.999807,23.183143,35.548428,42.435316,48.513952,26.885833,37.266102,43.174246,49.772512,25.82167,49.829727,72.680843,92.406246,52.14616,83.902393,101.612102,114.822132,43.199546,78.399753,99.223835,113.744213,33.098167,65.853263,85.368873,98.86465,22.952259,48.807975,64.017986,76.782405,-15.699338,-16.426721,-8.961195,-5.335346,13.717595,29.917803,37.578708,42.998344,30.811974,46.256999,54.32574,59.351409,43.09276,59.114991,65.773254,68.845226,51.250002,66.889319,71.752917,72.97644,5.937807,308.826441,-81.960405,294.169536
36,3.185967,-3.026017,0.487072,-2.720846,-8.06725,-19.280102,-31.484688,-44.890892,-40.372468,-23.062798,-3.675122,8.844188,-43.678002,-21.398518,-0.055687,18.728279,-42.22902,-24.511025,-3.37603,14.545394,-38.796055,-39.045845,-35.169995,-29.462357,3.921744,11.6155,21.603481,30.60054,15.635451,32.673909,40.878575,47.991148,19.171972,34.005446,44.184371,52.088288,20.401459,33.928418,43.153596,51.035641,21.152394,32.428217,39.01191,46.343487,26.141635,50.137184,72.48167,91.938079,51.933414,82.583633,99.711891,112.50254,42.778175,76.816063,97.104606,111.444282,32.378711,63.985656,83.144588,96.539165,21.791072,47.031234,61.993652,74.435966,-15.599031,-15.657422,-7.917329,-4.522687,13.964855,31.283685,40.024394,46.512102,30.704614,47.82394,57.308013,63.671331,42.710277,59.83479,67.802594,72.113267,50.812351,67.052599,72.719792,74.708736,8.899172,305.753654,-81.697935,291.40192
37,11.177009,-3.216091,1.288387,-5.102721,-13.478588,-29.357168,-44.419476,-59.380966,-50.488575,-40.774727,-24.738722,-13.690578,-51.381517,-37.773468,-20.57131,-4.11573,-47.563001,-37.30505,-20.255653,-4.86141,-41.983497,-47.261473,-47.363067,-44.768909,7.756444,15.577826,23.780608,30.524427,18.611037,36.084106,45.58458,53.767658,20.48242,36.174805,47.520246,56.312745,20.237654,34.810134,45.852194,54.907176,19.997074,31.753062,39.584546,48.110524,26.130867,50.353535,71.459473,89.931999,50.038135,78.972668,95.136875,107.33971,40.375523,72.174396,91.2598,104.848846,29.765465,58.871487,76.776993,89.278805,19.077404,41.622688,55.103416,65.978348,-15.608985,-15.097679,-7.660287,-4.351416,11.998587,30.41088,40.582013,48.627684,28.695651,47.814925,59.011349,67.070507,41.067062,60.048682,69.731776,75.673006,49.615332,66.957689,73.999953,77.118398,19.792007,302.471506,-80.693722,286.233142
38,2.135262,-0.933209,2.346119,-9.013695,-16.897809,-34.624472,-49.282906,-62.956501,-51.57185,-50.106354,-41.308623,-35.493279,-49.40684,-45.712395,-36.400126,-26.568169,-43.377726,-41.052361,-32.246991,-23.940966,-35.817456,-43.177431,-46.107777,-47.113495,4.566084,9.813659,14.318741,16.830124,18.628253,34.95479,44.730572,53.133839,21.418803,37.540687,49.198757,57.926863,21.891935,37.397945,48.897675,57.860512,22.096712,34.786007,42.868605,50.818996,25.824074,48.52224,67.460186,84.10453,49.087589,73.801643,86.302631,95.015373,39.726848,66.576622,80.459656,89.124229,28.922676,53.051857,65.858848,73.838894,17.81448,36.22562,45.813743,52.669235,-13.267558,-11.063056,-2.953424,1.62453,12.081542,32.202963,44.04731,53.211343,27.814201,50.638845,64.53107,74.443925,40.081846,62.612497,74.803782,82.758396,49.14083,68.323126,77.284481,82.088725,21.574288,301.447579,-78.700584,277.128729
39,6.672432,-1.811634,-3.959816,-16.889059,-18.604695,-37.60187,-53.197358,-66.444626,-52.399315,-60.72955,-59.30971,-58.560208,-49.929755,-57.879799,-57.062319,-53.84713,-43.758013,-52.25124,-51.680146,-49.687952,-36.120381,-50.910262,-59.236336,-64.74614,-4.012999,-2.254866,2.513359,4.854101,13.372379,29.108434,39.533213,48.35379,21.907002,38.252398,49.796514,58.446975,27.539047,43.186824,54.099431,62.413334,31.898664,44.907221,52.45926,59.259166,27.049141,50.412803,69.012955,83.770305,51.404629,74.798641,81.46067,85.464855,42.342522,66.104095,74.035778,77.988224,31.575634,52.554703,59.842277,63.361313,20.382923,36.996952,42.263317,44.798458,-12.649732,-10.454085,-4.028498,-0.586789,9.136245,30.329085,39.876909,46.498357,24.812242,49.449977,60.523987,67.654307,37.681398,61.361903,70.800367,76.273664,47.664044,67.322917,74.086317,77.043618,27.769455,299.566791,-83.137665,260.170516
40,12.515235,-5.265161,-4.75359,-20.07701,-24.490333,-49.082262,-69.508289,-85.747947,-62.816379,-82.057891,-87.320978,-90.727237,-57.633184,-77.00037,-84.194006,-87.557842,-48.700178,-66.675281,-73.209377,-77.10193,-38.39392,-57.318964,-67.984668,-75.795478,-5.49102,-4.429802,1.431121,4.940576,16.098104,31.911409,41.624699,49.369189,26.026236,42.587536,53.2555,61.358593,32.38769,48.383665,58.677915,66.267992,36.668216,50.866062,58.302257,64.189232,28.965752,51.750206,68.672047,80.808048,51.631371,72.776596,75.414265,75.740673,41.368584,62.116265,65.093147,65.025456,29.705429,47.287686,50.063038,50.091877,17.992779,30.972714,33.028233,32.478768,-11.450935,-11.587626,-8.405713,-7.186464,0.382642,17.005347,25.404971,30.870537,13.568801,34.202985,44.235599,50.377604,25.351446,46.203659,54.702664,59.335464,35.492161,53.142491,59.245605,61.785017,39.475301,294.385274,-88.700644,240.17715
41,1.435502,0.580627,-5.510158,-22.55072,-24.616974,-48.804743,-68.788743,-83.878052,-60.022156,-86.593918,-98.825896,-107.823017,-53.956828,-82.072953,-96.703692,-107.114777,-44.728369,-70.266816,-84.233288,-94.71258,-33.880577,-55.417208,-68.075524,-78.743031,-13.670072,-15.518101,-10.028286,-6.868832,12.705437,27.186366,35.481731,41.764069,27.165939,42.699773,51.794856,58.534253,37.24426,52.502726,61.058085,67.061966,44.077129,58.057021,64.647432,69.044938,29.117397,50.958412,65.735229,75.759372,46.949592,62.368847,62.356647,60.642299,35.841224,49.833767,49.421768,46.652595,24.118251,35.44511,34.920719,32.575321,12.761604,20.462482,19.747295,17.141933,-10.409711,-14.560586,-16.406553,-18.798702,-13.115515,-5.03288,-0.544132,2.50645,-2.613018,9.333019,15.290508,19.373247,8.419941,21.620166,26.66615,29.681948,19.326904,31.602466,36.038418,38.228742,39.94388,295.071778,-95.177725,217.732307
42,1.631927,0.094052,-6.296688,-24.458893,-24.821274,-48.792068,-69.278183,-84.760048,-58.678722,-89.26704,-105.211178,-117.124466,-52.204811,-85.170914,-103.770779,-117.933723,-42.865173,-72.7103,-90.573212,-104.289642,-31.846458,-55.315143,-69.151531,-81.126491,-18.301402,-20.865279,-13.454205,-8.326253,10.662777,24.45031,31.989541,37.597751,27.756822,42.432981,50.640969,56.881441,40.001188,54.517845,62.010628,67.307788,48.162728,61.617846,67.511083,71.188468,28.581058,48.305797,60.997924,69.330677,40.95465,50.452812,47.545189,43.764679,29.400524,37.078044,33.125564,27.731071,17.649616,23.449802,19.641346,15.153717,6.373432,10.03474,7.30299,3.592174,-10.209492,-19.287155,-25.86442,-32.332429,-26.48708,-27.999835,-28.775612,-29.860289,-18.382135,-16.707389,-16.53823,-16.711786,-8.265867,-4.614281,-5.141302,-6.400214,3.393506,8.17749,8.531406,8.011288,40.62668,295.437023,-102.42354,193.544607
43,1.980652,-0.819367,-8.86488,-22.465813,-25.208611,-49.166004,-71.062214,-88.374332,-58.778275,-89.900757,-106.384586,-118.756668,-52.413643,-86.083386,-105.343563,-120.165081,-43.086777,-73.930859,-92.327236,-106.123444,-32.077217,-56.846855,-71.200733,-83.214729,-18.916386,-19.92272,-8.33423,1.086474,10.095168,23.762362,31.118478,36.909617,27.788513,41.862099,49.938818,56.620867,40.615494,54.610743,61.914051,67.507922,48.986479,61.881187,67.319917,71.027547,28.668755,47.673649,58.649551,66.087605,33.853992,40.351444,36.687607,32.598072,21.058937,25.631046,21.970001,17.476295,9.181046,12.01141,8.547386,4.893311,-1.63179,-0.582733,-3.329201,-6.364357,-13.57815,-29.089773,-41.635017,-53.541263,-42.727796,-53.630535,-60.517707,-66.670067,-36.486064,-46.320299,-53.491831,-59.450888,-27.114951,-34.474316,-41.654191,-48.177924,-15.090127,-18.603145,-23.471733,-28.114944,41.506182,294.911606,-112.38957,171.372744
44,1.025001,-0.374405,-3.634266,-19.144356,-25.903999,-49.91019,-72.025188,-89.614185,-59.34708,-90.672214,-107.189071,-119.588882,-53.086589,-86.992595,-106.20932,-121.09061,-43.850509,-75.064315,-93.390277,-107.150814,-32.877754,-57.759223,-72.146175,-84.192638,-18.764147,-19.824735,-8.440849,0.987797,10.027094,23.816504,31.074228,36.713547,27.733716,41.692718,49.637168,56.19826,40.571268,54.342808,61.571867,67.213508,48.90897,61.808026,67.257524,71.041602,26.89904,43.00724,50.543816,57.366589,22.901322,22.994122,20.932194,18.30566,8.418949,7.508617,4.911038,1.379082,-4.024074,-6.138233,-8.814342,-11.552399,-14.737942,-18.716789,-20.744293,-22.499016,-14.468221,-35.251736,-51.920525,-66.955775,-56.435153,-77.232358,-86.369085,-93.872606,-52.695178,-73.573091,-82.920979,-90.048996,-44.681864,-61.746819,-70.711935,-78.319425,-32.665024,-43.529595,-49.628578,-55.01708,41.13109,294.768311,-117.423929,152.459498
45,0.751511,-0.466055,-3.572971,-16.908288,-26.139313,-50.35326,-72.620796,-90.390507,-59.867729,-91.333282,-107.861252,-120.233276,-53.628559,-87.706638,-106.885162,-121.755821,-44.484444,-75.861088,-94.18713,-107.919102,-33.636703,-58.566055,-72.898029,-84.900398,-18.859601,-19.882237,-8.5314,0.729507,9.802866,23.682802,31.048317,36.770889,27.560876,41.597177,49.522151,56.097557,40.464946,54.246959,61.446748,67.091922,48.871018,61.756686,67.147275,70.896636,24.146896,38.597934,43.937084,50.697109,14.257805,9.270698,6.809097,4.066635,-0.286927,-6.445656,-9.24915,-13.037842,-12.478409,-19.252156,-22.302521,-25.338753,-22.942864,-30.072029,-32.666977,-34.51957,-16.342809,-40.130803,-59.273727,-76.300032,-65.157041,-89.935066,-103.13636,-114.131632,-61.709151,-87.38646,-101.418031,-112.499723,-53.320481,-75.8496,-89.141234,-100.394524,-40.526135,-56.115891,-65.29685,-73.399053,40.490833,294.109252,-122.388668,135.358206
46,0.471382,-0.55379,-3.503804,-14.380875,-26.259247,-50.527965,-72.849666,-90.732868,-60.11578,-91.756542,-108.314289,-120.620991,-53.949611,-88.215706,-107.37117,-122.236599,-44.911045,-76.472317,-94.789455,-108.489383,-34.16233,-59.132377,-73.433075,-85.429401,-18.917745,-19.8791,-8.478183,0.686801,9.695321,23.696042,31.163593,36.919744,27.469572,41.591719,49.524337,56.089097,40.373099,54.178107,61.417973,67.110719,48.765721,61.658725,67.08734,70.879988,23.061196,36.135155,40.049298,46.444199,10.165123,4.142624,0.281811,-3.824523,-4.580909,-11.404472,-15.48904,-20.512424,-16.974243,-24.778919,-29.096706,-33.381786,-27.643238,-35.635299,-39.053501,-41.822879,-18.083163,-43.720773,-63.776869,-81.31803,-69.67772,-95.40903,-110.48359,-124.123854,-66.111948,-93.285415,-109.677914,-124.121607,-57.517217,-81.890049,-97.704441,-112.389442,-44.411094,-62.239327,-73.95346,-85.263357,39.581537,293.20975,-127.27315,120.631619
47,0.671334,-0.56183,-3.726894,-11.319542,-26.380898,-50.776726,-73.131112,-90.925942,-60.329224,-91.994374,-108.662087,-121.091526,-54.2417,-88.496842,-107.768681,-122.824334,-45.303006,-76.901745,-95.312611,-109.128903,-34.599289,-59.578206,-73.895485,-86.016484,-18.669582,-19.591466,-8.319978,0.617566,9.642154,23.693127,31.209004,36.991511,27.313937,41.544467,49.54616,56.154899,40.17467,54.125138,61.529086,67.325734,48.596834,61.62207,67.151956,70.982222,23.117626,35.882183,39.277771,45.796921,9.048786,3.162392,-1.275066,-6.431934,-5.964455,-12.693787,-17.046261,-22.678287,-18.605564,-26.704685,-31.216747,-36.099747,-29.479351,-37.623012,-41.376434,-44.872547,-18.58654,-45.162732,-66.009146,-83.544448,-72.015689,-97.974426,-113.915808,-128.8693,-68.979452,-96.844289,-114.333771,-130.312462,-60.622862,-85.905475,-102.545346,-118.311399,-47.591073,-66.236264,-78.741618,-91.263861,38.695622,292.063514,-132.557293,108.727671
48,0.629653,-0.348852,-1.748852,-9.382697,-26.414588,-50.89785,-73.245025,-90.914657,-60.485687,-92.154464,-108.886814,-121.369663,-54.45623,-88.66785,-107.976367,-123.183757,-45.614479,-77.160026,-95.583492,-109.487525,-34.968223,-59.853698,-74.110347,-86.297836,-18.587381,-19.583958,-8.44595,0.297414,9.591839,23.671748,31.25444,37.084506,27.237798,41.397698,49.410975,56.04807,40.077906,53.90149,61.361162,67.21825,48.501824,61.443018,67.07699,71.024224,22.726101,35.490189,38.974114,45.76751,8.181084,1.930401,-2.484901,-7.506946,-7.180858,-14.298408,-18.800113,-24.342121,-20.071586,-28.491371,-33.06372,-37.896412,-31.229896,-39.680545,-43.448043,-46.977699,-17.703096,-44.82978,-66.299003,-84.018327,-73.113692,-100.371059,-116.673414,-131.631754,-70.289259,-99.587032,-117.907756,-134.307869,-61.982297,-88.541396,-105.983158,-122.373465,-48.800943,-68.413183,-81.33006,-94.34165,37.798461,291.054997,-135.832959,98.685309
49,0.553116,-0.315545,-0.561744,-3.923374,-26.437042,-50.985305,-73.298481,-90.837261,-60.776493,-92.243271,-109.007526,-121.62125,-54.748157,-88.777027,-108.239719,-123.602256,-45.935611,-77.319889,-95.835468,-109.853016,-35.248626,-59.986026,-74.235695,-86.489113,-18.534016,-19.563025,-8.574045,0.019266,9.616453,23.600341,31.15354,36.981902,27.173034,41.327797,49.322215,55.970289,39.927915,53.796601,61.241502,67.144545,48.320908,61.250925,66.909153,70.925708,22.586563,35.564964,39.216304,46.077049,8.184448,2.073772,-2.383553,-7.698384,-7.074372,-13.984967,-18.610588,-24.278435,-19.997761,-28.423989,-33.036038,-37.936535,-31.422123,-40.06707,-44.151902,-48.036095,-17.48789,-44.530495,-66.111782,-83.931469,-73.631803,-101.273757,-118.091618,-133.448167,-71.34114,-100.863654,-119.878706,-136.958598,-63.25167,-90.156102,-108.27894,-125.207933,-50.082277,-70.202605,-83.484519,-96.901112,37.068552,290.079782,-137.677728,94.102265
50,0.526612,-0.493435,0.769294,-1.023328,-26.502663,-51.186367,-73.522889,-90.932087,-60.984684,-92.394322,-109.189167,-121.882325,-54.965424,-88.979073,-108.56773,-123.973126,-46.163475,-77.564564,-96.180909,-110.281346,-35.452744,-60.21135,-74.499035,-86.831383,-18.528891,-19.44723,-8.555298,-0.03442,9.574512,23.536441,31.019356,36.750313,27.063131,41.240445,49.19286,55.753496,39.809786,53.750695,61.176985,67.059564,48.251191,61.206502,66.915266,71.037698,22.396569,35.486767,39.536889,46.624707,8.159169,1.904869,-2.338886,-7.306469,-7.232803,-14.258354,-18.791816,-24.152595,-20.325771,-28.733448,-33.135955,-37.741092,-31.994224,-40.81406,-44.916698,-48.777374,-16.6586,-43.312869,-65.175825,-83.042232,-72.979033,-101.488259,-118.542112,-133.893777,-70.882156,-101.616991,-121.105192,-138.282088,-62.984747,-90.798831,-109.359634,-126.254096,-49.918595,-70.90596,-84.463307,-97.838915,36.54411,289.163415,-137.959488,92.656005
51,0.450737,-0.572402,0.866867,2.762219,-26.626717,-51.393425,-73.70517,-91.081879,-61.361618,-92.466889,-109.245976,-122.0682,-55.391407,-89.080181,-108.659043,-124.084042,-46.658947,-77.798893,-96.380803,-110.528172,-35.961914,-60.504525,-74.707901,-87.062439,-18.417949,-19.343502,-8.587086,-0.224018,9.617232,23.487103,30.962595,36.705384,27.065774,41.256772,49.16532,55.673962,39.818148,53.862612,61.243083,67.077447,48.321031,61.332214,67.105445,71.31644,22.318165,35.521512,40.142807,47.660637,8.350068,2.177033,-1.775596,-6.32547,-7.260154,-14.356143,-18.557865,-23.507709,-20.519279,-28.792007,-32.835594,-37.072208,-32.298511,-41.294185,-45.333583,-48.991642,-15.550587,-41.669042,-63.656147,-81.509315,-71.604839,-100.781421,-117.921742,-133.125873,-69.626343,-101.494372,-121.244902,-138.343202,-61.868219,-90.488541,-109.100566,-125.611965,-48.910908,-70.554254,-84.248446,-97.384012,35.909747,288.286195,-138.177721,95.113406
52,0.306129,-0.581503,0.849415,6.3597,-26.762924,-51.508392,-73.778503,-91.210625,-61.671615,-92.612194,-109.359306,-122.235134,-55.736183,-89.216057,-108.771183,-124.182564,-47.033283,-78.027752,-96.564045,-110.709171,-36.309402,-60.767647,-74.924469,-87.29393,-18.479688,-19.44008,-8.686196,-0.309049,9.497806,23.261911,30.734168,36.54209,27.002504,41.125527,48.997544,55.503777,39.808304,53.779038,61.108751,66.960491,48.403245,61.335634,67.121549,71.419291,22.165295,35.371891,40.475247,48.295647,8.460938,1.630543,-2.337158,-6.474666,-7.390091,-15.002678,-19.060947,-23.640793,-20.838077,-29.268207,-33.17815,-37.140873,-32.743812,-42.090889,-46.123031,-49.531597,-14.126574,-39.393286,-61.102391,-78.821295,-69.761571,-99.124435,-116.108139,-131.166594,-67.615188,-99.991374,-119.477809,-136.324798,-59.89028,-88.81579,-107.192583,-123.461507,-47.068751,-69.013693,-82.590911,-95.482575,35.199892,287.569511,-138.34429,101.337925
53,0.031151,-0.531573,0.365673,8.58177,-26.789543,-51.468464,-73.637718,-91.112984,-61.918385,-92.716175,-109.365486,-122.229733,-56.007134,-89.383072,-108.900433,-124.26329,-47.351383,-78.249218,-96.723621,-110.889496,-36.629585,-61.055477,-75.159782,-87.525662,-18.47208,-19.405091,-8.638845,-0.40402,9.379628,23.116675,30.631416,36.482156,26.884648,41.079734,48.97608,55.465418,39.729956,53.783423,61.128783,66.989404,48.425525,61.313454,67.109101,71.447413,21.934033,35.059422,40.546704,48.558117,8.399277,0.950936,-3.283344,-7.372787,-7.625999,-15.881195,-20.032001,-24.684642,-21.158443,-29.873703,-33.904735,-37.955578,-33.164989,-42.808857,-47.029335,-50.455066,-12.480784,-36.542702,-57.522763,-74.83982,-67.122105,-96.074342,-112.69767,-127.603725,-64.619948,-97.002951,-115.925345,-132.445909,-56.794565,-85.626351,-103.529704,-119.546223,-44.087442,-66.063487,-79.285035,-91.836856,34.277195,287.074531,-138.932465,109.956288
54,0.17395,-0.243889,-0.216339,9.672769,-26.821747,-51.444511,-73.692192,-91.332893,-61.990539,-92.837025,-109.438339,-122.207977,-56.166778,-89.635506,-108.996986,-124.264023,-47.651802,-78.651935,-96.97657,-111.092697,-37.138275,-61.683414,-75.697025,-87.981983,-18.573166,-19.632037,-8.833718,-0.551888,9.144421,22.862843,30.453982,36.365633,26.704879,40.805672,48.700253,55.193852,39.649371,53.589416,60.883201,66.711144,48.484435,61.227164,67.014956,71.383402,21.962357,34.851288,40.389096,48.531052,8.228531,0.365948,-4.213749,-8.52531,-8.02771,-16.853267,-21.285084,-26.239162,-21.642322,-30.644016,-34.933616,-39.149288,-33.619709,-43.465622,-47.929584,-51.385574,-11.086304,-33.851724,-54.046881,-70.726921,-64.229308,-92.204844,-108.287307,-122.876027,-61.454738,-93.468863,-111.700419,-127.976271,-53.612905,-82.047747,-99.247071,-114.918307,-41.097511,-62.876758,-75.577724,-87.768991,33.668037,287.023961,-139.931912,119.822376
55,0.228424,-0.095553,-1.298,9.398821,-26.810875,-51.285141,-73.575176,-91.403961,-61.97446,-92.920772,-109.48756,-122.17186,-56.231392,-89.752968,-108.991676,-124.226257,-47.811699,-78.799805,-96.984821,-111.0592,-37.408859,-61.939224,-75.849724,-88.046345,-18.527272,-19.715585,-8.883204,-0.643513,9.002605,22.737564,30.363715,36.340118,26.505488,40.647135,48.604429,55.21549,39.40915,53.440079,60.76495,66.663621,48.245869,61.003541,66.85622,71.287628,22.070606,35.062031,40.665024,49.149616,8.595852,0.362869,-4.653214,-9.395084,-7.836491,-17.053791,-21.821285,-26.98328,-21.545265,-30.698948,-35.434284,-39.880245,-33.583843,-43.53154,-48.377335,-52.01508,-9.859423,-31.612938,-50.871929,-66.891807,-61.554596,-88.276697,-103.652309,-118.005544,-58.798514,-89.823212,-107.39284,-123.649106,-51.034678,-78.663325,-95.285357,-110.819154,-38.635343,-59.956964,-72.179273,-84.161465,33.176193,287.343778,-141.95018,129.636567
56,0.399536,-0.011893,-1.194168,7.570261,-26.884758,-51.176822,-73.523941,-91.509098,-61.715458,-92.953788,-109.538932,-122.139198,-56.022274,-89.84103,-109.04235,-124.247463,-47.675857,-78.864589,-97.022632,-111.068058,-37.400573,-62.045803,-75.931801,-88.056461,-18.441476,-19.596011,-8.70004,-0.513405,8.938891,22.684977,30.282563,36.207811,26.401611,40.56229,48.547211,55.207314,39.277128,53.321728,60.679586,66.607329,48.069707,60.82612,66.694743,71.105698,22.132255,35.236748,40.585819,49.228237,8.880958,0.058742,-5.315254,-10.4408,-7.689343,-17.394539,-22.616272,-28.05566,-21.509525,-30.876686,-36.034607,-40.792626,-33.648056,-43.573105,-48.704098,-52.699196,-9.234836,-30.157957,-48.560179,-64.06333,-59.315557,-84.871848,-99.736178,-114.18688,-56.610537,-86.206076,-103.263473,-119.757903,-48.970096,-75.340332,-91.620254,-107.396965,-36.767925,-57.347058,-69.18912,-81.287378,33.154266,287.907569,-143.565811,137.782512
57,0.438721,-0.033123,-1.09005,5.138177,-26.901489,-50.997757,-73.345264,-91.387493,-61.423519,-92.79602,-109.370178,-121.923969,-55.842407,-89.780571,-108.992718,-124.192005,-47.570286,-78.820496,-96.991024,-111.037365,-37.353538,-61.90979,-75.775703,-87.878014,-18.170775,-19.310539,-8.427671,-0.38037,9.116732,22.930435,30.525526,36.419072,26.494175,40.70024,48.70218,55.362913,39.331024,53.421727,60.820105,66.716578,48.080378,60.894119,66.794581,71.139241,22.153153,35.388588,40.338593,48.905399,9.092045,0.267689,-5.277466,-10.817917,-7.625977,-17.416454,-22.983913,-28.654518,-21.562054,-30.9589,-36.469482,-41.468708,-33.737274,-43.270512,-48.559536,-52.772621,-9.138987,-29.553395,-47.354977,-62.478196,-57.678275,-82.183203,-96.734904,-111.241897,-55.231834,-83.507626,-100.411832,-117.270244,-47.824922,-73.143492,-89.33739,-105.295623,-35.944464,-55.885086,-67.538815,-79.808789,33.326454,288.476327,-144.922394,143.52257
58,0.721344,0.01072,-1.026924,2.908284,-27.014351,-50.988979,-73.342689,-91.406273,-61.166267,-92.588802,-109.205418,-121.802055,-55.70256,-89.602936,-108.874031,-124.155968,-47.504471,-78.692333,-96.887627,-110.928108,-37.34285,-61.714359,-75.569767,-87.658871,-17.899518,-19.0553,-8.232651,-0.194538,9.311925,23.170249,30.707541,36.485145,26.634694,40.804314,48.794336,55.474854,39.451165,53.496914,60.940098,66.84466,48.171385,61.016533,66.934865,71.208562,22.362144,35.782768,40.498604,49.001884,9.435997,0.587276,-4.969563,-10.706291,-7.430695,-17.222317,-22.886273,-28.485043,-21.484657,-30.878849,-36.517994,-41.513294,-33.640514,-42.753342,-47.935272,-52.103165,-9.517134,-29.816915,-47.412837,-62.270307,-57.188872,-81.019035,-95.459215,-110.00458,-55.049646,-82.312447,-99.217604,-116.3904,-47.884357,-72.436821,-88.660939,-104.788504,-36.29244,-55.686441,-67.248125,-79.712995,33.911436,289.054358,-146.08568,146.998165
59,0.572113,0.055934,-0.61298,0.990711,-26.985878,-50.835308,-73.093311,-91.086937,-60.954117,-92.364304,-108.992718,-121.604485,-55.504749,-89.415459,-108.772041,-124.084808,-47.289757,-78.415386,-96.701717,-110.768875,-37.08577,-61.37384,-75.285004,-87.410191,-17.781192,-18.844287,-8.021712,-0.062047,9.476082,23.404048,30.867919,36.533445,26.758293,41.001989,48.95974,55.58425,39.55167,53.677434,61.128795,66.995158,48.226516,61.15063,67.021427,71.186455,22.395447,35.96386,40.539322,48.988174,9.607269,0.669354,-4.912674,-10.6894,-7.40704,-17.28994,-22.962982,-28.413025,-21.602406,-31.06168,-36.721722,-41.670399,-33.806042,-42.644131,-47.642395,-51.680099,-9.867901,-30.263926,-47.704243,-62.396463,-57.142905,-80.692721,-94.988849,-109.518758,-55.052888,-81.599334,-98.513538,-115.794601,-47.900671,-71.874651,-88.249563,-104.609983,-36.401065,-55.373342,-66.988353,-79.721912,34.369108,289.614984,-146.813101,148.493568
60,0.522377,0.077595,-0.368225,-0.178606,-26.970222,-50.79681,-73.000202,-90.933781,-60.947811,-92.213093,-108.805103,-121.395309,-55.462864,-89.283279,-108.676002,-124.011852,-47.198021,-78.254585,-96.597942,-110.693344,-36.931,-61.169048,-75.138222,-87.334122,-17.73641,-18.804322,-8.00452,-0.013017,9.660272,23.616865,31.045971,36.636371,26.985375,41.171532,49.074559,55.645112,39.818049,53.865588,61.312046,67.151535,48.503356,61.42353,67.26013,71.334545,22.462463,35.972912,40.368633,48.585045,9.516712,0.41431,-5.200378,-10.974941,-7.6035,-17.731819,-23.415562,-28.86224,-21.909645,-31.480373,-37.067837,-42.003456,-34.112675,-42.817886,-47.633595,-51.573933,-10.206281,-30.685114,-48.041234,-62.586649,-57.096556,-80.58958,-94.847417,-109.345889,-54.802781,-81.036604,-97.911275,-115.224392,-47.569196,-71.233269,-87.63889,-104.143515,-36.201383,-54.917624,-66.670994,-79.710193,34.84219,290.085256,-147.230621,148.707639
61,0.262024,0.245927,-0.922955,-0.549962,-26.844315,-50.678673,-72.857105,-90.849884,-60.873047,-92.21133,-108.839378,-121.425316,-55.302223,-89.248466,-108.729092,-124.065777,-46.935104,-78.030922,-96.394123,-110.439892,-36.594269,-60.85643,-74.848011,-87.034996,-17.813487,-18.877471,-8.079214,-0.082609,9.606314,23.720075,31.221923,36.853091,26.914486,41.255512,49.206607,55.806873,39.743208,53.95483,61.449367,67.343876,48.437048,61.437091,67.235133,71.282935,22.495846,36.125222,40.551945,48.547955,9.490528,0.459343,-5.217682,-11.077365,-7.629295,-17.790321,-23.445831,-28.864299,-21.947376,-31.612003,-37.13055,-41.934459,-34.136272,-42.929878,-47.727012,-51.555416,-10.319358,-30.87155,-48.131365,-62.555292,-57.116927,-80.610976,-94.678646,-108.84516,-54.733861,-80.951517,-97.738317,-114.825175,-47.437759,-71.095744,-87.457078,-103.7967,-36.122892,-54.764538,-66.504403,-79.486402,35.067444,290.630012,-148.190346,148.456506
62,0.190659,0.163799,-1.057617,-0.499376,-26.750542,-50.663716,-72.86221,-90.881276,-60.891976,-92.247666,-108.90485,-121.473439,-55.195485,-89.265645,-108.790776,-124.14346,-46.710846,-77.913952,-96.305352,-110.362473,-36.315468,-60.753903,-74.828717,-87.086106,-17.977002,-19.006455,-8.221548,-0.048968,9.552839,23.788198,31.318896,36.919213,26.885512,41.336912,49.288908,55.847505,39.744702,54.12599,61.629876,67.51758,48.462415,61.575968,67.355337,71.362864,22.508206,36.17783,40.694664,48.799198,9.433068,0.405293,-5.352848,-11.339584,-7.660709,-17.812294,-23.45993,-28.963989,-21.927406,-31.624706,-37.029201,-41.775043,-34.067207,-42.968159,-47.787357,-51.634048,-10.467522,-31.062136,-48.33905,-62.861159,-57.26036,-80.7099,-94.702401,-108.777191,-54.802521,-80.953055,-97.692869,-114.678233,-47.39349,-70.983926,-87.278705,-103.504052,-35.944235,-54.475725,-66.190143,-79.121327,35.264883,291.003762,-149.241183,148.167081
63,0.054954,0.167974,-0.851589,-0.579194,-26.603027,-50.54369,-72.821159,-90.856705,-60.895786,-92.353054,-109.023239,-121.534996,-55.084156,-89.345306,-108.865059,-124.133102,-46.501018,-77.815922,-96.188393,-110.179596,-36.101578,-60.68288,-74.780823,-87.017784,-18.092933,-19.121719,-8.454669,-0.09785,9.502635,23.848812,31.409372,37.025819,26.825453,41.459968,49.407171,55.933177,39.681333,54.318503,61.829724,67.715316,48.36874,61.671865,67.448518,71.43053,22.470669,36.10318,40.663467,48.868378,9.204071,0.163387,-5.652626,-11.722927,-7.863052,-18.002014,-23.627838,-29.197609,-22.114769,-31.83506,-37.128845,-41.845963,-34.228249,-43.18531,-47.970497,-51.832157,-10.536361,-31.212437,-48.549452,-63.127563,-57.212707,-80.650138,-94.564062,-108.584845,-54.722418,-80.779388,-97.42507,-114.301649,-47.273466,-70.784225,-86.997481,-103.126269,-35.777003,-54.287887,-65.987219,-78.901193,35.373974,291.334964,-150.038635,147.751115
64,0.044518,0.082177,-0.823357,-0.630459,-26.578972,-50.569359,-72.937832,-90.985714,-60.847859,-92.400502,-109.1124,-121.609188,-54.990738,-89.349598,-108.881218,-124.133171,-46.385765,-77.742325,-96.031083,-109.947705,-36.052964,-60.681347,-74.725743,-86.915589,-18.029477,-19.120422,-8.606562,-0.075792,9.468809,23.925778,31.576913,37.239747,26.760011,41.570711,49.595659,56.163136,39.630859,54.501322,62.09598,68.0349,48.336803,61.802764,67.628743,71.628255,22.442425,36.09684,40.747754,49.020974,9.110424,0.096245,-5.728752,-11.848663,-7.921497,-18.00008,-23.571956,-29.139816,-22.166839,-31.894615,-37.15369,-41.89674,-34.274219,-43.197475,-47.986301,-51.902412,-10.47881,-31.193073,-48.583557,-63.295889,-57.152316,-80.576273,-94.504998,-108.505817,-54.705573,-80.651194,-97.271941,-114.07479,-47.288046,-70.685369,-86.808112,-102.850078,-35.80229,-54.228736,-65.858173,-78.709928,35.49059,291.526226,-150.789894,147.229741
65,0.085395,0.187413,-0.458931,-0.554877,-26.541458,-50.555225,-72.992363,-91.061725,-60.732536,-92.392822,-109.216907,-121.789066,-54.883186,-89.326149,-108.904964,-124.152488,-46.324195,-77.714435,-96.01847,-109.902145,-36.089584,-60.738041,-74.740985,-86.865657,-18.028749,-19.16014,-8.749984,-0.088069,9.332266,23.859322,31.604083,37.337547,26.578983,41.550123,49.647405,56.26658,39.454252,54.492688,62.156705,68.158586,48.201532,61.725032,67.575798,71.603431,22.266838,35.95007,40.765686,49.222001,8.928475,-0.019329,-5.818485,-11.913242,-8.019779,-17.951099,-23.461715,-29.015876,-22.170295,-31.884086,-37.157753,-41.973346,-34.159149,-43.033218,-47.803585,-51.798317,-10.49589,-31.27378,-48.744874,-63.671239,-57.346842,-80.720225,-94.631988,-108.558793,-54.996708,-80.755065,-97.311128,-113.964269,-47.640819,-70.892814,-86.919318,-102.829182,-36.132488,-54.440392,-65.919213,-78.601315,35.654159,291.757655,-151.170651,146.71888
66,0.055779,0.075632,0.106877,-0.688764,-26.574371,-50.562779,-73.02665,-90.994492,-60.682468,-92.350628,-109.160088,-121.720951,-54.82299,-89.292503,-108.825119,-124.017357,-46.290573,-77.732849,-96.073975,-110.007717,-36.107277,-60.851841,-74.862637,-87.026653,-18.145902,-19.329781,-8.988625,-0.183448,9.087005,23.671687,31.481496,37.270992,26.406674,41.405652,49.537156,56.144734,39.409977,54.411684,62.104229,68.098564,48.297294,61.812286,67.696507,71.742369,22.092247,35.679153,40.629467,49.28881,8.872535,-0.113514,-5.916928,-11.984516,-8.031956,-17.922238,-23.418904,-28.978066,-22.119267,-31.832428,-37.190621,-42.145409,-34.017254,-42.791577,-47.531399,-51.567742,-10.493976,-31.34735,-48.85755,-63.796055,-57.373648,-80.665823,-94.671489,-108.690784,-55.000518,-80.593007,-97.161952,-113.891707,-47.629186,-70.698905,-86.679412,-102.643177,-36.076462,-54.266799,-65.650655,-78.285289,35.788216,291.833231,-150.985496,146.03006
67,-0.064751,-0.0268,0.365593,-0.778623,-26.625618,-50.484089,-72.911751,-90.82465,-60.412708,-92.232742,-109.040176,-121.571274,-54.542381,-89.135742,-108.588592,-123.642002,-46.039467,-77.561325,-95.881416,-109.810787,-35.905494,-60.692344,-74.649055,-86.793731,-18.056092,-19.196005,-8.865161,-0.036951,8.897605,23.562426,31.448003,37.33777,26.207492,41.357116,49.575083,56.260714,39.271694,54.348538,62.130239,68.212482,48.24992,61.794984,67.746698,71.882074,22.13499,35.771129,40.823971,49.462509,9.128219,0.105503,-5.680252,-11.734062,-7.796688,-17.589615,-23.026051,-28.574227,-21.908112,-31.541039,-36.933644,-41.994896,-33.768666,-42.365742,-47.011002,-51.01022,-10.493977,-31.368642,-49.04474,-64.339372,-57.366127,-80.653121,-94.73831,-108.750726,-54.996794,-80.512769,-97.053654,-113.697218,-47.677685,-70.615944,-86.544777,-102.475322,-36.187804,-54.333521,-65.628585,-78.194275,35.801204,291.782028,-150.542164,145.227034
68,0.084595,0.000494,1.081478,-0.737708,-26.691788,-50.505764,-72.939732,-90.828003,-60.127361,-92.051296,-108.893578,-121.423496,-54.229122,-88.92564,-108.378857,-123.408577,-45.714935,-77.328918,-95.660385,-109.632042,-35.587486,-60.502293,-74.456005,-86.635689,-18.059501,-19.199981,-8.814105,0.074903,8.66052,23.387388,31.289625,37.178318,25.966691,41.183388,49.4419,56.147637,39.085306,54.206624,62.061696,68.208851,48.157899,61.733838,67.749353,71.977972,22.148952,35.727218,40.72055,49.316254,9.190315,0.280151,-5.439961,-11.461384,-7.682717,-17.278725,-22.631355,-28.186089,-21.710209,-31.212227,-36.577721,-41.712616,-33.459892,-41.898537,-46.465553,-50.501839,-10.691083,-31.588948,-49.350559,-64.935245,-57.645386,-80.807416,-94.839599,-108.788078,-55.195402,-80.590648,-96.969204,-113.471495,-47.788749,-70.55988,-86.324093,-102.149927,-36.1644,-54.066098,-65.241323,-77.677924,35.929773,291.721429,-149.416712,144.428233
69,0.283951,0.096849,1.575371,-0.476948,-26.725662,-50.524647,-72.941368,-90.843464,-59.958561,-91.902386,-108.767567,-121.366722,-54.003147,-88.702515,-108.119866,-123.146954,-45.457054,-77.118359,-95.533081,-109.596897,-35.280373,-60.276341,-74.265759,-86.5051,-18.137775,-19.290421,-8.779093,0.086377,8.416186,23.129988,31.007599,36.880607,25.775598,40.950107,49.151513,55.797191,38.948468,53.948767,61.803172,67.952525,48.106091,61.594258,67.636054,71.931191,22.037006,35.616737,40.772667,49.537616,9.205146,0.470581,-5.200734,-11.228005,-7.506123,-16.905774,-22.25877,-27.869339,-21.375985,-30.685238,-35.916001,-40.980744,-32.996487,-41.371422,-45.844483,-49.853806,-11.062512,-32.08481,-50.009985,-65.935503,-57.958004,-81.111698,-95.053045,-108.862827,-55.396492,-80.599509,-96.761228,-112.953088,-47.857106,-70.483661,-86.11529,-101.753885,-36.055905,-53.803967,-64.884202,-77.149878,36.290491,291.657298,-147.764574,143.790305
70,0.329979,-0.049869,2.399517,-0.218794,-26.81939,-50.554207,-72.88488,-90.753273,-59.611691,-91.595169,-108.48547,-121.139385,-53.577038,-88.319001,-107.730561,-122.784325,-45.00895,-76.71896,-95.184746,-109.360188,-34.878067,-59.984448,-74.032242,-86.377819,-18.049534,-19.226806,-8.762334,0.113608,8.252584,22.905327,30.68089,36.425185,25.642105,40.772735,48.866584,55.354736,38.871007,53.851793,61.672446,67.73294,48.096432,61.626578,67.658654,71.92746,21.957092,35.40422,40.557449,49.377285,8.988819,0.48452,-5.12835,-11.122181,-7.626675,-16.776078,-22.078686,-27.710759,-21.375538,-30.508416,-35.587933,-40.5714,-32.914547,-41.246613,-45.632412,-49.60857,-11.387751,-32.621816,-50.712192,-66.895641,-58.153913,-81.028724,-94.813688,-108.528189,-55.423946,-80.279364,-96.144199,-112.077417,-47.689553,-70.039676,-85.425291,-100.868205,-35.68011,-53.194806,-64.162864,-76.260517,36.755259,291.398629,-145.230268,143.362711
71,0.585823,0.035494,2.932811,0.710957,-26.679199,-50.491162,-72.892754,-90.929329,-59.527451,-91.424984,-108.186127,-120.85064,-53.353638,-88.096436,-107.505226,-122.571556,-44.659584,-76.526997,-95.067467,-109.362923,-34.448021,-59.808243,-74.023762,-86.563877,-18.000122,-19.226843,-8.807894,-0.020452,8.185511,22.617756,30.120097,35.660912,25.600893,40.387672,48.112735,54.221901,38.870168,53.648523,61.147987,66.885675,48.125455,61.60189,67.487272,71.65603,21.92807,35.387112,40.635155,49.368885,9.033394,0.928379,-4.48693,-10.286087,-7.410381,-16.119575,-21.183128,-26.635952,-21.026332,-29.832435,-34.692398,-39.520477,-32.451015,-40.682178,-44.913242,-48.796978,-11.726094,-33.242778,-51.627808,-68.332376,-58.148238,-80.725856,-94.306791,-107.82923,-55.274189,-79.714397,-95.199887,-110.731795,-47.36984,-69.377538,-84.5096,-99.719789,-35.09642,-52.339686,-63.212735,-75.062405,37.581225,291.168037,-142.057314,143.807582
72,1.168373,0.354559,3.613907,1.768767,-26.372864,-50.488209,-73.149399,-91.448868,-59.651138,-91.555344,-108.302776,-121.078194,-53.461613,-88.228363,-107.63356,-122.723934,-44.766266,-76.812115,-95.471043,-109.857376,-34.606979,-60.245098,-74.587555,-87.163559,-18.331586,-19.724292,-9.337009,-0.574415,7.74833,21.751496,28.936465,34.280963,25.303157,39.474049,46.715718,52.374921,38.656795,52.99303,60.12624,65.517915,47.948243,61.261126,66.962566,71.008058,21.888531,35.26046,40.605389,49.367638,9.120495,1.470692,-3.620029,-9.013675,-6.967598,-15.145076,-19.888389,-25.008373,-20.330085,-28.746139,-33.325676,-37.896984,-31.550857,-39.785213,-43.842029,-47.581684,-12.036464,-33.848859,-52.361707,-69.173127,-58.130554,-80.293906,-93.523654,-106.750938,-54.982783,-78.922133,-93.896096,-109.057625,-46.769966,-68.40681,-83.123057,-98.038505,-34.150182,-50.961355,-61.643683,-73.192899,39.067103,291.249869,-138.125902,145.303622
73,1.447723,0.271528,3.915642,3.142614,-26.23146,-50.45953,-73.376701,-91.883079,-59.614975,-91.746048,-108.555244,-121.455574,-53.475986,-88.443878,-107.848148,-122.912521,-44.896866,-77.265735,-96.024662,-110.428047,-34.940963,-60.841163,-75.276066,-87.842811,-18.703693,-20.275093,-9.891057,-1.159487,7.250857,20.780928,27.706101,32.939486,25.019032,38.450253,45.141404,50.275321,38.474015,52.20407,58.786047,63.64757,47.752965,60.831702,66.273457,70.125226,21.861614,35.268047,40.913258,49.727234,9.677204,2.564289,-2.005405,-6.689026,-5.991852,-13.492435,-17.807888,-22.360016,-19.084225,-26.844246,-30.988804,-35.052372,-30.135384,-38.217922,-41.999668,-45.39267,-12.094781,-34.042094,-52.621441,-69.603199,-57.454936,-79.414518,-92.313951,-105.217589,-54.042509,-77.576203,-92.084801,-106.72914,-45.647281,-66.998962,-81.401326,-95.959732,-32.842938,-49.439109,-60.027791,-71.317131,40.904663,291.282071,-133.820423,148.20691
74,1.807732,0.121463,4.22699,4.423627,-26.146225,-50.590656,-73.841663,-92.465057,-59.515778,-91.98579,-108.926502,-121.957981,-53.474453,-88.710651,-108.149609,-123.19677,-45.066444,-77.758999,-96.599087,-111.011913,-35.412666,-61.568161,-76.093277,-88.643589,-19.125757,-20.996128,-10.826378,-1.939666,6.506777,19.653378,26.341022,31.447509,24.496364,37.215973,43.406675,48.067522,38.090829,51.184102,57.27478,61.671347,47.380017,60.148767,65.338383,69.009717,22.006656,35.470436,41.329731,50.132103,11.007683,4.718204,1.041195,-2.375015,-4.363781,-10.743668,-14.217362,-17.692063,-17.328953,-24.130039,-27.669182,-30.883301,-28.306595,-35.994358,-39.411095,-42.283402,-11.653192,-33.404231,-51.641487,-68.610463,-56.065645,-78.219296,-90.465947,-102.017813,-52.309108,-75.493238,-89.236891,-102.376434,-43.605171,-64.606684,-78.495697,-91.9804,-30.548133,-46.721134,-57.035682,-67.65293,43.060467,291.272562,-129.245361,152.499565
75,2.006126,0.013758,3.846863,5.450622,-25.837555,-50.503944,-74.174617,-93.087948,-59.472931,-92.402424,-109.49303,-122.540531,-53.548748,-89.293796,-108.789104,-123.730831,-45.313911,-78.608207,-97.531253,-111.878277,-35.963928,-62.561462,-77.202278,-89.658336,-19.902948,-21.954012,-11.803961,-2.936219,5.647594,18.365425,24.84912,29.876184,23.925939,35.848276,41.451508,45.597369,37.672087,50.002421,55.408336,59.210939,46.91742,59.236244,64.04092,67.469822,22.296226,36.382839,42.446102,51.103786,13.285183,8.178611,6.471714,5.094165,-1.816819,-7.107182,-8.570424,-10.211197,-14.665993,-20.354657,-22.040406,-23.622288,-25.634102,-32.168679,-33.993599,-35.420792,-10.388432,-31.410693,-48.938251,-65.517872,-53.970119,-76.948682,-86.730411,-94.170218,-50.285478,-73.665456,-83.788819,-92.027602,-41.656426,-62.522465,-73.153681,-82.274723,-29.046949,-44.604496,-52.665524,-60.067627,45.340633,291.191959,-125.124458,157.855826
76,2.127182,-0.478639,4.285984,5.517857,-25.792602,-50.575515,-74.516224,-93.51448,-59.38924,-92.695278,-110.033901,-123.176742,-53.724792,-89.7476,-109.282848,-124.207649,-45.799049,-79.345173,-98.310344,-112.594391,-36.824455,-63.451595,-78.055092,-90.345806,-20.482328,-22.782593,-12.774926,-3.74704,4.931079,17.267638,23.611134,28.479376,23.432898,34.768964,39.973561,43.752921,37.247453,48.958369,54.001254,57.447618,46.414018,58.344913,62.958176,66.218276,22.265247,36.96199,43.325901,51.210846,15.257457,11.714607,12.298164,12.796554,0.640754,-3.420456,-2.039635,-2.005726,-12.014111,-16.166119,-15.100113,-15.098763,-22.63955,-27.892056,-27.326832,-27.027272,-9.206863,-28.824364,-45.208286,-60.430016,-50.980715,-72.042082,-76.741208,-79.773153,-46.844129,-67.512331,-71.858899,-75.369713,-37.920743,-55.489137,-60.733729,-65.471208,-25.512233,-37.946246,-42.335033,-46.430839,47.618683,290.680497,-120.687606,163.34086
77,1.874474,-1.063441,2.889021,6.946834,-25.814186,-50.509369,-74.549034,-93.583969,-59.045105,-92.677048,-110.196682,-123.362801,-53.535393,-89.874951,-109.513538,-124.498043,-45.830292,-79.670483,-98.633549,-112.88356,-37.179176,-63.876961,-78.525284,-90.785019,-20.724636,-23.187058,-13.36069,-4.409375,4.544423,16.755863,22.947638,27.625096,23.158368,34.087561,39.003783,42.54281,37.005972,48.281424,53.012025,56.208547,46.073551,57.740093,62.126472,65.223749,22.478639,38.534082,46.335823,54.095792,19.457519,19.12136,21.669004,23.798887,5.245531,4.170896,7.950124,9.348976,-7.512995,-8.591509,-4.913973,-3.478821,-18.253985,-20.812214,-18.087067,-16.346867,-8.792739,-25.832401,-39.875513,-53.239797,-45.669122,-62.034352,-61.999599,-61.18663,-40.722402,-56.067323,-55.271268,-54.464734,-31.336753,-43.537362,-44.135582,-45.046919,-19.045204,-27.039492,-28.135951,-29.4078,49.535574,289.593266,-117.756168,170.263904
78,1.433739,-1.072222,1.250701,8.081969,-25.620987,-50.382409,-74.498635,-93.671677,-58.849583,-92.635243,-110.274697,-123.479748,-53.447915,-90.038853,-109.826958,-124.92421,-45.932167,-79.951321,-99.021836,-113.371422,-37.544449,-64.286065,-79.035519,-91.342461,-20.94222,-23.50895,-13.977502,-5.288639,4.259778,16.325327,22.334012,26.726134,22.904796,33.547159,38.233373,41.614862,36.775581,47.790002,52.375872,55.49549,45.791475,57.179782,61.409142,64.432936,23.095076,41.254481,51.55766,59.912837,25.931672,30.330517,34.392798,37.755404,12.052649,15.671774,21.414271,23.80552,-1.112588,2.259116,8.345885,10.93087,-12.369375,-10.988617,-6.376464,-3.545322,-9.208629,-22.551195,-33.144565,-44.150718,-38.588457,-47.274578,-42.812203,-38.67713,-32.450966,-39.728845,-34.34663,-29.805461,-22.306509,-26.922242,-23.431299,-21.08416,-9.939699,-11.882552,-9.929751,-8.819954,50.906073,288.430799,-116.568707,178.255628
79,0.959014,-1.388186,0.360478,9.954648,-25.258781,-49.942359,-74.086624,-93.494235,-58.753601,-92.580196,-110.177215,-123.353576,-53.529968,-90.254974,-110.11021,-125.280303,-46.150863,-80.288211,-99.461414,-113.894302,-37.853919,-64.592777,-79.483863,-91.909469,-21.068636,-23.611987,-14.172634,-5.804169,4.474039,16.308975,22.118429,26.336909,23.047328,33.397537,37.782026,40.986416,36.827686,47.691214,52.142739,55.182193,45.692044,56.939919,61.06513,64.027125,23.988825,44.314207,57.229008,66.863462,30.24939,39.827339,47.115171,53.242567,16.613005,25.596388,35.207319,40.749115,3.462599,12.054949,22.189012,27.967873,-7.594729,-1.69392,6.265022,11.779942,-9.73294,-19.713245,-27.236384,-35.575543,-32.592461,-33.952612,-24.788271,-16.89784,-25.57176,-24.90496,-14.255052,-5.847734,-15.147537,-12.603383,-3.8132,2.641485,-2.822556,0.716953,6.508345,10.828187,51.769575,286.905237,-116.303741,188.0729
80,0.646981,-1.647934,1.649723,11.454923,-24.992409,-49.031067,-72.033108,-89.925041,-59.032219,-92.174332,-109.793884,-122.921082,-54.160423,-90.270321,-110.352299,-125.843388,-46.970513,-80.366158,-99.665177,-114.378147,-38.580231,-64.795372,-79.679981,-92.254006,-20.534827,-23.495179,-14.899361,-6.980921,5.456217,16.864495,22.277017,25.995467,23.500775,33.775611,38.101956,41.340753,36.938035,47.816123,52.437759,55.625167,45.707865,57.070707,61.419307,64.462626,24.533541,46.593298,62.304748,73.42309,40.3992,53.402172,60.114126,64.726336,27.463835,40.419703,49.245398,53.228565,13.691305,26.335287,36.059916,40.454842,1.277052,11.1698,19.232357,23.847176,-10.627085,-16.89729,-21.036148,-27.092555,-21.562935,-12.413815,-1.487098,5.069542,-12.163707,-1.003024,10.202428,16.494573,-0.784193,10.405315,19.378663,23.916466,11.469911,20.555558,26.094625,28.709823,52.456959,285.089246,-114.613615,199.359766
81,0.473533,-0.943743,0.374908,12.966031,-24.570808,-48.576232,-70.824188,-87.922096,-59.14952,-91.652092,-109.880928,-123.698741,-54.871536,-90.494075,-110.990284,-127.275272,-48.162483,-80.765544,-99.684105,-114.473819,-40.270843,-65.641273,-79.895713,-92.081222,-15.305668,-15.627449,-7.319462,-0.110348,9.133775,19.309292,24.03263,27.436597,23.40942,31.364405,33.755245,35.095809,33.924725,43.190201,46.686189,48.917799,40.52782,51.500214,56.010674,59.162798,26.326144,50.617888,69.101681,82.353636,46.20583,64.255051,72.820216,79.18907,33.536883,52.601206,63.204398,69.2696,20.079798,38.483248,50.027796,56.331105,7.651846,23.009079,32.271069,37.996869,-11.48097,-14.901925,-15.91289,-20.024146,-13.956063,1.249056,12.678063,19.887578,-2.771136,14.331406,25.843856,32.63839,9.616774,25.459979,34.48469,39.206497,22.284013,34.578063,39.988344,42.463158,53.039983,283.973905,-114.129216,212.154199
82,-0.420639,-1.197464,2.126112,13.908452,-25.372078,-49.739456,-70.863647,-87.018333,-58.398536,-89.507938,-107.462734,-120.935531,-54.959518,-89.309372,-109.933056,-126.702461,-48.912025,-80.485691,-100.104892,-115.697559,-41.366455,-65.52238,-80.134975,-93.124672,-14.428281,-14.760448,-8.33044,-2.708089,11.425073,17.159118,18.411478,18.57251,24.527757,29.091829,28.396964,26.67083,34.209209,41.812043,43.689256,43.894329,40.204223,51.174122,55.982367,58.761593,28.345734,54.467549,74.486115,88.530167,53.688904,76.373772,85.384221,90.752507,41.323071,65.849865,76.87016,82.332425,27.748158,51.453267,63.308487,69.260914,14.677941,34.812046,45.089688,50.909707,-12.451698,-14.079909,-12.814,-14.602502,-6.110968,14.082157,24.842389,31.010847,7.041672,29.013814,39.558055,44.811324,20.145517,39.575,47.798561,51.280494,32.53754,46.993521,52.040271,53.693293,52.844793,282.59637,-111.777655,225.88258
83,-1.426918,-0.905743,2.182366,12.856165,-25.147751,-49.484298,-70.082302,-85.697479,-55.707664,-85.644733,-104.176723,-118.57085,-53.162475,-86.384754,-107.489845,-124.811187,-48.26136,-78.987362,-99.066238,-115.135299,-41.886818,-65.375244,-80.333851,-94.051345,-13.653782,-14.592635,-10.230179,-6.335469,14.371235,16.813945,15.7128,13.813913,26.818587,28.626713,25.909979,22.132669,35.621293,41.653469,42.095811,40.62073,40.706909,51.767284,56.773008,59.359127,30.79256,58.094501,79.105911,94.386177,56.484318,81.897365,93.198715,99.928734,44.306763,72.25312,85.620518,93.243736,31.665241,58.731365,72.316051,79.875538,19.563183,42.41795,54.206188,61.219551,-11.97343,-12.810938,-10.054808,-9.830147,-0.461288,20.659292,31.469504,38.14318,14.254971,37.265126,48.120367,53.560183,27.831565,47.886827,56.475259,59.984535,39.697722,54.665639,59.781586,61.293928,51.768688,281.603031,-109.244476,238.651149
84,-1.487548,-0.628286,3.149322,10.967515,-24.921868,-49.337677,-68.496483,-82.83062,-56.93359,-83.146054,-97.351639,-107.178395,-54.151131,-82.77665,-97.966015,-109.620759,-49.086663,-75.588067,-90.068768,-100.748578,-42.530617,-62.664116,-74.143319,-84.112393,-12.141848,-12.859338,-9.876966,-7.226292,15.525523,18.022636,18.148928,17.516999,26.550306,29.345513,28.077888,25.219325,34.332303,40.685136,41.720913,40.397614,38.859423,49.602686,54.810431,57.353215,32.019505,59.835457,81.225952,97.443272,60.732571,87.514149,99.189103,105.405762,48.829674,78.81213,92.443566,99.72464,36.492955,65.292904,78.925415,86.143444,24.235451,48.801819,60.747357,67.914563,-11.132303,-11.029686,-7.138199,-6.775823,6.909254,28.892573,39.115453,45.119816,22.864757,46.483376,56.651149,61.450589,36.724291,57.716653,65.426587,68.002592,47.673862,63.712507,68.269971,69.171453,50.715884,280.970583,-105.66041,249.614502
85,-1.571412,-0.2626,1.905167,10.04983,-24.048362,-48.714134,-67.515483,-82.118843,-57.454834,-79.401191,-87.954883,-92.283062,-54.589599,-78.366382,-86.426319,-90.944194,-49.431244,-71.365848,-79.547287,-83.987388,-42.79216,-59.243339,-66.752449,-72.485126,-10.309873,-10.231191,-7.639131,-5.3783,16.446025,20.102946,21.738282,22.372051,26.145532,30.236892,30.797648,29.189655,33.038286,40.054109,42.604746,42.326511,36.85193,47.699081,53.620279,56.816443,32.902267,61.088013,83.113792,100.301765,58.484894,87.979465,102.795879,112.276302,46.746689,80.018669,97.511616,108.626152,35.551083,67.020012,83.954235,94.883858,24.868824,51.002975,65.142757,75.224911,-10.807125,-10.929316,-7.11303,-6.756187,8.923564,28.549784,38.881666,46.094027,25.131319,46.753003,57.899693,64.466504,38.93177,59.043521,68.049448,72.23231,49.652753,66.079943,71.98227,74.435392,49.541324,280.711059,-103.358391,259.667408
86,-1.618904,0.48731,2.805794,9.576415,-22.657676,-46.554039,-64.688873,-79.25687,-56.733204,-74.173164,-76.943195,-75.357444,-53.817489,-72.286251,-73.508537,-70.950542,-48.523155,-65.717251,-68.15197,-66.955238,-41.475815,-54.523052,-58.600113,-60.751178,-13.924175,-16.711749,-14.923049,-12.576694,13.960805,19.264856,22.260715,23.517064,26.108679,33.358906,37.071477,38.084035,35.162438,44.054189,48.662412,49.905065,40.706971,51.882634,58.18393,61.651364,32.529373,60.188873,82.631012,100.634136,60.175289,90.492965,105.75777,115.310863,48.939651,83.281643,101.264797,112.498134,38.075592,70.219013,87.399879,98.498176,27.613678,53.823143,68.357689,78.983677,-11.090239,-11.477253,-7.847465,-7.886677,13.411497,32.635944,41.45168,47.054406,29.959459,51.108617,60.440055,65.400417,43.160092,63.081046,70.69528,73.656002,52.661368,69.161227,74.412371,76.16418,48.291973,281.2447,-100.183044,269.290154
87,-6.811518,3.21125,2.171299,7.468601,-17.648099,-38.263097,-55.01715,-68.751932,-52.647977,-63.778764,-61.056638,-54.752511,-50.483951,-62.231048,-56.100454,-46.496732,-46.226983,-56.791837,-51.546621,-43.564847,-40.329677,-48.837272,-47.450654,-44.177221,-14.150218,-17.801922,-15.46988,-12.049284,10.606491,20.889479,27.867547,32.33648,23.268296,34.974877,42.570499,46.868779,33.024299,44.014576,50.57121,53.837862,39.577099,50.906045,56.666321,60.095914,30.983642,57.666469,80.583435,100.009346,57.27531,87.5965,104.904327,117.234924,46.670517,81.203979,101.255699,115.232437,36.948555,68.9389,87.846657,101.208778,27.932327,53.633331,68.933887,81.281227,-11.176084,-12.049642,-8.628694,-9.321213,15.491313,32.403158,40.926493,46.97686,31.881342,50.317842,59.021229,64.230061,44.371746,62.489478,69.515118,72.481349,52.935849,68.646154,73.482027,75.276012,41.77637,284.555458,-97.71583,276.858263
88,-11.630069,5.081515,2.506405,6.326576,-11.260386,-26.81,-40.460449,-51.982184,-46.093031,-48.266276,-38.636141,-26.463164,-45.673153,-48.425205,-33.752489,-16.727102,-43.283552,-45.070273,-31.45043,-16.51462,-39.105618,-41.168461,-33.324125,-24.011965,-15.152649,-19.65389,-16.736924,-12.024979,4.348038,18.714877,28.397032,34.650466,17.680452,33.437824,43.508476,49.679534,28.822999,41.948025,49.697145,54.170327,37.500951,49.181999,53.638588,55.999899,28.752754,54.372482,77.116813,96.893222,56.553325,87.298381,105.052013,117.970058,46.650993,81.697013,102.145671,116.364864,37.276851,69.494224,88.733036,102.470386,28.51474,54.2849,69.96849,83.064788,-12.058064,-13.707109,-10.938887,-12.482055,17.05928,32.525202,40.118959,45.421171,33.271999,49.823839,57.080229,61.204403,45.04579,61.935268,67.940224,70.242922,52.842063,67.92717,72.360393,73.966126,30.439087,289.68201,-94.916639,283.229876
89,-12.628109,7.70166,1.891399,4.940725,-5.394213,-15.441565,-26.031693,-35.065722,-36.045141,-31.532187,-19.324637,-6.522577,-38.731762,-34.266644,-17.512293,0.624761,-38.619135,-34.071871,-18.599997,-2.971258,-36.307652,-35.030754,-25.654352,-15.326483,-16.574922,-22.957266,-21.131306,-16.934285,-0.260074,13.726666,22.62858,27.708422,14.094013,28.648165,37.801601,42.995361,26.096977,38.244284,45.215905,49.040238,35.502263,46.547059,49.94054,51.156863,27.084789,52.107845,75.13377,94.831673,55.513641,87.227783,105.211098,118.356766,46.364891,82.331291,103.008476,117.145592,37.594654,70.747593,90.027786,103.349853,29.569096,55.870743,71.723385,84.620441,-13.690634,-16.074287,-13.488204,-14.350178,17.204542,32.163431,38.879714,43.034035,33.80362,49.007054,54.839244,57.448532,45.410784,61.07222,65.75169,66.60886,52.82707,66.937471,70.558367,71.124594,18.115191,297.401251,-92.721027,288.188182
90,-16.267113,9.692505,1.185677,3.092806,0.731455,-2.986879,-9.589954,-15.323828,-22.185648,-11.350428,1.968699,13.838224,-27.31604,-15.892925,1.289045,18.284208,-29.626001,-19.069639,-3.351202,11.039011,-29.729427,-26.699913,-18.664358,-10.082159,-17.960157,-26.89898,-27.664326,-25.872286,-5.90216,6.268612,13.621752,17.254498,9.363264,21.819718,28.880087,32.332683,22.069912,32.312774,37.015982,39.056506,32.230825,41.336349,42.916234,42.32485,26.071643,50.748985,73.806861,93.453369,54.229419,87.087558,105.396034,118.628494,45.472217,82.699482,103.497642,117.320114,37.199993,71.659126,90.943038,103.599861,30.013664,57.076538,73.136558,85.724956,-15.277212,-17.941928,-14.984194,-15.060715,16.803757,31.728424,37.903898,41.378791,33.875659,48.260059,52.487517,53.543227,45.409636,60.281123,63.412672,62.74389,52.381306,65.687952,68.300538,67.661483,2.145,307.180089,-91.238428,291.367321
91,-14.211319,2.571225,0.336662,1.105728,6.026877,7.527357,4.202866,1.084368,-10.926927,5.769339,20.361918,31.379179,-18.34251,-1.344234,17.093084,33.71636,-23.605516,-7.773325,9.658419,24.130755,-26.965141,-19.833767,-9.414018,0.064631,-19.800726,-29.080498,-30.058217,-28.009826,-10.01265,3.400849,10.189738,12.966019,6.696894,20.408746,26.261277,28.474394,20.803955,32.289742,35.357737,35.943359,32.504701,42.532245,42.29421,39.666668,25.273784,49.947922,73.057674,92.852417,53.408157,87.152824,105.59143,118.851379,44.871586,83.061401,103.749344,117.345085,36.881229,72.243496,91.474342,103.866165,30.164337,57.70729,73.837921,86.21672,-16.239358,-18.814622,-15.360143,-14.578556,16.434712,30.998806,36.792007,40.015082,33.940447,47.423452,50.801298,51.106456,45.489898,59.55311,61.780929,60.293127,52.156769,64.781999,66.798286,65.470763,-11.716278,309.831324,-90.551725,292.553059
92,-7.425939,2.50201,-0.317562,-0.027714,7.628425,12.123584,12.342636,11.911251,-5.742703,12.866466,28.334381,39.195121,-14.124894,5.443142,24.635284,41.266388,-19.942463,-2.692738,14.635505,28.726272,-23.871598,-17.125924,-7.393422,1.685852,-19.969738,-28.802381,-28.820659,-26.07016,-11.507943,-0.129701,6.090245,9.086165,5.834833,17.762209,22.874711,24.653716,20.382638,30.241684,32.191823,31.886023,32.390647,40.763979,39.30242,35.717994,25.100086,49.914539,73.116234,93.103283,52.99189,87.234249,105.901508,119.347172,44.466327,83.327751,104.040996,117.655529,36.669639,72.623497,91.873844,104.187069,30.285061,58.207786,74.377006,86.565159,-16.480184,-18.973666,-15.418077,-14.308521,15.821629,30.074155,35.636497,38.646866,33.649393,46.822497,49.870683,49.886849,45.367411,59.150695,61.084731,59.372046,51.990068,64.427416,66.192861,64.544322,-18.778541,312.374311,-90.505611,292.566322
93,-3.820679,4.643396,-0.013344,-0.179273,7.322285,12.73843,14.828041,16.34032,-2.701046,16.562107,31.912857,42.539245,-10.905304,10.26511,29.073761,45.192421,-15.988724,2.247837,18.287842,31.21122,-19.234806,-12.789059,-4.815914,2.724769,-19.754228,-29.099165,-30.229247,-28.580363,-13.333383,-4.599282,0.976818,4.094225,3.491529,13.639777,18.006853,19.403968,17.534487,25.844165,27.198204,26.334525,28.801862,35.106789,33.21614,29.048098,24.946449,49.844456,73.096001,93.297764,52.636207,86.936771,105.662739,119.103687,44.076782,83.199989,103.897968,117.357708,36.330883,72.652141,91.838024,104.015362,30.086414,58.355713,74.564781,86.648815,-16.552828,-18.844448,-15.005585,-13.482165,15.748961,30.050257,35.528457,38.469061,33.814093,47.043884,49.786726,49.555162,45.654018,59.420791,60.904283,58.898098,52.193597,64.39859,65.793557,63.914084,-22.277338,317.058111,-90.197073,292.427453
94,-3.611286,-3.504188,-0.11768,-0.077102,8.765613,15.44228,18.178985,19.618137,2.106193,22.541176,37.154537,46.59431,-5.853276,15.273891,33.376774,48.216739,-12.035408,6.987579,22.982082,35.057499,-16.924301,-8.101719,0.923446,8.101192,-20.515104,-29.066289,-29.29395,-26.747981,-13.603936,-2.531927,2.626073,4.809345,3.90422,16.755691,20.510165,21.160829,18.857489,29.450439,30.250453,28.830033,31.165026,39.277968,36.888091,32.20778,25.148587,50.223416,73.517006,93.83844,52.141068,86.643814,105.595208,119.254509,43.473461,82.933445,103.680405,117.143395,35.936749,72.614273,91.88395,104.135468,30.065838,58.676194,74.968151,86.999016,-16.487064,-18.621504,-14.61752,-12.716509,15.688964,30.028929,35.393002,38.330407,34.038396,47.44525,49.699955,49.053428,46.008219,59.852637,60.843064,58.441776,52.479427,64.55929,65.387746,63.044441,-25.58642,313.570336,-90.012549,292.366764
95,-1.054379,-5.68888,-0.092903,-0.117091,9.65411,16.878948,20.017033,21.004692,4.222721,25.358723,39.260262,47.695084,-3.887386,17.076908,34.823845,48.804016,-11.058609,8.276058,24.908226,36.906143,-17.20721,-5.22678,6.9077,15.697563,-22.049479,-29.308203,-27.573473,-22.822989,-13.221109,0.895307,6.286563,8.180102,5.446152,21.710679,25.484803,25.640043,21.621598,35.253681,35.8679,33.950093,35.092339,45.990867,43.079397,37.665072,25.298744,50.479901,73.713925,94.026581,52.130779,86.589089,105.553414,119.197975,43.305428,82.755203,103.466515,116.928383,35.692555,72.31834,91.642754,103.959274,29.769871,58.301548,74.615021,86.643608,-16.35209,-18.411503,-14.218489,-11.833861,15.874462,30.218824,35.450986,38.281822,34.208962,47.619164,49.65195,48.78632,46.116084,60.005592,60.825403,58.290512,52.497804,64.736884,65.381373,62.89009,-26.354382,307.85876,-89.819035,292.226977
96,-3.00618,0.494757,0.083119,0.122957,11.0136,19.267102,23.319821,24.713849,7.437779,29.81361,43.000374,50.303513,-0.763458,21.744118,38.438736,50.812226,-8.044693,12.712521,28.342575,38.879792,-14.282444,-1.105957,10.222218,17.713509,-22.660326,-30.083257,-28.714213,-24.560868,-13.749606,0.863147,5.820396,7.158849,5.203176,22.020296,25.132763,24.624311,21.547176,35.55033,35.640522,33.251226,35.015522,46.158902,42.729334,36.889177,25.601371,50.868953,74.086521,94.401134,52.092933,86.503818,105.47343,119.071872,43.119392,82.594059,103.276096,116.662983,35.407516,72.061809,91.319355,103.520565,29.405216,57.966613,74.244312,86.188923,-16.284386,-18.299364,-13.949591,-11.287666,15.747665,30.139438,35.367611,38.172895,34.085326,47.663476,49.638452,48.672577,45.98657,60.002863,60.745091,58.101259,52.367079,64.721286,65.26122,62.664405,-29.086945,308.284773,-89.462299,292.28119
97,0.437668,-2.013026,0.394317,0.127342,11.986153,19.752514,21.762829,21.59356,7.880368,31.280663,44.17257,50.70607,-0.51955,22.249661,38.488129,50.009102,-8.752395,13.179943,29.527428,39.786049,-16.072471,-0.343998,12.858994,20.729302,-23.129383,-30.623722,-30.16005,-26.585195,-13.234386,5.083096,10.095883,10.318716,5.697179,25.625457,28.45864,27.327089,22.097545,39.181426,39.100249,36.348021,35.668137,49.509282,46.212106,39.961223,25.83062,51.140534,74.37014,94.717999,51.993359,86.200619,105.025944,118.470646,42.975849,82.329151,102.930393,116.201512,35.166573,71.861847,90.980564,103.035954,29.044338,57.690708,73.924416,85.783001,-16.175434,-18.105369,-13.592995,-10.807409,15.673959,30.198755,35.429941,38.198768,34.003198,47.696327,49.701672,48.699994,45.948642,59.979237,60.68476,57.956183,52.415689,64.767438,65.210806,62.50436,-28.371248,306.170202,-88.789953,292.306987
98,2.35801,-4.166461,0.164303,0.118981,11.7598,19.354042,21.602897,21.148063,4.589996,27.027626,40.900589,47.990455,-3.806534,18.0,35.372062,47.66883,-11.802762,8.970794,26.495819,37.781524,-18.714581,-3.737629,10.498798,19.53091,-21.377882,-26.936073,-24.221748,-19.062871,-9.72674,9.495842,14.929718,15.681109,9.102912,29.108662,32.354375,31.288254,25.366908,42.378826,42.533609,39.951837,38.917172,52.952361,49.871794,44.395038,25.989098,51.393837,74.644936,95.002785,52.041744,86.255631,105.007027,118.345734,43.006268,82.346649,102.89605,116.096855,35.170395,71.864857,90.944344,102.925003,29.015396,57.649223,73.88863,85.754082,-16.148338,-18.070332,-13.524119,-10.574005,15.477592,30.043366,35.228721,37.910257,33.779254,47.420759,49.419052,48.321204,45.752436,59.699038,60.443514,57.68637,52.25594,64.707145,65.221551,62.50636,-25.749916,301.889962,-88.362328,292.312189
99,2.443485,-0.069618,0.118618,0.191191,11.01606,17.726566,19.622223,19.13213,2.386551,23.83897,37.809048,45.388561,-6.158089,14.577564,32.427349,45.528087,-14.26545,5.381435,23.467541,35.413799,-21.201588,-7.424606,7.31163,17.06131,-21.414339,-26.971802,-24.07714,-18.37728,-9.841694,9.160056,15.083378,16.343445,8.977325,28.798194,32.529722,31.818024,25.366514,42.301342,42.714625,40.284573,39.067275,53.273155,50.37511,44.912273,26.0606,51.485664,74.682873,95.145252,52.406925,86.430393,104.980305,118.127369,43.460461,82.496842,102.945934,116.102749,35.470104,71.837608,90.81181,102.750561,29.033581,57.28973,73.472122,85.481037,-16.213781,-18.236045,-13.606987,-10.475401,15.456104,29.870836,34.974754,37.538125,33.594904,46.906453,49.042993,48.066398,45.505065,59.239529,60.244233,57.705192,52.056771,64.653941,65.556226,63.148182,-23.021227,301.680464,-87.958506,292.3635
100,2.610157,3.361841,0.098522,0.359622,9.60236,15.079044,16.891193,17.132583,-2.563854,18.218124,33.182098,42.01181,-11.083981,9.774513,29.179207,44.107246,-17.783135,1.800831,20.565536,33.838188,-22.805523,-9.924442,4.734409,15.304561,-20.705988,-27.060871,-24.295206,-18.73279,-10.461508,5.754261,12.064314,14.436802,7.879476,25.140136,29.397333,29.23803,23.861409,38.584955,39.494341,37.47388,37.196719,49.377358,46.8305,41.716405,26.144875,51.611264,74.848069,95.447708,52.661717,86.542992,104.940766,117.933403,43.942463,82.709576,103.104904,116.219696,35.973072,72.109223,90.969841,102.811066,29.411465,57.472103,73.590054,85.689034,-16.354399,-18.460631,-13.777801,-10.67919,15.103435,29.391258,34.491681,37.055546,33.156798,46.245921,48.531613,47.675209,45.131265,58.635314,59.860566,57.453201,51.838014,64.467801,65.711306,63.567517,-20.113506,304.900418,-87.56242,292.581235
101,1.057892,5.056902,0.321465,0.172148,7.87175,12.623268,14.769184,15.710369,-5.70908,14.656059,30.747665,41.09024,-13.611363,7.541736,27.712211,44.228988,-18.852104,0.853923,19.794136,34.10646,-22.033791,-10.544689,3.786884,15.231548,-19.233488,-27.044161,-26.213408,-22.831659,-10.785722,2.754093,9.407527,12.468371,6.433812,20.868132,25.626766,26.271194,21.327431,33.823146,35.302648,33.78428,33.659235,44.232573,42.453877,38.077267,26.136783,51.51551,74.771667,95.5578,52.589252,86.381859,104.698059,117.608093,44.10815,82.749298,103.152191,116.287651,36.176857,72.272827,91.073868,102.83828,29.5433,57.50045,73.615093,85.80146,-16.246595,-18.525333,-13.883888,-10.703977,15.017614,29.299953,34.359868,36.851164,32.960456,45.819683,48.235137,47.479484,44.955634,58.236184,59.652899,57.347509,51.793418,64.421537,65.923246,63.955396,-18.773872,309.829806,-86.959213,292.625869
102,-3.161579,4.274005,0.089641,0.207716,7.386005,12.824729,17.066162,19.638496,-5.087323,16.798748,33.679332,44.898548,-12.19883,11.844005,31.986751,48.796337,-15.774949,6.345508,24.625385,38.667285,-16.968247,-5.090779,8.335968,19.447403,-18.804334,-27.794984,-28.65602,-27.35752,-11.398978,-0.686973,5.57668,8.68212,5.411559,17.421928,22.027669,22.698451,19.614747,29.978269,31.357971,29.853891,31.127901,40.24451,38.553561,34.478651,26.204716,51.562764,74.784291,95.774449,52.636494,86.47324,104.825581,117.71996,44.217694,82.844616,103.242543,116.332203,36.266659,72.278332,91.084523,102.795994,29.568821,57.351643,73.483624,85.790074,-16.3038,-18.681574,-13.981429,-10.581736,14.98107,29.090953,34.084906,36.570941,32.818776,45.494493,47.864202,47.165101,44.754871,57.914081,59.364673,57.17278,51.585183,64.306546,65.98076,64.208634,-21.637075,314.019268,-86.571196,292.749042
103,-3.133954,3.806901,0.263775,0.236714,8.574532,15.113823,20.652157,24.290051,-1.545913,21.064831,37.192269,47.887848,-8.668201,16.981865,36.72139,53.21093,-12.242488,11.898606,29.648438,43.156472,-13.367065,0.865975,14.320897,25.04979,-19.937714,-29.486822,-30.817408,-29.681188,-14.754273,-4.620858,1.843435,4.750669,2.106825,14.454709,19.290828,19.538028,16.761877,27.358631,28.816348,27.088831,28.707519,37.919964,36.072762,31.568873,26.178051,51.487095,74.679108,95.775261,52.504051,86.435051,104.856056,117.721871,44.137974,82.90844,103.320442,116.283486,36.198899,72.343918,91.108132,102.644737,29.517449,57.352913,73.472729,85.730965,-16.354374,-18.801605,-14.078513,-10.593851,14.899905,28.910086,33.912993,36.441895,32.732856,45.365706,47.681124,46.995522,44.670866,57.790087,59.146138,56.924951,51.505401,64.225628,65.894347,64.12332,-24.406197,317.775148,-85.942589,292.934735
104,2.734017,-0.40181,0.180931,0.126428,7.230011,12.224636,16.736801,20.018474,-4.497379,17.283771,33.704544,44.667869,-11.317921,14.036098,33.987556,50.820877,-14.281242,9.282978,27.355362,41.134048,-14.743847,-1.156654,12.372745,23.203033,-19.680894,-28.705371,-29.465383,-27.70636,-13.907453,-4.263953,2.034441,4.848259,2.871023,14.802932,19.657317,20.006936,17.381333,27.664876,29.041255,27.266067,29.014234,38.155493,36.435028,31.975833,26.211377,51.491959,74.687966,95.837036,52.462258,86.510331,104.961182,117.799736,44.06773,82.968018,103.359238,116.199761,36.119168,72.405476,91.112343,102.463806,29.455994,57.403038,73.504887,85.65548,-16.414754,-18.871593,-14.031262,-10.465522,14.681469,28.729836,33.722419,36.266647,32.570341,45.291643,47.586955,46.895115,44.545907,57.677911,58.981981,56.757854,51.383703,64.11281,65.727299,63.928818,-21.275299,317.356579,-85.364777,293.044404
105,-0.822773,1.16628,0.377907,0.044967,7.342106,12.591808,17.52055,21.419266,-3.130566,18.332531,34.554279,45.682743,-9.748661,15.269806,34.942188,51.884731,-12.840031,10.425774,28.338375,42.173527,-13.628517,-0.264977,12.86927,23.428608,-20.265856,-30.132448,-31.327133,-29.428691,-15.215574,-5.909786,0.288905,3.021657,1.620973,13.525168,18.405513,18.985114,16.190908,26.440168,27.902047,26.298179,27.792193,36.894512,35.334648,30.993001,26.192516,51.333046,74.507538,95.708313,52.120262,86.298889,104.811859,117.634346,43.692467,82.899193,103.343193,116.090744,35.730045,72.351231,91.07,102.298554,29.102783,57.246494,73.436794,85.593956,-16.366552,-18.899307,-14.033547,-10.188929,14.653669,28.822017,33.773412,36.274353,32.598227,45.452798,47.686681,46.970945,44.589404,57.827247,59.051499,56.814541,51.407996,64.127605,65.667351,63.813147,-21.70249,318.52465,-84.591288,293.091162
106,6.077362,-5.927496,0.045799,0.180373,5.923702,8.769676,11.35667,13.880859,-7.709461,11.47197,27.534519,38.684864,-14.584316,7.607758,27.78558,45.376934,-18.336411,2.276482,21.443195,36.143131,-20.027378,-7.588577,6.775166,17.989735,-21.046208,-28.930093,-27.307169,-22.173956,-13.417649,-2.107443,4.301113,6.905647,4.136462,18.214333,23.530809,24.063481,19.506881,31.523931,33.052612,31.375248,31.812416,42.5179,40.940152,36.290334,26.224732,51.392876,74.558213,95.696526,52.146573,86.489388,105.055596,117.871491,43.610127,82.998951,103.436371,116.050255,35.622769,72.373307,91.108773,102.246643,29.009571,57.228241,73.457325,85.6363,-16.520668,-19.066539,-14.125358,-10.152583,14.365677,28.542189,33.477763,36.019879,32.386831,45.361507,47.484498,46.702157,44.42206,57.71275,58.853922,56.622744,51.247778,63.995397,65.496846,63.655066,-15.206165,312.60972,-84.126526,293.284101
107,2.859467,-0.298094,0.115998,0.102752,6.143955,8.346313,10.04195,12.708538,-9.801693,8.272098,24.114017,35.241634,-17.431218,3.146129,24.205341,42.596752,-21.559399,-2.429352,17.504299,33.226215,-23.552308,-11.753426,2.645324,14.248569,-21.580324,-29.623303,-27.277541,-21.192458,-14.892137,-3.960351,2.8451,6.311485,2.823784,16.757962,22.596303,23.627325,18.757527,30.426725,32.671883,31.608603,31.715443,41.655271,40.344495,35.847769,26.203296,51.351207,74.514965,95.563431,52.300277,86.554115,105.019134,117.78408,43.771602,83.017467,103.393478,115.975525,35.73492,72.350006,91.014793,102.103523,29.010166,57.183117,73.384403,85.52861,-16.628422,-19.181802,-14.205917,-10.246987,14.246845,28.525504,33.45441,35.988301,32.257465,45.302499,47.476409,46.735503,44.297251,57.625139,58.850329,56.697635,51.162193,63.816952,65.336703,63.542286,-11.911331,312.34055,-83.575161,293.415777
108,0.187282,-1.150793,0.086895,0.038866,5.476765,7.184086,7.523689,8.918072,-10.248997,8.560719,24.778015,36.237923,-17.548233,3.542919,23.879631,41.93058,-21.604362,-1.71817,18.079056,33.68779,-23.576946,-12.055824,2.414097,14.205666,-21.467494,-30.718632,-30.581744,-26.704386,-13.084678,-0.915092,5.527835,8.188759,4.555636,18.52521,23.764448,24.995924,19.842605,32.057973,33.993885,32.834521,31.984564,42.818316,41.971755,37.504335,26.27956,51.373352,74.575229,95.571338,52.423942,86.498325,104.861583,117.613895,43.922985,82.941833,103.290836,115.982952,35.862785,72.229522,90.83646,101.978611,29.034816,57.068504,73.247245,85.417453,-16.586716,-19.184766,-14.204632,-10.239972,14.27835,28.560936,33.472181,35.973962,32.23106,45.183542,47.459119,46.797821,44.217383,57.464896,58.852613,56.794904,51.1214,63.684311,65.267061,63.503198,-11.331568,311.22664,-83.095785,293.491526
109,-4.110134,1.096526,0.19162,0.129305,7.137073,11.039051,12.905479,14.784565,-5.935993,14.231804,30.209621,41.263996,-13.194454,8.76955,28.961346,46.545971,-17.638504,3.440987,22.907581,38.142574,-20.276505,-7.442551,6.869453,18.391216,-22.043217,-32.435243,-33.326351,-30.374743,-14.452041,-2.449614,3.648289,6.05758,3.411328,17.353472,22.129347,22.94917,18.924847,31.018023,32.635019,31.3762,31.489191,41.968495,40.610999,35.916177,26.272659,51.449947,74.797302,95.906902,52.360588,86.388324,104.716014,117.454891,43.893241,82.946147,103.272983,115.956539,35.877765,72.253521,90.809772,101.940181,29.086864,57.131504,73.290298,85.466434,-16.481777,-19.084224,-14.256045,-10.351579,14.279894,28.416441,33.383138,35.937505,32.231295,45.121298,47.373323,46.654561,44.223595,57.507221,58.816552,56.64164,51.152584,63.675519,65.228591,63.418093,-15.06776,312.357984,-82.530223,293.655649
110,0.441261,-3.252258,0.098991,-0.028775,7.669155,11.705029,12.589749,12.785958,-4.463321,15.991848,31.379689,41.553051,-11.63388,9.725258,29.284184,45.963558,-17.047027,3.764488,23.266468,37.954685,-21.140316,-7.649585,7.596062,19.266255,-22.735995,-32.30563,-32.732498,-29.526935,-13.532973,0.340171,6.077821,7.60418,4.847938,20.467693,24.78522,25.041558,20.846581,34.336255,35.349851,33.799273,34.041866,45.885928,43.877175,38.883345,26.329262,51.639072,75.088783,96.214336,52.551773,86.544994,104.816586,117.550472,44.050793,82.956837,103.179348,115.863819,36.034676,72.146748,90.611538,101.759525,29.239174,57.086826,73.159744,85.326336,-16.331663,-18.82034,-14.074623,-10.317481,14.556276,28.389986,33.36991,35.962328,32.454188,45.189791,47.435666,46.649991,44.370326,57.632067,58.932605,56.677887,51.271515,63.801686,65.394513,63.583287,-14.266262,309.132933,-82.070995,293.654081
111,-5.236473,2.028649,0.113525,-0.078016,9.736336,16.268887,18.753365,19.580612,1.117905,23.191178,38.217167,47.929424,-5.948089,16.364491,35.823818,52.020435,-11.904774,10.027016,29.02866,43.315487,-16.880527,-2.146602,12.812267,24.185177,-23.588262,-34.574377,-36.102378,-33.827616,-16.072088,-2.947075,2.524703,4.00859,2.591208,17.891935,21.868415,21.968636,18.956944,32.05659,32.900249,31.539492,32.802955,43.970134,41.462623,36.512957,26.351921,51.685341,75.181126,96.3009,52.726204,86.60281,104.814709,117.508862,44.207657,82.932507,103.047512,115.687672,36.170071,72.012406,90.364392,101.475048,29.345902,56.993134,73.0066,85.170857,-16.201826,-18.624541,-13.98422,-10.273934,14.893903,28.568977,33.617196,36.260682,32.734462,45.427716,47.639579,46.777592,44.573597,57.884602,59.154635,56.819457,51.454433,64.043415,65.682073,63.863413,-19.184035,311.182578,-81.63877,293.597061
112,-2.645771,1.043298,0.017819,-0.094898,9.951187,17.426903,20.981461,22.712803,3.928253,25.85178,40.768479,50.530243,-2.846226,19.264115,38.8545,55.133309,-8.937218,12.883816,31.970719,46.300736,-14.253616,0.588799,15.875931,27.492211,-24.003509,-35.565903,-36.99235,-33.963245,-17.687985,-5.783679,-0.51774,0.918389,1.29745,16.215411,20.195633,20.23729,18.118658,30.890298,31.617249,29.979739,32.485336,43.270243,40.603218,35.407044,26.40089,51.825336,75.393093,96.504959,52.780231,86.733215,104.98526,117.676758,44.184208,83.013771,103.110763,115.706039,36.150387,71.991119,90.302925,101.36737,29.403248,56.976517,72.976295,85.145553,-16.035433,-18.436067,-13.891916,-10.164945,15.069225,28.603075,33.709315,36.407463,32.924838,45.609089,47.727709,46.738344,44.734679,58.109163,59.2862,56.810379,51.587542,64.256009,65.922974,64.060545,-21.56579,312.223054,-81.356935,293.499341
113,1.085426,-2.74488,-0.040798,-0.128589,10.628941,17.850861,20.756539,22.114392,4.469067,26.091671,40.596909,49.696175,-2.558612,17.84618,37.642205,53.561326,-9.698112,10.453846,30.10714,44.36261,-16.526207,-1.433807,14.596756,26.152016,-25.879301,-37.514548,-37.750583,-33.001025,-19.231005,-6.587101,-1.409379,0.107891,0.779673,17.140964,21.280279,21.461282,18.787958,32.522312,33.25792,32.011661,34.460373,45.878679,42.714489,37.468681,26.369648,51.94757,75.586132,96.688923,52.906139,86.920498,105.192981,117.861637,44.248752,83.166217,103.231945,115.748577,36.192169,72.052425,90.327266,101.336551,29.477634,57.025978,73.023296,85.184406,-15.95685,-18.279221,-13.740393,-9.946447,15.182117,28.646276,33.794667,36.521763,33.081931,45.857165,47.915726,46.843319,44.905394,58.431328,59.51012,56.923123,51.734261,64.489747,66.137198,64.241584,-20.213511,309.463616,-81.13088,293.356194
