takenoko1/special-research/HandMotion_SimilarSearch_自分用/NewProject/handData/tgt/d4_feature_d2/24.csv
,vel_0x_L,vel_0y_L,vel_0x_R,vel_0y_R,posFromWrist_1x_L,posFromWrist_2x_L,posFromWrist_3x_L,posFromWrist_4x_L,posFromWrist_5x_L,posFromWrist_6x_L,posFromWrist_7x_L,posFromWrist_8x_L,posFromWrist_9x_L,posFromWrist_10x_L,posFromWrist_11x_L,posFromWrist_12x_L,posFromWrist_13x_L,posFromWrist_14x_L,posFromWrist_15x_L,posFromWrist_16x_L,posFromWrist_17x_L,posFromWrist_18x_L,posFromWrist_19x_L,posFromWrist_20x_L,posFromWrist_1y_L,posFromWrist_2y_L,posFromWrist_3y_L,posFromWrist_4y_L,posFromWrist_5y_L,posFromWrist_6y_L,posFromWrist_7y_L,posFromWrist_8y_L,posFromWrist_9y_L,posFromWrist_10y_L,posFromWrist_11y_L,posFromWrist_12y_L,posFromWrist_13y_L,posFromWrist_14y_L,posFromWrist_15y_L,posFromWrist_16y_L,posFromWrist_17y_L,posFromWrist_18y_L,posFromWrist_19y_L,posFromWrist_20y_L,posFromWrist_1x_R,posFromWrist_2x_R,posFromWrist_3x_R,posFromWrist_4x_R,posFromWrist_5x_R,posFromWrist_6x_R,posFromWrist_7x_R,posFromWrist_8x_R,posFromWrist_9x_R,posFromWrist_10x_R,posFromWrist_11x_R,posFromWrist_12x_R,posFromWrist_13x_R,posFromWrist_14x_R,posFromWrist_15x_R,posFromWrist_16x_R,posFromWrist_17x_R,posFromWrist_18x_R,posFromWrist_19x_R,posFromWrist_20x_R,posFromWrist_1y_R,posFromWrist_2y_R,posFromWrist_3y_R,posFromWrist_4y_R,posFromWrist_5y_R,posFromWrist_6y_R,posFromWrist_7y_R,posFromWrist_8y_R,posFromWrist_9y_R,posFromWrist_10y_R,posFromWrist_11y_R,posFromWrist_12y_R,posFromWrist_13y_R,posFromWrist_14y_R,posFromWrist_15y_R,posFromWrist_16y_R,posFromWrist_17y_R,posFromWrist_18y_R,posFromWrist_19y_R,posFromWrist_20y_R,posFromBody_0x_L,posFromBody_0y_L,posFromBody_0x_R,posFromBody_0y_R
6,-4.497883,-2.655144,0.301701,0.077361,11.762718,19.942875,23.676968,23.377567,6.58849,32.410275,48.43285,57.91341,-0.98085,27.947605,44.156605,56.679211,-6.660313,19.912582,35.98811,47.359715,-10.795097,0.310616,7.467087,13.248184,-21.594243,-32.428526,-36.458765,-38.097695,-12.011666,-0.317879,4.787731,6.014082,5.64621,18.193499,21.938476,22.200631,19.23718,30.633156,31.657608,30.244598,29.494034,39.553609,38.813987,35.204157,27.518154,53.139553,77.194942,98.632805,54.403049,89.270119,107.509987,120.35582,46.454384,85.540672,106.445389,120.338837,38.470917,75.302135,94.495743,106.932449,31.360016,60.035133,75.832752,87.660507,-16.475875,-19.05062,-13.357862,-10.181433,11.54929,25.07746,30.601812,34.089463,29.922854,42.427732,47.005883,48.93152,42.896986,55.730611,58.676526,57.986983,51.095428,63.231211,64.658214,62.579003,-17.777367,304.871461,-78.366131,283.428124
7,-2.162132,-1.901678,0.290783,0.061503,12.64674,21.521026,25.456478,24.737068,11.003906,38.097187,52.99229,60.610897,3.449066,33.402225,47.768612,57.925037,-3.258785,23.972374,38.654377,48.135509,-8.940708,3.312675,9.964165,14.488998,-22.768316,-33.427104,-36.99587,-38.094126,-11.241132,1.174443,5.245425,5.957791,7.247769,20.393209,22.940858,22.660758,21.345018,33.029702,32.892172,31.003795,31.827891,42.398845,40.728892,36.297176,27.455898,52.885631,76.854709,98.39368,54.18314,89.018658,107.315746,120.187969,46.206001,85.224689,106.213039,120.084812,38.197574,74.984379,94.232128,106.621273,31.048656,59.687198,75.468933,87.285793,-16.574873,-19.08268,-13.342807,-10.182556,11.421492,25.067234,30.642901,34.146372,29.745976,42.241654,46.830129,48.706502,42.689974,55.548151,58.540181,57.866299,50.90473,63.105772,64.630081,62.617141,-19.464392,302.910277,-77.600241,283.430121
8,-3.286263,-3.729725,0.262573,0.190611,14.139313,24.508519,29.166195,27.680992,16.20409,44.423275,58.17564,63.97276,8.8457,39.735134,52.483784,60.430905,1.090679,29.084359,42.638226,50.394757,-6.250465,8.477074,16.093849,20.350319,-23.963581,-33.74087,-36.056189,-35.786575,-9.702941,3.791883,6.86404,6.7458,9.679068,23.935015,25.449864,24.345235,24.377963,37.034254,35.885721,33.338627,35.282123,46.595897,44.008036,38.873601,27.356415,52.668766,76.551807,97.999798,53.993305,88.834751,107.142277,120.035305,46.039444,84.990063,106.019314,119.874905,38.056423,74.844372,94.104206,106.419239,30.893314,59.550144,75.28236,87.027889,-16.618814,-19.256162,-13.584535,-10.316765,11.025462,24.660311,30.263025,33.812179,29.341832,41.826,46.428542,48.26122,42.366093,55.237213,58.236295,57.520114,50.7106,62.980085,64.539135,62.499074,-22.38263,299.144764,-76.969643,283.584944
9,-0.754314,-0.980708,0.165997,-0.029232,14.751789,25.176006,29.205162,26.664631,19.028721,47.482567,60.20771,63.882843,11.518913,43.154205,54.297706,59.51889,2.822971,31.40942,43.338776,48.702804,-6.223366,12.594829,22.748978,27.95256,-25.253695,-35.271971,-37.51282,-36.927253,-10.01525,4.284873,6.338186,5.398666,10.044396,24.833274,25.203715,23.226467,25.355633,38.169016,36.157978,33.081437,36.636421,48.214833,44.73768,38.661587,27.386673,52.647846,76.473209,97.919769,53.544136,88.392608,106.834465,119.855964,45.566871,84.57827,105.798248,119.727081,37.639515,74.576385,94.006576,106.372764,30.551662,59.351829,75.171901,86.915611,-16.485162,-19.056252,-13.463628,-10.227128,10.949385,24.888256,30.508384,33.978707,29.238252,41.837028,46.387848,48.109869,42.31915,55.334877,58.318052,57.555286,50.728087,63.002253,64.537047,62.462789,-22.849943,298.139069,-76.516645,283.530725
10,-1.883217,0.206543,0.218536,0.209037,15.029537,26.272842,31.407829,29.621075,20.581844,49.309044,62.186188,65.975578,13.407303,45.353943,56.55352,61.689491,4.946411,33.846611,45.81237,51.175644,-4.076248,15.239822,25.579227,30.874168,-25.523051,-35.864911,-38.512312,-37.885187,-10.229944,3.676138,5.70107,4.849507,9.905297,24.550148,25.013412,23.072152,25.319929,38.041773,36.140441,33.147572,36.587267,48.036609,44.660948,38.685114,27.360603,52.596828,76.462383,97.829521,53.317635,88.20829,106.635384,119.632965,45.346882,84.386192,105.611229,119.446701,37.466972,74.515079,93.942078,106.219757,30.408096,59.3657,75.215492,86.891716,-16.475244,-19.151989,-13.67059,-10.459173,10.617033,24.565376,30.19358,33.667572,28.942776,41.511492,46.060361,47.718878,42.147719,55.197076,58.16401,57.309384,50.686072,62.975726,64.467665,62.291198,-24.502813,298.336118,-76.067762,283.730268
11,-2.593254,0.161638,0.246471,0.056502,15.892376,28.212456,34.540283,33.364391,22.34214,50.892174,64.350151,68.82962,15.140018,46.604576,58.609978,64.672966,6.610233,35.212051,47.852646,54.076607,-2.456257,17.100586,28.02578,33.975471,-25.549641,-36.181493,-39.202608,-38.529355,-10.60288,2.945593,4.933561,4.191951,9.445553,23.929532,24.579541,22.854395,25.035654,37.608285,36.024029,33.384261,36.635988,47.889939,44.809384,39.208424,27.288014,52.497906,76.367249,97.716053,53.231118,87.940373,106.337162,119.349667,45.261841,84.163159,105.380162,119.236576,37.322308,74.305092,93.733967,106.043873,30.169693,59.184105,75.034047,86.67928,-16.396846,-19.066663,-13.625784,-10.436586,10.54923,24.686061,30.362924,33.830852,28.83249,41.399291,45.960906,47.618546,42.074372,55.139623,58.165949,57.352856,50.689209,62.945752,64.420796,62.2302,-26.890938,298.495277,-75.616162,283.784291
12,-1.362682,-0.098937,0.19376,0.028714,16.46228,29.377384,36.262973,35.336666,23.09753,51.792125,65.550991,70.327274,15.840808,47.347972,59.906398,66.464092,7.325683,36.021549,49.126545,55.829326,-1.753842,18.380172,30.01316,36.51868,-25.334304,-36.061561,-39.115909,-38.304324,-10.789304,2.862675,4.897771,4.236412,9.166552,23.820889,24.621853,23.019726,24.879229,37.582215,36.160214,33.693211,36.733418,48.055208,45.159102,39.832239,27.255604,52.471722,76.400013,97.745842,53.268723,87.871353,106.223214,119.232193,45.273972,84.059624,105.229729,119.086052,37.252568,74.188992,93.563828,105.868012,29.998135,59.041581,74.863552,86.449562,-16.256735,-18.984819,-13.631256,-10.459705,10.473796,24.68012,30.448547,33.998134,28.748855,41.29271,45.905775,47.620682,42.039791,55.103968,58.177533,57.387967,50.717663,62.969365,64.436765,62.200436,-28.098375,298.411058,-75.267157,283.827723
13,1.101059,0.647144,0.226891,-0.228724,16.115398,28.34539,34.320797,32.713611,22.282001,50.754398,64.33826,69.065036,15.048374,46.515163,59.02058,65.497936,6.688362,35.299587,48.368053,55.00439,-2.244519,17.836338,29.657455,36.263935,-25.381382,-36.448353,-39.371037,-38.417722,-11.20786,2.265475,4.318738,3.707557,8.669413,23.236853,24.019737,22.507952,24.397181,37.12935,35.606461,33.067358,36.30765,47.851111,44.873321,39.388094,27.149345,52.430569,76.453503,97.84449,53.358158,87.711502,106.107628,119.232971,45.324097,83.878555,105.105537,119.066963,37.156185,73.991959,93.444511,105.878174,29.725399,58.818706,74.699192,86.343361,-16.111201,-18.737397,-13.362443,-10.229412,10.7896,25.150659,30.945342,34.493879,29.018408,41.603105,46.25921,47.998657,42.296562,55.440693,58.572267,57.829755,50.954118,63.22453,64.693227,62.478647,-26.893312,299.071463,-74.936262,283.61226
14,0.668323,0.851563,0.178837,-0.176334,16.144375,28.012482,33.375366,31.319035,22.111885,49.942085,63.533592,68.497261,14.694935,45.744896,58.492767,65.317612,6.246838,34.420052,47.670937,54.633499,-2.740356,16.786446,28.656658,35.540108,-25.664484,-37.131696,-40.181882,-39.294109,-12.039576,0.775795,3.053138,2.865491,7.812885,21.949419,22.925681,21.818693,23.582026,36.021683,34.62153,32.307655,35.566805,46.968685,44.036813,38.59428,27.079021,52.361194,76.439312,97.793049,53.63887,87.793796,106.148037,119.316364,45.561939,83.84737,104.984035,119.018017,37.222263,73.806404,93.185932,105.678211,29.563762,58.534343,74.382385,86.051387,-15.99968,-18.602287,-13.197965,-10.065639,11.178652,25.333291,31.0919,34.683798,29.308141,41.755752,46.472384,48.320685,42.485815,55.595946,58.807362,58.151067,51.080941,63.453822,64.938338,62.707741,-26.16425,299.938334,-74.696686,283.451234
15,2.065327,0.879252,0.113914,-0.258549,15.858753,27.00135,31.155475,28.344612,20.637028,47.969684,61.418827,66.334247,12.844265,43.739033,56.439846,63.158855,4.366081,32.220806,45.434864,52.325557,-4.574066,14.408558,26.29422,33.279682,-25.879919,-37.616449,-40.614876,-39.688212,-12.908454,-0.398426,2.047409,2.100638,6.943167,20.763292,21.720955,20.792006,22.768661,34.964071,33.483457,31.159431,34.829171,46.118147,43.011336,37.413117,27.019627,52.366139,76.497116,97.910763,53.695919,87.75166,106.162823,119.437306,45.599705,83.779736,104.944164,119.116116,37.188332,73.690945,93.111843,105.743511,29.458821,58.390091,74.235054,85.97501,-15.907709,-18.414084,-12.931228,-9.811573,11.636247,25.747439,31.463082,35.02576,29.69171,42.068061,46.791807,48.684395,42.772349,55.867623,59.115991,58.513739,51.257596,63.702515,65.187489,62.969229,-24.07715,300.834786,-74.560999,283.209885
16,1.796951,0.854589,-0.063675,-0.231885,15.679218,26.089943,29.045345,25.461239,19.200405,46.382938,59.786556,64.772656,11.02256,42.114704,54.963581,61.859974,2.537029,30.477276,43.84409,50.899029,-6.312035,12.423809,24.444775,31.705525,-26.145174,-38.136215,-41.044857,-40.162839,-13.553857,-1.197217,1.494718,1.846226,6.245177,19.755858,20.875863,20.312094,22.032868,33.869582,32.483545,30.3938,34.147372,45.203796,42.056168,36.496235,27.046509,52.517533,76.729111,98.127331,53.750187,87.836643,106.341053,119.758335,45.587117,83.772183,104.964306,119.209225,37.144524,73.654381,93.109646,105.811215,29.423104,58.387837,74.286129,86.083821,-15.76309,-18.192512,-12.717065,-9.619158,12.063375,25.997788,31.699055,35.292842,30.081787,42.393238,47.163668,49.119871,43.091561,56.218933,59.468351,58.855441,51.471957,63.950122,65.411223,63.167312,-22.283318,301.702457,-74.627793,282.991082
17,1.99371,0.814389,0.027901,-0.121809,15.365524,25.005294,26.876243,22.423668,17.28812,43.777839,57.536155,63.09803,8.682964,39.214897,52.766052,60.61045,0.157997,27.458141,41.548668,49.515541,-8.539994,9.391891,21.811374,29.777778,-26.337885,-38.549745,-41.432328,-40.711516,-14.188219,-2.148383,0.814154,1.442033,5.452043,18.491865,19.965748,19.807791,21.194273,32.653235,31.604664,29.78331,33.422843,44.256854,41.227119,35.754847,27.151108,52.639801,76.837818,98.157383,53.649067,87.749416,106.284176,119.749134,45.506435,83.718235,104.945583,119.258961,37.14893,73.680542,93.176571,105.90929,29.541721,58.505665,74.445488,86.289059,-15.677565,-18.077359,-12.627243,-9.555889,12.359122,26.086535,31.708713,35.24422,30.321836,42.571635,47.352303,49.282831,43.278171,56.380386,59.637844,58.9917,51.607894,64.119059,65.556324,63.254355,-20.317817,302.518273,-74.628101,282.8707
18,-0.934708,0.555161,-0.060104,0.060688,15.967472,26.044785,28.276222,23.745163,18.025429,44.389183,58.636917,64.817322,9.025566,39.218925,53.50708,62.30452,0.285908,27.325207,42.144447,51.08432,-8.566944,9.391685,22.409557,31.270683,-26.427497,-39.007933,-42.138518,-41.655111,-15.069509,-3.32505,-0.124427,0.79369,4.453193,17.174889,19.127313,19.372845,20.384935,31.428193,30.957371,29.609075,33.018797,43.399313,40.729497,35.64482,27.21381,52.683345,76.826179,98.104877,53.571052,87.758686,106.305828,119.738948,45.4342,83.743938,104.952633,119.24644,37.14822,73.696552,93.151531,105.794414,29.658725,58.591106,74.520469,86.308628,-15.71054,-18.143704,-12.76234,-9.731334,12.415081,26.001839,31.61442,35.143654,30.315945,42.531078,47.327961,49.295897,43.214186,56.309559,59.578527,58.952266,51.527668,64.057889,65.474604,63.128521,-21.288866,303.077667,-74.724546,282.935621
19,-0.160206,-0.054007,0.01427,-0.030208,16.153313,26.546814,29.12376,24.700264,17.439274,43.545399,58.776753,66.070851,8.138558,37.691677,53.246761,63.505222,-0.586773,25.821488,41.927868,52.316357,-9.319427,8.555512,22.586975,32.600224,-26.313357,-38.946071,-42.036358,-41.576367,-15.565192,-4.010097,-0.498067,0.610613,3.875666,16.286918,18.809398,19.326545,19.989942,30.717681,30.874724,29.917025,33.003372,43.107987,40.77208,36.011692,27.193795,52.656281,76.827393,98.074425,53.673031,87.862748,106.440995,119.859742,45.495278,83.797142,104.999977,119.262017,37.156357,73.642731,93.122132,105.753846,29.62373,58.534436,74.491356,86.289551,-15.725471,-18.118893,-12.793488,-9.750143,12.511177,26.118893,31.773341,35.307947,30.325429,42.643204,47.505678,49.50738,43.130131,56.342212,59.666311,59.069987,51.383641,63.943885,65.429687,63.167287,-21.494202,303.030662,-74.755406,282.912415
20,0.085201,-0.41826,-0.013378,-0.039187,16.280972,26.6376,29.275841,24.760884,16.623253,42.695778,58.64534,66.694405,7.153508,36.519127,53.056733,64.346787,-1.59328,24.605805,41.765923,53.20253,-10.258483,7.926213,22.909699,33.744118,-25.982067,-38.435346,-41.305864,-40.88764,-15.420498,-3.691897,0.080707,1.239763,3.886855,16.326253,19.259719,19.856931,20.047567,30.816209,31.352228,30.539827,33.283533,43.427385,41.329168,36.72628,27.328903,52.764633,76.854023,98.007649,53.73658,87.932888,106.505207,119.873348,45.50861,83.858219,105.040776,119.251156,37.129109,73.605824,93.098088,105.707463,29.552502,58.453148,74.439102,86.225727,-15.743181,-18.10012,-12.819299,-9.749056,12.452156,26.132144,31.853678,35.433609,30.251885,42.797025,47.751729,49.797199,43.032701,56.439358,59.816945,59.242357,51.282556,63.86918,65.420227,63.2219,-21.473797,302.615635,-74.83358,282.876461
21,1.11874,0.112781,0.11776,-0.134431,16.101586,26.166504,28.786801,24.380459,15.318135,40.620083,57.029835,65.640942,5.680584,34.17738,51.430195,63.37064,-3.090728,22.212903,40.098095,52.279988,-11.712661,5.904305,21.471039,32.879689,-26.105938,-38.630194,-41.592027,-41.335207,-15.909228,-4.513857,-0.528856,0.729729,3.389541,15.520126,18.711634,19.350998,19.70179,30.261271,31.063211,30.282315,33.128367,43.087659,41.118623,36.611844,27.291298,52.673012,76.727394,97.805866,53.869801,88.024303,106.499554,119.741169,45.665543,83.943867,105.072086,119.241451,37.236328,73.567841,93.036678,105.639851,29.55439,58.318851,74.304474,86.127102,-15.822851,-18.138183,-12.774307,-9.691122,12.505434,26.169121,31.869116,35.418048,30.298939,42.92223,47.887926,49.907659,43.028194,56.503616,59.908496,59.328191,51.24027,63.906984,65.518521,63.33026,-20.429146,302.734384,-74.789909,282.747998
22,1.424412,-0.04903,-0.13805,-0.119129,15.619366,25.155201,27.465248,23.254555,14.186554,38.676224,55.151299,63.902207,4.557083,32.249771,49.626389,61.671318,-4.234531,20.298752,38.260758,50.49614,-12.802814,3.800457,19.080448,30.292374,-26.195871,-38.649472,-41.617765,-41.472503,-15.913662,-4.81011,-0.735262,0.62379,3.505509,15.279608,18.504659,19.250629,19.813879,30.108389,30.884258,30.109995,33.123649,42.991551,40.989664,36.516551,27.33419,52.746723,76.788734,97.838539,53.94833,88.102409,106.58892,119.81868,45.7561,84.098488,105.255066,119.448669,37.326954,73.661018,93.181137,105.849701,29.623237,58.397507,74.420196,86.286941,-15.947179,-18.213321,-12.758203,-9.642228,12.544362,26.241134,31.923802,35.482096,30.352971,43.048547,47.996694,50.037705,43.049967,56.618743,60.005951,59.453853,51.223746,63.879777,65.519262,63.388157,-19.074429,302.686805,-74.997654,282.63032
23,1.496224,-0.613491,0.035877,-0.251768,14.928211,23.928737,25.945129,22.065147,12.714191,36.287613,52.927551,61.944099,3.123939,30.035019,47.723831,59.972534,-5.646332,18.121147,36.515327,49.059723,-14.1427,1.734684,17.085914,28.249008,-26.234711,-38.173907,-41.043473,-40.954429,-15.405072,-4.472113,-0.195044,1.311036,4.171784,15.757112,19.004505,19.797886,20.416971,30.668256,31.32244,30.427467,33.506639,43.457989,41.360044,36.84226,27.392796,52.774338,76.771603,97.742741,54.071491,88.100498,106.503376,119.649502,45.914051,84.164806,105.272656,119.43227,37.479355,73.657642,93.132717,105.803913,29.742348,58.320168,74.33289,86.250561,-15.864237,-18.079471,-12.620908,-9.457521,12.871367,26.569288,32.227095,35.745041,30.646766,43.4066,48.300801,50.213953,43.259053,56.928544,60.281629,59.631644,51.322447,64.03309,65.724186,63.603047,-17.653009,302.072981,-75.036581,282.378219
24,-0.384945,-0.602906,-0.047459,-0.257648,15.226021,24.330848,26.495373,22.927517,13.375751,37.224094,53.429935,61.951435,3.692264,31.021854,48.348575,60.016857,-5.327488,18.847034,36.99377,49.06335,-14.050896,2.103218,17.185192,27.9043,-26.080225,-37.568938,-40.394625,-40.386622,-14.992815,-3.706581,0.528065,2.035022,4.57967,16.540009,19.605472,20.375191,20.74946,31.31708,31.767882,30.814592,33.676773,43.886969,41.714021,37.217875,27.391262,52.807755,76.740544,97.605355,54.014878,88.15345,106.539917,119.658486,45.867646,84.27903,105.367516,119.47815,37.471848,73.751427,93.204232,105.882752,29.810727,58.386281,74.416947,86.346566,-15.855221,-18.105048,-12.624872,-9.331413,13.117035,26.82102,32.446865,35.995983,30.9354,43.743449,48.531254,50.378271,43.516306,57.295268,60.575042,59.865753,51.448023,64.218786,65.90109,63.749804,-18.118898,301.465876,-75.164984,282.116372
25,-0.311405,-0.332575,-0.07331,-0.204381,15.188324,24.492702,26.944267,23.722046,13.801174,37.513435,53.658142,62.27742,4.238124,30.97007,48.380195,60.333572,-4.821911,18.910091,37.08554,49.300346,-13.621262,2.182525,17.137092,27.887329,-25.821948,-37.222222,-40.176757,-40.204545,-14.87875,-3.494901,0.782044,2.278701,4.630107,16.800583,19.913371,20.660218,20.79923,31.488214,32.051662,31.186712,33.771881,44.0543,42.003816,37.585006,27.330036,52.795452,76.741367,97.50476,54.193908,88.288009,106.637992,119.770546,46.106414,84.39244,105.420387,119.531868,37.742191,73.864471,93.246391,105.925872,30.110195,58.602413,74.620468,86.575218,-15.794484,-18.058871,-12.56301,-9.107038,13.471025,27.12703,32.727286,36.287259,31.238619,43.975272,48.67386,50.491274,43.752056,57.473986,60.696493,59.957908,51.607487,64.348585,65.985761,63.806527,-18.516386,301.121611,-75.324377,281.900301
26,0.32151,-0.745328,-0.109486,-0.10668,14.913563,24.128139,26.530128,23.452263,13.836159,37.145027,53.110268,61.708855,4.341522,30.248474,47.633331,59.717194,-4.958496,18.062347,36.192215,48.393219,-14.039806,1.011909,15.65926,26.20459,-25.339368,-36.265202,-39.097211,-39.045798,-14.329689,-2.483947,1.895565,3.45086,5.060891,17.783279,20.905047,21.666392,21.099017,32.230344,32.783751,31.966707,33.984475,44.639385,42.681823,38.360776,27.342533,52.84671,76.745476,97.462635,54.276329,88.4007,106.811542,119.955837,46.188045,84.516895,105.522526,119.592991,37.852375,74.015236,93.363293,105.997478,30.30946,58.81216,74.82621,86.724483,-15.742712,-17.976607,-12.506089,-8.947178,13.806367,27.467966,33.046301,36.605792,31.506196,44.217852,48.786925,50.537908,43.940802,57.675774,60.805519,60.037146,51.67871,64.357477,65.949798,63.783482,-18.299623,300.357249,-75.53861,281.774587
27,-1.023125,-0.264909,0.113628,-0.089279,15.260239,24.871731,27.538765,24.509617,15.268101,38.72033,54.488915,62.922844,5.852566,31.68132,48.815666,60.822006,-3.643272,19.320408,36.993073,48.910401,-12.969875,1.853142,15.935715,26.114823,-25.174766,-35.955499,-38.864808,-38.872033,-13.936833,-1.783438,2.356038,3.689464,5.297617,18.52521,21.342486,21.897388,21.244303,32.66172,33.103939,32.350609,34.190079,44.880298,42.927046,38.671356,27.19035,52.748726,76.686196,97.321427,54.522606,88.589196,106.959595,120.079033,46.432263,84.648308,105.543663,119.556908,38.0285,74.083638,93.302811,105.879364,30.393357,58.834694,74.803837,86.669861,-15.689409,-17.995997,-12.596874,-8.900556,14.025914,27.672607,33.228057,36.750721,31.67522,44.424963,48.977203,50.722319,44.070392,57.825,60.947101,60.166007,51.777016,64.436234,66.002817,63.835118,-19.445727,300.07705,-75.547961,281.670018
28,-0.29409,-0.255955,-0.077613,0.00016,15.496731,25.340401,28.147522,25.199398,15.957996,39.395508,55.12207,63.561287,6.572399,32.132973,49.231247,61.530716,-3.072201,19.547722,36.80278,48.633522,-12.471211,1.377228,14.530506,24.339214,-24.882082,-35.630828,-38.630861,-38.715804,-13.658339,-1.150188,2.759947,3.819053,5.411583,19.121397,21.749705,22.108895,21.246773,32.969866,33.463227,32.835831,34.185571,45.108923,43.322458,39.184143,27.133289,52.783149,76.785152,97.430236,54.478317,88.785713,107.25373,120.421897,46.388706,84.881103,105.816947,119.84095,38.030731,74.345695,93.606651,106.198493,30.481235,59.137619,75.128643,86.947769,-15.729583,-18.082546,-12.639284,-8.850069,13.984345,27.483195,32.923431,36.441784,31.694634,44.402313,48.910106,50.782304,44.099946,57.80098,60.866134,60.150311,51.745648,64.311597,65.829694,63.703405,-19.880939,299.809887,-75.766696,281.65897
29,0.512855,-0.000186,0.045936,0.206099,15.136368,24.852402,27.631943,24.718564,16.059083,38.761277,54.514985,63.281662,6.818047,31.482262,48.637665,61.388901,-2.91267,18.802552,35.864983,47.947815,-12.325847,0.134045,12.610074,22.376645,-24.783318,-35.542364,-38.783655,-38.909725,-13.471198,-1.371168,2.45101,3.532161,5.519277,18.943051,21.514276,21.937501,21.318638,32.807303,33.45294,33.044498,34.278716,45.094992,43.519776,39.549546,27.162392,52.794628,76.811623,97.516136,54.433525,88.797615,107.267143,120.449501,46.444119,85.006531,105.943565,120.017967,38.245915,74.655842,93.892914,106.449326,30.856213,59.592259,75.528786,87.281983,-15.797275,-18.261203,-12.821004,-9.039532,13.752841,26.965318,32.268493,35.69695,31.543308,44.127597,48.594832,50.4912,44.037849,57.533698,60.519862,59.784007,51.773114,64.142054,65.557436,63.401,-19.548306,299.81944,-75.900982,281.874808
30,0.399502,0.222289,0.143726,0.076471,15.089699,24.76466,27.779492,25.358918,16.39357,38.671795,54.001087,62.413204,7.223969,31.916119,48.440152,60.577526,-2.512287,19.049778,35.380108,46.880116,-11.814949,-0.497841,10.773629,19.746552,-25.196107,-35.871604,-39.427193,-39.723953,-13.689967,-2.096759,1.470747,2.531409,5.536826,18.461719,20.739877,21.160422,21.398111,32.56965,32.958529,32.451238,34.124501,44.830194,43.07258,39.006945,27.143063,52.745007,76.745705,97.50356,54.202321,88.757618,107.299244,120.535161,46.213166,85.017048,105.996243,120.09573,38.096489,74.738011,94.072529,106.696484,30.833016,59.706448,75.681622,87.424473,-15.868176,-18.37607,-12.970785,-9.347308,13.621363,26.48884,31.54626,34.810671,31.504974,43.975593,48.365146,50.266898,44.037628,57.449237,60.364894,59.633534,51.738917,64.007266,65.389735,63.253454,-19.350449,300.06298,-75.958901,281.97253
31,-0.973388,-0.180447,0.407181,0.062121,15.365581,25.463367,29.230808,27.596946,17.897346,40.650066,55.544025,63.360111,9.065345,34.59003,50.103092,61.254673,-0.45789,21.670498,36.943439,47.477199,-9.506871,1.441566,11.293499,19.068557,-25.357325,-35.849004,-39.707849,-40.320499,-13.375942,-2.029637,1.015103,1.62106,6.122937,18.865319,20.557392,20.502187,22.022976,33.169666,33.070199,32.1207,34.469735,45.251258,43.215088,38.891892,27.059532,52.608399,76.61879,97.335835,54.069958,88.704724,107.222752,120.464894,46.088379,84.984089,105.936711,120.048992,37.989716,74.747509,94.116795,106.818981,30.73011,59.700577,75.73589,87.597668,-15.962024,-18.580674,-13.202003,-9.698062,13.254887,25.797161,30.665403,33.797335,31.271903,43.609327,47.987839,49.932989,43.951041,57.179857,60.047694,59.322448,51.774683,63.965387,65.304803,63.1539,-20.522478,299.918268,-75.750361,282.070386
32,0.338207,-0.252793,0.21341,-0.132405,15.376579,25.663856,29.959602,28.742935,17.399711,40.138183,55.229027,63.183174,8.877972,34.52021,49.98571,60.895546,-0.22982,22.022529,37.414032,47.889107,-8.893604,2.367645,12.448437,20.205265,-25.360401,-35.927131,-39.908526,-40.372346,-13.385748,-2.572288,0.356756,0.851068,6.286562,18.54865,20.19772,20.002514,22.256046,33.231293,32.958343,31.719519,34.577822,45.226915,42.976298,38.478114,26.818874,52.408161,76.460117,97.106975,54.051624,88.804584,107.383129,120.703823,46.16922,85.069828,106.036686,120.254184,38.079334,74.745437,94.180744,107.021061,30.765129,59.612915,75.66806,87.688488,-16.098382,-18.704459,-13.322874,-9.990562,12.937699,25.012634,29.774579,32.896309,30.98611,43.072555,47.535344,49.642836,43.69921,56.719643,59.667892,59.09591,51.575463,63.85436,65.293231,63.253429,-20.380628,299.708793,-75.733308,281.981299
33,-2.052281,-1.9246,0.515007,-0.631731,15.820679,27.017201,32.372166,31.547368,17.880845,41.502171,57.218251,65.786534,9.354596,35.41689,51.48824,63.163022,0.301598,22.890461,38.884152,49.763546,-8.072399,2.420231,11.851925,19.213223,-24.604921,-34.722998,-38.379388,-38.83928,-11.898366,-0.279705,2.828675,3.217653,7.789765,20.790203,22.52555,21.930906,23.407469,35.134601,35.066009,33.660532,35.443588,46.633491,45.03497,40.929408,26.648288,52.05281,75.885143,96.247524,54.148098,88.787258,107.267658,120.558597,46.314365,85.000042,105.875553,120.075039,38.125087,74.410515,93.785465,106.645992,30.563896,59.102417,74.997036,86.992962,-16.32676,-18.971061,-13.558155,-10.418098,11.991794,23.939597,28.926585,32.235197,30.195803,42.26497,47.081725,49.465995,43.144691,55.971981,59.145149,58.847871,51.334945,63.534542,65.063902,63.149503,-22.61142,297.83279,-75.396812,281.398165
34,13.500676,-3.81215,0.275516,-1.921574,10.089569,15.660095,16.76762,13.440868,1.595913,21.449272,39.193657,49.916931,-5.71304,17.333576,35.385337,49.293708,-12.488514,7.039055,24.685867,37.556327,-18.207699,-12.817761,-5.872284,0.223503,-20.999647,-28.838393,-30.28828,-29.068796,-7.598314,5.725079,9.074841,9.469648,10.596976,24.065853,26.458681,26.302527,24.54758,36.397756,36.938702,36.194288,35.3345,46.419144,46.590131,45.048729,26.129585,51.461586,75.1218,95.10791,54.676415,88.981087,107.353203,120.505692,46.944763,85.093529,105.984078,120.277451,38.443909,74.078098,93.609284,106.689995,30.265343,58.463196,74.341747,86.592728,-16.928876,-19.513081,-13.878097,-11.166784,10.448182,22.820815,28.418589,32.277842,28.683202,41.226316,46.729809,49.81318,41.804312,54.738282,58.518432,58.921909,50.414197,62.688845,64.739712,63.384908,-9.241304,294.10438,-75.251856,279.560331
35,11.222156,-4.774393,0.162873,-4.242674,4.407051,3.403004,-0.055355,-6.340874,-13.860203,0.302559,14.309075,23.018349,-19.275261,0.354618,20.024265,36.357639,-22.792866,-4.762665,14.280087,28.993435,-24.795032,-20.140262,-12.419609,-5.370563,-9.784415,-12.452848,-11.617957,-8.518605,1.973827,14.850826,18.967565,20.550586,12.958188,25.950326,30.32086,31.698783,20.337412,32.230961,35.362831,36.449848,25.63351,35.812497,38.10319,38.716014,25.583599,50.966697,74.387901,93.672454,55.254112,88.971611,106.99308,119.882263,47.698585,84.911407,105.534851,119.960128,38.902278,73.551292,93.039802,106.279518,29.915599,57.35709,73.089786,85.393547,-17.931961,-20.606087,-15.142115,-12.993052,8.778933,21.602085,27.929909,32.501515,26.841571,39.992704,46.345611,50.182967,40.168656,53.499767,58.227465,59.516727,49.304086,62.080999,64.838538,63.938476,1.879114,289.465344,-75.190721,275.453014
36,10.962662,-4.439064,-0.314953,-7.185759,-0.431007,-7.479206,-15.203991,-23.921345,-28.123856,-21.105583,-10.8979,-3.122109,-32.042484,-17.423046,3.477493,22.011303,-32.519772,-17.64394,2.403248,18.831264,-31.011978,-27.91143,-19.111118,-10.680874,-0.044337,1.963218,4.737738,8.531313,8.783761,19.690057,24.456596,27.440648,12.718707,23.98318,30.096014,32.925702,13.921926,24.808215,29.91243,32.518396,14.263789,22.971215,26.930861,29.425812,24.626049,49.616089,72.442474,91.060375,55.961368,88.622875,106.007526,118.475383,48.858364,84.462764,104.410343,118.796413,40.080059,72.902412,91.690097,104.590931,30.599556,56.152805,70.93309,82.420692,-19.222261,-22.28996,-17.777413,-16.701078,6.36417,19.482131,26.712635,32.133617,24.325031,37.999548,45.334658,49.945252,37.982431,52.011174,57.7982,60.061377,47.851518,61.490591,65.144177,64.805822,12.70966,285.186106,-75.63779,268.427081
37,21.110664,-14.567417,-0.191426,-10.140147,-10.37677,-26.066127,-38.732895,-49.859447,-49.271564,-53.045025,-43.46545,-33.514869,-50.906021,-47.700828,-26.617241,-5.387523,-48.359012,-43.8414,-24.453026,-5.658313,-42.983173,-47.146133,-40.92239,-32.222934,5.308782,12.396433,19.675769,26.652923,13.156963,24.602365,30.377016,33.77056,14.951949,25.947647,33.632412,36.475018,15.100668,25.764841,32.197777,34.745883,15.097581,24.137187,29.443227,33.0742,23.985489,48.435574,69.699898,87.327988,55.430523,86.849694,103.517029,115.486107,49.004116,82.752629,101.522438,114.709511,40.681836,71.194016,88.296753,99.811936,31.257122,55.061829,68.046742,77.274868,-18.753686,-21.613323,-17.361597,-16.856837,3.440252,16.421436,24.351127,30.647632,21.121778,35.409416,43.837124,49.558584,35.005062,49.943894,57.013897,60.7783,45.944765,59.757393,63.755547,63.946739,33.704366,270.828748,-75.945174,258.496993
38,27.91729,-18.09991,-5.187973,-16.044794,-20.288258,-45.207069,-63.838938,-77.342159,-70.270248,-86.011316,-79.863499,-70.188229,-69.245459,-78.226633,-60.27103,-39.645424,-63.285484,-69.804434,-53.872736,-35.598598,-54.097137,-64.582254,-61.010719,-53.174973,7.669593,17.602801,27.603046,36.934249,15.540658,26.756633,33.050827,36.782714,16.124706,26.975563,35.548656,38.741986,15.945278,26.471982,33.618962,36.238316,15.715616,24.716862,30.606647,34.910176,23.87209,48.218628,68.759446,85.304043,62.19571,93.912461,106.820961,114.067704,57.143452,90.580983,104.198662,111.636246,49.096882,79.350895,91.995003,98.52126,39.002941,62.984642,73.363598,78.722592,-20.510696,-25.086006,-23.39218,-24.192725,1.380986,16.387287,25.884574,32.319066,18.882868,36.228337,46.153801,52.00322,33.081597,50.460238,59.264599,63.671751,44.886918,60.235341,65.459388,66.210249,61.276125,253.190589,-81.478678,242.91395
39,17.387718,-21.300397,-5.86988,-19.995747,-23.849407,-51.657028,-71.6676,-84.603355,-74.092804,-97.360559,-98.472393,-92.772594,-71.454958,-89.4858,-78.776974,-62.572471,-64.105419,-78.629499,-69.70566,-56.110187,-53.421295,-66.415369,-65.111629,-59.10363,4.880598,14.04867,23.530853,32.438893,14.595544,25.482512,31.926698,35.533602,16.342228,28.845056,37.073484,39.685409,17.461794,29.614028,36.706211,38.630786,17.808127,27.943766,33.363013,36.142146,23.098777,47.120601,65.27322,80.689098,69.009315,100.945221,112.716659,118.004814,64.631515,97.520908,109.978088,115.32399,56.289859,86.159694,97.874382,102.638019,44.859512,69.026321,79.14767,83.420047,-21.282341,-27.133946,-28.053101,-31.174683,0.825381,17.528447,27.746078,33.98198,17.761604,37.132276,47.401605,52.701346,31.618953,50.45515,59.470476,63.62571,43.482491,58.956934,64.436518,65.391278,78.071583,232.767366,-87.940818,223.795377
40,19.433464,-24.268023,-6.870015,-21.709889,-26.281002,-54.457122,-74.479654,-87.0821,-77.357895,-105.804182,-107.86544,-101.776336,-74.051302,-100.12932,-95.51691,-83.678672,-66.408245,-89.438341,-86.507051,-76.929256,-55.457016,-74.293573,-77.371959,-74.197265,-5.347938,0.097794,8.415945,15.105898,8.382378,20.635462,26.769526,29.022823,16.321937,30.550714,37.143484,38.060533,23.09852,36.621193,41.408739,41.534476,28.176713,40.216006,44.522251,46.077528,22.527363,45.997364,61.645283,75.557591,75.089413,106.933377,117.889927,121.831913,71.310654,104.563912,116.140492,119.846821,62.566315,92.637658,103.097432,106.258164,49.913659,73.939785,82.987942,85.781559,-21.082072,-28.625058,-32.096567,-36.928685,-2.644646,14.541024,25.530115,31.889383,14.166842,34.017462,44.489221,49.615987,28.212553,47.218367,55.352711,58.989391,40.885306,55.050196,59.42089,60.044829,96.691829,209.883062,-95.624051,203.469207
41,20.243798,-28.770616,-8.226448,-22.688139,-29.49725,-57.879113,-77.862551,-90.261715,-80.886395,-113.685431,-115.905384,-109.670861,-77.054564,-110.521059,-110.017365,-100.961014,-69.268399,-100.081072,-100.851717,-93.362446,-58.371941,-82.785216,-88.671765,-86.697899,-11.881144,-8.91579,-0.438175,5.814277,3.499427,17.887668,23.699901,24.656217,16.787621,32.869256,38.302725,37.786324,28.743001,43.362065,46.458577,45.067809,38.296259,51.422433,54.351829,54.360345,22.433945,45.973526,60.366932,72.576565,80.024735,112.949044,121.473645,121.564236,77.270108,110.980809,118.900269,117.878735,68.644593,99.110104,105.625969,104.546654,55.569283,80.465241,87.130715,87.009407,-21.513337,-30.336489,-35.424568,-42.173456,-7.309235,8.964123,19.14947,24.600191,9.872755,28.129129,36.508499,40.06841,24.558176,41.685135,47.083405,49.140003,38.302274,50.267997,51.977644,51.051585,115.995461,183.141718,-104.790665,182.81034
42,15.417183,-26.853463,-10.280319,-22.705663,-26.454907,-53.502869,-73.958296,-86.40302,-76.371426,-110.420283,-118.737179,-118.512383,-72.844523,-107.992316,-114.457032,-111.908982,-65.27876,-97.602843,-104.446318,-103.132382,-54.996552,-80.586726,-89.052167,-90.566552,-17.00725,-19.521313,-15.767616,-14.468042,-1.933949,11.609225,17.118609,18.608869,13.036104,28.851039,33.053266,33.115609,26.225566,40.466008,42.680983,41.850921,36.714757,49.270431,51.876786,51.627518,22.006016,46.274906,61.012024,72.46637,83.175602,118.522316,126.335964,124.346546,81.52343,117.363156,123.839882,120.441971,73.623562,106.699288,111.586258,108.513542,60.995842,87.693512,93.838623,93.200844,-24.131332,-35.040679,-42.161767,-51.183527,-13.294629,1.078656,10.50556,15.540738,4.326864,19.199037,25.384816,27.586762,19.757069,33.602475,35.999428,36.008221,34.439526,44.138145,43.566793,41.177657,130.285138,158.692628,-116.19849,162.50905
43,12.808628,-23.481891,-7.876396,-19.595555,-23.775032,-49.412384,-69.552727,-82.291901,-72.496216,-106.917046,-119.062111,-123.297776,-70.071877,-105.766251,-116.856011,-119.951867,-63.498253,-95.943238,-106.532731,-109.95662,-54.251198,-79.873581,-89.633446,-93.508851,-20.662886,-27.171089,-27.341743,-30.473051,-8.006269,2.487442,6.519552,7.260366,7.316077,19.605082,22.218144,21.843819,20.956996,32.341259,33.295377,32.091695,32.389647,42.856305,44.556621,43.619453,20.895138,45.040375,58.856747,69.643993,78.160801,113.403969,124.8689,127.842155,77.073074,112.6833,123.942078,126.087753,70.363735,103.352406,112.293949,114.049072,59.215118,85.588348,93.749256,96.433296,-23.615735,-35.670533,-43.534553,-54.862653,-19.22131,-9.87457,-3.387609,0.6405,-2.060321,6.306502,9.222739,10.395874,13.403372,21.878505,20.875993,19.424605,28.708668,34.572722,31.588362,28.181555,142.188521,138.018779,-124.980131,145.721537
44,8.958091,-21.760086,-8.254211,-17.766742,-21.709465,-45.628601,-64.84703,-77.746124,-69.598617,-103.677704,-117.269165,-124.337127,-68.382866,-103.702102,-116.949211,-123.754348,-63.014053,-94.566673,-106.891479,-113.13842,-54.792183,-79.998184,-89.935043,-94.856323,-22.066318,-31.099811,-33.915062,-40.636927,-13.956167,-7.120026,-4.608977,-4.547659,0.888953,8.155494,9.606654,8.658439,14.643882,21.819699,21.659568,19.792273,27.340649,35.024512,35.519671,33.689252,20.089176,43.751358,58.698726,68.826965,72.713779,107.009021,119.51128,125.107372,72.945854,108.353885,120.67345,125.547878,68.253204,100.997852,110.697956,114.442291,59.608623,85.442951,93.502063,97.019451,-24.675878,-38.553098,-47.62448,-60.447812,-26.391058,-22.673541,-18.655973,-15.687482,-9.021093,-6.568169,-5.988092,-5.859169,7.324741,10.989128,7.954065,5.474798,23.978272,26.771644,22.012219,17.532745,150.561355,119.387493,-133.819599,131.083595
45,7.622086,-20.91103,-7.184613,-15.92795,-19.973328,-43.488007,-63.04953,-75.852677,-67.224152,-100.878708,-116.153664,-125.911377,-66.992043,-102.217049,-118.129532,-128.442398,-62.735687,-94.586609,-109.141892,-118.415703,-55.287232,-80.732048,-91.916153,-99.306816,-23.128407,-34.569468,-39.560086,-48.175745,-19.146067,-15.420646,-14.367833,-14.875254,-4.176014,-0.683003,-0.684645,-2.178771,10.160042,13.797827,12.502143,9.881035,24.124725,29.142391,28.863884,26.494706,18.624539,41.454747,57.728005,67.402783,67.02594,101.470883,115.136936,122.755692,68.648529,103.897259,117.728245,124.846253,65.991944,98.746605,110.119343,115.929669,59.882286,86.27742,95.589855,100.898667,-26.153955,-41.848631,-52.44662,-67.455051,-30.174629,-30.741078,-29.185048,-27.438796,-12.679608,-14.997428,-16.72518,-17.81116,4.105198,3.314465,-0.813389,-3.905097,21.243487,21.397561,16.229027,11.370998,157.904892,101.562622,-141.282761,118.241804
46,6.62146,-16.712131,-5.389995,-12.405102,-17.995972,-41.70916,-62.153618,-75.012657,-65.453911,-98.668739,-116.509232,-129.962311,-65.862717,-100.469238,-120.614136,-135.781563,-62.328392,-93.941483,-112.51149,-126.445267,-55.204582,-80.450203,-94.409798,-105.847733,-26.377819,-41.252178,-49.531562,-60.850548,-23.481774,-21.995917,-22.121931,-23.043118,-7.866669,-7.184537,-8.670382,-10.47886,7.25324,8.333069,6.238526,3.515296,22.334753,25.690283,25.33373,23.253642,17.314064,39.272243,55.754596,65.117328,62.469246,96.247261,113.046329,125.447914,64.662666,100.289348,118.800155,131.448337,63.207973,96.738052,113.154545,124.245884,58.536094,85.881946,98.506279,107.785377,-26.486191,-44.116415,-56.434097,-72.619238,-31.534763,-34.66993,-34.386267,-33.198547,-14.469653,-19.564686,-21.522131,-22.464862,2.129166,-1.373299,-4.965487,-7.694423,19.217265,17.372156,13.029738,9.046114,164.443726,87.400175,-146.755382,108.386386
47,-0.108193,-8.308839,-2.976986,-8.290734,-16.977081,-39.691795,-59.504287,-71.768692,-63.807495,-95.61248,-113.589729,-127.960098,-64.993766,-98.153595,-118.943161,-135.910698,-62.151077,-92.500511,-111.515785,-127.034042,-55.392288,-79.650352,-93.794334,-106.397873,-26.271182,-41.711632,-51.092649,-63.081764,-24.193176,-24.096147,-25.630917,-27.653755,-9.064868,-10.058568,-12.688883,-15.399238,5.707454,5.353933,2.505164,-0.813111,20.65169,22.636626,21.700027,19.329441,16.184944,36.643741,52.555549,60.897285,61.04092,92.695713,110.833923,126.126949,63.464824,97.940838,119.26268,136.047478,62.177948,94.826523,114.637653,129.498859,57.544315,84.694347,99.474197,111.570293,-26.544168,-45.971564,-60.352976,-77.872197,-30.993483,-34.822317,-35.339983,-35.009952,-14.144031,-19.875723,-22.004908,-23.338155,2.306026,-2.410872,-5.521889,-8.042788,19.02411,16.014846,12.683942,9.604412,164.424104,81.178006,-149.643797,102.182322
48,-1.773101,-5.293332,-0.503517,-3.494555,-16.786377,-38.915268,-58.365647,-70.087441,-63.281411,-94.277298,-112.260704,-127.230378,-64.242829,-96.576119,-117.677971,-135.314896,-61.129532,-91.168465,-110.631569,-126.958466,-53.911469,-78.102654,-92.668648,-106.20916,-25.293833,-40.834652,-50.537112,-62.672087,-22.986042,-22.640665,-24.142701,-25.85252,-7.955077,-8.645274,-11.362811,-13.914573,6.811515,6.488554,3.70211,0.677359,21.642624,23.598655,22.725819,20.521329,15.195099,34.974048,51.026401,58.56118,60.70998,91.339393,109.489734,125.026588,63.08139,97.086776,118.923935,136.657814,61.504634,93.856659,114.415123,130.252292,56.464439,83.595771,99.174865,112.232574,-27.372124,-47.473661,-62.940083,-80.723751,-30.146218,-33.933031,-34.436173,-34.020284,-13.071519,-18.689874,-20.678681,-21.911461,3.473109,-1.466869,-4.122593,-6.260924,19.982026,16.6607,13.73273,11.016496,162.735157,77.28182,-150.06316,100.084913
49,-2.843422,0.709463,0.792457,1.950689,-16.193299,-38.585839,-58.075425,-69.549523,-63.815735,-93.990235,-111.715393,-126.731324,-64.606888,-96.206978,-117.16333,-134.839577,-61.026993,-90.895432,-110.235306,-126.561104,-53.205757,-76.996788,-91.776512,-105.755814,-24.698751,-40.063371,-49.758223,-61.855431,-20.850058,-20.060542,-21.025133,-22.190005,-5.808905,-5.738269,-8.219419,-10.339032,8.845314,9.170578,6.630512,4.079257,23.103632,25.530831,24.935594,23.221767,15.361496,35.155735,50.644375,57.217289,61.043244,91.370396,109.479687,124.921452,62.768475,96.530365,118.375992,136.139088,60.470696,92.719517,113.579613,130.066143,54.757359,81.75721,97.808007,111.586247,-27.213659,-47.538567,-63.635127,-81.241701,-27.867713,-30.957377,-31.265703,-30.452839,-11.089095,-16.101247,-17.733131,-18.312479,5.069759,0.786194,-1.291948,-2.832652,20.957325,18.532991,16.417941,14.312863,159.941614,78.601411,-149.220824,102.64573
50,-2.322602,7.009517,1.091778,7.635661,-16.956024,-39.577469,-58.542961,-69.799759,-64.408058,-94.052261,-112.121795,-127.670425,-64.659233,-95.806915,-116.901168,-134.766861,-60.527733,-90.121559,-109.560402,-126.054977,-52.213714,-75.612579,-90.59365,-104.799156,-24.444567,-39.561006,-49.3456,-61.40716,-19.254025,-17.333828,-17.447826,-17.853421,-4.504945,-3.160793,-4.313606,-5.524611,9.901673,11.288229,10.23896,8.857757,23.509203,26.767927,27.14324,26.428609,16.322926,36.525455,51.359699,57.739037,62.167385,91.51997,109.226452,124.534813,63.015804,96.120209,117.541317,135.269394,60.036198,91.556534,112.228889,128.949898,53.824917,80.024815,96.192867,110.397572,-27.415059,-47.590258,-63.770169,-80.708974,-25.711822,-28.011055,-27.845619,-26.654596,-9.504154,-13.052882,-14.037215,-14.019183,5.826806,3.557676,2.18468,1.13635,20.673661,20.398847,19.323081,18.077273,157.623012,85.638821,-148.125046,110.309284
51,-1.961448,11.215907,1.465702,11.638088,-18.388573,-41.52269,-60.011238,-71.575425,-65.08889,-93.897904,-112.569809,-128.759835,-64.241753,-94.25924,-115.443604,-133.273957,-59.033593,-87.493584,-107.032219,-123.496743,-49.837143,-71.728936,-86.728386,-101.036568,-23.9554,-38.286522,-47.852976,-59.122327,-17.312358,-13.829413,-12.545171,-11.768147,-2.972258,0.412517,1.145606,1.672732,10.349739,13.722578,14.911137,15.545839,21.9736,26.974179,29.16438,30.137486,17.45921,37.540592,51.750721,58.629181,62.962292,91.72839,109.302532,124.681492,62.378895,95.11599,116.251808,134.161354,58.258598,88.70866,109.276497,126.301277,51.348221,75.710449,91.709793,106.132267,-27.859804,-47.226863,-63.08674,-78.999599,-23.756038,-24.677268,-23.18158,-21.056026,-8.647355,-9.498022,-8.63096,-7.421566,5.364697,5.838594,6.244387,6.155695,18.357002,20.215072,20.584802,20.135383,155.657547,96.126709,-146.663361,121.219353
52,-1.7165,18.72475,0.232235,17.358609,-19.66864,-43.511192,-61.885757,-73.637306,-68.134849,-98.493644,-115.602287,-128.279823,-66.132774,-97.851608,-116.784416,-130.482925,-59.971962,-90.026504,-107.003769,-119.384857,-50.133476,-73.628494,-87.318763,-98.600143,-23.960574,-37.585024,-46.738961,-57.729077,-14.239997,-8.779198,-6.604978,-5.710913,1.000703,6.559981,7.515951,7.950026,14.679314,19.946945,20.609953,20.69181,26.104178,32.955053,34.429158,34.430437,18.805281,39.397551,53.621555,60.918182,65.185667,95.528521,111.634226,124.85471,63.246071,97.426598,116.208778,131.352207,57.829268,88.910454,107.322699,121.870279,49.961123,74.616091,89.165251,101.529894,-27.823476,-46.219714,-61.525749,-76.398234,-21.582797,-19.916632,-17.051543,-14.513848,-6.746721,-4.171018,-1.721281,0.114633,6.876767,10.372445,11.98565,12.340326,19.07167,22.810627,23.697604,23.391723,154.069347,113.435186,-146.302826,137.161689
53,0.524414,21.05794,-0.741108,22.630822,-22.162147,-46.918418,-65.430587,-77.492866,-71.645347,-101.757202,-118.298721,-129.916008,-68.507011,-99.931251,-117.932808,-129.698387,-61.112457,-90.782867,-106.961998,-117.81134,-50.18296,-73.241203,-86.765808,-97.625267,-23.333912,-36.107577,-45.065043,-55.13635,-10.403505,-2.883003,1.051486,3.405505,4.970001,12.974589,15.909512,17.469711,18.351599,26.103851,28.534384,29.656259,29.141915,37.766157,40.638212,41.864958,20.279955,41.840498,56.610684,64.009586,68.925333,102.697478,115.986105,124.627682,65.922798,103.287953,117.589531,126.858776,59.28071,92.726635,106.401644,115.158033,50.349844,77.26708,88.684622,96.435637,-27.601718,-45.071187,-59.726095,-73.784357,-19.849685,-14.076568,-9.176871,-6.235458,-4.223241,2.621793,6.726565,8.795982,10.11975,16.752485,18.93451,19.22039,22.658708,27.779195,28.274871,27.682599,155.075294,131.974021,-146.562401,157.273406
54,1.641999,23.28705,-2.475437,23.773655,-25.216233,-50.902199,-69.546044,-82.289017,-73.334519,-102.827339,-119.425141,-131.028031,-68.970795,-99.818688,-117.430504,-129.01902,-60.608437,-89.95372,-105.551056,-116.239518,-48.991036,-71.901215,-85.237862,-96.241494,-22.731994,-34.305225,-42.742666,-52.015484,-7.332682,1.980163,7.590997,11.667018,8.136889,17.949727,22.622418,25.75162,21.250188,30.678124,34.879603,37.58692,31.23263,41.44014,45.797767,48.407538,22.254335,45.085264,60.994423,69.517341,72.264856,108.193697,120.852648,127.795727,68.375507,107.82185,121.45055,128.485771,60.91408,95.926449,108.747843,115.081781,51.506292,79.511564,90.211733,96.016989,-26.711993,-43.400307,-57.644296,-70.91613,-17.226731,-8.711124,-2.147228,1.544082,-0.78938,8.753665,14.003734,16.48983,13.793344,22.527347,25.233627,25.674142,26.04349,32.446804,32.860106,32.139972,157.520279,152.034584,-148.234852,177.820574
55,1.010559,22.415165,-3.397465,22.274461,-26.368172,-52.567383,-71.419029,-84.475914,-74.007683,-102.896141,-118.856095,-130.035668,-69.154907,-99.485687,-116.424752,-127.687683,-60.367104,-89.060211,-104.132309,-114.395806,-48.507614,-70.857353,-83.776085,-94.498306,-21.684201,-32.27381,-39.526043,-47.775337,-3.328397,7.043295,13.742684,19.105349,12.452786,23.36651,28.834324,33.125422,25.465147,36.114871,40.969614,44.565624,35.006377,46.001914,50.949752,54.370132,24.250197,48.073443,65.236187,74.307678,74.746874,111.778845,124.292044,130.57877,70.445881,110.67762,123.989823,130.118443,62.702185,98.336723,110.735556,115.908125,53.108099,81.704985,91.769457,96.339609,-25.252782,-40.866225,-54.349869,-67.26549,-13.720568,-3.667333,3.687889,7.802967,3.350114,14.18344,20.229243,23.087911,18.261925,27.84565,30.961397,31.65683,30.338687,37.310426,37.586407,36.791321,159.545088,170.747738,-150.618067,196.393024
56,0.218673,20.092108,-3.609295,18.438982,-26.275383,-52.565963,-71.8927,-85.233146,-74.425941,-102.959678,-117.692596,-127.958244,-69.623954,-99.992568,-116.211456,-127.3992,-60.909576,-89.543838,-104.001182,-114.182693,-48.960502,-71.825386,-84.476257,-95.017753,-20.676915,-30.930404,-37.414204,-45.261409,0.252905,10.842632,17.612082,23.150477,16.664707,27.544661,32.800325,36.799516,30.453846,41.161306,45.434299,48.329677,41.181165,52.186422,56.542592,59.294117,25.470526,50.383982,68.759526,77.904923,76.266649,113.92634,126.377215,132.078129,72.26944,113.105782,126.442303,131.906159,64.801215,101.597077,113.756087,118.060736,55.307379,85.364096,95.455416,99.561797,-23.461168,-38.335459,-50.788853,-64.050615,-10.075645,0.975878,8.41634,12.588723,8.236103,19.195683,24.892177,27.673422,23.997475,33.641494,36.306512,36.993128,36.834818,44.160202,44.20226,43.61778,160.932037,187.499667,-153.059086,211.491827
57,0.182786,12.467199,-2.499401,11.703617,-26.349839,-52.545411,-72.14914,-86.038514,-72.455636,-98.544503,-114.530617,-128.192185,-67.555092,-95.157647,-113.23819,-128.438508,-58.651749,-84.750023,-101.381035,-115.491417,-46.271714,-66.697037,-80.544159,-94.130288,-19.631803,-29.338424,-35.063379,-42.610391,2.150853,12.539964,19.634445,26.187954,17.734162,28.124694,34.47602,39.929668,30.742393,41.317262,47.271829,52.029896,40.950217,51.665112,57.755987,62.762365,26.2095,51.644577,70.911267,80.537155,75.151383,112.064392,126.010998,133.722725,71.36538,111.501904,127.24094,135.337338,64.388306,101.081497,115.573906,122.19405,55.459614,85.546921,97.164665,103.175057,-21.984666,-36.30823,-48.15165,-62.183789,-7.282387,3.185074,10.437079,15.06011,11.473461,21.371608,27.008272,30.337928,27.17601,35.962242,38.763463,39.993333,39.88385,47.171362,47.66124,47.699414,162.241436,197.198561,-154.431874,220.427139
58,-2.194886,9.146483,-0.920002,4.193421,-24.473716,-50.147804,-70.106666,-84.312423,-69.355682,-95.203697,-111.446228,-125.865097,-64.777977,-92.239128,-111.030761,-127.709747,-56.377075,-82.391464,-99.559776,-114.72306,-44.534065,-64.896423,-78.741096,-92.499824,-19.599828,-29.520402,-34.589061,-42.56961,1.937987,11.846075,18.192091,24.255796,17.764457,27.126931,32.518582,38.032708,30.923272,40.466502,45.407795,50.121834,41.236332,51.261734,56.575419,61.360322,26.408684,51.551823,70.963612,81.201416,72.081299,106.319424,123.24535,135.257927,68.226505,106.055283,126.498013,140.268608,61.765251,96.694645,115.955406,127.952477,53.652432,81.824696,96.420582,106.729065,-20.896833,-34.608796,-45.864612,-60.609092,-4.512053,3.86712,10.425977,15.639996,13.959125,21.705653,27.234426,31.463428,28.72008,36.126004,39.513619,41.810129,40.269555,47.399246,49.046537,50.229551,160.883852,204.661987,-154.514574,222.937503
59,-2.793754,4.236004,0.751396,0.708191,-22.390389,-47.277558,-67.479218,-81.614983,-67.72284,-94.15091,-110.337799,-124.688485,-63.412171,-91.348938,-110.542534,-127.297165,-55.1773,-81.42611,-99.063584,-114.262963,-43.380684,-63.908753,-77.931885,-91.628769,-19.169934,-29.532122,-34.296339,-42.685491,2.200859,11.883916,17.326005,22.454302,18.11189,26.905371,31.367382,36.238415,31.350314,40.590744,44.449132,48.479335,42.063874,51.512428,55.964053,60.138776,25.585511,49.886376,69.202618,79.445916,68.557709,101.790265,119.658772,133.191388,64.942177,101.844063,123.357846,139.218705,58.897236,93.320481,113.590428,127.4683,51.124066,79.073548,94.308026,106.01833,-20.439782,-33.710328,-44.279924,-59.610686,-3.665542,3.685116,9.787539,15.027704,14.710566,21.180811,26.847708,31.580111,29.267102,35.431472,39.228295,42.303194,40.677281,47.078057,49.244447,51.276356,158.61917,207.902099,-153.234106,222.649802
60,-2.268425,1.503277,1.326027,-1.625271,-21.238175,-45.782708,-66.362068,-80.59655,-66.932579,-93.898201,-110.328141,-124.78521,-62.668213,-90.935234,-110.571259,-127.645912,-54.350304,-80.948777,-98.796295,-114.215561,-42.306176,-63.294754,-77.496987,-91.271004,-19.06481,-29.619722,-34.482221,-43.518899,1.701248,11.247207,16.030481,20.524379,17.64413,25.997022,29.807529,34.093946,30.911737,39.80534,43.079236,46.787669,41.951859,51.232069,55.195198,58.900976,24.442784,48.299183,67.44064,77.888558,66.112667,99.326454,117.788727,131.943867,62.403134,99.392475,121.539711,138.140568,56.280224,91.174324,111.995201,126.6278,48.42231,76.922676,92.621533,104.935719,-20.237648,-33.027702,-43.017486,-58.785133,-3.584883,3.7802,9.952907,15.363638,15.04613,21.135276,26.940717,31.98948,29.682472,35.238391,39.207251,42.708363,41.268047,47.084924,49.410518,51.919561,156.675894,208.952477,-151.58293,220.571632
61,-1.274643,0.215459,0.987213,-1.155128,-20.88057,-45.247788,-66.000138,-80.362175,-66.474037,-93.859932,-110.728455,-125.407059,-62.367989,-91.099915,-111.189331,-128.306694,-54.231102,-81.373192,-99.660553,-115.073891,-42.367035,-63.828415,-78.318993,-92.216172,-19.473004,-30.227839,-34.958353,-44.472103,1.021821,10.555208,15.120713,19.460087,17.054501,25.21714,28.732628,32.8013,30.404804,39.164026,42.100443,45.743508,41.532438,50.596386,54.37398,58.122847,23.722252,47.427979,66.700081,77.40762,64.802468,98.220074,116.803734,131.171071,60.926743,97.911107,120.171009,137.048195,54.610337,89.577874,110.665032,125.66573,46.595971,75.427643,91.162926,103.509842,-20.364755,-33.059812,-43.161031,-59.184411,-3.970243,3.240637,9.585677,15.248647,14.680197,20.580881,26.656047,31.945588,29.301089,34.43203,38.665724,42.472872,40.920393,46.302484,48.698635,51.345702,155.566778,208.970477,-150.43019,219.219045
62,-0.964875,-0.034518,0.931561,-1.346073,-20.534706,-44.849304,-65.701377,-80.06884,-66.123641,-93.892868,-110.931953,-125.726577,-62.25888,-91.506774,-111.902893,-129.113548,-54.330894,-81.941459,-100.559463,-115.988754,-42.672363,-64.503685,-79.156379,-93.107757,-19.69007,-30.645099,-35.373205,-44.978111,0.496016,9.861108,14.292466,18.499707,16.670277,24.735251,28.112838,31.998718,30.201311,38.830326,41.671426,45.202178,41.488175,50.335638,53.984507,57.585643,23.288498,46.688187,65.763897,76.491737,64.337185,97.328064,115.867332,130.178421,60.21912,96.841518,119.024242,135.907803,53.603107,88.27708,109.435181,124.674728,45.227898,73.992256,89.830627,102.340107,-20.391196,-32.839745,-42.673042,-58.446974,-3.455602,3.741544,10.024241,15.664178,15.162654,21.073033,27.148087,32.380237,29.748583,34.973124,39.353884,43.309183,41.318597,46.838268,49.47075,52.328028,154.712219,208.896627,-149.388313,217.83364
63,-0.807907,-0.228143,0.264873,-0.408849,-20.301498,-44.728614,-65.611473,-80.000702,-66.315582,-94.174415,-111.338974,-126.254058,-62.527427,-91.857811,-112.301788,-129.559547,-54.64698,-82.358299,-101.069137,-116.550201,-42.990326,-64.886169,-79.606063,-93.629814,-19.649179,-30.400593,-34.92281,-44.619613,0.707981,10.1048,14.555436,18.794886,16.797063,24.937879,28.304388,32.105459,30.253762,38.991124,41.859233,45.38575,41.527955,50.382667,54.059596,57.683937,23.134449,46.393136,65.464749,76.375214,64.081021,96.799256,115.32383,129.653321,59.848343,96.172314,118.188904,135.010872,53.073842,87.615841,108.769421,124.112675,44.462758,73.319264,89.269433,101.888649,-20.389381,-32.770425,-42.414407,-57.959962,-3.297484,3.961425,10.339353,16.058948,15.206409,21.210958,27.434745,32.685629,29.76791,35.09061,39.713592,43.783759,41.373603,47.139894,50.044942,53.045679,153.992305,208.686323,-149.035447,217.44263
64,-0.537117,0.026083,0.313797,-0.130874,-20.049636,-44.623283,-65.675125,-80.177765,-66.462799,-94.58345,-111.835693,-126.805481,-62.835823,-92.454872,-112.931396,-130.117241,-55.113006,-83.08477,-101.929115,-117.389831,-43.5848,-65.640724,-80.406372,-94.367019,-19.753475,-30.541136,-35.004456,-44.681338,0.624408,9.909311,14.363245,18.666964,16.688284,24.75758,28.087916,31.907562,30.144353,38.729513,41.52236,45.007208,41.469502,50.166689,53.775433,57.425203,23.028637,46.218052,65.254509,76.260109,63.995717,96.455739,114.787468,128.951077,59.652832,95.741501,117.556801,134.192597,52.742547,87.082352,108.12624,123.43396,43.977173,72.734791,88.693955,101.335076,-20.471472,-32.719234,-42.105568,-57.483063,-3.119594,4.463925,10.869555,16.53003,15.380756,21.723313,27.955375,33.083722,29.990681,35.684489,40.386326,44.438561,41.603661,47.685039,50.756702,53.820474,153.538107,208.737786,-148.638731,217.337136
65,-0.296653,-0.218732,0.426922,0.232305,-20.206742,-44.914742,-66.09256,-80.76764,-66.756066,-95.008805,-112.278672,-127.365258,-63.17791,-92.876885,-113.366822,-130.625245,-55.556466,-83.684693,-102.714981,-118.345093,-44.107453,-66.299424,-81.132088,-95.151856,-19.811657,-30.545323,-34.843658,-44.412588,0.610872,9.895862,14.358885,18.706435,16.606168,24.696867,27.989955,31.816998,30.033992,38.468753,41.102124,44.458456,41.411185,50.057132,53.613659,57.231196,22.914574,45.9123,64.941868,76.14077,63.8107,96.207196,114.388092,128.38036,59.437397,95.473046,117.180783,133.689354,52.42709,86.718933,107.723465,123.003411,43.541828,72.227909,88.193333,100.858383,-20.631183,-32.920985,-42.188795,-57.304086,-3.175663,4.663021,11.084965,16.674797,15.274953,21.785854,28.019855,33.03489,29.899895,35.798789,40.592325,44.644523,41.544257,47.848344,51.070728,54.221975,153.317923,208.549821,-148.13534,217.600208
66,-0.733178,-0.244458,0.461426,0.076818,-20.278335,-45.166145,-66.339889,-81.059989,-67.286842,-95.299781,-112.449577,-127.564224,-63.679435,-93.024192,-113.263893,-130.535202,-55.968406,-83.766586,-102.539222,-118.229644,-44.352516,-66.285232,-80.937103,-94.883628,-19.834022,-30.534763,-34.726542,-44.140034,0.680712,9.907446,14.416992,18.836272,16.62883,24.650394,27.99781,31.978069,29.984716,38.326801,40.938967,44.351011,41.346878,49.967199,53.51807,57.184908,22.735874,45.611012,64.583714,75.776241,63.619,96.071617,114.240612,128.240181,59.226734,95.241142,116.958893,133.395092,52.228443,86.49091,107.523365,122.752625,43.377491,72.128105,88.165741,100.814003,-20.843667,-33.116907,-42.250484,-57.145573,-3.187075,4.818928,11.222705,16.741129,15.361217,22.05516,28.287394,33.230762,30.034005,36.03901,40.823555,44.837912,41.679626,47.983491,51.236391,54.453625,152.699026,208.335611,-147.559633,217.707274
67,-0.882019,-0.12003,0.328537,0.235417,-20.354141,-45.190864,-66.368934,-81.092605,-67.193664,-95.282066,-112.462417,-127.572486,-63.548263,-92.916641,-113.173942,-130.468597,-55.837577,-83.610534,-102.366119,-118.087051,-44.258628,-66.169258,-80.751548,-94.646186,-19.848213,-30.502987,-34.632719,-44.075345,0.672585,10.143629,14.819827,19.380428,16.679725,25.006434,28.460641,32.478778,30.050183,38.651905,41.391536,44.902306,41.375752,50.124909,53.732133,57.426574,22.521641,45.306908,64.311825,75.592701,63.408165,96.103397,114.38665,128.458969,59.023544,95.140709,116.92416,133.345722,52.0723,86.433392,107.539959,122.739761,43.329952,72.224796,88.296467,100.892555,-21.088037,-33.406467,-42.464227,-57.202235,-3.463939,4.605358,11.087571,16.682973,15.188687,21.912257,28.159793,33.116289,29.922805,35.834196,40.634982,44.689156,41.588717,47.687027,50.870385,54.106119,151.960905,208.241229,-147.087198,217.968339
68,-0.951072,0.229415,0.41312,0.12539,-20.5028,-45.306519,-66.531693,-81.287018,-66.918755,-95.089005,-112.313187,-127.346604,-63.167794,-92.661095,-112.990975,-130.249558,-55.424767,-83.199349,-102.070977,-117.85009,-43.909676,-65.964363,-80.585198,-94.459992,-19.829317,-30.406607,-34.422952,-43.689479,0.910288,10.564779,15.466527,20.225322,16.997789,25.57192,29.233374,33.290894,30.378251,39.278844,42.26071,45.860475,41.578244,50.547899,54.31628,58.048462,22.419743,45.077957,64.037739,75.32769,63.109063,95.975293,114.311852,128.454392,58.707688,94.927563,116.782643,133.273213,51.786255,86.255677,107.540051,122.875798,43.105488,72.169979,88.325878,100.967423,-21.190444,-33.543083,-42.610723,-57.241026,-3.678657,4.401261,10.828096,16.396624,14.991531,21.703245,27.880917,32.789346,29.75472,35.580267,40.350004,44.383492,41.484359,47.420229,50.549493,53.776174,151.145703,208.481293,-146.538208,218.104378
69,-1.486382,0.604351,0.441262,0.014178,-20.615936,-45.314735,-66.443779,-81.472389,-66.606766,-94.632088,-111.723495,-126.613106,-62.645393,-92.119469,-112.348183,-129.52922,-54.692825,-82.311378,-101.151764,-116.984848,-42.999252,-65.014274,-79.649231,-93.614136,-19.620588,-29.968883,-33.598856,-42.163749,1.577452,11.476648,16.65831,21.644001,17.643328,26.559779,30.535949,34.780068,30.9591,40.252439,43.627012,47.456168,42.028553,51.289151,55.287849,59.055723,22.298904,44.780777,63.60997,74.858368,62.568534,95.609584,114.167793,128.51865,58.127758,94.517841,116.572483,133.200061,51.274383,85.908451,107.403888,122.870281,42.770725,72.140361,88.472122,101.180053,-21.353576,-33.691099,-42.728864,-57.093233,-3.919175,4.110923,10.480601,16.093837,14.822174,21.545707,27.721106,32.673786,29.603234,35.363967,40.049971,44.039196,41.347434,47.100473,50.117931,53.297485,149.769464,209.086416,-145.986803,218.119328
70,-1.85582,1.260227,0.496009,0.039743,-20.609161,-45.169326,-66.247718,-81.602279,-65.886474,-93.91793,-110.910987,-125.565925,-61.792717,-91.465164,-111.647186,-128.73983,-53.696319,-81.292076,-100.143951,-116.017547,-41.941497,-63.933815,-78.528556,-92.498222,-19.377637,-29.433939,-32.398786,-39.796263,2.50419,12.805616,18.458656,23.830176,18.55616,28.094091,32.647752,37.392098,31.757373,41.703005,45.755932,50.105853,42.574983,52.223201,56.528378,60.451344,22.183995,44.566166,63.351517,74.616612,61.738324,95.076451,113.824597,128.392285,57.273434,93.921364,116.231427,133.052662,50.53838,85.411068,107.204636,122.86916,42.301987,72.042996,88.564293,101.37275,-21.426096,-33.759383,-42.846635,-57.041943,-4.424862,3.636593,9.937271,15.572886,14.427243,21.177291,27.322717,32.294737,29.267744,34.931232,39.505283,43.389841,41.074941,46.516499,49.285696,52.225979,148.02234,210.327257,-145.382098,218.139685
71,-2.278541,1.432598,0.470799,0.10006,-20.951523,-45.577377,-66.689278,-82.233513,-64.786308,-92.87146,-109.693817,-124.083893,-60.355133,-90.238953,-110.39209,-127.339325,-52.146492,-79.892212,-98.933807,-114.871765,-40.516205,-62.68396,-77.266022,-91.227242,-18.721466,-27.665049,-29.190124,-35.243838,4.473051,15.666264,22.14865,28.268004,20.425122,31.25691,36.821116,42.3902,33.376245,44.407388,49.540577,54.659859,43.782832,54.038143,58.919205,63.237633,22.069897,44.329742,63.293655,74.987171,60.539314,94.306457,113.269878,128.031727,56.077709,93.211876,115.793701,132.787365,49.494026,84.845695,106.93333,122.841305,41.542808,71.694717,88.408379,101.423561,-21.318971,-33.614108,-42.70204,-56.5903,-4.938909,3.108973,9.168479,14.576358,14.008662,20.702666,26.511959,31.212857,28.908814,34.598064,38.87806,42.416185,40.788642,46.19557,48.659905,51.21016,145.827473,211.747023,-144.827625,218.226913
72,-2.966766,2.226806,0.675568,0.084746,-21.720452,-46.522477,-67.68615,-83.732712,-63.515465,-91.319939,-107.948456,-122.254418,-58.522065,-88.300782,-108.35067,-125.292962,-50.170899,-77.769494,-96.952012,-113.012902,-38.832001,-60.862359,-75.295601,-89.227639,-17.854057,-25.060923,-24.057788,-27.760034,6.716271,19.327978,26.932306,33.95129,22.724139,35.298968,42.273072,48.936287,35.444996,47.94218,54.53521,60.564125,45.411179,56.691213,62.382007,67.301144,22.375293,44.851123,64.295368,76.881557,58.944053,93.104015,112.253528,127.163154,54.37231,92.185512,114.999733,132.069648,48.027809,84.005596,106.362041,122.353683,40.570335,71.127273,88.038368,101.199485,-21.194556,-33.285188,-42.040063,-55.043218,-5.411979,2.820253,8.618061,13.772121,13.611804,20.482946,25.968161,30.430282,28.615845,34.597756,38.550252,41.724914,40.538294,46.153382,48.354883,50.504477,142.919037,214.008372,-144.093727,218.346202
73,-3.80262,3.21075,0.859783,0.230243,-23.148377,-48.184319,-69.192215,-85.854264,-62.488747,-89.670227,-105.985863,-120.282738,-56.597901,-85.909813,-105.780007,-122.793091,-47.849762,-75.056099,-94.246102,-110.410675,-36.564927,-58.356743,-72.568863,-86.536171,-16.620494,-21.473434,-17.363092,-18.085634,9.01493,23.623534,32.673538,40.829261,25.136839,40.051934,48.758841,56.701327,37.712779,52.25983,60.716339,67.894306,47.259356,59.894911,66.668881,72.393676,23.039303,45.846714,66.0294,80.002338,57.39521,91.631756,110.679966,125.407528,52.624786,90.910034,113.775741,130.715801,46.502964,82.874473,105.284832,121.242096,39.461071,70.170685,87.277233,100.698372,-20.836256,-32.281226,-39.96851,-51.692233,-5.444188,3.169216,8.779772,13.805552,13.601714,20.788993,25.916981,30.082899,28.728996,35.354519,38.980948,41.782465,40.675416,46.83807,48.878687,50.626038,139.128033,217.286288,-143.222328,218.643611
74,-4.444039,4.241154,1.608192,0.65553,-24.965584,-50.232078,-71.015671,-88.014244,-61.562439,-88.042969,-104.072662,-118.185974,-54.636451,-83.375152,-103.13182,-119.903572,-45.459274,-72.265114,-91.455208,-107.476982,-34.311149,-56.014801,-69.896461,-83.606529,-15.192417,-17.331748,-9.940878,-7.74759,11.423258,28.370708,39.147896,48.739427,27.8318,45.281071,55.885518,65.226836,40.320536,57.056244,67.540711,76.041026,49.418076,63.378338,71.262433,77.919201,24.061444,47.478275,68.589867,84.269337,55.765114,90.178185,109.148232,123.625328,50.468559,89.315346,112.325604,129.161453,44.377625,81.183987,103.587101,119.620239,37.627487,68.428597,85.661946,99.478626,-20.038651,-30.56365,-36.784646,-47.011848,-5.367309,3.998907,9.643179,14.675739,13.693216,21.681941,26.746734,30.819421,29.092052,36.749585,40.373901,42.986388,41.193873,48.385425,50.421336,51.746907,134.670358,221.631346,-141.627772,219.403045
75,-5.458397,5.191258,2.46769,1.417752,-26.781601,-52.385605,-73.09671,-90.456779,-61.137199,-87.013893,-102.965835,-117.155376,-53.176735,-81.442611,-101.137504,-117.510292,-43.512085,-69.99131,-89.192642,-104.961845,-32.427658,-54.170974,-67.821968,-81.339958,-13.830277,-13.318712,-3.065192,1.760072,13.641012,32.620174,44.815547,55.558019,30.320539,49.899866,61.918633,72.258467,42.740449,61.423752,73.469726,82.927605,51.422063,66.787109,75.673994,83.16974,25.26392,49.52972,71.506393,88.919368,54.569458,88.904297,107.835308,122.049774,48.420753,87.517204,110.526626,127.070045,41.990902,78.979957,101.25959,117.340381,35.171951,65.845607,83.20317,97.480957,-18.914472,-28.146134,-32.450397,-40.778737,-4.642235,5.633083,11.457567,16.746156,14.180168,23.467207,28.861377,33.179806,29.713743,38.917333,42.942274,45.697985,41.927826,50.612207,53.055213,54.329248,129.144785,226.927697,-139.227258,220.92589
76,-6.073631,5.981071,3.431373,2.736865,-28.381462,-54.272667,-74.935501,-92.741592,-61.339371,-86.901901,-102.826721,-117.048832,-52.623299,-80.57531,-100.144684,-116.177834,-42.511139,-68.699249,-87.741577,-103.329071,-31.239166,-53.006241,-66.436707,-79.873032,-12.678743,-10.1584,2.181111,9.482825,15.327255,35.754958,48.80902,60.046953,32.019145,53.078456,66.185326,77.242948,44.313825,64.528761,77.815337,87.964845,52.627196,69.068762,78.830403,87.052038,26.722424,52.020207,74.604767,93.409321,53.866608,87.427666,106.294716,120.576439,46.868672,85.435582,108.418053,124.931969,40.029545,76.373818,98.469612,114.770634,33.033486,63.096966,80.40794,95.076245,-17.789096,-25.405317,-27.709559,-34.369341,-3.360111,7.813897,14.38009,20.671543,15.212066,25.92391,32.276249,37.455935,30.805564,41.655297,46.676914,50.154364,43.079768,53.112036,56.240942,57.870646,122.966532,232.954442,-135.900507,223.708429
77,-7.034157,5.830165,4.207135,4.360617,-30.072487,-56.60376,-77.157394,-94.547733,-62.359566,-87.034881,-102.305328,-115.694332,-52.928283,-80.642463,-100.213039,-115.855362,-42.274818,-68.557869,-87.60894,-103.091331,-30.629127,-52.920204,-66.536201,-80.084862,-11.466718,-7.430291,5.912454,14.990901,16.895172,38.963164,52.654465,63.653943,33.304838,55.632823,69.69464,81.480817,45.5258,66.875486,81.079464,91.87708,53.767109,70.75561,81.054554,89.84228,27.93711,54.047206,76.842853,96.658332,53.704708,86.258583,105.409252,120.115997,45.916797,83.528526,106.64804,123.331878,38.511943,73.91122,95.912315,112.659862,31.127094,60.565109,77.796936,92.872821,-16.619642,-22.64915,-23.226059,-28.634494,-1.736372,10.134564,17.654171,25.077595,16.559089,28.751337,36.487701,42.898147,32.110313,44.671816,51.17968,55.757102,44.409031,55.687386,59.760813,62.046925,115.82329,238.740733,-131.802457,228.025172
78,-7.220352,5.271843,5.36483,6.949984,-31.415474,-58.379036,-78.879707,-94.635738,-63.688133,-86.565857,-99.373924,-110.291553,-54.622627,-81.068504,-99.710712,-114.245521,-44.066414,-69.381592,-87.686119,-102.638454,-32.394585,-54.203499,-67.636963,-80.850563,-10.938777,-5.73134,7.875524,17.787502,19.164092,40.183018,51.849919,60.504968,35.241861,57.528054,71.517956,82.774439,47.101522,68.613698,82.695929,93.219187,54.901266,71.972797,82.214548,90.813502,29.171035,56.415653,79.402874,99.074832,57.651443,92.266513,109.554199,120.943634,49.136821,88.306903,108.469379,120.640468,40.423015,76.965717,96.499363,109.60984,31.833732,62.27005,78.649108,91.246799,-17.007447,-21.398111,-20.295459,-23.360984,0.660803,15.529364,23.623954,30.655004,19.179912,35.362485,43.397103,48.888826,34.580539,50.485753,57.252586,61.090967,46.310462,59.449777,63.543175,65.136693,108.570831,243.888748,-126.469734,234.851328
79,-7.573082,4.51787,3.494751,6.706317,-33.451332,-60.64872,-80.320175,-94.574123,-63.695595,-86.3596,-99.317974,-110.061939,-55.342232,-81.435654,-100.206093,-114.861397,-45.475914,-70.508949,-88.796024,-103.672829,-34.43296,-55.647354,-69.484497,-82.839615,-9.83463,-2.608807,11.245824,21.604147,22.821519,41.474849,50.777265,56.919751,37.288986,57.887331,69.72528,78.576856,47.705663,68.436685,80.961286,89.853605,54.072613,71.084394,80.978613,88.997126,30.673828,59.115234,82.919288,103.064884,61.173397,96.488845,113.464748,124.445217,52.4328,92.103721,111.497028,122.549537,43.151207,80.068977,99.120803,111.30796,33.74438,64.051231,80.169502,91.870388,-16.75143,-20.196621,-18.149237,-20.181245,3.150469,19.183408,27.701939,34.743449,21.85578,39.78994,48.438307,53.755648,37.080468,54.504322,61.625577,64.925149,48.542357,62.307487,66.585037,67.888773,101.064222,248.244804,-122.90851,241.395831
80,-7.63488,4.483994,3.80587,6.50816,-34.094055,-61.822517,-81.473705,-95.137093,-62.634796,-86.646606,-99.70396,-110.286552,-55.5019,-82.699207,-101.837151,-116.82708,-46.97287,-72.582951,-91.146091,-106.459522,-37.180664,-58.11026,-72.260868,-85.880573,-10.329535,-3.301313,9.717847,19.394149,23.335814,37.407214,42.917598,45.518118,37.805578,54.521056,63.0643,68.688997,47.983355,66.543355,76.584935,82.797669,53.826253,70.398211,79.383081,86.102032,31.968086,61.032405,85.586689,106.11351,64.083732,99.710094,116.473629,127.247257,55.383854,95.255138,114.223777,124.913177,46.028114,82.769519,101.406166,112.921096,36.495117,66.189296,81.764007,92.743549,-16.282695,-19.281665,-16.526423,-18.130687,5.74101,22.590487,31.520399,38.61914,24.689655,43.61313,52.629604,58.003125,39.806378,58.191797,65.587953,68.806088,50.982807,65.616086,70.203858,71.669059,93.615984,252.515028,-118.915998,247.690221
81,-7.583107,3.172649,4.390045,5.684224,-34.691116,-62.979973,-82.647217,-96.223057,-62.496849,-85.537331,-98.354496,-108.584667,-55.687569,-81.470055,-99.92046,-114.174808,-47.616463,-72.025074,-89.740974,-103.738861,-38.438232,-58.030106,-71.636318,-84.053215,-10.70373,-4.585573,6.439741,14.422118,24.273816,36.45259,40.017738,40.417819,38.423601,53.298337,59.298044,62.1139,47.991185,64.961199,72.094088,75.289462,52.983904,68.437315,75.583048,80.122728,32.787884,62.163151,87.318569,108.064876,66.45346,102.792755,119.273117,129.379108,57.631725,98.24176,117.043155,127.307716,48.003021,85.144935,103.479995,114.315937,38.222042,67.772701,82.951538,93.242592,-15.725372,-18.539462,-15.314905,-16.498067,8.398291,25.970013,34.751403,41.222402,27.553083,47.269743,56.102547,61.061636,42.4428,61.466545,68.537919,71.176773,53.175589,68.545996,72.979613,74.088601,86.278393,255.501465,-114.280437,253.188233
82,-6.648148,2.278628,4.812996,4.779828,-34.105247,-62.397697,-81.873104,-95.710201,-63.24052,-84.104393,-93.173263,-99.264942,-56.953697,-79.255519,-91.920536,-100.374469,-49.151069,-69.980403,-82.024589,-90.216957,-40.149856,-56.51358,-66.453792,-74.551506,-10.802827,-5.629823,3.468619,8.852218,23.955862,34.181187,37.161644,37.273289,37.190309,50.670856,55.726535,57.050686,45.753412,61.456047,67.156277,68.707373,49.833162,64.504356,70.820781,74.184376,33.319141,62.911297,88.654186,109.103805,68.642784,105.978698,121.574226,130.572143,59.689167,101.228027,119.421672,129.014774,49.791103,87.554351,105.400394,115.412429,39.714958,69.072693,83.883625,93.596775,-15.328984,-18.169182,-14.912589,-16.334417,10.417467,28.541732,36.867688,42.456854,29.707629,49.75348,57.888405,61.832046,44.263127,63.419056,69.754451,71.46448,54.487724,70.091769,74.027616,74.441085,79.891016,257.611237,-109.20667,257.799205
83,-6.341308,2.23203,4.752102,2.308168,-31.515793,-59.240868,-78.438606,-93.230244,-63.21143,-81.221752,-86.741821,-89.112545,-57.988758,-76.424,-81.864796,-83.726406,-51.108719,-67.620621,-72.738602,-74.673603,-42.821846,-55.485352,-60.335072,-63.558014,-9.948436,-6.515817,0.708277,4.770059,21.725993,32.853714,37.513807,38.861127,33.644823,46.667923,51.635867,52.797207,41.504008,55.876429,61.036602,62.016643,45.317071,59.076977,64.589955,67.087982,33.005619,62.197918,88.303241,109.164997,66.860916,102.14907,119.170818,131.026165,58.090107,97.836032,118.462772,132.114292,48.779365,85.018776,104.691993,117.852081,39.276889,66.94971,82.150932,94.135047,-14.009933,-17.48311,-14.870623,-18.145099,11.238971,27.027501,35.3376,41.78154,30.10198,47.327924,55.967733,61.321198,44.350492,61.221767,68.081904,70.91158,54.690574,69.347504,73.699932,74.989071,73.773617,259.73512,-104.230659,259.999226
84,-6.735054,2.765109,6.788978,2.508166,-26.497215,-52.521057,-71.494698,-86.488461,-60.601547,-74.229046,-73.820584,-70.92635,-56.515927,-70.12492,-67.775002,-62.607273,-50.482315,-62.361305,-60.301724,-56.041054,-42.945351,-52.483338,-52.38747,-50.927742,-11.164178,-11.357765,-6.760867,-4.175785,16.101976,28.278737,34.151177,36.220631,28.572114,41.690285,47.97066,50.214768,37.38265,50.26575,55.637047,56.904104,42.418878,54.693106,59.600498,61.532495,31.631493,59.990444,85.689045,106.114163,65.755898,100.125996,117.056935,128.934117,57.164578,95.834564,116.54456,130.842144,47.97258,83.314293,102.903271,116.485737,38.790825,65.896042,80.911114,93.436855,-14.052195,-17.939198,-15.941548,-20.211206,11.805049,26.594569,34.685318,41.202493,30.15905,46.099264,54.415106,60.014201,43.956315,59.67918,66.633734,70.161918,54.031673,68.328387,72.70212,74.439295,67.184035,262.435036,-97.296209,262.442199
85,-23.572472,3.858981,5.952336,2.309774,-16.79322,-33.682342,-46.553169,-58.148186,-43.253208,-44.167671,-37.738483,-31.204822,-41.132263,-41.164833,-31.97438,-21.800915,-38.037769,-37.883777,-29.267933,-20.423504,-33.577183,-37.672016,-35.616096,-32.328895,-13.958928,-17.103543,-14.888012,-13.152591,10.561581,26.788267,34.037445,37.165807,24.088725,40.845551,48.039178,51.278617,33.52772,47.719842,52.746226,54.492182,39.581076,51.049486,55.545792,57.507875,30.26477,58.004722,83.3111,103.262546,65.109066,99.062816,115.868774,127.714439,56.914146,94.963222,115.620552,130.05503,47.817077,82.921714,102.403713,116.100494,38.671302,65.836578,80.917728,93.574058,-14.870289,-19.132327,-17.965887,-23.100557,11.541325,25.252856,32.870832,39.035276,29.539533,44.120658,51.669102,56.690769,42.891108,57.230925,63.599726,66.706118,52.642091,65.753284,69.478155,70.680683,43.671781,266.313314,-91.283655,264.77127
86,-19.764599,5.045614,4.854389,1.86033,-7.930503,-16.845989,-24.447166,-32.448795,-27.54808,-17.998821,-5.950698,3.894299,-27.634941,-16.608123,-2.039909,11.803448,-27.802208,-17.599365,-3.851726,7.73576,-26.705165,-27.654396,-25.151229,-22.227527,-17.122685,-22.690732,-21.686498,-20.163325,4.743296,22.103226,28.647671,31.230592,19.47214,37.513116,43.923278,47.07413,29.581152,44.522529,48.507801,50.212706,36.734456,48.184377,52.770371,55.364444,29.08374,56.348545,81.392967,100.915546,64.85218,98.266628,114.923504,126.814647,57.143291,94.480991,114.725704,128.939563,48.314403,83.154751,102.31184,115.751255,39.364608,66.604191,81.745319,94.374721,-16.028937,-20.689586,-20.199436,-25.99034,10.754946,23.952911,31.281981,37.119136,28.6155,42.187363,49.065939,53.409352,41.807833,55.10098,60.888537,63.546398,51.399932,63.383933,66.575861,67.342715,23.935896,271.422608,-86.400552,266.69528
87,-19.622898,4.650102,4.077381,1.453988,0.64056,-0.047092,-1.88071,-5.833225,-11.137172,6.762497,21.654259,31.501717,-13.524513,5.981369,22.943001,37.087235,-17.02129,0.856224,16.950577,28.267662,-19.458938,-18.661388,-17.513534,-16.900348,-20.47325,-28.491837,-28.527443,-25.946424,0.435872,17.652109,22.508396,23.642381,16.925924,35.206763,39.779431,41.767497,27.9286,43.102615,45.261607,45.833774,35.895898,47.294678,51.455989,53.732171,28.182644,55.024635,79.626411,98.776222,64.53717,97.429619,114.17942,126.228721,57.20438,93.877521,113.956993,128.021736,48.516941,82.819805,101.622619,114.799782,39.621975,66.378776,81.198406,93.152939,-16.868743,-21.767885,-21.514436,-27.302549,10.524296,23.564562,30.727561,36.230523,28.453367,41.438108,47.742862,51.470376,41.671413,54.399408,59.487272,61.434534,51.091896,62.560157,65.147833,65.200198,4.313839,276.156299,-82.32233,268.232857
88,-18.397785,4.287863,2.993614,1.593679,7.936466,14.887859,18.245968,17.219673,5.541744,30.227509,45.168812,52.835461,2.022606,28.671787,44.348568,56.053242,-3.933987,20.162499,35.523411,44.607891,-9.186493,-6.557991,-8.099808,-10.509739,-24.431773,-34.030628,-34.490557,-31.178401,-2.700383,14.079501,16.932308,16.779822,15.916563,34.387297,36.382799,36.758291,27.708089,43.392879,42.881647,41.727322,36.097747,47.581261,50.728988,52.184964,27.534622,54.113514,78.421841,97.319389,63.961887,96.637642,113.585449,125.881851,56.767376,93.285278,113.369934,127.354637,48.192387,82.375225,101.053322,114.15065,39.489807,66.071022,80.768864,92.213493,-17.451839,-22.278573,-22.01396,-27.328978,10.75376,23.914268,30.737849,35.594778,28.86607,41.376247,46.854904,49.68968,42.037013,54.262459,58.409406,59.367427,51.064466,61.90075,63.766786,63.042737,-14.087889,280.516842,-79.332659,269.899216
89,-16.179119,3.231201,1.998974,1.802408,13.966701,26.770157,34.080482,35.168255,18.235313,49.351227,64.700066,70.922081,13.910534,47.138077,62.367668,72.253624,5.991829,36.685673,52.171234,59.608795,-1.463516,4.881031,2.679668,-1.138744,-26.934962,-37.162843,-38.123173,-35.010026,-3.348663,13.302694,14.595056,13.685435,16.305591,35.418616,35.428644,34.784501,28.103885,44.806951,42.287769,39.883233,36.284703,48.458685,50.381247,50.803447,27.212242,53.745232,77.761585,96.420444,63.461014,95.983051,113.123623,125.688984,56.254154,92.711185,112.794193,126.760265,47.718258,81.694542,100.262226,113.29089,39.149277,65.495361,80.119205,91.150829,-17.669608,-22.108302,-21.473977,-25.990476,11.456344,24.670031,31.192653,35.54523,29.712792,41.807648,46.529899,48.632303,42.675722,54.575027,57.755655,57.800251,51.133466,61.397101,62.525528,61.042839,-30.275682,283.798187,-77.342359,271.751768
90,-0.716297,1.467017,1.425579,2.311331,14.466156,26.973667,34.249637,35.91045,17.878063,49.949558,65.826839,72.274257,13.975353,48.229648,63.994228,73.83601,6.910068,38.745735,54.633602,61.948826,0.163833,9.770943,10.042705,7.769302,-26.094514,-35.067763,-34.620282,-30.389749,-1.3943,14.382165,15.456931,14.555227,17.280902,35.483614,35.310429,34.471982,28.364916,44.225608,41.262798,38.361851,35.885696,47.700131,48.21545,47.352995,27.007233,53.711426,77.663647,96.203133,63.203762,95.481583,112.790749,125.536354,55.727978,92.143959,112.158028,126.089676,47.047932,80.794098,99.253281,112.252304,38.504883,64.646416,79.246227,90.060585,-17.579626,-21.548054,-20.653401,-24.170087,12.558959,25.889342,32.144473,36.03076,30.815888,42.794344,47.005747,48.578357,43.500571,55.352587,57.8713,57.258143,51.433474,61.33041,61.938911,59.963836,-30.997541,285.28644,-75.922342,274.084335
91,-2.973564,0.64176,1.185677,2.796305,16.509178,30.425045,39.012119,41.625847,20.450374,53.392421,69.676815,76.263118,15.760517,51.682972,68.31625,78.309024,8.603988,42.542312,59.313114,66.98402,1.564865,17.194015,21.576599,22.064792,-25.007448,-33.141447,-32.306803,-27.528384,-0.913672,14.454338,16.049352,16.040892,17.526273,35.657553,36.502755,36.081901,28.885508,44.481773,42.160674,39.434949,36.562381,48.734474,48.118218,45.809308,26.811058,53.526123,77.407527,95.945297,62.930259,95.178657,112.703613,125.434547,55.251686,91.817138,111.818389,125.710052,46.376197,80.069137,98.430381,111.343986,37.743804,63.722362,78.287418,88.901069,-17.463226,-21.011454,-19.663122,-21.970648,13.692586,26.638486,32.523473,36.024314,31.673318,43.286039,46.967253,48.117416,43.874434,55.521055,57.414397,56.221355,51.288583,60.877854,61.004122,58.603389,-33.967827,285.905837,-74.733387,276.858277
92,-1.263028,1.113545,0.545299,2.507141,17.490727,31.914631,40.420498,42.871434,23.2412,56.948708,71.928246,77.051537,17.845597,55.703385,70.858887,78.711525,10.258244,46.172173,61.66919,67.813569,2.731774,23.678032,30.928631,32.86076,-24.243484,-31.109697,-29.407473,-23.92453,-1.356015,13.975563,15.82889,16.376604,17.077854,34.755281,35.910692,35.528618,29.030412,43.977914,41.535735,38.584856,37.335386,49.341741,47.07944,43.172269,26.385704,53.030972,77.188751,96.268261,62.75354,94.941479,112.586666,125.273838,55.147842,91.835278,111.763699,125.657467,46.27541,80.163563,98.591572,111.53397,37.609646,64.075687,78.981422,90.069958,-17.621122,-20.781644,-18.72785,-19.721896,14.208795,26.911213,32.483891,35.702606,31.847158,42.992168,46.271733,47.212908,43.620084,54.790276,56.333802,54.994275,50.725098,59.743536,59.608426,57.227676,-35.221436,286.965178,-74.178669,279.311214
93,-1.446899,0.965628,0.339077,1.931948,18.228687,33.027775,41.833363,44.66415,25.734993,59.705795,74.334915,78.92878,19.555721,58.941261,73.934898,81.049873,11.587235,48.946884,64.259514,70.032715,3.426899,28.347942,38.159569,41.462059,-23.631302,-29.844196,-27.992388,-22.850542,-2.554269,12.216751,14.722854,15.966347,16.034433,33.22555,35.139949,34.90221,28.811643,43.37197,41.300614,38.2939,38.072451,50.159267,47.042637,42.148781,26.102646,52.717735,77.12075,96.732765,62.686352,94.802239,112.602356,125.289413,55.177368,91.808258,111.710838,125.688973,46.278111,80.110142,98.54512,111.499855,37.477032,64.136192,79.139202,90.416771,-17.627618,-20.497753,-17.882549,-17.846709,14.464824,26.907755,32.25308,35.232612,31.811491,42.738831,45.820177,46.672839,43.295919,54.27613,55.713149,54.371584,50.272542,59.060342,58.708994,56.202039,-36.654556,287.841626,-73.825813,281.153982
94,-1.649551,2.300759,0.122829,1.589345,19.167228,35.089668,44.914066,48.416713,29.074585,63.581543,77.684852,81.653,22.610481,63.540046,77.621727,83.697532,14.698929,53.144256,67.020469,71.580139,6.414951,34.021969,44.193031,47.240123,-24.097839,-31.22711,-30.018963,-25.021354,-5.757102,7.849477,10.623306,12.364112,13.711246,29.650892,31.634834,31.411829,27.716894,41.192551,39.043612,36.015433,38.122938,49.265244,45.437855,40.024073,25.939763,52.522053,77.213665,97.269001,62.687943,94.844891,112.682911,125.25079,55.207684,91.90749,111.833073,125.810795,46.217251,80.171013,98.648083,111.551205,37.245896,64.225537,79.307957,90.697163,-17.782723,-20.427321,-17.270973,-16.397019,14.295949,26.591777,31.809008,34.690801,31.441099,42.212606,45.241526,46.117504,42.759517,53.564542,55.026261,53.755561,49.694879,58.30711,57.880674,55.346178,-38.302231,290.021524,-73.701108,282.622466
95,3.362938,1.002777,0.267998,0.700114,18.382713,33.732433,43.017105,46.309959,27.232292,59.59378,74.06195,78.809166,20.647041,59.611061,74.306579,81.332244,12.730384,49.143539,63.46154,69.088897,4.412796,30.799884,41.481788,45.305122,-24.268344,-32.316004,-32.249042,-27.785882,-7.795236,5.167237,8.422818,10.439858,12.267176,27.260818,29.518401,29.506693,27.121398,39.996088,38.169584,35.410934,38.176192,49.104162,45.31922,39.760596,25.688805,52.132736,76.96843,97.460552,62.465882,94.735188,112.480259,124.832463,55.098038,91.860821,111.736485,125.626408,46.066326,80.156491,98.613064,111.429783,36.907265,64.152306,79.242417,90.615956,-17.991341,-20.381823,-16.461129,-14.825966,13.963892,26.314184,31.520781,34.412121,31.06468,41.784268,44.877618,45.84337,42.335502,53.022164,54.618325,53.507201,49.280768,57.734226,57.278644,54.744766,-34.949867,290.881695,-73.443684,283.179974
96,4.69725,0.53382,0.005242,0.119215,16.166576,30.128094,37.95742,40.760902,23.576443,53.495842,68.676361,74.465332,17.592281,53.715569,69.086952,77.190376,10.181591,43.39444,57.885635,64.18856,2.498943,24.315617,33.125427,36.15152,-24.406492,-32.382077,-32.01444,-27.120559,-8.579343,4.294803,7.850676,9.672387,11.633691,25.783687,27.945297,27.958388,26.592197,38.870563,37.192285,34.523334,37.650597,48.035472,44.771617,39.649952,25.545192,51.956108,76.949867,97.811313,62.298339,94.646083,112.240734,124.526882,55.035678,91.814884,111.625591,125.552936,45.991996,80.149807,98.682277,111.595264,36.639186,64.030323,79.16962,90.680477,-18.108778,-20.266868,-15.796991,-13.7738,13.507828,26.058822,31.306644,34.246445,30.662229,41.3801,44.613042,45.748435,42.030467,52.619922,54.444844,53.594232,49.082537,57.450039,57.09017,54.678582,-30.283613,291.25668,-73.469438,283.140354
97,1.518414,1.0256,-0.082318,0.146027,15.678302,29.418479,37.348423,40.41846,22.72966,51.564708,67.612552,74.382534,16.865329,51.53651,67.899318,77.372142,9.590869,41.045734,56.124263,63.599452,2.16814,22.053863,30.742939,34.423782,-24.972472,-33.830198,-34.14652,-29.612114,-9.596817,2.498558,6.117379,7.957047,10.831269,24.165011,26.375738,26.679463,25.942509,37.476992,36.063982,33.794234,36.971491,46.841356,43.8288,38.922742,25.524914,51.908295,76.950337,98.035767,62.216217,94.584503,112.125939,124.378762,55.001885,91.752983,111.593766,125.523079,46.003842,80.101639,98.607491,111.428147,36.672112,64.103543,79.177197,90.547417,-18.191683,-20.104736,-15.295651,-13.17981,13.559279,25.952278,31.155479,34.179817,30.702886,41.200258,44.434905,45.725044,42.071383,52.391446,54.2549,53.55801,49.147832,57.372283,56.936091,54.501704,-28.803932,292.131748,-73.590489,283.135849
98,3.15826,0.315545,-0.271145,0.255314,14.02494,26.914581,34.29705,37.567406,19.800327,46.684502,63.793579,71.843559,14.310459,46.555435,64.087097,75.119842,7.496292,36.145511,52.083687,61.012321,0.618839,17.549881,26.285396,30.720966,-24.618395,-33.260464,-33.185672,-28.127412,-9.320892,2.264054,5.973302,7.853923,10.694615,23.033595,25.497523,26.345134,25.378369,36.038121,34.93942,33.268269,36.006035,45.155655,42.576439,38.279623,25.561203,51.956005,77.010819,98.249669,62.25848,94.644024,112.122631,124.347668,55.033436,91.815319,111.661137,125.573468,46.048417,80.125008,98.598553,111.330151,36.737652,64.20274,79.202259,90.459011,-18.276443,-20.021942,-14.928842,-12.803664,13.524735,25.902111,31.101904,34.227586,30.645914,41.010535,44.253679,45.670011,42.006038,52.123386,54.014888,53.438436,49.056552,57.159812,56.680876,54.272041,-25.676697,292.308796,-73.892659,283.252666
99,3.844402,-1.490334,-0.157207,0.103296,11.361855,22.515278,28.323372,31.227699,15.129261,40.090519,58.359066,67.507542,9.835488,40.15575,59.1068,71.599285,3.306313,29.568283,46.88039,57.532345,-3.200054,10.444782,19.555435,24.793202,-22.90287,-29.354862,-27.044322,-20.320122,-6.993506,5.280784,9.298068,11.032983,11.935848,24.356746,27.533027,28.843975,25.655752,36.640471,35.919523,34.411133,35.515959,45.102871,43.028094,39.172152,25.591518,51.933575,76.975239,98.33448,62.193947,94.620872,112.067802,124.301948,54.973869,91.835243,111.650551,125.528206,46.000854,80.092232,98.467461,111.048294,36.706444,64.151676,79.062183,90.144104,-18.21305,-19.887672,-14.656905,-12.569766,13.671158,25.947831,31.086133,34.239553,30.780419,40.984007,44.182975,45.642125,42.121042,52.035059,53.901601,53.379007,49.14677,57.096678,56.518349,54.076713,-21.85235,290.698657,-74.069921,283.236157
100,2.958435,-0.420212,-0.114361,0.000172,9.885086,19.923374,24.466301,26.725353,12.192856,36.023083,54.508587,63.857083,6.821526,36.224064,55.516217,68.428288,0.365628,25.327927,42.95969,54.055973,-6.030979,5.402756,13.890347,18.692127,-22.104498,-27.329596,-23.665746,-16.330205,-6.222095,6.483065,10.723206,12.521786,12.12126,24.724766,28.255186,29.838479,25.374739,36.66574,36.045235,34.53025,34.992563,44.825551,43.210592,39.852135,25.571285,51.862553,76.838814,98.238041,62.001331,94.581883,112.102238,124.443203,54.787411,91.791676,111.629116,125.495785,45.847836,80.062786,98.434605,110.955677,36.629814,64.204571,79.073181,90.045605,-18.142357,-19.778854,-14.399133,-12.29857,13.919025,26.082671,31.122739,34.280223,31.045712,41.076226,44.226584,45.763021,42.38762,52.058451,53.918744,53.511388,49.388264,57.116575,56.445373,54.003848,-18.900004,290.169487,-74.190371,283.127371
101,-0.972564,0.181596,-0.129776,-0.002692,10.462955,20.915187,25.972869,28.441051,13.388912,37.502872,55.778903,64.828983,7.69083,37.304821,56.566761,69.362171,0.9085,25.964378,43.483806,54.571575,-5.767697,6.591751,15.955822,21.525489,-22.106648,-27.554096,-23.954677,-16.907041,-6.699525,5.452413,9.756886,11.976628,11.70363,24.053057,27.809261,29.718497,25.178076,36.216839,35.794911,34.555061,35.068479,44.851214,43.055401,39.556462,25.562302,51.82869,76.752342,98.160153,61.82872,94.642582,112.32098,124.8307,54.629002,91.820332,111.768643,125.688915,45.75975,80.098354,98.523045,111.036816,36.672581,64.34903,79.200279,90.121937,-18.103158,-19.71908,-14.20588,-12.038551,14.076599,26.154054,31.172621,34.388953,31.247561,41.171173,44.320729,45.936786,42.6055,52.092808,53.948519,53.595739,49.576454,57.124528,56.39102,53.928438,-19.86343,290.25072,-74.311009,283.024316
102,1.565609,-0.063208,-0.086105,-0.035951,9.728668,19.678653,24.365627,26.787368,11.342308,34.842956,53.298843,62.633766,5.930042,34.775527,54.389968,67.587821,-0.458336,23.882686,41.598472,52.931167,-6.77369,4.945392,14.18898,19.762962,-21.955556,-27.257126,-23.477185,-16.411147,-6.331084,5.837785,10.065416,12.203833,11.936824,24.15108,27.79412,29.71557,25.276025,36.240366,35.722527,34.416481,35.02187,44.758823,42.998825,39.532256,25.492687,51.785305,76.678905,98.009754,61.713581,94.733608,112.528919,125.181438,54.505794,91.809597,111.79327,125.737095,45.654052,80.056263,98.512974,111.082706,36.617237,64.290951,79.120949,90.065975,-17.989402,-19.653415,-14.217106,-12.054631,14.17272,26.21552,31.241831,34.487531,31.348881,41.265392,44.420196,46.055347,42.706906,52.217581,54.106254,53.767047,49.641465,57.211164,56.525907,54.101142,-18.275774,290.086615,-74.375067,282.887468
103,-0.332715,0.315174,-0.073952,0.002495,9.826687,19.79488,24.548424,27.028302,11.488038,35.415745,53.826817,63.023701,6.370125,35.593335,55.059597,68.092152,0.165825,24.91071,42.263913,53.290066,-6.031642,5.833111,14.378724,19.491532,-22.439309,-28.330027,-25.131195,-18.474649,-6.370419,5.83539,9.881943,11.89702,12.196756,24.496858,27.847868,29.619203,25.671598,36.662158,35.971653,34.470253,35.385568,45.136427,43.238701,39.521165,25.40229,51.701592,76.560127,97.83736,61.57909,94.804562,112.722141,125.447491,54.337086,91.806553,111.852139,125.786327,45.469002,80.039818,98.56358,111.137341,36.477425,64.272217,79.178696,90.18005,-17.86947,-19.555615,-14.19705,-11.996932,14.359996,26.282939,31.263184,34.530843,31.569058,41.421793,44.531075,46.212267,42.909385,52.402671,54.244069,53.912321,49.793099,57.360007,56.638836,54.216713,-18.583054,290.305869,-74.423584,282.794043
104,-0.805835,0.86789,0.022453,-0.085092,10.779327,21.182682,26.439193,29.084919,12.583317,37.085632,55.16336,64.064872,7.294155,37.06327,56.301796,69.14257,0.848476,26.250389,43.228523,53.971206,-5.608029,7.163864,15.781814,20.999862,-23.57117,-30.848345,-28.926067,-23.180771,-7.064581,4.983999,8.855355,10.847621,12.182591,24.271987,27.227794,28.792908,26.041865,36.517279,35.69243,34.097911,35.893983,45.190421,42.915252,38.756991,25.325821,51.714661,76.560929,97.821431,61.419114,94.857365,112.888539,125.705372,54.192387,91.817013,111.986332,125.999234,45.379441,80.100483,98.702763,111.350636,36.492531,64.438683,79.384518,90.427723,-17.742437,-19.458864,-14.098299,-11.892932,14.415683,26.2964,31.304816,34.638696,31.722817,41.562152,44.725453,46.455884,43.160944,52.596395,54.456354,54.120234,50.05954,57.5315,56.795299,54.327654,-19.361417,291.065282,-74.373659,282.600474
105,-2.714379,0.404478,-0.136734,0.014659,12.203785,23.631844,29.948296,32.9404,15.442612,41.610901,59.39296,67.74939,10.003167,41.567963,60.273171,72.258889,3.193852,30.535012,46.939225,56.93866,-3.605896,11.393097,20.420002,25.921578,-24.346829,-32.581148,-31.570356,-26.327523,-7.356018,4.437211,8.142236,10.190781,12.427665,24.367972,26.98924,28.390418,26.574153,36.724427,35.710954,34.00295,36.468484,45.481833,42.695803,37.985432,25.241295,51.76799,76.672028,97.977002,61.458573,95.014515,113.107693,125.972729,54.246552,91.966542,112.203564,126.279751,45.451344,80.241646,98.894429,111.593365,36.58928,64.578816,79.601189,90.743855,-17.722331,-19.47314,-14.162099,-11.924671,14.380659,26.228821,31.21124,34.5375,31.724608,41.588841,44.789155,46.554859,43.183027,52.665284,54.527985,54.178219,50.054588,57.58284,56.873377,54.395963,-22.048554,291.357713,-74.483151,282.503086
106,1.328099,0.021303,-0.123779,-0.012584,11.808151,22.634742,28.12453,30.357158,13.938114,40.243938,58.264331,66.842868,8.622802,40.272525,59.175304,71.48212,1.937084,29.399608,45.981388,56.22179,-4.693314,9.545448,17.960849,23.133064,-24.299268,-32.519619,-31.573232,-26.504709,-6.826903,5.554611,9.108038,10.819018,12.869441,25.089625,27.447206,28.668531,26.748476,37.057966,35.902567,34.135455,36.408797,45.508461,42.817329,38.305164,25.24181,51.888805,76.843071,98.185558,61.538338,95.14761,113.251522,126.118412,54.308796,92.072353,112.311642,126.358097,45.526817,80.388931,99.023083,111.669857,36.718105,64.774235,79.819187,90.948132,-17.655987,-19.43656,-14.221911,-12.042998,14.551398,26.349617,31.272816,34.57676,31.891617,41.711872,44.859117,46.611915,43.317617,52.785623,54.615559,54.261902,50.115621,57.621211,56.888666,54.395394,-20.691793,291.285465,-74.578268,282.396951
107,-0.15992,-0.202183,-0.137775,-0.002927,12.10976,23.178463,28.626537,30.676197,14.364887,40.806873,59.010624,67.773479,8.949428,40.880505,59.801227,72.264736,2.059536,29.80006,46.482685,56.866436,-4.743645,8.806366,16.410496,21.076927,-24.150351,-32.339777,-31.457203,-26.602448,-6.656534,6.18281,9.801791,11.480303,13.002105,25.794209,28.08741,29.192977,26.758652,37.638988,36.459209,34.666854,36.362224,45.866378,43.495533,39.298629,25.29499,52.044628,77.06781,98.516876,61.65715,95.303878,113.431434,126.275894,54.390483,92.238716,112.530555,126.579094,45.602474,80.580631,99.257148,111.875564,36.822475,65.006046,80.147323,91.333397,-17.642538,-19.45716,-14.250378,-12.040367,14.648976,26.432338,31.307397,34.591308,32.025974,41.858455,44.984619,46.73691,43.441933,52.895094,54.677174,54.296099,50.183942,57.6015,56.846083,54.33788,-20.825455,291.004608,-74.689785,282.31535
108,-0.578121,-0.044114,-0.104268,-0.032642,12.8432,24.443802,30.23925,32.189964,15.112392,41.998169,60.393539,69.379074,9.398723,41.735367,60.704864,73.378303,2.205665,30.349708,47.11663,57.665771,-4.75161,8.309841,15.220642,19.559166,-24.234913,-32.658237,-32.157466,-27.805062,-7.133766,6.067249,9.705337,11.362001,12.688524,25.924984,28.139601,29.107291,26.549355,37.858115,36.732776,34.969962,36.315701,46.106624,43.988202,40.025221,25.406834,52.251286,77.32045,98.77232,61.760296,95.455021,113.589467,126.448849,54.517422,92.385212,112.711682,126.799267,45.780865,80.752305,99.448529,112.114987,37.063065,65.258172,80.419865,91.641278,-17.641253,-19.533026,-14.345608,-12.113331,14.608406,26.434215,31.315573,34.592606,32.028309,41.915328,45.081469,46.813494,43.45379,52.908494,54.730057,54.328494,50.165739,57.516755,56.78153,54.239339,-21.383268,290.893714,-74.773745,282.215928
109,-0.10112,-0.374158,-0.154438,0.010201,13.020035,24.903957,30.955169,33.037903,15.312355,42.133392,60.805664,70.264503,9.443641,41.616577,60.793144,74.156936,2.080181,29.888488,47.027687,58.140129,-4.987278,6.485767,12.118664,15.797779,-23.959296,-32.527969,-32.242262,-28.195411,-7.423845,6.213684,10.051065,11.691316,12.416908,26.550059,28.819448,29.586042,26.331956,38.638912,37.542867,35.789983,36.295385,46.951061,45.466075,41.935927,25.647618,52.527947,77.533413,98.915612,61.944043,95.631981,113.734108,126.519539,54.61258,92.434067,112.643853,126.592553,45.782948,80.66605,99.369622,112.004952,36.980645,65.078785,80.321354,91.597573,-17.597583,-19.445884,-14.299629,-11.945506,14.795659,26.570585,31.453511,34.681922,32.179301,42.092811,45.221964,46.850199,43.438575,53.080642,54.879037,54.373646,50.016043,57.558486,56.833598,54.242637,-21.467125,290.467692,-74.91092,282.174265
110,0.008983,-0.001001,-0.080303,-0.076409,13.028172,25.118328,31.521733,34.060055,15.121136,41.517048,60.415158,70.383694,9.185555,40.950772,60.398724,74.668637,1.841801,29.179379,46.676297,58.496006,-5.197014,4.499955,8.786808,11.698872,-23.851664,-32.761199,-32.861815,-29.278735,-8.051969,5.704269,9.653183,11.279701,11.872147,26.545107,28.843099,29.43862,25.872311,38.857163,37.764082,36.018176,36.007036,47.272448,46.358714,43.231945,25.955521,52.875641,77.840126,99.102574,62.001194,95.7636,113.828556,126.566128,54.53706,92.412747,112.60484,126.526646,45.595585,80.455296,99.207905,111.885807,36.701947,64.685326,79.975445,91.303105,-17.545404,-19.381405,-14.281154,-11.775816,14.878971,26.603189,31.493858,34.726146,32.265405,42.272146,45.406362,46.952419,43.436882,53.304153,55.128236,54.524983,49.933779,57.67528,56.981057,54.313278,-21.443905,290.426032,-74.976986,282.057197
111,-1.832725,-0.194452,0.076767,0.01088,13.743645,26.685814,34.273395,37.830265,16.622635,43.382274,62.410091,72.718929,10.426746,42.745868,62.244701,76.917652,2.916961,30.763527,48.549511,60.826984,-4.254982,5.471157,9.461906,12.256004,-23.772538,-32.768054,-32.973991,-29.438582,-8.425448,5.094817,9.205529,11.047865,11.538201,26.344344,28.861735,29.494875,25.659853,38.895918,37.912505,36.304068,35.915781,47.45592,46.98122,44.154645,26.148205,53.081234,77.993168,99.212025,61.925801,95.750416,113.786488,126.421566,54.396343,92.304852,112.469891,126.338253,45.435826,80.25372,99.00507,111.683064,36.570271,64.47044,79.808064,91.17001,-17.534449,-19.326792,-14.199717,-11.555775,14.950528,26.609969,31.486844,34.673276,32.375309,42.455224,45.568976,47.003845,43.484134,53.493097,55.264729,54.509275,49.905423,57.76819,57.043771,54.250133,-23.265369,290.196848,-74.888958,282.033345
112,-0.740032,-0.086315,0.092972,0.010498,14.012317,27.136882,35.037529,38.931839,17.166309,44.30516,63.291687,73.646118,10.736847,43.489059,62.842941,77.75354,3.057312,31.284633,48.981834,61.397964,-4.252751,4.831604,7.875835,10.06739,-23.676898,-32.843463,-33.302676,-30.158975,-8.581355,5.017061,9.063195,10.857341,11.444068,26.473971,28.919497,29.367953,25.572822,38.966968,37.983099,36.399225,35.87289,47.588289,47.509545,44.992549,26.364212,53.332787,78.183655,99.249058,61.782898,95.676029,113.674152,126.309528,54.21294,92.137219,112.318394,126.238438,45.243885,79.972755,98.768681,111.565075,36.37302,64.08728,79.470268,90.930233,-17.534363,-19.300326,-14.177154,-11.388691,14.989789,26.456074,31.251068,34.380134,32.454176,42.520036,45.598665,46.925249,43.508167,53.624601,55.363109,54.478041,49.866384,57.838992,57.120884,54.225235,-23.996126,290.076632,-74.786711,282.009942
113,-1.417809,0.311087,0.2169,-0.075731,14.337067,27.842056,36.333595,40.456696,18.355614,46.114975,64.864494,75.004692,11.973164,45.386879,64.449829,79.262238,4.324093,33.303646,50.759514,63.074616,-2.983143,7.161369,10.486302,12.880303,-23.819888,-33.371677,-34.230687,-31.327824,-8.910239,4.422379,8.349236,10.090375,11.156113,26.313172,28.793599,29.175217,25.36949,38.737614,37.856139,36.375117,35.782153,47.56838,47.486795,44.922054,26.432636,53.341564,78.114441,99.122314,61.5905,95.488106,113.441437,126.023735,53.953102,91.878502,112.046265,125.947517,44.936233,79.634857,98.447136,111.241333,36.020908,63.637939,79.067379,90.570373,-17.556075,-19.26125,-14.050355,-11.116371,15.089083,26.424817,31.186057,34.299476,32.560955,42.659506,45.760735,47.064916,43.574635,53.830329,55.551868,54.583054,49.911734,58.030122,57.352436,54.399025,-25.408882,290.35028,-74.564758,281.896772
114,-2.248352,0.279655,0.273456,0.037742,15.000595,29.185158,38.538345,42.955124,20.231403,49.019623,67.541588,77.312347,13.876888,48.369873,67.031181,81.359253,6.241608,36.385311,53.400124,65.293533,-1.036434,10.900543,14.802555,17.536022,-24.101334,-34.003556,-35.275096,-32.58568,-9.500548,3.650647,7.412001,9.137468,10.751401,25.9659,28.458591,28.857412,25.19339,38.423737,37.66228,36.290964,35.802308,47.508359,47.186688,44.38154,26.345067,53.180787,77.954499,98.949383,61.319344,95.251751,113.184369,125.782963,53.709149,91.704403,111.946164,125.955792,44.751481,79.527867,98.356831,111.216488,35.894005,63.531498,78.954655,90.545849,-17.681255,-19.467386,-14.190974,-11.199426,14.803871,26.11662,30.886123,34.059526,32.335578,42.482258,45.664442,47.081824,43.458359,53.697689,55.450906,54.534728,49.903459,57.977128,57.36428,54.448364,-27.654825,290.596046,-74.288893,281.900625
