takenoko1/special-research/HandMotion_SimilarSearch_自分用/NewProject/handData/tgt/d4_feature_d2/37.csv
,vel_0x_L,vel_0y_L,vel_0x_R,vel_0y_R,posFromWrist_1x_L,posFromWrist_2x_L,posFromWrist_3x_L,posFromWrist_4x_L,posFromWrist_5x_L,posFromWrist_6x_L,posFromWrist_7x_L,posFromWrist_8x_L,posFromWrist_9x_L,posFromWrist_10x_L,posFromWrist_11x_L,posFromWrist_12x_L,posFromWrist_13x_L,posFromWrist_14x_L,posFromWrist_15x_L,posFromWrist_16x_L,posFromWrist_17x_L,posFromWrist_18x_L,posFromWrist_19x_L,posFromWrist_20x_L,posFromWrist_1y_L,posFromWrist_2y_L,posFromWrist_3y_L,posFromWrist_4y_L,posFromWrist_5y_L,posFromWrist_6y_L,posFromWrist_7y_L,posFromWrist_8y_L,posFromWrist_9y_L,posFromWrist_10y_L,posFromWrist_11y_L,posFromWrist_12y_L,posFromWrist_13y_L,posFromWrist_14y_L,posFromWrist_15y_L,posFromWrist_16y_L,posFromWrist_17y_L,posFromWrist_18y_L,posFromWrist_19y_L,posFromWrist_20y_L,posFromWrist_1x_R,posFromWrist_2x_R,posFromWrist_3x_R,posFromWrist_4x_R,posFromWrist_5x_R,posFromWrist_6x_R,posFromWrist_7x_R,posFromWrist_8x_R,posFromWrist_9x_R,posFromWrist_10x_R,posFromWrist_11x_R,posFromWrist_12x_R,posFromWrist_13x_R,posFromWrist_14x_R,posFromWrist_15x_R,posFromWrist_16x_R,posFromWrist_17x_R,posFromWrist_18x_R,posFromWrist_19x_R,posFromWrist_20x_R,posFromWrist_1y_R,posFromWrist_2y_R,posFromWrist_3y_R,posFromWrist_4y_R,posFromWrist_5y_R,posFromWrist_6y_R,posFromWrist_7y_R,posFromWrist_8y_R,posFromWrist_9y_R,posFromWrist_10y_R,posFromWrist_11y_R,posFromWrist_12y_R,posFromWrist_13y_R,posFromWrist_14y_R,posFromWrist_15y_R,posFromWrist_16y_R,posFromWrist_17y_R,posFromWrist_18y_R,posFromWrist_19y_R,posFromWrist_20y_R,posFromBody_0x_L,posFromBody_0y_L,posFromBody_0x_R,posFromBody_0y_R
6,-2.584396,2.072035,0.479885,0.387051,-16.815971,-36.050022,-52.398685,-66.238003,-58.353985,-55.140907,-36.875038,-21.872841,-58.709713,-53.187778,-32.896774,-12.389923,-55.391659,-51.897709,-32.317017,-14.308662,-49.805237,-55.338295,-50.214466,-43.086651,17.198391,26.842138,34.715859,42.217929,23.46486,37.013283,42.84246,46.424812,21.149837,35.408933,42.565127,45.71956,17.619899,30.925644,36.998723,40.56429,13.30935,23.863311,29.74274,35.276491,24.856202,48.816514,67.78759,81.982144,44.546505,75.727032,92.847531,105.617558,33.521851,69.584965,89.693356,103.462178,24.23235,57.857312,76.980435,90.562214,16.783917,42.551423,57.77528,69.87069,-12.447537,-9.666755,1.689899,10.072715,16.199468,34.648613,41.935434,46.380994,33.27437,50.855799,57.459142,60.876829,45.068551,62.567914,67.61953,68.675301,51.812919,67.452124,70.948976,70.563666,42.510321,302.101782,-71.348631,288.803608
7,-1.774818,0.103531,0.534337,0.17405,-16.877999,-35.804902,-52.74606,-67.268727,-58.166748,-54.830635,-35.137139,-19.388237,-58.926819,-52.213704,-30.981171,-10.168419,-56.011757,-51.466851,-30.872475,-12.397454,-51.076046,-58.862984,-56.623272,-52.052456,16.089539,25.11882,33.473268,40.944462,22.27346,35.900812,41.577849,45.081258,21.209364,34.92155,41.896901,44.748819,18.662221,31.988034,37.391751,40.464452,15.549877,25.825504,31.809069,38.087543,24.651283,48.405235,67.31211,81.752059,44.376388,75.478591,92.538459,105.259826,33.314209,69.257297,89.377281,103.183067,23.947116,57.474609,76.653533,90.333,16.397563,42.069145,57.276191,69.390243,-12.650881,-9.862072,1.533053,9.785884,16.093874,34.526903,41.802435,46.250651,33.110892,50.668374,57.269283,60.67982,44.849164,62.413661,67.435698,68.512119,51.529039,67.330797,70.945839,70.667542,41.248799,302.046151,-70.300998,288.818496
8,-2.480805,0.990637,0.335449,-0.141742,-16.613548,-35.064617,-51.84573,-66.715118,-58.324013,-53.804249,-33.25898,-17.106239,-59.10078,-50.60313,-28.437904,-7.223053,-55.994545,-49.823822,-28.463722,-9.626243,-50.916756,-58.225284,-55.954273,-51.374828,16.178472,25.326067,33.424769,40.688964,21.711395,34.977162,40.706514,44.698085,20.16046,33.49062,40.527536,43.860342,16.971532,30.105759,35.816881,39.509889,13.289331,23.518669,29.968117,37.006528,24.515156,48.156315,67.104469,81.804153,44.261959,75.281502,92.285545,104.982216,33.209587,69.011375,89.14769,103.071281,23.777206,57.157024,76.41893,90.282028,16.137577,41.633663,56.825763,69.011604,-12.659452,-9.860627,1.487753,9.766532,16.175335,34.609933,41.87188,46.305325,33.079671,50.603623,57.273791,60.765987,44.746671,62.423887,67.540415,68.725121,51.361214,67.411344,71.171376,70.981123,39.156395,302.910184,-69.577148,288.55015
9,1.397232,-3.497334,0.399845,-0.044744,-19.193069,-39.786278,-58.523346,-76.013328,-64.533142,-61.005718,-37.78347,-19.54248,-65.307998,-55.807342,-31.411995,-8.356315,-61.685303,-54.576439,-30.356827,-9.215812,-56.175785,-66.40686,-66.838291,-63.924099,23.834066,36.580018,47.194815,56.659153,26.574426,41.737746,48.279251,52.869592,21.59554,36.53021,44.5033,48.185317,15.155762,30.395714,37.007492,41.326884,8.850847,20.073565,28.436744,37.875888,24.430927,48.049965,66.97158,81.547497,44.049442,74.948673,91.947361,104.696812,33.044014,68.709617,88.915478,102.891895,23.615318,56.924457,76.229542,90.1142,15.923355,41.42165,56.607605,68.774998,-12.671691,-9.911312,1.556542,10.101602,16.101074,34.618639,41.877153,46.309116,32.987033,50.564164,57.25098,60.770248,44.693515,62.404707,67.518061,68.701792,51.391508,67.449431,71.140513,70.858363,40.8458,299.316482,-68.88513,288.409038
10,-2.08992,1.660691,0.391662,-0.053106,-16.841492,-35.482853,-52.57933,-68.148662,-61.116211,-55.660618,-33.496113,-16.445457,-62.160209,-51.540424,-27.989319,-5.952186,-58.772541,-51.035717,-28.097763,-8.103355,-53.440716,-61.418987,-60.720966,-57.389465,20.52806,32.630931,42.985944,52.064181,24.536638,39.432652,45.464396,49.76546,20.953175,35.398523,42.64712,46.491243,15.849009,30.310375,36.418343,40.642318,10.511155,21.608359,29.266262,37.706,24.308041,47.855988,66.76299,81.41383,43.903645,74.851674,91.877484,104.650303,32.893548,68.574978,88.837773,102.871525,23.401097,56.748608,76.076855,89.943615,15.629952,41.172249,56.36958,68.54242,-12.639494,-9.921685,1.58133,10.250902,16.135729,34.621888,41.820109,46.242056,32.972683,50.453866,57.118205,60.698815,44.662913,62.270314,67.383174,68.623913,51.37291,67.410715,71.09052,70.798342,38.974628,300.898797,-68.27472,288.277556
11,0.884285,-1.627432,0.172417,-0.127798,-18.201897,-37.864185,-56.219799,-73.099525,-63.038875,-58.486656,-35.178692,-17.060234,-64.316196,-53.701195,-29.194725,-6.173515,-61.158863,-53.251945,-29.000839,-7.883148,-56.137688,-66.190372,-67.262329,-64.936603,21.634652,33.648985,44.47235,53.862093,25.172123,40.908462,47.150799,51.419655,21.597923,36.595122,44.149569,47.769217,16.401799,31.607838,37.860153,42.049215,11.270698,22.758226,30.940563,40.136508,24.246231,47.770546,66.64167,81.25613,43.901001,74.913517,91.938572,104.694042,32.90411,68.539639,88.793415,102.828037,23.35865,56.602387,75.924786,89.739636,15.53429,40.998081,56.179928,68.327992,-12.600431,-9.919673,1.565187,10.380936,16.090058,34.480479,41.647009,46.058669,32.916996,50.328265,57.018083,60.675374,44.622502,62.215257,67.402439,68.740818,51.355557,67.448443,71.16525,70.892005,39.985336,299.224613,-67.97588,288.103006
12,-2.738823,1.718526,0.289719,-0.102988,-15.479988,-32.762649,-49.110294,-63.949276,-58.977665,-51.983677,-30.028839,-13.243446,-60.661457,-48.527973,-24.850227,-2.697143,-57.793648,-48.485607,-25.470108,-5.518066,-52.873043,-58.983318,-57.062164,-52.616398,19.184026,30.83639,41.152019,50.018192,23.714233,38.795228,44.394323,48.424846,21.017679,35.344232,42.36534,46.32968,16.600611,30.913689,36.934947,41.308741,11.888449,23.326799,30.690289,38.739121,24.245247,47.739635,66.52763,81.191631,43.996696,74.995846,92.064022,104.81702,32.989265,68.5391,88.781971,102.776928,23.366363,56.547283,75.79089,89.449848,15.399479,40.838344,55.922127,67.910785,-12.544657,-9.806484,1.826578,10.705385,16.194738,34.501351,41.612677,46.035785,32.970052,50.241284,56.922679,60.661814,44.65034,62.080357,67.263909,68.662371,51.410071,67.41174,71.035513,70.711756,37.340481,300.915395,-67.592193,287.972274
13,2.420243,-2.294324,0.441318,0.134592,-17.56984,-36.223744,-54.019513,-70.457486,-62.744637,-57.078393,-33.811776,-16.100602,-63.954403,-52.573082,-28.074578,-5.239266,-60.59198,-51.681244,-27.632332,-6.771492,-55.300026,-63.326569,-63.201027,-59.781922,20.320455,31.983429,42.602017,51.783044,24.674032,40.410655,46.478967,50.856763,22.116454,37.090373,44.522615,48.518423,17.766631,32.938127,39.187293,43.692344,13.367631,25.188129,32.870424,41.486311,24.240166,47.549183,66.193943,80.93866,43.772095,75.115242,92.297974,104.973175,32.715981,68.607216,88.888024,102.739128,23.098,56.639111,75.874924,89.315209,15.220459,40.91621,56.08263,68.031361,-12.544745,-9.88287,1.705237,10.645141,15.984847,34.245099,41.264564,45.635715,32.756136,50.036396,56.635699,60.350184,44.420653,61.80863,66.911795,68.346529,51.163513,67.098961,70.683362,70.406226,39.81728,298.598196,-67.094319,288.083991
14,-0.055985,0.014191,0.358853,0.09302,-16.961975,-35.11924,-51.974819,-67.363037,-62.663074,-55.707264,-33.246254,-16.224106,-63.377975,-51.652679,-27.757782,-5.107018,-59.43203,-50.002052,-26.610695,-6.158157,-53.483597,-59.361076,-57.328365,-52.352108,20.929005,33.086278,43.502708,52.6845,25.578613,41.016513,46.843887,51.291287,22.302593,37.334509,44.618501,48.911192,17.36319,32.235616,38.707517,43.6547,12.239573,24.226971,31.740736,39.769327,24.344581,47.386974,65.884769,80.817203,43.444954,75.120495,92.423893,105.028324,32.383907,68.68087,89.036693,102.808353,22.860122,56.702064,75.996517,89.334949,15.192306,40.982448,56.244186,68.217258,-12.419477,-9.895145,1.542106,10.463509,15.800387,33.928974,40.928729,45.312922,32.560783,49.815861,56.403951,60.164007,44.217309,61.580957,66.691162,68.250792,50.956613,66.897495,70.561147,70.42737,39.775812,298.594646,-66.720949,288.15927
15,-0.160469,0.091217,0.401333,0.094182,-16.955246,-34.681572,-50.917179,-65.83865,-61.831879,-55.147797,-33.237625,-16.493614,-62.269672,-51.07877,-27.707817,-5.274651,-58.189087,-49.057171,-26.289162,-6.120049,-52.058647,-57.495415,-54.700459,-48.903465,21.666911,34.056303,44.044544,52.801925,26.442428,41.082315,46.786213,51.230316,22.545384,37.082135,44.571707,48.929545,17.107223,31.535059,38.112601,43.132527,11.46284,23.149464,30.437569,38.174377,24.373844,47.226116,65.628753,80.641868,43.236408,75.034835,92.371101,104.90879,32.194164,68.641925,88.986419,102.648468,22.706108,56.648037,75.946289,89.209968,15.130279,40.962879,56.276275,68.271537,-12.404966,-9.96233,1.370662,10.329572,15.613666,33.653086,40.617976,44.978235,32.353363,49.701042,56.292824,60.045841,43.96533,61.449861,66.585482,68.210889,50.65001,66.660163,70.40887,70.383157,39.600449,298.672904,-66.33451,288.240493
16,0.746635,-0.441145,0.383548,0.100826,-17.137092,-35.078727,-51.402626,-66.61053,-62.295753,-56.079059,-34.087944,-17.288887,-62.57706,-51.915001,-28.478004,-6.104438,-58.246204,-49.549553,-26.743034,-6.567672,-51.936618,-58.040176,-56.05854,-50.969158,22.60737,35.320631,45.343278,54.129053,26.999306,41.451187,47.393318,52.14132,22.668984,37.104156,44.820178,49.39024,16.8373,31.292479,38.089519,43.403241,10.851956,22.561748,29.974972,37.929536,24.440552,47.173519,65.553108,80.723545,42.865711,74.835629,92.248684,104.788662,31.84417,68.602776,89.065968,102.73946,22.486771,56.689156,76.078457,89.377819,15.124787,41.115601,56.518009,68.566384,-12.386391,-10.011458,1.299278,10.261955,15.483743,33.435033,40.386449,44.786734,32.242805,49.59803,56.155862,59.914054,43.849524,61.324458,66.398353,68.046694,50.498833,66.464649,70.200857,70.190817,40.302211,298.217384,-65.995835,288.326944
17,1.987542,-0.461609,0.272312,0.089872,-18.212838,-36.981491,-53.738228,-69.328595,-63.766102,-58.439976,-36.472023,-19.369423,-63.651547,-53.914135,-30.624939,-8.091385,-58.997796,-51.146622,-28.323441,-7.90844,-52.360325,-59.226208,-57.589692,-52.595318,23.631834,36.663221,46.710136,55.708443,27.838704,42.249052,48.276966,53.00543,22.87008,37.611991,45.357456,49.780527,16.560152,31.210758,37.941108,43.09786,10.104689,21.926176,29.504767,37.508435,24.467961,47.084874,65.436024,80.683365,42.434487,74.696,92.198456,104.717057,31.419754,68.567837,89.18525,102.871994,22.166119,56.65868,76.209801,89.577095,15.034207,41.201844,56.798333,69.028084,-12.401125,-10.098922,1.109679,10.087263,15.251191,33.135765,40.070855,44.460741,32.055454,49.495302,56.010303,59.720268,43.681389,61.29462,66.371072,68.070245,50.305331,66.375394,70.213565,70.313082,42.195322,297.739636,-65.817954,288.400677
18,-1.087487,0.11309,0.14613,-0.046918,-17.28051,-35.319362,-51.666126,-66.865436,-62.346794,-56.02581,-34.143539,-16.818924,-62.920566,-52.048553,-28.678711,-6.002792,-58.855018,-50.049408,-27.094047,-6.582824,-52.643097,-58.303768,-55.394645,-49.425853,23.14046,36.018694,46.217553,55.470494,27.570225,42.0195,48.02295,52.653032,23.143659,37.782718,45.54803,49.939188,17.293944,31.913206,38.486352,43.424396,11.273921,23.34641,30.494515,37.936946,24.543079,47.184368,65.551483,80.773075,42.605724,74.720158,92.133946,104.626522,31.592651,68.620262,89.195652,102.894184,22.27327,56.575905,76.102902,89.485966,15.037365,41.113289,56.656025,68.850769,-12.416353,-10.14379,1.112656,10.071257,15.314361,33.037656,39.940821,44.348615,32.115907,49.376321,55.881554,59.613131,43.759812,61.234586,66.379235,68.141481,50.398414,66.437774,70.315342,70.434162,40.963279,297.84024,-65.81638,288.341273
19,-2.402298,1.485221,0.129467,-0.110595,-15.621048,-32.036258,-47.359108,-61.607883,-57.993713,-51.144138,-30.048591,-13.243103,-59.139679,-47.978943,-25.234657,-3.408966,-55.93507,-47.271011,-25.257774,-5.593391,-50.640701,-55.578437,-52.533016,-46.709198,19.263498,31.094543,41.345124,50.50192,24.952403,38.758177,44.414354,48.738674,22.564181,36.115988,43.521814,47.910687,18.51097,32.294724,38.356207,42.923946,13.997336,25.736361,32.384164,39.341953,24.544922,47.271366,65.701561,80.979012,42.746327,74.778122,92.152428,104.652741,31.696793,68.643173,89.193924,102.904656,22.301617,56.555649,76.079681,89.487099,14.958973,41.055359,56.592579,68.771324,-12.484488,-10.090919,1.226734,10.118163,15.450323,33.179225,40.045043,44.429989,32.263343,49.440764,55.86167,59.52526,43.889537,61.348898,66.442764,68.152633,50.466611,66.494832,70.320962,70.378068,38.376377,299.30848,-65.871517,288.213697
20,1.43335,-1.755774,-0.008491,-0.099134,-17.036041,-35.305241,-52.505219,-68.606472,-60.726711,-54.073998,-31.58963,-13.641998,-62.39415,-50.615135,-26.742188,-3.927155,-59.594158,-50.487991,-26.851707,-5.777596,-54.778461,-61.625656,-59.793182,-54.532105,19.919855,31.678047,42.734323,53.155261,24.766274,39.996149,46.169585,50.540069,23.031471,37.616696,45.239364,49.271864,19.401263,34.391015,40.406876,44.703889,15.499403,28.015507,35.102701,42.67608,24.670955,47.458328,65.941749,81.260284,43.014312,74.991165,92.333862,104.792038,31.952545,68.814479,89.324684,103.029739,22.527145,56.682621,76.161918,89.52333,15.126171,41.173656,56.658451,68.742485,-12.530456,-10.147828,1.190338,10.05456,15.573256,33.272752,40.128777,44.519021,32.373283,49.388881,55.768279,59.427472,44.005715,61.334881,66.466464,68.221694,50.58364,66.56167,70.359753,70.391604,39.587883,297.532038,-66.101852,288.093895
21,-2.126221,2.011902,-0.024296,-0.154043,-15.864715,-33.366428,-49.445892,-64.377125,-58.650593,-50.644409,-29.314728,-12.084114,-59.916137,-47.34938,-24.041176,-1.665733,-56.667904,-46.608478,-23.730606,-3.392669,-51.225437,-55.240013,-50.577152,-43.256653,20.06492,32.102113,42.285867,52.173232,25.17983,39.257763,44.881731,49.113289,22.029484,35.934998,43.19844,47.495935,17.07368,31.39186,37.512326,42.102197,11.668062,23.711664,30.641098,37.76796,24.738086,47.61787,66.158054,81.454387,43.281349,75.248234,92.584064,105.016376,32.207062,68.987217,89.437809,103.115604,22.719234,56.852485,76.3045,89.619564,15.220974,41.271023,56.75798,68.820648,-12.590785,-10.196104,1.158549,10.058722,15.653371,33.435329,40.289415,44.642856,32.445099,49.418447,55.774034,59.407392,44.061327,61.401399,66.550062,68.306639,50.64071,66.655704,70.444524,70.467051,37.207906,299.512015,-66.379904,287.907927
22,-4.472831,2.376119,0.038624,-0.233614,-13.871705,-29.704411,-44.523903,-58.263405,-54.452054,-45.119671,-24.191529,-7.719635,-55.888138,-41.70179,-18.640938,2.901351,-52.763455,-41.415699,-19.012848,0.620498,-47.450558,-50.937275,-47.161812,-40.798405,17.006953,27.238551,36.514192,46.028522,22.51194,36.102415,41.315212,45.39684,20.585685,33.121056,40.084094,44.604891,16.714416,29.906354,35.863935,40.672638,12.290506,23.536503,30.326158,37.457281,24.810848,47.759697,66.362789,81.671974,43.610664,75.442428,92.706092,105.112815,32.550544,69.163822,89.517608,103.166839,23.020237,57.100959,76.466674,89.707489,15.417755,41.449516,56.887836,68.884529,-12.584919,-10.207751,1.116571,10.059105,15.72494,33.60124,40.523066,44.897502,32.520583,49.459153,55.851864,59.481801,44.152804,61.447637,66.622767,68.361806,50.761222,66.753233,70.504422,70.477388,32.481137,301.852649,-66.595218,287.638828
23,-0.302399,0.050944,-0.07774,-0.091638,-13.103256,-29.033627,-43.968235,-57.722569,-53.170681,-43.240345,-22.471207,-6.554146,-54.978676,-40.370957,-17.649651,3.463989,-52.286762,-41.265381,-19.164368,0.256119,-47.582451,-52.471024,-50.597351,-45.951199,15.387252,25.178595,34.799544,44.443402,20.762526,35.095007,40.288303,44.177776,20.128226,33.045634,39.722694,43.971098,17.537883,31.061186,36.51045,40.966582,14.288255,25.899704,33.056922,40.591658,24.882477,47.95364,66.690285,82.145611,43.600731,75.471325,92.764057,105.181377,32.620605,69.241482,89.587337,103.21059,23.253914,57.396343,76.729877,89.931896,15.818172,41.918518,57.344375,69.277885,-12.581831,-10.242862,1.014967,9.971618,15.558029,33.565067,40.597167,45.01426,32.45188,49.540009,55.989334,59.603808,44.168489,61.597395,66.738685,68.400178,50.854602,66.862074,70.533828,70.406523,31.938389,301.852538,-66.913307,287.496135
24,0.691704,-0.740869,-0.034115,-0.072297,-14.03833,-31.396603,-47.420781,-62.27116,-54.943314,-46.304604,-25.60199,-9.383698,-56.160153,-42.350796,-19.483635,2.174629,-52.779534,-41.460217,-19.040635,0.676712,-47.467324,-51.815209,-48.63105,-42.879101,20.276353,31.50159,40.3833,49.707266,24.223662,38.024903,43.231735,47.212908,20.060202,33.283744,40.62672,45.028104,14.059667,27.972566,34.483443,39.493452,7.665486,19.164055,27.074369,35.002505,24.897034,48.086746,66.932636,82.424698,43.723972,75.637527,92.874207,105.175232,32.782528,69.396057,89.66391,103.151321,23.45977,57.672741,76.945221,90.032524,16.0597,42.252983,57.671791,69.561127,-12.642434,-10.360892,0.878573,9.895145,15.361403,33.419558,40.492808,44.902948,32.319536,49.504293,56.041068,59.685664,44.108109,61.581673,66.73083,68.382925,50.865679,66.884489,70.519526,70.351256,32.407614,301.060842,-67.169901,287.373011
25,-4.802079,1.359102,-0.011398,-0.099529,-11.457046,-26.739555,-40.923809,-54.223938,-49.772712,-40.416881,-21.546318,-6.703445,-50.458843,-35.879413,-14.191108,6.345566,-46.586082,-34.032989,-12.937957,5.32045,-40.77325,-41.984985,-36.557682,-29.446815,22.051554,34.566423,42.776437,51.015819,26.812597,38.97991,43.605523,47.434802,19.675262,31.574739,38.849382,43.616885,10.946187,23.394045,30.629279,36.316492,1.952177,11.889498,19.693046,27.310614,24.863994,48.200191,67.151985,82.744125,43.557026,75.623542,92.832344,105.040008,32.626945,69.502144,89.808677,103.269012,23.416877,57.995727,77.313492,90.426658,16.188881,42.610439,58.085975,70.03339,-12.701393,-10.415418,0.91766,10.045396,15.096876,33.33817,40.486027,44.945222,32.13132,49.474702,56.074462,59.74198,43.989635,61.582685,66.674093,68.287681,50.785996,66.867347,70.508794,70.361099,27.407587,302.359901,-67.379247,287.213439
26,3.154335,-2.167822,0.009384,-0.026639,-12.744278,-29.320907,-45.161418,-59.440189,-52.353458,-43.869129,-24.288871,-9.185577,-53.584281,-39.499946,-17.58078,3.208237,-50.240249,-38.465824,-16.597755,2.417839,-45.116855,-48.317276,-43.989795,-37.193298,21.156469,33.02785,41.963628,50.684565,25.496806,39.458389,44.811039,48.829817,20.098264,33.410221,40.997284,45.63611,13.082467,26.600719,33.716984,39.114687,5.975463,16.932259,24.828976,32.506553,24.837719,48.296264,67.376552,83.154625,43.429401,75.600746,92.766975,104.877205,32.546802,69.627216,89.977295,103.428383,23.45438,58.357876,77.704307,90.845283,16.376221,43.024303,58.533462,70.517258,-12.704604,-10.445132,0.900111,10.081532,14.837697,33.252115,40.495636,45.030796,31.895557,49.383274,56.036448,59.682007,43.83085,61.532593,66.616097,68.194438,50.689801,66.832261,70.4928,70.349601,30.38443,300.136032,-67.547355,287.130753
27,6.732766,-3.498902,-0.045387,-0.121068,-15.060883,-35.342904,-53.714047,-69.989216,-58.675873,-52.545594,-33.106316,-17.25364,-59.536126,-48.048729,-25.967125,-4.167023,-55.757859,-45.790238,-23.264397,-3.472618,-50.066975,-53.90371,-47.609608,-38.852497,27.670446,42.345481,51.681093,60.716438,30.571777,45.459751,51.80678,56.291008,21.402717,36.89571,45.45596,50.129293,10.873988,26.215211,34.522827,40.302851,0.536265,12.469125,21.093866,28.988249,24.83527,48.403129,67.584377,83.606002,43.337173,75.718185,92.880661,104.869537,32.438346,69.766285,90.139686,103.545318,23.41436,58.624569,78.035156,91.231979,16.463207,43.32938,58.86359,70.82357,-12.812593,-10.498237,0.922143,10.055387,14.645641,33.190216,40.458042,45.028869,31.760311,49.375617,56.051022,59.698396,43.762714,61.589046,66.642094,68.238194,50.647033,66.860221,70.498506,70.360605,36.941357,296.584265,-67.768581,286.95682
28,1.168281,0.772781,0.044117,-0.332316,-13.84465,-34.025722,-51.748741,-66.865619,-57.317642,-51.598823,-33.840248,-18.843132,-57.821079,-47.616062,-26.70488,-5.666519,-53.728878,-44.603084,-23.397446,-4.716591,-47.527908,-49.601852,-41.286587,-31.162903,28.779163,44.433744,53.260731,62.065562,32.280238,46.342598,52.430484,56.667328,20.797181,36.004677,44.564754,49.25518,8.233096,22.746753,31.639985,37.613535,-4.241067,6.207522,14.215501,21.047851,24.903408,48.495712,67.698795,83.847827,43.4122,75.90073,93.103511,105.09518,32.381012,69.924236,90.393344,103.854229,23.235328,58.645328,78.170528,91.481563,16.174507,43.091056,58.639286,70.544448,-12.862994,-10.524963,0.976212,10.13628,14.596896,33.1895,40.375037,44.920757,31.726448,49.452163,56.044933,59.653096,43.711326,61.656798,66.687135,68.30586,50.522174,66.756481,70.404584,70.280626,37.925388,297.309714,-67.908714,286.577172
29,0.81498,0.314582,-0.117234,-0.552988,-12.032067,-30.086094,-45.887055,-59.067524,-53.906765,-48.118161,-30.983071,-16.859528,-54.939904,-45.677033,-25.535637,-5.717743,-51.606777,-44.01186,-23.679863,-5.788559,-46.089226,-48.394627,-40.449131,-31.002686,21.181935,33.97042,42.746759,51.174666,27.983422,42.457644,48.143955,51.791478,21.032351,35.586737,43.396707,47.677369,12.918062,26.386902,34.170788,39.354871,4.585635,14.543469,21.314414,27.181037,25.079201,48.66132,67.911679,84.19582,43.532856,76.17619,93.402134,105.412045,32.489388,70.119999,90.677616,104.315472,23.333828,58.631962,78.190007,91.642514,16.2472,42.962689,58.414765,70.307648,-12.899648,-10.595246,0.868248,9.870174,14.472654,32.963556,40.140868,44.758477,31.645481,49.299541,55.902476,59.54307,43.650959,61.586971,66.704401,68.381653,50.426474,66.706167,70.454479,70.362063,38.533516,297.564312,-68.2328,285.9642
30,7.588119,-3.063302,0.000355,-0.903346,-15.357513,-36.772613,-55.391464,-70.742294,-61.939247,-57.683429,-39.532585,-24.502235,-62.716129,-55.475521,-34.553924,-13.78878,-58.819324,-53.438816,-31.951103,-12.891174,-52.551143,-57.159473,-50.20586,-41.051765,23.036769,35.665272,44.490295,53.313156,27.803394,43.818598,50.570858,55.137832,21.133671,37.355491,46.160767,51.327387,13.360368,28.409796,36.897859,42.68922,5.483659,16.704363,24.116302,30.785087,25.461342,48.735134,67.842522,83.986084,44.195869,76.651222,93.761765,105.760757,33.238472,70.382629,90.839905,104.636032,23.911961,58.466171,77.956032,91.577843,16.459969,42.550804,57.83844,69.83765,-12.871787,-10.915868,0.186239,9.201824,13.896337,32.056318,39.340891,44.109727,31.106239,48.605206,55.527934,59.438834,43.224386,61.122126,66.663274,68.699371,50.147238,66.483198,70.504928,70.58513,45.90679,294.443471,-68.44729,285.003315
31,-0.556984,-1.042866,0.39838,-2.073666,-14.538597,-35.903755,-53.751663,-68.89294,-61.12342,-58.184578,-41.172065,-26.561622,-60.93259,-54.919544,-35.016632,-14.799865,-56.111,-50.991977,-30.998291,-12.799621,-48.691864,-50.967739,-42.411564,-32.548828,25.092947,38.779642,46.974378,55.736268,30.226493,45.175774,51.982559,56.503825,21.515523,36.766763,46.525934,52.348714,11.84941,25.981955,35.660542,42.005952,2.031181,12.444647,20.318207,26.938963,26.143078,49.234715,68.147473,84.077145,44.647454,76.642971,93.59103,105.596707,33.644142,69.833771,90.19273,104.370655,23.885571,57.208752,76.522236,90.365719,15.729653,40.772438,55.89917,68.045185,-12.77385,-11.017545,-0.548998,7.903374,12.356443,30.557241,38.30162,43.477403,29.438472,47.614681,55.43931,60.188757,41.695953,60.41648,67.089402,70.1397,48.974586,65.966879,70.883385,71.682275,45.127441,293.350745,-68.271275,282.879789
32,-2.148422,-2.022585,0.572022,-3.234993,-16.073936,-36.898235,-54.26548,-69.677067,-61.47377,-59.931129,-43.252052,-28.6436,-59.97076,-54.0863,-34.655445,-14.602295,-53.843788,-48.23917,-29.190903,-11.074127,-45.156303,-46.616981,-38.169468,-28.075127,25.331599,38.776196,46.913381,55.951801,29.937933,43.89796,51.202219,56.201322,20.898327,35.229215,46.19489,53.056892,11.07438,24.48631,35.150755,42.26728,1.61917,11.679497,20.014148,27.21306,26.575996,49.90123,68.835834,84.652256,45.261051,76.341625,93.071743,105.005207,34.213302,68.856159,88.879177,103.042911,24.064922,55.735359,74.660122,88.460758,15.213466,39.321098,54.039539,66.08329,-12.821398,-11.08494,-1.064441,6.767203,10.120238,28.589181,37.266522,43.418518,26.689381,46.076095,55.280402,61.183667,39.13383,58.776167,66.805079,70.990744,47.16804,64.83781,70.725699,72.459527,42.765673,291.272279,-67.912599,279.588915
33,-3.543159,-2.937566,0.92704,-5.757003,-17.876038,-38.571179,-55.276154,-69.698548,-60.512753,-60.951863,-46.087727,-32.616383,-57.338276,-52.39349,-34.190621,-15.546547,-49.543866,-44.536046,-27.100342,-10.216187,-39.218331,-40.458779,-32.043721,-22.054001,24.938299,38.124482,46.318255,55.940748,28.43063,40.647739,48.420783,54.172525,18.908371,32.069212,43.740953,51.005482,8.826912,21.454291,32.589014,39.661351,-0.461696,9.321323,17.903951,25.002297,27.162552,50.769974,69.229717,84.569996,45.170334,74.83057,90.890224,101.875729,33.989239,66.111008,84.842708,97.822048,23.429935,52.291225,69.953751,82.653248,14.123028,36.485115,50.202038,61.168751,-11.63957,-8.858455,0.773461,8.031345,7.509147,26.622999,36.76869,44.20607,22.999361,43.829566,55.120801,62.926634,35.546365,56.424204,66.124774,71.957286,44.75313,63.136697,70.062351,72.963793,39.020474,288.282219,-67.187599,273.779418
34,6.769546,-11.073467,-0.306427,-10.717006,-22.818375,-46.44183,-63.694153,-78.193508,-66.373352,-71.553715,-61.652733,-51.868778,-61.151619,-61.536209,-48.556,-34.337894,-51.503323,-51.243439,-37.381336,-23.320576,-39.56591,-43.795601,-37.788448,-29.802063,27.388074,43.615946,53.720388,64.42234,33.467081,47.507655,57.028506,64.693091,23.100212,37.880605,49.592806,57.181338,11.996376,25.420446,35.038789,40.817195,1.499745,11.635692,19.403783,25.606031,29.504288,53.488827,71.152599,85.162846,51.498447,79.289257,91.737545,98.538929,40.411549,69.575272,82.923946,90.46685,28.850704,53.964409,66.106373,73.528301,17.610123,37.693806,47.568695,54.422333,-9.717947,-5.730315,4.720905,13.196396,7.598573,29.134178,42.22592,50.898629,21.54625,46.036068,60.354408,69.642349,33.976065,57.688606,70.485699,78.441758,44.097747,64.451535,73.682728,78.644584,45.719507,277.171445,-67.564539,263.025105
35,4.476288,-10.433152,-1.838951,-14.771242,-24.726402,-47.307873,-61.213486,-71.317589,-63.636028,-73.882622,-69.264336,-63.353691,-56.535587,-64.298733,-58.759461,-50.810417,-45.613712,-50.763084,-41.583103,-30.970539,-32.849854,-38.968208,-33.574493,-26.38765,19.972492,35.205886,46.379759,57.973362,30.272831,44.931761,55.272917,63.184071,24.660953,40.374346,52.589578,60.436931,17.845424,32.085181,39.411188,42.610538,10.888006,20.83638,25.847191,28.677571,28.853897,53.084862,70.179073,84.017956,56.594856,82.172115,92.389858,96.252216,46.707081,72.871696,82.4183,85.716522,35.47744,57.594051,64.921703,67.531608,23.803894,42.068012,49.187782,52.954078,-10.195042,-5.73013,5.23331,14.423192,7.76467,29.825449,44.722563,54.968759,21.240734,46.891583,63.485314,75.084104,33.313668,57.576813,72.646853,82.987762,43.25052,63.481819,74.160775,81.200063,50.210186,266.71178,-69.389099,248.22735
36,5.930809,-14.255898,-5.56675,-19.719327,-25.97493,-47.252873,-58.657379,-65.502319,-61.738163,-75.625546,-76.329002,-74.69418,-53.910645,-67.657173,-68.402458,-65.557354,-42.641235,-52.502392,-45.888691,-37.551716,-29.994667,-39.130097,-35.467186,-29.608429,13.029251,27.339007,40.204125,52.214407,26.987524,42.070951,52.622528,60.942532,26.419445,42.973224,54.451501,62.060301,24.258625,38.342202,41.955601,42.352088,21.363457,30.320428,32.243682,32.456079,28.404236,53.231919,69.987076,82.628998,56.864113,82.824188,91.700878,93.010632,47.468388,73.79591,81.759155,82.327732,36.643524,58.681893,64.432892,64.645867,25.513493,44.327477,50.617584,52.953266,-10.822316,-7.291859,3.287752,13.570209,0.416074,18.369932,34.618837,45.485403,13.006526,35.821513,53.073763,64.400616,25.887563,48.900484,64.062236,73.520065,37.868922,57.295799,67.865185,74.475369,56.113209,252.660909,-74.983635,228.71305
37,11.407265,-21.443726,-6.404337,-22.453975,-27.515099,-49.36718,-60.149838,-65.164547,-61.72617,-80.708851,-86.327809,-88.667691,-53.772629,-75.155743,-81.600472,-83.423636,-42.921444,-59.36126,-55.485764,-49.463322,-31.2491,-44.657341,-42.985188,-38.865864,5.123568,18.632594,33.512282,46.450994,22.663093,39.482244,50.409363,58.979011,28.029259,45.836658,55.542872,61.77431,31.292466,45.562301,45.325093,42.509558,32.665641,40.843816,39.642511,36.935318,28.874663,53.36578,68.981627,78.687601,57.014878,81.46344,89.102211,88.649792,47.065275,71.554041,78.065232,76.761784,35.868736,57.473763,61.810124,59.822926,24.931383,44.052121,49.721638,50.635494,-10.274126,-7.973244,1.293473,11.881921,-8.245326,2.963337,18.109747,28.354792,2.508039,18.888969,34.656634,44.973952,15.292026,36.809189,52.603496,61.681103,28.717816,47.170942,57.861957,64.058556,67.367815,231.582622,-81.540631,206.624514
38,16.936477,-27.769382,-7.409534,-23.791952,-30.506721,-54.742607,-66.853065,-72.744209,-66.79993,-91.484081,-100.5363,-105.30701,-58.865753,-87.730339,-98.476764,-102.996397,-48.499111,-71.238258,-69.866432,-65.118335,-37.832931,-55.160705,-55.043255,-51.778026,-2.792687,9.687614,26.352754,40.395156,17.772756,37.790727,49.692662,58.848815,29.622654,49.310415,57.08037,62.143354,38.730093,53.783145,50.309203,45.292352,44.700586,53.042807,49.287184,44.537213,29.799963,53.380085,67.768049,73.395052,58.026626,79.161793,85.984566,85.18111,46.584062,67.567446,73.344143,71.651115,34.313072,55.927345,59.585987,56.289287,23.01911,43.270351,48.855972,49.052112,-10.074512,-10.100311,-2.886894,6.975592,-18.535483,-16.87804,-5.331698,3.323021,-10.352009,-3.814113,8.153567,16.342984,1.630649,21.07666,37.9603,46.84753,15.957692,33.263489,44.273038,50.100616,84.035665,204.440736,-89.218792,183.460058
39,8.395661,-24.211262,-6.367916,-21.568048,-31.563492,-57.32119,-72.261681,-80.251957,-67.73592,-95.016301,-103.077748,-106.016842,-60.346253,-90.866295,-99.543972,-101.237589,-50.549618,-74.396141,-72.127567,-65.914765,-40.502655,-59.113724,-58.227734,-53.354634,-6.632488,4.039193,20.4846,34.620553,13.468246,31.00721,40.188779,46.849586,26.79656,44.232246,49.068736,51.97952,37.151505,50.535234,45.720233,40.221804,44.047822,51.427947,46.65138,41.321165,29.143793,51.889721,64.924078,67.618154,52.10614,69.431694,77.634739,79.563583,39.628847,56.991674,65.697612,67.920765,27.093269,48.444648,55.230526,54.636165,16.670454,37.020561,45.186653,47.641903,-11.431045,-14.947355,-12.193373,-6.463947,-33.271354,-41.443064,-36.915206,-32.520364,-27.605013,-32.18492,-26.702527,-22.630992,-16.887824,-3.864659,11.960295,20.195324,-2.622673,10.216204,20.117777,25.08172,91.946245,181.543998,-96.071789,163.206534
40,7.730896,-30.201096,-2.46801,-25.240975,-31.589882,-59.616783,-77.450615,-88.452427,-68.667607,-98.528321,-107.135113,-109.724694,-62.187104,-94.213085,-101.316319,-101.055777,-53.441769,-79.212754,-76.943882,-70.210419,-44.413765,-64.539185,-63.580845,-58.251492,-9.340972,0.272659,16.862994,31.464367,7.831385,24.587724,33.261267,39.41564,22.379492,38.53926,41.084526,41.988718,34.245173,45.673371,40.002942,34.248452,42.407083,48.35518,43.274319,38.081164,29.035703,50.409347,60.78301,59.408483,44.140285,58.090759,66.245132,69.980209,29.014623,42.8327,53.046432,58.539837,14.844452,35.281093,44.462002,46.350437,3.932093,23.908802,33.410373,36.960331,-9.993082,-16.695305,-17.978639,-15.37271,-47.674378,-64.906399,-66.108942,-65.679761,-45.169479,-59.872749,-59.808115,-58.944983,-35.511211,-26.210447,-10.767518,-3.322666,-20.491291,-10.294072,-0.42627,4.105093,98.979166,153.008993,-99.237774,139.63165
41,9.094894,-28.584173,1.166759,-24.033211,-32.88826,-62.792839,-83.170738,-96.290989,-70.038105,-102.022865,-111.806316,-115.308185,-64.424881,-98.420826,-106.053738,-106.482862,-56.687656,-85.579353,-83.805919,-76.863579,-48.509582,-70.80693,-70.057285,-64.576961,-12.219912,-3.98623,12.086847,26.476373,1.188282,16.088465,23.891383,29.653542,15.999872,29.671283,30.793436,30.938797,28.517983,38.979176,33.769967,28.587891,37.431093,42.982295,38.224178,33.421287,28.28694,47.612961,54.759493,50.187784,41.024071,49.572636,56.837895,62.048676,24.005499,31.591353,40.768501,47.560845,8.186371,25.050591,33.426453,35.261971,-4.11886,13.257832,22.132508,25.054093,-8.321844,-17.16998,-21.348748,-22.158388,-53.907946,-75.867461,-82.851973,-86.370558,-54.049571,-75.550382,-80.517746,-82.193266,-46.687708,-40.183874,-23.397991,-13.882506,-33.363924,-25.908658,-15.117928,-8.927899,107.333427,126.228889,-98.811648,117.402508
42,6.080406,-24.439405,-0.602834,-22.874094,-32.969879,-62.530174,-83.92884,-97.357177,-69.237533,-101.990844,-113.058998,-117.959301,-64.897087,-99.96405,-109.161689,-111.665096,-58.42234,-88.937256,-86.3199,-78.607429,-51.268867,-74.758484,-73.573311,-67.524353,-14.705681,-8.010986,7.291211,20.905491,-4.596805,7.114555,13.07644,17.956866,9.943552,20.346026,20.384565,20.747447,22.727196,31.549175,26.601195,22.396084,32.296386,36.99805,32.541831,28.544696,28.012069,46.618698,51.785682,45.084331,39.513198,45.227291,51.512432,57.245819,22.066577,26.714286,34.796802,41.94207,5.573467,20.02478,27.627513,29.420036,-7.649769,7.462898,15.832775,18.541557,-8.393129,-18.855902,-25.776493,-29.037823,-58.681688,-81.693121,-92.882278,-100.374332,-60.752316,-84.693179,-93.83329,-98.744763,-55.073587,-51.469778,-34.200657,-23.20386,-43.340817,-38.02415,-26.442854,-18.785167,112.839866,104.011193,-99.988449,96.750123
43,2.313744,-20.530042,2.128326,-23.905351,-31.737969,-60.112976,-81.695938,-94.566902,-66.614845,-98.544891,-110.874321,-117.527172,-63.5728,-98.598175,-110.022446,-115.216976,-58.303459,-89.589958,-85.718216,-77.095596,-51.916786,-76.081421,-74.2836,-67.551819,-16.503755,-11.433632,2.62895,15.004504,-9.182786,-1.294764,2.495433,6.295442,5.147805,12.351422,12.12126,13.297062,17.975045,25.306591,20.196176,16.649319,27.929211,31.665778,27.235235,23.819122,25.766064,43.988319,47.531937,40.48439,36.825531,42.068951,47.276115,52.857582,19.766922,24.035786,31.567612,39.462044,3.18861,16.140816,22.738529,24.418167,-10.709576,2.542236,10.264172,12.860172,-8.284423,-20.701801,-29.089835,-33.913017,-60.813275,-83.73404,-96.796327,-106.812534,-63.22821,-88.12597,-99.101433,-105.757244,-58.452403,-56.908821,-39.431361,-27.317406,-48.241978,-44.723674,-32.333324,-23.094697,114.535841,85.90428,-98.477892,75.267901
44,1.624901,-19.124763,1.802307,-22.633804,-29.598175,-57.143006,-78.144974,-89.692292,-63.914818,-95.699158,-110.46032,-120.3074,-61.927849,-98.021439,-113.960312,-124.030735,-57.873871,-90.861855,-86.797234,-77.886589,-52.472168,-78.044129,-75.934204,-68.855805,-18.943971,-15.630623,-2.2876,10.201285,-18.234601,-10.823563,-5.705701,-0.642785,-2.314412,4.54893,6.612166,9.553338,12.708574,20.83131,16.623093,13.353755,25.265317,28.654933,24.322672,20.910356,23.893845,41.819115,44.457184,36.667854,35.19698,40.583542,45.500656,51.184376,17.930866,22.974655,30.270287,38.294335,1.054093,14.077194,20.272545,22.135689,-13.313095,0.017544,7.568745,10.28001,-7.701814,-20.509591,-29.767083,-34.753052,-61.189793,-85.021932,-98.33508,-108.824659,-63.682614,-89.483572,-101.241036,-108.106397,-59.122988,-57.720939,-39.889569,-26.955877,-49.320931,-45.998321,-32.899391,-22.670528,115.572527,69.544176,-97.2638,55.398756
45,0.89257,-12.592749,-0.197433,-16.136741,-28.268005,-54.42913,-74.995102,-85.99926,-62.254669,-93.580856,-110.101616,-122.295158,-61.035553,-97.013328,-115.803177,-129.17221,-57.655266,-91.115135,-86.99929,-78.13108,-52.771499,-78.658928,-76.800178,-69.963638,-20.333361,-18.191524,-5.731908,5.732963,-21.631355,-16.07811,-11.904918,-7.072948,-6.016164,-1.034876,1.480472,5.147285,9.01028,16.822837,12.919168,9.840805,22.078316,25.787268,21.478973,18.087856,24.18536,42.790306,46.019691,37.495044,36.389957,42.181274,46.985595,52.494552,19.258438,25.394153,32.459072,40.096023,2.209911,15.760746,21.767841,23.442443,-12.433331,1.29784,8.963585,11.792255,-7.511876,-19.869289,-29.860894,-35.789774,-61.60935,-84.746037,-98.508877,-110.109253,-64.763085,-89.698779,-102.787674,-111.791977,-60.506389,-59.44191,-41.357518,-28.011914,-50.921724,-47.336279,-33.913592,-23.309089,115.906729,59.490026,-98.019601,41.800614
46,-1.22921,-11.211405,-0.107518,-12.201042,-26.585655,-52.643097,-73.336601,-84.01799,-60.882934,-91.914688,-108.98751,-121.848221,-59.813026,-95.574325,-115.632911,-130.615093,-56.486664,-90.107574,-86.332214,-77.868828,-51.580627,-77.920555,-76.386429,-69.808502,-21.962473,-21.094429,-9.291819,2.116767,-24.479815,-18.901449,-14.919604,-10.320359,-7.939887,-2.977463,-0.356924,3.268955,8.06645,16.254616,12.124705,8.675346,22.230272,26.155418,21.405867,17.554432,24.693123,44.400856,48.357285,38.941258,37.971188,43.702996,48.566643,54.031254,21.090329,28.283204,35.719025,43.618641,3.954495,18.630215,24.30724,25.711098,-10.81192,3.990784,11.705052,14.598072,-6.966737,-18.76645,-29.647985,-36.210281,-61.242126,-84.304966,-98.400412,-110.407205,-64.978847,-89.498163,-103.32455,-112.955533,-61.136422,-59.692765,-41.448068,-27.705403,-51.912213,-47.757861,-33.970421,-22.88742,114.25268,50.540048,-98.551958,31.860999
47,-2.286232,-8.61438,3.3811,-9.254176,-24.828003,-51.388527,-72.0485,-83.028831,-59.708015,-90.471473,-107.85569,-121.09869,-58.322387,-93.667259,-114.177131,-129.721882,-54.661308,-88.666259,-85.978386,-78.312561,-49.351364,-76.27256,-75.38713,-69.258316,-22.348506,-22.365252,-11.295028,-0.00825,-26.038198,-19.458938,-14.889074,-10.112266,-8.875115,-3.127486,0.177452,3.671062,7.83714,17.288244,13.500974,9.507914,22.854062,27.802456,23.070824,18.707824,23.561588,43.229656,47.463501,37.82943,37.846333,43.327618,48.190842,53.706207,20.891213,28.487606,36.622994,45.400326,3.371613,18.608345,23.904739,25.106255,-11.671589,3.784756,11.594891,14.685516,-5.474835,-16.831674,-27.688138,-34.955575,-60.080761,-84.182114,-97.964701,-109.541088,-63.935549,-89.101572,-102.787217,-111.875037,-60.378404,-57.952533,-39.243881,-25.018754,-51.307318,-46.812549,-32.881872,-21.282996,111.519201,43.681121,-95.618105,24.362276
48,-2.632759,-5.269182,1.79306,-3.238309,-23.099876,-49.638153,-69.74247,-80.762993,-58.258369,-89.095917,-106.701736,-120.244526,-56.512298,-91.512405,-112.217262,-128.162349,-52.506111,-86.395935,-84.91127,-78.2826,-46.96273,-74.023819,-73.77697,-68.278839,-21.958057,-22.516559,-11.640687,-0.498585,-26.85316,-19.279157,-14.151977,-9.269391,-9.807299,-3.488379,0.578324,4.238839,7.238977,17.579429,14.777016,10.857372,23.029749,28.880489,24.665906,20.361075,23.457802,43.326176,48.47152,39.01434,39.230381,44.22258,49.033734,54.523144,22.688748,30.495255,38.857441,47.578755,5.17416,20.59702,25.465348,26.337159,-9.950592,5.521786,13.227723,16.37986,-5.09034,-14.781363,-25.619048,-33.782181,-58.560231,-82.345613,-95.921775,-107.373241,-62.943436,-87.368126,-101.213198,-110.296758,-59.802113,-56.716432,-38.336595,-24.480605,-50.927566,-45.633561,-32.084915,-20.823746,108.622965,39.660943,-94.088522,22.372971
49,-2.663383,-2.818856,3.367402,0.181083,-21.968262,-48.330368,-67.906952,-78.773918,-57.363007,-88.045212,-105.773209,-119.565674,-55.363152,-89.811585,-110.46444,-126.564583,-50.848755,-84.357491,-83.33281,-77.240181,-44.741158,-71.49598,-71.87098,-67.028298,-21.367526,-21.880907,-10.608017,0.647193,-26.356398,-18.399635,-13.14817,-8.303257,-9.673734,-2.943741,1.473556,5.330832,7.307204,18.472469,15.972793,11.968681,23.282221,29.869563,25.86198,21.511503,22.850704,42.349697,48.048179,40.336578,39.677352,45.218341,50.691146,56.815532,23.666656,31.317981,40.371688,49.970146,6.461586,21.855731,26.236736,26.862258,-8.392743,6.647483,13.848953,16.886535,-3.884786,-13.159575,-23.449157,-31.537208,-56.275954,-80.082658,-92.995114,-103.531371,-60.895712,-85.567799,-98.740267,-106.798684,-58.195126,-53.521886,-35.175116,-21.549227,-49.662263,-43.067152,-29.830648,-18.782184,105.84482,37.040077,-90.835882,22.752044
50,-2.413605,-0.783329,2.8423,3.19693,-21.038292,-47.515686,-66.945831,-77.773979,-56.372154,-86.963493,-104.792084,-118.874519,-54.169807,-88.532204,-109.317078,-125.720421,-49.552757,-83.179756,-81.659775,-75.33149,-43.295357,-70.265327,-70.248184,-65.049339,-20.751269,-21.277858,-9.878399,1.503672,-25.809807,-17.819316,-12.606032,-7.768066,-9.302237,-2.762442,1.625684,5.550652,7.690619,19.058314,16.574342,12.535439,23.889876,30.606567,26.81143,22.680389,22.841618,41.740688,48.618027,44.915096,40.868225,47.397915,53.435268,59.294643,25.421207,33.807003,43.419468,52.821842,8.927982,24.261234,28.454132,29.355698,-5.385166,8.738766,15.390575,18.60688,-2.465922,-11.067452,-20.452496,-27.407754,-52.918664,-76.796165,-86.305272,-92.815037,-57.194269,-80.946503,-90.588812,-94.68613,-54.469829,-47.149076,-29.114103,-15.787475,-46.133881,-38.166182,-25.03455,-14.156331,103.443409,36.304478,-87.981388,25.996704
51,-2.070419,0.275351,3.360443,6.896758,-20.052246,-46.332184,-65.58696,-76.527283,-55.535019,-86.46579,-104.294712,-118.195587,-53.355378,-87.904816,-108.648983,-125.014355,-48.664467,-82.34832,-80.061837,-73.307465,-42.305237,-69.412468,-68.79007,-63.110527,-20.187321,-20.657248,-9.515843,1.439575,-25.125427,-17.163447,-12.10883,-7.719283,-8.665528,-2.256928,1.988431,5.607253,8.371257,19.424204,17.149368,13.250095,24.698806,31.134052,27.631049,23.843829,22.823204,40.806999,48.710255,48.375784,43.235447,52.067059,59.296475,65.611593,28.109528,37.667942,47.433506,56.082453,11.982187,26.698723,30.73114,31.519804,-2.275789,10.830145,16.914087,19.763306,-0.536367,-6.981325,-14.109256,-19.590611,-47.199313,-69.737006,-76.439791,-80.027157,-51.751232,-73.756708,-79.688665,-80.553952,-49.307352,-39.899056,-22.197013,-9.782963,-41.142891,-31.294235,-18.427496,-8.371985,101.332907,36.618152,-84.661028,32.931785
52,-1.43248,1.152763,3.131149,9.513738,-20.411751,-46.90242,-66.422264,-78.043739,-55.707688,-86.35009,-103.087223,-115.56213,-53.307427,-87.629105,-107.062191,-122.142872,-48.199425,-81.263718,-78.640457,-71.891304,-41.38575,-68.515114,-67.782852,-61.911713,-19.719148,-20.073589,-9.380771,0.400593,-23.126548,-14.271749,-9.460447,-5.705775,-6.171071,1.275572,5.230921,8.259828,10.815986,21.590995,18.702736,14.437518,26.788193,32.95601,28.920805,24.717739,23.331208,40.718788,49.10693,50.993895,46.870606,59.163975,68.525265,76.454459,31.853451,43.006634,52.716408,60.439413,15.784384,29.937012,33.740387,33.939268,1.105002,13.668726,18.976633,20.637509,2.294445,-0.999724,-5.124898,-8.920844,-38.940585,-59.333618,-64.021802,-65.849861,-44.269849,-64.159434,-66.310272,-64.595577,-42.462078,-31.095016,-13.770224,-2.830157,-34.704528,-22.490164,-9.885852,-1.180069,99.806883,37.752281,-81.623423,42.426889
53,-1.15464,3.086928,1.900097,8.616331,-20.686684,-47.087334,-66.553391,-77.931015,-56.316262,-86.077652,-100.12801,-109.425225,-53.90561,-87.976891,-106.732396,-121.099938,-48.427689,-80.754891,-77.140618,-69.789185,-41.173096,-68.063485,-66.652222,-59.954979,-19.506789,-19.819974,-9.444911,0.161508,-21.297551,-11.303333,-6.745936,-3.703426,-3.738092,4.600523,8.511707,11.198523,13.251836,24.00567,20.236962,15.22914,28.707217,34.941748,30.274905,25.419841,24.236584,41.3302,49.828457,52.966055,49.903462,65.491093,76.464192,85.502283,34.770218,48.062782,57.474827,64.218069,18.886591,33.067578,36.943897,36.938936,4.043146,16.967531,21.99119,22.911804,4.925149,4.421395,3.455711,2.216356,-31.870631,-49.333472,-51.167953,-50.660025,-37.297443,-53.57952,-51.194808,-46.664301,-35.506709,-20.9817,-4.244315,5.323615,-27.591374,-12.882991,-0.729457,6.868178,98.531674,40.977135,-79.843895,51.181146
54,-0.703537,3.867996,0.764019,7.654619,-21.318512,-47.391198,-66.443207,-77.738114,-57.39917,-86.157875,-97.541462,-103.474057,-54.735764,-88.357224,-105.731724,-118.758133,-48.719147,-80.069138,-76.345642,-69.231423,-40.91153,-67.294716,-65.871964,-59.1194,-19.096173,-19.250197,-9.617169,-0.755016,-19.194961,-8.29455,-3.868027,-1.522981,-1.247247,8.264428,12.278131,14.480175,15.595746,26.317328,22.518418,17.229631,30.516109,36.964248,32.152458,26.913726,25.013443,42.009808,50.767365,53.953074,53.095528,70.378144,81.550747,89.750559,37.703213,52.870835,61.785118,66.679716,21.683722,35.959729,40.148941,39.76977,6.390147,19.663016,24.852751,25.18467,7.536437,10.459238,12.716438,13.284758,-25.50787,-40.5084,-38.86014,-35.105184,-31.292834,-43.898822,-36.625084,-28.769002,-29.597782,-12.542302,4.145249,13.045694,-21.519315,-4.583385,7.521157,14.356588,97.686694,44.982229,-79.221319,58.972863
55,-0.262871,4.39889,0.424565,6.766678,-22.11042,-47.880226,-66.580628,-77.66906,-58.631287,-86.551346,-94.952969,-97.417854,-55.798988,-88.819954,-104.28027,-115.388935,-49.396225,-79.763374,-76.088104,-69.136826,-41.249977,-67.248276,-65.846855,-58.935288,-18.816117,-18.803699,-9.63199,-1.309276,-17.839873,-6.148933,-1.636899,0.110675,0.517734,11.401207,15.514556,17.181891,17.35985,28.257513,24.513283,19.117581,31.840241,38.67369,33.755609,28.26086,25.221439,42.52581,50.89476,51.825639,55.398033,73.618103,85.148826,93.337869,39.758399,55.839305,64.838997,69.329996,23.178995,37.498741,41.504287,40.283529,7.054773,21.454622,26.784055,26.22401,9.788462,15.769557,21.034052,22.170778,-20.065664,-32.890635,-30.166268,-25.898784,-26.699721,-37.605628,-28.632055,-20.363647,-25.684411,-7.103159,9.628748,17.613255,-17.617634,1.675403,13.359856,19.001941,97.302555,49.489714,-78.918022,65.848136
56,0.099998,4.764371,-0.995453,4.034935,-23.362175,-48.924728,-67.244636,-77.987159,-59.859077,-86.756103,-93.631324,-93.987625,-56.78849,-88.995117,-102.477585,-111.350853,-50.178222,-79.611419,-76.70066,-70.184875,-41.809913,-67.431472,-66.573143,-59.824928,-18.70533,-18.468085,-9.373299,-1.038747,-16.444616,-4.205524,0.625705,2.585972,2.121954,14.125197,18.176271,19.571497,18.791861,30.088179,26.151763,20.553927,32.820622,40.198555,34.932634,28.967606,25.354316,42.965229,51.428398,51.384178,56.169536,74.251705,85.401043,92.623798,40.658867,57.370445,66.616356,70.744549,24.118229,38.835113,42.874397,41.386734,7.899078,23.266296,28.929313,28.21899,10.995155,18.634459,26.076711,27.955048,-17.217565,-28.40162,-23.867528,-17.922779,-24.040164,-33.566097,-22.770872,-13.191215,-23.229097,-3.103304,13.634368,21.292302,-14.962291,6.072727,17.488007,22.555363,97.349418,54.289184,-79.96661,69.91817
57,0.041428,4.997084,-1.948139,1.698186,-23.456291,-48.639862,-66.570236,-76.409386,-60.3983,-87.030808,-92.618706,-91.384781,-57.447784,-89.293259,-100.043541,-106.313873,-51.111488,-80.338532,-77.152725,-70.388557,-42.995018,-68.318848,-67.147247,-60.168045,-18.82959,-18.64516,-9.316976,-0.105445,-16.884483,-5.081867,0.056348,2.01688,1.663785,13.897455,17.567486,18.274609,18.360059,29.991823,26.366216,20.80774,32.328447,40.083168,35.050442,29.200449,25.42345,43.141101,52.224735,52.911689,55.520198,72.459491,82.470954,87.829055,40.495285,57.291194,66.960926,71.011539,24.405521,39.611469,44.000061,42.830852,8.635585,24.290954,30.517112,30.47002,11.018052,19.027611,27.405389,29.887261,-16.690821,-27.162043,-20.430439,-11.787623,-23.24874,-32.00932,-19.783122,-8.348792,-22.386327,-1.592623,15.176485,23.285889,-14.053511,7.494394,19.035083,24.379433,97.420601,59.266912,-81.884994,71.597
58,0.14241,3.445605,-1.01072,2.019893,-23.685081,-48.785705,-66.625168,-76.593956,-60.49173,-87.515991,-93.348289,-92.18914,-57.575409,-89.590393,-99.229248,-104.285202,-51.521919,-81.127052,-78.229614,-71.578697,-43.728287,-69.227142,-68.337204,-61.583153,-18.799067,-18.436085,-9.229198,-0.226438,-17.010466,-5.904129,-0.599158,1.45836,1.425533,13.459083,16.844123,17.068067,18.164131,29.479536,26.203535,20.919935,32.277336,39.847072,34.955353,29.280693,25.353012,42.744187,52.311562,54.494751,54.828518,70.738152,80.30555,84.649407,40.41861,56.77541,67.225857,71.504013,24.521977,39.644737,44.245228,43.226864,8.920773,24.273022,30.788349,31.186547,11.253877,19.035281,27.563797,30.290924,-16.09036,-26.806712,-19.231659,-8.970093,-23.053917,-32.135334,-19.746862,-7.213288,-22.652638,-2.453721,14.953579,24.114048,-14.719674,6.745331,18.997329,25.057885,97.63401,62.540453,-82.824715,73.444829
59,-0.003456,2.808187,-0.605266,1.542766,-24.187271,-49.609337,-67.875206,-77.86702,-60.467857,-87.995521,-93.707176,-92.542786,-57.506515,-89.718201,-97.143608,-99.987545,-51.856636,-81.896553,-78.848648,-71.953033,-44.671211,-70.698509,-69.418281,-62.174652,-18.980675,-18.755817,-9.482455,-0.053519,-17.381432,-6.155448,-0.862876,1.103745,1.021444,13.145125,15.553323,14.913274,17.863542,29.027035,25.630651,20.513975,32.097512,39.411688,34.390101,28.969749,25.207775,42.519024,52.556179,55.530018,54.342796,69.933998,79.637684,84.091953,40.311378,56.218082,67.311481,72.360019,24.47113,39.501045,44.055507,43.212307,8.876884,24.145443,30.676208,31.342632,11.133031,18.884357,27.80505,30.691171,-15.47093,-25.713088,-17.860115,-7.030062,-22.703947,-32.071021,-20.097406,-7.327693,-22.633107,-2.191065,15.431718,24.797632,-14.699062,7.076499,19.570472,25.807597,97.690086,65.144378,-83.370449,74.783333
60,-0.017921,2.260824,-0.060528,1.20811,-24.283448,-49.825562,-68.484787,-78.705849,-60.333481,-88.209847,-94.156449,-93.135613,-57.364449,-89.607537,-95.18985,-96.179203,-51.945534,-82.195244,-79.482766,-72.761719,-45.008057,-71.146111,-70.166108,-63.120049,-19.21561,-19.17068,-10.015558,-0.502049,-17.139864,-5.939877,-0.75693,1.133652,1.212865,13.320892,15.036405,13.74148,17.919334,28.886059,25.459646,20.364224,32.018484,39.250421,34.23391,28.838375,25.221474,42.204483,52.480739,56.169399,53.809936,69.375378,78.99131,83.243545,39.97546,55.507393,66.558403,71.541435,24.193588,39.310032,44.169216,43.554405,8.725788,23.671715,30.303177,31.260223,11.184278,19.062846,28.171835,31.212765,-15.018083,-24.721926,-16.850428,-5.87131,-22.338984,-31.476556,-19.739199,-6.908346,-22.351797,-1.982664,16.077189,26.038759,-14.422883,7.18647,20.008899,26.66694,97.706732,67.184392,-83.39641,75.770633
61,0.109062,1.910441,0.671081,1.438093,-24.320732,-49.85669,-68.585793,-78.850136,-60.184067,-88.373818,-93.573853,-91.867104,-57.115013,-89.510079,-93.600517,-93.216213,-51.818207,-82.399979,-79.992485,-73.412293,-45.108009,-71.392616,-70.771752,-64.017883,-19.533712,-19.537361,-10.259102,-0.540501,-17.493466,-6.315332,-1.108451,0.599547,0.884328,13.031023,14.592598,12.931055,17.615626,28.623422,25.433581,20.358222,31.698728,39.201773,34.357812,28.905318,25.375775,42.245339,52.487435,56.232937,53.485669,68.839623,78.43348,82.958176,39.532505,54.418969,65.528241,70.96756,23.559082,38.745781,43.827668,43.416687,7.953244,22.820126,29.54464,30.742951,11.000478,18.848831,28.009561,31.338896,-15.232845,-24.313354,-16.631862,-5.683638,-22.532676,-31.262869,-20.14916,-7.64514,-22.507593,-2.248876,16.058534,26.480423,-14.546205,6.894452,19.881391,26.853754,97.826752,68.85132,-82.714371,76.965213
62,0.088829,1.574228,0.660656,1.021136,-24.265823,-49.686653,-68.449654,-78.840843,-60.040169,-88.20092,-92.908241,-90.825829,-57.015976,-89.327294,-93.611069,-93.223057,-51.800423,-82.374207,-80.366043,-73.918007,-45.17395,-71.365128,-71.126175,-64.655457,-19.924789,-19.865941,-10.59931,-0.940305,-17.500789,-6.416368,-1.410003,0.212045,0.783699,12.552735,14.206874,12.675927,17.434852,28.147499,25.112682,20.152376,31.467059,38.968974,34.150472,28.603871,25.389119,42.311715,52.235768,55.502335,53.03373,68.093525,77.740277,82.515416,38.827034,53.476387,64.757115,70.557804,22.816475,38.155701,43.341431,43.154961,7.225274,22.368096,29.150116,30.442761,10.978933,18.628327,28.003515,31.799288,-16.04025,-24.556972,-16.744662,-5.726215,-22.96961,-31.023494,-19.891512,-7.359513,-22.550016,-1.605357,16.437891,26.681902,-14.196815,7.669185,20.247163,26.940827,97.891966,70.209126,-82.07733,77.769927
63,0.016296,1.240275,0.509011,0.575655,-24.373672,-49.620804,-68.364418,-78.617569,-60.099975,-88.085746,-92.622802,-90.334602,-57.060928,-88.877037,-91.253448,-88.967972,-51.883278,-82.143036,-80.158653,-73.667656,-45.231331,-71.215301,-71.150757,-64.860489,-20.306425,-20.449575,-11.353776,-1.65777,-17.579014,-6.442988,-1.444478,0.102148,0.623747,12.780681,14.059414,12.047117,17.110996,28.122046,25.201782,20.24772,30.937259,38.828585,34.048338,28.373178,25.45269,42.707725,52.346981,54.055023,52.676216,67.661327,77.322017,82.173191,38.072124,52.599163,64.078354,70.230388,21.92181,37.592914,43.215442,43.40752,6.310032,21.797126,28.914688,30.517982,10.830665,18.577803,28.237433,32.010648,-16.789467,-24.582789,-16.30012,-5.064608,-23.221927,-30.704243,-19.322253,-6.644949,-22.308688,-1.030478,16.926023,27.20328,-13.491044,8.541916,20.669407,27.133131,97.874078,71.268818,-81.602503,78.164999
64,-0.08242,0.902174,0.485355,0.531746,-23.922958,-48.830566,-67.453835,-77.724632,-59.786659,-87.639633,-92.160072,-89.666061,-56.903938,-88.548248,-90.44902,-87.510635,-51.74897,-81.964073,-80.030754,-73.488693,-44.952988,-70.728264,-70.764862,-64.587616,-20.680769,-20.873541,-12.021539,-2.593666,-17.78171,-6.865522,-1.966751,-0.444702,0.342085,12.547869,13.863474,11.86386,16.707222,27.922227,25.134035,20.231855,30.391848,38.650071,33.919236,28.102853,25.498169,42.972199,52.34824,52.938721,52.201218,67.10146,76.81897,81.863892,37.331223,51.723667,63.372974,69.803764,21.191082,37.047787,42.928047,43.371311,5.701195,21.538181,28.954811,30.774834,10.549162,18.24866,27.961167,31.815102,-17.668948,-24.895259,-16.366188,-5.040279,-23.651767,-30.445004,-18.982509,-6.274046,-22.357021,-0.720504,16.887045,26.970807,-13.256548,8.925472,20.630158,26.861497,97.734673,72.025511,-81.174133,78.551264
65,-0.214439,0.59704,0.318684,0.286855,-23.931656,-48.676873,-67.150589,-77.232125,-59.679131,-87.35907,-91.664727,-88.978432,-56.82676,-88.167687,-89.678673,-86.384102,-51.660187,-81.747735,-79.693314,-73.107285,-44.803345,-70.434929,-70.420304,-64.291855,-20.977214,-21.152912,-12.293365,-2.861391,-17.823398,-6.758854,-2.097828,-0.766187,0.232719,12.47099,13.641648,11.59577,16.533735,27.802833,24.95956,20.072694,30.142704,38.422903,33.622791,27.774934,25.392322,43.110122,52.206905,52.01889,51.86388,66.596637,76.585499,82.352726,36.929535,51.242843,63.266075,70.42218,20.845573,36.665668,42.450199,43.065078,5.343853,21.487919,29.077388,31.117389,10.307342,17.804107,27.622923,31.951003,-18.274812,-24.961474,-16.343587,-5.046052,-23.927661,-29.865679,-18.192252,-5.31936,-22.375781,-0.088593,17.137147,26.954462,-13.009225,9.561699,20.84111,26.910051,97.45451,72.527551,-80.921173,78.743119
66,-0.637436,0.402335,0.052116,-0.019235,-23.931931,-48.751076,-67.473153,-77.611588,-59.597374,-87.15152,-91.043267,-88.16581,-56.709481,-87.846955,-88.798829,-85.143998,-51.466874,-81.462502,-78.912186,-72.129021,-44.508339,-70.111931,-69.688774,-63.307938,-21.064813,-21.353614,-12.730836,-3.319838,-17.297748,-5.913176,-1.813103,-0.954032,0.645934,12.986587,13.609797,11.361106,16.797069,27.960839,24.760204,19.911068,30.196834,38.30696,33.291753,27.553639,25.200462,43.081947,52.111359,51.386994,51.611664,66.127281,76.245449,82.341099,36.759293,51.043041,63.304367,70.799172,20.808025,36.409779,41.847759,42.371464,5.331207,21.391216,28.833721,30.835178,10.208553,17.769416,27.559258,31.835659,-18.308448,-24.597184,-15.919726,-4.719763,-23.781177,-29.092824,-17.299767,-4.394388,-22.146711,0.909287,17.815679,27.153805,-12.674908,10.500386,21.385643,27.032743,96.741578,72.842321,-80.944553,78.636319
67,-0.737526,-0.011751,0.172485,0.183071,-24.125084,-49.00866,-67.740258,-77.825821,-59.365723,-86.948387,-91.444382,-89.087105,-56.334343,-87.695114,-88.93776,-85.484871,-51.023003,-81.312538,-78.751534,-71.984185,-44.064766,-69.919442,-69.366783,-62.864342,-20.852905,-21.101573,-12.625588,-3.16666,-16.691575,-5.206807,-1.215273,-0.42459,1.118195,13.552035,13.916869,11.642385,17.161841,28.372468,24.92107,20.120692,30.430325,38.497621,33.346148,27.705681,24.912209,42.911648,52.130253,50.878121,51.303795,65.603257,75.79945,82.197842,36.553837,50.593895,62.874871,70.552186,20.620388,36.076367,41.309693,41.712777,5.090367,21.160424,28.483326,30.398209,10.203539,17.937402,27.596556,31.523314,-17.937852,-24.06224,-15.634587,-4.658087,-23.479643,-28.792222,-17.49488,-5.067362,-21.975996,1.364468,18.174357,27.21513,-12.580695,10.943241,21.777018,27.261807,95.935416,72.735557,-80.840704,78.724377
68,-0.236298,0.029912,0.374337,0.380549,-24.170654,-49.136101,-67.915283,-78.104278,-58.978729,-86.67897,-91.592468,-89.563339,-55.991066,-87.884788,-90.402763,-88.017448,-50.729507,-81.553963,-79.116875,-72.363052,-43.867996,-70.135574,-69.489372,-62.807213,-20.618957,-20.773784,-12.308117,-3.034922,-16.29691,-5.223486,-1.41829,-0.562423,1.463793,13.522247,13.908489,11.92837,17.453618,28.36972,24.737597,20.098363,30.689374,38.572487,33.303738,27.82744,24.555954,42.480709,51.971122,50.626281,50.819057,64.99221,75.238529,81.713894,36.132934,49.970031,62.247654,69.982521,20.186966,35.635219,40.989029,41.511841,4.683345,20.603862,27.948875,29.880546,10.371964,18.103955,27.57046,31.204441,-17.634194,-24.036385,-15.889665,-5.000857,-23.275558,-28.94038,-18.182939,-6.198135,-21.909083,1.323213,17.861641,26.536462,-12.668708,10.998743,21.77679,27.110673,95.642813,72.644503,-80.522672,78.98396
69,0.085327,0.151875,0.13417,0.007275,-24.387909,-49.467544,-68.248443,-78.444031,-59.04792,-86.676704,-92.114937,-90.501457,-56.115165,-88.248802,-91.829498,-90.336365,-50.939117,-81.956383,-79.683769,-72.9879,-44.215416,-70.688484,-69.968925,-63.156601,-20.472164,-20.594059,-12.137044,-2.954245,-16.146856,-5.623956,-1.756627,-0.638364,1.640758,13.27845,13.812949,12.113973,17.646366,28.210898,24.56469,20.073398,30.887519,38.483425,33.215225,27.913946,24.280037,42.070828,51.681954,50.776932,50.338372,64.529526,74.911892,81.625958,35.764607,49.685177,62.007763,69.893635,19.936363,35.458294,40.766098,41.369179,4.532376,20.26997,27.399227,29.269982,10.662703,18.398757,27.83388,31.530266,-17.165818,-23.481317,-15.527747,-4.777747,-22.794455,-28.553304,-17.998739,-6.165865,-21.499005,1.851246,18.3082,26.851493,-12.40254,11.513642,22.104449,27.198734,95.700937,72.667329,-80.415705,78.862186
70,0.290428,0.326079,0.298336,0.298446,-24.517456,-49.688713,-68.576271,-78.882248,-59.024597,-86.851593,-92.853561,-91.586082,-56.167282,-88.73925,-92.432098,-90.931274,-51.112587,-82.52346,-80.244094,-73.465828,-44.529808,-71.374397,-70.524856,-63.498115,-20.364397,-20.541065,-12.254604,-3.162405,-16.182628,-6.257744,-2.259732,-0.822966,1.602757,13.010775,13.49454,11.85443,17.578724,28.002515,24.318603,19.959586,30.794368,38.270534,32.996894,27.859334,23.919548,41.593952,51.476933,50.924057,49.869484,64.012024,74.375153,81.041909,35.429261,49.157742,61.414421,69.326054,19.622006,35.048687,40.566674,41.326103,4.23888,19.690579,26.828625,28.774006,10.887573,18.603114,27.816708,31.17044,-16.616462,-23.108135,-15.467386,-4.824616,-22.341966,-28.566741,-18.496632,-7.017262,-21.211699,1.366499,17.904729,26.690467,-12.386145,11.047766,21.844609,27.245529,95.990524,72.841956,-80.11821,79.00918
71,0.405739,0.154475,0.33355,0.120234,-24.922668,-50.217407,-69.005424,-79.067413,-59.364029,-87.026207,-93.586303,-92.752899,-56.450317,-89.189575,-94.010902,-93.420364,-51.362091,-82.900635,-80.79277,-74.009445,-44.803001,-71.84507,-70.988502,-63.873756,-20.243558,-20.337782,-11.940393,-2.723156,-16.372356,-6.586559,-2.208603,-0.391584,1.380998,12.868637,13.829264,12.483284,17.388304,28.013482,24.452904,20.053038,30.748278,38.297895,33.073829,27.919115,23.686329,41.0606,51.073402,51.255569,49.242267,63.378971,73.776867,80.435371,34.862297,48.536155,60.708801,68.612892,19.092247,34.672668,40.657516,41.804374,3.836242,19.208484,26.646171,28.888641,11.099278,18.648192,27.708305,31.251815,-16.42109,-22.907866,-15.419727,-4.840022,-21.941854,-28.316664,-18.336692,-6.966169,-20.658792,0.962368,17.607018,26.779394,-11.91686,10.723805,21.765575,27.606911,96.413212,72.808732,-79.767711,78.941715
72,0.305741,0.3223,0.56028,0.112213,-25.069153,-50.493782,-69.406838,-79.524308,-59.806984,-87.510064,-93.602967,-92.43187,-56.823006,-89.435097,-93.378228,-92.194199,-51.643181,-83.04213,-80.506394,-73.539322,-44.98613,-72.003045,-70.902672,-63.691452,-20.29909,-20.454194,-11.934552,-2.658948,-16.785145,-6.537022,-2.014935,-0.235874,1.019308,13.073359,14.147421,12.671864,17.111731,28.113653,24.711533,20.265935,30.635843,38.390521,33.296322,28.170106,23.636455,40.920124,50.809833,51.313259,48.909061,62.722377,72.989456,79.796814,34.393993,47.688194,59.730732,67.821201,18.470672,34.022758,40.434173,42.057655,3.128769,18.453529,26.094966,28.675998,11.104527,18.555511,27.564433,31.382399,-16.54322,-22.495046,-15.066014,-4.670925,-21.883186,-27.809366,-17.845678,-6.709757,-20.431903,0.554704,17.559779,27.255736,-11.635254,10.296671,21.651837,27.996315,96.747277,72.942492,-79.179107,78.865388
73,-0.061135,0.183664,0.404663,-0.203684,-25.308105,-50.80854,-69.931228,-80.172821,-60.313293,-88.075607,-93.20446,-91.38977,-57.126182,-89.327682,-91.226463,-88.55072,-51.770347,-82.720985,-79.644562,-72.561538,-44.922088,-71.662399,-70.252121,-63.017853,-20.388621,-20.626539,-12.113529,-2.780985,-16.686073,-5.642339,-1.242616,0.187592,1.159648,13.891725,14.586059,12.647293,17.237029,28.702672,25.204308,20.594917,30.737077,38.678927,33.569821,28.417558,23.551483,40.745166,50.456394,51.529735,48.617878,62.063358,72.185096,79.339164,34.044147,46.893379,58.684044,67.047821,18.049701,33.414276,39.875724,41.866378,2.638115,17.881073,25.535213,28.423839,10.934281,18.240349,27.243856,31.728485,-16.583876,-21.353984,-13.974662,-3.939077,-21.648311,-26.73381,-16.975781,-6.286754,-19.98444,0.716459,17.934468,27.923345,-11.059104,10.215025,21.753361,28.49482,96.714712,72.919221,-78.745874,78.454769
74,-0.208305,-0.019229,0.669651,-0.210032,-25.24569,-50.720123,-69.830383,-80.15078,-60.324852,-88.192383,-93.040627,-91.002434,-57.0569,-89.201981,-90.32325,-87.121811,-51.587883,-82.382813,-78.954826,-71.767754,-44.595429,-71.191818,-69.588226,-62.33313,-20.296027,-20.48397,-11.910722,-2.570509,-16.712768,-5.26715,-0.737034,0.59951,1.100164,14.258287,14.959939,12.813667,17.231082,29.098844,25.707487,21.029362,30.844244,39.089271,34.096003,28.925313,23.396862,40.668606,50.222534,51.20105,48.029937,61.014999,70.963714,78.351894,33.356003,45.598205,57.102195,65.598816,17.202118,32.391826,39.253189,41.818508,1.7192,16.926178,24.827408,28.229793,10.642134,17.781476,26.695247,31.745689,-16.571118,-20.717424,-13.440347,-3.576232,-21.447573,-25.849062,-16.341407,-6.00227,-19.530365,0.613935,18.124926,28.594022,-10.448447,9.884259,21.746742,29.113541,96.535206,72.715297,-78.047424,78.060042
75,-0.370697,-0.159279,0.578098,-0.563516,-25.397942,-50.802361,-69.896073,-80.257553,-60.390015,-88.136467,-92.697487,-90.561264,-57.020966,-88.992417,-89.841362,-86.602982,-51.398781,-81.903855,-78.198853,-71.004341,-44.249909,-70.63028,-68.79538,-61.541542,-20.197578,-20.325766,-11.623064,-2.277831,-16.378333,-4.476133,0.021255,1.162556,1.361572,14.905327,15.553663,13.296673,17.481079,29.64163,26.221003,21.450735,31.170002,39.617669,34.642284,29.436082,23.34494,40.545193,49.795269,50.717514,47.337765,59.870155,69.659878,77.334663,32.647213,44.541058,55.891399,64.588085,16.452141,31.518082,38.515217,41.482624,0.934204,16.055477,23.996647,27.754303,10.244789,17.292475,26.393257,32.417287,-16.675828,-19.811162,-12.441547,-2.788259,-21.242012,-24.525435,-15.01284,-4.917407,-18.974092,1.181947,18.716958,29.211904,-9.577161,10.289163,22.090673,29.588464,96.190647,72.393191,-77.443188,77.333699
76,-0.204735,-0.129577,0.749737,-0.499838,-25.112984,-50.231392,-69.107414,-79.620781,-60.341492,-88.029922,-92.547569,-90.367607,-57.12973,-88.923225,-89.336128,-85.821945,-51.496559,-81.6324,-77.680893,-70.505012,-44.183807,-70.220512,-68.111023,-60.829697,-20.112745,-20.160046,-11.430532,-2.358915,-16.368058,-4.511183,0.152684,1.340824,1.376219,14.958031,15.662195,13.371805,17.563509,29.783866,26.593093,21.947171,31.363349,39.962631,35.181593,30.119671,23.105621,40.306343,49.423324,50.523582,46.348995,58.475063,68.146568,76.052273,31.711601,43.256344,54.489395,63.358108,15.481796,30.31295,37.528129,40.935894,-0.111145,14.916206,22.855671,26.936233,9.768872,16.699639,25.811703,32.395507,-16.373023,-19.089714,-11.703451,-2.037233,-20.789184,-23.411348,-14.042075,-4.083876,-18.353915,1.43001,18.838754,29.455792,-8.815989,10.38548,22.062749,29.809665,96.003908,72.133163,-76.675455,76.70341
77,0.061043,-0.115214,0.354744,-0.715848,-25.078743,-50.111206,-69.008011,-79.680199,-60.349457,-87.904335,-92.676293,-90.723633,-57.27237,-88.947167,-89.674507,-86.431206,-51.705528,-81.648125,-77.811516,-70.740143,-44.382912,-70.204102,-68.071106,-60.802483,-20.04038,-20.026523,-11.375599,-2.435794,-15.888863,-4.40554,0.111577,1.321971,1.815184,15.030285,15.554206,13.309017,17.910411,29.899556,26.576093,21.954254,31.590344,40.088479,35.249179,30.202448,22.816166,39.761307,48.671676,50.336048,45.373638,57.404617,66.973388,74.910358,30.988025,42.591144,53.700016,62.602501,14.964134,29.714985,36.843326,40.41814,-0.536568,14.383758,22.18111,26.500511,9.378628,16.17665,25.240734,32.68511,-15.87989,-18.356267,-10.828058,-0.944652,-20.12859,-22.205961,-12.84106,-2.755754,-17.536568,2.172003,19.50614,30.286669,-7.938275,10.87124,22.360479,30.189708,96.072424,71.904992,-76.313238,75.874605
78,0.248772,-0.005008,0.233608,-0.388602,-24.815758,-49.802376,-68.400651,-78.948258,-60.356598,-87.836747,-93.510109,-92.114983,-57.464493,-89.254143,-91.329232,-89.1018,-51.983231,-81.928551,-78.344559,-71.334893,-44.687394,-70.464272,-68.389023,-61.097306,-19.960753,-19.79042,-11.004566,-2.028439,-16.195917,-5.233286,-0.266657,1.414875,1.488765,14.313604,15.405592,13.597601,17.69886,29.480876,26.538259,22.0931,31.556659,39.985102,35.40492,30.475051,22.462841,38.999416,47.682232,49.819153,44.616016,56.608624,66.055103,73.887978,30.471519,42.209885,53.279423,62.158081,14.603577,29.277649,36.39957,40.097809,-0.864212,14.03706,21.707817,26.123451,9.289424,16.0624,25.060571,33.020261,-15.287574,-17.935209,-10.336512,-0.233441,-19.669865,-21.693728,-12.196076,-1.901616,-17.120382,2.305125,19.682493,30.708165,-7.540157,11.054392,22.446306,30.361449,96.327462,71.821611,-76.073364,75.40763
79,0.230049,0.084012,0.11998,-0.239906,-24.956932,-49.944031,-68.592911,-79.15622,-60.652336,-88.124154,-93.543412,-91.996651,-57.795227,-89.316628,-90.64151,-87.859864,-52.328545,-82.026307,-78.185395,-71.061585,-45.02163,-70.603363,-68.345101,-60.98758,-20.013896,-19.874229,-11.068286,-2.119701,-16.143701,-5.137906,-0.236832,1.373014,1.548453,14.391007,15.351794,13.433116,17.710203,29.420761,26.472463,22.017306,31.541017,39.880052,35.332529,30.461663,22.221943,38.417988,47.004959,49.682739,44.223965,56.237881,65.635689,73.366104,30.231068,42.094906,53.168724,62.014583,14.396965,29.195904,36.401768,40.189613,-1.147705,13.897613,21.536785,26.000049,9.177037,15.881255,24.681794,32.97007,-14.83734,-17.655752,-9.969079,0.361981,-19.296349,-21.421786,-11.862069,-1.46551,-16.768127,2.266561,19.66947,30.857514,-7.184877,11.256242,22.608011,30.594563,96.553923,71.830497,-75.956972,75.092598
80,0.326316,0.03692,0.178482,-0.111453,-24.84217,-49.970329,-68.629898,-79.242576,-60.785797,-88.2304,-93.711387,-92.179824,-57.989707,-89.440063,-90.876136,-88.207878,-52.564018,-82.224014,-78.370697,-71.19754,-45.272735,-70.757881,-68.444297,-61.060455,-20.042794,-19.870918,-10.992765,-2.015336,-16.514512,-5.548731,-0.499388,1.182897,1.253428,13.966622,15.107041,13.234299,17.513868,29.169468,26.378794,21.939063,31.420635,39.698062,35.297097,30.486073,22.139522,38.233555,46.823616,50.185306,43.93388,56.04364,65.605019,73.481598,29.923096,41.859455,52.955807,61.863544,13.991775,28.899582,36.357651,40.449131,-1.621079,13.549118,21.251919,25.85574,9.262635,15.749158,24.130572,32.506028,-14.573561,-17.935611,-10.28954,0.329765,-19.008062,-21.553864,-11.877908,-1.159828,-16.398841,1.888278,19.266523,30.815246,-6.839025,11.163943,22.46906,30.657004,96.871982,71.813361,-75.786747,74.927089
81,0.239205,0.09512,0.256473,0.297229,-24.986344,-50.35128,-69.311943,-80.143067,-60.902344,-88.385719,-93.557854,-91.847695,-58.021843,-89.464142,-90.635628,-87.774605,-52.589333,-82.313759,-78.393883,-71.148033,-45.355591,-70.886009,-68.593437,-61.20195,-20.141687,-20.086902,-11.262954,-2.192207,-16.646355,-5.480318,-0.605246,0.875294,1.167515,13.935994,14.952931,12.980128,17.435952,29.081536,26.154134,21.617319,31.318284,39.504129,35.029879,30.135529,22.195279,38.138066,46.597676,49.916806,44.075467,56.149453,65.615925,73.485066,29.919457,41.661232,52.530259,61.317284,13.824704,28.601647,36.104348,40.308152,-1.930938,13.142727,20.841351,25.542881,9.493249,15.940628,24.130715,32.485255,-14.768463,-18.46115,-10.789687,-0.12263,-19.337679,-22.336717,-12.61761,-1.92087,-16.779267,1.306509,18.886178,30.609,-7.147264,10.748017,22.17059,30.451345,97.099577,71.86319,-75.541884,75.179027
82,0.177475,0.125261,0.347832,0.117437,-25.030495,-50.509049,-69.514664,-80.402504,-60.804245,-88.335709,-93.522217,-91.798165,-57.946884,-89.578743,-91.377182,-89.005875,-52.574822,-82.436096,-78.527092,-71.17083,-45.455498,-71.090103,-68.771347,-61.279518,-20.179182,-20.234122,-11.424623,-2.267444,-17.114886,-5.968004,-1.048269,0.3939,0.711204,13.368946,14.625301,12.780261,17.078978,28.577535,25.787713,21.287788,31.101935,39.146631,34.783896,29.955915,22.412178,38.568581,47.222134,50.245674,43.983204,55.914299,65.405525,73.336842,29.698929,41.239678,52.072701,60.906086,13.543659,28.08149,35.714974,40.06921,-2.256225,12.586212,20.423641,25.277813,9.398876,15.744854,23.924981,31.850146,-15.262578,-18.977884,-11.381009,-0.842535,-19.7216,-22.64195,-12.84466,-2.104479,-17.040922,1.099719,18.578365,30.291195,-7.287407,10.600613,21.944732,30.249162,97.265465,71.954121,-75.205639,75.262134
83,0.216316,0.036062,0.407799,-0.041694,-25.165466,-50.676338,-69.894241,-81.015358,-60.896805,-88.353218,-93.438789,-91.781547,-58.055992,-89.542946,-90.538032,-87.503815,-52.74971,-82.488716,-78.384888,-70.917297,-45.684975,-71.25016,-68.866379,-61.356445,-20.263014,-20.533382,-11.847884,-2.874549,-17.45652,-6.100681,-1.182551,0.135549,0.379802,13.1776,14.310343,12.220413,16.75897,28.274057,25.470193,20.904719,30.842046,38.902365,34.57292,29.733231,22.565655,39.119648,48.18441,51.474312,43.684341,55.437263,65.011105,73.099743,29.35421,40.754871,51.506046,60.32206,13.253872,27.653927,35.256557,39.536213,-2.619164,12.024147,19.923443,24.889984,9.041909,15.246529,23.372624,30.979083,-15.745188,-19.203297,-11.750721,-1.441514,-19.88685,-22.390687,-12.667504,-2.114174,-17.000907,1.479194,18.7886,30.292301,-7.099426,10.8241,22.055111,30.240906,97.469953,71.98855,-74.809668,75.218807
84,0.154358,0.067889,0.431877,0.18464,-25.086319,-50.690117,-69.930977,-80.982056,-60.791473,-88.026718,-93.131813,-91.500572,-57.984604,-89.625298,-91.921005,-89.803711,-52.699883,-82.628288,-78.725281,-71.18486,-45.689941,-71.553337,-69.306496,-61.70549,-20.423369,-20.843358,-12.187901,-3.073571,-18.051103,-6.779979,-1.833901,-0.460208,-0.108057,12.507083,13.977786,12.191402,16.437502,27.816164,25.012492,20.450896,30.697976,38.647872,34.229735,29.29048,22.599369,39.235542,48.409973,51.760975,43.427536,54.966843,64.540157,72.71616,29.04118,40.310463,51.013058,59.81852,12.974419,27.069809,34.481106,38.547123,-3.078884,11.375107,19.31052,24.36311,8.583943,14.906636,23.335623,30.885314,-16.261434,-19.132618,-11.92879,-2.005919,-20.246947,-22.113681,-12.797223,-2.829719,-17.307159,1.428287,18.700266,30.121295,-7.339765,10.513211,21.871984,30.137659,97.615076,72.061212,-74.387026,75.40822
85,-0.085854,-0.095374,-0.250202,0.357547,-24.779548,-50.259727,-69.201896,-79.934967,-60.632858,-87.749588,-93.290519,-92.11631,-57.88124,-89.904945,-94.895782,-95.125408,-52.540443,-82.625152,-78.759315,-71.118736,-45.479736,-71.453155,-69.169281,-61.502563,-20.21932,-20.465266,-11.686055,-2.539992,-18.356434,-7.077443,-1.934541,-0.362993,-0.531226,11.616636,13.789744,12.742679,16.109442,27.318716,24.645961,20.115784,30.646767,38.410158,33.998913,29.082036,22.371426,38.705601,47.849304,51.430195,43.331142,54.879387,64.421322,72.631004,29.186485,40.754288,51.522274,60.27372,13.445755,27.36795,34.306583,37.820766,-2.524132,11.815086,19.521137,24.298439,8.414821,15.039992,23.775212,31.216667,-16.349582,-18.887148,-12.066024,-2.703056,-20.486743,-21.991075,-13.314136,-4.099647,-17.705103,1.890575,19.03517,29.997449,-7.7328,10.605868,21.829432,29.729563,97.523809,71.974285,-74.642641,75.774214
86,0.070588,-0.047319,-0.71933,0.681144,-24.523201,-50.028077,-68.846055,-79.382081,-60.285233,-87.424439,-93.809945,-93.443024,-57.741417,-90.241425,-98.186943,-101.236645,-52.405816,-82.85859,-78.825234,-71.056298,-45.318215,-71.528458,-69.05365,-61.308815,-19.943382,-20.156742,-11.424493,-2.455135,-18.628216,-7.486416,-2.248345,-0.36873,-0.785397,10.62049,13.423774,13.323448,15.996685,26.904204,24.187118,19.793841,30.799241,38.197903,33.675204,28.901545,21.795158,38.023785,47.493645,51.841473,42.873905,54.968994,64.761177,72.97213,29.294781,41.646481,52.730095,61.702961,14.162682,28.430649,34.968544,37.935276,-1.353802,13.252281,20.801983,25.15535,8.317762,15.065736,23.823272,30.838181,-16.369484,-18.863046,-12.667121,-3.768955,-20.709989,-22.232945,-14.34819,-5.793683,-18.152262,1.885734,18.861911,29.570858,-8.383118,10.227258,21.389935,29.122458,97.581883,71.943151,-75.374485,76.471543
87,-0.044678,-0.215694,-2.486023,1.119035,-24.03804,-49.834328,-68.815247,-79.249649,-59.777779,-87.487198,-95.595772,-97.165844,-57.123161,-90.580101,-102.108376,-108.859337,-51.633866,-82.867401,-78.516998,-70.77134,-44.472748,-71.230385,-68.485474,-60.710198,-19.438789,-19.234939,-10.093216,-0.999604,-18.867314,-7.582889,-2.008945,0.394647,-1.043595,9.972543,13.764451,14.931589,15.957572,27.007049,24.086662,19.673187,31.150477,38.285212,33.638679,28.99359,23.848961,41.015522,50.664116,54.006191,47.669266,61.319275,71.299667,79.730415,33.585434,46.443821,57.264576,65.84182,18.123882,31.726994,37.82547,40.478508,2.331001,16.596714,23.696583,27.482529,8.940929,15.591337,23.830466,30.161748,-16.378797,-20.210613,-14.718544,-6.890765,-21.465808,-24.865613,-17.406626,-9.916529,-19.446835,0.149868,17.588191,27.887764,-9.957766,8.994343,20.918069,28.395137,97.503639,71.772405,-77.894074,77.635526
88,0.200294,-0.176619,-2.474945,2.16789,-23.296829,-49.362739,-68.584488,-79.0028,-59.283577,-87.881836,-98.216171,-102.612259,-56.478424,-91.057296,-106.491222,-117.245716,-50.810623,-82.897522,-77.847885,-69.864921,-43.579765,-70.93293,-67.70668,-59.739143,-18.665031,-18.272749,-8.997856,-0.020952,-18.773539,-7.05412,-1.124629,1.94478,-1.110254,9.485944,14.117027,16.570791,16.017433,27.437876,24.300702,19.926432,31.589103,38.677414,33.893869,29.343111,25.406021,43.103165,52.98119,55.589367,50.983864,65.89706,76.527294,85.30806,36.631382,49.982826,60.917221,69.206795,20.910393,34.681812,40.511398,42.584118,5.175499,19.470039,26.272488,29.415207,8.853009,15.45359,23.501164,28.626256,-17.369254,-23.753253,-19.839783,-13.637405,-23.182704,-29.151276,-23.120564,-16.727414,-21.785125,-2.237476,15.782986,26.364104,-12.742673,6.461749,19.288458,27.194122,97.621879,71.611289,-80.451073,79.818919
89,0.799782,0.687548,-2.634407,2.014391,-22.32962,-48.485573,-67.505974,-77.704101,-59.234344,-88.652527,-101.580562,-109.2006,-56.398567,-91.665619,-110.229046,-124.293537,-50.454025,-82.548157,-76.589104,-68.32592,-42.92688,-70.259651,-66.330643,-58.132553,-17.978676,-17.600356,-8.034,0.932721,-18.948627,-7.063259,-0.604018,3.485267,-1.373558,8.815674,14.459859,18.447577,15.868188,27.706422,24.477363,20.20563,31.827002,39.042661,34.292875,29.928504,26.756767,45.208385,55.862949,58.67989,53.761768,69.291939,80.303432,89.410561,39.231617,52.714176,63.882545,72.343643,23.401474,37.786926,43.474537,45.119682,8.114101,22.604885,29.213287,31.754574,8.758,14.889155,22.536313,26.478608,-18.301593,-27.940005,-25.947899,-21.364975,-24.773604,-33.594527,-28.646201,-22.667699,-24.001057,-4.580275,13.5329,24.135211,-15.345144,4.195577,17.353175,25.352688,98.205797,72.234613,-83.301344,81.769086
90,1.173523,2.468775,-2.382282,2.082119,-21.936104,-48.553345,-67.612015,-77.35421,-59.265724,-89.652328,-104.771919,-115.283615,-56.151329,-92.015213,-112.181694,-128.091774,-49.852203,-81.992844,-75.86206,-67.600273,-41.96331,-68.98938,-65.042084,-57.057884,-17.792609,-17.45828,-6.925389,2.976691,-18.894978,-6.839315,-0.10077,4.827271,-1.294196,9.446436,15.752203,20.737258,15.80616,28.990948,25.28588,20.598264,31.516404,39.446812,34.630601,30.012855,28.738987,48.460556,60.514263,63.736027,55.351902,71.391002,83.185489,93.158924,40.424366,53.977237,65.855232,74.850643,24.567569,40.407943,46.022255,47.153732,9.970264,25.399349,31.898872,33.83353,8.025572,12.859666,19.871814,23.1475,-20.446352,-32.869466,-32.920645,-30.270935,-27.019035,-37.784836,-33.839886,-28.338252,-26.403154,-7.211028,11.326866,22.287978,-17.802545,1.597984,15.05769,23.143857,99.100788,74.559825,-85.962158,83.707642
91,0.924316,4.300286,-2.736099,2.442865,-21.794357,-48.346229,-67.19799,-76.661659,-59.322761,-90.849197,-107.919513,-120.983745,-55.533187,-91.7425,-112.771842,-129.668174,-48.688499,-80.143936,-77.121551,-71.74237,-40.491714,-66.809692,-64.775756,-58.849571,-17.541334,-16.972594,-4.816532,6.708633,-18.369358,-5.835346,1.460268,7.104441,-0.988827,10.786958,17.848698,23.579846,15.951435,31.323941,29.856176,26.732927,31.401413,40.549131,37.221333,33.374863,30.261497,51.149379,63.651706,65.139965,57.067279,73.593074,86.047222,96.902767,41.399333,55.101093,67.791229,77.520309,25.196674,42.352134,48.184375,49.033905,10.935367,27.466358,34.004241,35.447868,6.815202,10.405976,16.905732,19.641664,-23.008549,-37.161509,-38.847746,-38.158266,-29.356782,-41.5865,-38.725363,-34.080373,-28.451082,-9.296494,9.439131,20.267967,-19.259027,0.153907,13.5308,21.295809,99.692779,78.394238,-89.030582,85.684634
92,1.066933,6.775101,-1.641427,3.329027,-21.990463,-48.105079,-66.281113,-75.304138,-59.793548,-91.840782,-109.740703,-123.918365,-55.295173,-91.367683,-112.375522,-129.02465,-47.740631,-78.352478,-79.830299,-78.46289,-39.047973,-64.652183,-65.748001,-63.260261,-17.288936,-16.877406,-4.016209,8.563189,-16.923552,-4.150424,3.703438,9.846665,0.226989,13.389336,21.305572,27.487585,16.846958,34.089593,35.808323,35.050467,31.732395,42.197502,41.43796,39.232976,28.959263,49.9571,62.611771,64.242634,53.346188,69.771721,83.073372,94.708615,37.73156,52.424653,66.898591,78.123894,21.996312,42.216763,48.84026,49.439003,8.795071,27.849564,34.948689,36.029721,4.502241,7.045228,13.625006,17.07481,-26.486512,-40.963581,-43.467239,-43.247087,-31.841779,-43.687237,-41.815897,-37.150147,-29.807116,-10.01149,8.23874,18.976154,-19.386975,-0.474719,11.799361,19.089923,100.353063,84.331676,-91.078658,88.175998
93,0.147057,9.735033,-2.729347,2.981822,-22.531243,-48.36969,-65.708428,-74.012398,-60.400383,-92.350388,-110.261078,-124.475258,-55.298722,-90.840019,-111.63422,-127.852009,-47.035034,-76.540215,-83.12661,-86.28637,-37.748291,-62.416466,-67.021591,-68.548462,-17.417173,-16.883977,-3.387374,10.372272,-14.551515,-1.787502,6.508135,13.232206,2.555578,17.332624,26.489334,33.453187,18.785704,37.799817,42.953198,44.842723,32.796687,44.537985,46.69447,46.640796,28.454189,50.008427,62.67738,63.872235,50.849179,68.058048,81.839802,93.965046,35.266056,52.100567,67.909882,80.194164,20.420757,43.475418,49.970078,50.518891,8.467667,30.18837,37.040714,37.571354,2.662252,4.36153,11.162529,16.539008,-29.074354,-42.201788,-43.756885,-42.959366,-32.628399,-42.840349,-39.947008,-34.467857,-28.641119,-8.401792,8.350835,17.477466,-16.379365,2.355655,12.615535,18.225739,99.986578,92.966511,-94.321547,90.057622
94,-0.713974,12.170623,-2.91481,4.517994,-23.325989,-49.169495,-66.175347,-73.957215,-60.811066,-92.399895,-110.403809,-124.776158,-55.188172,-90.064957,-110.67152,-126.839012,-46.564247,-75.696671,-87.705574,-95.735939,-37.034477,-60.815804,-69.151451,-75.019043,-17.721287,-16.512196,-2.390537,11.99177,-11.171415,2.31732,11.255822,18.522012,5.704201,22.24521,32.773865,40.574726,21.457453,41.889831,50.406689,54.906466,34.556327,47.486919,52.715555,55.080411,28.363895,50.550591,63.089733,64.32518,48.309231,67.537045,82.478886,95.540073,32.993889,52.748154,70.186226,83.654652,19.125309,44.505077,51.931732,53.514359,8.173908,31.964149,39.310249,40.258232,0.51267,1.280919,8.001204,14.923821,-31.430065,-42.223814,-42.477312,-40.923851,-32.746793,-40.387888,-36.022128,-29.730249,-26.229297,-5.963516,10.355717,19.140207,-12.119093,5.550053,14.799208,19.856845,98.847405,103.762261,-97.661556,93.200743
95,-0.953316,14.157561,-2.974949,6.070979,-24.121674,-50.080627,-66.859337,-74.450363,-61.284096,-92.435394,-110.686192,-125.340935,-55.031296,-89.039658,-109.510345,-125.870567,-46.140152,-75.060631,-92.147072,-105.150867,-36.593147,-60.014259,-71.767342,-81.91713,-17.955186,-16.064148,-1.883573,12.165868,-7.696442,7.075899,17.185738,25.52352,8.975941,26.775003,38.865462,48.090498,24.435255,45.218252,57.513401,65.511388,37.06947,50.503062,59.041069,64.817252,27.435093,50.418675,63.504376,65.888031,46.773857,68.401863,83.835835,96.860344,31.846584,54.559811,72.79652,86.828705,18.697437,45.713459,54.961579,58.67379,8.358914,33.265823,41.572334,43.811428,-2.37636,-2.481255,3.896679,11.262837,-32.010815,-40.216666,-38.512448,-35.216291,-30.906902,-35.439265,-28.77069,-20.787862,-22.033177,-2.517737,13.296722,22.095397,-6.519516,10.213839,19.248721,24.583191,97.459007,116.070836,-101.071587,97.422736
96,-1.403183,15.901657,-2.086624,8.007923,-24.77639,-51.074799,-67.067368,-73.66452,-62.490028,-92.515823,-110.874229,-125.784897,-55.889442,-88.531013,-108.667545,-125.388943,-46.844192,-75.361565,-94.294556,-109.424412,-37.144386,-60.023552,-73.258736,-85.821327,-17.957458,-14.88582,-0.730088,12.974039,-3.819942,12.091305,23.487961,33.071575,12.47115,31.350542,44.986638,55.807694,27.558857,48.090992,61.871844,71.475972,39.767049,53.43144,63.991365,72.222584,26.933121,50.569714,64.924015,69.804909,45.121479,68.751274,84.328743,97.447815,30.484051,56.044464,75.039276,89.482452,18.037857,45.995979,58.052353,64.843884,8.579247,33.351551,42.805321,46.850979,-6.143474,-7.01334,-0.767749,6.817727,-32.150759,-36.598827,-32.035323,-26.47594,-28.729638,-28.689044,-18.925013,-8.736658,-18.106925,0.352447,16.012289,25.37351,-2.03688,13.371064,22.395788,28.229195,95.653164,130.190709,-103.560871,103.648875
97,-2.254578,17.382296,-0.666744,7.837325,-25.757995,-52.210991,-66.94107,-71.995559,-63.56559,-92.554893,-111.127945,-126.596283,-56.775192,-88.221748,-108.334808,-125.919983,-47.712181,-75.821342,-95.57753,-111.739997,-37.918098,-60.320709,-74.148925,-87.920333,-18.110266,-13.449184,1.590382,15.40248,-0.6163,16.494017,29.076522,40.100292,15.508635,34.827992,49.48833,61.760805,30.46782,50.828932,65.2561,75.649374,42.494899,56.268884,67.524699,76.917863,25.99332,49.78062,65.348522,72.600059,42.94574,67.585201,83.180008,96.50822,29.285122,56.19421,75.11325,89.36578,17.738823,45.047802,58.863968,68.022869,9.08147,32.174331,42.750652,48.715816,-9.149657,-10.406568,-4.454748,2.754063,-29.055964,-28.608299,-21.132016,-13.68654,-23.28064,-18.195555,-5.57613,6.21261,-12.00021,5.026397,20.32216,30.080793,3.146795,17.901229,27.052899,33.44695,93.073648,145.942057,-104.552553,109.855252
98,-2.290992,18.063854,-2.32124,14.783722,-26.700302,-53.422165,-67.666375,-72.037537,-64.053749,-92.737587,-111.705803,-127.803658,-57.052552,-87.953179,-108.467984,-127.218407,-47.984803,-76.417946,-97.017094,-114.095421,-38.177513,-60.680786,-75.081871,-89.636719,-18.174615,-12.356621,3.43646,17.138383,1.496905,19.987102,33.630744,45.781299,17.802249,37.395963,52.620169,65.687717,32.884972,52.733173,67.192056,77.642696,44.942839,58.697521,70.10013,79.733009,26.209259,51.493172,69.58635,80.336506,44.138192,71.580128,87.389134,100.014633,30.911545,60.810551,80.101868,93.877899,19.889031,48.981949,65.602066,76.740063,11.872399,35.825386,48.356129,56.38028,-12.118197,-14.522221,-8.538798,-1.729938,-28.141416,-22.212994,-12.651838,-4.486705,-19.937331,-9.498319,4.562917,16.223809,-7.219914,8.98303,23.843112,33.56787,8.062023,21.146552,30.228037,36.712757,90.590132,162.458309,-107.066317,123.091372
99,-2.931336,17.308011,-2.389034,15.784671,-27.923973,-54.664902,-68.25666,-71.657478,-64.3908,-93.006191,-112.340252,-128.972111,-56.771599,-87.669273,-108.771023,-128.380668,-47.345444,-76.088173,-97.444256,-115.185562,-37.310303,-60.235016,-75.264198,-90.390209,-17.190537,-10.354717,6.542172,20.385194,4.18958,23.854542,38.331297,51.190548,20.529703,40.133853,55.340213,68.603757,35.50414,55.1106,69.570855,80.112058,47.387822,61.283147,72.55277,82.188971,26.017216,52.646587,72.593822,85.353401,45.591625,74.580174,90.369118,102.754841,32.950745,64.713467,84.213787,98.054615,22.202236,52.589218,71.066895,84.155319,14.296143,38.399391,52.00264,61.746712,-14.081378,-17.18338,-11.281707,-5.013862,-25.80893,-15.494506,-3.668172,5.748673,-15.953114,-1.451832,13.736892,25.42157,-2.672027,13.124989,27.101558,36.209621,12.549357,24.738592,33.495208,39.683192,87.592769,178.451188,-109.521378,137.560911
100,-3.324051,16.213262,-1.941433,16.754313,-28.559944,-54.581955,-66.963249,-68.926758,-64.739067,-92.554939,-111.063743,-127.106884,-57.328422,-88.243057,-109.939888,-129.801761,-47.948158,-76.719085,-98.574405,-116.35065,-37.650078,-60.85215,-76.222709,-91.302326,-15.638267,-8.262551,8.814464,22.376559,7.477741,26.933319,40.547569,52.424803,23.802969,42.702917,56.92137,69.39352,38.455786,57.370628,71.382056,81.500022,49.805499,63.965227,74.937015,84.078571,26.175556,53.499836,74.22702,87.732319,47.436916,76.955647,93.011776,105.62249,35.616142,68.304531,88.43383,102.868149,25.201595,55.854229,75.411873,89.740208,17.146465,40.97113,55.352211,66.417332,-15.055121,-17.840731,-11.541757,-5.266859,-22.673158,-8.758863,4.782471,15.016978,-11.61745,5.472976,20.505299,31.383857,1.821249,17.496535,30.110847,38.27361,16.660719,28.16608,35.996835,41.546406,84.38154,193.649863,-111.349989,153.300637
101,-2.830581,15.075499,-1.523346,17.373627,-29.707878,-55.52314,-67.964402,-69.976159,-64.843872,-92.664894,-111.472504,-128.074654,-57.787583,-88.600457,-111.103592,-131.310746,-48.734848,-77.599388,-99.901932,-117.888829,-38.515618,-62.066414,-77.830239,-92.991703,-13.817062,-6.403024,9.390163,20.731527,11.804023,30.203065,42.209482,52.886992,27.283641,45.122829,57.781873,68.934442,40.596018,58.908893,71.967153,81.341768,50.322671,64.891063,75.27206,83.665559,27.077328,55.245163,76.23008,91.058155,49.607666,78.545151,94.88055,107.876061,38.648438,70.719109,91.147888,106.561386,28.636036,58.867218,78.362812,93.348255,20.247677,44.158962,59.102223,71.426148,-14.402326,-16.891702,-10.471573,-3.925171,-18.511143,-4.056298,9.642055,20.426567,-6.243016,11.277774,25.458682,35.875989,7.586051,23.081983,34.426435,42.084474,22.258158,33.604624,40.650654,45.771023,81.811438,207.782662,-112.612856,169.731564
102,-2.234894,14.935449,-0.099861,20.488651,-29.134094,-54.730683,-69.703812,-75.43174,-63.098396,-90.805962,-110.135674,-127.122231,-58.124222,-90.180245,-113.214638,-133.367752,-51.219521,-81.436661,-102.765701,-119.644329,-43.130104,-67.410278,-81.87711,-94.830128,-5.067153,3.367336,16.541848,25.194106,20.370645,36.979604,47.01622,55.902969,30.0385,43.281543,51.719193,59.046867,36.807271,49.513839,57.532587,63.262494,40.162295,50.872434,57.880279,63.394553,29.746708,59.490452,81.034664,96.309483,56.524807,87.916477,103.083332,112.773651,46.127552,80.610718,99.286148,111.354217,35.901123,68.750072,86.797508,99.08947,26.410458,52.983295,67.633175,78.607441,-13.352477,-14.553646,-6.982663,0.699447,-12.951198,4.255245,17.326696,26.606598,0.128651,20.390838,33.518679,42.035,14.63302,32.882724,43.363288,49.804856,29.724178,42.13569,48.833621,53.197399,79.956648,221.807156,-112.332613,189.30926
103,-3.05484,12.232324,0.676094,15.499007,-29.071678,-54.609902,-71.349335,-80.097954,-62.402115,-89.248078,-108.772785,-126.054669,-59.025513,-90.792847,-113.117398,-132.4674,-53.775971,-83.857785,-102.914372,-117.929364,-47.501564,-71.067444,-83.146511,-93.489727,4.071303,14.734957,26.540105,34.097293,29.441448,42.780253,50.037828,56.301272,32.66309,41.393203,45.496987,48.747455,32.951712,41.145621,44.766356,46.881691,30.181761,37.990619,42.465178,45.670308,32.25119,62.286266,83.234207,97.895725,58.851254,89.812695,105.528671,115.941032,48.807095,82.758499,101.970852,114.9058,38.475918,71.011608,89.359612,102.284134,28.180824,54.318684,69.319805,80.543724,-12.266225,-12.857609,-5.816962,1.963639,-6.765597,10.029688,22.235731,31.642764,6.328183,25.948499,38.306782,46.895733,20.168747,38.198941,48.17104,54.613868,34.21599,47.208203,53.819004,58.16196,77.345238,233.229108,-111.213089,203.997895
104,-3.164589,11.048433,1.332138,14.760411,-28.848839,-54.096634,-72.097618,-83.824299,-61.041733,-87.757759,-107.578572,-125.017628,-59.172913,-90.990692,-112.919884,-131.920487,-55.566742,-85.808224,-103.762585,-118.009346,-51.195008,-74.794876,-86.019036,-95.362198,10.571782,23.202248,33.510108,39.659128,36.792859,46.135857,49.924257,52.888969,34.703262,38.865203,38.907156,37.902069,29.617955,33.01818,32.587421,31.131186,21.648089,25.83473,27.65465,28.434805,34.294476,64.459957,85.626194,100.203861,60.217987,91.333145,107.620102,118.30156,50.400261,84.364346,103.751289,116.534432,40.427765,72.978436,91.565918,104.020672,30.318741,56.876312,72.18417,83.199955,-12.528059,-12.315798,-4.981047,3.294904,-2.288025,14.517967,25.963813,35.217162,11.85477,31.393292,42.908163,51.097095,25.785775,43.714661,53.255865,59.410628,38.877035,52.573943,58.851132,62.604705,74.643849,243.535255,-109.417751,218.01602
105,-3.337555,9.899233,1.817413,13.899166,-29.974091,-55.383179,-74.701344,-89.327156,-58.797409,-85.668755,-106.749882,-125.068325,-57.091896,-88.93919,-110.587383,-129.531933,-54.412926,-84.923344,-102.335415,-116.327889,-51.765587,-75.166054,-85.99363,-94.883743,12.084963,24.690273,32.456474,36.226695,42.77083,49.32807,50.981486,51.8206,37.444326,38.191049,34.608167,29.723796,28.671235,28.612128,24.529857,19.600532,16.893554,18.731432,18.312715,16.867558,35.667344,65.842507,87.077488,101.531136,60.76101,92.242482,109.058728,120.026711,51.15152,85.689217,105.070324,117.40297,41.679772,75.124157,93.94954,105.759385,32.122055,59.86607,75.538273,86.130307,-12.705123,-12.076997,-4.420527,4.136672,0.673079,17.540933,28.198363,37.029264,16.04598,35.408168,46.416994,54.101129,30.364493,48.036979,57.215585,62.851595,42.848747,56.727201,62.620772,65.587348,71.821449,252.834854,-107.085183,231.315552
106,-3.532219,8.515098,2.126084,11.757933,-29.892654,-54.669777,-74.646904,-91.572498,-55.920067,-82.424675,-102.529598,-119.70845,-54.552361,-86.32156,-106.823731,-124.711144,-52.647789,-83.148663,-99.469471,-112.323338,-51.323364,-74.422188,-84.703434,-92.693173,12.098981,23.80492,29.7183,31.929211,44.166562,48.027593,47.708912,46.503581,37.831946,36.144183,29.436434,21.320058,27.686526,25.110237,17.66457,9.922773,14.394774,14.504987,11.896649,8.375752,36.23473,66.046623,87.676449,102.466118,61.441692,94.424549,112.195106,123.447281,52.130802,88.448936,108.244468,119.782425,43.118099,78.430618,97.554806,108.623451,34.104755,63.314689,79.259136,89.390201,-13.176797,-12.055545,-3.943011,4.827511,3.373079,21.391973,31.662647,39.670848,19.578968,38.996213,49.743032,56.537726,34.139876,51.770953,60.328386,64.817827,46.043058,59.972198,65.385473,67.512676,68.904825,260.838087,-104.343504,242.56162
107,-3.640938,5.49123,1.154102,8.799187,-30.510612,-54.747551,-73.56015,-89.479008,-53.397194,-79.833916,-99.18156,-115.378486,-50.735184,-81.47271,-101.063164,-117.841518,-48.094848,-77.57484,-93.929169,-106.616054,-46.444885,-69.067268,-80.205711,-89.139095,5.831955,15.013661,19.41097,20.003218,41.543713,43.421383,41.531808,38.831623,38.494231,37.487291,30.950356,22.849332,31.187354,30.384969,23.962445,16.722283,20.318812,21.963929,19.872171,16.756468,35.070294,63.925861,85.999741,102.025509,58.451717,90.29718,110.064274,124.675564,49.232037,84.827637,107.023029,122.124172,40.883846,75.618553,96.62574,110.686031,32.926872,61.518276,78.096085,90.141724,-13.992718,-13.754559,-6.261579,1.537116,3.337041,18.780474,28.534038,37.256641,20.209205,36.289655,46.656882,54.128373,34.915412,49.675687,57.529079,61.939096,46.318366,58.685405,63.364197,65.2896,65.93716,265.980035,-102.516129,251.011525
108,-2.343567,4.727241,4.014359,7.109646,-30.277427,-53.742668,-71.455971,-85.783149,-50.534637,-76.560631,-95.233795,-110.557571,-47.031509,-76.733368,-96.250911,-112.600868,-43.895897,-72.042045,-89.445133,-102.737468,-41.732094,-63.569778,-76.206917,-86.547489,-1.703892,4.146947,6.801116,5.645457,36.776433,38.401864,36.156694,32.992183,38.353279,38.726536,33.230786,26.245901,35.353938,36.43441,31.093493,24.927529,28.498605,31.615309,29.672172,26.979496,32.451919,60.081768,82.338935,99.252788,56.585666,88.16027,107.832744,122.655292,47.789486,83.158973,105.224292,120.282703,39.641979,73.973407,94.873901,109.093151,31.969127,60.139824,76.568161,89.055484,-14.396232,-13.673332,-5.641197,1.296363,5.151404,20.428703,29.847061,38.201052,22.668391,38.185331,48.180685,55.343177,37.329692,51.659172,59.254596,63.544965,48.185637,60.544957,65.032718,66.91035,64.377256,270.459006,-97.718107,257.872901
109,-1.75209,3.80464,4.207958,6.854542,-30.234352,-53.361237,-70.348824,-83.881886,-49.863991,-72.540653,-87.197479,-98.426125,-45.321533,-70.790245,-85.702423,-97.118946,-41.237045,-65.459793,-78.706867,-87.717064,-37.897682,-56.530243,-66.720989,-74.381458,-6.642331,-3.991534,-3.198511,-6.154861,31.025964,34.74876,34.544329,32.93247,36.381898,40.046859,37.142441,32.679504,37.15363,41.585803,38.320947,34.047535,34.127637,39.831338,39.280512,37.859968,30.535171,57.102516,79.256904,96.888038,55.673893,87.389076,106.846504,121.420029,47.020592,82.554153,104.628525,119.557594,38.774288,73.085255,93.819614,108.11673,31.084648,58.915066,75.426636,88.347484,-14.074351,-13.156135,-4.902785,1.444417,7.197209,22.332506,30.846369,38.269571,24.700462,39.474853,48.609443,55.172598,38.885433,52.943174,59.864987,63.78494,49.123367,61.632926,65.863558,67.619629,63.491032,274.096537,-92.644283,264.560334
110,-10.55072,3.585402,4.508663,5.640678,-26.57174,-48.336777,-64.852982,-79.141995,-50.174183,-65.417279,-71.543003,-76.026547,-46.584114,-60.685158,-66.504982,-69.999722,-42.258133,-55.028824,-59.383107,-61.437493,-37.789444,-49.635212,-53.918621,-56.10719,1.478132,7.384497,10.173689,9.135171,31.101682,36.989991,37.875331,37.263669,32.573441,40.053972,40.197727,38.253269,30.346388,38.656079,38.453105,36.79733,25.38494,32.895556,34.107791,34.510169,28.886948,54.606846,76.475487,94.426746,54.827019,86.852795,105.832684,119.767651,45.995235,81.579266,103.448216,118.114277,37.329746,71.37767,91.725208,105.992924,29.331425,56.508888,72.771069,85.89822,-13.707529,-12.343796,-3.484007,2.879669,9.724999,25.241148,33.061072,39.72898,26.902271,41.542788,49.940498,55.863857,40.37652,54.81347,61.313454,64.827695,49.894037,63.010232,66.974164,68.396708,53.849007,277.64948,-87.226925,270.168553
111,-14.503281,5.968054,3.920471,5.105969,-20.39859,-37.951561,-51.139835,-62.286987,-44.692818,-49.205303,-47.976986,-46.934898,-42.795582,-45.517525,-42.961372,-39.63501,-39.143349,-42.219246,-38.551392,-34.677097,-34.320133,-43.479046,-46.797604,-48.465466,1.073012,7.476604,13.15117,15.664857,25.256128,33.541181,36.892363,38.66418,27.914804,36.837628,40.046994,40.885651,27.212653,36.753351,38.987333,39.572109,24.532586,32.665696,36.253,39.222034,27.48951,52.64938,74.250698,91.670826,53.753575,86.163769,104.488049,117.602932,44.799042,80.567288,101.910908,116.156788,35.751675,69.732262,89.56287,103.508,27.370732,54.187283,70.09829,83.0732,-13.490007,-11.961944,-2.685958,3.790388,11.280232,27.16329,34.432931,40.485423,28.303017,43.231278,51.07158,56.471851,41.237234,56.158307,62.35974,65.497094,50.152203,63.86624,67.709104,68.755687,40.158325,283.703336,-82.493855,275.360324
112,-10.016716,1.963292,2.966023,4.222049,-17.473801,-33.995419,-46.552116,-57.948532,-46.488659,-43.487457,-34.179325,-27.070633,-45.435322,-37.111954,-25.802445,-15.059132,-41.385292,-33.493378,-21.125141,-10.69249,-35.348087,-37.411469,-34.585728,-30.97292,9.2502,20.015371,28.916273,34.589605,28.006554,39.147069,43.526198,46.030783,26.247149,38.567109,44.218198,46.646793,22.141463,35.001974,39.960816,42.490829,17.058305,27.267241,33.050426,37.945974,26.654033,51.360603,72.587517,89.664802,52.095279,85.169952,103.2033,115.838722,43.001758,79.369686,100.677955,114.815071,33.756958,68.082298,88.029945,101.897209,25.289383,52.121956,68.081657,80.932983,-13.576915,-11.814237,-2.026069,4.577039,11.833354,28.111356,34.944842,40.494203,28.985692,44.214962,51.47744,56.312571,41.643057,57.039707,62.845604,65.57827,50.058428,64.220416,67.880363,68.456889,30.957104,285.772653,-78.712337,279.688398
113,-14.389206,4.707123,1.922207,3.261088,-12.091804,-23.86108,-31.944992,-40.645489,-41.618649,-28.401169,-11.84301,0.265915,-42.158661,-23.26712,-3.959724,13.279152,-38.815292,-22.182392,-2.173897,13.993355,-32.689762,-33.018173,-29.671989,-25.810764,8.838917,20.410574,32.259959,40.718358,24.135519,37.068056,43.098675,47.450313,23.148525,36.336709,43.638967,47.433567,19.914804,33.34111,39.760535,43.721848,16.180448,26.770014,34.628779,41.82537,25.910305,50.353683,71.317852,88.183284,50.958698,84.170826,101.992733,114.44482,41.968414,78.630718,99.729618,113.84943,32.770145,67.131088,87.030796,100.908359,24.382839,51.112186,67.040794,79.786571,-13.976279,-12.177897,-2.096006,4.933401,12.063808,28.005072,34.470439,39.541667,29.248947,44.334338,51.257881,55.657104,41.681145,57.182191,62.726711,65.144981,49.66619,64.007007,67.561126,67.725333,17.351675,290.612108,-76.006353,283.081818
114,-6.647781,1.791503,1.182003,1.778264,-9.890488,-21.511757,-30.626324,-40.925881,-43.859883,-27.028439,-5.632325,9.550666,-45.641247,-21.280232,2.47792,23.134941,-42.515751,-20.031304,4.332069,23.287124,-36.138485,-35.03381,-29.653874,-23.842747,17.348161,32.773895,46.639407,57.405282,28.839455,41.908609,47.150095,51.256757,22.70102,35.924438,43.649007,47.824274,14.614334,28.553934,36.013273,40.926703,6.602268,17.139086,26.145199,34.892663,25.23167,49.488739,70.171463,86.670066,50.067295,83.274994,100.903221,113.283073,41.167007,77.911171,98.800987,112.97097,31.945015,66.209346,86.042587,99.942329,23.49456,50.176712,65.900711,78.406471,-14.257899,-12.536532,-2.208825,5.106327,12.032315,27.691392,34.127625,39.03761,29.303547,44.197734,51.113261,55.3897,41.571699,56.88895,62.255481,64.434468,49.264824,63.487303,66.85459,66.712551,11.430251,292.511201,-74.097993,284.967672
