takenoko1/special-research/HandMotion_SimilarSearch_自分用/NewProject/handData/tgt/d4_feature_d2/43.csv
,vel_0x_L,vel_0y_L,vel_0x_R,vel_0y_R,posFromWrist_1x_L,posFromWrist_2x_L,posFromWrist_3x_L,posFromWrist_4x_L,posFromWrist_5x_L,posFromWrist_6x_L,posFromWrist_7x_L,posFromWrist_8x_L,posFromWrist_9x_L,posFromWrist_10x_L,posFromWrist_11x_L,posFromWrist_12x_L,posFromWrist_13x_L,posFromWrist_14x_L,posFromWrist_15x_L,posFromWrist_16x_L,posFromWrist_17x_L,posFromWrist_18x_L,posFromWrist_19x_L,posFromWrist_20x_L,posFromWrist_1y_L,posFromWrist_2y_L,posFromWrist_3y_L,posFromWrist_4y_L,posFromWrist_5y_L,posFromWrist_6y_L,posFromWrist_7y_L,posFromWrist_8y_L,posFromWrist_9y_L,posFromWrist_10y_L,posFromWrist_11y_L,posFromWrist_12y_L,posFromWrist_13y_L,posFromWrist_14y_L,posFromWrist_15y_L,posFromWrist_16y_L,posFromWrist_17y_L,posFromWrist_18y_L,posFromWrist_19y_L,posFromWrist_20y_L,posFromWrist_1x_R,posFromWrist_2x_R,posFromWrist_3x_R,posFromWrist_4x_R,posFromWrist_5x_R,posFromWrist_6x_R,posFromWrist_7x_R,posFromWrist_8x_R,posFromWrist_9x_R,posFromWrist_10x_R,posFromWrist_11x_R,posFromWrist_12x_R,posFromWrist_13x_R,posFromWrist_14x_R,posFromWrist_15x_R,posFromWrist_16x_R,posFromWrist_17x_R,posFromWrist_18x_R,posFromWrist_19x_R,posFromWrist_20x_R,posFromWrist_1y_R,posFromWrist_2y_R,posFromWrist_3y_R,posFromWrist_4y_R,posFromWrist_5y_R,posFromWrist_6y_R,posFromWrist_7y_R,posFromWrist_8y_R,posFromWrist_9y_R,posFromWrist_10y_R,posFromWrist_11y_R,posFromWrist_12y_R,posFromWrist_13y_R,posFromWrist_14y_R,posFromWrist_15y_R,posFromWrist_16y_R,posFromWrist_17y_R,posFromWrist_18y_R,posFromWrist_19y_R,posFromWrist_20y_R,posFromBody_0x_L,posFromBody_0y_L,posFromBody_0x_R,posFromBody_0y_R
6,-0.329864,0.228353,16.43153,1.480232,-29.044373,-57.997444,-82.640923,-101.601734,-68.116264,-97.261414,-112.262135,-124.38113,-60.409287,-91.137348,-108.460842,-121.769508,-49.676445,-76.883846,-93.846863,-107.79142,-37.398537,-57.665176,-70.880951,-83.022366,-13.620696,-15.828941,-11.610226,-10.067182,17.727864,32.486842,38.745221,42.175,33.450297,50.951475,57.31362,61.042468,44.607633,62.713607,68.757021,71.833599,51.38747,67.637004,73.171842,75.842918,-3.272656,-5.812546,-3.220677,2.662845,11.33258,-7.810993,-26.699444,-42.193486,16.583645,0.443344,-21.804348,-42.889023,20.333507,6.069145,-15.454411,-33.924671,23.501003,35.692257,42.236538,43.491337,-17.489952,-27.210257,-27.040271,-21.015604,-3.840691,16.283336,27.590319,32.38141,15.441061,35.263128,43.079261,44.922684,29.926645,47.029904,52.983619,53.724513,40.571428,50.288127,54.891164,54.797204,56.237486,296.497531,-22.859327,312.160745
7,-1.199776,0.58569,15.614204,-0.419162,-28.344978,-56.852371,-81.455166,-100.529491,-66.973274,-96.083816,-111.18235,-123.409126,-59.281265,-89.974228,-107.427257,-120.801533,-48.494797,-75.776459,-92.83913,-106.838482,-36.228172,-56.754181,-69.916557,-81.855709,-14.270953,-16.619518,-12.459282,-11.013927,16.844833,31.761065,38.117529,41.518322,32.854418,50.185041,56.75011,60.498842,44.249555,62.085828,68.15346,71.204845,51.111495,67.129737,72.374163,74.685851,-7.590088,-16.57505,-18.959747,-16.510403,-1.483578,-24.784332,-44.010704,-60.051704,4.484516,-15.127968,-38.357963,-60.443733,10.121853,-8.146168,-30.912964,-50.241772,15.980404,27.015049,33.131893,33.194447,-18.735273,-28.674545,-28.361001,-20.670074,-4.429061,16.476356,28.025869,32.973633,15.64191,35.929267,43.564162,45.405708,29.983147,47.445423,53.057856,53.431989,40.05233,49.983155,53.737283,52.402783,54.203991,297.123763,-8.078842,311.782125
8,-0.756202,0.66231,11.589214,-0.851983,-27.930222,-56.044716,-80.524487,-99.515889,-66.153878,-95.198708,-110.332856,-122.622517,-58.555298,-89.218346,-106.737179,-120.092869,-47.85814,-75.205616,-92.343853,-106.196229,-35.784119,-56.639924,-69.908844,-81.691247,-14.968164,-17.571339,-13.417821,-11.706729,15.92143,30.619535,36.978185,40.369492,32.210213,49.164159,55.826374,59.603301,43.797505,61.278701,67.352002,70.348416,50.788812,66.445234,71.487501,73.531242,-10.470542,-24.433548,-30.297935,-30.072727,-11.901718,-37.539882,-56.922008,-73.049915,-5.775947,-26.643619,-50.360641,-73.2159,1.174279,-19.383018,-42.949161,-62.657352,9.223069,20.207909,26.656357,26.734726,-20.010147,-30.319897,-30.043489,-21.444831,-5.104536,16.709896,28.312033,33.078461,16.110658,36.778422,44.487319,46.129336,30.883333,48.461847,53.891487,53.714843,41.226144,50.443233,53.629294,51.525495,52.863963,297.820579,2.926546,310.964648
9,-0.789162,0.384532,1.417695,-0.207123,-27.560303,-55.292999,-79.644802,-98.564335,-65.421227,-94.262924,-109.398411,-121.698155,-57.850228,-88.356342,-105.965138,-119.316696,-47.183945,-74.419384,-91.672108,-105.450016,-35.217682,-56.275154,-69.601227,-81.250763,-15.470837,-18.309281,-14.186725,-12.191174,15.341594,29.871688,36.304932,39.775478,31.869129,48.514718,55.323615,59.12891,43.628482,60.81787,66.832681,69.654835,50.730273,66.072299,70.909135,72.631242,-11.170807,-25.38509,-31.288594,-31.164563,-12.601044,-38.702225,-58.460335,-74.918198,-6.225975,-27.852311,-51.983529,-75.044507,0.806945,-20.542832,-44.51476,-64.497242,8.722457,18.564582,23.480918,22.231018,-19.824192,-29.440781,-28.579585,-19.57682,-5.083356,16.683986,28.246454,33.009448,15.999507,36.685944,44.386826,45.894512,30.706899,48.421771,53.949433,53.709446,40.972176,50.3687,53.886917,52.152076,51.694897,298.241096,3.964337,310.79351
10,-0.554032,0.3594,1.473289,0.039162,-27.270973,-54.775543,-79.044296,-97.898128,-64.855499,-93.455303,-108.648639,-121.058624,-57.276283,-87.550678,-105.219371,-118.610858,-46.627944,-73.711841,-91.024429,-104.72549,-34.758567,-55.850509,-69.126777,-80.56406,-15.929766,-18.983485,-14.80702,-12.539878,14.792855,29.121062,35.590702,39.111575,31.555053,47.98196,54.892769,58.691618,43.441193,60.463126,66.463203,69.162721,50.597349,65.740748,70.390246,71.841096,-12.046829,-26.851147,-33.168571,-33.444042,-13.426529,-40.071968,-59.878796,-76.461948,-6.946541,-29.130569,-53.169308,-76.07468,0.0336,-21.93615,-45.870712,-65.865784,7.858749,16.669807,20.681717,18.740616,-20.399248,-30.489883,-29.796513,-20.803368,-5.628748,16.358277,27.884164,32.471899,15.839734,36.629702,44.306291,45.553477,30.906304,48.768265,54.308537,53.735814,41.564857,51.088882,54.650572,52.769333,50.896036,298.622658,5.192797,310.854834
11,-0.319725,0.40465,1.113098,-0.047906,-27.080268,-54.46344,-78.712726,-97.523758,-64.301033,-92.888717,-108.205513,-120.764408,-56.714286,-86.889576,-104.671623,-118.17984,-46.075538,-73.100818,-90.536499,-104.248638,-34.321083,-55.397621,-68.586181,-79.825767,-16.334441,-19.573608,-15.292489,-12.853718,14.142623,28.30939,34.768903,38.371052,31.149539,47.339077,54.313674,58.191921,43.157215,59.935914,65.944253,68.632681,50.325252,65.321822,69.884399,71.222024,-12.195144,-27.35511,-34.364433,-35.38599,-13.783996,-40.803016,-60.74699,-77.409393,-7.492058,-30.115024,-54.019523,-76.644436,-0.779938,-23.161056,-46.984806,-66.903797,6.805,14.922547,18.400818,16.138893,-20.994992,-31.504764,-30.771268,-21.709222,-6.190491,15.982229,27.537769,32.06484,15.778861,36.572657,44.30061,45.450675,31.234285,49.150475,54.665812,53.758748,42.292623,51.873434,55.28407,53.067526,50.44654,299.048038,6.176124,310.827658
12,-0.491226,0.389238,0.449547,0.076916,-26.732116,-53.914718,-78.143039,-96.955089,-63.696991,-92.311477,-107.708576,-120.310787,-56.166984,-86.403591,-104.248512,-117.697529,-45.653709,-72.768734,-90.19574,-103.808143,-34.12445,-55.37709,-68.397846,-79.324848,-16.790999,-20.125744,-15.761064,-13.153838,13.567949,27.542215,33.997257,37.606569,30.712247,46.774653,53.727057,57.482112,42.816785,59.609315,65.500737,68.029231,49.979758,64.941043,69.295485,70.402522,-12.121307,-27.323215,-34.873135,-36.833187,-13.387413,-40.751278,-60.620258,-77.251602,-7.494026,-30.406574,-54.192444,-76.639355,-1.179359,-23.890549,-47.695805,-67.67942,6.091484,13.665596,16.712013,14.140686,-21.489921,-32.678243,-32.385423,-23.578764,-6.630166,15.361428,26.672424,30.94601,15.715147,36.242775,43.981139,44.951003,31.510495,49.22155,54.726143,53.516501,42.954686,52.622096,55.839564,53.146802,49.867355,299.456959,6.537712,310.924257
13,-0.29528,0.41416,0.539772,0.193884,-26.481812,-53.379296,-77.461636,-96.284626,-63.321167,-91.889969,-107.367451,-119.988236,-55.876557,-85.973706,-103.926728,-117.377827,-45.471337,-72.502533,-90.04184,-103.652287,-34.05748,-55.238983,-68.172993,-78.984833,-17.175729,-20.677323,-16.168888,-13.464801,12.878864,26.842781,33.355671,37.034822,30.128471,46.146033,53.12099,56.914478,42.33838,59.036605,64.906179,67.417754,49.55494,64.449115,68.808904,69.938875,-11.601952,-26.870373,-35.169067,-38.159317,-13.193939,-40.295757,-60.141884,-76.857239,-7.769943,-30.378719,-54.052048,-76.558296,-1.841011,-24.302971,-47.906776,-67.922859,5.111572,12.797951,15.841667,13.278259,-21.872465,-33.634128,-33.576156,-24.975633,-6.915391,15.198444,26.361251,30.524131,15.689656,35.89554,43.623357,44.630827,31.674763,49.093628,54.561998,53.207613,43.355866,53.117038,56.102781,52.943075,49.492522,299.887622,6.997931,311.134644
14,-0.181458,0.46067,0.94352,0.143805,-26.235901,-52.993217,-77.071357,-95.984791,-63.054725,-91.653122,-107.346702,-120.089767,-55.588348,-85.57315,-103.6688,-117.097652,-45.21833,-72.188438,-89.802086,-103.359913,-33.837295,-54.911636,-67.765217,-78.372047,-17.511824,-21.152356,-16.59567,-13.828671,12.37151,26.272467,32.747479,36.427347,29.617252,45.719709,52.661406,56.466158,41.817812,58.660533,64.545854,67.105408,48.977723,64.017653,68.394053,69.560753,-11.097634,-26.829495,-36.479485,-40.798943,-13.916428,-41.149292,-60.689942,-77.106663,-8.913392,-31.455735,-54.474438,-76.445332,-3.267952,-25.542481,-48.561814,-68.058163,3.582573,11.745712,15.990852,14.655487,-22.646,-35.629099,-36.328904,-28.150358,-7.283017,14.937103,25.888168,29.76418,15.951934,35.842125,43.564977,44.589231,32.210311,49.378976,54.651473,52.95745,44.192645,53.893783,56.371346,52.415133,49.237976,300.366832,7.868363,311.296989
15,-0.112747,0.493806,1.279976,-0.139976,-25.98008,-52.528931,-76.508629,-95.453716,-62.816162,-91.46664,-107.300377,-120.097755,-55.448799,-85.433235,-103.680187,-117.106029,-45.191093,-72.241344,-89.944565,-103.465118,-33.872932,-55.09996,-68.013645,-78.611813,-17.857256,-21.628366,-17.010818,-14.336766,11.721476,25.617862,32.040745,35.717501,28.923733,45.10255,52.042679,55.932436,41.158354,58.013364,63.848123,66.472182,48.433442,63.416302,67.745019,68.981719,-10.961586,-27.062668,-37.768525,-43.217835,-15.353966,-42.916569,-62.069378,-78.186734,-10.523919,-33.316853,-55.890622,-77.430874,-4.733117,-27.15992,-49.857045,-68.996739,2.429306,10.377937,14.992538,14.148056,-22.91853,-36.30592,-37.206167,-29.37493,-7.300875,14.704206,25.346333,29.031684,16.189414,35.770865,43.311331,44.307773,32.505787,49.571106,54.647546,52.716216,44.609856,54.499617,56.668785,52.325706,49.046373,300.891467,9.069483,311.187842
16,-0.353348,0.385804,0.856636,-0.042818,-25.648178,-51.949264,-75.830177,-94.846229,-62.309944,-91.08078,-107.088844,-119.898674,-54.95652,-85.149238,-103.573276,-116.90998,-44.800277,-72.083278,-89.899841,-103.312877,-33.649177,-55.182975,-68.187229,-78.699978,-18.164797,-21.985196,-17.382173,-14.621102,11.243602,25.228514,31.673454,35.296943,28.527641,44.925191,51.761468,55.397678,40.865472,57.948378,63.591958,65.987713,48.17593,63.270572,67.43003,68.455951,-10.777314,-27.216179,-38.70718,-44.893959,-16.357956,-44.203549,-62.868359,-78.559056,-11.771737,-34.87674,-56.816861,-77.812821,-6.028313,-28.514924,-50.821324,-69.479611,1.226051,9.209083,14.367988,14.107818,-23.283536,-37.006799,-38.171437,-30.725819,-7.19391,14.553276,24.910956,28.409463,16.501378,35.753081,43.182174,44.214617,32.786233,49.717109,54.559404,52.490901,44.832355,54.91584,56.861039,52.265104,48.608036,301.306812,9.84113,311.174565
17,0.019547,0.255042,0.489715,-0.197465,-25.676834,-51.861031,-75.597485,-94.525704,-62.23645,-91.036949,-107.144806,-120.000881,-54.894219,-84.937042,-103.423233,-116.792713,-44.71138,-71.87415,-89.672631,-102.967438,-33.487862,-54.971878,-68.031143,-78.564892,-18.279258,-22.234063,-17.652047,-14.968856,10.929403,24.819689,31.210054,34.811498,28.166475,44.600964,51.457717,55.187973,40.494315,57.559967,63.249144,65.723927,47.866634,62.927399,67.165207,68.291682,-10.844284,-27.634827,-39.27594,-45.532745,-16.909653,-44.63237,-62.940079,-78.318546,-12.414917,-35.550911,-57.092056,-77.733181,-6.693924,-29.258743,-51.339432,-69.606617,0.616608,8.703209,14.366501,14.582611,-23.376928,-37.069217,-38.167189,-30.932659,-7.033199,14.747962,25.119425,28.634024,16.603735,35.834468,43.312665,44.433657,32.76772,49.667128,54.505989,52.551515,44.704828,54.925275,56.872648,52.312318,48.553311,301.596061,10.256573,311.011307
18,-0.099518,0.053612,-0.306244,-0.410171,-25.58345,-51.738487,-75.464241,-94.45903,-61.953186,-90.831585,-107.048733,-119.963436,-54.506699,-84.629677,-103.191822,-116.56414,-44.243637,-71.466076,-89.242847,-102.425652,-32.986107,-54.564835,-67.643692,-78.042915,-18.363832,-22.27824,-17.805028,-15.23111,10.886634,24.637772,30.974562,34.53251,28.115024,44.655761,51.470339,55.113391,40.407468,57.726644,63.396962,65.840203,47.72856,62.938588,67.091266,68.111606,-10.984176,-27.625442,-38.953193,-44.934173,-16.864448,-44.48743,-62.580242,-77.769356,-12.235977,-35.320186,-56.740791,-77.276401,-6.350555,-28.811531,-50.843628,-68.950561,1.158348,9.639084,15.938874,16.726296,-23.052059,-36.580339,-37.738839,-30.648397,-6.561414,15.178103,25.682379,29.320973,16.858418,36.145035,43.670126,44.764479,32.773315,49.627596,54.497567,52.66353,44.458555,54.67952,56.723521,52.333943,48.381495,301.683006,9.878031,310.634469
19,-0.125221,-0.049784,-0.133484,-0.04488,-25.63662,-51.563141,-75.152012,-94.067963,-61.590592,-90.495724,-106.639218,-119.509976,-54.214073,-84.316944,-102.807152,-116.151867,-43.998116,-71.240994,-88.943196,-102.032856,-32.828499,-54.49054,-67.518975,-77.839222,-18.323817,-22.320847,-17.995564,-15.579172,10.776991,24.471874,30.781889,34.295846,28.007505,44.544055,51.331537,54.946826,40.319895,57.606836,63.188703,65.563673,47.644753,62.774815,66.816429,67.745501,-11.614402,-28.114448,-38.883556,-44.62231,-17.073166,-44.752739,-62.538894,-77.446552,-12.179992,-35.1935,-56.585025,-76.993835,-5.899795,-28.376289,-50.56311,-68.725021,2.070809,10.043335,15.956086,16.409111,-22.95947,-36.443513,-37.753918,-30.999152,-6.727831,14.677653,25.141865,28.861438,16.590532,35.806754,43.339798,44.453306,32.514642,49.376135,54.306721,52.541931,44.206786,54.564714,56.788655,52.662579,48.190848,301.663591,9.679121,310.619958
20,-0.08741,-0.128663,-1.909057,0.003556,-25.663307,-51.475296,-75.059658,-94.007252,-61.391007,-90.251313,-106.342095,-119.182709,-53.951363,-83.980717,-102.417835,-115.720848,-43.672852,-70.829945,-88.520325,-101.578034,-32.499161,-54.138863,-67.157318,-77.406155,-18.32394,-22.326244,-18.179123,-15.826297,10.786142,24.431254,30.740751,34.241197,28.016026,44.529099,51.304268,54.894844,40.309953,57.631524,63.226025,65.603539,47.55177,62.685598,66.71186,67.627372,-11.158264,-26.862397,-36.548756,-41.490269,-15.131905,-42.296082,-60.144802,-75.171044,-10.267708,-32.644615,-54.331055,-75.097447,-4.009209,-25.921715,-48.414173,-66.876789,4.029854,12.575889,18.774536,19.290916,-22.586547,-35.728986,-37.151715,-30.744048,-6.313905,15.03262,25.731731,29.786213,16.60623,35.905123,43.477428,44.745522,32.200099,48.944291,53.996104,52.681833,43.501647,53.651759,56.12758,52.547106,48.049227,301.567004,7.715853,310.65559
21,-0.00689,-0.24731,-2.542511,-0.347716,-25.660194,-51.422721,-75.036872,-94.043197,-61.353309,-90.08559,-106.065879,-118.842887,-53.859924,-83.748447,-102.140808,-115.430259,-43.468505,-70.520633,-88.249431,-101.359874,-32.157852,-53.735962,-66.786964,-77.044017,-18.330746,-22.290923,-18.25709,-16.046462,10.774014,24.483989,30.789286,34.289744,27.911816,44.472301,51.319606,55.039476,40.146734,57.520595,63.258999,65.788123,47.379411,62.514697,66.604389,67.615244,-10.648613,-25.151837,-33.253269,-37.053555,-12.592209,-38.823521,-57.035065,-72.49886,-7.607529,-28.928158,-51.336262,-72.868584,-1.237702,-22.252075,-45.291653,-64.352532,6.907425,16.43621,22.750992,23.023658,-21.460158,-33.365057,-34.192179,-27.541054,-5.382302,16.153772,26.990957,31.292515,16.58043,36.226336,43.711425,45.01137,31.531329,48.372506,53.536607,52.715857,42.194699,52.342415,55.212389,52.344478,47.982805,301.35709,5.11381,310.34527
22,-0.110435,-0.281903,-1.754494,-0.113781,-25.527168,-51.244423,-74.910622,-93.995453,-61.31234,-89.839771,-105.695526,-118.377182,-53.817078,-83.583275,-101.952633,-115.17865,-43.366127,-70.334175,-88.135849,-101.31942,-31.965271,-53.516419,-66.602738,-76.862675,-18.329992,-22.213007,-18.335241,-16.236147,10.733111,24.615406,30.951863,34.483369,27.787315,44.42726,51.302563,55.026755,39.983095,57.50307,63.323924,65.912488,47.179402,62.404201,66.52283,67.581034,-10.25956,-23.930546,-30.987694,-33.774708,-11.052521,-36.777122,-55.187977,-70.941524,-5.946808,-26.627003,-49.230171,-71.049019,0.540413,-19.671822,-42.775257,-62.065304,8.834793,19.230171,26.050598,26.726555,-20.995597,-32.57107,-33.373801,-26.859466,-5.063781,16.567734,27.44397,31.921702,16.549604,36.507992,43.839791,45.187605,31.294491,48.317597,53.438127,52.863589,41.671611,51.716649,54.746371,52.288297,47.809879,301.110521,3.296825,310.266823
23,-0.180634,-0.637548,-1.464844,-0.005447,-25.529548,-51.204986,-74.865612,-93.971786,-61.314743,-89.655418,-105.394855,-118.023033,-53.726692,-83.329433,-101.669895,-114.872646,-43.101104,-69.860103,-87.748741,-101.0331,-31.432228,-52.750602,-65.927581,-76.303253,-18.06764,-21.843468,-18.034233,-15.988615,11.13182,25.11693,31.49702,35.099551,28.003429,44.71367,51.646859,55.455735,40.038201,57.705685,63.669701,66.345865,47.110834,62.479622,66.692729,67.791343,-9.890442,-22.852192,-28.991546,-30.756489,-9.729995,-35.105026,-53.48053,-69.309242,-4.614029,-24.664043,-47.326526,-69.299846,1.943207,-17.589798,-40.77111,-60.210869,10.373223,21.363533,28.486519,29.303284,-20.771011,-31.882997,-32.479296,-25.943954,-4.9654,16.63398,27.582711,32.243879,16.294032,36.374723,43.703904,45.180097,30.845307,47.904043,53.010815,52.678968,40.984835,50.860653,54.005873,51.890106,47.573862,300.514466,1.776598,310.302869
24,0.229523,-0.51201,-0.849243,-0.330945,-25.572372,-51.361381,-75.055881,-94.187942,-61.352257,-89.620857,-105.366177,-118.046631,-53.733833,-83.314796,-101.703026,-115.013649,-43.069656,-69.786026,-87.781643,-101.221893,-31.358642,-52.647217,-65.955528,-76.519009,-18.037728,-21.608816,-17.639932,-15.5882,11.296386,25.336256,31.760102,35.453777,28.060202,44.818177,51.859527,55.774602,39.981267,57.771771,63.940798,66.789492,47.013293,62.433544,66.838288,68.177988,-9.480743,-22.307464,-27.802288,-28.349831,-9.004188,-34.253345,-52.535133,-68.294964,-3.771995,-23.656048,-46.172859,-68.16037,2.806069,-16.50634,-39.568828,-58.942978,11.151558,22.803658,30.541031,31.763397,-20.535112,-31.365134,-31.728189,-24.932322,-4.671382,16.926455,28.193163,33.250917,16.398674,36.637705,44.095166,45.865711,30.7233,47.826657,53.023621,53.008332,40.589423,50.286028,53.489195,51.594754,47.752195,300.047737,0.876165,310.017205
25,0.105171,-0.450667,-0.086586,-0.029628,-25.63433,-51.484565,-75.133678,-94.06588,-61.413643,-89.524143,-105.280048,-118.025688,-53.718864,-83.189975,-101.590622,-114.921741,-43.034843,-69.629574,-87.590618,-101.034313,-31.273063,-52.409202,-65.676819,-76.307155,-17.904631,-21.466283,-17.378307,-14.973252,11.347849,25.617961,32.162665,35.979137,27.99739,44.949187,52.08772,56.101114,39.850196,57.800374,64.094174,67.067592,46.888459,62.440683,66.938311,68.410886,-9.615669,-22.604793,-27.491112,-26.693161,-9.064041,-34.479801,-52.841286,-68.346691,-3.451057,-23.545933,-45.755253,-67.18095,3.152001,-16.03054,-38.949417,-58.047535,11.155998,23.432259,31.557861,33.344353,-20.304177,-31.334221,-31.86693,-24.741661,-5.118331,16.428537,27.641473,32.593942,16.167641,36.664344,44.406426,46.405855,30.671627,48.331121,53.570026,53.374142,40.616148,50.331687,53.266412,51.13133,47.807499,299.629357,0.739712,310.019864
26,0.229363,-0.641562,0.062096,0.059491,-25.827049,-51.772682,-75.271626,-93.974591,-61.345528,-89.426628,-105.353588,-118.356674,-53.514611,-82.931923,-101.446953,-114.941345,-42.803375,-69.359986,-87.407444,-100.926441,-31.058716,-52.030014,-65.293305,-76.045521,-17.666324,-21.258975,-16.958343,-14.280882,11.338425,25.739338,32.432934,36.472449,27.939715,45.066414,52.295386,56.469924,39.801104,57.821011,64.187429,67.287361,46.928053,62.582548,67.139074,68.717377,-9.921799,-23.163494,-27.583855,-25.932175,-8.973381,-34.652298,-53.23217,-68.702179,-2.910073,-23.208802,-45.414643,-66.78368,3.706192,-15.434052,-38.39391,-57.633168,11.370735,23.896156,31.866211,33.655449,-20.258199,-32.185847,-33.684924,-26.771669,-5.690486,15.560585,26.866332,31.775934,15.910685,36.588872,44.675817,46.793202,30.830819,48.808674,54.423663,54.218788,41.051772,50.525496,53.439263,51.233267,48.001145,299.015425,0.766091,310.106985
27,0.391914,-1.313468,-1.017655,-0.631596,-25.998825,-51.791862,-74.923942,-93.247124,-61.188125,-89.164787,-105.298485,-118.596657,-53.522415,-82.596004,-101.221687,-115.114643,-43.021385,-69.318191,-87.426601,-101.170475,-31.384872,-52.180618,-65.515686,-76.663673,-17.459831,-21.190667,-16.601907,-13.871452,11.428161,25.847907,32.742884,37.212515,27.926636,44.867565,52.384998,57.182153,39.79793,57.404776,64.056431,67.67114,47.130149,62.618227,67.553221,69.706841,-9.318718,-21.846164,-25.422077,-22.839363,-7.225044,-33.175323,-52.131992,-67.841365,-1.063545,-21.615646,-44.312519,-66.068126,5.422211,-13.739341,-37.229908,-56.765842,12.581223,25.290688,32.539238,33.685685,-19.07863,-30.372002,-31.707021,-24.652123,-4.69786,16.501698,27.673287,32.481495,16.088255,36.900898,45.015692,47.335581,30.385192,48.591893,54.281329,54.389528,40.05191,49.819343,52.755872,50.926355,48.365822,297.732576,-0.278801,309.506008
28,0.160721,-2.137689,-9.046714,-5.068536,-25.92849,-51.23687,-73.801666,-91.598808,-60.05967,-88.139969,-104.322178,-117.610085,-52.764587,-82.038048,-100.736641,-114.922325,-42.82576,-69.581474,-87.635983,-101.438725,-31.750282,-53.122192,-66.504112,-77.892746,-17.801458,-21.697637,-16.700806,-13.842132,10.33597,25.26181,32.762842,37.938083,26.948547,44.020708,52.096575,57.569823,39.226604,56.319945,63.420032,67.616553,47.199447,62.21501,67.514764,70.21569,-3.986138,-10.643498,-9.196976,-2.205929,5.288543,-18.834126,-38.988385,-56.091511,9.970275,-10.335961,-33.883072,-55.980549,14.165977,-4.815903,-28.988915,-49.158841,18.542678,29.804534,34.359123,33.568748,-7.478024,-12.525885,-11.648239,-3.332929,3.555058,25.349187,36.721044,41.82353,17.399142,39.437519,47.890854,50.9701,25.891726,45.346984,51.61176,53.158497,30.551671,40.920813,44.99797,45.1222,48.505972,295.633431,-9.346086,304.476016
29,0.542129,-5.388217,-9.333333,-5.282636,-25.454658,-50.859855,-72.941768,-90.435504,-58.293891,-86.071392,-102.010082,-114.957721,-50.740539,-79.936603,-98.511028,-112.663112,-40.872848,-67.432353,-85.463539,-99.220493,-30.041015,-51.248519,-64.627029,-76.142452,-17.786317,-21.2909,-16.032296,-12.987482,9.525075,25.425189,34.046621,40.177498,26.32551,44.523541,53.552909,59.992501,38.928682,56.532465,64.500232,69.405438,47.316513,62.879667,69.011112,72.364814,0.646557,0.459469,5.999062,15.997147,18.672192,0.764958,-18.000034,-35.228851,21.853009,4.32288,-19.837657,-42.427688,23.21307,6.039151,-18.194286,-38.565273,23.948926,33.241711,34.542904,31.557713,3.371622,4.360764,7.311829,16.296378,11.938355,31.709022,43.193499,49.026665,18.733963,39.836598,49.994047,54.819286,21.241228,40.169816,48.334134,51.942557,20.701368,30.130261,34.958909,36.721278,49.026615,290.394959,-18.700905,299.343125
30,1.030175,-8.487668,-18.885257,-11.651031,-25.553215,-50.909683,-72.070118,-88.648407,-55.092911,-82.818775,-98.234734,-110.072045,-46.33049,-75.848534,-93.775017,-106.73156,-36.045937,-62.558728,-80.36863,-93.488629,-25.541977,-46.599587,-60.061959,-71.593643,-17.179545,-19.596555,-13.300854,-9.474205,7.795211,25.539637,35.65034,42.587234,24.440862,44.855524,54.760253,61.370474,37.318417,56.730733,65.525832,70.682522,46.166893,63.181712,69.793959,73.322513,7.907226,17.443371,29.311672,40.981087,34.77063,32.437053,17.049946,1.003063,35.566486,33.059028,11.929928,-9.083325,34.969597,31.553535,10.136307,-9.141175,33.926239,48.766845,47.150871,41.315048,14.5142,22.427503,26.463683,32.653494,27.82586,38.682817,45.333855,50.05066,27.160709,37.922262,43.665137,48.045662,22.432542,32.129345,37.086445,41.290636,15.220538,19.203724,22.455809,25.165862,50.049843,282.291459,-37.593109,288.076262
31,10.63639,-17.972421,-15.156487,-17.932122,-26.675285,-53.077377,-74.275085,-90.314094,-55.61293,-83.134037,-97.412498,-107.659355,-45.751945,-75.536052,-92.372005,-103.813327,-34.803405,-61.666797,-78.835155,-90.970722,-24.048568,-45.322975,-58.728035,-70.295311,-15.138014,-15.54963,-8.234627,-3.55875,7.602044,28.602161,40.272508,47.774343,23.718087,47.380017,58.707821,65.591881,36.686958,58.490238,68.793874,74.430403,45.987101,64.852296,72.805021,77.024896,16.238537,32.695965,47.525997,60.53151,47.339424,54.843601,44.496987,31.542595,45.110527,51.636269,36.011936,18.704315,41.346451,46.063362,30.159256,14.552387,37.111119,52.803326,50.913883,44.913861,20.60752,34.729815,42.470167,49.136804,38.957149,50.868075,55.31881,58.044856,34.801433,46.496393,49.794285,51.995205,27.128055,38.047344,41.011005,43.816981,17.418309,23.793706,26.143519,28.277564,60.777631,265.017349,-52.658198,270.842451
32,15.779915,-23.685593,-24.276867,-27.786105,-27.016708,-54.60553,-75.93956,-91.935985,-53.563659,-80.310402,-93.155342,-101.870258,-42.042846,-71.656036,-87.611274,-98.066734,-30.076629,-56.607055,-73.265121,-84.781757,-18.911819,-39.978058,-53.19017,-64.443603,-13.504753,-12.014827,-3.422726,2.277862,3.542646,26.809226,40.413249,48.904029,18.439921,45.223248,59.174025,67.701756,31.318982,55.990334,68.54339,75.518173,41.531882,62.196645,71.467,76.526285,24.67503,48.286114,66.957688,82.299786,58.982792,76.89069,72.98814,64.475178,52.824383,69.479508,61.731995,50.628067,44.880467,59.332363,51.604409,41.862294,36.740502,54.742642,54.699246,50.70369,22.663241,41.126442,52.462311,60.43708,42.769756,57.248548,62.758229,66.219636,37.657884,52.225794,57.301468,60.557493,29.89708,43.741436,48.318562,51.878448,20.619414,29.905243,33.621161,36.684586,76.68596,242.514119,-76.806651,244.238709
33,21.934639,-21.778221,-21.773529,-29.751644,-28.061691,-55.460197,-76.437675,-92.260345,-50.243866,-73.87762,-85.872368,-93.624138,-37.085678,-64.916748,-80.274559,-89.830021,-24.508438,-49.946251,-66.06633,-76.621582,-13.559601,-34.540603,-47.548233,-58.168144,-13.819496,-13.64158,-6.60785,-0.776117,-8.103272,12.832019,26.572116,35.748227,5.036511,32.392191,48.029408,58.128367,17.840101,43.779053,57.959455,66.355251,29.232509,50.447023,60.442958,66.286992,28.199719,54.259003,72.616894,85.895153,57.292958,82.058922,85.412659,83.215874,48.063195,72.073242,73.079407,69.361519,37.927094,59.68911,60.583718,58.264721,28.286591,48.677136,52.349728,52.36805,14.39118,31.166272,43.443316,51.034776,36.359284,50.678143,56.875674,61.47188,35.80011,50.386014,57.637735,62.7327,32.866471,47.086936,53.787227,58.494905,28.476733,39.375743,43.803161,47.036338,98.933962,222.394455,-98.266817,216.145622
34,22.957878,-35.524975,-25.377914,-30.704701,-28.195861,-53.62928,-72.13797,-84.616207,-42.697471,-62.701217,-73.787315,-80.589969,-27.94281,-52.332481,-67.565689,-76.276062,-14.977867,-37.525703,-53.579223,-63.570533,-4.368507,-23.11663,-36.078048,-46.207237,-9.967314,-7.979562,0.073458,6.893951,-8.22329,13.866759,27.821722,36.405227,2.890999,31.511889,47.045094,56.797152,14.491265,41.58595,55.9107,64.519065,25.277494,46.533295,56.552966,62.922681,31.515941,57.359264,75.556961,87.295521,49.269207,77.113895,85.653007,88.473324,36.722099,67.923076,77.858894,81.310593,26.04015,56.162132,65.675697,69.96603,17.879791,43.561615,52.005833,56.042209,5.580483,20.0943,33.264156,41.492251,25.422824,40.842377,46.929424,51.649922,28.900415,46.523872,53.851892,58.961417,31.56991,48.81659,55.424218,59.606104,33.223191,47.378991,52.298042,55.102832,122.237726,189.332685,-123.298845,187.904126
35,24.265435,-26.341034,-20.357803,-21.579978,-26.253228,-47.77398,-60.939171,-67.761475,-34.14901,-47.729439,-56.697945,-62.392571,-19.030381,-36.607682,-50.245217,-58.487778,-6.072556,-23.409279,-38.570824,-48.247742,4.557014,-9.972062,-22.470337,-32.09816,-10.317117,-12.008399,-7.44279,-2.000417,-19.320969,-2.996464,10.406908,19.291749,-10.052276,11.826865,27.543536,38.424675,0.850612,23.117878,38.096033,47.692159,12.153321,28.633301,39.313887,46.566529,31.024715,52.842418,67.282436,77.311592,37.254375,56.976116,68.310058,74.642154,22.989624,45.886985,60.330894,68.417003,11.321502,34.954742,49.907821,59.311683,2.885925,23.904258,37.06668,46.039981,-3.752968,3.650647,15.460994,25.22587,0.397191,21.709505,32.842666,39.750469,7.887874,32.959165,45.320899,52.502164,17.057013,42.76726,53.823956,59.399326,26.242467,46.172178,53.815027,57.481285,146.772658,165.363664,-143.387151,168.696161
36,18.433181,-20.318992,-26.290564,-16.722772,-22.358322,-38.767936,-45.499305,-46.664039,-20.197746,-25.425087,-31.047454,-34.765457,-4.206001,-14.976699,-28.087692,-36.50814,8.336495,-3.207298,-18.133552,-27.987716,17.928795,8.294037,-4.15084,-13.487022,-11.227089,-16.756091,-13.788651,-9.914059,-31.420968,-22.433653,-12.086939,-4.229817,-24.130955,-7.123367,8.451057,19.553707,-13.579595,5.548046,19.831682,28.916687,-1.765475,11.868923,21.761099,28.188483,28.380238,47.775335,59.345644,66.488485,28.527054,41.938059,53.019213,60.622473,12.923985,29.349581,45.000818,55.923574,0.954889,19.565832,36.487335,48.633694,-6.955873,10.62993,25.194574,36.515825,-7.583037,-6.233135,1.635997,9.463057,-18.761016,-1.822893,11.480168,20.795857,-11.529833,10.213414,25.852502,35.921685,-0.936957,22.825164,36.829879,44.503609,10.57532,28.727129,38.35743,43.45442,165.206085,147.343908,-169.677469,154.272625
37,15.738488,-14.630457,-19.682568,-7.737548,-18.867005,-27.959381,-26.645279,-21.129547,-8.800278,-6.289124,-6.589417,-5.576844,6.414138,4.097465,-4.147957,-8.787896,17.742691,13.716751,1.437469,-6.977646,25.727211,21.868286,11.19429,3.070015,-11.330744,-19.522485,-18.627253,-15.403245,-38.357065,-35.910717,-28.96421,-22.78886,-32.282239,-21.958416,-9.388662,-0.165812,-22.644469,-8.490015,4.385977,12.343259,-11.677052,-2.132217,7.070336,13.045269,24.138474,39.435248,45.175948,46.989653,20.469109,23.677351,31.568751,38.727019,4.496041,9.772253,23.260168,34.507822,-7.207952,1.041041,16.496487,29.03167,-14.498617,-5.000845,7.986266,19.241965,-7.234321,-10.408773,-7.04027,-2.1298,-30.280278,-19.7352,-7.420307,0.97682,-25.786139,-8.765768,6.415719,14.975858,-16.865125,3.113184,16.705172,23.087898,-6.600335,8.95522,18.601854,22.744677,180.873104,134.720648,-189.431506,148.542274
38,10.417762,-16.217727,-14.555734,-3.077545,-11.621086,-13.353218,-5.544296,5.202622,1.215958,10.039444,15.45028,21.271637,12.9459,19.255577,17.462632,17.550843,21.903305,27.589463,20.054581,13.971909,28.352829,32.777573,26.149086,20.424408,-10.412657,-17.939056,-16.160651,-12.661928,-36.030377,-35.634996,-31.214104,-27.553435,-30.360695,-24.512598,-15.954979,-9.889069,-21.284064,-10.083163,0.68861,6.67995,-11.037485,-4.154327,3.906973,8.854398,19.248762,28.714508,27.982544,24.802402,13.151132,7.629707,11.143369,15.940584,-2.625876,-6.343958,3.667625,13.474394,-13.909716,-13.733786,-0.291418,11.19354,-20.576391,-17.546797,-6.374182,3.776344,-6.064839,-11.617547,-10.650733,-8.180451,-36.764257,-29.358607,-17.880054,-10.727828,-34.537503,-19.517672,-5.532803,0.748393,-26.982534,-8.311837,3.829831,7.818902,-17.635973,-3.524791,5.626509,8.527451,191.040292,120.185799,-204.237814,147.147607
39,12.978241,0.326647,-11.958664,-3.391129,-9.427253,-7.436668,6.202515,20.597351,7.93657,23.875306,34.460472,44.328209,19.84005,30.167473,28.048806,27.678658,28.5355,37.927849,30.286904,24.303658,34.359558,41.767662,34.83712,29.220635,-12.946931,-24.148369,-22.571745,-19.680949,-46.818656,-51.87431,-49.950513,-47.821785,-41.563424,-37.844832,-29.071939,-24.833107,-31.928643,-22.369895,-12.318676,-8.788689,-20.757635,-14.826545,-7.388875,-4.569882,14.86873,19.998836,13.149719,5.198158,10.534246,-4.043278,-6.703222,-5.564787,-5.195395,-19.963972,-14.7999,-6.835242,-17.364172,-27.419306,-16.943865,-6.496851,-25.481638,-30.620528,-21.934897,-12.919567,-2.596139,-7.775504,-7.472741,-7.917623,-36.708619,-29.894742,-18.226678,-11.290603,-36.568579,-23.546343,-9.967884,-4.628283,-31.062748,-13.825673,-2.309104,0.759428,-23.362521,-10.775889,-1.553712,1.553217,203.73512,121.460639,-216.479891,144.704671
40,10.729088,-8.649343,-6.158226,-4.638432,-7.267662,-3.333618,11.766289,27.15992,12.845696,32.486733,46.758293,60.406082,24.463486,37.510483,33.577515,32.207817,32.601952,44.897804,36.341309,30.195648,37.500618,46.665505,39.263329,33.516724,-11.148839,-20.257716,-15.365213,-12.444276,-44.551903,-47.86543,-47.903672,-47.969183,-39.297381,-30.138153,-22.149403,-21.423768,-29.634553,-16.650597,-8.328654,-8.007101,-19.033372,-9.380783,-3.375092,-3.157107,7.322519,6.038257,-5.496666,-15.399308,2.665335,-16.950176,-21.825514,-21.848608,-10.369864,-30.788172,-28.28183,-21.559599,-20.95265,-37.526991,-30.203997,-21.493807,-28.501619,-40.564173,-36.779841,-31.715206,-0.695349,-4.588423,-4.322118,-5.431396,-33.153228,-25.041499,-12.745266,-5.926813,-34.458221,-19.871088,-5.474053,-0.318314,-30.878874,-13.926042,-2.192315,0.487764,-25.054735,-13.741118,-4.800733,-2.029875,214.195078,113.784217,-222.907247,141.03916
41,5.486343,-7.339107,-3.414225,-6.198318,-6.793144,-1.472557,15.215893,31.962147,14.314751,36.136826,52.019841,67.428876,25.506833,41.71027,37.02118,34.980515,33.423958,48.805974,40.048634,33.927224,37.973694,48.584244,41.316308,35.78246,-10.112825,-17.98645,-12.078217,-8.959065,-43.018675,-44.63753,-44.15679,-44.844628,-37.880599,-26.823851,-19.379117,-20.750578,-28.717885,-14.954246,-7.189755,-8.349246,-18.787523,-8.224303,-2.629444,-3.396387,1.346495,-4.63611,-18.595768,-29.297996,-2.605076,-23.619037,-29.994415,-31.179954,-12.564634,-34.686293,-34.359981,-29.177919,-20.889713,-39.794718,-35.115475,-28.225456,-27.105657,-42.076464,-41.56596,-39.272495,0.395061,-3.331663,-4.031063,-6.420144,-31.801548,-22.879849,-10.080591,-3.090648,-34.44262,-19.600575,-4.618869,1.086428,-32.404665,-16.021086,-3.796767,-0.562527,-27.842674,-17.409148,-8.443378,-5.467369,219.506126,107.472214,-226.496767,135.867946
42,1.558159,-9.151312,-0.670223,-7.758204,-7.59336,-3.699943,13.124119,30.481831,14.215737,38.495522,53.267315,66.89407,26.766392,44.024403,34.64637,28.522637,35.401269,51.421177,40.361058,33.03479,40.207741,50.967041,42.266053,35.973507,-9.199907,-16.872288,-10.119179,-7.576572,-43.065025,-42.943889,-41.940149,-43.136915,-38.642525,-23.95494,-15.078176,-17.515616,-29.559351,-13.503803,-5.996589,-8.738063,-19.59231,-6.920246,-1.660599,-3.969017,-3.059343,-12.024267,-26.147587,-36.49791,-5.276985,-24.049862,-31.209927,-33.558827,-11.779707,-31.658335,-33.034355,-29.690203,-17.175362,-34.222487,-31.678299,-26.691799,-21.293753,-35.1574,-36.293255,-35.591435,0.675092,-4.005225,-6.599578,-10.883865,-32.653581,-23.409791,-10.232652,-2.782106,-36.521775,-22.734804,-7.402331,-0.414058,-35.640121,-20.110803,-7.12246,-2.391445,-31.726337,-21.779979,-12.481645,-8.759265,220.690744,99.677086,-227.540531,129.465926
43,-2.346439,-10.894703,0.454565,-10.420521,-11.941898,-11.301338,6.715885,25.730084,12.349331,37.971291,50.794006,61.963406,29.17392,45.720703,30.502968,19.544014,40.338741,54.228127,38.769425,28.932129,46.268177,55.096504,42.723507,34.110638,-7.106487,-15.047217,-8.299169,-6.419455,-44.084311,-43.012478,-40.735817,-41.486177,-40.831376,-22.845713,-11.01447,-13.391423,-32.476718,-14.583706,-6.476939,-10.358884,-23.224524,-8.447246,-2.712399,-6.08525,-3.379314,-10.453548,-21.742235,-29.763296,-1.133932,-18.657732,-24.813286,-25.905384,-6.328262,-25.527781,-27.323336,-24.073317,-11.172558,-28.135191,-27.078604,-22.793718,-15.427488,-29.818159,-31.94149,-31.507032,0.050515,-6.72274,-12.335059,-17.99466,-34.404606,-27.898867,-14.642421,-7.138493,-39.415229,-29.106863,-13.594733,-6.103065,-39.855754,-28.137619,-14.543139,-8.738644,-37.221882,-30.331151,-20.700937,-16.364776,217.608061,90.181475,-227.82221,120.444497
44,-9.787903,-13.243932,5.509689,-11.366503,-12.908809,-13.215545,4.899548,24.043728,7.788815,32.744225,42.952744,51.241482,24.904564,43.142601,29.287148,18.584084,36.537381,51.749359,37.333878,27.586464,42.901577,52.39801,40.819622,32.215885,-5.979721,-13.819013,-9.044008,-7.836522,-43.545019,-42.600417,-39.427258,-39.533197,-41.418363,-24.465081,-12.646416,-14.713468,-33.845515,-16.201962,-7.843667,-11.366608,-25.101076,-10.227628,-4.31799,-7.646597,-2.289093,-6.173652,-14.474813,-20.206278,4.382956,-13.229776,-17.32307,-15.794059,-0.282165,-19.696546,-20.713228,-16.534246,-5.036728,-22.474657,-21.888605,-17.653696,-9.423963,-24.428644,-26.716472,-25.965528,-1.717449,-11.846128,-22.078082,-29.15735,-39.179748,-36.756476,-23.098455,-15.529516,-45.031553,-38.417732,-21.806927,-13.981405,-46.524657,-38.832889,-23.744815,-17.106411,-45.200092,-40.867927,-30.226592,-25.657825,207.021263,78.50743,-223.111416,110.647881
45,-14.383255,-13.656536,8.912201,-17.532597,-15.030819,-17.707741,0.411633,18.762005,1.894375,26.023636,33.726929,38.826405,20.116356,38.192299,25.353195,14.539055,32.618832,47.753861,34.130356,24.088852,39.577252,49.036926,37.962948,29.163311,-4.660912,-12.323986,-8.416031,-7.356061,-43.286507,-43.205478,-39.175224,-38.592071,-43.023559,-26.326615,-13.229995,-13.903494,-36.247044,-18.081873,-8.618326,-11.388122,-27.630867,-12.305227,-5.341268,-7.960498,4.01524,6.187981,0.026133,-6.802282,15.164595,-3.044924,-7.917984,-6.41756,7.187771,-12.968885,-13.850527,-9.350092,-0.375801,-17.989992,-16.562113,-11.584585,-6.716944,-20.621469,-20.305572,-16.904852,-1.964673,-11.804916,-22.892706,-30.273909,-39.518609,-39.779381,-26.545734,-19.51251,-46.215877,-41.553943,-24.813233,-17.833099,-48.368765,-42.396543,-26.976887,-20.914652,-47.845214,-43.843772,-32.036219,-27.538334,191.966051,66.290929,-214.871172,94.555319
46,-15.721229,-10.451698,13.772003,-15.668942,-17.194165,-22.561432,-8.10862,7.538429,-4.10915,14.549995,18.482357,20.586799,14.127948,28.969127,17.933853,8.551368,27.213604,40.271747,27.908214,18.57653,35.11758,43.353378,32.880329,24.395485,-4.852706,-12.970335,-11.160137,-10.534158,-44.36103,-45.088036,-38.381938,-35.86811,-44.68785,-30.632172,-16.732124,-15.834893,-38.232015,-21.761895,-11.494654,-13.29173,-29.59646,-15.162363,-7.558238,-9.53975,10.311196,17.624737,13.702898,6.175513,22.169758,4.794016,0.360478,2.022944,10.662169,-8.55459,-8.354244,-3.441518,0.207917,-16.309976,-13.492487,-7.840004,-8.123216,-20.588602,-18.08151,-12.950432,-2.165392,-11.219201,-21.748526,-28.059866,-39.729767,-40.708379,-27.568129,-20.958658,-46.389768,-41.352028,-24.755206,-18.585015,-48.227631,-41.994291,-26.819565,-21.479452,-47.406152,-42.954775,-30.677006,-26.357895,175.719223,57.107232,-201.624768,80.154378
47,-19.435684,-7.619569,18.631806,-13.805286,-18.427243,-26.298592,-16.047238,-3.137341,-9.491845,3.56377,4.427307,4.471366,8.501071,19.680679,10.424423,2.775066,22.129646,32.735813,21.707851,13.443294,31.188869,38.370254,28.559314,20.520366,-4.715369,-13.364277,-13.438159,-13.292851,-44.56425,-46.311636,-37.111223,-32.700496,-45.120788,-33.243282,-18.913398,-17.122478,-38.945352,-24.129971,-13.290016,-14.31674,-30.530324,-17.064927,-9.032816,-10.490012,16.598774,28.136615,26.555483,18.727106,25.398445,10.287042,7.512314,9.527452,10.141027,-6.453661,-4.224381,1.191473,-3.285576,-17.434611,-12.679728,-6.419953,-13.642782,-24.330042,-20.044287,-14.102269,-2.319608,-10.088983,-18.645543,-22.515222,-39.813224,-39.54347,-26.165641,-19.867961,-45.55323,-37.811988,-21.632846,-16.237154,-46.101256,-37.626135,-23.272851,-18.800812,-43.882909,-38.200939,-26.148953,-22.116506,156.087107,50.752429,-183.189394,67.613858
48,-21.330815,-4.449392,21.885057,-8.266886,-19.111107,-29.640037,-24.1115,-13.906414,-14.753231,-6.713001,-7.707699,-8.660019,2.937744,10.706486,3.337258,-2.50082,17.173954,25.402794,15.991745,9.076481,27.520706,33.800354,24.964989,17.635243,-4.065897,-13.128804,-14.772125,-15.159794,-44.223626,-46.927167,-35.559107,-29.335666,-45.105601,-35.206275,-20.256688,-17.559856,-39.37837,-26.534736,-14.79212,-14.711156,-31.399831,-19.441052,-10.769528,-11.419933,19.26352,31.528931,30.23857,20.917923,24.340994,11.9685,9.928133,11.208367,7.809769,-5.606907,-2.206724,2.680859,-6.293999,-17.419595,-11.479608,-5.491419,-16.737447,-24.967071,-19.524627,-13.643583,-1.910765,-8.838256,-15.977206,-18.527396,-40.296948,-37.748373,-24.179723,-17.991146,-45.260255,-34.508891,-18.496515,-13.402659,-44.627807,-32.719345,-18.84822,-15.043256,-41.005519,-32.292934,-20.344032,-16.806131,135.081362,47.764434,-160.979267,60.808369
49,-22.354751,-0.030751,21.207974,-4.444819,-19.323349,-32.315518,-31.735566,-24.17347,-18.839974,-15.646317,-17.467736,-18.363156,-1.565346,2.795986,-2.791558,-6.809338,13.04219,18.629573,10.800659,5.432258,24.476841,29.438369,21.652015,15.293758,-3.08054,-11.896709,-14.465563,-15.538149,-43.946133,-46.362886,-33.558358,-26.052472,-45.259076,-35.022046,-19.7116,-16.5786,-39.858119,-27.372535,-15.14553,-14.326214,-32.084249,-20.752116,-11.749764,-11.773047,20.981106,34.05138,33.847257,23.860084,24.438532,15.625517,14.126512,14.640117,7.740257,-2.612412,1.18503,5.233623,-6.661927,-15.323107,-9.319914,-3.931921,-17.490114,-24.129788,-18.316727,-12.628138,-0.700087,-7.105102,-12.902937,-14.691566,-39.055821,-34.91369,-21.821821,-15.958508,-43.602275,-31.741756,-16.735363,-12.080718,-42.334193,-28.542566,-15.859668,-12.704496,-37.903203,-27.425501,-16.136902,-13.052849,113.122994,49.486605,-139.37491,58.116472
50,-21.534668,4.917864,18.148052,1.980107,-19.78592,-34.065228,-37.324654,-32.040711,-21.917199,-22.905579,-25.525292,-26.538792,-5.180214,-4.596737,-8.536126,-10.508091,9.47026,11.732082,5.474235,2.115097,21.765575,24.735832,18.107162,13.257762,-2.708142,-11.801526,-16.033708,-17.598494,-44.421085,-46.344466,-32.759535,-24.518511,-45.874548,-34.825871,-20.03356,-17.107504,-40.697653,-28.096601,-16.230923,-15.171965,-33.100839,-22.596797,-13.966288,-13.711516,21.275059,34.476688,36.321917,29.793514,26.666388,20.244615,17.984087,17.24097,10.362442,1.824062,4.208959,7.051025,-4.172344,-11.722807,-6.908243,-2.403277,-15.646425,-21.631794,-16.612026,-11.619913,0.066675,-5.779462,-10.818466,-12.428382,-38.831698,-33.942331,-20.433493,-13.72896,-43.229698,-30.595434,-15.93764,-10.781835,-41.952211,-27.202804,-14.510353,-10.660601,-37.531706,-26.213204,-14.824193,-11.259734,91.869261,56.100154,-120.945923,61.792264
51,-20.436917,6.05439,16.822769,6.579704,-20.820362,-36.465465,-40.982408,-36.25918,-27.491907,-30.132173,-32.226236,-32.66138,-9.934009,-11.239071,-14.776594,-16.169792,5.86623,6.877716,1.024452,-1.697227,19.705136,22.01342,15.63739,11.268517,-0.833272,-8.710535,-12.410091,-13.752376,-41.862188,-43.546928,-30.065321,-21.083746,-44.40495,-32.687605,-17.467166,-13.607225,-40.070281,-26.696592,-14.050886,-11.503098,-32.980707,-22.523259,-13.283347,-11.629699,22.168774,37.157879,41.332146,35.509936,30.458307,25.449818,23.094092,22.336573,14.528475,6.78855,8.26026,10.290888,-0.357193,-7.394073,-3.913936,-0.341989,-12.727901,-18.60866,-14.628198,-10.266031,1.579371,-3.618596,-8.560605,-11.202874,-38.600649,-34.912232,-21.592384,-14.009517,-43.486141,-32.923461,-17.91762,-11.416481,-42.590528,-29.39554,-16.174962,-11.028883,-38.266558,-27.755134,-15.959969,-11.40117,71.618843,63.685346,-103.936655,69.90277
52,-16.962684,7.563623,11.36301,9.138122,-23.398281,-40.994259,-47.322802,-43.318537,-36.294016,-42.566569,-44.778849,-44.679623,-17.388462,-21.338608,-24.908267,-25.948483,0.422149,0.633682,-5.589089,-8.39851,16.629215,18.248245,11.25515,6.718059,0.704334,-5.017515,-7.432879,-8.077754,-38.473777,-39.906726,-25.411894,-14.408993,-42.140729,-32.745719,-16.251822,-9.462948,-38.831077,-26.284566,-11.788055,-6.080304,-32.191382,-22.265609,-11.637023,-7.421937,22.829922,39.350327,45.940808,43.027857,38.537276,36.503689,35.906073,36.283041,23.278056,18.371871,20.588957,22.92084,7.615883,1.662358,3.915825,6.385123,-6.561023,-11.477983,-8.440343,-5.079088,2.88217,-0.709694,-5.235129,-8.902862,-36.752953,-35.799264,-25.26528,-18.029864,-43.314598,-35.629376,-20.782413,-12.430361,-43.554075,-30.884904,-16.17448,-9.280482,-39.820716,-29.370092,-16.550988,-10.750561,54.744353,72.206063,-92.485451,79.997986
53,-13.222412,5.519388,8.988757,8.193249,-25.61221,-43.88268,-51.25355,-48.960886,-42.380362,-51.947966,-55.019915,-55.126465,-22.526173,-28.99141,-33.176417,-34.185849,-3.388733,-4.394715,-10.96003,-13.614041,14.37823,14.525916,7.36885,3.243473,2.646767,0.233116,0.400049,1.291988,-33.891804,-32.510867,-17.445659,-5.220075,-38.919087,-30.116207,-13.460698,-4.742488,-36.50279,-22.446531,-6.599619,1.087751,-30.073961,-18.710718,-7.139444,-1.687967,23.230682,40.923729,48.432724,45.934684,45.049976,46.435512,47.678135,48.31715,29.656414,28.565414,32.307346,34.95243,12.874672,8.904396,10.89814,12.692539,-3.044094,-6.343518,-3.391526,-0.496044,3.361673,1.721749,-1.605005,-6.395071,-35.098336,-35.654336,-26.754978,-19.213567,-43.01669,-37.079326,-23.154194,-13.943256,-44.288779,-29.582474,-14.173338,-6.968837,-40.649445,-27.453486,-14.470475,-8.836775,41.444808,78.173728,-83.573827,88.639512
54,-8.707375,4.598417,4.836342,5.810874,-27.322849,-46.244156,-54.600111,-53.651453,-48.07136,-60.775858,-64.886702,-65.305698,-27.245831,-35.465538,-40.115542,-41.161663,-6.540722,-8.183933,-15.296928,-18.269051,12.832031,12.344192,4.963829,0.711536,4.062797,4.012739,6.47215,9.420865,-29.428706,-27.637135,-12.059115,1.574237,-35.44021,-30.637933,-14.069304,-3.159886,-33.902588,-20.829158,-3.277286,7.105382,-27.805016,-16.397804,-3.787987,3.398106,23.853916,42.42675,50.539375,48.504112,50.543209,55.752513,58.933685,59.831256,34.970615,38.809467,44.367347,47.264453,17.219066,16.159389,18.061088,18.964771,-0.540413,-1.280114,1.857685,4.098529,3.533951,4.120426,2.616062,-2.507808,-33.350249,-33.874553,-27.038912,-20.343735,-42.297952,-36.333628,-23.933731,-14.707614,-44.335048,-27.134446,-10.867097,-2.854154,-40.533952,-24.640107,-11.045587,-4.94128,32.674616,82.53055,-78.800302,94.208791
55,-3.782295,2.737815,3.537586,3.904139,-29.146076,-48.859795,-58.613737,-59.414778,-53.689814,-69.248549,-74.767416,-75.966946,-32.163884,-41.678284,-46.716288,-47.773144,-10.10194,-12.182225,-19.728928,-23.071839,10.64772,9.465454,1.77713,-2.683789,4.912169,6.7649,11.411047,16.815268,-25.648005,-24.176215,-7.990558,7.011714,-32.381761,-32.624258,-15.88127,-2.51983,-31.65184,-19.73302,-0.207271,12.824428,-25.862187,-14.369493,-0.464356,8.383193,24.603298,44.568569,52.893001,48.740799,54.145431,62.794349,68.785526,71.073395,38.623043,47.078201,55.415405,59.307884,20.155266,21.894836,24.059601,24.466381,0.93473,2.571522,6.086506,8.110977,4.198386,6.202378,5.94696,0.118369,-31.767426,-33.028987,-28.781052,-23.442896,-41.793426,-36.866651,-26.015585,-16.930234,-44.4703,-26.262166,-8.967698,0.150152,-40.422524,-23.118441,-8.719245,-1.802612,28.925921,85.042936,-75.229116,97.887501
56,-1.414296,0.599989,0.442669,-0.126255,-29.648735,-49.395446,-59.979309,-62.446838,-55.024612,-71.346107,-78.254917,-80.661678,-33.664855,-43.357383,-48.926456,-50.280464,-11.524887,-14.529029,-22.238845,-25.6539,9.380745,7.062905,-0.56504,-4.856964,5.194988,8.050216,14.365029,21.998634,-23.368733,-22.694301,-7.733628,6.864114,-30.49215,-32.788993,-17.09754,-3.480883,-30.13401,-17.518629,2.515026,16.077665,-24.431254,-12.129652,2.082187,11.067113,24.001259,43.549472,51.466312,47.932674,56.204933,67.660148,75.678314,78.42398,40.659679,53.083477,63.809875,68.77581,21.559776,25.336406,28.080574,28.300415,1.093036,4.718959,8.858368,10.713695,3.896648,7.492844,8.700491,3.097839,-29.306369,-30.495089,-28.440993,-24.243181,-39.844126,-34.508681,-25.603326,-17.274462,-43.015312,-22.903141,-5.382709,3.777865,-39.218273,-20.01116,-5.423465,1.433085,27.66691,85.481808,-74.631162,97.600129
57,0.400498,-1.511131,1.35799,-2.028341,-28.905396,-47.985466,-58.629662,-62.910427,-52.707699,-68.180534,-75.951691,-79.419857,-32.253685,-41.235054,-47.065498,-48.434326,-11.086624,-15.214302,-22.570953,-25.467819,8.916664,5.426399,-1.615723,-5.212235,5.285187,8.241043,15.555429,24.84266,-22.969492,-21.732403,-8.586673,4.487081,-30.385025,-30.364314,-16.181381,-3.978141,-29.989415,-13.924811,5.463201,17.854452,-24.286054,-9.610093,4.206308,12.211385,23.371124,42.477287,49.088104,43.40435,54.819958,65.459095,73.374882,76.364902,38.526043,50.267315,61.795017,67.575382,18.884342,22.231453,25.820297,26.717995,-2.18113,1.46616,6.40329,8.903641,3.315621,8.033037,10.853389,5.079509,-28.069279,-27.79541,-25.428257,-21.526027,-38.431357,-32.226051,-24.721549,-18.115181,-41.812581,-20.378364,-3.228706,4.994287,-37.822232,-17.007774,-2.966378,2.847244,28.348417,83.860644,-72.992163,95.461755
58,1.623985,-0.18493,-0.295921,-2.448922,-28.686035,-48.071228,-59.259842,-64.21051,-51.971626,-66.954151,-75.092949,-79.073009,-32.189506,-40.275581,-45.628143,-46.719246,-11.51651,-15.990371,-23.161148,-26.057144,8.117317,4.172791,-3.023598,-6.773529,4.347167,6.371018,13.658302,23.933434,-24.650086,-24.784806,-12.770986,-0.323733,-31.724225,-29.477473,-14.903382,-2.811034,-30.911775,-13.048955,5.672788,17.436846,-25.099375,-9.462504,4.018111,11.858635,23.444309,42.295784,48.36034,42.510761,54.652393,64.743862,72.550106,75.859073,38.336528,49.746917,61.35078,67.272503,18.682136,21.788326,25.28326,26.103435,-2.746411,0.977039,6.038486,8.585632,3.211182,8.350527,11.878223,6.740557,-27.01336,-25.963313,-24.267807,-21.357201,-37.511714,-30.70031,-24.081383,-18.382703,-41.140656,-19.747547,-2.193931,6.518528,-37.222519,-16.640853,-2.195443,4.075348,30.362005,83.670753,-72.898481,93.007872
59,1.049629,-0.483778,-0.592541,-1.601096,-28.929061,-48.811042,-60.681758,-66.964576,-50.910461,-64.526207,-72.607727,-76.834076,-31.982986,-39.886253,-44.815956,-45.572708,-12.077888,-17.268402,-23.885147,-26.357872,7.029259,1.938996,-5.363548,-8.883865,3.357419,4.818694,12.328334,23.258676,-26.759288,-27.787259,-17.320237,-5.947349,-33.612978,-26.556833,-10.543858,1.482084,-32.308766,-11.410043,6.516626,16.870065,-26.414776,-9.10101,4.131368,11.059345,23.591938,42.491466,48.166546,42.00507,54.743477,64.777016,72.763206,76.388718,38.199051,49.452175,61.26915,67.341202,18.405224,21.907963,25.58543,26.413078,-3.119351,1.049217,6.379681,8.950802,2.885455,8.126058,12.097962,7.242138,-26.895651,-25.085499,-23.058221,-20.085593,-37.457837,-29.835039,-23.481699,-18.290361,-41.062498,-18.163031,-0.980411,6.732543,-36.882971,-15.014168,-1.241516,3.826859,31.850154,83.23325,-73.052502,91.453051
60,0.795502,0.346852,-0.642826,-1.551411,-29.053894,-49.367454,-61.740909,-68.898514,-50.553543,-63.342075,-71.624611,-76.210899,-32.173508,-40.046013,-45.624069,-46.966232,-12.806763,-18.067108,-24.741463,-27.535972,6.089035,0.712166,-6.76918,-10.30925,2.398337,3.559566,11.087342,22.011966,-28.388671,-30.545465,-21.49149,-10.971807,-34.954012,-26.685193,-10.164426,2.275719,-33.339819,-11.941171,5.696186,15.845032,-27.422808,-10.373692,2.72906,9.478695,24.021858,42.65213,48.056591,42.006683,55.327984,65.576328,73.771007,77.338794,38.238361,49.431141,61.436794,67.375728,18.005916,21.993324,26.124149,27.056946,-3.743477,0.972759,6.796852,9.399616,2.681394,8.253869,12.837732,8.507688,-26.864992,-23.56605,-20.64956,-17.152109,-37.371189,-27.855697,-20.813242,-15.669587,-40.668407,-14.998039,1.513027,7.535014,-35.928298,-11.492789,1.375108,4.735429,33.083897,83.654626,-73.257087,89.976164
61,0.174751,0.038761,-0.784504,-0.546306,-29.3451,-50.003219,-62.662033,-70.440811,-50.416465,-62.708484,-70.638301,-75.09066,-32.265174,-40.412384,-45.970871,-47.275909,-13.120674,-18.436454,-24.960205,-27.76213,5.722756,0.289994,-7.146629,-10.583221,1.982911,3.023714,10.937554,22.421019,-29.743938,-31.252606,-21.94948,-11.356697,-36.018892,-25.687245,-7.785714,5.394781,-33.91445,-11.559375,6.308453,16.615332,-27.720612,-10.453227,2.848898,9.810757,24.024341,42.499283,47.874653,42.294708,55.910614,66.601158,74.405983,77.639328,39.009556,49.957123,61.374939,66.812965,18.862827,22.235882,26.119491,27.155388,-2.789211,1.315155,6.913456,9.643078,3.274384,8.842005,13.334835,8.897432,-26.057013,-22.706417,-18.903505,-14.50879,-36.940103,-28.518538,-21.211415,-15.444235,-40.601964,-15.324655,1.919036,8.728279,-35.99053,-11.849478,1.386779,5.314864,33.647186,83.742148,-73.653053,89.478619
62,-0.396446,0.697224,-0.462158,0.201436,-29.534019,-50.474853,-63.187237,-71.051822,-49.50785,-60.391937,-67.672016,-71.768131,-31.36496,-39.403816,-44.91362,-46.266975,-12.405372,-17.661598,-24.048363,-26.910621,6.331948,0.784012,-6.54293,-9.906853,1.446442,2.452479,10.900448,22.901974,-30.975594,-33.4454,-24.976523,-15.019442,-36.956973,-24.932081,-6.230814,6.980464,-34.317359,-11.112969,6.320247,15.872746,-27.695912,-10.057012,2.823192,9.042897,23.569061,42.449421,48.307571,43.602996,55.839821,67.001815,74.454712,77.25991,39.618873,50.694923,61.398857,66.516929,19.801941,23.06385,26.262027,27.073425,-1.614647,2.343589,7.286579,9.792904,4.483154,9.335724,12.325586,7.362397,-24.910091,-22.386883,-18.076537,-12.468871,-36.040399,-29.494065,-21.879214,-15.164691,-40.049674,-17.057921,0.738832,9.050554,-35.983379,-13.563638,0.247823,5.6682,33.559593,84.478633,-73.806358,89.719316
63,0.77829,1.068226,-0.662693,-0.132769,-30.005768,-51.683945,-64.814724,-72.855606,-51.448357,-63.161659,-70.977802,-75.593273,-33.036575,-41.73642,-48.188633,-50.359257,-13.843781,-19.083481,-25.549713,-28.755615,5.24572,-0.179329,-7.437538,-10.776329,1.284113,2.523789,10.953925,22.341658,-31.373352,-33.019328,-24.019842,-13.619146,-37.684775,-26.377478,-8.302133,4.757709,-35.211208,-11.42377,5.875126,15.216667,-28.360902,-10.112259,2.482355,8.278662,23.286666,42.36034,48.873985,44.904968,55.680622,67.267261,74.58736,77.393154,39.788383,50.914878,61.252315,66.310741,20.044132,23.115566,26.124309,26.938476,-1.35101,2.562984,7.184063,9.521438,5.253237,10.070559,12.589822,7.474708,-24.19517,-21.337108,-16.06022,-9.25677,-35.262974,-28.901268,-20.312039,-12.485014,-39.187121,-17.267645,0.867667,10.059537,-35.27517,-13.862918,0.184356,6.448286,34.616323,85.575777,-74.190611,89.615465
64,-0.367928,1.108865,0.01371,-0.07972,-30.325401,-51.713012,-64.651119,-71.997001,-51.907402,-63.386341,-71.066333,-75.615085,-33.223526,-41.12519,-48.348644,-51.00658,-14.009491,-18.721092,-25.839157,-29.503395,5.168221,0.130532,-7.33564,-10.785232,0.830401,2.111889,10.481558,21.480603,-31.571516,-33.460443,-24.503465,-14.284538,-37.761254,-30.223838,-14.097891,-1.354217,-35.42208,-13.0334,4.818341,15.227695,-28.232529,-10.85965,1.913164,8.368379,23.087825,41.995296,48.500255,44.474247,55.448856,66.882969,74.01717,76.83427,39.782901,50.537521,60.493938,65.4444,20.088455,22.497276,25.313095,26.281803,-1.371506,2.128338,6.543949,8.941463,5.801389,10.784228,13.237967,8.130226,-23.233315,-20.486947,-15.034657,-7.85808,-34.425552,-28.492153,-19.508351,-11.122898,-38.543415,-17.576705,0.981628,11.078277,-34.932406,-14.365196,0.189283,7.51287,34.534509,86.679902,-73.890787,89.531005
65,0.247582,-0.568258,-0.418007,0.225624,-30.865105,-52.57283,-65.478516,-72.729355,-53.646126,-65.727047,-73.698063,-78.55917,-34.758614,-42.778977,-50.39336,-53.309944,-15.158775,-19.883171,-26.842369,-30.208786,4.453262,-0.526177,-7.892304,-11.176048,1.497262,3.040948,11.605718,22.812374,-30.532207,-30.284292,-20.001626,-8.847383,-37.008251,-29.069192,-13.101715,-0.272542,-34.832457,-11.59012,6.475907,17.146471,-27.548224,-9.453303,3.549074,10.394076,22.876854,41.77977,48.120598,43.902008,55.743587,66.844402,73.66785,76.443981,40.311035,50.977741,60.722454,65.656276,20.824848,22.692341,25.078251,25.995071,-0.501515,2.473663,6.4384,8.70449,6.165939,11.330965,13.860923,8.610662,-22.374503,-20.663072,-15.420338,-8.206124,-33.954249,-29.173736,-20.488552,-12.002045,-38.541761,-17.695773,1.28723,12.04254,-35.21053,-14.745591,0.15395,8.120333,35.072863,86.070003,-74.018022,89.714988
66,-0.671677,0.620357,-0.072647,0.04735,-30.988861,-52.337654,-64.808956,-71.393371,-54.200088,-66.179317,-73.908508,-78.396435,-35.182457,-42.473488,-50.363285,-53.307312,-15.475799,-19.966324,-27.26477,-30.515968,4.210167,-0.740478,-8.285042,-11.488609,1.470907,2.95396,11.079098,21.435599,-29.839664,-30.091124,-20.352948,-9.680804,-36.562666,-30.997552,-16.9526,-5.041322,-34.915239,-12.821115,5.415721,16.615103,-27.930934,-10.262703,2.860378,10.13076,23.136005,42.18132,48.238128,43.489254,56.071071,66.406803,73.304546,76.31377,40.32843,50.568924,60.553791,65.855289,20.638927,22.63013,25.206619,26.228714,-0.869671,2.41159,6.511493,8.68293,6.068664,11.257421,13.945027,8.500098,-22.507019,-20.765114,-15.721927,-8.801336,-34.265711,-28.359112,-19.566186,-11.448082,-38.86106,-15.740798,2.964192,12.917093,-35.169818,-12.653271,1.844392,9.033381,34.71278,86.637144,-73.779075,89.709122
67,0.21785,-0.509281,-0.569607,0.150776,-30.842239,-51.982521,-64.249603,-70.450825,-56.023487,-69.577423,-78.04882,-83.096558,-37.033905,-44.358582,-52.47369,-55.63987,-17.080742,-21.51844,-28.914024,-32.097885,2.975945,-1.85463,-9.433571,-12.626404,1.950128,3.537644,11.109517,21.01269,-27.980433,-26.2681,-15.288926,-3.829025,-35.004536,-32.480883,-20.27421,-9.008767,-34.215606,-13.587573,5.446158,17.923626,-27.784283,-11.033965,2.770383,11.40498,23.118748,41.972351,47.746136,42.533214,56.309887,66.742126,73.591392,76.383499,40.42186,50.891384,61.042053,66.31382,20.705646,22.623814,25.286213,26.387226,-0.904392,2.175613,6.335529,8.602547,5.839539,11.469027,14.681481,8.955971,-22.345103,-20.929852,-15.961555,-9.207802,-34.158432,-28.583463,-20.143188,-12.422423,-38.895578,-15.376285,3.389721,13.155585,-35.208473,-12.447247,1.996959,9.028595,35.244181,86.067276,-74.035131,89.799311
68,-1.542274,-1.193876,-0.220047,0.716959,-30.399788,-50.515412,-62.193066,-68.539547,-52.812344,-64.642502,-72.241539,-76.594357,-34.363175,-41.385796,-49.165513,-51.881779,-14.99952,-19.861496,-27.497086,-30.252938,4.388374,-0.917794,-8.523858,-11.54599,2.306063,3.816608,11.70024,22.911076,-26.99557,-26.917745,-16.933661,-6.275497,-33.479993,-30.188535,-17.208827,-5.710876,-32.36504,-12.248373,7.175256,20.147387,-25.974119,-9.710215,4.338183,13.496201,22.90242,41.906113,47.690895,42.353565,56.005566,66.050308,72.755676,75.638466,40.050407,50.186108,60.342522,65.922455,20.341621,22.397598,25.131809,26.511555,-1.264012,1.989761,6.147056,8.509186,5.982337,11.244256,14.001962,7.531142,-22.322082,-22.069677,-18.067664,-12.025362,-34.17182,-29.948493,-22.295073,-15.074517,-39.073932,-16.641545,2.142529,12.132943,-35.558468,-13.523964,1.068344,8.358591,33.987534,84.812829,-73.969551,90.455699
69,-0.124764,-0.713495,-0.851383,1.114669,-29.966286,-50.32608,-62.066357,-68.898216,-52.611912,-65.354645,-73.552162,-78.491981,-34.487801,-42.332909,-49.885918,-52.515598,-15.282829,-20.545006,-27.75927,-30.184341,4.074898,-1.613022,-8.90554,-11.600487,2.882676,4.330519,12.256463,24.280731,-26.112607,-24.69709,-13.856329,-2.562871,-32.600154,-28.263898,-14.318772,-2.399251,-31.520967,-11.006992,8.396469,21.196934,-25.462752,-9.09696,5.014516,14.270298,22.578346,41.657776,47.945903,43.128925,55.883892,66.33237,72.970035,75.632068,40.273601,50.637794,60.605518,66.077465,20.797805,22.991787,25.574707,26.878063,-0.677582,2.599857,6.589622,8.9347,6.202489,11.143998,13.177186,5.869747,-22.441755,-22.942025,-19.161091,-13.097102,-34.380684,-31.41806,-24.099376,-16.862203,-39.493779,-18.809947,0.127422,10.747523,-36.294095,-15.442265,-0.484395,7.547166,34.175714,84.053945,-74.50799,91.524979
70,-1.218361,0.702571,-0.484406,1.049479,-29.331619,-49.254043,-60.909519,-67.860226,-50.4165,-62.557697,-69.98275,-74.273048,-32.627678,-40.206367,-46.562095,-48.426887,-13.7845,-19.205658,-26.328918,-28.662369,5.1259,-0.888107,-8.162063,-10.876442,2.480298,3.478309,11.406938,24.097475,-26.583564,-26.13638,-15.370727,-4.30362,-32.838517,-27.525351,-12.630484,-0.820397,-31.554979,-11.377711,8.059547,20.665998,-25.544805,-9.504049,4.602648,13.660513,22.353539,41.525173,48.183758,44.038296,55.665379,65.936932,72.540425,75.264256,40.368897,50.256386,60.021115,65.414463,21.0248,22.796528,25.220261,26.462517,-0.476234,2.51944,6.361004,8.719322,6.693683,11.115321,12.14827,4.308289,-22.154967,-22.922055,-19.66235,-14.023111,-34.295567,-32.047445,-25.243562,-18.298382,-39.673651,-20.994985,-1.84249,9.479368,-36.887775,-17.438409,-1.934301,6.969318,33.303835,84.667311,-74.645914,92.485253
71,-0.130783,0.72466,-0.698135,1.242647,-29.036797,-49.266792,-61.269859,-68.919491,-50.135982,-62.543106,-70.365292,-75.329281,-32.594376,-40.828239,-46.766052,-48.712875,-13.759918,-19.321678,-25.819588,-28.138184,5.202026,-0.975792,-7.897041,-10.587685,2.458877,3.141188,11.205113,24.450205,-27.355278,-25.666954,-14.113958,-2.309033,-33.410406,-24.60271,-7.371412,5.685101,-31.650081,-10.031188,8.973681,21.055087,-25.560292,-8.875702,4.913351,13.489081,22.227264,41.617126,48.408096,44.330143,55.806988,66.266361,72.813457,75.583019,40.713295,50.738994,60.476429,66.000286,21.363521,23.203972,25.322902,26.376148,-0.279064,2.830318,6.602955,8.998649,6.886239,10.85697,11.303333,3.49805,-21.919408,-22.49628,-19.21201,-13.392114,-34.134146,-32.055862,-25.537025,-18.553381,-39.697006,-22.363609,-3.149537,8.689259,-37.268276,-18.724009,-2.92763,6.560395,33.542679,85.249028,-74.974422,93.584957
72,-0.447876,1.487586,-0.21666,1.599595,-28.964699,-49.261757,-61.36116,-69.368122,-49.45237,-61.512348,-69.329578,-74.553852,-32.031967,-40.599312,-46.276039,-48.227657,-13.320259,-18.992615,-25.259972,-27.643066,5.54409,-0.979156,-7.729294,-10.283249,2.013613,2.317302,10.728665,24.574231,-28.533698,-26.580527,-14.841143,-2.752574,-34.21628,-23.155596,-4.20792,9.893243,-31.881966,-9.605307,9.080713,20.913735,-25.592724,-8.786306,4.689505,12.900272,22.272595,41.683869,48.385632,44.527794,55.991215,66.340748,72.765507,75.540791,40.912445,50.67825,60.148487,65.646458,21.378937,23.009297,24.97966,26.056389,-0.41922,2.558029,6.42651,8.950836,6.999761,10.39864,10.157986,2.313282,-21.827184,-21.938026,-18.190671,-11.951613,-34.203306,-31.546995,-24.505571,-17.110576,-39.866202,-22.353526,-3.199128,8.441269,-37.491244,-18.395787,-2.662289,6.712183,33.594337,86.546426,-74.691548,94.994364
73,-0.082603,2.583847,-0.252434,0.520358,-28.897545,-49.353287,-61.679146,-69.624493,-49.285698,-60.909291,-68.64996,-73.817311,-31.816132,-40.618996,-46.313141,-48.313351,-13.179177,-19.208107,-25.476586,-27.942719,5.562858,-1.378899,-8.199623,-10.852272,1.531941,1.54507,9.742023,23.190497,-29.551672,-28.152,-16.97567,-5.176512,-34.815364,-24.418274,-5.574913,8.83436,-32.176429,-10.532484,8.18293,20.394315,-25.706777,-9.568226,3.961271,12.457374,22.664727,41.582543,47.872479,43.801278,55.730805,66.182271,72.729161,75.615178,40.284108,50.234974,59.707627,65.040196,20.52356,22.399773,24.193978,25.106072,-1.585235,1.812756,5.846764,8.48211,6.600947,10.410058,11.155286,4.298552,-21.473619,-19.747361,-15.036194,-8.407633,-33.376931,-28.645935,-20.794932,-13.141241,-38.675789,-19.327638,-0.49304,10.275794,-36.007035,-15.52627,-0.301848,8.242952,34.131964,88.84314,-74.323752,95.227589
74,0.018402,2.356458,-0.194755,1.489951,-29.22345,-49.553376,-62.075478,-70.289177,-47.857315,-58.393513,-65.486618,-70.074028,-30.337693,-39.794312,-45.637368,-47.677792,-11.860611,-18.782822,-25.332894,-27.963433,6.343002,-1.040566,-7.981018,-10.927483,1.144185,1.097823,9.225876,22.786581,-30.495256,-30.725264,-20.514136,-9.219145,-35.015979,-22.913028,-3.197134,11.599932,-31.504702,-10.159623,8.302503,20.472472,-24.437189,-8.580875,4.676791,12.937199,23.394092,42.495335,48.568668,44.447021,55.509247,65.951877,72.775509,76.01366,39.263992,49.320969,59.020157,64.362133,19.154446,22.066704,24.028084,24.932419,-2.983395,1.615757,6.070187,8.733684,5.950844,9.435185,10.676196,4.72521,-21.99126,-18.735025,-12.858714,-5.611414,-33.276148,-26.305484,-17.498683,-9.45949,-37.857343,-15.619513,2.465342,11.723711,-34.420408,-11.797595,2.297301,9.128298,34.74951,90.762053,-73.919363,96.279995
75,0.660415,2.804808,-0.259277,1.695352,-29.404129,-49.616798,-62.432808,-70.823272,-46.076294,-55.817916,-62.854065,-67.398765,-28.532661,-39.189926,-45.933105,-48.298816,-10.498008,-18.591682,-25.639114,-28.567749,6.880967,-0.925277,-7.95536,-11.246612,0.818057,0.784922,8.750589,21.950994,-31.160153,-33.157865,-23.588929,-12.413691,-34.529262,-23.260713,-3.588094,11.435176,-30.043298,-10.193906,8.023398,20.359191,-22.259449,-7.192231,5.738973,13.944343,24.1058,43.244155,49.143447,44.498966,53.950355,65.169422,71.903171,75.089229,36.885921,47.312233,56.470962,61.35783,16.581779,21.309803,23.41048,24.216716,-5.289002,1.017597,5.844257,8.402435,5.117627,8.511047,10.61781,5.68967,-22.720953,-18.539326,-10.241257,-1.430856,-32.552829,-24.224656,-13.483604,-4.490601,-35.746949,-11.970954,5.221244,13.277388,-31.261745,-7.787308,4.918204,10.415936,36.070329,92.861896,-73.518236,97.270382
76,-0.013733,4.303275,0.56155,2.447731,-27.8806,-47.174057,-59.25016,-66.040775,-41.50708,-50.491401,-56.86124,-60.565624,-24.183448,-35.269477,-41.765625,-43.493282,-7.054756,-15.911407,-23.100013,-25.955863,8.935273,1.346787,-5.57183,-9.109588,0.698138,0.154315,6.747369,18.595149,-32.118569,-35.802574,-24.596739,-12.718923,-34.434567,-24.136198,-4.412616,9.982751,-29.212273,-11.042196,6.810015,18.758886,-20.726235,-6.109956,6.367332,14.106542,23.931255,42.417103,47.802498,42.298771,49.815834,60.682411,65.704513,68.001182,31.947464,41.357849,48.768585,52.405163,11.982605,17.425415,20.045711,21.17284,-8.66248,-1.930905,3.169578,5.899933,4.465592,8.118073,11.480587,7.884558,-23.480403,-18.439637,-7.588756,1.812708,-31.794559,-22.69968,-9.433753,0.090445,-33.514018,-9.727432,7.469021,14.923648,-27.949108,-5.47825,6.555071,11.45798,36.825096,96.235679,-72.188186,98.788621
77,1.164185,4.665491,-0.816571,4.07323,-26.274536,-44.776131,-56.507458,-61.272228,-36.385551,-44.392342,-49.867092,-52.408527,-19.382812,-30.359093,-36.817474,-38.170715,-3.333046,-12.493515,-19.864563,-22.680931,10.892807,4.166359,-2.481125,-6.401413,1.287651,0.519587,5.52576,15.019003,-31.590906,-38.187399,-26.407286,-14.636626,-32.865521,-24.103958,-3.942467,10.146735,-26.86225,-11.042369,6.397034,17.671548,-17.864876,-3.959541,8.036514,15.23479,23.85529,41.904316,47.571145,41.288086,45.017762,55.68734,59.566281,61.031891,26.541241,35.125843,41.315564,43.685418,7.197178,13.879887,17.336426,18.356186,-11.743263,-4.05162,1.397644,3.744267,3.444116,7.056435,11.755179,9.576476,-26.128613,-20.201549,-7.264726,2.272619,-32.246776,-18.968066,-3.614369,5.593383,-31.515818,-6.11376,9.845442,15.659299,-24.384874,-2.155578,8.589741,12.096609,38.738554,99.481118,-72.255484,101.441799
78,1.733368,5.373601,-0.913169,7.851262,-24.065048,-41.736832,-52.699539,-55.761967,-31.926819,-40.160294,-45.485722,-47.758152,-15.287132,-25.813934,-32.071266,-33.266853,-0.182419,-9.173904,-16.340607,-19.218384,12.510155,7.065445,0.902115,-3.263969,2.049515,1.305558,4.945523,12.699788,-29.941848,-37.332842,-23.545957,-10.781288,-30.545786,-22.873495,-2.412076,11.318042,-24.049581,-10.423148,6.757644,17.738955,-14.858143,-1.650131,10.078248,17.195847,23.295845,41.262908,47.109397,40.154251,39.78646,49.873958,52.707321,53.444023,21.27008,28.675197,33.560485,34.966484,2.853401,9.97681,14.315895,15.511962,-14.103402,-6.641842,-0.932373,1.289337,2.979661,5.222825,8.912511,6.684457,-29.083197,-25.619851,-10.947971,-0.548301,-33.532067,-19.61915,-2.416257,7.075665,-30.963966,-6.718636,8.653375,14.162451,-22.795955,-2.192294,8.076089,11.383225,41.070448,102.941336,-72.570127,107.379678
79,1.747902,5.516325,-0.649796,7.200765,-21.257424,-37.574432,-47.609127,-49.721375,-27.631691,-35.678558,-40.944374,-43.213692,-11.644386,-21.367584,-27.458702,-28.874291,2.330292,-6.09494,-12.96167,-15.800469,13.466194,9.254379,3.939606,-0.080544,2.780726,2.548637,5.579656,12.162312,-27.159326,-32.572632,-16.652894,-2.960556,-27.193171,-19.600908,0.601387,13.905538,-20.436867,-7.439455,9.682255,20.449884,-11.258891,2.248691,13.733409,21.082085,22.362488,39.424919,44.807407,37.360405,33.462902,42.221844,43.768948,43.766418,15.223572,21.153957,24.876343,25.83474,-2.040642,4.437767,9.446754,11.181381,-16.940414,-11.039097,-5.386436,-2.843445,3.115598,4.957848,8.563782,7.609324,-29.55032,-28.144757,-12.041689,-0.83896,-32.11689,-18.166422,0.346358,10.193597,-27.8812,-6.555961,8.750422,15.000898,-19.11673,-1.49972,8.909516,13.237331,43.425568,106.053365,-72.612705,112.176147
80,8.122467,12.969019,-1.163223,7.926795,-21.404251,-38.754891,-48.912415,-50.664139,-29.428253,-38.231896,-43.112297,-44.90815,-13.608559,-23.823212,-29.451347,-30.640823,0.166374,-9.450256,-15.70182,-18.030258,10.980629,5.38092,0.263283,-3.312035,1.165737,-0.153697,2.352518,9.010472,-28.675415,-31.047391,-13.620226,0.162663,-28.280645,-15.065291,4.931999,16.932389,-20.99493,-3.41552,12.944436,22.211031,-11.19916,5.174345,15.955757,22.227178,21.334259,37.35609,42.927303,36.03947,27.936229,35.176208,36.217335,36.048637,9.921913,15.298862,19.283878,20.692268,-6.223252,0.073711,6.28173,8.97464,-19.023342,-14.315357,-8.35072,-5.109249,2.980773,4.751373,8.872503,9.434932,-28.997796,-28.415421,-12.203153,-0.918043,-29.954532,-14.756156,4.007571,13.915838,-24.225353,-4.297161,10.766672,17.47139,-14.843193,1.2553,11.843174,16.853639,51.983837,116.306039,-73.340126,117.386597
81,6.031219,9.595119,-2.541687,9.752193,-21.654007,-39.487197,-49.979827,-53.237754,-30.644142,-40.728744,-45.992569,-48.179992,-14.898925,-25.902351,-32.371856,-34.447471,-1.020538,-11.34478,-18.134285,-20.767044,9.787857,3.74572,-1.482513,-4.895485,0.268546,-0.128342,4.076527,12.442134,-24.855047,-22.094433,-4.69515,9.222943,-23.655465,-6.278584,13.68683,25.958576,-15.952145,4.432648,21.620715,31.43288,-6.232988,12.072391,23.441802,30.340447,20.541092,35.62524,42.076286,37.72554,24.897239,32.364589,34.720276,35.503395,7.512943,13.803383,19.119312,21.687641,-7.593933,-0.625466,6.280288,9.730728,-18.915482,-14.461052,-8.358685,-4.711201,2.768549,4.246823,8.352954,10.013935,-27.988238,-27.524029,-11.716492,-0.077682,-27.508795,-10.671354,7.899021,18.319427,-20.471811,-0.404909,14.100423,21.062646,-10.552552,5.595045,15.975338,21.291357,58.228122,122.814184,-75.668747,124.051816
82,5.493439,12.432136,-7.250313,13.660143,-22.593029,-41.476318,-52.352177,-57.671779,-34.085049,-45.770119,-51.559135,-54.530216,-18.326877,-30.935268,-38.007442,-40.89188,-4.121773,-16.033516,-23.249553,-26.352276,7.126602,-0.554718,-6.092205,-9.593033,-1.440748,-0.199997,6.977056,18.014738,-20.964425,-11.490331,6.320494,20.488842,-18.547252,5.322978,25.445054,37.919953,-10.203132,14.684415,32.306735,42.613342,-0.187894,20.829828,32.434188,39.648377,23.104935,39.718048,47.53688,46.081146,27.740799,35.48148,39.659008,42.463051,10.294636,18.959278,26.499069,31.37233,-4.382813,5.520733,14.141682,19.814655,-15.000206,-7.477547,-0.704166,4.232128,0.555957,1.895978,7.067519,11.128998,-27.715333,-25.479832,-10.250594,1.513681,-25.984827,-6.896867,12.592397,24.725192,-17.508484,4.471791,20.10941,28.535489,-5.86537,11.421158,22.1224,27.966767,63.851337,132.044083,-82.789284,134.509722
83,6.111008,14.54849,-4.267937,11.706396,-24.737812,-45.712074,-57.545323,-64.394543,-41.009754,-54.840706,-60.976959,-64.608341,-25.004688,-39.739392,-47.237148,-50.876003,-10.109184,-23.880982,-31.532993,-35.30341,2.16037,-7.851448,-13.704655,-17.534065,-3.585316,-0.023657,11.270574,24.823147,-16.039491,1.639615,19.814503,33.689845,-12.109426,18.553541,38.664452,51.073574,-3.255136,26.86501,44.59708,55.010132,7.075498,31.097063,42.68354,49.895018,23.223427,40.055729,49.112389,50.601174,28.873501,37.3102,42.743454,47.278359,11.631546,21.780361,30.457443,36.494042,-2.851421,7.498387,16.986386,24.210308,-13.182426,-5.094864,2.122742,7.914562,-1.253274,1.23649,8.546522,14.622997,-23.660671,-17.265675,-2.017714,9.834185,-21.005978,-0.438212,18.687113,31.414021,-12.432223,10.230962,26.641974,36.138718,-0.984493,17.032221,28.155921,34.624166,70.194494,143.507056,-86.825072,143.130601
84,5.879471,16.825487,-5.340225,13.215804,-27.438778,-50.810761,-63.398426,-70.492047,-48.978093,-65.119789,-71.963677,-76.530636,-32.983006,-49.85027,-58.19624,-63.071514,-17.188294,-32.97242,-41.44138,-46.665493,-3.449044,-15.932969,-22.697812,-27.916924,-5.872644,-0.619728,13.752878,28.729978,-10.816845,12.343672,31.230437,45.428814,-5.212942,29.734879,50.488977,63.650966,4.015345,37.429796,55.636083,66.820052,14.367968,39.704224,51.998682,60.136367,23.032368,40.342815,50.617905,54.483799,31.48439,41.311512,47.698116,53.441471,15.238438,27.017578,36.24432,43.001621,1.17255,12.344868,22.189316,30.131619,-9.127533,-0.277874,7.344303,13.708523,-2.864015,-0.080065,7.909314,14.528551,-19.846286,-10.638929,4.039935,15.825915,-16.414074,4.651054,23.266963,36.350307,-8.108261,14.408792,31.154195,41.61816,2.499848,20.730861,32.054936,38.93918,76.457606,157.607179,-91.781656,153.621041
85,-1.172951,11.944666,-6.066982,16.574404,-27.287487,-50.594788,-62.759617,-69.746372,-52.03236,-69.039391,-76.568207,-82.091229,-36.952984,-54.312069,-63.590847,-70.086113,-21.379486,-37.279656,-46.850773,-53.981403,-7.230743,-19.64669,-26.712696,-33.436157,-5.816982,2.822784,19.903059,35.417597,1.065923,28.298972,47.920586,62.75945,8.481724,42.179638,63.707357,78.922609,17.663625,49.096202,68.591654,81.868233,26.837352,50.397988,63.69726,73.906104,25.542228,45.974407,58.837154,65.710052,38.245788,52.7803,60.174579,65.586101,22.356697,39.408108,49.518642,55.930011,8.132023,23.960048,34.933925,43.011646,-2.869801,10.089615,18.942569,25.652778,-5.112243,-1.034443,8.967679,16.913277,-13.510972,2.645245,16.588173,26.363721,-7.853745,17.521531,35.166501,46.605036,1.217286,26.727134,42.579181,51.628124,11.78556,31.568996,42.170282,47.886567,75.894316,167.253992,-97.238977,167.897592
86,1.452736,17.110372,-6.782284,15.79804,-29.118656,-53.26046,-65.698437,-72.198773,-58.105099,-75.362526,-82.582077,-87.865265,-44.16734,-62.522907,-72.050503,-79.442963,-29.13366,-46.338181,-56.662113,-65.230946,-15.060425,-29.452011,-37.35735,-45.627022,-6.552145,4.203709,22.634515,38.066579,7.696559,35.632155,54.166134,67.267046,17.045896,49.967748,71.11322,86.25242,27.029755,57.894611,77.052708,90.32079,36.319116,58.866563,72.31474,83.124601,29.496677,53.445991,68.792164,77.939976,45.676289,62.765694,71.909328,78.493034,30.107723,50.103435,61.766201,69.34433,15.628967,34.72419,47.386013,56.627907,3.674709,19.835587,29.965416,37.633255,-6.87292,-1.114435,10.608202,18.979483,-7.681504,12.592922,26.7279,36.705791,-0.087562,27.919362,45.473905,56.922913,9.791923,36.869602,52.622552,61.655341,20.562763,41.859023,52.510871,58.14567,77.987051,182.539649,-103.381262,181.870917
87,-0.673485,18.969406,0.839642,13.102054,-26.19857,-51.054062,-65.807098,-74.190445,-59.235489,-77.867729,-86.066448,-91.594288,-50.182411,-70.799492,-80.474258,-87.449364,-39.181343,-58.913979,-68.028259,-75.249928,-28.339874,-44.792015,-51.258934,-57.814819,1.116361,15.473047,34.207406,49.461067,21.599911,48.724224,64.791187,75.399192,26.718452,57.392117,75.690357,88.29437,31.169014,58.701312,74.564511,85.505783,34.493273,54.13461,65.99763,75.668263,30.160011,54.896266,71.36721,81.557418,50.365173,71.475769,79.096813,82.52005,35.650325,59.256568,68.24699,71.78421,20.728809,42.270618,52.86193,58.828422,7.224678,25.091102,35.264076,41.393737,-5.65325,2.036146,14.375101,22.436234,3.898798,29.576175,45.103032,54.816174,13.115936,42.8629,59.412072,68.609759,22.562316,50.563819,65.38225,72.908823,31.379448,53.247405,63.63396,68.55343,77.836023,200.310365,-102.019163,193.774281
88,-0.159096,17.453321,-4.264218,15.247474,-23.819298,-47.89389,-64.16027,-74.80838,-58.448318,-78.472709,-88.611854,-95.260437,-54.278274,-76.712333,-87.694164,-95.225555,-47.407722,-69.20636,-78.461117,-85.08688,-40.014313,-58.406856,-64.565517,-70.029419,8.804707,25.026763,41.922775,55.376349,33.17179,57.000064,70.904837,80.224876,34.097565,59.47344,74.833793,85.40739,33.04845,54.660675,67.097751,75.554791,30.458922,45.12893,55.151874,63.354021,34.184498,61.826878,80.780548,93.060928,57.541821,83.767983,92.217201,94.36282,43.962261,73.096172,83.126244,86.070751,29.661816,57.076584,68.404747,73.329998,15.962837,38.47942,49.841068,55.916004,-5.579706,3.03234,15.901188,24.565808,10.060648,38.92904,54.656685,63.950406,21.4566,53.680695,69.963809,78.226224,32.238049,61.785276,75.530917,81.747924,41.575218,64.199766,73.713381,77.472709,78.088085,217.033892,-105.872223,208.291961
89,-0.544029,16.611824,-3.049656,15.24425,-22.702034,-46.336716,-64.274025,-77.172089,-57.905022,-79.79361,-92.045116,-99.960274,-57.16745,-81.993725,-94.63615,-102.568977,-53.839188,-78.535263,-88.804825,-95.066849,-49.816864,-70.892075,-77.972191,-82.883801,15.368727,33.277878,48.290922,59.634781,43.240899,62.408264,72.771823,79.363902,40.484731,59.579354,70.660935,77.240528,34.555296,49.703648,57.895396,62.764725,26.548157,36.318567,43.318396,48.706823,38.695427,69.466301,91.329243,106.585716,64.257866,94.281864,104.240238,106.92017,50.556027,83.806996,95.584877,99.343495,36.510521,68.267246,81.367939,86.960484,22.968018,49.236088,61.761944,68.317543,-6.07198,3.525207,17.483221,26.439785,15.325686,47.121825,62.892214,71.819187,28.818929,63.655918,79.944454,87.949901,41.000692,72.568219,85.732221,91.11666,51.124734,75.046053,84.062787,87.143342,77.71522,233.164146,-108.750715,223.054641
90,-1.153404,15.102052,-0.467136,12.767404,-21.687493,-45.052208,-64.527146,-79.515976,-56.037186,-81.002438,-95.940193,-105.552315,-58.149307,-86.223301,-100.807949,-109.521755,-58.05922,-86.541561,-98.170098,-104.440155,-57.586167,-81.777695,-90.141598,-94.913944,22.573591,41.051859,53.208218,61.582846,51.664816,66.200047,72.449943,75.767669,44.664381,58.01876,64.429194,66.527868,33.367032,42.463152,46.17413,47.441964,19.7329,25.255449,29.234868,32.009869,39.801601,70.616741,93.245762,110.021404,66.378387,96.317333,107.764377,112.61182,53.447182,86.504986,99.562649,105.28593,40.229118,71.503738,85.40078,92.339905,27.232235,53.088077,65.835766,73.344658,-5.915245,3.000143,15.619272,22.980601,17.870384,46.847394,62.77558,73.372346,31.825013,63.854903,80.567504,90.155947,44.046741,73.416707,87.139303,93.980842,53.709236,76.839409,86.276218,90.437381,76.493157,247.997087,-109.28651,235.552934
91,-1.713021,11.782522,1.488968,12.89335,-22.281486,-46.299041,-67.244728,-84.343448,-55.861839,-83.017719,-100.236431,-111.547485,-58.801963,-88.508709,-104.68539,-114.084297,-59.813896,-89.401828,-101.804283,-108.103157,-60.310798,-84.8684,-93.454547,-97.835929,22.526007,39.578654,49.951378,55.71957,54.752731,67.035938,71.873614,74.405739,47.777849,58.658161,62.288097,61.588057,35.61166,42.441922,43.048978,41.32361,20.689241,25.038297,26.494199,26.45274,39.478855,70.196937,93.524276,111.521335,67.584434,99.108398,111.425228,117.056705,55.162422,90.057014,104.107624,110.4127,42.73217,74.85086,89.299953,96.5755,30.607624,56.991806,70.033241,77.629863,-6.165964,1.398535,12.843468,18.827947,20.657575,48.629042,63.475249,73.302926,35.452813,66.288795,81.752581,90.304926,47.765327,76.182286,88.893682,94.835776,56.889407,79.310722,87.898611,91.318325,74.659635,259.644431,-107.918043,248.311106
92,-0.144744,7.217079,0.42017,11.771086,-27.213959,-51.68628,-71.509598,-88.356663,-60.316956,-85.914402,-101.566132,-111.389775,-60.118058,-87.6862,-102.604981,-110.816071,-58.300301,-85.538578,-97.741425,-103.622143,-56.10775,-78.657898,-87.961544,-92.948067,15.19459,28.34644,36.587403,39.445311,48.16815,59.561558,65.68374,69.507733,46.275722,56.582952,60.997613,61.071775,39.062323,46.835316,48.489116,47.190208,28.757426,34.164552,36.018101,35.993216,39.012371,69.720703,93.987304,113.731224,66.455703,97.713375,113.265426,123.010231,54.577858,89.131095,107.440704,118.660949,43.564533,74.838077,92.448703,103.522567,33.252079,58.14331,72.10976,81.965972,-7.250956,-1.493607,8.603191,12.876245,20.051359,43.767173,56.602033,66.414247,35.699247,62.125829,75.981276,85.091116,48.243411,72.830683,84.502055,90.788802,57.207496,77.644301,85.599347,89.396763,74.379902,266.699409,-107.632862,259.920091
93,-1.313668,6.805945,3.479496,10.922758,-30.58873,-56.282455,-75.71656,-91.965305,-64.318908,-87.417286,-99.160011,-105.285896,-60.936081,-85.621296,-96.291446,-100.873306,-56.338508,-80.412311,-89.459804,-92.838215,-51.653938,-70.926258,-78.826904,-82.863327,8.08387,17.454409,23.972128,25.268195,41.829976,53.50714,60.327362,64.291516,44.287593,56.19001,61.535521,62.134574,41.739475,52.126339,55.325529,54.998709,35.724392,43.810979,46.759129,47.531318,37.415405,67.166507,91.437801,112.061222,65.76044,95.786773,112.358219,124.078434,54.064727,87.483593,107.159191,120.592746,43.561363,73.235836,91.728389,104.690116,33.929557,57.243049,71.27243,82.286579,-7.937682,-3.905861,4.500037,6.873167,21.806911,42.614083,53.977456,63.227717,37.738308,60.9781,73.185341,81.714852,49.827569,71.836675,82.345299,88.412079,57.908993,76.714365,84.009657,87.945505,72.870105,273.314227,-104.349495,270.651722
94,-22.204948,9.648095,4.332824,10.209937,-22.759861,-41.933968,-57.192444,-70.641495,-51.187134,-63.924671,-68.172306,-69.962357,-49.338192,-62.098801,-64.962399,-63.846291,-46.569168,-58.975319,-60.787422,-59.92321,-43.438523,-56.743939,-62.187573,-65.057465,-0.708858,4.326839,9.808558,11.055645,31.73219,46.552412,54.218368,58.670338,39.574616,55.010823,61.351035,63.051616,42.178668,56.004474,60.314109,61.311625,41.440726,52.623491,57.035521,59.094106,35.554711,64.014553,88.127804,108.89391,64.324963,94.246651,111.454502,123.792103,53.221001,86.915428,107.457928,121.690945,43.203701,72.774662,91.59684,105.289387,33.889149,56.819149,71.050576,82.737603,-8.437564,-5.805119,1.198328,2.572201,23.649531,42.622987,52.794145,61.110776,39.655793,60.503634,71.013307,78.250233,51.258819,71.480894,80.763006,86.043839,58.56104,76.047213,82.601599,86.166006,50.371931,282.73936,-100.309897,280.638697
95,-18.412789,7.989453,3.821205,9.430918,-15.973835,-28.922401,-39.930954,-50.015853,-42.854209,-44.529808,-40.081306,-36.381271,-43.12302,-43.068283,-36.856876,-28.957603,-41.665947,-41.7873,-35.086051,-28.678962,-38.944061,-45.587814,-46.744514,-46.366401,-9.234589,-7.152847,-0.604845,2.089708,21.600936,40.586076,49.982834,55.518721,35.264722,54.545386,62.579214,65.373469,43.790638,61.135217,66.973991,69.166143,49.098951,63.597009,69.326879,72.117022,34.035073,61.932381,86.160645,106.980458,62.929676,93.332829,110.759411,123.24075,52.149811,86.323208,107.257336,121.767781,42.492932,72.612717,91.722634,105.746899,33.632721,56.881108,71.439137,83.45945,-9.0246,-7.274631,-1.055636,-0.084055,24.337011,42.699953,52.029316,59.272936,40.480977,60.154571,69.169885,74.923615,51.756021,71.05878,79.16225,83.283682,58.567808,75.283904,81.018072,83.714243,31.608793,290.425146,-96.839041,289.765948
96,-16.020423,7.194257,3.194367,7.474344,-12.626278,-22.629982,-31.577923,-40.946904,-36.51701,-27.026814,-15.027386,-6.214428,-38.081212,-25.745545,-11.195698,2.274433,-37.365704,-26.886795,-12.340554,-0.812897,-35.087414,-35.069333,-30.661904,-26.142071,-5.360257,-0.980313,8.093762,14.036696,21.870588,41.737165,50.746994,56.056455,33.988291,52.971183,61.45648,64.892433,41.543231,58.106507,64.339174,67.483431,46.674135,60.87668,66.215485,69.058289,32.772926,60.15842,84.229557,104.688663,61.550663,92.246784,109.543018,121.87611,51.042148,85.675049,106.452267,120.933437,41.458843,72.266556,91.348904,105.446148,32.638218,56.131931,70.919781,83.296257,-10.036838,-8.774696,-2.671817,-1.372316,24.917415,42.887612,51.402661,57.562746,41.14073,59.665459,67.51238,72.057618,51.924427,70.533926,77.601496,80.71899,58.104643,74.321277,79.51834,81.486152,15.238427,297.302432,-93.994617,296.923321
97,-10.741791,6.890839,2.670639,4.991026,-5.537464,-11.570091,-20.021198,-28.627922,-30.850456,-15.123734,2.424557,13.940483,-36.521027,-16.653591,3.456459,20.652694,-39.016892,-22.111782,-1.780564,13.271255,-39.568348,-38.912876,-32.872273,-26.774208,-5.758683,-2.289582,7.199209,14.936449,18.751365,40.046451,47.927928,52.056993,32.078326,50.894257,58.606328,61.548031,40.584458,56.102719,61.639484,64.714506,46.912443,60.358533,65.326761,68.361634,31.649254,58.636425,82.441418,102.590229,59.940021,91.15749,108.248096,120.457935,49.583885,84.76601,105.069431,119.270817,40.026707,71.519131,90.365581,104.26601,31.247063,54.903591,69.866398,82.415234,-10.736482,-9.824552,-3.604482,-1.692455,25.080844,42.436403,50.137766,55.360109,41.351139,58.984871,65.96284,69.387654,51.754404,70.074245,76.417815,78.590528,57.417596,73.605948,78.507214,79.86849,4.196869,303.877754,-91.623745,301.59883
98,-16.240814,7.51442,2.332432,2.711992,-0.370617,-2.22329,-8.429455,-16.256173,-21.404606,2.421707,23.393852,35.771347,-29.718304,-0.942685,22.558387,40.995826,-34.336911,-10.03513,13.620597,29.917076,-36.53381,-32.657147,-24.09113,-16.446808,-5.970104,-1.110198,11.245084,21.964202,16.154797,36.901886,43.55569,47.207375,29.961127,47.109352,53.93218,56.174449,38.999362,52.713585,57.023776,59.474514,46.133609,58.298675,61.443698,63.162471,30.569446,57.223388,80.780182,100.655227,57.758365,89.719894,106.737922,118.927299,47.414028,83.449997,103.427902,117.403885,37.86985,70.291122,89.005371,102.771789,29.25452,53.244781,68.292652,80.849464,-11.17223,-10.262955,-3.649289,-1.000628,24.852849,42.200812,49.479012,54.056632,41.282806,58.735547,65.340618,67.980794,51.519764,70.113839,76.113953,77.507487,56.839476,73.307212,78.070984,78.858388,-12.30142,311.094679,-89.548788,304.013327
99,12.166877,-0.358609,1.612449,1.463016,-4.833984,-11.720443,-22.276874,-33.356884,-34.434826,-12.54079,9.745125,23.910553,-42.544052,-15.597633,9.118401,28.888069,-45.602668,-23.230442,1.718308,19.928238,-45.813057,-43.033195,-32.648883,-22.349682,-0.24347,7.02527,20.972576,33.420175,18.216347,39.406877,46.517462,50.275802,30.353773,47.495811,55.19216,57.899063,38.772305,52.575746,57.625126,60.284593,45.739184,58.21488,61.196893,62.778087,29.604355,56.162728,79.611992,99.212197,56.229218,88.707436,105.569413,117.680718,45.879593,82.581505,102.327484,116.188271,36.316155,69.52541,88.098061,101.725891,27.780854,52.336739,67.453801,79.921692,-11.608065,-10.750698,-3.892635,-0.991663,24.071817,41.334169,48.392093,52.564161,40.772241,57.985094,64.388241,66.513925,51.052548,69.613054,75.382371,76.260449,56.321167,72.776824,77.372673,77.755945,-0.353251,310.484221,-88.155047,305.224494
100,6.83075,1.640325,1.381874,0.16123,-10.405243,-22.465336,-36.514458,-50.493107,-43.146012,-22.483235,-0.610153,14.21141,-48.030064,-22.175366,2.083122,21.878975,-47.91219,-25.91668,-1.220192,17.413399,-45.33379,-40.501866,-28.420727,-16.803349,7.424438,17.706696,32.076128,45.144121,23.089517,42.220041,48.638762,52.206046,29.706123,45.54556,53.437374,56.787408,33.426573,47.09289,52.622664,55.688486,36.281887,48.772995,51.923773,53.940134,29.016655,55.277836,78.435975,97.805031,55.153267,87.832604,104.553841,116.661461,44.817112,81.745171,101.211136,114.969544,35.169674,68.669335,87.028244,100.541794,26.514004,51.15683,66.251027,78.615578,-11.812125,-11.230412,-4.305189,-1.101208,23.544592,40.52908,47.318155,51.147817,40.348287,57.257798,63.525662,65.337049,50.597905,69.028748,74.744489,75.402279,55.807071,72.193283,76.76111,76.910348,6.302902,311.919121,-86.94777,305.180299
101,0.262207,5.908947,1.501156,-0.128564,-5.688606,-14.826565,-26.691776,-37.945278,-39.485367,-19.200989,2.100998,16.076179,-46.067516,-21.535687,2.47316,22.606178,-47.394951,-26.573616,-2.415138,16.537559,-45.90889,-42.103489,-31.560688,-20.797348,1.935999,7.486138,17.991958,28.308772,14.877909,32.941152,39.818061,44.042604,23.398318,38.921062,46.730637,50.395128,28.966352,42.491409,48.041487,51.391928,33.249077,44.835788,48.226726,50.828604,28.729031,54.662751,77.659024,97.010708,54.003823,86.837254,103.571423,115.748074,43.660778,80.81432,100.300793,114.064579,34.075802,67.841687,86.263241,99.816021,25.524411,50.493622,65.794201,78.292729,-11.698653,-11.392173,-4.561763,-1.000209,22.931497,39.841995,46.501493,50.151264,39.833165,56.681864,62.819447,64.397528,50.203381,68.615995,74.322882,74.947994,55.464677,71.812765,76.360794,76.452345,6.396143,317.652286,-85.61558,304.875953
102,1.949638,-0.11698,1.516457,0.218102,-7.439277,-17.99889,-30.870517,-43.526985,-41.601242,-21.728531,-0.254791,14.033455,-47.227501,-23.070087,1.139946,21.494797,-47.708244,-27.357868,-3.31961,15.730133,-45.489544,-42.463337,-32.787906,-22.718902,3.801207,10.668989,22.229654,33.297378,15.160343,33.068617,40.146635,44.676102,22.807712,38.088395,46.385798,50.275728,27.98767,41.507737,47.430763,50.897135,32.176472,43.719711,47.478694,50.478109,28.321609,53.965622,76.884006,96.214153,53.20776,85.965694,102.658985,114.761204,42.89661,80.071735,99.576794,113.294735,33.327267,67.228317,85.71809,99.31715,24.840156,50.145447,65.603748,78.227428,-11.893537,-11.706791,-4.87785,-1.012731,22.5791,39.657152,46.393294,50.05192,39.441087,56.253748,62.379859,63.955371,49.845328,68.181075,73.885591,74.593905,55.115145,71.33089,75.847142,75.960985,8.138534,317.357761,-84.30637,304.91651
103,2.591675,-0.47186,1.037498,0.253127,-8.916985,-20.731613,-34.454864,-47.361454,-44.412357,-25.756748,-4.153908,10.760101,-49.158485,-25.950771,-1.87223,19.120491,-48.839298,-28.89426,-4.88697,14.635323,-46.0215,-42.595756,-32.951237,-22.754219,5.565836,13.182392,24.437417,35.112322,16.570773,34.939878,41.85827,46.054655,23.039733,38.90187,47.31198,51.215248,27.106529,41.539774,47.594155,50.890083,30.257282,42.680736,47.013368,50.465611,28.049321,53.554196,76.434872,95.719242,52.910946,85.401661,102.00198,114.084538,42.550518,79.474057,98.915074,112.5798,32.913746,66.643032,85.130345,98.714734,24.365788,49.672612,65.125843,77.712376,-12.109984,-11.983717,-5.097521,-1.150299,22.18081,39.417499,46.206537,49.94934,39.056765,55.787867,61.885139,63.483783,49.529858,67.717243,73.375619,74.095481,54.847778,71.050024,75.521075,75.654345,10.492458,316.683771,-83.506623,304.967507
104,-2.031418,0.014092,0.78201,0.15986,-8.130638,-18.916992,-31.775001,-43.958622,-41.921619,-22.806141,-1.33596,13.294625,-46.916771,-23.332523,0.832901,21.74318,-47.061424,-26.767376,-2.702568,16.71405,-44.764034,-41.48576,-32.142448,-22.298561,4.503173,11.991818,23.489066,34.130922,16.491793,34.829072,41.530363,45.565357,23.309841,39.171423,47.220268,50.694235,27.356914,41.754998,47.446176,50.423262,30.482596,42.79616,47.19106,50.692061,27.789573,53.179481,76.078857,95.356292,52.527042,84.982864,101.581077,113.62928,42.133071,79.078399,98.536857,112.13459,32.47023,66.229694,84.768539,98.317108,23.918563,49.252223,64.704563,77.20832,-12.318837,-12.254308,-5.320477,-1.124204,22.009366,39.2413,46.022261,49.788011,38.906007,55.444731,61.519132,63.118677,49.385509,67.425275,73.025654,73.693621,54.636357,70.845667,75.286683,75.335749,8.223226,316.50555,-82.962427,304.935054
105,-6.317196,1.728715,0.5438,0.040644,-4.155407,-10.723594,-19.323417,-28.467018,-32.974628,-11.891601,9.190785,22.675885,-40.328144,-15.389911,8.889233,29.051136,-42.787788,-21.898029,1.893414,20.759663,-42.54095,-39.56163,-30.496936,-20.919719,-3.718734,0.301033,11.432335,21.936587,9.057254,27.710621,35.342428,40.146413,21.107686,37.049568,45.361284,48.798658,30.099793,43.860897,49.041683,51.26718,37.570025,48.74265,51.951054,53.925177,27.574917,52.839878,75.731232,94.871017,52.142876,84.567169,101.210266,113.290008,41.785457,78.713287,98.197723,111.827682,32.16568,65.919708,84.508484,98.118736,23.658325,49.048885,64.468952,76.924621,-12.419218,-12.427271,-5.490699,-0.9762,21.839577,39.09174,45.89503,49.717035,38.719534,55.219812,61.301845,62.989891,49.193861,67.216027,72.840255,73.577073,54.443659,70.675903,75.101617,75.14562,1.666002,318.05764,-82.658655,304.799073
106,6.240006,-6.487906,0.412399,0.052834,-6.098934,-15.992935,-28.741253,-41.245514,-40.002388,-21.167553,1.000294,15.580158,-47.576374,-24.045937,0.745914,21.835705,-49.984452,-30.284546,-5.1721,14.756733,-49.842121,-50.028156,-41.223736,-31.154286,0.341998,7.216227,20.752152,33.148868,14.66513,35.809558,43.502066,47.844639,25.701126,43.370587,51.93779,55.221281,33.58269,48.614617,53.98841,56.176894,40.449867,52.940271,57.210447,60.065811,27.447659,52.66769,75.550369,94.548615,52.224919,84.50322,101.02034,113.06131,41.827469,78.540871,97.895828,111.486763,32.079128,65.600601,84.106911,97.736664,23.403786,48.731255,64.010834,76.286751,-12.585599,-12.694131,-5.761376,-1.068307,21.494614,38.742332,45.663873,49.644885,38.391589,54.861066,61.150667,63.099065,48.906252,66.927566,72.682976,73.519015,54.192248,70.414661,74.854948,74.868336,7.651257,311.428984,-82.501007,304.711157
107,-7.410668,4.160631,0.225346,-0.015586,-3.798603,-10.052765,-18.211315,-26.946579,-31.729202,-10.628036,10.28928,23.530369,-39.399078,-14.408901,9.458119,29.199108,-42.237648,-21.254448,2.770649,21.452603,-42.538616,-39.185554,-28.735965,-18.153797,-4.038983,0.226686,11.983051,23.566329,11.275564,30.212995,37.561146,42.208791,23.631895,39.779925,47.938352,51.189524,32.276743,45.642953,50.421805,52.298907,39.289108,50.41831,53.048458,54.103908,27.47097,52.680725,75.519802,94.435032,52.2793,84.456402,100.936695,113.006733,41.836876,78.4006,97.731823,111.333126,32.013988,65.407665,83.879116,97.539562,23.240318,48.55957,63.743454,75.862942,-12.687215,-12.814767,-5.830054,-1.07158,21.120975,38.420229,45.422602,49.540688,38.146984,54.618659,61.077555,63.283193,48.808983,66.818676,72.64621,73.548359,54.228384,70.388936,74.727076,74.581567,-0.024022,315.511087,-82.540272,304.617043
108,3.30526,-3.177812,0.099758,-0.031987,-1.893963,-8.36816,-17.874962,-27.502819,-33.86166,-13.78529,7.670345,21.062862,-43.00708,-19.26638,5.077892,25.395687,-46.83791,-26.797806,-1.813282,17.605007,-47.817409,-45.933746,-35.388931,-24.168423,-0.847932,3.204019,14.085776,25.511652,12.467656,32.867991,41.217561,46.150826,24.258786,41.841264,50.959133,54.68393,32.439764,46.637036,52.426174,55.029695,39.242807,51.149089,54.634493,56.180538,27.44949,52.603889,75.331467,94.193436,52.297645,84.410042,100.922813,113.051674,41.854214,78.352615,97.726547,111.360901,31.994476,65.327488,83.845528,97.561272,23.174274,48.575581,63.747768,75.760803,-12.845358,-12.960967,-5.919259,-1.008285,20.960893,38.20356,45.200845,49.380792,38.079688,54.498555,60.963255,63.302558,48.807291,66.790925,72.625487,73.602873,54.278217,70.351701,74.573922,74.323352,3.023815,312.300649,-82.697937,304.55243
109,-1.842132,2.711918,-0.074158,0.138037,-1.451901,-6.898304,-13.788872,-20.478207,-31.730473,-11.598061,8.599124,21.628818,-39.173539,-16.015297,7.323406,26.885639,-41.565205,-21.618084,2.028636,20.587017,-41.343705,-36.511826,-24.967495,-13.356869,0.733298,5.084084,15.264035,26.024131,13.318193,31.601267,39.456698,44.398596,22.683075,38.946849,48.197357,52.378503,29.314193,42.615293,49.094208,52.256879,34.545255,45.771912,49.365823,51.110087,27.464287,52.503559,75.085327,93.913033,52.416481,84.447418,101.022125,113.217407,42.037125,78.474838,97.906563,111.617409,32.187481,65.509049,84.079972,97.811119,23.369099,48.888737,64.075813,76.078675,-13.118776,-13.264199,-6.122578,-1.083041,20.58424,37.789733,44.778435,48.944784,37.783632,54.228335,60.647031,62.981937,48.606935,66.554619,72.346783,73.344484,54.19189,70.193138,74.317423,74.039818,0.948109,314.997867,-83.005669,304.675767
110,8.626087,-4.287788,-0.075371,0.030048,-3.628716,-12.931137,-24.881081,-35.33693,-40.347382,-23.19389,-2.001389,12.349113,-47.671532,-26.955815,-3.245934,17.674598,-49.673127,-31.728802,-7.182747,12.598617,-49.136261,-47.615444,-37.335228,-25.956379,8.240531,15.673724,26.759924,38.005699,19.084595,38.544323,46.353947,50.85922,25.437909,42.720182,52.155275,56.284105,29.434075,44.019485,51.088932,54.893251,32.759767,45.584784,50.670622,54.071229,27.480515,52.548706,75.092835,93.998955,52.617566,84.665245,101.257531,113.471695,42.23671,78.745583,98.23803,111.950547,32.35302,65.767937,84.412697,98.146958,23.496392,49.228238,64.462887,76.471711,-13.470396,-13.521451,-6.091098,-1.017487,20.245836,37.412672,44.384491,48.595203,37.592947,53.937663,60.310528,62.647238,48.53386,66.364415,72.088295,73.079093,54.202498,70.103587,74.12859,73.826989,9.326226,310.709579,-83.32901,304.705315
111,-1.811394,2.453319,-0.144779,0.073137,-5.536949,-15.130852,-25.839684,-35.638916,-40.184315,-22.742294,-2.374786,11.752624,-44.884769,-23.924114,-1.023834,19.380226,-44.887425,-26.131485,-2.711128,16.447334,-42.744072,-37.474102,-25.773766,-13.772461,11.731837,20.740173,31.595512,42.451951,22.172819,39.554634,46.468408,50.668288,25.191291,40.857778,50.046078,54.109009,26.230427,39.907871,47.072771,50.92391,26.478157,38.799389,43.767358,47.139091,27.527024,52.564018,75.099438,94.202923,52.602139,84.72385,101.439938,113.69672,42.344925,79.01302,98.632015,112.404865,32.603943,66.215767,84.957813,98.666371,23.90173,49.881729,65.256672,77.405125,-13.634936,-13.67842,-6.153058,-1.042545,20.10255,37.163954,44.084199,48.259503,37.496171,53.766775,59.940236,62.127583,48.4863,66.191872,71.770589,72.69939,54.236572,70.017878,73.925654,73.613555,7.262146,313.161428,-83.726475,304.776982
112,4.992165,-5.045614,-0.100422,0.00263,-7.374573,-20.109948,-34.528965,-47.7193,-46.347737,-30.77813,-9.485299,5.889999,-50.819264,-30.901303,-7.192429,14.470184,-50.525883,-32.004502,-7.28151,13.038734,-48.073105,-43.197476,-30.341687,-16.906094,19.39352,32.189675,44.89623,56.562649,28.26924,47.221689,54.493343,58.310988,27.919486,45.187284,55.147033,59.296006,26.22188,42.026886,50.057527,54.383551,24.398737,38.816223,45.165017,49.81407,27.544213,52.568013,75.088326,94.32946,52.641209,84.853432,101.654229,113.897896,42.492428,79.329003,99.039574,112.84536,32.846363,66.67416,85.506295,99.181343,24.252594,50.469876,66.00412,78.318833,-13.776381,-13.837699,-6.197901,-1.011521,20.005602,36.961315,43.788786,47.848283,37.406313,53.594097,59.624383,61.674373,48.397182,65.988553,71.483068,72.366025,54.175687,69.924673,73.838932,73.603861,11.993466,308.12102,-84.087742,304.784818
113,-5.984368,5.874762,-0.131229,0.034309,-4.45269,-12.934868,-22.548031,-31.083,-38.074837,-21.548332,-1.736641,12.79406,-42.39489,-22.574249,0.442154,21.340347,-42.336239,-24.255569,-1.172172,18.035294,-40.225342,-34.700729,-22.44318,-9.83678,12.776469,22.334691,33.713316,44.770308,21.2033,37.142823,44.085224,48.252043,23.092097,38.517721,48.109437,52.346762,24.01061,38.186405,46.234781,50.692666,24.500291,37.409412,43.491605,48.019281,27.677124,52.677635,75.228985,94.650661,52.637192,85.003406,101.880535,114.073048,42.571461,79.623585,99.385174,113.17503,33.050823,67.094192,86.001125,99.635548,24.624573,51.061958,66.726974,79.202534,-13.817223,-13.974254,-6.298036,-1.047509,19.808149,36.727824,43.474612,47.434443,37.218591,53.420701,59.370292,61.320765,48.214425,65.769919,71.233941,72.109636,54.032697,69.737111,73.691756,73.578765,5.722383,314.004337,-84.505686,304.827682
114,4.482514,-2.656009,0.091965,-0.089958,-6.376397,-17.40873,-30.660405,-42.707486,-42.92593,-27.519917,-6.42524,9.017326,-48.233471,-28.786652,-4.969277,16.753166,-48.926056,-31.716694,-7.326691,12.910881,-47.568421,-45.50124,-34.528244,-22.410736,13.472742,23.026432,34.901123,46.670628,21.153666,38.656906,46.169264,50.534969,24.14199,40.652655,50.493089,54.805047,25.672178,40.858234,48.677034,53.047951,26.930799,40.756013,47.115725,51.855798,27.725326,52.709175,75.236286,94.760753,52.659988,85.095028,101.898433,113.951992,42.591201,79.719623,99.421611,113.089199,33.089378,67.171405,86.072994,99.689724,24.697242,51.123573,66.853695,79.478496,-13.760042,-14.022086,-6.356822,-1.046163,19.736704,36.727626,43.449344,47.397764,37.159508,53.39547,59.353459,61.332423,48.146092,65.712652,71.217071,72.119924,53.961511,69.6454,73.699339,73.699759,9.865803,311.353552,-84.752815,304.742948
