takenoko1/special-research/HandMotion_SimilarSearch_自分用/NewProject/handData/tgt/d4_feature_d2/44.csv
,vel_0x_L,vel_0y_L,vel_0x_R,vel_0y_R,posFromWrist_1x_L,posFromWrist_2x_L,posFromWrist_3x_L,posFromWrist_4x_L,posFromWrist_5x_L,posFromWrist_6x_L,posFromWrist_7x_L,posFromWrist_8x_L,posFromWrist_9x_L,posFromWrist_10x_L,posFromWrist_11x_L,posFromWrist_12x_L,posFromWrist_13x_L,posFromWrist_14x_L,posFromWrist_15x_L,posFromWrist_16x_L,posFromWrist_17x_L,posFromWrist_18x_L,posFromWrist_19x_L,posFromWrist_20x_L,posFromWrist_1y_L,posFromWrist_2y_L,posFromWrist_3y_L,posFromWrist_4y_L,posFromWrist_5y_L,posFromWrist_6y_L,posFromWrist_7y_L,posFromWrist_8y_L,posFromWrist_9y_L,posFromWrist_10y_L,posFromWrist_11y_L,posFromWrist_12y_L,posFromWrist_13y_L,posFromWrist_14y_L,posFromWrist_15y_L,posFromWrist_16y_L,posFromWrist_17y_L,posFromWrist_18y_L,posFromWrist_19y_L,posFromWrist_20y_L,posFromWrist_1x_R,posFromWrist_2x_R,posFromWrist_3x_R,posFromWrist_4x_R,posFromWrist_5x_R,posFromWrist_6x_R,posFromWrist_7x_R,posFromWrist_8x_R,posFromWrist_9x_R,posFromWrist_10x_R,posFromWrist_11x_R,posFromWrist_12x_R,posFromWrist_13x_R,posFromWrist_14x_R,posFromWrist_15x_R,posFromWrist_16x_R,posFromWrist_17x_R,posFromWrist_18x_R,posFromWrist_19x_R,posFromWrist_20x_R,posFromWrist_1y_R,posFromWrist_2y_R,posFromWrist_3y_R,posFromWrist_4y_R,posFromWrist_5y_R,posFromWrist_6y_R,posFromWrist_7y_R,posFromWrist_8y_R,posFromWrist_9y_R,posFromWrist_10y_R,posFromWrist_11y_R,posFromWrist_12y_R,posFromWrist_13y_R,posFromWrist_14y_R,posFromWrist_15y_R,posFromWrist_16y_R,posFromWrist_17y_R,posFromWrist_18y_R,posFromWrist_19y_R,posFromWrist_20y_R,posFromBody_0x_L,posFromBody_0y_L,posFromBody_0x_R,posFromBody_0y_R
6,-3.115081,0.148028,0.038498,-0.154746,3.79779,7.399589,9.92752,9.46582,-12.668141,11.532188,31.972515,44.579258,-21.886288,6.050262,30.661205,49.289119,-27.212746,-4.250553,19.422672,36.449215,-29.540875,-25.2575,-16.076752,-6.939537,-14.620595,-16.363044,-7.895593,1.860306,2.037418,19.53031,28.810692,35.16854,19.322235,34.979633,44.081421,47.718854,32.381052,44.690688,50.425066,52.870234,43.034468,53.354579,56.412188,57.285141,28.085174,52.849354,75.33094,95.166275,51.558369,84.2379,101.06369,113.050758,41.948227,79.179657,99.448929,113.261604,32.988178,67.318474,86.881233,100.910477,25.0975,52.033035,68.028282,81.261978,-13.684534,-14.413485,-6.547446,0.024971,16.858245,34.246321,41.258661,45.839171,34.671411,50.845252,57.713824,60.89092,46.617806,64.169632,70.1592,71.569258,53.384762,69.226979,73.657756,73.96179,-22.986688,317.606217,-88.162931,304.194337
7,-0.990807,-2.248233,0.097217,-0.041521,4.356777,8.959454,11.794212,10.671043,-12.250362,12.002976,33.04295,46.033115,-21.867176,6.162712,31.267422,50.066586,-27.41962,-4.649277,19.387333,36.475994,-29.872158,-26.115932,-16.977253,-7.758236,-14.141932,-15.147907,-6.214438,3.65098,3.078529,20.811309,30.101621,36.531482,21.048912,36.830736,45.681756,48.927457,34.618293,46.959558,52.403301,54.578237,45.61766,56.19737,58.870558,59.519937,28.004162,52.566685,74.912556,94.657849,51.386811,84.007885,100.751919,112.662197,41.726704,78.93108,99.203076,112.974713,32.691754,67.086422,86.635289,100.587147,24.705471,51.730774,67.730198,80.94595,-13.742752,-14.539407,-6.655361,-0.055082,16.483852,33.984438,41.135839,45.815693,34.417444,50.624222,57.63203,60.861712,46.531541,64.059914,70.138847,71.573507,53.476857,69.304895,73.734475,73.984132,-23.621321,315.294943,-87.70954,304.089775
8,-8.012409,1.689812,0.035202,-0.180386,4.621513,12.117805,18.957996,20.537018,-5.003128,21.908501,42.261612,55.191513,-14.024185,16.572899,41.365082,59.529716,-18.970425,5.650234,28.653396,45.148018,-20.547558,-13.469032,-3.401848,6.561298,-14.133397,-14.504678,-5.040859,5.597588,1.236663,17.19208,26.838063,34.599917,19.009543,34.022168,43.509538,47.649026,32.967903,45.587785,51.687701,54.222654,44.344515,55.944749,58.571143,59.098084,27.881894,52.334519,74.60455,94.221028,51.274933,83.701733,100.404385,112.385319,41.61414,78.579724,98.835286,112.721066,32.516259,66.730946,86.276402,100.285641,24.378514,51.360203,67.344006,80.635357,-13.631835,-14.421006,-6.544531,0.111645,16.419546,33.828086,40.993481,45.681547,34.304466,50.44632,57.521225,60.803643,46.460516,63.979158,70.190817,71.718522,53.499656,69.396225,73.929088,74.222427,-31.31888,316.945617,-87.359488,303.870251
9,2.9198,-2.987831,0.086564,-0.050894,5.359611,12.007587,15.770839,15.257995,-7.579262,17.244289,38.075248,51.325584,-17.134095,11.86298,36.863273,55.703018,-22.868134,0.687332,24.344284,41.412117,-25.287587,-20.555134,-11.869961,-2.831944,-13.310079,-12.792092,-3.438991,6.308645,2.57209,20.602161,30.395677,37.538533,20.503718,37.161238,46.462455,50.425399,34.260895,48.323798,54.405263,57.213807,45.657576,58.305542,61.971355,63.822188,27.745147,52.024784,74.190662,93.691944,51.177806,83.471134,100.183948,112.173351,41.503246,78.262538,98.493953,112.431575,32.317222,66.382415,85.893207,99.910869,24.024787,50.965473,66.949081,80.332065,-13.546719,-14.403593,-6.597291,0.107655,16.246743,33.608983,40.833213,45.492899,34.030997,50.164799,57.369442,60.702532,46.22768,63.776122,70.147788,71.753089,53.407536,69.414268,74.082475,74.440825,-28.094341,313.935084,-86.968185,303.796655
10,0.549648,-0.620912,0.198509,0.064158,5.194839,12.095032,17.270428,17.794109,-9.184181,15.201599,36.86095,50.889919,-19.114735,9.475742,34.975124,54.16753,-24.88607,-1.679192,22.473484,39.668323,-27.370995,-23.030628,-13.74852,-4.368725,-14.700612,-15.472517,-6.510569,2.986608,3.257383,22.166026,31.805994,38.392849,21.959483,38.572802,47.558796,50.770262,35.954918,49.269801,54.861684,56.722989,47.217946,58.801088,61.867527,62.660761,27.588455,51.688144,73.750866,93.182865,50.978611,83.210186,99.962757,111.98695,41.28186,77.938511,98.189083,112.164676,32.012043,65.990341,85.495502,99.503299,23.569622,50.450248,66.446525,79.936855,-13.487463,-14.40269,-6.656805,0.058058,16.213781,33.419212,40.668809,45.336819,33.923318,49.952342,57.212016,60.617972,46.105056,63.598503,70.068983,71.741839,53.353147,69.394854,74.146598,74.544394,-27.248039,313.296841,-86.473022,303.843482
11,-4.767609,1.362992,0.167083,0.101938,4.288571,13.166062,22.113407,25.168888,-5.017044,21.435906,42.589909,56.691891,-14.331711,15.917485,41.101147,59.495167,-19.316219,4.701966,28.264744,45.334408,-20.819412,-14.102005,-3.419117,7.434838,-14.574061,-15.346954,-6.687014,3.109849,2.144048,20.150431,30.348314,38.282649,20.607075,36.375093,46.2425,50.528867,34.672066,48.061136,54.493837,56.702847,45.906837,58.267725,61.276255,62.043788,27.365788,51.424531,73.42828,92.787449,50.939381,83.131794,99.925725,111.919156,41.186097,77.760899,97.937588,111.872052,31.785473,65.661702,85.110455,99.110676,23.18612,49.989338,65.95942,79.448719,-13.538049,-14.45324,-6.708651,0.01461,16.336664,33.352472,40.537281,45.164856,33.921576,49.774623,56.960605,60.373995,45.993053,63.401272,69.882805,71.62718,53.158064,69.213579,73.983971,74.43181,-31.722084,314.66837,-86.012375,303.953957
12,2.321949,-1.493483,0.131321,0.070136,5.940399,13.82872,19.832589,21.847744,-6.690925,18.116284,39.421349,53.413559,-16.534103,12.700356,37.933297,56.852692,-22.456821,1.313187,25.548958,43.170365,-24.990749,-19.696953,-10.284359,-0.540493,-13.994397,-14.647025,-6.647259,2.045124,3.049457,22.622189,32.72794,39.998397,21.1261,38.305027,47.88884,52.209664,34.576871,49.277051,55.719743,58.466599,45.474571,58.553667,62.755239,65.017959,27.21785,51.233792,73.212754,92.543518,50.86171,83.003037,99.826813,111.852562,41.129151,77.577256,97.703957,111.658585,31.697228,65.446896,84.884652,98.978119,23.02335,49.779442,65.758038,79.339234,-13.567578,-14.449473,-6.715518,0.011856,16.529597,33.343135,40.415015,44.943234,34.006088,49.687024,56.789829,60.154411,45.982234,63.299038,69.768135,71.526848,53.075702,69.159585,73.959086,74.435231,-29.124155,313.197639,-85.605074,304.046845
13,2.393566,-0.064221,0.185978,0.267824,5.174401,12.11118,17.988682,19.485238,-9.306472,15.485619,37.493031,51.81831,-19.165752,9.680363,35.369946,54.385518,-25.056541,-1.739376,22.86739,40.5183,-27.832054,-22.843528,-12.473064,-2.154808,-14.302643,-15.291007,-7.303394,1.551294,4.336559,24.313459,34.434549,41.12659,22.265309,39.206794,48.828299,52.656491,35.363535,49.14104,55.455291,57.794076,45.817583,58.028764,61.523862,62.771554,27.060002,51.117932,73.076992,92.426731,50.641606,82.8727,99.722454,111.737584,40.901654,77.488461,97.647503,111.580136,31.508126,65.39898,84.842823,98.928051,22.911118,49.674809,65.690815,79.323704,-13.682743,-14.5595,-6.805365,-0.24552,16.362389,33.155723,40.225577,44.736815,33.862753,49.443481,56.463675,59.80331,45.854769,63.092409,69.459667,71.173154,52.947952,69.003591,73.771957,74.245385,-26.493885,313.178055,-85.182392,304.359306
14,1.211747,0.525916,0.240612,0.227847,4.875824,11.478984,16.87936,18.112838,-10.09306,14.177456,35.954212,50.224147,-19.776444,8.512092,33.931629,52.983158,-25.460221,-2.886349,21.464962,39.074558,-28.113064,-24.314461,-15.144642,-5.82597,-14.673269,-16.215782,-8.831149,-0.387755,3.714621,23.750888,33.831334,40.541319,21.629206,38.653486,48.287192,52.174739,34.664891,48.491796,54.801404,57.2453,45.11537,57.020034,60.774904,62.474053,26.931267,51.075383,73.03212,92.344735,50.41832,82.745476,99.675774,111.761742,40.691712,77.39962,97.646096,111.589417,31.316197,65.356007,84.838143,98.886475,22.755295,49.496991,65.536366,79.199479,-13.785088,-14.605628,-6.834499,-0.422497,16.282756,33.017117,40.113821,44.685809,33.755282,49.187685,56.166075,59.571696,45.730724,62.800984,69.093956,70.825796,52.815584,68.791786,73.506134,73.958629,-25.071916,313.765264,-84.731558,304.648446
15,0.710186,-0.59478,0.142823,0.193352,4.451385,10.463173,14.230934,13.965534,-10.294476,14.077926,35.456108,49.274391,-20.08041,8.442398,33.473877,52.342941,-25.967572,-3.265824,20.757843,38.311271,-28.887875,-25.315121,-16.568768,-7.453869,-13.860287,-14.100089,-5.456217,3.875456,4.909812,24.96931,35.023821,41.81528,22.237756,39.217489,48.885936,52.987967,34.772065,48.719186,55.060706,57.775834,44.887573,56.992444,60.895379,62.714484,26.875637,51.079364,73.011154,92.252838,50.119651,82.581115,99.638969,111.854759,40.402198,77.265449,97.666717,111.668632,31.119815,65.330989,84.942215,99.017761,22.698944,49.480922,65.575195,79.283661,-13.960594,-14.710331,-6.914712,-0.648354,16.022232,32.80303,39.941106,44.591171,33.490682,48.92852,55.896523,59.352496,45.493283,62.526405,68.761838,70.492097,52.60593,68.553443,73.221614,73.639861,-24.171295,313.241901,-84.3983,304.913215
16,5.97837,-0.593137,0.257972,0.262007,4.712918,8.288155,7.72831,4.617119,-15.591991,6.287464,28.069634,41.964661,-25.753017,0.815071,25.999604,45.733681,-32.110508,-10.662002,14.00821,31.938698,-35.823738,-35.495819,-28.576767,-21.117038,-14.40815,-15.204508,-6.883368,1.721959,5.042044,26.199106,35.809842,41.287301,22.748148,40.621841,49.441319,52.5362,35.249827,49.196676,54.584029,56.897583,45.470459,56.65541,60.561185,62.425702,26.762799,50.962956,72.912964,92.141053,49.72522,82.314904,99.420571,111.712052,40.057995,77.096123,97.632889,111.67495,30.89423,65.332947,85.044091,99.118859,22.605503,49.499543,65.623604,79.390549,-14.103188,-14.868622,-7.050316,-0.913634,15.583112,32.510777,39.702144,44.407019,33.089045,48.539542,55.527391,59.06774,45.181987,62.138452,68.335168,70.057745,52.432757,68.337144,72.990247,73.384783,-18.042818,312.703821,-83.990221,305.230279
17,-2.610935,3.023954,0.32135,0.263613,3.86982,8.353855,10.531048,9.50885,-13.048462,11.127686,32.641239,46.379574,-22.760353,5.467083,30.348004,49.480122,-28.505367,-6.303005,17.507298,34.821774,-31.429401,-30.580753,-23.757843,-16.291843,-16.022626,-17.808436,-9.670435,-0.149633,3.583229,22.952196,32.554497,38.668775,21.465765,37.648967,46.517265,49.617197,34.229674,46.545621,51.815302,53.812125,44.479477,54.77127,57.845415,58.554779,26.619679,50.794957,72.769364,92.021119,49.295037,81.892136,99.013894,111.348885,39.751614,76.813179,97.43747,111.499833,30.747654,65.242424,85.014359,99.059968,22.627877,49.570942,65.680378,79.453537,-14.295826,-15.109498,-7.2864,-1.237688,15.034435,32.082427,39.3196,44.070207,32.611208,48.142795,55.181094,58.783823,44.810582,61.738605,67.93458,69.657256,52.208108,68.06044,72.71836,73.09726,-20.543644,315.779087,-83.558762,305.545204
18,-1.830734,0.393388,0.398575,0.136147,4.699665,10.239784,12.943874,12.616745,-10.616203,14.176781,35.183384,48.532368,-20.57927,8.035663,32.17638,50.570331,-26.497021,-4.238457,19.165432,36.263706,-29.386047,-28.644791,-22.694206,-15.78875,-15.810514,-17.956143,-10.794034,-2.199044,2.686303,22.106462,31.620496,38.033079,20.775827,37.000883,45.732416,49.16464,33.703387,46.553363,51.663358,53.830254,44.05635,54.761945,58.389942,60.023734,26.44146,50.457676,72.403107,91.6008,48.906773,81.428444,98.489502,110.751938,39.516392,76.511673,97.141182,111.16935,30.587643,64.996834,84.797882,98.842964,22.489106,49.405804,65.455719,79.195015,-14.463218,-15.331194,-7.54963,-1.468375,14.817456,31.82331,38.929374,43.601608,32.380657,47.849468,54.887385,58.54874,44.571793,61.424086,67.665534,69.468102,52.000862,67.799705,72.45455,72.848419,-22.279215,316.214172,-83.065024,305.723048
19,-3.201817,0.080596,0.320847,0.09701,5.952301,12.554066,16.372765,16.836857,-7.451694,18.373799,39.158295,52.069542,-17.320244,12.13741,35.984986,54.033806,-23.460445,-0.314083,22.842614,39.585572,-26.662605,-25.111873,-19.110408,-12.439453,-16.266936,-18.438907,-11.44408,-3.081012,2.746807,21.607272,30.801637,37.167178,20.781138,36.851572,45.211207,48.417486,33.65537,46.405015,51.239998,53.312663,43.931232,54.604346,58.286671,59.944163,26.248478,50.151134,72.037788,91.206436,48.659523,81.155594,98.190147,110.416832,39.356598,76.26828,96.877853,110.894371,30.467468,64.772426,84.602508,98.680183,22.374779,49.260898,65.252369,78.985885,-14.659313,-15.569699,-7.791692,-1.641042,14.510618,31.528501,38.590772,43.267625,32.057566,47.54636,54.597874,58.346557,44.248987,61.089633,67.356337,69.253828,51.722553,67.543095,72.210771,72.663958,-25.402262,316.322722,-82.665407,305.848012
20,1.563858,-2.478908,0.362388,0.077843,3.310421,8.006482,10.117802,9.076561,-10.086044,15.460224,36.272896,49.47519,-18.695125,10.789364,34.820092,52.775597,-23.776519,-0.548515,22.885781,39.510041,-26.20063,-24.091816,-17.476421,-10.541084,-12.568148,-12.512906,-4.576743,4.175921,5.995446,25.150201,34.182113,40.141337,22.784593,39.110204,47.364739,50.439156,34.627593,48.01402,52.880163,54.978133,44.287037,56.009254,59.949041,61.76212,26.005555,49.762986,71.621727,90.783074,48.475537,80.782609,97.757561,109.922219,39.349904,76.041459,96.598275,110.579957,30.50718,64.627636,84.440278,98.509163,22.379563,49.237347,65.14777,78.816308,-14.795881,-15.793372,-8.040781,-1.862467,14.324379,31.347905,38.343511,42.959761,31.81133,47.278079,54.372621,58.199664,44.000787,60.763171,67.072025,69.062513,51.558889,67.344629,72.011465,72.507519,-23.783112,313.864176,-82.247727,305.946217
21,-1.887016,-0.32724,0.263421,0.003507,3.765392,8.958012,11.652454,11.006298,-8.538071,17.574806,38.292778,51.214027,-16.860821,13.11739,36.852539,54.393105,-21.843533,1.92366,25.093575,41.343979,-24.267769,-21.357479,-14.554951,-7.664234,-12.447883,-11.9934,-3.609695,5.386784,6.920504,25.764939,34.495422,40.353844,23.339618,39.319117,47.364085,50.527287,34.887216,48.081365,52.807865,55.096187,44.301375,56.097445,60.110222,62.209748,25.899284,49.513401,71.306877,90.500289,48.220378,80.486961,97.494552,109.628082,39.207916,75.841735,96.432128,110.393898,30.420948,64.456901,84.291595,98.355789,22.329048,49.108017,64.964332,78.573417,-14.85626,-15.904918,-8.208507,-2.014496,14.260504,31.278906,38.17429,42.711019,31.721125,47.179019,54.291815,58.166789,43.882572,60.615106,66.959578,69.067478,51.418358,67.195329,71.858905,72.397665,-25.632929,313.559762,-81.947107,305.97255
22,1.123524,-2.014496,0.224166,0.188388,1.817608,6.050686,7.809128,5.33147,-10.707035,14.901294,35.626087,48.878208,-18.162586,11.256386,35.498577,53.289951,-22.220101,1.341705,24.828655,41.213207,-23.939942,-19.445057,-10.917664,-2.776268,-9.617615,-7.034225,2.669173,12.166152,8.697298,27.7885,36.766541,42.517949,24.147165,40.588558,49.295613,52.703235,35.228325,49.165715,54.37551,56.782233,44.523072,57.012883,60.981644,63.024199,25.806874,49.360325,71.173577,90.361176,48.328732,80.571648,97.543671,109.603409,39.310868,75.897583,96.413269,110.28209,30.425915,64.383557,84.134171,98.116288,22.198678,48.84097,64.626446,78.182442,-14.928075,-16.072076,-8.434414,-2.239724,14.336606,31.155627,37.973848,42.512306,31.740787,46.984382,54.028338,57.946599,43.804137,60.374304,66.68858,68.849944,51.240122,66.942016,71.5638,72.120122,-24.481876,311.56306,-81.695412,306.178732
23,5.320541,-2.075926,0.043065,0.123476,1.883961,3.580673,1.626091,-3.190098,-16.106941,6.969109,27.926159,40.988789,-23.437111,4.166245,28.490627,47.05077,-27.674572,-4.954662,19.13261,35.787632,-29.892128,-27.57209,-20.233784,-13.217365,-9.760295,-6.761621,3.650536,13.240474,10.554282,30.622894,39.031793,43.531657,25.855614,43.068097,50.943324,53.527295,36.450873,50.492139,55.088876,57.413915,45.419614,57.476184,61.654761,64.074278,25.806415,49.433452,71.285808,90.495403,48.262699,80.613109,97.656086,109.766178,39.268306,75.923641,96.483249,110.407985,30.396457,64.436496,84.278995,98.32442,22.174873,48.872039,64.651496,78.23949,-14.961062,-16.154253,-8.57297,-2.427915,14.160049,30.994718,37.82319,42.408788,31.479755,46.770158,53.828971,57.782541,43.509711,60.042581,66.35892,68.536289,50.953501,66.690742,71.365507,71.964066,-19.142166,309.495927,-81.633178,306.311001
24,-0.667705,1.132182,0.19709,0.032765,-0.425423,1.160751,1.459293,-2.437111,-16.774201,7.914447,28.871154,42.192855,-23.359932,5.475746,30.328468,48.491752,-26.208641,-2.747841,21.262756,37.639022,-26.884106,-21.55085,-11.173497,-1.691941,-9.047844,-5.710963,5.580829,16.689382,10.590553,29.401532,38.224332,43.452443,25.506872,41.452668,50.20348,53.338659,36.12898,49.199517,54.445721,56.732252,44.974788,57.026554,60.117175,61.119187,25.698555,49.308208,71.217441,90.460521,48.322403,80.735012,97.733585,109.759472,39.298519,76.006931,96.538204,110.395282,30.344993,64.42472,84.239879,98.239505,22.046516,48.70721,64.440639,78.008388,-15.006165,-16.285992,-8.762321,-2.635927,14.277745,31.014268,37.721326,42.268491,31.584533,46.719621,53.685833,57.641849,43.547749,59.979694,66.243014,68.412355,50.89217,66.553174,71.194977,71.789992,-19.793237,310.63408,-81.419454,306.349737
25,2.348705,-0.850514,0.348758,-0.001667,1.930824,2.703335,1.395904,-3.342007,-19.036938,3.506,24.708103,38.181461,-26.227615,1.152511,26.001675,44.90015,-29.600304,-6.610851,18.266476,35.443394,-30.606629,-25.555653,-15.075314,-5.298695,-5.543186,-2.012791,8.104335,18.072481,12.731886,32.336147,41.231306,46.087161,25.005089,42.368144,51.448776,54.607928,33.023367,47.297136,53.143603,55.948937,39.467789,51.852204,56.09547,58.496969,25.471985,49.18071,71.12471,90.374772,48.3933,80.959557,97.919747,109.880082,39.230748,76.083619,96.501458,110.186257,30.145901,64.389428,84.053811,97.871705,21.771355,48.490586,64.240357,77.811699,-15.128196,-16.405874,-8.818194,-2.63137,14.499083,31.099496,37.7173,42.230761,31.906919,46.82845,53.578029,57.383534,43.802815,60.074679,66.117092,68.126117,50.985673,66.608156,71.171722,71.738096,-17.433226,309.782316,-81.05939,306.34682
26,2.261055,-1.89034,0.311783,-0.076262,-0.467217,-2.101444,-4.798187,-11.294964,-22.602001,-0.573452,20.807064,34.842625,-29.002785,-1.714726,23.566852,42.768711,-31.36821,-8.167786,17.313526,34.953678,-31.296856,-24.164349,-11.251888,0.656753,1.435524,8.07105,19.663628,30.875552,17.704596,37.229064,46.330383,51.169639,26.214001,43.891155,53.844717,57.212584,31.09626,46.093101,52.982693,56.043414,34.857243,48.048588,52.532076,54.798983,25.319264,49.174565,71.134392,90.377175,48.363533,81.12545,98.109535,110.057968,39.055664,76.109116,96.476715,110.070786,29.873154,64.334484,83.948525,97.708786,21.481362,48.380333,64.21241,77.807144,-15.278842,-16.515456,-8.824986,-2.535361,14.626512,31.264666,37.880593,42.384199,32.124034,47.023346,53.591478,57.198765,44.000244,60.262647,66.107311,67.921168,51.056624,66.688025,71.179478,71.688289,-15.160784,307.886606,-80.73622,306.265188
27,3.571506,-0.757332,0.280106,-0.278828,1.022599,-1.59811,-6.884662,-14.209476,-25.022369,-5.032619,16.550904,30.557602,-32.57983,-6.520385,18.31897,37.921143,-36.044952,-13.834705,11.835274,29.970635,-36.969383,-32.435039,-21.688614,-11.267875,0.62941,6.402011,17.043176,27.407538,17.725122,38.801687,47.528699,51.562693,26.713105,45.288839,54.564035,57.739772,31.540727,47.135979,53.661071,56.94954,35.175048,48.563673,53.928067,57.526499,25.239052,49.167366,71.024093,90.197479,48.173836,81.216041,98.321136,110.277878,38.682484,76.030907,96.449066,109.963943,29.421055,64.184818,83.828453,97.527466,21.076778,48.139767,64.090896,77.690803,-15.356475,-16.510405,-8.783354,-2.379045,14.840996,31.697512,38.320083,42.764013,32.373012,47.413634,53.818942,57.255254,44.218544,60.580798,66.26685,67.951438,51.159587,66.868978,71.334101,71.831167,-11.579476,307.121698,-80.446312,305.978784
28,-3.213913,2.435844,0.324886,-0.108174,0.834664,-0.883049,-3.210125,-8.439228,-22.363231,0.444741,21.935624,35.921997,-29.699089,-1.721786,23.544045,42.90326,-32.605041,-8.926815,16.540307,34.618882,-32.832023,-24.850662,-11.450306,1.014714,-0.031542,4.996856,15.548507,26.532435,15.846144,35.600767,44.955078,49.994887,24.887157,42.777968,52.590158,55.897671,30.256664,45.344501,52.11242,54.8264,34.137962,47.45103,51.912052,53.973281,25.090634,49.059735,70.906483,90.035305,48.331547,81.5052,98.593792,110.429272,38.693482,76.18079,96.504719,109.784535,29.320587,64.239968,83.760624,97.300518,20.95023,48.11364,64.157204,77.731991,-15.59335,-16.759432,-8.962628,-2.350517,15.028494,31.976166,38.636171,43.028749,32.63944,47.675986,53.893277,57.117476,44.456925,60.832492,66.310062,67.795913,51.268243,66.986538,71.351168,71.794438,-14.777024,309.546624,-80.105061,305.859692
29,-1.60564,1.214742,0.014362,-0.136691,1.892784,1.228374,-1.435684,-6.882477,-19.227196,3.401241,24.509457,38.370358,-26.799648,1.07864,25.705662,44.873005,-30.288391,-6.730556,17.891796,35.845768,-30.932934,-23.544559,-11.887093,-0.436913,0.875164,6.630994,17.31253,27.951953,14.323638,33.877684,43.367166,49.116796,22.999929,40.986552,50.916759,54.720806,28.341364,43.900986,51.144037,54.592897,32.553977,46.400828,51.56147,54.87496,25.126111,49.276406,71.12938,90.265137,48.332394,81.649109,98.760567,110.554734,38.602089,76.301217,96.619698,109.783448,29.234471,64.352623,83.842301,97.278672,20.974869,48.290223,64.403618,77.887986,-15.695213,-16.826036,-8.921094,-2.221421,14.997002,32.192639,38.89078,43.213507,32.726027,47.982466,54.200523,57.25392,44.582402,61.071182,66.468033,67.774338,51.336403,67.12523,71.433803,71.751904,-16.363163,310.750285,-80.071198,305.71192
30,-0.693077,2.587218,-0.153087,-0.178644,3.361313,4.723263,3.672718,0.33308,-16.356892,6.499237,27.244343,40.783344,-24.749039,2.629921,26.697956,45.643421,-29.261776,-6.578007,17.227764,34.7085,-30.936424,-26.316662,-17.462322,-8.232433,-7.273173,-5.251045,3.538447,13.084493,7.965631,27.730085,37.140477,42.818687,21.241265,38.856855,47.796746,51.260499,30.423564,45.095301,51.188684,54.227273,37.884644,50.735831,55.443299,58.586173,25.301639,49.553696,71.556026,90.74818,48.719353,82.029453,99.160229,110.940342,38.987697,76.627682,96.890385,110.047542,29.547752,64.557632,84.017612,97.498112,21.198772,48.449581,64.52568,77.974422,-15.603341,-16.802682,-9.068356,-2.374748,15.054232,32.289229,39.05106,43.368229,32.663572,48.128531,54.4753,57.548593,44.48149,61.179419,66.70755,68.026465,51.224042,67.150387,71.528961,71.843616,-17.037535,313.330569,-80.20558,305.526342
31,-4.540032,3.538892,-0.220814,-0.263402,4.96542,9.715794,13.179371,13.688931,-10.709907,14.392136,35.144269,48.364598,-19.749,8.909443,33.192708,51.566105,-24.754497,-1.658878,21.538823,38.413113,-26.789302,-21.918743,-13.134166,-4.219013,-14.528279,-16.060084,-8.561176,0.749724,1.870926,20.146652,29.746495,36.36998,19.011692,34.889674,43.619836,47.138091,31.752654,44.273847,49.837782,52.400263,42.112892,53.332793,56.603367,58.317398,25.450756,49.74551,71.84507,91.014084,49.280605,82.449394,99.480011,111.215355,39.622421,77.032814,97.210922,110.366226,30.167736,64.909607,84.312767,97.771271,21.736759,48.824844,64.80851,78.169487,-15.498082,-16.76914,-9.220078,-2.587503,15.20531,32.354017,39.103226,43.387976,32.726878,48.274805,54.787806,57.950316,44.49442,61.296509,66.954193,68.280172,51.241739,67.203023,71.633726,71.935846,-21.561396,316.863582,-80.410223,305.257061
32,-5.183727,1.05035,-0.067211,-0.448617,5.090458,12.167965,19.424698,22.277046,-5.494491,22.03965,42.314965,55.513596,-13.795486,16.545067,40.83767,58.496201,-18.195362,5.688023,28.206986,44.572632,-19.476173,-12.858089,-3.601341,5.742462,-13.801563,-15.02495,-7.854048,1.099243,1.294918,18.404401,28.311316,36.082371,17.668534,33.166059,42.166108,46.092162,30.058878,42.975014,49.202444,52.036331,40.178634,52.312207,55.886271,57.846192,25.54858,49.925503,72.188587,91.508755,49.80867,82.899342,99.823826,111.517216,40.214081,77.440052,97.48859,110.644649,30.739368,65.256798,84.54919,98.024677,22.221817,49.148975,65.035835,78.392727,-15.334788,-16.675773,-9.268206,-2.835394,15.360563,32.328588,39.084738,43.35494,32.859519,48.448855,55.135831,58.353324,44.599136,61.404844,67.161477,68.477761,51.328919,67.337812,71.803651,72.082997,-26.725056,317.911138,-80.457367,304.80565
33,7.588257,-4.806801,-0.020268,-1.092093,4.052204,8.505638,10.917069,9.63311,-12.485744,11.901489,33.130165,47.345306,-21.507397,6.977039,31.962822,50.73523,-26.239048,-3.875404,19.813431,37.335709,-27.632069,-23.785091,-15.278538,-6.05801,-9.599126,-8.217646,0.723172,10.621911,4.319454,23.470233,33.169123,40.259676,19.738174,36.393285,45.67058,49.854233,31.082157,45.158768,51.889168,55.481473,40.670687,53.698023,58.191983,61.481045,25.652184,50.094521,72.453644,91.899193,50.406052,83.516327,100.452027,112.158303,40.925915,78.012429,98.119927,111.439614,31.482136,65.74292,85.063042,98.548966,22.9086,49.550812,65.283154,78.510109,-15.310175,-16.671253,-9.459472,-3.518711,15.513395,32.292279,39.262258,43.767506,32.887973,48.53102,55.384525,58.73199,44.52774,61.283739,67.200997,68.594469,51.176012,67.277333,71.912764,72.257887,-19.121538,313.104068,-80.462374,303.713288
34,1.199101,-0.057489,0.308121,-3.001737,4.484642,8.914329,11.795734,11.467563,-12.343174,11.551082,33.135875,47.747646,-21.884617,5.878189,30.973125,50.18684,-27.302502,-5.867341,17.992778,35.841327,-29.493645,-26.649811,-18.135556,-8.982972,-12.074898,-13.254553,-7.709021,-0.847957,2.4477,22.108771,32.205581,39.197642,18.629296,35.545291,44.591689,48.60796,30.318748,44.188348,50.501191,53.696021,39.935263,52.394718,56.955739,59.932529,25.923386,50.476364,72.870163,92.185089,51.674092,84.106659,100.731949,112.318222,42.074032,78.123528,97.866165,111.162781,32.236771,65.318871,84.157242,97.338982,22.999912,48.540493,63.476532,75.883461,-15.496747,-16.694434,-9.845399,-5.033054,15.573528,32.630313,40.282313,45.50951,32.733375,49.333713,56.935078,60.923463,44.33855,61.752907,68.427472,70.429284,51.110927,67.682527,72.775158,73.391587,-17.905122,313.025797,-80.136938,300.690769
35,7.897499,-9.421501,0.389626,-6.189034,-0.056345,2.516372,5.555008,5.811229,-15.756769,5.236061,24.340004,37.60532,-23.014773,1.15821,23.350216,40.113556,-26.186097,-8.277483,11.858276,27.150604,-26.239546,-23.468056,-15.363648,-6.82972,-10.258899,-9.758245,-3.861655,2.737383,5.209443,25.435321,36.9146,45.383076,20.225859,38.923674,49.858227,55.272954,31.421579,47.391557,55.755021,59.938024,40.462352,54.781359,60.399411,63.998046,26.492969,51.106556,72.729469,91.584114,52.191089,83.69046,99.981903,111.417206,42.821354,77.359405,96.449295,109.301216,33.055252,64.52029,82.486381,94.66523,23.558292,48.257812,62.488701,73.790062,-15.940708,-16.565202,-9.645958,-5.402173,14.412349,32.4234,41.196751,47.521993,31.483966,49.568711,58.441479,63.49212,43.435549,62.059609,69.818202,72.906587,51.115694,68.28983,73.996705,75.055341,-9.96326,303.573739,-79.702949,294.471178
36,22.673721,-21.882358,-1.429545,-13.682397,-8.891997,-12.897217,-15.211876,-17.458431,-29.419413,-17.859398,-4.239281,5.990192,-32.447611,-18.15017,-2.76115,9.566528,-31.71936,-22.12845,-8.851891,1.611877,-28.308878,-29.906033,-26.142323,-21.474129,-5.800593,-0.75916,7.179072,14.124554,13.925897,38.1729,51.391268,60.435591,27.09684,51.645791,64.806915,71.930906,36.940486,58.975947,70.143608,76.251014,44.587231,63.468148,72.328517,78.762373,26.748877,51.795954,72.81855,90.931795,55.533177,86.458288,101.788302,112.217451,47.125054,80.450495,98.023173,109.429785,37.795452,68.080891,84.266676,94.270312,28.084299,52.208742,65.03801,74.153567,-11.475165,-10.064088,-3.432785,0.459467,15.994771,34.42922,44.872993,52.903418,29.649269,49.006066,59.752657,66.516679,38.975051,58.224655,67.91771,72.952758,44.697696,60.80376,67.581479,69.897718,12.889275,281.656853,-80.95368,280.754253
37,26.769504,-29.753102,-3.456916,-21.063707,-17.702825,-29.107841,-36.280963,-40.374687,-44.243379,-42.62218,-33.578647,-26.41175,-43.475526,-39.642665,-30.170585,-21.786197,-39.178905,-38.211233,-30.742572,-24.41685,-32.825174,-38.700714,-37.851745,-36.038108,-3.970817,4.985555,15.87642,25.229785,20.898445,50.043046,65.251629,74.505262,33.54136,64.182001,79.83058,87.931154,43.112735,70.358598,83.805615,90.737228,50.235491,72.478372,83.112954,90.243602,26.739755,52.567251,73.066852,90.006311,61.636665,92.308233,106.032228,114.61968,55.046539,87.43725,102.75155,111.804021,46.667198,76.186592,89.822897,96.512666,36.914663,60.848253,71.600784,77.352075,-2.198266,2.733276,8.769898,12.617887,20.251807,38.70341,51.303421,61.594442,27.188786,47.630328,60.910723,70.117926,30.955475,50.326357,62.827647,70.677922,31.911593,45.181584,53.431816,57.781076,39.836374,251.873293,-84.233001,259.660088
38,20.80806,-36.291434,-7.539288,-33.452446,-24.953344,-40.84227,-48.437862,-51.443893,-50.469446,-56.898022,-54.37968,-51.331032,-44.688646,-50.43029,-48.533157,-45.590618,-36.272198,-43.909887,-44.321262,-43.556911,-26.616251,-36.19955,-39.498893,-41.695736,-4.989118,5.77438,17.667256,27.750512,22.96312,54.437342,71.985327,83.04548,35.042674,70.199246,88.112521,97.586572,44.689076,76.323602,92.162472,100.210322,51.682526,76.956488,89.481917,97.436982,26.83592,54.373449,75.564663,91.073862,67.053326,96.692636,105.17597,109.448702,61.662106,91.45376,100.251291,104.173491,53.361648,80.190834,87.641996,89.455278,42.912191,65.120298,71.367497,72.687933,-3.095499,0.779895,5.08367,8.251738,14.468498,32.93796,43.742849,51.96044,21.511379,42.715847,53.869744,61.131956,26.200459,45.867915,56.043673,62.288091,28.625817,41.534506,47.61899,50.497566,60.837192,215.559348,-91.579531,226.185131
39,31.499451,-51.463744,-11.638012,-42.711717,-33.209627,-57.106659,-70.762951,-76.612816,-67.578352,-83.570858,-84.772533,-83.148216,-58.060232,-73.612175,-76.212524,-76.144856,-45.846554,-61.240168,-65.525562,-67.465794,-32.354628,-45.390415,-50.241234,-53.734142,-3.54619,10.034541,25.850865,38.804694,28.290507,62.161478,78.622965,87.399631,39.103195,77.444359,94.698462,102.928489,47.831239,82.794514,97.966516,104.587216,53.84476,81.81133,94.141936,100.881938,28.112417,56.009119,76.326679,90.305517,67.337139,96.503008,102.874117,104.610769,62.006023,90.884302,96.489,97.109865,53.999016,79.962147,84.207064,82.869524,43.93931,65.509466,69.75111,68.748213,-3.901903,-2.734499,-0.26778,2.949719,2.324866,16.901996,26.788076,33.913289,8.271338,26.175481,36.325316,42.906138,13.737676,30.800464,40.105843,46.081925,18.300488,28.627652,33.925825,36.74793,92.625326,164.08305,-102.92886,183.46086
40,24.652954,-50.876171,-11.943237,-51.441563,-35.978188,-64.116028,-81.208214,-88.483246,-74.980568,-97.53875,-99.33165,-97.158646,-64.552895,-86.196762,-89.221687,-88.948837,-51.434509,-71.557983,-75.461174,-76.467499,-36.940041,-52.755661,-56.310013,-58.235024,-6.433374,5.421544,22.906396,38.780716,17.737998,51.461478,67.423707,74.02979,28.521293,67.385366,83.257161,89.003741,38.412826,74.277638,87.283825,90.973955,46.179607,74.213986,84.45615,88.416506,29.357385,57.197874,76.460884,88.452364,68.61272,95.222562,98.533464,97.400705,61.674156,87.294439,89.581209,87.454256,52.108589,75.383274,77.014074,73.446573,40.830522,59.882463,62.284813,59.481336,-1.911534,-4.491485,-6.512656,-5.729389,-9.326344,-4.012326,5.411701,12.630207,-7.411433,1.541907,11.679318,18.90277,-4.247404,4.72671,14.006555,20.895969,-1.052135,2.760348,8.225365,12.483284,117.42845,113.138262,-114.721927,131.95068
41,13.471241,-46.870779,-12.161585,-53.04776,-33.94709,-61.857182,-78.952789,-86.842426,-71.487122,-94.414524,-95.929138,-93.18449,-61.68853,-83.680115,-85.873924,-84.451859,-49.588543,-69.595573,-71.976562,-71.082275,-35.965565,-51.822624,-54.118939,-54.258751,-11.321617,-5.809254,8.110274,22.344112,-2.602724,23.60859,36.399949,40.69081,7.782883,38.284064,50.853244,54.272892,18.541209,46.856671,56.117667,57.068644,28.310125,50.139642,57.117985,58.152154,29.872513,56.733101,75.040317,86.455788,60.622055,81.834114,83.413868,81.40694,52.17968,72.122291,73.073696,70.580635,42.337269,60.71038,61.772587,58.842544,31.846458,46.484447,48.04145,45.428924,-6.315968,-14.865504,-20.968643,-23.623102,-27.739823,-31.219952,-27.713221,-25.247147,-25.173537,-25.527262,-21.075965,-18.079718,-20.308284,-19.539479,-15.005523,-11.223119,-14.47718,-15.813583,-13.932251,-11.872202,131.095591,66.303687,-126.687612,78.939124
42,10.48233,-45.385516,-11.941178,-48.341958,-31.558365,-57.66164,-74.195663,-83.389538,-64.648155,-85.934086,-89.36412,-87.701488,-54.726745,-75.723038,-79.382492,-78.47319,-43.245906,-61.676445,-64.960075,-64.275055,-30.220012,-44.92939,-47.737438,-47.817695,-15.380471,-18.925806,-12.570093,-4.56836,-26.414387,-14.901504,-7.770488,-5.726016,-17.828835,-3.259853,4.891595,7.064163,-7.306302,6.744095,11.950312,11.549131,3.734264,14.348876,18.14217,17.547251,30.594452,55.602025,72.496594,83.305035,50.286644,65.846352,66.089242,64.011635,39.510556,53.124424,53.098343,50.485062,28.442746,41.163918,42.075451,40.255932,18.191369,28.433178,29.70385,28.137772,-17.793653,-33.808166,-43.631792,-50.042151,-47.819217,-58.370911,-62.641107,-67.025593,-41.534698,-50.598325,-55.376708,-59.918154,-32.220952,-39.421006,-43.972481,-47.048729,-21.386237,-27.097958,-31.4941,-35.031596,141.621694,20.913827,-138.585017,30.592822
43,9.282967,-42.84435,-9.542106,-48.153725,-30.238907,-54.531429,-70.194695,-79.932713,-57.511002,-75.372196,-78.199928,-76.15868,-47.604195,-65.143639,-67.729157,-66.345245,-36.753651,-51.232979,-53.119125,-52.042534,-24.231846,-35.586433,-37.287541,-36.54213,-17.928726,-29.50564,-30.897099,-29.746346,-45.653484,-48.624408,-48.195716,-50.329469,-39.143394,-40.545203,-39.437902,-40.806035,-29.455836,-29.975399,-31.13702,-35.009349,-17.937009,-18.230166,-19.736879,-23.784526,31.581859,54.099129,68.849521,79.552505,40.325844,50.09816,52.182701,52.025196,27.939056,36.514103,39.160183,38.991588,16.62323,24.837696,28.366699,29.098457,6.8806,12.92514,15.850719,16.529205,-17.88542,-37.439547,-50.117098,-58.515277,-61.996808,-81.832152,-89.428892,-95.914226,-59.052002,-78.643812,-86.573945,-93.324043,-51.83203,-68.577624,-75.566452,-80.564234,-41.719764,-54.855139,-61.081161,-66.199881,150.789293,-21.560181,-148.242491,-17.190561
44,5.435944,-38.528243,-6.494969,-40.234154,-28.691002,-50.985066,-65.377007,-76.628758,-47.393944,-62.007397,-65.682267,-65.296956,-36.60624,-50.737061,-53.956742,-53.720696,-25.695843,-36.654419,-39.062645,-39.168137,-13.688244,-21.873505,-23.439023,-23.30642,-17.920544,-35.096974,-42.844968,-45.819263,-63.574152,-78.268468,-82.345074,-87.151858,-59.80788,-74.412022,-78.280616,-82.607273,-51.259165,-64.077885,-69.403861,-75.656429,-39.162639,-48.891114,-53.909691,-60.002354,30.895318,52.26059,66.659386,78.57446,35.169262,39.44925,40.458104,40.48843,22.366951,25.728539,28.199444,28.324151,10.94941,14.157143,17.93763,19.518403,1.343354,3.634701,6.334385,7.472054,-19.580157,-41.007004,-56.057642,-66.604723,-70.267192,-95.267365,-107.773815,-118.701258,-69.5136,-95.79547,-109.327947,-120.651862,-64.521243,-88.705983,-101.029207,-110.080609,-56.55685,-75.72479,-85.878682,-94.310842,155.707083,-58.966061,-155.255614,-56.302352
45,1.316345,-30.559915,-5.102451,-35.956194,-28.452301,-49.016224,-62.450936,-76.155133,-40.236054,-49.70866,-54.804222,-56.541241,-27.908226,-37.412178,-42.285416,-43.951355,-16.037327,-22.483429,-26.6185,-28.784409,-3.445004,-7.688576,-10.661007,-12.245796,-17.181792,-38.018064,-52.158328,-60.877458,-71.919593,-97.073373,-107.384069,-115.62927,-71.298844,-98.359026,-108.310058,-115.829664,-65.571113,-90.141202,-100.006143,-108.509239,-55.290096,-73.992014,-82.064886,-89.798841,29.738766,50.612206,65.43243,78.541351,28.584755,29.408638,30.235188,30.635216,16.805294,16.909275,19.317078,19.774212,6.582047,6.646946,10.422833,12.713425,-1.949604,-2.478527,-0.156258,1.49802,-21.704825,-44.491409,-59.942359,-70.344062,-77.445631,-103.993038,-122.071508,-137.912842,-76.167731,-105.167244,-125.003949,-141.588776,-70.936761,-98.009079,-116.171318,-130.425837,-62.342947,-83.752068,-98.530393,-111.428738,156.401985,-87.62633,-160.979508,-90.3589
46,-1.234349,-28.529629,-2.887516,-29.398426,-27.766136,-47.621566,-60.737297,-76.319709,-34.830116,-41.101226,-45.912391,-48.402969,-21.631439,-27.849105,-32.561164,-34.875412,-9.270469,-12.647758,-16.969528,-20.310859,3.515831,2.45588,-0.144332,-2.194267,-15.965402,-38.751566,-56.454776,-67.549001,-75.420647,-106.418078,-120.660385,-131.761043,-76.619167,-111.205205,-125.997706,-136.862551,-72.45206,-104.375081,-118.308052,-129.691387,-63.143739,-86.879007,-98.192525,-108.681872,29.714069,50.56144,66.034355,79.953323,28.994431,29.235638,29.328426,29.05996,17.227821,16.949146,18.170815,17.499447,6.504215,5.843308,8.286289,9.552681,-3.134376,-4.240391,-2.644031,-1.536037,-23.026738,-45.883446,-61.169612,-70.060538,-80.459641,-107.880552,-126.710495,-143.682053,-80.058582,-110.52154,-132.033227,-150.398664,-75.541996,-104.557065,-124.804249,-141.539235,-67.487004,-90.636893,-106.785606,-121.782017,154.322702,-113.432867,-164.711958,-117.034234
47,-2.078338,-22.359373,-0.596992,-28.791213,-27.259369,-47.296326,-60.851715,-77.616257,-32.981552,-37.706474,-40.340355,-41.583527,-19.698555,-23.798195,-26.535073,-27.960709,-7.150154,-8.57309,-10.997246,-13.653145,5.843399,6.791015,6.122818,5.031807,-15.291761,-38.140766,-56.487415,-66.745446,-74.852945,-105.689574,-121.940431,-136.118011,-76.750921,-111.769261,-130.764716,-146.175952,-73.522961,-106.25465,-124.046122,-139.28445,-65.141056,-89.410262,-103.797617,-117.58425,29.815693,51.106842,67.523883,82.564281,29.143444,28.79282,28.405002,27.42937,17.337192,17.077251,17.605831,16.494003,6.572204,5.585678,7.143516,8.034908,-3.712246,-5.52958,-4.473725,-3.590859,-21.713621,-44.512611,-59.449388,-66.334778,-84.130574,-113.527918,-131.690162,-148.216153,-84.494222,-116.637122,-136.796098,-154.254246,-80.544514,-111.037567,-129.730628,-145.896281,-72.582499,-96.464365,-111.677193,-126.109807,151.553816,-131.897265,-165.999498,-141.930472
48,-3.713539,-16.552757,1.863121,-17.904958,-26.698242,-46.67862,-60.651764,-78.595459,-32.217728,-36.761055,-38.974434,-40.070526,-18.941323,-22.906929,-25.382904,-26.729645,-6.300545,-7.64589,-9.857872,-12.225678,6.84613,8.200332,8.219879,7.740783,-14.618919,-37.212774,-55.269227,-63.194735,-75.070263,-104.679436,-122.022165,-137.975207,-77.660933,-112.086402,-132.634184,-150.387694,-75.215756,-107.717841,-126.996567,-144.068305,-67.53578,-91.978504,-107.205949,-122.217689,29.433998,50.847759,67.968052,83.934745,29.239551,29.25872,29.020855,28.066772,17.237056,17.469978,17.966148,16.815376,6.167701,5.837185,7.372375,8.207348,-4.488808,-5.596802,-4.444817,-3.560315,-20.830677,-42.527536,-56.59165,-61.839363,-82.849231,-111.856678,-129.868106,-146.443808,-83.681745,-115.398225,-135.591893,-153.17896,-80.232035,-110.660133,-129.310208,-145.444509,-72.856279,-96.90768,-112.02381,-126.386983,147.328492,-144.565634,-164.648162,-155.951042
49,-3.301964,-11.665461,3.374519,-15.77664,-26.565857,-46.92041,-61.201058,-79.6119,-32.825386,-37.427834,-39.69001,-40.801598,-19.451225,-23.938683,-26.564644,-27.993897,-6.49688,-8.452652,-11.003563,-13.38263,7.111084,8.116493,8.168106,7.936455,-13.599995,-35.008294,-52.230006,-58.819374,-73.862833,-103.296983,-121.080409,-137.329948,-77.106242,-111.415037,-132.486493,-150.818534,-75.346871,-107.727318,-127.512781,-144.8985,-68.478509,-93.377581,-109.053113,-124.426029,29.087963,50.351681,67.838242,83.791191,28.639378,29.022205,29.065361,28.165947,16.7845,16.879108,17.330715,16.718159,5.586021,5.622482,7.089306,8.175087,-5.543644,-6.512375,-5.188591,-3.861889,-17.352765,-38.048511,-51.44727,-54.843113,-79.961273,-109.52569,-127.2287,-142.899381,-81.288547,-113.557506,-133.126963,-150.172337,-78.316941,-108.730905,-126.646173,-142.478244,-71.201446,-95.089318,-109.570013,-123.540993,143.887711,-153.141966,-161.41246,-168.638553
50,-4.098107,-9.297451,2.223816,-8.941426,-25.618812,-46.323966,-60.641418,-78.753822,-31.840942,-36.910835,-39.215629,-40.324768,-18.371475,-23.572769,-26.329124,-27.876251,-5.349472,-8.002029,-10.882438,-13.593269,8.358079,9.430962,9.621689,9.335793,-11.64305,-32.273035,-48.68062,-53.738204,-72.37986,-102.114342,-119.771155,-135.669615,-76.06513,-110.814727,-131.623444,-149.562156,-74.563938,-107.494284,-127.099989,-144.013238,-67.941922,-93.01689,-108.817009,-124.202114,28.952831,50.002888,67.88752,84.556744,29.124344,30.294926,30.601936,29.749397,17.160416,18.251793,18.969784,18.561699,5.867546,6.933323,8.513317,9.658779,-5.487019,-5.424946,-3.953751,-2.536686,-15.726882,-35.064403,-47.314052,-49.182502,-77.001615,-105.862838,-123.511911,-139.372593,-78.703103,-110.295333,-130.198269,-147.829497,-76.015491,-105.958435,-123.908662,-139.96535,-69.332477,-93.013553,-107.317881,-121.438459,139.928123,-160.093281,-159.050125,-175.233843
51,-1.722061,-4.118024,2.015957,-6.741021,-25.169609,-46.156105,-60.785041,-78.845604,-32.073715,-37.268303,-39.471565,-40.28508,-18.516906,-24.018745,-26.809044,-28.258094,-5.293922,-8.176712,-10.995918,-13.387092,8.693848,9.58944,9.728257,9.550484,-10.885566,-30.912423,-46.530532,-50.464833,-71.786265,-100.786196,-118.546653,-134.553902,-75.882973,-109.692412,-130.658293,-148.896777,-74.85581,-106.9346,-126.569858,-143.382419,-68.799493,-93.821548,-109.55144,-124.653064,28.578449,49.756393,67.73497,84.392292,29.202518,30.807346,31.232059,30.228287,17.102463,18.613838,19.491279,19.229336,5.551552,7.164985,8.997448,10.268509,-6.092365,-5.482395,-3.777134,-2.016632,-13.23136,-31.609347,-43.223081,-44.037914,-73.851015,-102.747207,-120.346658,-136.033907,-75.96605,-107.512639,-127.424592,-144.925378,-73.730663,-103.394731,-121.310208,-137.111752,-67.599789,-91.273892,-105.361373,-119.125812,138.515934,-162.767599,-156.724296,-180.531158
52,-1.152809,-3.10244,1.439174,-4.883,-24.619583,-45.899162,-60.889938,-79.16114,-31.602608,-37.019188,-39.34552,-40.380478,-17.912201,-23.668991,-26.511864,-28.074966,-4.550651,-7.691894,-10.705124,-13.269218,9.519654,10.350723,10.421768,10.214607,-10.260343,-29.950274,-44.909101,-47.928351,-71.274184,-99.900585,-117.530463,-133.218968,-75.589386,-109.221194,-130.099683,-148.072044,-74.692856,-106.648167,-126.203818,-142.761124,-68.798174,-93.933465,-109.729938,-124.742292,28.037499,49.386567,67.625691,84.315983,29.000473,31.115078,31.747525,30.751259,16.926167,18.999047,20.095345,20.07605,5.169411,7.410531,9.559617,11.068509,-6.836345,-5.807659,-3.906887,-1.836387,-11.143544,-28.410831,-39.445774,-39.509087,-70.814788,-99.887076,-117.472056,-133.023764,-73.221433,-104.968706,-125.039762,-142.46399,-71.347439,-100.962916,-119.087234,-134.846686,-65.666024,-89.437674,-103.440925,-116.976144,137.837826,-165.617989,-154.810421,-185.162108
53,-0.582252,-1.671512,0.580948,-2.948851,-24.189102,-45.695572,-60.912712,-79.347496,-31.024681,-36.47731,-38.781922,-39.907059,-17.216446,-22.871521,-25.680085,-27.227921,-3.704796,-6.803238,-9.84169,-12.401001,10.439964,11.349014,11.296074,10.996078,-9.955556,-29.559259,-44.149306,-46.718661,-71.423414,-99.739392,-117.284268,-132.727276,-75.73932,-109.165628,-129.895031,-147.590151,-74.740729,-106.478548,-125.79084,-142.029761,-68.760019,-93.917597,-109.723387,-124.62941,27.637986,49.167298,67.397827,84.021733,29.148423,31.686928,32.388073,31.2705,17.017559,19.601681,20.789509,20.808071,5.082035,7.868878,10.294533,11.952084,-7.261242,-5.763931,-3.690925,-1.449577,-9.690748,-26.28251,-36.824843,-36.480455,-68.395097,-97.772651,-115.586751,-131.243191,-71.066823,-102.982431,-123.348583,-140.733098,-69.436899,-99.150097,-117.67722,-133.523184,-64.068732,-88.026393,-102.132054,-115.604223,137.930546,-167.443356,-153.554501,-188.264814
54,-0.069672,-0.568771,-0.02013,-1.765802,-24.141243,-45.834389,-61.256882,-79.930641,-30.673805,-36.005356,-38.251167,-39.452362,-16.742866,-22.043632,-24.689781,-26.099052,-3.196175,-6.008995,-8.917808,-11.354736,10.825035,11.968552,11.852898,11.559815,-9.919722,-29.848016,-44.212542,-46.324421,-71.927967,-99.957633,-117.435235,-132.78391,-76.208348,-109.354186,-129.940248,-147.398488,-75.115072,-106.603926,-125.6669,-141.607127,-69.044581,-94.219493,-109.942402,-124.664467,27.510441,49.393158,67.752583,84.249172,29.636227,32.519749,33.38649,32.336495,17.329479,20.455147,21.769478,21.820599,5.117397,8.376206,11.056446,12.863789,-7.613685,-5.714252,-3.438022,-0.993839,-8.979069,-25.051976,-35.201261,-34.691465,-66.944732,-96.36313,-114.260249,-130.031296,-69.835821,-101.716031,-122.416666,-139.909027,-68.324005,-98.091902,-116.994397,-132.989404,-63.056282,-87.080129,-101.404871,-114.94702,138.526302,-168.1325,-152.909203,-190.150989
55,0.684952,0.228069,-0.272953,-0.597939,-24.347145,-46.311585,-62.007431,-81.151772,-31.173958,-36.42437,-38.606575,-39.842194,-17.22123,-22.423577,-24.968239,-26.331162,-3.714798,-6.595299,-9.462296,-11.876541,10.206138,11.12265,10.914482,10.559051,-9.960928,-30.14359,-44.476506,-46.453297,-72.137946,-99.908966,-117.307498,-132.601186,-76.476483,-109.259314,-129.752951,-147.197338,-75.44833,-106.6331,-125.52306,-141.332101,-69.513955,-94.711908,-110.349487,-125.02628,27.414368,49.553421,68.14888,84.58001,30.16309,33.520764,34.76096,34.01564,17.789864,21.4674,23.109764,23.452698,5.440842,9.168652,12.141701,14.279675,-7.474766,-5.151661,-2.62928,0.113903,-8.783814,-24.565888,-34.289204,-33.408183,-66.128972,-95.485036,-113.421011,-129.332795,-69.137059,-100.966908,-121.878025,-139.504141,-67.692016,-97.574095,-116.803739,-132.998003,-62.465957,-86.635402,-101.211085,-114.910032,139.843054,-168.011994,-152.550356,-190.856491
56,1.331085,0.739026,-1.065513,0.552246,-24.70974,-47.149521,-63.314369,-82.622589,-32.037689,-37.737007,-40.300873,-41.968162,-18.377266,-24.289558,-27.199882,-28.951721,-5.111504,-8.823189,-12.168068,-15.031013,8.670319,8.546837,7.579353,6.44355,-10.152388,-30.255402,-44.446196,-46.371629,-71.783042,-99.454511,-116.686473,-132.03118,-76.090599,-108.390521,-128.801614,-146.327651,-75.141054,-105.949643,-124.73977,-140.458667,-69.356714,-94.311653,-109.843436,-124.33118,27.550975,49.941616,68.932388,85.505802,31.401157,35.74617,37.8712,38.14064,19.138584,23.988258,26.602329,27.93766,6.679676,11.714458,15.577445,18.527149,-6.506562,-3.197537,0.013584,3.456241,-8.8709,-24.572341,-33.973085,-32.634818,-65.567285,-94.555057,-112.32338,-128.261905,-68.683126,-100.207018,-120.931605,-138.722286,-67.355674,-97.030421,-116.259455,-132.620129,-62.108927,-86.216403,-100.812935,-114.630754,141.677731,-167.422589,-153.112277,-190.453866
57,1.785461,1.989323,-2.203927,2.055032,-25.185699,-47.8843,-64.588966,-83.956375,-33.214599,-40.303459,-43.388259,-45.406471,-19.829269,-27.354103,-30.845787,-33.205055,-6.82521,-12.184135,-16.389381,-20.071655,6.90255,4.456765,1.84282,-0.849838,-11.014979,-31.106186,-45.068809,-47.312795,-70.539703,-97.489501,-113.89898,-128.832141,-74.487376,-105.306613,-124.240552,-140.649203,-73.551431,-102.929943,-120.516202,-135.218228,-68.024927,-91.850329,-106.417452,-120.038804,28.293938,51.148385,70.401192,87.327313,33.944264,39.764443,43.347245,45.445015,21.921181,28.702549,33.017109,36.090706,9.351643,16.218808,21.807255,26.434388,-4.250507,0.73256,5.543095,10.508526,-9.299985,-25.473208,-34.837093,-33.566761,-64.276426,-91.975279,-108.362193,-122.871165,-67.444835,-97.553043,-116.30178,-132.296799,-66.492235,-94.951103,-112.615839,-127.425328,-61.600253,-84.974569,-98.677704,-111.50709,143.724729,-165.538835,-155.054667,-188.504403
58,2.062111,2.31414,-1.998561,2.588927,-25.824897,-48.908157,-66.687973,-86.411911,-34.77626,-43.328292,-47.468742,-50.515937,-21.883712,-31.552047,-36.398185,-40.162536,-9.135246,-16.859481,-22.658477,-27.907081,4.627808,-0.847068,-5.701263,-10.669075,-11.664473,-31.572281,-44.99273,-47.296144,-67.337561,-92.504169,-107.620407,-121.588239,-71.411646,-99.992758,-116.937028,-131.867705,-71.143671,-98.411875,-114.188425,-127.577609,-66.765728,-88.930119,-101.905812,-114.006205,28.795097,51.918422,71.356807,88.876476,36.104518,43.372524,48.471359,52.835655,24.38776,33.011604,39.084251,44.296611,11.722549,20.491321,27.735523,34.227447,-2.359909,4.378715,10.700271,17.345077,-9.753957,-26.199635,-35.590767,-34.575353,-62.236323,-87.800606,-101.977724,-114.271191,-65.63508,-93.330705,-109.357051,-122.979106,-65.181321,-91.540137,-107.040289,-119.850688,-60.819105,-82.804493,-95.299725,-106.875248,145.74492,-163.382285,-157.095148,-186.073066
59,0.82869,2.312828,-1.357842,2.590692,-25.973488,-49.432251,-68.099121,-87.643501,-35.305389,-44.800758,-49.873924,-54.170631,-23.001411,-34.460243,-40.668022,-46.171921,-10.442001,-20.339264,-27.678268,-34.556259,3.401756,-4.769577,-11.629303,-18.786484,-12.599464,-32.246633,-44.970667,-47.258912,-63.882354,-86.838346,-100.440401,-113.189274,-67.746639,-93.406972,-108.076449,-121.379378,-67.869967,-92.427269,-106.081687,-117.976916,-64.342944,-84.599142,-95.809772,-106.320853,28.772335,52.139156,71.688583,89.777905,37.240654,45.65189,52.340973,58.968533,25.751942,36.375206,44.141052,51.139412,13.065788,24.106293,33.037296,41.311352,-1.266861,7.524525,15.53587,23.964787,-10.220234,-26.922602,-36.424219,-35.599662,-60.043195,-83.16055,-94.770986,-104.008238,-63.587604,-88.163587,-100.603452,-110.377545,-63.501765,-86.916674,-99.291424,-108.959527,-59.649382,-79.675575,-90.229119,-99.708571,146.46607,-161.500962,-158.56053,-183.913879
60,0.036964,1.42565,-0.608711,2.226291,-25.927208,-49.486541,-68.831611,-88.016166,-35.491768,-45.827453,-52.022667,-57.959381,-23.732208,-36.699714,-44.401634,-51.890899,-11.263481,-23.0373,-31.969185,-40.496315,2.833649,-7.676262,-16.522659,-25.899833,-12.987476,-32.255087,-44.227963,-46.721566,-60.038718,-80.353483,-92.176705,-103.140909,-63.601315,-86.243234,-98.230192,-108.962643,-63.869374,-85.56761,-96.737449,-106.507075,-60.974172,-79.06501,-88.358698,-97.065939,28.347244,51.902344,71.423687,90.045536,37.630417,47.230282,55.467979,64.248401,26.382088,38.971275,48.236275,56.877857,13.701931,26.830227,37.137062,46.910053,-0.895317,9.589783,19.142704,29.269649,-10.264043,-27.079183,-36.9386,-36.626294,-57.039205,-77.32618,-86.400573,-92.706238,-60.7817,-81.814176,-90.705398,-96.648808,-61.104741,-81.32246,-90.388064,-96.633251,-57.9422,-75.960732,-84.434113,-91.356246,146.371387,-160.806919,-159.300888,-182.419195
61,-0.877487,0.711729,0.5648,1.441446,-25.696747,-49.015411,-68.663956,-87.448585,-35.018028,-45.675155,-52.645088,-59.875374,-23.59259,-37.403618,-46.253013,-55.399338,-11.082092,-24.043556,-34.119644,-43.963417,3.228699,-8.722229,-18.960182,-29.976745,-13.088385,-32.07422,-43.532012,-46.266922,-56.194471,-73.759956,-83.727054,-92.708714,-59.609253,-79.32197,-88.546544,-96.564272,-60.114066,-79.004051,-87.618922,-95.28463,-57.838881,-73.960345,-81.322446,-88.314482,27.814236,51.030453,70.018971,89.007053,37.053795,47.085949,56.550774,67.113545,26.002155,39.45266,49.993263,60.031174,13.296089,27.279625,38.534294,49.40839,-1.51878,9.712784,20.432865,31.930046,-10.12729,-27.000238,-37.212991,-37.738385,-53.844881,-71.413574,-78.146403,-81.648116,-57.792946,-75.527473,-81.574817,-84.101687,-58.434301,-75.844194,-82.147194,-85.259284,-55.94634,-72.148722,-78.871196,-83.342298,145.359815,-160.846121,-158.870173,-181.72868
62,-1.398399,-0.795144,1.748165,0.13293,-25.28888,-48.56781,-68.371628,-86.829758,-33.964577,-43.910637,-51.468933,-60.012749,-22.849411,-36.499237,-46.326531,-56.89888,-10.281212,-23.558075,-34.434654,-45.193863,4.116783,-7.942131,-18.748993,-30.643662,-12.388757,-31.004082,-42.123501,-44.943361,-52.845852,-68.330873,-77.154506,-84.868714,-56.409715,-74.252898,-82.088846,-88.795716,-57.197431,-74.420189,-81.55129,-88.24254,-55.444324,-70.6069,-76.86683,-82.880008,26.63292,49.253918,67.665642,86.784325,35.084942,44.670387,54.661549,66.155182,24.089527,37.36417,48.244766,58.858567,11.399494,25.530224,36.7813,47.857453,-3.396457,7.977013,19.002274,31.081501,-9.585279,-26.178612,-36.649568,-37.680926,-51.640839,-67.273388,-72.918598,-75.186445,-55.84066,-71.146392,-76.111554,-77.342666,-56.604124,-71.985762,-76.969884,-78.691979,-54.465302,-69.401856,-75.096169,-78.120547,143.848847,-162.397056,-157.234577,-182.351541
63,-1.773377,-1.620522,1.726113,-0.966894,-24.586052,-47.606163,-66.803054,-84.517685,-32.511062,-41.679336,-49.287208,-58.461959,-21.40821,-34.380226,-44.429763,-55.588783,-8.694786,-21.507545,-32.515228,-43.458206,5.838295,-5.550018,-16.375396,-28.468345,-11.602563,-30.042326,-41.192197,-44.340585,-51.083057,-65.730084,-74.015242,-81.130575,-54.366094,-71.158566,-78.251216,-84.168257,-54.760754,-71.077343,-77.432177,-83.508247,-52.554421,-67.391408,-73.141974,-78.759514,25.784797,48.031585,65.942333,84.896095,33.272014,42.437736,52.813797,64.662014,22.281143,35.394355,46.400402,56.979412,9.609088,23.736419,34.890518,45.791153,-5.105576,6.184032,17.55233,30.056717,-8.955212,-25.295072,-35.951195,-37.477212,-49.917971,-64.581468,-69.934787,-71.577361,-54.133113,-68.08879,-72.52196,-72.728478,-54.94623,-69.209276,-73.189667,-73.620761,-53.126619,-67.511133,-72.375914,-73.9748,142.011486,-164.698525,-155.572448,-183.999382
64,-0.90271,-2.07102,0.878299,-1.40271,-24.139549,-46.656784,-65.345192,-82.844421,-31.729133,-40.601875,-48.409881,-58.049629,-20.677551,-33.284042,-43.616684,-55.162468,-7.96923,-20.441345,-31.771545,-42.997078,6.588181,-4.496223,-15.556251,-28.006324,-10.387262,-28.667243,-40.011386,-43.695743,-49.490948,-63.731226,-71.679847,-78.213955,-52.863505,-69.459716,-76.186151,-81.313581,-53.136532,-69.253732,-75.334857,-80.967026,-50.759728,-65.527456,-71.196585,-76.707062,25.359822,47.374489,64.996559,83.971218,32.814045,41.715489,52.243183,64.309788,21.924465,34.587467,45.737057,56.736821,9.225792,22.78656,33.827008,44.784016,-5.582382,5.211903,16.618435,29.407963,-8.126237,-24.232159,-34.958542,-36.781229,-48.142258,-62.05592,-67.505647,-69.575678,-52.45641,-65.671823,-70.507411,-71.374889,-53.455566,-67.427582,-71.441615,-71.876213,-51.958693,-66.385016,-71.122912,-72.191665,140.985569,-167.0742,-154.817356,-185.706747
65,-0.69239,-1.767318,0.38292,-1.744771,-23.88755,-46.019852,-64.261574,-81.40139,-30.747437,-39.517799,-47.378471,-56.993683,-19.793564,-32.369934,-42.842491,-54.303062,-7.166977,-19.719978,-31.306366,-42.611916,7.262535,-3.867531,-15.194435,-27.825554,-9.781945,-28.003645,-39.512212,-43.426135,-48.386354,-62.674414,-70.670349,-77.322671,-51.906807,-68.53568,-75.334382,-80.574037,-52.313331,-68.470759,-74.62587,-80.422218,-50.028767,-64.968702,-70.623036,-76.116272,25.315761,47.068084,64.546096,83.416774,32.778133,41.359611,52.007343,64.361778,21.979271,34.164619,45.570224,57.110893,9.215561,22.378521,33.568405,44.845115,-5.709401,4.907466,16.421379,29.481205,-7.539882,-23.50467,-34.11458,-36.150441,-47.113443,-60.572035,-66.185224,-68.556369,-51.473689,-64.276995,-69.51322,-70.939189,-52.541415,-66.333564,-70.68209,-71.424921,-51.160312,-65.535209,-70.277165,-71.20475,140.15423,-168.769362,-154.573385,-187.379362
66,-0.35154,-1.522463,0.203853,-1.813436,-23.577324,-45.569366,-63.576965,-80.543609,-30.274749,-39.026687,-46.917251,-56.527404,-19.411766,-32.007934,-42.578659,-53.970062,-6.847274,-19.436714,-31.172493,-42.46154,7.556351,-3.620384,-15.111076,-27.812942,-9.263556,-27.597858,-39.179571,-43.326537,-47.823962,-62.20295,-70.41682,-77.33126,-51.41087,-67.946037,-74.823761,-80.101368,-51.855229,-67.924869,-74.095347,-79.851974,-49.660647,-64.61305,-70.232013,-75.661412,25.244511,47.100964,64.629135,83.364052,32.652088,41.157292,51.785992,64.175434,21.931572,34.108429,45.445931,57.098934,9.237065,22.381542,33.609638,45.059738,-5.662857,5.066174,16.644573,29.836842,-7.078666,-22.939294,-33.471441,-35.631029,-46.435696,-59.58104,-65.200602,-67.666177,-50.765116,-63.266002,-68.378405,-69.787878,-51.867176,-65.514396,-69.769375,-70.427449,-50.552114,-64.876311,-69.428604,-70.11803,139.674482,-170.122676,-154.49774,-189.023649
67,-0.393333,-1.283374,0.259804,-1.561313,-23.349518,-45.239731,-63.04644,-79.842842,-30.171066,-39.074135,-46.973694,-56.523651,-19.298744,-31.94799,-42.541946,-53.85775,-6.700722,-19.283798,-31.078079,-42.351769,7.75209,-3.431282,-15.050858,-27.874489,-8.954122,-27.264054,-38.896387,-43.26889,-47.513771,-62.038965,-70.492109,-77.583091,-51.184219,-67.70925,-74.750257,-80.15758,-51.604279,-67.586944,-73.855926,-79.672135,-49.313768,-64.209983,-69.863802,-75.295708,25.231853,47.112087,64.6917,83.456886,32.611221,41.254978,51.978847,64.401054,21.857975,34.104824,45.463772,57.109829,9.122372,22.267971,33.506309,44.962509,-5.818153,4.83316,16.48542,29.851765,-6.878246,-22.712138,-33.199118,-35.284139,-46.010245,-59.084897,-64.662855,-67.011311,-50.298005,-62.741747,-67.728226,-68.910547,-51.346839,-65.015746,-69.202475,-69.66051,-50.039252,-64.445379,-68.987261,-69.482204,139.245861,-171.172198,-154.273224,-190.35111
68,-0.313042,-0.954612,0.16563,-1.155841,-23.200378,-44.995239,-62.726074,-79.447357,-30.079124,-39.077591,-46.993492,-56.504379,-19.259788,-32.06765,-42.741966,-54.054245,-6.70459,-19.506019,-31.400505,-42.695823,7.71991,-3.712715,-15.475868,-28.383178,-8.884745,-27.2304,-38.827779,-43.291618,-47.52321,-62.112729,-70.713602,-77.881015,-51.221562,-67.765955,-74.925017,-80.404532,-51.632128,-67.610906,-74.008746,-79.909874,-49.334078,-64.180062,-69.909068,-75.448419,24.937672,46.857605,64.525441,83.427304,32.557583,41.336094,52.151619,64.621273,21.786198,34.126728,45.495976,57.081379,9.040112,22.168602,33.477059,44.977352,-5.903068,4.895119,16.584229,29.968117,-6.499197,-22.395226,-33.00039,-35.08161,-45.799247,-58.854865,-64.476858,-66.851916,-50.11431,-62.453274,-67.558082,-68.882231,-51.150151,-64.767223,-69.210225,-69.858297,-49.827482,-64.190816,-68.858315,-69.513849,139.007177,-171.859001,-154.033236,-191.239142
69,-0.411255,-0.483604,0.468304,-0.74656,-23.137138,-44.931495,-62.607902,-79.286064,-29.878051,-38.88153,-46.864128,-56.373733,-19.060547,-32.037735,-42.748672,-53.976745,-6.476577,-19.593704,-31.45166,-42.637596,7.99086,-3.731689,-15.598983,-28.512016,-9.128237,-27.579408,-39.108176,-43.390675,-47.746404,-62.364415,-71.141199,-78.5483,-51.399163,-67.812981,-75.091218,-80.877674,-51.785881,-67.682145,-74.146079,-80.268228,-49.49106,-64.251956,-69.918109,-75.483553,24.757027,46.565323,64.130939,82.994453,32.164856,41.022434,51.927441,64.464088,21.294617,33.697037,44.973644,56.306831,8.470047,21.624962,32.959785,44.359589,-6.537357,4.432365,16.245438,29.620834,-6.556686,-22.443162,-33.148526,-35.370985,-45.935807,-59.111974,-64.740374,-66.965523,-50.194798,-62.446861,-67.570325,-68.837664,-51.121526,-64.634598,-69.189945,-69.833624,-49.711499,-64.036807,-68.82049,-69.5701,138.825227,-172.154192,-153.335627,-191.797289
70,-0.078575,-0.202841,0.309872,-0.429773,-23.044418,-45.003456,-62.711014,-79.38517,-29.907303,-38.856376,-46.849228,-56.422302,-19.09671,-32.033706,-42.711799,-53.987251,-6.510429,-19.600204,-31.339371,-42.512008,7.933823,-3.690719,-15.428535,-28.262535,-9.208759,-27.827555,-39.419308,-43.566281,-47.859361,-62.601917,-71.422592,-78.908209,-51.500702,-67.899611,-75.263159,-81.298447,-51.811878,-67.757959,-74.376068,-80.771086,-49.363023,-64.189192,-69.973566,-75.714079,24.599785,46.392723,63.803157,82.767986,31.974666,40.854789,51.837856,64.362098,21.033027,33.509971,44.738056,55.787944,8.151317,21.283127,32.603485,43.84132,-6.896908,4.098335,16.003269,29.4043,-6.588498,-22.501134,-33.374875,-35.693739,-46.062306,-59.559878,-65.157766,-67.230752,-50.240383,-62.610123,-67.758294,-68.994196,-51.096923,-64.724289,-69.287766,-69.88602,-49.628779,-64.069986,-68.961615,-69.811878,139.091074,-172.228886,-152.681333,-192.098915
71,-0.203224,-0.035939,0.281673,-0.235785,-23.094818,-45.060425,-62.649284,-79.278694,-29.865898,-38.860496,-46.913223,-56.507606,-18.963982,-31.887566,-42.573074,-53.851891,-6.315926,-19.474113,-31.15004,-42.323639,8.138466,-3.473167,-15.152687,-27.968811,-9.299096,-28.000138,-39.720505,-43.771591,-47.862985,-62.714716,-71.555405,-79.10883,-51.529098,-68.092599,-75.578268,-81.910294,-51.819356,-67.916916,-74.69252,-81.419604,-49.269567,-64.207121,-70.101334,-76.030519,24.432552,46.139969,63.447601,82.531506,31.796597,40.68298,51.794792,64.356308,20.832893,33.344524,44.541424,55.40514,7.922676,20.999668,32.294174,43.419251,-7.122768,3.904198,15.883701,29.326218,-6.591819,-22.481148,-33.475877,-35.836055,-46.167019,-59.940396,-65.490224,-67.362766,-50.306304,-62.759151,-68.03806,-69.305084,-51.105163,-64.858699,-69.521922,-70.15766,-49.57194,-64.172419,-69.193509,-70.118823,139.333128,-172.19404,-151.954382,-192.263915
72,-0.010323,0.259163,0.072739,-0.156303,-23.070831,-45.073127,-62.647087,-79.243995,-29.886863,-38.851066,-46.967102,-56.602935,-19.014289,-32.001571,-42.730087,-54.083404,-6.405761,-19.644035,-31.295127,-42.499031,8.03682,-3.668083,-15.285896,-27.996414,-9.352266,-28.269897,-40.077672,-43.991564,-48.064785,-62.899618,-71.652695,-79.124887,-51.705546,-68.264552,-75.843044,-82.310742,-51.982722,-68.127506,-75.030708,-81.878996,-49.440158,-64.439852,-70.397124,-76.400731,24.384876,46.166713,63.432506,82.471538,31.735988,40.676811,51.865974,64.41497,20.846946,33.47977,44.742862,55.554828,7.961632,21.028736,32.407539,43.526367,-7.101025,3.991138,15.980964,29.334057,-6.446212,-22.33056,-33.452637,-36.020136,-46.092387,-60.073718,-65.598852,-67.389847,-50.218047,-62.733318,-68.142124,-69.519966,-51.024152,-64.880262,-69.620781,-70.361727,-49.514697,-64.212791,-69.289654,-70.34978,139.802993,-171.912434,-151.401455,-192.397775
73,-0.107002,0.243575,0.020977,-0.169807,-23.240799,-45.199402,-62.780754,-79.364616,-29.946945,-38.93026,-47.138992,-56.834999,-19.104263,-32.097885,-42.919922,-54.343002,-6.477585,-19.631904,-31.348686,-42.629059,7.99308,-3.650139,-15.242775,-27.912918,-9.383043,-28.307281,-40.218769,-44.179857,-48.126826,-62.931092,-71.603743,-79.00587,-51.73733,-68.362439,-75.932509,-82.348963,-52.058219,-68.258751,-75.202011,-82.038714,-49.570576,-64.615319,-70.68712,-76.756059,24.516083,46.262981,63.407089,82.291614,31.827907,40.794502,52.02943,64.573265,21.027294,33.701534,45.137443,56.155666,8.178612,21.246574,32.684681,43.875538,-6.891529,4.1483,16.079498,29.363834,-6.375415,-22.220707,-33.46282,-36.265965,-46.000142,-59.985687,-65.381958,-67.07471,-50.16472,-62.770961,-68.21575,-69.55078,-51.026675,-65.002073,-69.66614,-70.322547,-49.581382,-64.356815,-69.346048,-70.280886,140.158453,-171.668655,-150.918016,-192.567378
74,-0.094047,0.065048,-0.039402,-0.07893,-23.328072,-45.240853,-62.81028,-79.352532,-30.16729,-39.152687,-47.29374,-56.897278,-19.279381,-32.220246,-43.122437,-54.586144,-6.588753,-19.556214,-31.400963,-42.786896,7.952934,-3.508255,-15.101555,-27.777192,-9.253114,-28.254281,-40.247137,-44.26469,-48.16158,-62.908362,-71.557196,-78.954482,-51.773855,-68.378757,-75.892837,-82.156599,-52.132116,-68.331574,-75.19449,-81.892514,-49.662615,-64.665143,-70.761128,-76.813836,24.578361,46.322708,63.411152,82.146915,31.681263,40.828663,52.23777,64.817184,21.038601,33.932659,45.609157,56.813736,8.315449,21.553116,33.103718,44.384937,-6.674835,4.428234,16.336555,29.589351,-6.273063,-22.144657,-33.469269,-36.565833,-45.925368,-59.962765,-65.226098,-66.735762,-50.13038,-62.835416,-68.303168,-69.536487,-51.0807,-65.200654,-69.820593,-70.40216,-49.762767,-64.588161,-69.500754,-70.359442,140.50878,-171.596679,-150.513044,-192.63938
75,-0.248085,0.154542,0.074306,0.047243,-23.360482,-45.142594,-62.686341,-79.173478,-30.081253,-39.061043,-47.22519,-56.842278,-19.182907,-32.149819,-43.208748,-54.750275,-6.448883,-19.314766,-31.353012,-42.873368,8.172477,-3.196816,-14.88398,-27.624092,-9.253617,-28.269718,-40.258073,-44.385322,-48.325532,-62.937647,-71.58234,-78.964691,-51.88989,-68.401851,-75.813247,-81.899537,-52.255977,-68.413086,-75.145052,-81.656725,-49.81419,-64.745208,-70.795167,-76.737672,24.635262,46.372937,63.427243,82.030953,31.37994,40.667736,52.225102,64.837921,20.871266,33.929924,45.789116,57.15873,8.259259,21.568165,33.213925,44.585495,-6.689483,4.429104,16.313851,29.514977,-6.259031,-22.125963,-33.505968,-36.874617,-45.892854,-59.932567,-65.06764,-66.44248,-50.118089,-62.86941,-68.378348,-69.566928,-51.126504,-65.361504,-69.963032,-70.511159,-49.874008,-64.739876,-69.60636,-70.409927,140.664706,-171.429509,-150.034727,-192.579509
76,-0.271523,0.274135,-0.012451,0.111289,-23.287056,-44.944565,-62.448028,-78.915115,-29.876999,-38.742714,-46.88253,-56.562973,-18.965057,-31.890381,-43.040703,-54.658951,-6.188644,-18.928711,-31.139488,-42.768562,8.468651,-2.872833,-14.658806,-27.473602,-9.201879,-28.342244,-40.418534,-44.724693,-48.605589,-63.103811,-71.735824,-79.112676,-52.124918,-68.517775,-75.842591,-81.821136,-52.454647,-68.619679,-75.289813,-81.709713,-49.972564,-64.908106,-70.984355,-76.925563,24.74009,46.439095,63.415249,81.904816,31.339714,40.631138,52.143322,64.691151,20.909191,33.791027,45.691555,57.118034,8.340511,21.472893,33.086987,44.433231,-6.635754,4.321415,16.099171,29.178406,-6.317518,-22.135651,-33.578571,-37.18619,-45.826981,-59.874968,-65.025249,-66.462618,-50.019825,-62.831467,-68.402347,-69.687705,-51.052576,-65.300674,-69.983677,-70.646414,-49.865239,-64.645337,-69.509979,-70.338364,140.746673,-171.135527,-149.693688,-192.448373
77,-0.153259,0.267648,-0.274212,0.22002,-23.2416,-44.69648,-62.224091,-78.632561,-29.401566,-38.104981,-46.352898,-56.245445,-18.515648,-31.439278,-42.688271,-54.409149,-5.751091,-18.558151,-31.020195,-42.797127,8.803573,-2.71994,-14.708267,-27.684334,-9.179597,-28.158212,-40.310042,-45.083827,-48.775792,-63.329595,-71.976036,-79.24811,-52.278745,-68.74263,-75.88284,-81.516277,-52.572936,-68.834049,-75.327524,-81.418894,-50.061195,-64.931818,-70.990222,-76.780348,24.688591,46.418301,63.436329,81.909245,31.201115,40.602116,52.198609,64.816933,20.839234,33.834206,45.81229,57.385563,8.356533,21.723747,33.381443,44.762249,-6.54808,4.726605,16.487,29.483792,-6.188867,-22.0042,-33.455857,-37.25214,-45.69084,-59.713167,-64.926902,-66.474561,-49.903064,-62.678224,-68.375941,-69.845094,-51.00509,-65.213498,-70.04699,-70.868015,-49.889461,-64.557649,-69.440152,-70.361144,140.925528,-170.827695,-149.635786,-192.188169
78,0.230873,0.925333,-0.291664,0.657657,-22.893654,-44.296005,-61.906609,-78.421715,-28.905602,-37.395515,-45.696213,-55.752823,-17.968506,-30.709328,-41.903915,-53.757088,-5.191956,-17.829254,-30.344421,-42.241974,9.363853,-1.977974,-13.988159,-27.056511,-9.087774,-27.98122,-40.259648,-45.578028,-48.914462,-63.683478,-72.383959,-79.592317,-52.34772,-69.014276,-76.242165,-81.891726,-52.500515,-68.990385,-75.434436,-81.253359,-49.875727,-64.924914,-70.996508,-76.495172,24.56068,46.401592,63.52121,81.915024,30.8195,40.371826,52.122482,64.788059,20.56105,33.780087,45.823746,57.305019,8.172455,21.821148,33.616825,44.98811,-6.626141,4.890953,16.759003,29.717228,-6.217905,-22.131461,-33.529028,-37.447697,-45.833953,-59.917412,-65.14649,-66.662234,-49.957228,-62.717466,-68.403168,-69.884468,-51.033782,-65.23108,-70.058418,-70.90657,-49.938388,-64.583846,-69.47461,-70.492879,141.461489,-169.832624,-149.622362,-191.460774
79,1.014748,1.789617,-0.570305,1.121268,-22.493317,-44.122239,-61.943299,-78.375023,-28.526871,-36.919693,-45.187066,-55.258393,-17.540474,-30.066971,-41.020226,-52.781983,-4.783608,-17.158059,-29.476914,-41.310357,9.699554,-1.362191,-13.211976,-26.210724,-8.903925,-27.741827,-40.360196,-46.58536,-49.005405,-64.205853,-73.019464,-80.332556,-52.322001,-69.327348,-76.701203,-82.530081,-52.260918,-69.106711,-75.587019,-81.195494,-49.378745,-64.677357,-70.801176,-75.977713,24.460167,46.301251,63.431042,81.844975,30.400395,39.994332,51.729859,64.338227,20.105255,33.438641,45.309265,56.473515,7.743736,21.553276,33.255455,44.364166,-6.960102,4.679375,16.3858,28.958702,-6.221842,-22.239371,-33.628759,-37.617434,-46.045705,-60.284433,-65.564657,-67.096465,-50.046749,-62.971873,-68.511541,-69.802665,-51.000737,-65.29266,-70.00539,-70.754032,-49.775921,-64.455148,-69.276843,-70.299484,142.770087,-167.928695,-149.898817,-190.225194
80,1.549026,2.911927,-0.984775,2.069756,-22.165489,-43.978111,-61.864586,-77.975464,-27.89003,-36.137695,-44.244896,-54.176308,-16.817024,-28.945221,-39.671127,-51.311165,-4.094032,-15.95826,-28.182999,-39.993462,10.268074,-0.379166,-12.092674,-24.962769,-8.65813,-27.506017,-40.717654,-48.336407,-49.151192,-64.812921,-73.817826,-81.151502,-52.322196,-69.626023,-77.075361,-82.842531,-51.968008,-69.162249,-75.519053,-80.699162,-48.699339,-64.021247,-70.201651,-75.109882,24.083542,45.859005,63.093612,81.320045,29.664779,39.251953,51.075508,63.601902,19.240116,32.784507,44.637931,55.552265,6.886917,20.992847,32.921722,43.928901,-7.556694,4.392986,16.006061,28.062915,-6.085463,-22.26144,-33.717584,-38.163141,-46.212502,-60.833063,-66.084826,-67.440239,-50.018732,-63.430897,-68.469564,-69.205692,-50.715042,-65.384649,-69.776243,-70.201766,-49.173672,-63.876046,-68.476872,-69.503264,144.586538,-164.568695,-150.616167,-187.707365
81,1.307831,4.521238,-1.77982,3.187828,-21.596741,-42.914635,-60.084824,-76.188103,-26.067513,-34.571434,-42.871147,-52.769783,-14.928955,-26.440453,-37.120537,-48.734345,-2.379868,-13.489884,-25.329895,-36.854439,11.693756,1.870491,-9.381706,-21.762268,-8.144289,-26.953088,-40.530769,-49.402,-49.308766,-65.449129,-74.417206,-81.439287,-52.020344,-69.77569,-77.027195,-82.145508,-50.864404,-68.323941,-74.308497,-78.542748,-46.619344,-61.792044,-67.827328,-72.162062,23.620812,45.401058,62.809433,80.829106,28.828263,38.695267,50.690884,63.077912,18.410145,32.523045,44.307541,54.925804,6.17997,20.834049,32.990868,43.853646,-7.876156,4.579251,16.153095,27.570854,-5.623261,-21.85981,-33.291348,-38.322059,-46.002729,-61.092619,-66.117972,-67.092928,-49.651166,-63.694803,-67.893192,-67.848072,-50.115668,-65.200503,-68.886972,-68.865741,-48.176761,-62.766722,-66.695499,-67.482448,146.125071,-159.606485,-152.165285,-184.078565
82,1.917618,5.808695,-1.628219,4.690567,-21.417343,-42.356026,-58.603226,-74.408593,-24.962036,-33.862107,-42.557259,-52.436989,-13.556099,-24.648445,-35.567505,-47.072754,-1.080277,-11.392044,-22.88395,-34.146653,12.78392,4.292358,-6.302719,-18.05555,-6.779263,-25.222851,-38.856592,-48.641007,-47.755916,-64.46187,-73.000216,-79.274577,-50.112516,-68.05013,-74.677509,-78.956442,-48.299585,-65.758181,-71.147364,-74.410497,-43.277208,-57.948374,-63.532375,-67.15035,23.046123,44.868404,61.788848,79.036731,27.425365,37.761703,49.813098,62.015235,16.888538,31.444072,43.250164,53.752658,4.677566,19.601417,31.726295,42.294639,-9.050263,3.41669,14.538276,24.917633,-5.098138,-20.995362,-32.486471,-38.464396,-45.321637,-60.529325,-64.983308,-65.343196,-48.978206,-63.447551,-66.494145,-65.390131,-49.123237,-64.360348,-66.784632,-65.813433,-46.600581,-60.634344,-63.074075,-62.858655,148.22299,-153.607824,-153.613203,-179.198032
83,2.648334,11.258537,-1.699299,5.956093,-22.618515,-43.220798,-58.505791,-73.706325,-26.376011,-36.707702,-45.831688,-55.096504,-14.715225,-26.993236,-37.446922,-47.463867,-2.363548,-13.660583,-24.325046,-34.0788,11.07462,2.071163,-8.239528,-18.967758,-6.849144,-25.250324,-39.16015,-49.768891,-48.614322,-65.138827,-71.648603,-75.90379,-50.602454,-67.265528,-71.233033,-73.386647,-48.195079,-64.283167,-67.363041,-68.699206,-42.401893,-55.690714,-59.671796,-61.829147,22.659382,44.512962,60.973068,77.515663,26.300937,37.147075,49.083561,60.447189,15.229694,29.975383,40.929931,50.016758,2.801101,17.697281,28.443077,37.2686,-10.616581,1.723217,12.388641,21.584724,-4.27532,-19.468932,-30.9243,-37.535726,-43.538628,-58.66128,-61.789336,-60.737532,-47.101788,-61.180412,-61.387242,-58.404753,-46.757474,-60.871756,-60.440385,-57.939958,-43.557437,-56.937316,-58.37523,-57.684274,151.050173,-143.083471,-155.133653,-173.976123
84,2.829048,16.405612,-1.700135,8.437262,-25.138183,-45.19717,-59.332901,-74.014881,-30.224521,-42.867302,-52.476516,-60.641487,-18.196655,-33.032902,-42.367653,-49.754471,-5.899704,-19.678184,-29.122547,-36.24979,7.109448,-3.933002,-14.366146,-23.741981,-8.31257,-26.903305,-41.171025,-52.392608,-51.904273,-67.435343,-70.290209,-71.151673,-53.471956,-67.464003,-66.895438,-65.750598,-50.510111,-63.861393,-62.94584,-61.348579,-44.027562,-55.246522,-56.502388,-56.369577,22.654244,44.698929,60.337304,74.914891,26.376629,37.871659,49.107491,58.936398,14.849465,29.45715,39.665108,47.353455,2.102704,16.438534,26.001641,33.214875,-11.241313,0.306096,10.663331,19.043496,-3.421242,-17.671005,-29.339236,-37.334618,-41.751686,-56.267251,-56.906716,-54.003301,-45.058526,-58.454095,-55.197953,-50.213882,-44.083104,-56.717306,-53.1956,-49.10202,-40.083199,-52.468409,-52.133718,-50.370846,154.018089,-128.320853,-156.69492,-167.181855
85,2.443314,17.585449,-2.803968,15.847903,-27.345726,-46.894764,-60.533295,-75.266567,-34.06255,-49.907913,-60.395142,-67.548454,-22.032921,-41.357884,-50.227547,-55.164528,-10.594849,-28.736641,-37.444508,-42.012875,0.775669,-13.595547,-24.373936,-32.580689,-8.200234,-25.914184,-39.105322,-49.216923,-54.217364,-67.191568,-65.470209,-62.502787,-54.960338,-64.722495,-59.013782,-54.947122,-50.699107,-59.568273,-54.16993,-50.104965,-42.774396,-50.535898,-48.968375,-47.01262,24.044569,45.975809,60.618073,73.379236,27.31275,40.745619,50.957262,58.53396,15.612631,31.822483,41.00576,46.410988,3.062147,18.585697,26.819618,31.565672,-9.773872,2.417576,12.636978,19.79607,-4.864884,-19.087014,-31.223092,-40.285354,-43.668463,-57.524962,-54.816433,-49.988417,-46.543936,-58.965521,-52.159214,-45.376347,-44.876204,-55.950666,-49.250682,-43.375566,-40.004683,-51.418878,-49.08414,-45.849037,156.381352,-113.398152,-159.578939,-153.9967
86,0.986618,21.522711,-3.53746,23.086306,-30.102367,-50.628834,-65.209053,-79.753853,-40.306961,-60.038132,-71.125122,-76.892921,-28.36203,-52.928272,-61.542915,-64.174725,-17.563316,-40.793552,-49.617783,-52.304237,-7.476894,-25.950794,-37.689514,-45.259987,-8.382558,-24.291976,-35.54221,-43.783082,-54.6945,-64.178079,-57.859026,-51.295183,-54.860244,-59.442026,-48.942157,-42.222091,-49.715204,-53.643577,-44.093115,-37.764003,-40.758403,-44.805204,-40.497314,-36.690934,26.677122,48.094408,61.610252,72.522875,28.816228,45.249006,54.217958,58.847471,17.047514,36.526085,44.679428,47.105896,5.106268,23.517711,30.628132,32.333261,-6.737,7.540065,17.805301,23.383209,-8.771629,-24.086812,-37.128516,-47.184577,-49.685748,-62.91382,-56.06164,-49.232611,-51.830112,-63.161125,-52.779451,-44.262484,-49.240332,-58.97921,-49.210838,-41.259679,-43.279172,-53.911032,-49.678531,-44.808599,157.092613,-94.238018,-163.391756,-133.272971
87,-1.499359,25.862959,-1.287655,23.512679,-32.729244,-54.957699,-71.192391,-85.906906,-47.300652,-71.839417,-83.226196,-87.17482,-35.663315,-65.716198,-74.1064,-74.610478,-25.421997,-54.096462,-63.394707,-64.412934,-16.397427,-39.626095,-52.681824,-59.831497,-9.325317,-23.133718,-31.823939,-37.451889,-55.125891,-60.062432,-49.349906,-39.741162,-54.558448,-53.28132,-38.607867,-29.412765,-48.304754,-46.963831,-33.734406,-25.191956,-37.906049,-38.280807,-31.499958,-25.895119,29.033598,49.993841,63.105835,72.488623,31.423284,49.829332,57.609403,60.029749,19.211271,40.655353,47.956512,48.08313,7.39678,28.049927,34.915924,34.886953,-3.898716,11.928016,23.255459,28.992462,-11.22275,-27.729018,-41.528745,-52.471495,-54.291559,-65.778306,-55.373567,-46.44838,-55.449744,-64.185462,-50.823593,-40.486359,-51.54753,-58.986239,-46.768022,-37.146934,-44.222514,-53.499545,-48.508372,-43.075681,155.339052,-70.428986,-164.933613,-111.814219
88,-3.20176,25.839147,-0.163736,28.173385,-33.62852,-57.686176,-75.672958,-90.605999,-52.781009,-81.646854,-93.732994,-96.977519,-41.95507,-76.419479,-85.966529,-86.242206,-32.462093,-65.423526,-76.214161,-77.250023,-24.34465,-51.002002,-65.192733,-72.537529,-9.910497,-21.299465,-26.919818,-29.462956,-52.041936,-52.806966,-39.151982,-27.544507,-50.33429,-44.400631,-27.414957,-16.573215,-42.867291,-37.289793,-22.087444,-12.24466,-31.232942,-28.177649,-19.886597,-13.298847,31.618,52.680942,65.82308,73.429269,34.686618,56.091218,62.690173,63.021852,22.370653,47.225898,54.19495,52.744771,11.015768,35.293596,42.66065,41.443336,0.504753,18.959844,30.582166,35.452125,-13.834116,-31.652917,-46.008182,-57.771932,-59.865791,-69.773642,-56.155698,-45.974891,-59.940383,-66.734291,-51.580388,-40.54221,-54.663614,-60.781747,-47.533076,-37.14896,-45.743436,-53.484164,-46.94425,-40.406779,151.803611,-45.345041,-165.43103,-84.396036
89,-4.904159,25.815334,1.020137,31.463107,-32.800198,-58.814266,-78.650757,-93.851132,-56.748036,-89.460445,-102.645516,-106.301022,-47.237297,-85.038116,-97.123306,-99.069912,-38.683605,-74.774746,-88.076145,-90.815506,-31.318565,-60.078518,-75.222244,-83.378082,-10.138097,-18.789218,-20.829844,-19.816282,-45.442632,-42.411679,-27.265253,-14.705216,-42.187768,-32.799958,-15.363426,-3.703442,-33.402815,-24.621461,-9.152227,1.077887,-20.73908,-14.495731,-5.65723,1.097881,34.223122,55.877266,69.950735,76.612914,37.773857,63.174128,69.131287,67.559927,25.361739,55.223889,61.606728,58.103216,14.708559,44.308874,51.602881,48.392601,5.437901,28.101603,39.383337,42.215607,-16.397904,-35.524992,-49.878531,-61.423718,-65.352516,-74.047576,-57.885411,-46.865409,-64.297983,-69.191655,-52.443955,-41.185757,-57.619859,-62.424527,-48.184534,-37.400849,-47.019891,-53.304621,-45.716942,-38.622207,146.544708,-19.5377,-164.765637,-52.940922
90,-4.876328,28.288691,4.787115,24.270339,-31.350574,-59.532245,-81.242729,-96.422802,-62.045963,-96.902767,-111.673164,-117.615131,-54.044883,-92.773773,-107.618866,-112.798336,-45.843853,-82.910396,-98.899143,-104.944931,-38.104339,-67.795223,-84.00975,-94.011314,-12.250763,-19.790248,-20.069122,-17.556359,-39.790715,-33.306201,-18.127173,-5.605545,-34.946525,-23.163645,-6.260711,6.378067,-25.087862,-14.465068,0.635072,11.785353,-11.98875,-4.030011,5.597449,13.637667,33.633265,55.03858,69.670218,76.795956,37.847666,65.006768,72.07215,71.276734,26.316628,58.262776,66.449925,63.939543,17.282799,49.209921,58.946268,57.310931,10.053452,34.286093,47.258395,51.614674,-17.945408,-36.111376,-48.404926,-57.256579,-64.060542,-71.714962,-55.188823,-43.353489,-61.159628,-65.839945,-48.752402,-36.492283,-52.490071,-57.379332,-43.421056,-32.632673,-40.052151,-46.02617,-38.898471,-32.179035,141.132997,8.310056,-160.513905,-29.111518
91,-3.819145,28.696596,7.044628,24.537872,-29.542259,-59.00877,-81.637207,-96.911247,-67.194259,-102.112552,-118.243423,-126.546581,-60.766502,-98.7434,-115.802719,-124.30616,-53.057316,-89.503761,-107.402069,-116.338062,-45.058113,-74.048298,-90.751293,-102.357925,-14.588251,-22.155604,-22.22477,-19.801749,-34.961185,-25.920523,-11.148009,1.159351,-28.838635,-15.762655,0.335029,13.481229,-18.674705,-7.167781,7.346529,18.98177,-6.378435,2.362722,12.296563,21.189672,32.094126,55.158377,72.026064,80.153985,38.892191,68.575654,76.815371,76.963131,27.547108,62.080708,72.071995,71.235472,19.094925,53.201186,65.516459,66.545683,12.964692,38.446581,52.648848,58.989338,-17.181888,-33.240945,-42.138883,-47.631897,-59.539602,-64.413402,-47.937709,-35.852604,-54.908571,-56.69414,-39.506185,-27.226331,-44.185443,-46.522869,-32.768542,-22.705639,-29.793055,-33.43071,-26.467039,-20.533741,137.13426,35.979872,-153.648869,-5.600426
92,-8.616943,31.107004,6.845026,28.026919,-28.209618,-58.098988,-80.842552,-96.011856,-71.257164,-106.44746,-122.052635,-130.143311,-66.191528,-103.90147,-120.511551,-128.708748,-58.616764,-94.663925,-111.853432,-120.46455,-49.804779,-78.44846,-94.173489,-104.990639,-17.206814,-24.21464,-23.555948,-20.237657,-28.779289,-17.158034,-3.234107,7.649271,-20.176823,-5.180375,9.320907,20.654831,-8.964428,3.989179,16.766055,26.469095,2.987973,13.079438,22.445516,30.06898,30.586402,54.961825,73.64423,83.015586,41.398957,74.188963,83.622952,83.910502,31.066853,68.645972,79.991685,79.908257,23.538128,59.9068,73.465657,75.626421,18.344988,45.388671,59.565497,66.068242,-18.745832,-32.964532,-38.530278,-40.439088,-55.090294,-57.635627,-41.47698,-29.879039,-48.322841,-48.090131,-31.164871,-19.626109,-35.941642,-36.104839,-22.976016,-14.091664,-20.222887,-21.953371,-15.234932,-10.074833,128.619021,66.030858,-146.702139,21.370475
93,-6.788098,29.53969,7.730158,27.344496,-28.225044,-58.362464,-81.374313,-96.8955,-74.223655,-108.531097,-124.695968,-134.267452,-70.041297,-106.894603,-124.250312,-133.821773,-62.704559,-97.691963,-115.340492,-125.313251,-53.560249,-81.014099,-96.527595,-107.967269,-19.015718,-25.482783,-24.349194,-20.83039,-23.059876,-9.303175,3.637223,13.790676,-12.271913,3.748275,17.227161,27.743151,-0.070142,13.536264,25.50694,34.558161,11.647894,22.341657,31.433954,38.549584,28.228741,53.205746,73.000975,84.031832,45.098265,79.810954,90.687991,91.699854,36.176628,74.939238,87.94851,89.394854,29.256215,66.356501,81.1216,85.000672,24.148093,51.593045,65.903573,73.252236,-21.008129,-33.635208,-36.168022,-34.844136,-48.70907,-47.955326,-33.128725,-22.53224,-39.605954,-36.579107,-21.201374,-10.792959,-25.796207,-23.158572,-11.47326,-4.049848,-9.287394,-8.709463,-3.009069,0.826523,122.141738,94.105794,-138.661166,47.250217
94,-5.762535,27.974733,6.775658,25.345901,-29.437225,-60.009361,-83.106948,-98.323082,-76.474228,-108.484886,-124.946399,-136.098507,-72.406746,-107.18217,-125.151294,-136.741859,-65.307335,-98.489044,-116.355629,-128.041088,-56.330085,-82.299018,-97.4542,-109.838195,-19.993857,-25.984202,-24.772412,-21.681841,-17.913133,-2.496921,9.701632,19.071794,-5.310202,11.589769,24.585093,34.549158,7.715554,21.892615,33.521329,42.179157,19.138559,30.340485,39.831764,47.254583,25.966702,51.301552,72.228487,85.783155,46.574232,81.532717,94.871424,99.395537,38.876381,77.468748,93.933552,100.034014,32.587704,69.275946,87.207407,96.084183,27.531584,54.864487,70.768341,81.540138,-21.937466,-33.191698,-34.023257,-30.749547,-42.151899,-38.784655,-25.647663,-15.434864,-30.937648,-25.654032,-11.89973,-2.028692,-15.760875,-10.923845,-0.697764,5.74775,1.546512,3.966829,8.900121,12.018718,116.692966,120.74895,-131.571745,71.264541
95,-10.111885,29.646682,8.495499,30.11241,-31.856437,-62.359794,-84.359138,-98.635952,-77.281906,-109.886215,-124.225914,-131.942917,-73.030517,-108.508369,-124.424251,-132.518989,-65.770042,-99.335003,-115.115318,-123.9421,-56.27449,-81.775154,-95.70829,-106.196113,-19.005369,-22.493279,-19.855135,-15.510512,-9.823249,7.178158,18.087282,25.25075,3.534414,22.183385,33.178879,40.283171,16.143892,31.510463,41.563041,48.049453,26.290831,38.431221,46.988173,53.048445,25.306778,52.60065,75.034853,88.617811,51.307977,88.856352,101.676069,105.146089,43.638118,84.726579,100.596508,106.186895,36.427711,75.347803,91.985487,100.067287,30.185583,59.679714,74.082618,83.41278,-21.529747,-31.595117,-31.287152,-28.271935,-35.793769,-27.210924,-14.502128,-5.874289,-23.280924,-12.312696,0.304331,8.234405,-7.616818,2.047057,11.314272,16.493896,9.78007,15.311984,19.723325,21.919963,107.28677,150.177505,-122.370557,101.158824
96,-8.261284,26.242585,7.246055,24.435626,-34.67633,-65.191452,-87.060287,-101.013851,-76.696517,-109.317707,-123.080749,-130.202579,-72.177841,-107.680618,-123.378982,-131.188407,-64.76921,-98.091808,-113.768611,-122.983108,-55.089752,-80.095642,-93.730064,-104.173828,-18.413071,-20.599888,-16.921879,-11.544999,-2.509598,14.254317,23.806711,29.608606,12.536989,31.577975,41.756407,47.613829,25.974064,41.989601,51.095922,56.284327,36.463804,49.745959,58.15245,63.319317,25.934636,53.883156,76.210528,90.048804,55.838419,91.605933,105.388121,111.364317,47.891716,86.499258,103.647927,112.631441,39.488423,76.584372,93.476149,103.642868,31.344012,59.807225,73.848221,83.74831,-20.466801,-28.867978,-28.566954,-26.340704,-27.595148,-15.753753,-3.254704,5.893746,-14.372544,-0.825205,11.389474,19.868003,1.134982,13.444682,22.588643,28.217786,17.909852,25.350687,29.777793,32.452027,99.61227,176.494428,-114.537718,125.668788
97,-16.852638,23.43112,5.432001,22.876774,-29.677688,-57.153808,-78.177166,-91.651153,-64.851219,-92.709274,-105.516426,-112.539322,-62.252014,-93.388572,-108.005493,-115.336544,-57.760174,-86.726864,-100.387081,-108.779159,-51.440632,-72.883175,-84.08432,-93.073185,-7.088725,-4.259741,0.519247,5.455538,7.763002,22.620238,29.877294,33.829148,14.812219,31.122837,40.28046,45.339931,20.779656,34.31731,42.689974,47.293356,24.712601,35.216494,43.323891,48.704575,27.263306,55.626778,77.462391,92.226746,59.111298,92.389046,107.008736,115.345631,50.689442,86.431389,104.27639,115.915387,41.285065,75.547097,92.572186,104.202668,31.593258,57.979752,71.443474,81.699681,-18.218626,-24.15021,-23.429076,-22.275597,-18.908353,-4.808035,7.669333,17.45744,-6.180037,9.619837,21.90657,31.254224,8.070513,22.369364,31.801017,38.238535,22.820371,31.847231,36.669173,39.860002,83.108036,199.910914,-108.757313,148.530928
98,-12.920139,21.79692,5.523205,23.58184,-25.485168,-51.100537,-71.881411,-85.29229,-58.482949,-85.177082,-94.892624,-98.659378,-57.305935,-86.820917,-97.154308,-100.628357,-54.551668,-81.570122,-90.73122,-95.244873,-50.093577,-70.57295,-78.008246,-83.210627,3.981123,11.409543,17.478318,22.893631,18.618298,30.719051,35.524462,36.962265,18.492309,30.711931,37.298613,39.996291,17.299575,26.839909,32.512512,34.822428,14.748882,21.572407,27.995364,32.233245,29.080605,58.537331,80.727059,95.1656,61.990299,95.382763,109.181889,116.857166,52.980892,89.378472,105.556584,115.39333,42.802906,77.785332,93.333767,103.128422,32.222511,59.898354,73.07127,81.955731,-15.990294,-19.325977,-17.720596,-16.160287,-10.234353,8.087328,20.854571,30.21271,3.362643,23.636606,36.516662,45.482785,17.659296,35.823205,45.837479,52.36078,31.644406,43.635929,49.475887,53.19409,70.370104,221.50507,-103.051901,171.910004
99,-8.184357,20.160361,3.595791,21.863437,-22.250084,-46.821476,-68.298563,-83.176357,-57.211212,-86.599708,-92.436367,-91.383247,-57.248668,-88.518282,-92.693138,-89.967224,-55.15706,-82.720413,-86.308651,-85.223327,-51.043024,-72.611166,-75.861253,-76.035776,14.775366,26.432134,34.12324,40.871177,30.166478,38.691733,40.512561,39.519732,23.763559,29.778784,32.279564,31.779942,15.82642,19.138262,20.611392,19.941357,7.035415,8.622592,11.596986,13.282229,31.900646,62.366879,84.869774,99.416805,66.791931,99.71212,112.918167,119.7743,57.01331,92.752029,108.033737,116.898583,45.85556,80.169777,95.24778,103.84964,34.296799,61.772656,74.795265,83.053906,-14.516842,-15.239125,-11.595393,-9.653775,-0.943731,20.783534,33.29271,42.007151,13.149775,36.273736,48.752667,57.31057,26.989796,47.417154,57.400269,63.643001,39.50332,53.488713,59.443565,63.002427,62.270073,241.405687,-99.371784,193.513697
100,-1.88713,13.994001,-0.289066,18.514849,-20.399415,-45.352902,-68.892386,-86.033604,-56.076234,-86.483666,-92.993203,-92.662652,-56.806744,-88.910735,-91.986111,-88.777874,-55.527232,-83.376366,-84.949368,-82.107159,-52.732058,-75.496279,-76.59093,-74.198645,23.635057,38.443294,47.172845,54.799663,40.352962,43.856366,41.715226,39.164545,28.832663,26.034215,23.644005,20.934668,15.016132,9.42659,5.867296,2.98688,0.609014,-4.417624,-5.079329,-5.2784,35.055427,65.996589,88.794948,105.051372,70.406158,100.97723,115.345104,124.545101,59.804214,92.928325,109.350094,120.58057,47.93367,79.449222,95.909557,106.686435,35.410331,60.817726,74.224766,83.773212,-12.705234,-11.925598,-7.694164,-6.091963,5.835982,28.117358,40.658731,50.30249,19.96907,43.890389,56.76167,65.973609,33.191748,55.07082,66.063307,73.058308,44.334844,60.801518,68.158622,72.648347,60.358412,255.107531,-99.685381,211.736389
101,-2.305047,12.185518,1.143802,17.692493,-19.651931,-44.52428,-68.790018,-87.460201,-54.864944,-87.163513,-93.788189,-92.437282,-55.731594,-90.232916,-92.091877,-86.430358,-55.042001,-85.811027,-85.557575,-79.500412,-53.443376,-78.99484,-79.004442,-74.08822,31.784654,51.227555,61.46867,70.640965,50.5679,49.519409,43.45177,38.585276,34.149571,24.603754,16.718819,10.360898,14.527229,2.208695,-6.35563,-12.082802,-5.971641,-16.176595,-20.107416,-22.058791,36.317002,67.243664,90.207459,107.415162,71.605671,102.279557,116.595864,125.254532,60.824021,94.151665,110.001984,119.771553,49.030632,80.077927,95.983876,105.502739,36.707039,61.699448,74.481789,83.221241,-11.580252,-9.800408,-4.545806,-3.090164,11.727465,35.001183,47.049837,55.991507,26.397906,51.731259,64.369519,72.862374,39.288169,62.39248,73.140374,79.409659,49.162739,67.387422,74.80929,78.649697,57.870443,266.974708,-98.724501,229.110541
102,5.479958,8.169703,1.929371,15.730905,-23.035309,-49.774052,-74.657908,-95.031624,-66.153946,-96.270824,-97.578186,-92.634716,-65.972671,-96.38986,-92.88699,-83.458729,-63.159617,-89.814262,-84.741795,-75.207001,-58.974707,-83.740602,-82.431272,-75.816175,31.014107,50.067969,61.135403,71.244933,50.668973,50.597361,45.939287,43.094822,37.187098,28.937682,22.218237,17.344795,19.843544,9.452092,2.321463,-1.265599,1.319254,-6.239299,-9.238763,-9.537796,36.704235,67.995793,92.038456,109.565701,71.16037,102.953282,117.387051,125.923977,60.156327,95.164753,111.389729,120.667202,48.760987,81.204804,97.450436,106.94125,37.316288,63.654785,76.950554,85.847214,-10.973221,-8.958145,-3.133241,-1.410429,15.745256,39.487771,51.28242,59.896825,31.938412,57.505442,69.743855,77.525753,45.469595,69.160239,79.536136,85.126525,55.368099,74.555002,81.99899,85.733926,63.051722,274.860902,-97.093809,244.557937
103,1.833103,7.001274,0.87814,11.280108,-24.024238,-51.783783,-76.334644,-96.654087,-70.535042,-96.310226,-94.439369,-87.780453,-69.129101,-94.173454,-87.547439,-75.791256,-64.770573,-86.445202,-78.395634,-66.723118,-58.889236,-80.481285,-78.2696,-70.919014,30.572382,48.995951,60.150595,71.018124,48.499515,50.730359,48.016552,47.150947,36.69186,32.433181,28.802887,26.499424,21.203795,14.945786,11.481612,10.769136,4.391245,0.697471,0.046313,1.844942,36.854667,67.741848,92.178703,111.18528,69.025898,99.383903,115.478325,126.773803,57.527115,91.285698,110.293327,123.361404,46.391304,77.034702,95.728088,108.729263,35.705234,60.263283,74.349437,85.635807,-10.100947,-8.161836,-2.048446,-0.961688,17.60818,38.874503,50.303257,59.765285,33.461264,56.254379,68.117547,76.712068,46.228421,67.762741,77.927847,83.851601,55.168794,73.228789,80.385822,84.314532,64.480116,281.774867,-96.620378,255.750736
104,-3.302215,5.27987,3.908237,9.628643,-22.921006,-50.176117,-73.498936,-92.953148,-69.058857,-86.871117,-82.319138,-74.663121,-67.268635,-83.771714,-75.466828,-62.442742,-62.547902,-76.42265,-66.245533,-53.308537,-56.328553,-71.911881,-68.444081,-60.530594,30.428109,48.762621,59.645464,70.778174,45.236796,51.24274,50.801941,51.329894,34.134467,36.235438,36.377254,36.449539,20.152544,20.514611,21.235041,23.166384,5.13015,6.860385,9.253756,13.334347,35.349575,65.414429,89.64996,109.151791,66.024868,96.136173,112.679981,124.537045,54.568291,88.515919,108.166317,121.834866,43.761143,74.182801,92.954396,106.474034,33.597748,57.569985,71.662686,83.32116,-9.882227,-8.035346,-1.599397,-0.161576,18.680093,39.123122,50.551049,60.240355,34.551431,56.554609,68.48143,77.317469,46.838503,68.143544,78.449144,84.756887,55.195693,73.470678,80.65987,84.712142,60.766772,287.002064,-93.12327,265.326706
105,-6.124375,5.459404,4.811657,7.818702,-19.953941,-45.102699,-66.169647,-84.581852,-67.357292,-75.760608,-65.135376,-53.925888,-65.222786,-70.624489,-57.023472,-40.858555,-59.781315,-63.373398,-48.94186,-33.954517,-52.514534,-60.245624,-54.289524,-45.599705,30.683569,48.654112,58.897061,69.921424,41.262872,51.233044,54.747483,57.469922,29.88563,38.998435,45.017618,48.414212,16.71328,24.985686,31.791421,36.942332,2.97879,10.510797,17.096268,23.834621,33.524059,62.749054,86.688881,106.045006,63.262139,93.851257,110.53125,122.326058,51.990338,86.66082,106.694367,120.573967,41.335453,72.236309,91.039215,104.709732,31.401043,55.413803,69.730099,81.545666,-10.367969,-8.478875,-1.421445,0.445541,19.482712,39.254527,50.083029,59.240035,35.612697,56.94555,68.280888,76.672127,47.507617,68.211555,77.97721,83.940002,55.261098,72.946008,79.537025,83.15471,54.204008,292.436061,-88.750002,273.120001
106,-8.136452,4.416846,4.348503,6.861014,-14.90657,-37.198471,-55.875927,-72.406974,-65.089988,-63.336891,-45.768756,-30.573051,-63.254665,-56.646629,-36.282302,-15.814704,-57.31882,-48.810173,-28.082885,-9.439865,-48.865058,-47.958732,-38.34399,-27.537414,31.519707,48.895915,59.423249,70.816842,36.959894,52.222657,59.546169,64.521313,25.206283,40.750357,51.992464,58.735954,12.994646,27.741434,39.782172,48.133792,1.184311,13.233002,22.898164,31.889234,32.130352,60.732033,84.627823,104.128922,61.566342,92.715569,109.429138,121.072632,50.671017,86.000817,106.197785,120.128861,40.252156,71.839909,90.620453,104.307862,30.596249,55.008557,69.681942,81.798832,-10.978013,-9.31589,-1.949214,0.443689,19.541473,38.467839,48.382954,56.66135,35.913928,56.171225,66.415075,73.706712,47.546631,67.419174,76.443255,81.739428,54.887669,71.788608,77.762084,80.802859,45.64472,296.838396,-84.824335,279.966504
107,-5.502456,3.775951,3.785569,5.233545,-11.201683,-29.754204,-46.710755,-61.859242,-56.204601,-50.167763,-33.41732,-20.118393,-56.03254,-45.697666,-26.818108,-8.3153,-52.064244,-42.020771,-23.029953,-6.718392,-45.566242,-45.928242,-39.288265,-32.082184,22.073488,35.254829,45.010246,56.468196,32.06941,48.289736,55.236546,59.724665,25.232886,40.480952,50.62899,56.388414,17.141174,31.568194,41.557274,48.046897,9.150559,20.737975,29.785793,38.000265,31.313941,59.177959,82.52639,101.872718,60.592334,92.116424,108.668037,119.79396,49.935836,85.545547,105.589714,119.308891,39.360179,71.294963,89.880134,103.198791,29.456737,53.816894,68.466053,80.442581,-11.663826,-10.077297,-2.180765,0.830629,18.906333,37.527862,46.633602,53.924288,35.380837,55.134917,64.620361,70.921855,46.922347,66.39939,74.790666,79.23267,54.201436,70.889213,76.306626,78.460308,39.744433,300.588387,-81.436597,285.174089
108,-9.040398,3.264423,2.951683,3.293433,-9.080841,-23.381698,-37.198219,-51.327289,-47.519588,-35.597603,-17.692955,-4.370796,-49.178993,-33.203132,-13.309341,4.483429,-46.943573,-33.783623,-14.201294,1.675667,-42.102024,-43.889282,-39.880394,-35.536114,15.149241,27.113075,38.412141,50.937668,27.863713,43.844485,50.773486,55.395677,25.707722,39.584262,48.274595,52.947138,21.82598,35.295894,42.984018,47.946441,17.870261,28.766813,36.446057,43.496867,30.5373,57.7439,80.509941,99.610611,59.511714,91.439643,107.806663,118.604827,49.012893,84.91745,104.766357,118.392906,38.212303,70.519191,89.052108,102.118515,27.909404,52.251651,66.965526,78.694587,-11.965661,-10.147988,-1.631631,1.830171,18.907668,37.062277,45.580104,52.151706,35.505561,54.453514,63.303275,68.878917,46.868761,65.831015,73.685075,77.42836,53.801282,70.306747,75.344136,76.748291,30.397951,303.796033,-78.790998,288.410745
109,-4.477707,1.597212,2.040641,2.49878,-8.352012,-20.400879,-33.787605,-48.609489,-44.152107,-29.245182,-9.787216,3.329911,-47.329159,-28.030586,-7.400802,9.780442,-46.389816,-31.948322,-11.818542,3.59903,-42.945007,-48.293609,-48.116169,-47.223541,8.048388,17.80772,30.315327,43.495236,22.664068,38.926644,45.47987,50.173111,25.25987,38.335718,45.937811,49.479642,25.548097,38.264717,44.226497,47.885703,25.511763,35.699321,42.832729,49.628547,29.696251,56.383759,78.749382,97.675621,58.482239,90.990509,107.370644,118.092591,48.083577,84.563805,104.235077,117.777146,37.229542,70.077416,88.550011,101.41967,26.82811,51.39045,66.15152,77.710831,-12.365125,-10.479428,-1.499658,2.643683,18.507685,35.953004,43.866912,49.790642,35.423606,53.541152,61.752154,66.726569,46.792227,65.167334,72.289466,75.214064,53.529926,69.638768,74.151525,74.746268,25.701839,305.303948,-76.968762,290.820228
110,-8.392158,4.01474,1.088734,1.812832,-6.110802,-14.73507,-26.101433,-39.736874,-36.872246,-17.147026,2.991188,15.322014,-41.859741,-18.635514,2.308479,18.654556,-42.522995,-26.247494,-5.861801,9.043991,-40.398114,-49.104206,-52.776329,-55.509865,-1.014485,5.536554,18.268551,31.207324,14.274559,30.591944,37.555526,42.834791,22.349191,35.320729,42.173457,45.340351,27.673657,39.726102,44.122337,46.893386,32.404899,41.360858,47.29711,53.264016,29.309464,55.602322,77.721737,96.64674,57.452808,90.366817,106.815456,117.593067,47.088043,84.017818,103.563206,117.007587,36.239502,69.639507,88.057903,100.588589,25.898701,50.755497,65.741226,77.255871,-12.537668,-10.724219,-1.316815,3.967908,17.924526,35.043964,42.676969,48.114957,35.131155,52.573572,60.372155,64.847257,46.621141,64.552225,71.047023,73.124097,53.341833,69.316332,73.545024,73.438999,17.185456,309.218516,-76.004253,292.532888
111,-10.65128,-0.112954,0.838463,0.735398,-5.007225,-11.319236,-21.347179,-34.850612,-27.754852,-6.119854,14.621281,26.698094,-34.00225,-8.022136,13.208004,29.380863,-36.977176,-18.743065,1.69788,16.146504,-37.646793,-47.67667,-52.700855,-56.637497,-5.326059,1.107247,15.625226,28.753845,9.915992,27.161734,34.805039,40.307927,20.81268,34.85523,41.78559,44.081063,28.70668,41.838757,45.546314,47.274102,36.128734,46.063214,52.339217,58.031209,28.834865,54.742172,76.486118,95.152943,56.390282,89.379764,105.865688,116.742611,45.992111,83.154957,102.71307,116.176082,35.080936,68.850094,87.324886,99.76482,24.69009,49.840015,65.027389,76.604519,-12.648918,-10.753476,-0.879697,5.269236,17.487716,34.500819,41.926331,47.081391,34.930232,52.012866,59.559668,63.865512,46.521537,64.264432,70.310167,71.903266,53.273574,69.264054,73.354216,72.903598,6.472538,308.997416,-75.227428,293.16014
112,2.149086,-0.853934,0.59769,0.431116,-7.377777,-16.114883,-27.582721,-42.176994,-31.959869,-12.14582,9.874203,23.764469,-36.999378,-12.504879,10.536816,28.753681,-38.904522,-21.384052,0.637677,17.19318,-38.854397,-49.181911,-53.50629,-55.884681,1.710882,11.468274,27.521751,41.490719,11.429692,28.687512,36.828341,42.559471,19.70484,34.276937,42.298069,44.849238,25.846277,39.351759,44.633099,47.167002,31.67932,42.254251,49.530709,55.976501,28.426449,53.987412,75.469025,94.118912,55.37827,88.464753,105.060448,116.165154,44.93153,82.262925,101.862626,115.338776,34.051678,68.079964,86.649285,99.146279,23.743802,49.14505,64.542744,76.269722,-12.758215,-10.874593,-0.692432,6.10677,17.264489,34.087068,41.222081,46.099449,34.867951,51.507476,58.74476,62.88184,46.467025,63.939662,69.584378,70.883829,53.150902,69.085423,73.010081,72.316204,8.567939,308.042659,-74.683423,293.490433
