takenoko1/special-research/HandMotion_SimilarSearch_自分用/NewProject/handData/tgt/d4_feature_d2/45.csv
,vel_0x_L,vel_0y_L,vel_0x_R,vel_0y_R,posFromWrist_1x_L,posFromWrist_2x_L,posFromWrist_3x_L,posFromWrist_4x_L,posFromWrist_5x_L,posFromWrist_6x_L,posFromWrist_7x_L,posFromWrist_8x_L,posFromWrist_9x_L,posFromWrist_10x_L,posFromWrist_11x_L,posFromWrist_12x_L,posFromWrist_13x_L,posFromWrist_14x_L,posFromWrist_15x_L,posFromWrist_16x_L,posFromWrist_17x_L,posFromWrist_18x_L,posFromWrist_19x_L,posFromWrist_20x_L,posFromWrist_1y_L,posFromWrist_2y_L,posFromWrist_3y_L,posFromWrist_4y_L,posFromWrist_5y_L,posFromWrist_6y_L,posFromWrist_7y_L,posFromWrist_8y_L,posFromWrist_9y_L,posFromWrist_10y_L,posFromWrist_11y_L,posFromWrist_12y_L,posFromWrist_13y_L,posFromWrist_14y_L,posFromWrist_15y_L,posFromWrist_16y_L,posFromWrist_17y_L,posFromWrist_18y_L,posFromWrist_19y_L,posFromWrist_20y_L,posFromWrist_1x_R,posFromWrist_2x_R,posFromWrist_3x_R,posFromWrist_4x_R,posFromWrist_5x_R,posFromWrist_6x_R,posFromWrist_7x_R,posFromWrist_8x_R,posFromWrist_9x_R,posFromWrist_10x_R,posFromWrist_11x_R,posFromWrist_12x_R,posFromWrist_13x_R,posFromWrist_14x_R,posFromWrist_15x_R,posFromWrist_16x_R,posFromWrist_17x_R,posFromWrist_18x_R,posFromWrist_19x_R,posFromWrist_20x_R,posFromWrist_1y_R,posFromWrist_2y_R,posFromWrist_3y_R,posFromWrist_4y_R,posFromWrist_5y_R,posFromWrist_6y_R,posFromWrist_7y_R,posFromWrist_8y_R,posFromWrist_9y_R,posFromWrist_10y_R,posFromWrist_11y_R,posFromWrist_12y_R,posFromWrist_13y_R,posFromWrist_14y_R,posFromWrist_15y_R,posFromWrist_16y_R,posFromWrist_17y_R,posFromWrist_18y_R,posFromWrist_19y_R,posFromWrist_20y_R,posFromBody_0x_L,posFromBody_0y_L,posFromBody_0x_R,posFromBody_0y_R
6,-3.844757,5.155196,0.525822,0.244556,-6.813515,-16.44928,-25.056519,-34.281487,-39.823529,-21.912941,-0.316521,13.453903,-43.16771,-20.226242,3.668747,22.326622,-42.496434,-25.367855,-3.848717,12.393081,-39.041771,-44.146706,-44.868096,-43.809048,4.856608,11.360755,22.481386,31.339619,15.095864,29.090088,32.837684,35.339563,20.616907,32.546358,36.186322,37.423726,23.598105,34.969308,37.213775,38.769576,25.640661,36.815645,43.077545,49.983488,23.823131,47.748333,67.322204,80.492843,44.856239,77.116653,94.849708,107.583755,34.403194,69.911796,89.789245,102.408096,24.793693,58.144134,77.418938,90.180221,16.900028,42.362961,58.198379,70.850944,-13.34067,-11.460222,-0.066777,12.075022,13.575322,29.488033,35.712523,39.23494,30.331024,45.835503,50.751046,52.61886,42.34532,59.408108,63.395097,63.29763,49.601735,66.467242,69.665889,68.209036,14.137585,311.088939,-65.384365,297.574602
7,3.015152,-5.826089,0.282085,0.163244,-9.834206,-22.776593,-34.800454,-47.409909,-46.533783,-30.405453,-7.091195,8.376663,-49.014107,-26.488827,-1.039742,19.068191,-47.175991,-28.920376,-4.996033,12.604339,-42.456906,-46.672772,-45.167565,-41.968552,14.722039,25.453939,37.235226,46.107686,23.539775,39.695931,43.763937,45.737826,23.93998,39.264678,43.711819,44.283418,22.51504,37.493899,41.041793,42.824812,20.858486,34.28962,42.162712,50.24484,23.595269,47.430336,66.850216,79.990231,44.677059,76.736309,94.409466,107.112843,34.257374,69.622181,89.504734,102.188931,24.606068,57.801167,77.066563,89.831852,16.618847,41.922489,57.672215,70.257214,-13.426059,-11.595727,-0.20926,11.887324,13.300445,29.279266,35.611944,39.156627,30.024532,45.674655,50.652171,52.491666,42.055476,59.266254,63.291615,63.199336,49.367354,66.345025,69.58439,68.073506,17.186257,305.328772,-65.06876,297.803768
8,-6.326088,4.195113,0.178356,0.194958,-6.085373,-14.130902,-20.526318,-28.071087,-38.105828,-19.496212,2.5158,17.137664,-41.932881,-17.842495,6.92855,26.253112,-41.153801,-22.474102,0.276741,17.222305,-37.143998,-40.217388,-38.502056,-35.61351,5.999608,12.893572,23.779935,32.406356,17.498016,31.964989,36.269956,39.028421,21.6523,34.562619,38.605987,40.060913,23.075746,35.325002,38.428071,40.429328,23.630623,35.115211,41.56151,48.160245,23.438771,47.220292,66.540551,79.791573,44.51754,76.561982,94.249718,106.9506,34.112641,69.440415,89.394402,102.160859,24.469048,57.553643,76.86628,89.675446,16.486359,41.676545,57.429497,70.038506,-13.51677,-11.639545,-0.304714,11.598827,13.041699,29.104883,35.530236,39.10204,29.761624,45.540175,50.566782,52.387666,41.805078,59.16796,63.201942,63.037822,49.144362,66.274815,69.580352,68.015263,10.869622,309.549653,-64.880951,298.024494
9,0.645012,-6.627203,0.061684,0.218127,-8.163277,-18.589051,-27.588994,-38.229859,-42.009259,-24.160309,-0.530411,15.450508,-45.480721,-20.765866,5.388565,25.860305,-44.313446,-23.918255,0.944412,18.927223,-39.89922,-42.579598,-39.858353,-36.102414,15.167013,26.322422,38.357899,46.950938,25.760506,42.714193,47.461182,49.691878,25.494485,41.788455,46.461109,46.8871,23.162246,38.987568,43.213741,45.308291,20.707247,34.656382,43.134034,51.413023,23.371582,47.101158,66.389511,79.778938,44.472233,76.532616,94.196915,106.856529,34.083344,69.421028,89.384972,102.184548,24.455887,57.481293,76.77562,89.567207,16.484837,41.600899,57.34742,69.952881,-13.602035,-11.766924,-0.532511,11.205539,12.717609,28.850089,35.365239,39.011971,29.461467,45.240933,50.35031,52.230561,41.54627,58.940003,63.031066,62.898673,48.937696,66.136865,69.473227,67.896011,11.516762,302.925671,-64.817139,298.245842
10,-3.784516,-0.88161,0.001705,0.103815,-7.023537,-16.116474,-23.662891,-33.627548,-38.482784,-19.082508,4.035462,19.386772,-42.339374,-15.789837,9.926125,29.867706,-41.559105,-19.454899,5.16053,22.745705,-37.488613,-37.810398,-33.533867,-28.739788,15.263318,26.996749,39.250327,47.616582,27.100502,44.167019,48.768956,50.703856,26.502844,42.803063,47.488561,47.774379,23.763719,39.715987,44.03449,46.007848,20.76155,34.924094,43.060056,50.688307,23.31934,46.958679,66.204083,79.738255,44.429718,76.478932,94.157765,106.816052,34.066784,69.350132,89.359234,102.257527,24.425949,57.314106,76.621937,89.460263,16.405243,41.369854,57.115116,69.764477,-13.642914,-11.789562,-0.610156,10.995426,12.53027,28.823116,35.381986,39.022691,29.237671,45.04674,50.307702,52.329374,41.298688,58.73425,62.909208,62.844703,48.694386,65.966742,69.340513,67.739399,7.727583,302.020401,-64.820097,298.325997
11,0.73011,-5.661241,0.021595,0.056427,-9.533134,-21.148372,-31.256916,-44.357826,-42.668312,-24.491386,-0.159301,16.411217,-45.595653,-18.449718,8.260781,29.088066,-43.706211,-19.274711,7.000512,25.34832,-38.538768,-35.101753,-26.746833,-18.284431,24.924677,41.00362,53.687932,61.865663,35.904271,54.748026,59.549121,60.979507,29.860572,49.147276,54.736207,54.49238,22.302322,41.405714,47.115774,49.398341,15.077425,31.142474,40.094604,48.123306,23.252884,46.884018,66.173264,79.639321,44.268448,76.424218,94.144936,106.834076,33.940796,69.259644,89.342469,102.310822,24.348336,57.183495,76.52282,89.366844,16.386635,41.254338,57.031494,69.748444,-13.707097,-11.87248,-0.69216,10.944433,12.374968,28.701258,35.294893,38.970624,29.098536,44.895699,50.259636,52.380714,41.178534,58.623668,62.846383,62.794155,48.607714,65.900522,69.31427,67.69899,8.443445,296.320717,-64.81275,298.343981
12,-7.817814,2.826415,0.001866,0.117783,-5.360721,-11.255641,-15.174682,-22.482513,-32.239013,-10.976921,12.335347,27.601147,-36.707096,-8.00909,17.836956,37.58598,-36.671299,-11.944404,12.621495,29.914364,-33.209587,-29.218723,-22.219608,-15.417961,14.554436,26.921031,40.055306,49.300022,27.370364,45.261978,51.335476,53.994511,27.507067,45.220432,51.279901,51.357003,25.507057,42.471007,47.900548,49.425894,22.861065,37.52002,45.233585,51.422804,23.316055,46.950416,66.289432,79.731823,44.119457,76.423725,94.174289,106.837314,33.742561,69.149746,89.302539,102.262722,24.176742,57.044323,76.396831,89.180523,16.280525,41.093021,56.890194,69.596454,-13.773281,-12.006281,-0.834013,10.814819,12.066105,28.524047,35.167033,38.915715,28.823092,44.698715,50.145633,52.334055,40.937658,58.42635,62.653191,62.588353,48.392625,65.67722,69.085188,67.42115,0.604465,299.095815,-64.83205,298.410447
13,-3.916694,-1.74356,0.034309,-0.032839,-4.590695,-9.553379,-13.512474,-22.195107,-28.64407,-6.130234,17.226528,32.475117,-33.212368,-3.0462,23.097576,42.602749,-33.250248,-6.78772,18.130108,35.452022,-29.724232,-22.627751,-13.676548,-4.972538,17.175272,31.315314,44.653032,54.549684,28.130832,46.223654,52.861131,56.048638,27.672595,46.021952,53.077814,53.644954,25.545824,43.99502,50.449272,52.580995,22.971511,39.246635,46.852359,52.872321,23.289585,46.885826,66.224041,79.618687,43.819531,76.201664,93.975071,106.682453,33.542553,69.034481,89.269741,102.309391,24.137947,57.019901,76.394497,89.197781,16.407372,41.101868,56.953846,69.768299,-13.698859,-12.014851,-0.833803,10.823662,12.013098,28.370313,35.074667,38.967968,28.796366,44.532273,50.116067,52.501905,40.939214,58.26391,62.530024,62.549944,48.433108,65.602255,69.021054,67.37112,-3.331192,297.296935,-64.816704,298.322288
14,1.87912,0.551308,0.13028,-0.064714,-5.602032,-11.567597,-16.188824,-25.347885,-30.542279,-9.065872,13.941593,29.219982,-34.393925,-5.203389,20.67715,40.214092,-33.594189,-7.552346,17.22813,34.781925,-29.272579,-20.178006,-8.94532,1.7612,18.207776,32.584148,45.213602,54.739517,28.868787,46.51414,53.195584,56.520918,27.042741,45.262051,52.748795,54.042466,23.572651,42.003161,48.906684,51.573746,19.680449,35.61313,42.691789,48.201099,23.254451,46.755054,66.032741,79.401889,43.492527,75.970035,93.791095,106.562748,33.350418,68.908023,89.220279,102.290233,24.129741,57.020404,76.454303,89.299747,16.601703,41.215232,57.121227,70.061817,-13.687127,-12.042689,-0.762791,10.918201,12.010961,28.206909,34.93043,38.932597,28.813915,44.378909,50.003717,52.531112,41.016118,58.152685,62.480857,62.602234,48.582581,65.695139,69.167328,67.588765,-1.465936,297.777101,-64.700288,298.186432
15,-2.217797,3.040541,0.153774,-0.048956,-4.306652,-8.796363,-12.132614,-19.646839,-27.355808,-3.668323,18.589039,33.368351,-31.150623,-1.260257,23.908322,42.833393,-30.38578,-4.996193,18.630009,35.769619,-26.09832,-19.008705,-10.692901,-2.468021,13.357985,26.090833,38.727314,49.274321,24.933766,41.389646,48.167544,52.326163,25.490594,41.589236,48.658386,50.61244,24.160342,40.406555,46.790942,49.590311,22.103016,36.78761,43.715315,49.295378,23.253868,46.633346,65.809296,79.254982,43.163349,75.722488,93.606079,106.420006,33.114349,68.782127,89.149475,102.170563,24.063183,56.981872,76.447082,89.276504,16.718696,41.248661,57.150329,70.113762,-13.643976,-12.009418,-0.60981,11.006566,12.015716,28.034206,34.844819,38.999448,28.848916,44.300586,49.968557,52.616884,41.108583,58.064407,62.434335,62.675297,48.729609,65.762942,69.279726,67.830741,-3.693964,300.748281,-64.556745,298.068115
16,5.77089,1.544661,0.168686,-0.048276,-6.251026,-13.046334,-18.3494,-26.957486,-32.351292,-10.985195,11.449573,26.782116,-35.164547,-7.9819,17.215084,36.583316,-33.552441,-10.337517,13.113796,30.677639,-28.562989,-22.525257,-13.992897,-5.409245,13.370163,25.594002,37.519958,48.129,23.290008,39.227839,46.385453,50.825999,23.641146,39.532503,46.975787,49.079932,22.239584,38.312537,45.106281,47.998015,20.375957,34.697335,41.526016,46.951926,23.289093,46.571159,65.582405,78.994858,42.95121,75.536316,93.451767,106.262718,32.979698,68.706688,89.07399,102.005996,24.058056,56.976471,76.442482,89.252472,16.848209,41.306545,57.182922,70.142944,-13.584572,-11.944469,-0.386471,11.287246,12.116233,27.965217,34.812177,39.04113,28.915025,44.283604,49.949093,52.628221,41.164393,57.983612,62.373165,62.682127,48.77707,65.761867,69.328484,68.000937,2.077303,302.224674,-64.387682,297.951571
17,10.039249,-0.062219,0.127727,-0.06616,-11.167557,-24.083759,-35.780754,-49.95314,-43.962467,-25.899033,-3.488708,12.582047,-44.527176,-20.049751,4.968727,25.156632,-40.589516,-19.236877,5.131691,23.726463,-33.676632,-29.845974,-22.360371,-13.953403,21.801995,36.602087,47.82562,57.710428,29.032685,44.986299,51.032689,54.91826,23.913131,39.679197,46.680125,49.49729,17.639709,34.339713,41.233343,45.356134,11.673409,26.737014,34.860429,42.389645,23.21188,46.388237,65.317051,78.697621,42.712921,75.348255,93.278561,106.108967,32.905484,68.723522,89.098446,102.006604,24.148487,57.109143,76.588955,89.411122,17.089566,41.508225,57.402706,70.441899,-13.499998,-11.924696,-0.337849,11.342538,12.338733,27.886202,34.68207,38.936031,29.116011,44.227967,49.825518,52.547464,41.353844,57.921343,62.312143,62.701653,48.94497,65.829163,69.469276,68.280951,12.121262,302.088033,-64.255245,297.810989
18,8.295021,1.619268,0.059876,0.099233,-14.695015,-32.54163,-48.437153,-65.037941,-53.533493,-38.243523,-16.281074,-0.327507,-51.859817,-29.694351,-5.301315,15.248291,-45.791748,-25.748062,-1.514786,17.100014,-37.252487,-35.347309,-28.616295,-20.936588,26.947213,43.640968,54.323826,63.226976,34.264032,49.594757,54.244316,57.225305,24.165802,39.355996,45.72828,48.785778,13.121247,29.337374,35.927798,40.409729,2.756329,16.891332,25.664213,34.176025,23.274856,46.41093,65.308971,78.649074,42.641029,75.345783,93.28284,106.087726,32.822799,68.695667,89.060177,101.852703,24.091301,57.084926,76.564464,89.3279,17.075569,41.477485,57.368603,70.422374,-13.527984,-12.012579,-0.39214,11.350269,12.227434,27.698938,34.514603,38.815235,29.060374,44.167797,49.736993,52.456703,41.336109,57.894371,62.285554,62.709408,48.92416,65.818282,69.519392,68.445132,20.411505,303.627621,-64.200147,297.830542
19,3.649017,0.816625,0.103328,-0.022662,-16.01612,-35.132892,-52.089328,-69.283813,-57.09066,-43.248664,-20.937789,-4.489883,-54.592071,-34.397644,-9.844413,10.972893,-47.792781,-29.533721,-5.32022,13.438797,-38.564769,-38.586696,-32.725021,-25.569294,26.781685,43.293201,53.781324,62.771949,33.035668,47.983824,52.953152,56.336803,23.131593,38.119764,44.696245,47.903413,12.342536,28.214801,35.109345,39.757126,2.309428,15.872795,24.767596,33.600239,23.310986,46.376667,65.249749,78.417504,42.615612,75.234742,93.156922,105.933999,32.743927,68.563225,88.889077,101.61271,23.943398,56.852921,76.261689,88.924004,16.854172,41.153527,57.013436,70.024178,-13.408855,-11.978036,-0.415358,11.391963,12.202733,27.677115,34.569288,38.922124,29.034463,44.218494,49.865643,52.606757,41.320424,57.962691,62.376141,62.804812,48.917491,65.815676,69.561419,68.522444,24.052608,304.366895,-64.104733,297.730529
20,7.144822,-0.238369,0.049519,0.012461,-18.780167,-41.095757,-60.883084,-80.307358,-64.65889,-54.419175,-32.186554,-15.275803,-60.865002,-43.934601,-19.437905,2.216262,-52.791607,-36.106888,-11.520104,7.820984,-42.473385,-41.608921,-33.369347,-23.97741,31.728646,49.316188,58.744698,66.776426,36.077592,50.536438,55.410781,58.891664,22.633675,37.849532,45.081913,49.017119,8.483753,24.747626,32.705328,38.334915,-4.695674,8.398587,17.36618,26.463226,23.322098,46.317936,65.185604,78.294903,42.652359,75.117497,92.999645,105.765507,32.778442,68.466076,88.779133,101.505993,23.905438,56.71471,76.057743,88.637959,16.710514,40.928215,56.747395,69.706707,-13.345203,-11.985088,-0.464487,11.341278,12.11464,27.604213,34.508884,38.866179,28.976862,44.196462,49.864359,52.5826,41.294711,58.019539,62.429469,62.827994,48.922171,65.874957,69.649871,68.586714,31.18376,304.044341,-64.068884,297.658805
21,-4.87191,2.458506,-0.100044,-0.07431,-17.10418,-37.088929,-54.544819,-71.798253,-59.798573,-46.232106,-25.34919,-10.015137,-55.880402,-36.048569,-12.633179,7.881614,-47.844155,-29.180489,-5.707375,12.461631,-37.525189,-35.806218,-28.758866,-20.743081,28.993931,45.831181,55.584658,64.065843,34.952475,48.28245,52.27307,55.891805,22.06756,35.45295,41.849341,46.351823,8.176953,22.748086,29.847963,35.592987,-5.130817,7.104978,15.667253,24.68926,23.327762,46.314789,65.237697,78.36256,42.672283,74.999805,92.85767,105.677685,32.757007,68.37727,88.718136,101.557239,23.810486,56.571544,75.906795,88.532581,16.536827,40.714474,56.527256,69.492222,-13.316329,-11.988077,-0.527534,11.27954,12.014827,27.572015,34.500881,38.892225,28.904503,44.204538,49.925097,52.704952,41.242025,58.108212,62.555588,63.000104,48.873882,65.896161,69.725712,68.703286,26.293671,306.420052,-64.187107,297.5017
22,0.778999,-1.710499,-0.036038,0.01356,-17.730217,-38.441963,-56.437294,-74.389321,-61.081467,-49.008991,-27.133782,-10.819611,-56.961731,-38.12106,-13.819817,7.308266,-48.66037,-29.997917,-5.915039,12.658974,-38.032105,-34.267639,-23.805382,-13.034523,30.979602,48.872969,58.536242,66.552236,36.925623,50.496165,54.702937,58.045227,22.849789,37.430902,44.398559,48.430873,7.823963,23.434603,31.327071,36.978098,-6.320401,6.009254,14.328788,22.867796,23.355984,46.351937,65.264672,78.366097,42.641133,74.88897,92.749306,105.623085,32.686982,68.307381,88.704644,101.607148,23.721051,56.494217,75.835923,88.470795,16.432915,40.61419,56.413079,69.353463,-13.322059,-11.984619,-0.470279,11.336523,11.880211,27.484886,34.452988,38.8974,28.847816,44.200982,49.979623,52.829614,41.244397,58.179818,62.631492,63.087963,48.937325,65.983786,69.783906,68.750414,27.043436,304.624387,-64.252379,297.430094
23,2.022766,-2.696665,0.066067,-0.057835,-18.786758,-40.443512,-59.423138,-78.138405,-64.084888,-52.683769,-30.216934,-13.143265,-59.730709,-41.656734,-16.977654,4.783699,-51.196426,-32.846626,-8.322762,10.827095,-40.297646,-35.333199,-22.840256,-10.177391,33.304492,52.015793,61.900182,70.064685,39.383413,53.384936,57.985551,61.698937,24.297244,39.590943,47.116837,51.297834,8.240321,24.367009,33.111374,39.170337,-6.861421,5.61536,14.184996,22.836846,23.30238,46.306744,65.202816,78.182842,42.565109,74.745586,92.590244,105.500851,32.604744,68.207577,88.61182,101.532292,23.607079,56.348225,75.67812,88.286945,16.281292,40.433842,56.200047,69.077992,-13.349489,-12.005787,-0.409381,11.524565,11.987434,27.614401,34.525384,38.943218,28.951408,44.336697,50.063788,52.897761,41.328303,58.32319,62.739987,63.172239,48.99679,66.046116,69.818794,68.752192,29.042839,301.843458,-64.209675,297.287995
24,-5.621658,2.628332,0.088429,0.115917,-15.859566,-34.755616,-51.426007,-67.93602,-57.970505,-43.245129,-22.052605,-6.406449,-54.260937,-32.984173,-9.129456,11.594925,-46.41568,-25.723984,-2.090081,16.147476,-36.192959,-30.72329,-19.760468,-8.775055,30.712605,48.389266,58.317077,66.969384,37.907393,51.243259,55.23215,59.03295,23.616297,37.386269,44.115063,48.630265,8.094096,22.905649,30.798512,36.768814,-6.74843,5.31618,13.55408,21.97423,23.220428,46.267376,65.145927,78.189949,42.559902,74.806617,92.60289,105.429748,32.579784,68.278198,88.673675,101.548851,23.582656,56.378677,75.702255,88.273658,16.260898,40.444736,56.177078,68.990547,-13.508828,-12.129472,-0.468092,11.493382,12.0027,27.625529,34.434463,38.781038,29.002539,44.382467,50.003446,52.797825,41.349694,58.309655,62.654043,63.085296,48.941586,65.934657,69.653959,68.573882,23.398413,304.386281,-64.144014,297.318403
25,-1.187371,-2.162857,0.04113,0.015253,-15.44252,-34.113327,-50.68436,-67.765674,-57.070163,-43.039226,-20.918174,-4.587501,-54.072395,-32.678375,-8.006034,13.190232,-46.672165,-25.330284,-0.870987,17.872948,-36.71791,-29.776703,-17.423172,-5.139907,31.696252,50.04446,60.434511,68.805816,38.568826,53.120434,57.454139,60.906679,24.264219,39.831868,47.036894,51.056562,8.992033,25.452149,33.476528,39.049688,-5.219454,8.069568,16.355844,24.593423,23.192173,46.350895,65.170555,78.21746,42.599579,74.960197,92.759857,105.492576,32.506027,68.363228,88.738586,101.543678,23.452606,56.417587,75.773735,88.319709,16.113212,40.52972,56.303581,69.07061,-13.640456,-12.171093,-0.415272,11.613659,12.028363,27.720797,34.498559,38.785026,29.0191,44.419578,50.013597,52.874692,41.34568,58.297069,62.642014,63.188233,48.922171,65.801412,69.44907,68.406205,22.189207,302.136958,-64.124719,297.24719
26,-0.48793,-1.842842,0.037811,0.010213,-14.762352,-33.410156,-50.137745,-67.178844,-56.733112,-42.172588,-19.618584,-2.876038,-54.235886,-32.708588,-7.53907,13.866692,-47.266788,-26.056778,-0.932098,18.179672,-37.725735,-32.79451,-22.078537,-11.050232,32.618,51.441254,62.171759,70.685783,40.009166,55.01853,59.704225,63.368791,25.437489,41.577256,48.874611,52.855635,9.896281,26.85455,35.09886,40.86657,-4.571161,8.966159,17.725357,26.296758,23.180317,46.420944,65.210014,78.222839,42.571403,75.141083,92.96775,105.579552,32.409176,68.425919,88.815605,101.540314,23.325211,56.428848,75.796783,88.263771,15.982876,40.585384,56.38298,69.071571,-13.72083,-12.191272,-0.394461,11.668086,12.127472,27.84399,34.561595,38.785459,29.104674,44.48848,50.024639,52.916028,41.391536,58.327933,62.642002,63.227112,48.932756,65.752247,69.304081,68.22351,21.6826,300.213392,-64.105585,297.176679
27,-2.344437,-1.085746,0.026024,-0.04756,-13.47203,-31.173317,-47.188144,-63.995395,-54.546295,-39.033096,-16.62696,-0.280654,-52.80661,-30.067325,-4.935722,16.257019,-46.383453,-24.024765,1.165741,20.117043,-37.210098,-31.124153,-20.152656,-9.060196,32.838042,52.030984,63.010763,71.598121,40.852986,56.183144,60.881251,64.541889,26.238368,42.597127,50.02123,54.176897,10.696147,27.902517,36.05619,41.870485,-3.757846,10.080224,18.817833,27.301611,23.221126,46.552494,65.30825,78.237625,42.387394,75.207596,93.062805,105.562866,32.124676,68.353981,88.850487,101.612457,23.048332,56.260643,75.676781,88.167915,15.767647,40.480167,56.291405,68.864158,-13.783025,-12.175526,-0.309505,11.77773,12.37771,28.179665,34.793418,38.958421,29.338905,44.70426,50.205543,53.197041,41.557867,58.467353,62.722981,63.417253,49.001484,65.698116,69.105454,67.989933,19.336355,299.060422,-64.081369,297.061895
28,-5.403328,1.435586,-0.154129,0.089143,-9.844642,-23.240638,-35.00378,-48.18259,-46.791435,-29.068759,-6.856246,8.900895,-47.325336,-23.129688,2.223771,23.075913,-43.117069,-20.907989,4.223855,23.059411,-35.873348,-32.788249,-25.402874,-17.571647,24.343482,40.157405,51.626235,60.386086,34.368378,50.173001,55.439002,59.342171,25.356782,41.375654,48.06993,51.708079,14.918727,31.483905,38.147034,42.918439,5.106661,18.818006,27.415627,35.819253,23.378025,46.817573,65.627266,78.643158,42.332062,75.344375,93.120849,105.468246,32.074333,68.475563,89.051124,101.914467,23.064789,56.411407,75.925781,88.605285,15.896324,40.869598,56.676407,69.227806,-13.902512,-12.314946,-0.454841,11.705914,12.228101,28.119767,34.674993,38.839231,29.216182,44.629653,49.996604,52.904727,41.447494,58.380951,62.640384,63.42044,48.872746,65.513136,68.828491,67.713143,13.933244,300.422908,-64.235281,297.077938
29,0.497361,-4.384538,-0.070988,-0.178903,-10.537812,-24.499489,-36.777386,-51.396824,-47.628983,-31.85606,-8.710465,7.817299,-48.781391,-25.927025,0.293884,21.783096,-45.07029,-23.499367,2.815979,22.246444,-38.259522,-33.8386,-24.226559,-14.614289,26.786538,43.981681,56.177647,64.725633,37.059831,54.199806,60.045014,63.640876,27.550205,45.488218,52.994932,56.183834,16.823776,35.12829,42.356361,46.980998,6.973622,21.714433,30.53238,38.835612,23.525791,47.055657,65.843182,78.804714,42.17387,75.301701,93.145924,105.48341,31.81596,68.390865,89.083706,102.024021,22.797432,56.3577,75.932591,88.640659,15.676724,40.85685,56.71059,69.185612,-13.799143,-12.154371,-0.24226,11.918385,12.197139,28.248961,34.83521,39.001054,29.205932,44.712621,50.121525,53.119581,41.493337,58.523249,62.762155,63.604789,48.98139,65.633907,68.832159,67.640314,14.431738,295.973171,-64.305136,296.833836
30,-7.026352,2.037726,0.052082,-0.039854,-6.793236,-16.42392,-24.339421,-34.79781,-39.562752,-19.653202,2.651115,18.040672,-41.72596,-16.328167,9.12799,29.411545,-39.267231,-17.279892,7.565941,25.94973,-33.503529,-31.292999,-25.591564,-19.602024,20.286394,35.164427,47.742307,57.263084,31.858718,48.507641,54.792215,59.079818,26.383259,42.90247,50.104791,53.644992,19.440808,36.310725,43.188794,47.815024,12.840455,27.039864,36.151903,44.873642,23.606175,47.166275,65.927834,78.751167,41.985981,75.208695,92.946373,105.153465,31.596966,68.32132,88.991776,101.840607,22.613915,56.286438,75.816033,88.446945,15.57898,40.788632,56.619232,69.031265,-13.804082,-12.189371,-0.278087,12.028671,12.191507,28.262707,34.835606,39.013083,29.234411,44.864391,50.14399,52.995636,41.497154,58.655543,62.811161,63.592303,48.897484,65.586199,68.780993,67.576057,7.407349,297.961178,-64.251091,296.744263
31,-2.467301,-2.219915,0.090603,-0.063442,-6.329498,-15.218753,-22.683002,-33.870655,-36.911968,-18.840076,3.902916,19.567315,-40.103725,-15.18584,10.715927,31.129921,-38.733673,-16.669944,8.714585,27.314255,-34.105156,-29.758312,-21.328045,-13.207019,20.600988,36.132636,49.281979,58.429994,31.643085,49.498748,56.455784,60.447145,26.938815,44.787587,52.765616,55.845393,20.963178,38.97728,46.320047,50.691939,15.47973,30.569814,39.561736,47.893311,23.583332,47.179859,65.875454,78.677959,42.195522,75.165928,92.686192,104.746525,31.737751,68.345753,88.84647,101.572666,22.636391,56.262234,75.661228,88.194386,15.444008,40.661957,56.394001,68.643505,-13.933709,-12.257223,-0.214274,12.046307,12.039687,28.189878,34.815549,39.015997,29.160224,44.856092,50.127107,52.964217,41.461042,58.624346,62.728896,63.536443,48.846947,65.469701,68.591085,67.399673,4.941335,295.691857,-64.159201,296.631415
32,-4.791435,-0.196267,-0.010563,-0.131171,-4.849136,-11.812912,-17.65266,-27.618816,-31.67395,-12.867279,9.669548,24.834091,-35.523388,-9.750355,16.107308,36.062256,-35.270073,-12.781139,12.539841,30.718186,-31.957809,-27.753696,-19.640659,-12.207058,18.493421,33.778266,47.750914,57.30579,30.140549,48.117403,55.317452,59.358399,26.89843,44.614747,52.517243,55.292369,22.259504,40.06589,47.280598,51.423384,17.956736,33.0526,41.951735,50.027528,23.555924,47.159603,65.779083,78.681084,42.737492,75.376373,92.636032,104.501381,32.245754,68.560776,88.749436,101.30294,22.917904,56.373505,75.570397,87.951737,15.410603,40.604427,56.279366,68.526375,-14.080958,-12.362901,-0.201862,11.961858,11.703111,27.82465,34.539686,38.791436,28.876444,44.592752,49.969706,52.82113,41.202617,58.341246,62.498222,63.321009,48.600193,65.193652,68.39735,67.311778,0.152075,295.45112,-64.167589,296.455774
33,2.175591,-4.277649,0.082008,-0.318051,-7.98935,-18.172383,-27.313099,-41.076668,-36.571633,-21.03566,2.231575,18.379097,-39.002552,-14.998536,11.12828,31.576927,-37.275959,-14.286267,11.888878,30.595802,-32.812031,-24.006546,-10.946846,0.802036,27.539078,46.848482,60.903295,69.960759,37.262669,55.944601,63.407065,67.08214,28.749695,48.397268,57.824753,60.811645,19.6124,39.296678,48.366998,53.34055,11.445797,27.797467,36.940603,44.76832,23.379479,46.923764,65.397217,78.40091,43.200886,75.622101,92.822846,104.630654,32.545945,68.629647,88.60714,101.015076,22.903954,56.18509,75.17759,87.289284,15.000824,39.999642,55.665596,67.867241,-14.112094,-12.283392,-0.017068,11.792377,11.720191,27.816584,34.589407,38.844837,28.883174,44.531705,50.152042,53.226706,41.157897,58.222104,62.382526,63.222159,48.521868,65.080167,68.32378,67.290696,2.328707,291.131573,-64.08454,296.095825
34,-6.106911,3.447131,-0.051555,-0.105853,-4.658352,-10.144993,-14.173622,-22.581905,-29.002991,-9.924797,12.642128,27.554214,-32.406006,-6.623188,18.75396,38.25666,-31.796207,-8.748516,15.891724,33.66893,-28.083733,-21.520809,-12.005447,-3.55434,17.310332,32.724495,46.894917,56.960469,27.939048,45.395062,53.852843,58.916228,25.493744,43.624035,53.28138,56.739983,21.762969,39.668612,48.437653,53.140848,18.105653,33.21299,42.231514,49.902014,23.191646,46.737774,65.114445,78.209049,43.639068,75.899723,92.914341,104.590885,32.933784,68.813907,88.529262,100.777187,23.097874,56.214008,75.011158,86.94405,14.929264,39.853969,55.465816,67.629284,-14.327726,-12.519908,-0.160724,11.491122,11.657712,27.597828,34.332958,38.565294,28.863341,44.347639,49.973559,53.020386,41.101309,57.982945,62.122076,62.931957,48.421808,64.839205,68.110544,67.140198,-3.777946,294.540104,-64.135837,295.951372
35,4.501236,-2.404673,-0.256085,-0.385755,-7.840679,-16.502415,-23.847851,-35.601643,-34.931946,-19.584194,3.760391,19.741951,-37.612919,-13.888126,12.26374,32.646194,-36.117565,-13.309605,12.795616,31.406113,-31.84219,-23.583286,-10.687821,0.877602,22.761387,40.418313,54.780396,64.283328,32.837153,50.865927,58.821035,63.114812,27.070344,46.306832,55.95132,58.962233,20.165412,38.931202,47.78799,52.482972,13.627365,28.965303,37.688969,45.047482,23.095997,46.683106,65.105347,78.439179,43.961873,76.144226,93.145272,104.846466,33.151143,68.910668,88.529252,100.799515,23.154259,56.19001,74.949921,86.947129,14.798298,39.709397,55.275765,67.380753,-14.463737,-12.614436,-0.236096,11.240428,11.522257,27.511501,34.212149,38.473187,28.773815,44.23676,49.975486,53.161943,41.066087,57.898014,62.077504,62.993769,48.402159,64.845528,68.043409,67.07499,0.723879,292.098143,-64.391333,295.528329
36,-1.976486,3.448267,-0.444751,-0.563163,-5.744122,-11.669014,-16.171143,-24.578728,-31.780175,-13.467465,8.955162,23.981186,-34.884316,-9.985051,15.487083,35.636741,-33.699818,-11.022229,14.057739,32.450042,-29.332318,-23.902829,-15.268112,-7.469193,15.621829,30.529663,44.643757,54.922693,26.781808,43.403735,51.296154,56.367703,24.844537,42.075372,51.339441,54.921125,21.483524,38.617744,46.849383,51.591148,18.056018,32.408283,41.617369,50.058811,23.126381,46.667267,65.14191,78.768482,43.724361,76.294544,93.48904,105.305797,32.914112,68.994564,88.853267,101.379856,22.973053,56.233005,75.120701,87.267551,14.706813,39.595447,55.110157,67.152088,-14.532157,-12.779989,-0.44485,10.880212,11.223137,27.335437,33.982672,38.341757,28.551661,44.144887,49.96726,53.265732,41.024787,57.897383,62.20524,63.297543,48.535984,65.114043,68.36314,67.354817,-1.269527,295.509135,-64.853004,294.927891
37,3.364128,0.072767,-0.699246,-1.050313,-5.728008,-12.455761,-17.598267,-25.865341,-34.83934,-16.6073,5.178932,20.316444,-37.601315,-13.527924,10.966186,30.985222,-35.625721,-13.818787,10.618538,29.03714,-30.326729,-25.776741,-18.004669,-10.387779,16.559558,31.664413,45.706555,56.432713,27.016867,42.924773,50.734756,56.115563,24.181868,40.416607,50.042632,54.648719,20.06708,36.015767,44.495926,49.875943,15.825667,28.877456,38.232705,47.173288,23.371594,46.869999,65.392319,79.127518,43.593407,76.166542,93.486672,105.599419,33.013035,69.066216,89.301796,102.524368,23.260987,56.49955,75.660851,88.342484,15.033108,39.738201,55.134567,67.208588,-14.537307,-12.962066,-0.776141,10.449973,10.442316,26.738274,33.609551,38.302644,27.848633,43.573375,49.814144,53.580314,40.606947,57.292687,62.092274,63.729216,48.463736,64.90634,68.399054,67.693062,2.060829,295.540109,-65.586022,293.835785
38,4.646072,0.035,-0.743385,-2.502609,-6.636303,-14.450386,-20.225818,-28.142029,-39.549694,-21.831287,-1.149971,13.4916,-41.738823,-18.929935,5.167374,25.358734,-38.997173,-18.373833,5.62793,23.84198,-32.731544,-29.441345,-22.074577,-14.876289,16.504106,31.683259,45.852336,57.20137,26.81955,41.347347,49.050661,54.739332,23.516434,38.055828,47.705268,52.676954,18.951288,33.405503,42.092711,47.628611,14.32055,26.535671,36.075245,45.089434,23.954395,47.546539,65.980408,80.041969,43.702171,75.743225,92.951088,105.149254,33.142101,68.52507,88.689743,102.272575,23.290043,55.979416,75.124946,88.205681,14.792519,39.203075,54.27824,66.113388,-14.621497,-12.834712,-0.740906,10.283581,8.710748,26.012794,33.943745,39.756237,25.973199,43.143099,50.780168,55.705035,39.015899,56.770229,62.840295,65.558511,47.46627,64.258195,68.555456,68.604338,6.642895,295.56262,-66.393413,291.320687
39,9.672203,-2.420197,-0.002289,-6.093617,-10.119186,-23.317085,-34.455219,-46.642662,-46.504143,-36.582115,-20.528709,-8.169285,-46.623584,-31.5718,-11.186096,6.842926,-41.953514,-27.506561,-6.736244,9.558357,-34.306286,-32.58387,-24.540664,-16.502403,25.439985,44.149384,57.683506,68.139345,34.415407,47.277314,54.19772,59.482135,24.574478,37.52102,46.547992,50.977868,14.12516,27.042432,35.580341,40.765597,4.315848,15.03152,24.012117,32.132926,24.383251,47.399998,65.173348,79.037499,42.869076,73.814118,90.425148,102.246872,32.12241,66.286491,85.934898,99.463738,22.024006,53.443977,72.171387,85.448982,13.118763,36.883564,51.442726,63.011261,-13.506445,-10.559332,1.713253,12.368398,7.866892,26.468413,35.842941,42.953068,24.128183,43.592012,53.30739,59.804558,36.979407,56.843836,64.818679,69.020955,45.928993,63.987976,69.560444,70.66895,16.275278,293.171125,-66.435522,285.255772
40,12.003044,-10.29835,-4.964127,-14.02542,-14.524681,-29.481102,-40.219802,-49.477226,-48.697769,-44.690792,-35.365001,-27.917255,-45.890442,-38.928817,-26.751594,-15.150661,-39.128002,-32.764206,-20.212211,-9.904358,-30.060608,-32.490738,-29.185363,-25.582031,19.212739,37.522119,51.94867,62.996424,34.839656,50.782415,59.360127,65.439085,29.62681,46.360443,57.254105,62.910109,23.077598,39.135249,49.368725,55.234977,16.285782,29.63317,39.486288,47.552041,27.548127,51.181126,68.264191,80.921196,49.200097,79.786263,93.351174,101.528733,38.593209,71.757157,87.377747,96.589486,27.521576,57.962792,73.096848,82.655709,16.682786,40.704655,53.619999,62.779645,-10.688218,-5.649039,7.080105,18.071826,11.536718,34.625469,47.802599,57.759149,26.589456,51.214952,65.120379,74.412322,39.152972,63.09194,74.858987,81.810922,48.610319,69.021362,76.895429,79.811876,28.22969,282.943408,-71.448281,271.300985
41,19.283295,-20.127485,-7.989646,-21.127076,-21.724388,-42.293884,-57.195831,-69.295875,-56.931427,-61.46822,-56.869411,-52.469364,-50.087894,-52.425316,-46.462051,-39.763309,-39.79636,-41.027527,-34.786171,-29.408066,-28.18309,-31.723652,-28.758316,-25.622177,21.229235,41.891726,57.350658,68.433486,40.69651,61.584599,72.256429,78.974479,35.310095,57.665758,70.806838,77.528222,28.551253,49.044437,61.346798,67.816537,21.120505,37.516438,47.465849,54.240808,29.516395,53.527381,70.876831,83.99327,53.148571,80.708919,91.022358,95.926849,41.962268,71.699661,83.854156,89.851799,29.8106,57.369197,69.697551,76.622234,17.434764,39.938301,51.41225,58.712677,-8.686949,-2.206194,10.573955,20.485786,15.059604,41.261156,54.331619,62.759055,29.01621,56.968312,70.513104,78.367287,40.670204,67.073903,78.625873,84.598546,49.611034,71.292567,79.24003,81.948243,47.52705,263.02119,-79.423862,250.379176
42,17.23597,-24.634339,-11.15886,-26.76626,-26.313904,-49.382538,-65.14143,-76.782841,-57.323868,-67.753144,-68.051915,-67.552426,-47.194977,-56.253239,-55.850899,-53.86147,-34.376519,-41.761162,-41.808358,-41.275681,-20.701355,-26.465767,-26.704377,-27.130257,15.402059,35.141023,51.012262,62.049901,37.68551,61.201463,73.908759,82.171471,35.91457,61.552699,76.297043,83.998468,32.49687,55.879627,69.579919,76.665273,28.08011,47.143945,57.747108,64.090394,30.491009,55.363987,73.151539,86.436516,54.777626,79.041275,86.485772,89.499905,42.932019,68.783409,76.293606,78.821251,29.600304,53.557721,61.627488,65.21045,15.86744,35.867215,44.495098,49.146721,-7.519421,-0.417284,11.16424,18.345443,13.112318,40.041462,52.118768,59.157982,25.198182,54.844901,67.389522,73.816789,35.949855,63.693327,74.363663,79.202116,44.92587,67.169382,74.66582,76.790083,64.876385,239.072948,-90.469357,224.299013
43,17.552078,-27.170317,-10.37994,-29.727105,-29.356499,-53.356453,-69.097412,-80.096672,-53.006676,-68.046055,-73.311459,-76.25156,-39.827156,-54.596478,-60.141289,-63.074879,-24.977554,-38.461281,-45.200684,-49.195954,-10.134133,-20.777092,-26.196922,-30.363808,7.643268,23.21256,37.093361,47.171028,25.974211,49.743414,64.089715,73.781998,27.605694,55.517992,71.067721,79.508138,28.36415,53.613856,67.472909,74.532648,28.324679,48.040387,58.438725,64.402085,31.391819,56.110291,73.178879,85.311241,53.725651,74.482968,78.737423,78.866284,40.735188,62.124459,65.627289,64.764439,26.441483,46.12476,50.454598,50.843983,12.178276,28.697171,34.756794,36.769982,-4.517043,1.075668,9.311703,13.626501,8.574959,30.84396,41.772981,47.516312,17.038396,43.655714,55.299976,60.216729,25.602178,50.835076,60.806767,64.6069,33.588877,53.760983,60.85392,62.678422,82.685835,213.48828,-100.591925,196.157557
44,21.810654,-33.767225,-13.70359,-30.267631,-32.507515,-57.358887,-73.214814,-83.112168,-55.942681,-72.525925,-77.228749,-79.087372,-41.964959,-58.888665,-65.150849,-68.273472,-26.877068,-41.697625,-49.072953,-53.237343,-12.000138,-23.477738,-29.537842,-33.805253,0.308604,11.062685,22.305484,30.550399,13.837909,35.877113,50.215972,59.699915,18.137738,44.741502,60.475926,69.439023,21.99662,46.38531,60.545908,68.211938,25.285034,44.492592,54.956724,61.179986,32.28796,57.247147,74.141647,85.240311,51.904919,66.115196,67.992451,66.619068,37.584469,52.162044,52.825447,49.893574,22.458721,36.129181,37.75106,36.073231,7.930138,19.274002,23.024082,23.422863,-3.930809,-1.949325,1.556919,1.983602,-1.633966,13.236108,22.993692,28.146807,4.036155,22.434079,32.545233,36.90107,10.879552,28.287308,37.067871,40.65234,18.120121,31.801135,38.330938,40.669377,104.835017,181.791561,-113.956987,167.960432
45,11.462974,-28.360952,-9.503151,-26.314697,-31.129097,-55.404854,-71.354439,-81.461906,-49.706497,-62.090927,-65.044716,-65.650177,-34.790085,-46.953827,-50.553383,-51.454857,-19.330902,-29.57254,-34.484276,-36.878151,-4.396065,-12.281685,-16.600937,-19.528725,-1.52253,3.122496,8.348347,12.182776,-1.282334,10.671404,22.839922,32.146283,0.465178,15.650692,28.537947,37.201579,3.171995,17.167856,28.562666,35.766895,6.312887,16.928406,25.07977,30.755781,30.18845,53.753471,70.000889,80.882412,41.690781,48.42857,49.51894,49.424229,25.6535,32.459644,33.101955,32.197426,10.379047,16.970112,18.203567,17.937847,-3.041931,1.717632,4.047993,5.01218,-5.63538,-8.938657,-10.83847,-15.621558,-15.951132,-13.971068,-10.526482,-8.942751,-12.491078,-8.393357,-4.781576,-3.555009,-7.16671,-2.532879,0.33192,1.050961,-0.510806,3.468514,6.292113,7.197047,116.917499,155.966461,-122.84063,144.181587
46,9.496147,-25.94467,-7.12619,-20.960289,-30.336433,-53.043503,-67.364937,-75.843498,-41.744156,-50.197059,-52.110534,-51.864464,-25.858154,-33.710953,-36.28363,-36.210937,-10.524078,-16.955612,-20.55439,-21.81102,3.934548,-1.425773,-4.996444,-7.038482,-4.560243,-6.901288,-8.69037,-10.325181,-21.156963,-18.284624,-8.547653,-0.399581,-21.170567,-16.134271,-5.932831,2.126832,-18.758633,-14.100188,-5.008471,2.06741,-14.722799,-11.562227,-4.756999,0.876158,28.951309,51.282051,65.66914,74.812397,34.266357,36.213363,35.81068,35.395843,17.584121,19.134178,18.068847,16.552688,2.46944,3.963878,3.291618,2.29723,-10.23729,-10.445755,-10.464066,-10.499302,-6.966341,-14.866547,-21.582219,-30.611871,-30.086091,-38.521568,-38.922686,-39.10711,-28.752239,-35.203588,-35.399127,-36.389184,-24.167024,-28.96261,-29.522977,-30.724664,-17.028065,-20.774382,-20.43917,-20.666949,127.586855,132.524359,-128.793611,125.723866
47,5.323677,-19.987472,-3.555256,-15.867429,-29.053184,-49.343261,-61.235481,-68.208046,-34.941421,-38.965118,-39.023185,-37.213073,-18.642723,-22.270202,-22.555389,-20.887962,-3.825828,-6.568382,-7.754585,-7.218887,9.589005,6.896942,5.138741,4.915467,-8.087662,-17.650182,-26.037352,-32.986743,-34.889397,-41.201252,-36.857018,-33.076034,-35.336482,-40.459951,-36.599914,-33.55179,-32.651914,-37.578448,-34.377788,-31.826576,-27.84286,-32.539584,-30.000456,-27.732783,28.072849,48.388573,60.333687,68.189449,28.114025,26.24564,24.041782,21.593479,10.736229,7.912582,6.008709,3.632503,-4.163063,-6.935681,-8.318894,-9.755837,-16.216999,-20.350239,-21.505634,-22.100315,-7.359463,-19.274773,-29.900821,-41.418094,-38.871217,-55.087338,-58.727815,-61.277953,-39.142073,-54.397982,-58.143119,-61.803128,-35.404852,-48.253785,-52.048224,-55.500449,-28.332126,-38.760993,-40.906381,-42.692858,134.116481,114.566898,-131.142918,111.886448
48,1.741082,-16.864408,-3.926033,-11.82156,-27.224717,-45.102768,-54.451607,-60.180977,-27.947571,-27.90651,-25.547699,-22.035027,-12.078827,-11.395867,-9.381409,-6.073929,1.613571,2.940261,4.3805,6.419563,13.873558,15.782936,16.598327,17.755142,-10.820111,-25.008948,-37.456386,-48.639386,-42.576983,-55.099374,-55.919018,-56.54815,-42.485889,-56.463465,-58.353732,-59.920852,-39.330295,-52.683266,-54.658655,-55.999318,-34.057402,-45.154723,-46.431815,-47.501239,26.772789,45.84312,56.573868,64.25069,23.802006,18.264187,14.759434,11.678455,6.373489,0.237888,-2.613121,-5.379021,-8.2053,-14.001881,-16.371666,-18.236412,-20.151901,-26.977902,-29.287216,-30.182362,-9.048418,-23.138497,-35.589078,-48.928347,-43.484684,-63.400513,-70.622884,-76.261179,-43.192481,-64.530854,-72.779437,-79.802299,-38.966739,-57.928661,-65.898953,-72.345233,-31.216495,-46.665052,-51.948177,-56.161846,137.207091,98.906842,-133.719423,101.26924
49,-2.914376,-10.370889,-1.199433,-4.904947,-26.220291,-41.832298,-48.406151,-53.887138,-18.261062,-13.149742,-9.775406,-6.025612,-0.789894,5.206101,8.109764,11.708954,13.881706,19.622956,21.998703,24.333161,26.704834,32.751663,34.786766,36.446182,-11.647943,-29.478535,-45.338943,-59.933406,-48.123578,-63.791634,-68.109408,-71.96787,-46.576094,-64.746678,-70.827785,-76.032721,-41.670463,-59.35286,-65.509654,-70.514389,-34.489804,-49.214653,-53.61156,-57.704044,25.538327,43.329014,52.942212,61.095509,20.681798,14.559701,9.825852,6.036049,3.820748,-3.353542,-7.596897,-11.297515,-10.366001,-17.220176,-21.009853,-24.259872,-22.373531,-29.836017,-33.186355,-35.339126,-9.253682,-24.151037,-37.106681,-51.206109,-43.553615,-65.526826,-76.501048,-85.334407,-42.279,-65.877099,-78.710879,-89.824712,-37.300694,-58.434217,-70.996437,-81.573146,-29.007731,-46.419785,-55.240696,-62.853947,135.535726,89.553128,-133.675845,97.381468
50,0.109543,-3.309742,-2.491939,1.285391,-25.697319,-39.812164,-44.97274,-50.545509,-15.310387,-8.557228,-4.248962,-0.174408,2.4356,9.626083,12.981674,16.522636,16.85527,23.408295,25.933731,28.322914,29.118279,35.031143,37.203415,39.022774,-11.856579,-30.358071,-47.067708,-62.934674,-49.050915,-66.308556,-73.384072,-79.173204,-46.46227,-66.180967,-75.390905,-82.823994,-40.712065,-59.617578,-68.770718,-75.731977,-32.929852,-48.809261,-55.466937,-61.191262,24.680592,42.094952,52.283054,61.593681,19.141983,13.560356,9.462032,6.12458,1.975468,-4.857971,-8.419613,-11.519348,-12.016525,-18.19463,-20.958275,-23.659813,-23.115978,-29.769035,-32.708267,-34.983215,-8.124527,-21.485741,-33.587581,-47.039062,-41.694156,-64.008983,-73.656244,-81.597581,-41.022423,-65.105294,-76.73029,-86.835788,-36.562395,-58.205846,-69.125641,-78.657755,-29.064876,-46.547214,-54.440275,-61.378304,136.551264,86.717471,-135.261789,99.140944
51,-0.396801,7.623122,-3.263386,10.826638,-24.449169,-37.800442,-42.759155,-48.147766,-14.540016,-7.54422,-2.469715,2.240238,2.884071,10.562004,15.292534,19.692535,16.990196,24.368706,27.908283,30.882259,28.675415,35.731545,38.874825,41.282272,-11.980799,-29.493898,-45.050204,-60.509469,-42.366911,-60.583727,-70.305258,-77.943818,-38.646041,-58.919165,-71.213409,-81.319006,-32.738935,-51.861691,-64.219187,-73.973427,-25.494633,-41.634962,-50.883411,-58.624241,24.178631,41.45842,52.255131,62.125752,17.550465,12.947113,10.297943,8.466728,0.138233,-5.487865,-7.355861,-8.863758,-13.641666,-18.682983,-19.970867,-21.697861,-24.06974,-29.881737,-32.060646,-33.728233,-6.14763,-17.382241,-27.913626,-39.43821,-37.337362,-57.750326,-64.135436,-69.044365,-37.810704,-61.108875,-68.9133,-74.980055,-34.688492,-55.827035,-63.193871,-69.225843,-28.470355,-45.078505,-50.944177,-55.485814,136.445463,94.704368,-138.234175,110.331357
52,1.206551,15.978562,-2.306019,13.676314,-23.833432,-37.240757,-43.315544,-48.737984,-14.908173,-8.572495,-3.856831,0.888393,2.561622,10.071853,14.9729,19.71373,16.688461,24.60839,28.193104,31.130092,28.068374,36.084114,38.94445,40.774635,-11.794116,-26.775028,-40.107992,-54.444196,-36.581818,-51.700598,-60.554091,-67.525067,-32.246711,-49.38166,-60.796078,-69.890216,-26.402831,-42.23137,-54.254517,-63.518774,-19.883065,-33.220172,-41.919314,-48.739088,23.886097,40.9674,52.552563,63.020863,16.91795,11.264328,8.86567,7.634972,-0.763309,-7.526813,-9.534324,-10.65652,-14.41848,-20.334388,-21.663551,-23.326881,-24.337886,-30.479747,-32.431903,-33.824089,-3.729539,-11.77166,-19.918176,-29.218306,-30.401129,-47.371983,-51.216082,-54.459423,-31.035331,-50.650374,-56.5198,-61.082834,-29.015537,-46.895529,-52.387456,-57.075646,-24.748688,-38.991779,-43.347245,-46.376078,137.730749,111.019241,-140.461459,124.343982
53,1.007515,17.651528,-6.454536,21.976589,-23.497296,-37.555126,-45.113251,-50.484398,-15.343026,-9.32238,-5.261044,-1.203244,1.959411,9.992523,14.822044,19.317512,15.715187,24.577514,28.357738,31.153873,26.333793,35.470779,38.281517,39.752746,-10.486804,-22.686206,-33.782193,-46.967567,-30.429964,-43.041343,-50.326648,-55.609565,-25.638793,-40.541156,-50.454132,-57.646325,-20.179921,-33.325194,-44.227603,-52.224216,-14.570399,-25.573841,-33.182748,-38.658185,23.02478,39.504673,50.804809,60.547565,19.160396,14.018268,11.341347,9.758778,2.034759,-4.355335,-6.886139,-8.451988,-11.449505,-16.766785,-18.419003,-20.299587,-21.305122,-26.322739,-28.071545,-29.530712,-4.64859,-13.040075,-20.671821,-28.495882,-28.016804,-43.766426,-46.354657,-47.897349,-28.523682,-46.735521,-51.587091,-54.202702,-27.141968,-44.10848,-48.653372,-51.746055,-24.048,-37.777476,-41.704654,-43.923204,138.518235,128.88533,-147.136024,146.535132
54,3.273559,19.606626,-6.712692,19.086243,-23.518902,-39.193805,-49.494461,-55.499061,-19.048759,-14.714172,-10.906254,-6.915287,-1.899399,5.175133,10.014794,14.431298,11.958298,20.243294,24.218022,27.070599,22.460083,30.908501,33.739609,35.277993,-10.675124,-21.623697,-31.129871,-43.344084,-26.231739,-37.477656,-44.031057,-48.257487,-21.507659,-34.862532,-44.483589,-50.550499,-16.563828,-28.401401,-38.942168,-45.880343,-11.815497,-21.950264,-29.166198,-33.565721,22.131712,38.615043,50.225252,59.918815,22.188057,18.033302,14.732288,11.986273,5.423761,-0.109143,-3.528443,-6.007611,-7.971131,-12.441737,-14.733553,-16.910803,-17.822972,-21.977984,-23.860176,-25.552843,-5.755286,-14.983916,-22.349666,-28.650357,-26.216001,-40.044234,-41.735436,-42.468055,-27.022023,-43.532867,-47.454839,-48.989031,-26.413164,-42.298266,-45.623458,-47.383981,-24.276532,-37.045714,-40.399947,-42.005007,141.582361,148.374075,-154.058149,165.503494
55,0.320732,15.650908,-4.603936,16.950995,-22.852626,-39.090671,-50.70504,-57.437416,-20.837654,-17.80941,-14.001697,-9.185749,-4.485168,1.733689,7.733254,13.380112,9.067383,17.073807,22.408253,26.537052,19.569329,28.564911,32.398636,34.988388,-11.722911,-22.03787,-29.952563,-41.012734,-23.286992,-31.285529,-37.307179,-42.351548,-17.98373,-27.726698,-37.345316,-45.017144,-12.95314,-21.897545,-32.69977,-41.365629,-8.524595,-16.604766,-23.529133,-28.938676,20.901713,37.217434,48.497309,58.379792,25.166199,20.945584,16.008007,11.402945,9.741423,4.249089,-1.59708,-6.54919,-3.364528,-8.216062,-12.978933,-17.271532,-14.164478,-18.6849,-22.073101,-25.357137,-7.499946,-19.503825,-27.533391,-33.206105,-27.381115,-39.005012,-42.30538,-45.126213,-27.298591,-41.131567,-47.225104,-51.743286,-26.199521,-40.095796,-45.6803,-50.209995,-23.595833,-35.405933,-40.505325,-44.505325,141.792663,163.96716,-158.772515,182.396666
56,-1.231533,7.297469,-2.646469,9.227883,-22.644333,-38.965095,-50.929825,-58.412819,-21.303222,-18.097412,-14.235351,-9.104461,-5.205894,1.103028,7.700798,13.856804,8.086556,16.022461,22.085083,27.174591,18.441307,27.582825,32.082138,35.548416,-12.023361,-22.235397,-29.278797,-39.247562,-21.692191,-28.461271,-34.199379,-40.134464,-15.802523,-23.942105,-33.685887,-42.670776,-10.519084,-18.30344,-29.522971,-39.513045,-6.20478,-13.974192,-21.258913,-27.700408,19.278231,33.704556,42.245344,49.369824,28.107605,22.878651,16.040703,9.290537,14.284235,6.612317,-1.724109,-8.658096,1.178456,-5.981889,-13.19066,-19.141988,-10.603615,-16.151212,-20.719368,-25.018884,-9.81713,-25.439571,-35.54463,-42.183689,-30.532942,-43.897448,-50.228428,-55.592865,-28.923171,-44.642559,-54.075367,-61.49643,-26.892194,-42.656648,-51.607135,-58.833329,-24.049081,-37.84429,-44.926087,-51.086999,140.52099,171.252359,-161.459124,191.612279
57,-1.233307,0.816056,-4.128467,6.595326,-22.905143,-39.492782,-51.374542,-59.063919,-21.506172,-18.315696,-14.360115,-9.029319,-5.690391,0.36866,6.844551,12.902985,7.226532,14.454941,20.921631,26.482705,17.369591,25.377045,30.61734,35.208596,-10.950386,-21.84627,-29.414734,-39.867091,-22.17934,-30.396665,-36.576979,-42.567899,-16.809993,-26.252632,-36.848298,-46.321682,-11.762922,-20.995325,-32.549099,-42.845363,-7.534069,-16.778686,-24.333231,-31.263245,17.883985,30.380779,35.731836,39.391205,30.916958,26.779999,19.349464,11.465704,18.739717,11.341312,2.441082,-5.295147,5.762157,-1.629267,-9.716509,-16.345419,-6.871056,-12.481001,-17.529602,-22.323733,-12.956137,-33.012097,-45.980634,-54.354237,-35.600044,-52.32171,-61.058251,-67.378789,-33.158532,-53.611263,-64.675597,-72.451014,-30.379177,-50.79524,-61.148067,-68.68694,-26.744436,-44.095135,-52.287871,-59.34293,139.400911,172.137103,-165.474363,198.276293
58,-1.079681,-0.533807,-0.463864,-1.881115,-23.030182,-39.661194,-51.517571,-59.254738,-22.257179,-18.586487,-14.173965,-8.288383,-6.349182,-0.746086,5.850677,12.09938,6.75325,13.103783,19.76667,25.725449,17.212074,23.996681,29.74752,35.288177,-10.653169,-22.12873,-30.061571,-40.817319,-21.888447,-31.184057,-38.305325,-45.212182,-16.576256,-26.444688,-38.207006,-49.00961,-11.462766,-21.572877,-33.968729,-45.207162,-7.368319,-17.552629,-25.639265,-33.246854,17.230276,28.646107,32.30654,34.009129,31.890473,28.044274,20.254601,11.666708,20.39094,11.943799,2.616612,-5.27687,7.461754,-1.380815,-10.048845,-16.986528,-5.51374,-12.456121,-17.966068,-22.751535,-13.621325,-34.659339,-48.361039,-57.941115,-37.036767,-53.968557,-64.015707,-71.474237,-33.974885,-55.944304,-67.709765,-76.327001,-30.776306,-52.642183,-63.3614,-71.362913,-26.964552,-45.437268,-53.477209,-60.568799,138.486271,171.717661,-165.773186,196.509543
59,-2.200287,-3.454343,-0.505165,-1.994544,-23.123382,-39.225929,-50.165108,-57.286377,-20.736809,-15.697517,-11.304314,-5.608292,-4.692947,1.765297,8.224938,14.233772,8.134804,14.928566,21.422379,27.141907,18.240944,25.509201,31.432068,37.209732,-9.901432,-20.126571,-27.208528,-37.695539,-19.999452,-28.932588,-35.965465,-42.891299,-14.631069,-23.841649,-35.583342,-46.876016,-9.69768,-19.015792,-31.555078,-43.335013,-6.143203,-15.631215,-23.658732,-31.649606,16.762642,27.619149,29.880078,29.881726,32.865933,29.508477,21.477791,12.320503,21.933426,12.848557,3.361771,-4.468025,8.970635,-0.753158,-9.939159,-17.137401,-4.309147,-12.287395,-18.059074,-22.663765,-14.216019,-35.896836,-49.906337,-60.33542,-37.280836,-54.538273,-65.531767,-73.766931,-33.613528,-57.006684,-69.348992,-78.318789,-30.25622,-53.440091,-64.672639,-72.948701,-26.661284,-46.098548,-54.000241,-60.979261,136.449526,168.425623,-166.114809,194.677304
60,-0.826881,-0.866111,-0.155708,-2.296794,-23.208115,-39.276284,-49.932129,-56.576844,-19.944306,-15.120644,-10.895096,-5.381745,-3.86966,2.578788,8.711242,14.439651,8.74205,15.508529,22.12619,27.744941,18.573829,25.869598,31.941375,37.769851,-9.115707,-18.863319,-25.702078,-36.271118,-19.625516,-28.867416,-35.814017,-42.376918,-14.565243,-24.168457,-35.789094,-46.805232,-9.831209,-19.226325,-31.601823,-43.305638,-6.323292,-15.383893,-23.285735,-31.317549,16.685234,26.627106,26.854637,24.188599,33.685535,30.897606,22.670666,13.072437,23.386997,13.824486,4.255794,-3.326374,10.335377,-0.200329,-9.87735,-17.209969,-3.341755,-12.232613,-18.162575,-22.388569,-15.104015,-36.916731,-51.126538,-62.405275,-36.666753,-53.938825,-65.557887,-74.366688,-32.210053,-56.581557,-69.403876,-78.692045,-28.691008,-52.841384,-64.675993,-73.281246,-25.475034,-45.777804,-53.638656,-60.580094,135.7727,167.748718,-166.120462,192.569716
61,0.187202,0.918648,-0.362137,-2.337328,-23.384674,-39.617088,-50.212074,-56.566475,-20.016495,-15.402351,-11.063438,-5.438438,-4.061508,2.313057,8.276917,13.766327,8.354119,15.122406,21.960777,27.361199,18.006317,25.341637,31.622818,37.498696,-8.657692,-18.150681,-25.056168,-36.32673,-19.829255,-29.02383,-36.061561,-42.088056,-15.101829,-24.911759,-36.730812,-47.53669,-10.584391,-19.961339,-32.094875,-43.611691,-7.102495,-15.571354,-23.049119,-30.977625,16.353058,26.340134,26.301109,23.731499,34.220879,32.821987,25.574764,17.11504,24.002129,15.264954,5.800152,-1.367981,10.985916,0.848099,-9.189789,-16.477398,-2.862167,-11.715362,-17.749409,-21.961269,-16.365859,-38.57542,-53.025227,-64.651372,-36.306611,-52.891636,-63.414838,-71.422323,-31.306038,-55.182304,-67.873619,-77.145271,-27.575128,-51.671411,-63.137258,-71.485234,-24.259933,-44.262868,-51.741201,-58.47491,136.03335,168.842095,-166.409151,190.407117
62,-0.342087,0.718133,0.506447,-1.697765,-23.351074,-39.43103,-49.918464,-56.385109,-19.770904,-14.93177,-10.689445,-5.272132,-3.625694,2.822983,8.751412,14.097817,8.817833,15.707978,22.502449,27.753685,18.438286,26.120819,32.334229,38.02192,-8.613417,-17.853959,-24.490683,-35.671151,-19.637397,-28.812063,-35.812312,-41.775216,-14.719397,-24.482322,-36.038492,-46.775419,-10.065194,-19.294003,-31.182365,-42.70761,-6.397874,-14.531663,-21.926374,-29.920533,16.381153,27.285816,28.186249,27.010059,34.912743,33.299435,25.784752,17.641411,24.267906,15.741703,6.103008,-0.771812,11.016712,1.358482,-9.078175,-16.416859,-3.054108,-11.42767,-17.444492,-21.62225,-17.178446,-39.524574,-53.536595,-64.433029,-35.473253,-52.285247,-61.830737,-68.920327,-30.030967,-53.803875,-65.793551,-74.439523,-26.214619,-50.108694,-61.308878,-69.360366,-23.066163,-42.605636,-49.719234,-56.256454,135.686056,169.695508,-165.907911,188.844632
63,-0.299675,1.194426,1.405094,-1.661124,-23.181244,-39.262161,-49.748863,-56.135833,-19.535064,-14.867775,-10.499427,-5.040756,-3.367241,2.979081,9.014397,14.34684,9.039849,16.038323,22.935196,28.196114,18.660187,26.535576,32.749398,38.34858,-8.414618,-17.758344,-24.500872,-35.665717,-19.645993,-28.523331,-35.428904,-41.464964,-14.8499,-24.321265,-35.692381,-46.354707,-10.326756,-19.391322,-31.008464,-42.471644,-6.679851,-14.736316,-21.969574,-29.824906,16.863201,28.987084,31.553181,32.864502,34.693874,31.687534,24.324623,17.138775,23.457264,14.469898,4.921291,-1.499828,10.01532,0.362194,-10.283398,-17.575687,-4.127769,-12.328342,-18.383709,-22.761646,-17.616602,-39.490006,-52.412156,-62.049975,-34.083917,-51.695555,-60.273805,-66.485767,-28.164412,-52.021424,-63.570505,-71.636974,-24.090478,-47.791052,-59.14108,-67.143785,-21.023347,-40.133717,-47.41099,-54.092903,135.368276,171.036106,-164.520922,187.32968
64,-0.375961,1.067355,2.329376,-3.01153,-23.03096,-38.937927,-49.365509,-55.602928,-19.082725,-14.468422,-9.951507,-4.367523,-2.755051,3.579208,9.791222,15.207413,9.697403,16.790222,23.854546,29.194405,19.281052,27.442177,33.589096,38.972992,-8.399241,-17.750761,-24.441047,-35.538115,-19.46016,-27.998192,-35.136614,-41.535525,-14.641084,-23.76078,-35.062242,-45.839671,-10.196363,-19.056201,-30.49591,-42.017308,-6.629598,-14.521226,-21.688523,-29.531899,17.909169,31.204834,35.985638,40.221531,33.771183,28.652127,21.212208,14.955666,21.650082,11.690518,2.176804,-4.013649,8.225796,-2.136028,-12.731529,-19.822254,-5.656791,-14.011276,-20.065452,-24.609146,-17.607315,-37.646509,-48.48709,-56.284377,-31.876761,-49.665004,-57.264029,-62.862444,-25.759221,-48.895891,-60.037616,-67.90515,-21.243426,-43.655553,-54.824603,-63.092613,-17.966604,-35.95498,-43.340404,-50.28236,134.940748,172.22959,-162.243113,184.444279
65,-0.185028,0.638043,3.921582,-5.108451,-22.816841,-38.630608,-49.181122,-55.471848,-18.194595,-13.536438,-9.179123,-3.916718,-1.887909,4.570244,10.622292,15.841255,10.421379,17.716049,24.632195,29.887688,19.759666,28.027039,34.129761,39.487747,-7.960308,-17.599028,-24.262478,-35.229388,-19.808371,-28.204587,-34.983202,-41.342469,-14.986269,-24.111325,-35.211876,-46.156099,-10.448812,-19.513056,-30.512336,-41.936767,-6.620583,-14.820642,-21.867674,-29.685597,19.417728,33.318901,39.789012,46.538246,31.227436,23.737152,16.040725,10.005409,17.780548,6.586189,-2.818703,-9.298096,4.226268,-7.00779,-17.357415,-24.659214,-9.22482,-17.701024,-23.921242,-29.105782,-16.36712,-33.533043,-42.178409,-49.025437,-27.692269,-44.480625,-51.549855,-57.153928,-21.336002,-42.522285,-53.766732,-62.105125,-16.378667,-36.691576,-47.797338,-56.686039,-12.88326,-29.010517,-36.693021,-44.262276,134.637148,172.982319,-158.440103,179.450514
66,-0.140991,0.331921,4.673252,-5.110946,-22.498947,-38.295799,-49.159516,-55.154389,-17.439491,-13.277001,-9.217072,-4.288376,-1.314926,4.897842,10.867836,16.103119,10.819404,18.128883,25.014473,30.284958,19.91922,28.116325,34.417991,39.960663,-7.114586,-17.118042,-23.868918,-34.793715,-20.120396,-28.995351,-35.506141,-41.664288,-15.561709,-25.231651,-35.984213,-46.830957,-11.049273,-20.848496,-31.287946,-42.334033,-6.930854,-15.744207,-22.634713,-30.238868,21.73534,36.486786,45.162586,53.910244,27.976055,17.650119,8.639282,1.249637,12.925232,0.381179,-9.28085,-16.884945,-0.919178,-12.893326,-23.082997,-30.92807,-13.839604,-22.506249,-29.010086,-34.818009,-14.458723,-27.892303,-33.87514,-39.735618,-23.456561,-38.986592,-46.576353,-52.915348,-17.211791,-35.837197,-47.516306,-56.604849,-11.925153,-29.245699,-40.664635,-50.615114,-8.122513,-22.233717,-30.397023,-38.892015,134.355074,173.427027,-153.907934,174.452355
67,-0.367699,-0.072582,1.223877,-1.990191,-22.36544,-37.973511,-48.934982,-54.66037,-16.733322,-12.60997,-8.51944,-3.686279,-0.657349,5.818085,11.861389,17.12796,11.374077,19.059425,25.940437,31.289955,20.24881,28.584458,35.053276,40.684433,-6.558054,-16.796989,-23.601847,-34.403797,-20.336584,-29.114739,-35.371562,-41.644972,-15.877179,-25.525409,-36.127609,-47.257627,-11.311119,-21.25501,-31.371148,-42.389904,-6.997828,-16.096579,-22.910959,-30.52823,23.533058,40.399692,51.725429,62.136612,27.132316,15.944366,6.729572,-1.156941,10.761245,-1.543064,-11.160462,-19.297188,-3.24448,-14.558934,-24.315743,-32.386814,-15.811592,-23.919423,-30.398278,-36.799473,-11.611029,-23.218698,-28.111146,-34.00731,-22.010317,-35.968738,-43.774768,-50.881283,-16.494029,-32.669006,-44.8024,-55.062416,-11.288803,-26.279382,-37.947456,-48.630252,-7.07162,-19.943876,-28.467965,-37.27345,133.82341,173.472542,-152.848022,172.580261
68,-0.779388,-0.514035,1.362842,-1.271515,-22.250222,-37.361435,-48.046509,-53.62397,-15.468453,-11.373207,-7.468048,-2.962006,0.597702,7.394417,13.392151,18.505211,12.452842,20.41214,27.181938,32.480621,20.972557,29.684303,36.287407,41.86972,-6.046464,-16.385373,-23.239879,-33.961664,-20.434063,-29.20214,-35.200291,-41.27274,-15.948155,-25.837805,-36.21364,-47.274498,-11.224656,-21.27272,-31.029063,-41.788504,-6.635959,-15.7241,-22.366259,-29.930153,24.71085,42.346241,55.097363,66.351586,25.944031,14.676544,4.816715,-4.029877,8.994713,-2.836796,-12.5587,-21.541511,-4.888756,-15.886139,-25.713867,-34.45182,-16.872196,-25.001129,-31.872265,-38.908367,-10.637571,-20.879321,-24.938966,-31.053492,-21.41818,-33.774264,-41.740475,-49.480871,-16.35661,-30.517017,-43.053746,-53.963679,-11.033675,-24.19869,-35.749413,-46.745988,-6.234235,-17.914375,-26.512515,-35.433621,132.852122,173.070226,-151.67708,171.420465
69,1.215957,-1.511452,1.825905,-2.075345,-22.749893,-37.973556,-48.86721,-54.483238,-16.416206,-12.859977,-8.98265,-4.397895,-0.06134,6.279854,12.423134,17.788193,12.025429,20.380921,26.84388,31.776879,20.658463,30.118927,36.336617,41.309899,-6.014404,-15.152588,-21.628922,-32.630153,-19.359878,-26.69952,-32.862952,-39.379634,-15.29596,-23.89105,-34.385038,-45.632159,-10.845682,-19.679029,-29.416588,-40.113513,-6.387265,-15.273718,-21.633751,-28.847545,24.937889,42.00515,54.206131,64.412281,24.234924,13.317123,3.154347,-6.629894,6.983528,-4.188251,-13.884029,-23.390053,-6.872715,-17.434822,-27.315445,-36.705196,-18.423443,-26.406418,-33.645412,-41.407963,-9.124191,-18.374996,-22.53401,-29.552512,-19.685624,-30.392182,-38.680087,-46.930227,-15.008845,-27.210233,-40.194226,-51.753811,-10.004394,-21.902377,-33.549604,-44.686149,-5.177142,-16.159613,-24.837424,-33.834878,133.873878,171.649584,-150.045376,169.43593
70,1.324997,-0.072841,0.280472,-0.147213,-23.418525,-38.711311,-49.489082,-54.982292,-17.679771,-14.159774,-10.068443,-5.04245,-0.973091,5.228211,11.751389,17.530403,11.434136,19.750695,26.219239,31.041092,20.324639,30.206017,36.245453,40.826683,-6.840155,-15.438159,-21.740542,-32.893506,-18.824848,-25.699917,-32.386819,-39.155825,-14.817913,-23.020727,-34.037964,-45.384744,-10.517306,-18.89344,-29.174365,-39.873921,-6.310534,-14.94896,-21.281415,-28.10365,24.505543,41.694649,53.822914,63.272896,23.814686,13.426311,3.288402,-6.772785,6.550793,-3.707714,-13.491486,-23.178852,-7.047077,-16.888813,-26.934483,-36.528191,-18.102528,-25.75082,-33.06554,-40.969322,-8.240642,-17.421187,-21.819446,-28.868157,-19.473882,-29.833427,-38.12568,-46.285139,-15.530191,-26.922426,-39.67238,-50.957737,-11.092622,-22.26526,-33.528164,-44.074838,-6.42492,-17.16407,-25.390374,-33.69289,135.015644,171.639124,-149.948135,169.351098
71,1.33223,0.33281,-0.04398,0.054229,-23.751686,-39.198326,-49.893311,-55.784752,-18.803352,-15.574425,-11.462105,-6.115791,-1.824669,3.899391,10.48867,16.431106,10.857674,18.737663,25.141411,29.803574,20.097656,29.889748,35.715408,40.077095,-7.635859,-15.850121,-22.045305,-33.412308,-18.521024,-25.262761,-32.52167,-39.547162,-14.722966,-22.669453,-34.043002,-45.321184,-10.656491,-18.702002,-29.347316,-40.161702,-6.74827,-15.086811,-21.363086,-28.104823,23.737278,41.326023,53.590817,63.33498,23.841419,13.655285,3.60252,-6.352604,6.681565,-2.908287,-12.652954,-21.928459,-6.4762,-15.807667,-25.848484,-35.251865,-16.936638,-24.495849,-31.767917,-39.597027,-7.303888,-16.711069,-21.282637,-28.014865,-19.250246,-29.589821,-37.432704,-45.182659,-15.86662,-27.054053,-39.406396,-50.30388,-11.959696,-23.181425,-33.913375,-43.753884,-7.645578,-18.423902,-26.195315,-33.763161,136.204731,172.01938,-150.135258,169.452773
72,1.357658,0.669387,0.660382,-0.928479,-23.898033,-39.581955,-50.373665,-56.680687,-19.943985,-16.737304,-12.610107,-7.08538,-3.002449,2.199005,8.703461,14.700074,9.876824,17.156067,23.478974,28.080986,19.469078,28.942337,34.490387,38.774048,-8.398229,-16.492239,-22.510533,-33.768411,-18.581144,-25.615121,-32.954775,-39.660944,-14.683791,-22.906155,-34.35562,-45.220309,-10.700877,-18.891823,-29.963573,-40.695053,-6.972746,-15.226997,-21.519797,-27.99271,23.629394,40.857639,52.878124,62.73516,23.461132,13.253677,3.457775,-6.175667,6.475193,-3.022568,-12.522194,-21.604031,-6.537873,-15.878403,-25.669785,-34.925812,-16.821408,-24.49878,-31.733391,-39.508301,-7.102075,-16.028221,-20.381477,-27.031354,-18.281691,-28.199696,-35.724849,-43.315753,-14.985528,-25.615787,-37.841949,-48.769753,-11.303289,-22.089555,-32.627312,-42.331581,-7.297824,-17.706832,-25.248471,-32.654334,137.457287,172.704692,-149.579978,168.540219
73,1.243676,0.019093,1.713352,-2.060846,-24.063859,-40.096505,-51.178872,-57.7221,-21.329773,-18.281434,-14.012673,-8.172822,-4.332436,0.227096,6.694953,12.773918,8.875465,15.59159,21.828689,26.397514,18.8535,28.031776,33.236434,37.455894,-9.260771,-16.737301,-22.040846,-33.014994,-17.682688,-24.63897,-32.320623,-39.065596,-13.482091,-21.574137,-33.477023,-44.335289,-9.496164,-17.437143,-29.309858,-40.231394,-5.939365,-13.847221,-20.477264,-26.869753,23.722561,40.362327,51.969623,61.474479,22.357223,12.587379,3.281158,-5.87582,5.364143,-3.893441,-13.113579,-21.963902,-7.631882,-16.902088,-26.376984,-35.236016,-17.726761,-25.048554,-31.96455,-39.359803,-6.327379,-14.023247,-17.940322,-24.71827,-16.498067,-25.023095,-32.018342,-39.171756,-13.382413,-22.728326,-34.781623,-45.39487,-9.917956,-19.148642,-29.362839,-38.973575,-6.017812,-15.372505,-22.69503,-29.951642,138.623023,172.713127,-147.944566,166.468715
74,-1.422959,0.464968,0.952984,0.09806,-23.349449,-39.106933,-50.132721,-57.167518,-20.623329,-17.676109,-13.588257,-7.893173,-3.972015,0.717865,7.027954,12.82267,9.049347,15.381226,21.638626,26.351738,18.89312,27.574562,32.862488,37.350746,-9.46246,-17.404848,-22.217551,-32.307457,-17.871421,-25.683379,-32.851713,-38.777826,-12.944331,-22.330604,-34.108383,-44.389938,-8.441701,-17.133911,-29.206512,-39.894928,-4.42354,-11.821079,-18.532287,-24.849168,23.662124,40.436096,52.151996,61.456604,22.505733,13.784591,4.688495,-4.210453,5.566543,-2.944256,-12.189606,-20.935708,-7.413632,-16.139294,-25.428589,-33.999093,-17.414326,-24.279786,-31.026009,-38.073121,-6.267815,-13.831932,-18.033393,-25.244396,-16.844327,-24.330231,-30.872378,-37.825894,-13.954296,-22.196569,-33.999135,-44.610634,-10.607338,-18.729036,-28.606866,-38.029282,-6.542889,-15.348991,-22.431418,-29.471854,137.137482,173.151956,-147.054164,166.540636
75,-2.479294,-0.519197,1.824337,0.25498,-22.636825,-38.070259,-48.960548,-56.892677,-20.350433,-17.296394,-13.591736,-8.494537,-3.916259,0.995476,6.878975,12.148522,9.179512,15.821343,21.668198,25.89505,19.16993,27.97094,32.950585,37.069153,-8.836904,-16.379828,-20.58471,-29.715287,-17.361857,-24.995629,-31.559475,-36.690638,-12.245119,-21.020409,-31.917331,-41.176441,-7.431934,-15.281486,-26.621381,-36.640744,-3.061635,-9.032147,-15.207348,-21.187888,23.74459,40.255325,51.857082,61.190643,22.232517,14.106777,5.250915,-3.139847,5.402183,-2.998066,-11.94468,-20.204316,-7.478474,-15.947136,-24.780087,-32.742943,-17.171517,-23.807179,-30.278183,-36.735203,-6.854778,-14.646173,-19.152261,-26.55038,-18.159808,-24.268703,-30.033425,-36.455338,-15.180092,-22.207597,-33.490447,-43.514318,-11.601804,-18.290386,-27.679227,-36.654514,-7.068545,-14.933757,-21.680706,-28.370424,134.581432,172.546503,-145.306583,166.70936
76,-1.932632,-0.345445,0.680179,0.357596,-22.528954,-38.063301,-49.37265,-58.512062,-22.077095,-20.332512,-18.082581,-14.631203,-6.370674,-2.549927,1.611763,5.225555,6.832695,12.680878,16.868385,19.823204,17.381149,25.235664,28.558845,31.32605,-8.194452,-15.337987,-18.915769,-26.584565,-18.259349,-24.557743,-28.234783,-30.69466,-13.669417,-20.53973,-27.294262,-32.835559,-8.893109,-14.706836,-22.157603,-28.728539,-4.365655,-8.875658,-12.53085,-15.873943,23.921368,40.844181,52.658993,62.179493,23.542099,17.250801,9.253143,1.904938,6.640057,-0.550701,-8.743091,-16.090072,-6.563518,-13.829201,-21.516746,-28.42963,-16.617885,-22.537857,-28.290664,-33.830292,-6.784406,-15.203643,-20.766107,-28.649313,-19.93922,-25.282496,-30.162779,-35.600458,-17.466697,-23.521374,-33.553531,-42.122203,-13.965745,-19.630406,-27.86491,-35.477649,-9.15808,-16.353213,-22.688497,-28.722784,132.564291,171.906731,-144.710913,166.772629
77,3.115997,2.437907,4.093071,-0.320163,-25.905716,-43.403206,-56.315712,-67.716064,-27.610451,-28.789192,-29.934517,-29.519325,-12.468475,-11.978027,-12.48706,-12.069443,0.558518,3.328812,2.870888,2.824951,11.358902,16.411995,16.292587,16.375809,-9.362734,-16.472738,-19.382121,-25.76489,-22.86871,-28.412303,-29.488551,-29.644064,-18.021982,-23.299789,-26.465091,-28.724933,-12.377315,-17.174605,-21.349032,-24.660163,-6.467454,-10.498151,-12.438015,-13.578619,23.731774,39.811478,51.173035,60.542038,22.086685,17.735459,11.66312,6.373249,5.474762,-0.741417,-7.252178,-13.084019,-7.674419,-14.540508,-20.839268,-26.166687,-17.450752,-23.615776,-28.673023,-32.905666,-7.790049,-16.277619,-22.183638,-30.06593,-21.84511,-27.125524,-30.031547,-33.139075,-19.352468,-25.3275,-32.842525,-38.192704,-15.309854,-20.207403,-26.122512,-31.309324,-9.564275,-16.086761,-21.191889,-25.615417,135.594217,173.854315,-140.703913,165.962143
78,2.462357,1.138591,1.789822,2.027809,-28.532479,-48.39148,-63.306885,-77.203011,-34.716637,-40.106255,-44.656746,-47.05481,-19.751152,-24.227188,-27.913353,-29.936852,-6.238953,-8.072296,-11.755669,-14.33622,5.505935,5.843742,2.597008,0.051224,-9.921908,-16.459807,-18.480738,-22.809022,-26.351161,-28.28222,-25.421224,-21.838441,-22.159778,-21.635578,-19.138626,-16.486557,-15.860705,-14.229666,-12.913469,-11.892734,-8.459844,-7.416435,-5.84049,-3.761712,24.231903,40.818569,52.210888,61.867561,23.741844,21.932281,18.632229,15.658081,7.619293,4.20718,0.71244,-2.867466,-5.622357,-10.246891,-13.538864,-16.653763,-15.891232,-20.919823,-23.850712,-26.256306,-7.452015,-17.45899,-24.864445,-33.581591,-25.417149,-32.368232,-32.779712,-32.934323,-23.253476,-30.900653,-34.478219,-36.031915,-18.906988,-25.600004,-28.323691,-30.001586,-12.40504,-19.312281,-22.244363,-23.960592,137.991331,174.35193,-138.979334,167.348976
79,2.405708,1.022414,2.735252,2.022573,-29.853836,-52.754196,-70.540031,-86.670639,-42.00135,-52.714462,-61.226303,-67.544083,-27.358864,-38.681396,-47.264488,-53.826393,-13.54351,-22.363998,-30.40123,-36.907173,-1.142555,-7.202293,-13.936523,-19.905304,-10.753427,-16.486125,-16.911845,-18.786266,-29.132807,-26.714081,-19.973294,-12.969983,-24.953453,-18.100466,-10.099515,-2.537078,-17.648144,-9.547306,-2.521492,3.328853,-8.548394,-2.646771,2.508277,7.74649,25.26384,42.177223,53.498245,63.163674,24.699074,27.089665,25.275227,23.400627,8.7113,10.05114,8.302563,5.710602,-4.618034,-4.562118,-5.649559,-7.592274,-15.036037,-16.623825,-17.415985,-18.598446,-7.395735,-18.845534,-27.721452,-37.101043,-32.031976,-34.972617,-31.700327,-30.01627,-29.948554,-32.126671,-31.314004,-30.529984,-24.372838,-26.027317,-25.017623,-24.593855,-16.247459,-19.117248,-19.236204,-19.215505,140.364847,174.51886,-136.276274,168.516065
80,1.486588,-1.238639,0.383629,2.526691,-31.693016,-58.298401,-78.941277,-96.770417,-50.335213,-67.416802,-78.881493,-87.796669,-36.652108,-55.157891,-67.766625,-77.531571,-23.001297,-38.983612,-51.02916,-60.263421,-10.180848,-22.561844,-32.388726,-40.642502,-11.321358,-14.759115,-12.646349,-12.86602,-26.766235,-18.617132,-8.062406,1.603843,-21.392887,-8.548727,4.311092,15.522164,-12.893684,0.929751,12.624192,22.008847,-2.442291,7.869188,16.108064,23.550174,26.905586,44.93573,57.157814,67.507519,28.467693,36.996277,36.454674,34.733917,12.626278,21.242706,20.688801,17.974514,-0.748753,5.995411,6.122086,4.046619,-11.3214,-7.747536,-7.530178,-8.975784,-6.965385,-19.572843,-29.373695,-39.370865,-37.079171,-35.241059,-28.953162,-26.576117,-34.360276,-31.054202,-26.546675,-24.484483,-27.369746,-24.063567,-20.226742,-18.69779,-17.426929,-16.254882,-14.801722,-14.255169,141.8617,172.35055,-135.88238,170.113085
81,-0.137604,0.441478,1.840817,2.593468,-32.971344,-62.291748,-85.300163,-104.553406,-56.506783,-78.544922,-92.495682,-103.417099,-43.678368,-68.144623,-83.914856,-95.823258,-30.559044,-52.818466,-67.942475,-79.344475,-17.994507,-35.881828,-47.875603,-58.074257,-12.780483,-13.748828,-8.750873,-7.517804,-22.961619,-10.363954,1.826602,12.522366,-14.914775,2.802827,17.047029,29.098918,-4.363309,13.966115,26.649242,36.587613,7.631042,21.669813,30.979898,38.875083,27.033359,46.501132,60.186824,71.83469,30.398277,43.246055,46.272937,47.069698,15.359298,29.533916,33.019649,32.837219,2.46405,14.486297,18.47755,19.03355,-7.617829,0.580284,4.037601,4.779739,-8.242358,-20.660292,-30.092865,-39.482756,-40.178782,-35.490617,-26.042149,-21.513621,-35.800209,-28.483582,-20.111343,-15.609183,-26.538635,-19.206045,-12.128868,-8.666991,-14.333493,-9.552838,-5.507124,-3.238266,141.71695,171.896147,-134.048709,171.810672
82,-6.280792,0.064035,1.857913,1.614847,-31.07238,-61.301011,-85.259926,-104.884987,-58.977242,-84.40416,-99.264496,-111.071549,-47.141442,-75.382233,-91.85241,-104.997574,-34.530899,-60.792458,-76.571389,-89.159615,-22.209893,-43.764679,-56.346199,-67.56324,-12.692217,-10.903542,-3.277144,-0.321127,-15.224292,2.177196,15.780935,27.870851,-5.217243,16.982611,32.677009,45.966859,6.620003,30.044243,44.355383,55.209673,19.009679,37.301078,48.267901,56.869487,26.76582,48.360272,64.097764,77.503201,33.782021,49.919392,55.659371,58.772027,19.557518,38.322968,44.986187,47.260861,7.100201,23.597947,30.974808,34.317364,-2.666496,9.787972,16.12658,19.433934,-9.178877,-19.916076,-27.923215,-36.475844,-39.570763,-30.499034,-19.164759,-13.458922,-33.654604,-20.511517,-9.835753,-3.859339,-22.76398,-10.265116,-0.905631,3.974726,-9.155671,0.44117,6.481101,9.996095,135.384854,171.105908,-132.2421,172.571245
83,-6.327645,4.578991,2.58046,4.193459,-30.270561,-61.044983,-85.614967,-105.556183,-59.819366,-87.203659,-103.536026,-116.916343,-49.568298,-79.899582,-99.172943,-114.914348,-38.394218,-67.216095,-85.617897,-100.225021,-27.190063,-50.800117,-64.633072,-77.226974,-13.449598,-10.104998,-0.65884,2.936034,-9.510626,8.956885,22.379695,34.252249,3.556132,25.438255,40.477778,53.21522,17.031591,39.275868,53.075949,63.538346,29.795105,47.073562,57.931013,66.10515,26.988373,50.888683,68.973576,83.299564,37.238056,56.994095,64.756989,69.556629,23.199726,46.092098,55.308746,59.846066,11.032402,32.334629,42.240795,47.629051,1.929669,19.305508,27.571941,32.379627,-10.221139,-19.145283,-25.065271,-32.255501,-37.745248,-23.165359,-10.493273,-4.360259,-30.289998,-9.975631,1.935566,7.896235,-17.747662,1.506327,12.340511,17.381987,-2.541425,11.733195,18.69017,22.13914,128.968603,174.876633,-129.750246,175.956438
84,-6.444877,8.183708,1.595821,5.800735,-30.816513,-61.218407,-85.18602,-105.284912,-60.533341,-87.901429,-104.581261,-118.135483,-52.006989,-81.955262,-101.791352,-117.666195,-42.198326,-70.807892,-90.081139,-104.824242,-31.962822,-55.627396,-69.837227,-82.4954,-13.852001,-9.818106,0.167763,3.859858,-4.83754,13.325022,26.308948,38.042156,10.289175,30.824126,45.175984,57.170322,24.759136,45.071724,57.967804,67.374726,37.462135,53.473732,63.94864,71.59901,27.881493,54.612259,75.144024,90.941597,42.41549,63.893738,75.336342,83.722619,29.129746,54.134205,67.472844,76.125893,17.115315,40.684147,54.035466,63.285977,7.871636,27.352112,38.070992,45.955319,-11.629925,-18.325695,-21.777098,-27.175863,-31.088739,-16.431316,-3.479451,4.437878,-21.577916,-1.290967,11.447143,19.299115,-8.340258,10.937554,22.558907,29.361024,7.124589,21.740825,29.179934,33.984783,122.388337,182.370363,-128.289814,181.067195
85,-5.881142,12.556304,4.471711,8.661705,-31.166405,-60.216248,-83.321388,-103.497505,-58.801643,-84.607864,-102.289787,-117.035454,-51.215149,-79.712219,-100.656532,-118.008396,-42.469597,-70.207558,-90.51178,-106.373291,-33.322266,-57.061432,-72.270241,-86.052567,-14.932596,-11.573139,-1.696605,2.885029,-4.603209,11.918817,24.463401,36.409846,11.491455,30.703478,44.484923,56.46228,26.648773,45.635617,58.118277,67.307739,39.314474,54.226519,64.303334,71.891052,27.728244,56.053814,78.169738,95.705749,45.564491,67.315612,82.419502,95.004375,33.219371,57.734241,75.448539,89.353546,21.34473,44.946121,62.222866,76.286384,11.629177,31.133365,44.565799,56.385624,-13.676666,-18.079915,-19.591788,-23.535046,-23.940721,-10.575845,2.66847,13.621388,-13.167929,6.173992,19.849682,30.516226,0.185301,18.617651,31.279276,40.519781,15.147833,29.238709,37.844629,44.905863,116.37569,194.167224,-123.949608,188.969457
86,-9.081734,15.018268,6.475799,11.444649,-29.688858,-58.359352,-81.479599,-100.974117,-60.493309,-88.272342,-105.703457,-118.469352,-55.102546,-85.738769,-105.320492,-120.212471,-48.251564,-77.996727,-96.537918,-109.82848,-40.763031,-65.997207,-79.739971,-90.974819,-5.920111,-0.464449,9.060329,14.237237,7.209151,17.914733,26.154424,34.625519,17.595805,29.625007,38.856608,47.524044,26.063812,38.476509,46.698478,53.267165,31.987418,42.309308,49.648554,55.306226,29.458901,58.275479,80.625927,97.363472,53.791157,79.118225,92.568318,102.459458,42.140831,69.689324,85.441452,96.512135,29.828922,56.253308,71.887024,83.556393,18.703022,40.896687,53.937859,64.214997,-14.918678,-17.856429,-17.009448,-18.317,-15.234556,2.399238,15.570218,25.548343,-2.730937,20.423096,33.712205,42.756973,10.744806,32.084143,44.200228,52.19335,24.74807,40.599129,48.730473,54.68446,107.139776,208.476319,-117.627989,199.704933
87,-7.371048,14.083923,4.545857,13.355119,-29.552353,-58.103347,-81.414505,-100.829361,-62.913299,-92.388519,-108.774101,-118.853805,-59.415458,-92.13731,-108.890705,-119.5559,-54.069603,-86.005703,-101.204361,-110.089027,-47.858162,-74.331333,-86.143432,-94.06105,3.529283,11.211701,20.086458,25.810326,19.303586,24.621939,28.001552,31.96294,23.914502,29.430456,33.181226,37.270054,25.556482,31.41467,34.812561,37.94632,24.439331,30.645038,35.343935,39.110439,32.303318,61.606899,84.246219,101.001354,59.096088,88.301399,102.071548,110.975383,47.546264,78.790798,95.245674,105.861774,35.414165,65.699272,81.921993,92.649078,24.300705,49.816635,63.637573,73.13546,-15.01954,-17.987994,-16.271752,-16.229181,-9.928601,9.957872,23.310781,32.910463,4.346167,28.645905,42.381543,50.767138,18.524247,40.440567,52.265438,59.329846,32.409136,48.255712,55.822262,60.688824,99.528499,221.938033,-113.322361,212.437843
88,-6.32373,12.502211,5.016437,10.736372,-30.871262,-59.372109,-82.042282,-100.618401,-65.787712,-96.669182,-111.607075,-118.967743,-63.129982,-97.434025,-111.677662,-118.380718,-58.374252,-92.078591,-104.731945,-110.143513,-52.799744,-79.875515,-90.080727,-95.44899,10.387247,21.4021,31.259577,38.166447,29.642593,31.69246,31.120886,31.075302,29.729254,30.8973,30.124247,29.66801,26.091895,27.485059,26.690615,26.171393,19.41039,23.060172,25.673042,27.676201,33.936138,62.875122,85.114723,102.320732,62.018784,93.183426,107.427876,116.305481,50.799179,84.120049,100.780255,111.30827,39.036484,70.633015,87.173481,97.880265,27.854233,53.647591,67.593052,77.099407,-14.603331,-16.605415,-14.079662,-13.209896,-2.974419,17.805583,30.32023,39.245881,12.539594,37.096374,50.152597,57.850577,26.595593,48.854814,59.64082,65.695188,39.088517,55.596835,62.724302,66.889071,92.885222,233.902975,-108.625471,222.636946
89,-5.475472,10.232154,5.525345,11.427074,-33.058548,-62.210357,-84.367687,-102.366829,-68.172455,-99.900489,-115.469936,-122.767387,-65.421364,-100.520061,-114.965355,-121.22549,-60.624183,-94.799972,-107.733341,-113.443897,-54.827041,-81.291103,-91.658317,-97.272846,11.775656,23.786839,32.899805,38.842973,37.568136,37.785608,33.464537,29.226717,36.432644,35.82817,30.558785,25.154265,30.841589,31.145043,26.994786,22.704602,21.559959,25.647589,27.287223,27.789019,34.236832,62.425369,84.409584,102.134399,63.395874,95.821266,110.263676,118.700626,52.454613,87.291676,104.091282,114.156853,41.331139,73.904869,90.615452,100.807983,30.679379,57.194824,70.900543,79.864243,-14.033152,-15.446742,-12.106465,-10.702816,2.187088,23.156256,34.858441,43.29966,18.650292,42.721269,55.180909,62.543658,32.954564,54.988816,64.986911,70.111578,44.632926,61.420615,67.85139,71.063201,86.984562,243.677997,-103.525314,233.606888
90,-4.612198,8.916686,4.744755,10.510389,-33.987007,-63.800857,-85.896572,-103.816806,-70.633049,-102.733017,-118.536861,-125.934173,-68.077034,-103.700786,-117.984832,-123.875621,-63.458999,-97.91185,-110.671451,-116.536354,-57.657119,-83.81583,-93.823036,-99.437999,13.102054,25.447604,33.157884,37.451489,44.694194,44.434966,38.009305,31.131099,42.625704,41.116277,32.845142,23.842328,35.224275,34.682934,27.742496,20.466531,23.628165,27.543734,28.046271,27.122374,34.65152,62.877216,84.871937,102.527664,64.634376,98.205368,112.973831,121.270386,53.868656,90.762806,107.800598,117.082146,43.285789,77.228062,94.360062,104.140228,33.222759,60.801041,74.960792,83.693687,-12.980739,-13.858163,-9.685626,-7.924442,6.625387,27.509586,38.392714,45.624749,23.929569,47.668083,59.44464,65.904264,38.408065,60.203194,69.406747,73.465812,49.295984,66.321808,71.995707,74.045043,81.803649,252.314521,-99.349274,243.837115
91,0.0821,5.046009,2.875271,9.084177,-36.856155,-66.851829,-87.554866,-104.680927,-72.45504,-100.041893,-111.608757,-116.102508,-68.233154,-99.111316,-109.131763,-112.006141,-62.214363,-92.120796,-101.180866,-104.120693,-55.248733,-77.667446,-85.690006,-89.91941,6.644109,16.798458,23.446853,26.825564,38.362035,43.092203,40.51852,36.265448,40.614468,44.919633,40.386177,33.32146,38.001228,42.500449,38.943329,33.137914,31.20473,38.671331,40.920219,40.944611,34.486953,62.855644,85.392391,104.471065,61.56784,93.867359,111.41502,123.436672,50.664493,86.711906,107.032779,120.434086,40.793998,73.74107,93.352466,106.491291,31.865913,57.97221,73.044147,84.234249,-11.501779,-12.009998,-7.966791,-7.987168,8.526473,26.459076,36.330633,44.066317,25.64281,45.868886,57.095432,64.729746,39.665884,58.896802,67.643081,72.34214,50.025751,65.987825,71.549017,74.338222,81.182602,257.198639,-97.17715,252.759401
92,-0.684517,5.269249,4.310119,8.485878,-37.692443,-66.922576,-86.140102,-102.262744,-73.118019,-96.24995,-102.973949,-104.251396,-67.890724,-93.472732,-99.092067,-99.033897,-61.030975,-85.283855,-91.008419,-91.761245,-53.43711,-71.721748,-77.250595,-79.928821,0.814969,8.41458,14.13462,16.489867,31.343323,41.464376,43.253953,41.792086,37.137834,47.883097,48.612135,44.613857,39.063088,49.506676,50.541032,46.893905,37.26084,48.566588,52.949447,53.741099,33.11158,60.999012,83.685768,103.158886,60.381684,91.581036,109.498455,122.405285,49.817528,85.047879,105.778462,120.204953,40.198002,71.901879,91.596119,105.752232,31.266003,56.001767,70.842499,82.94775,-10.915485,-10.695431,-6.033472,-6.370667,12.099437,28.165882,36.853535,44.065946,28.702888,46.967721,56.777911,63.825164,41.791172,59.888933,67.869137,72.338879,51.010669,66.698374,72.05006,74.976745,79.719657,262.374438,-93.645459,261.151829
93,-1.042854,5.1353,4.077771,8.898988,-35.882171,-63.938484,-82.395,-98.311237,-73.092018,-92.043491,-93.836243,-91.65097,-67.630142,-88.107536,-88.254879,-84.702782,-60.408966,-78.808021,-79.608192,-77.241634,-52.321449,-66.243301,-68.356636,-68.603886,-2.345849,1.72974,5.093791,5.765821,26.552035,40.289945,45.905725,47.115811,34.138505,49.362229,54.831402,54.401199,38.701231,53.40945,58.834236,58.104729,39.993346,54.089483,60.501806,62.344265,31.655799,59.23336,82.186603,101.850219,60.008937,90.757988,108.84716,121.962364,49.89236,84.701328,105.600677,120.108306,40.43114,71.701297,91.255943,105.554992,31.518596,56.07241,71.133579,83.744831,-11.107442,-10.868999,-5.738046,-5.29926,13.85405,29.318367,37.538989,44.305476,30.430232,47.69377,56.886443,63.55324,43.159882,60.397954,68.067849,72.420376,51.981855,67.016289,72.130853,74.902928,77.867431,267.442134,-90.37706,269.983213
94,-0.967575,5.75252,3.951519,7.914748,-32.90126,-59.202393,-76.960258,-92.183384,-73.339485,-88.957546,-84.073357,-75.859131,-68.441437,-84.824432,-77.366547,-67.243996,-61.406341,-75.389877,-68.913299,-60.027065,-53.459976,-64.135025,-61.199821,-56.387077,-0.34169,2.8493,5.596255,6.62572,23.945587,39.918196,49.15686,53.214109,30.39958,47.714901,57.651555,60.958031,34.607574,50.365093,59.024514,61.244861,36.180863,49.984032,57.025851,59.541353,30.694301,57.739402,80.710636,100.455425,59.452869,90.17062,108.382473,121.560848,49.609119,84.152126,105.146976,119.465709,40.088642,71.289115,90.704509,104.866802,30.95763,55.555915,70.713295,83.42387,-11.054139,-10.495002,-4.843332,-3.983692,16.087476,31.473073,39.074401,45.070489,32.488966,49.236085,57.50843,63.300742,44.731627,61.777112,68.723083,72.466492,53.021744,68.060563,72.661993,74.820985,76.150646,273.101559,-87.174751,277.804866
95,-12.5839,8.537044,3.395485,6.960531,-24.781472,-46.006234,-62.289276,-76.552277,-66.983368,-74.921643,-61.889191,-48.010735,-65.825993,-72.575867,-56.399071,-39.083977,-61.573655,-67.287907,-51.978859,-36.092949,-55.893357,-64.801049,-59.609196,-52.211449,-0.268096,2.507338,7.01024,10.74898,19.608806,37.997968,48.536281,53.672235,26.845423,45.259199,57.012611,61.652118,31.875587,48.150575,57.719197,61.082556,35.217668,48.293762,56.093296,60.041012,29.804065,56.248203,79.144191,98.716335,58.791767,89.538585,107.45129,120.213924,49.165546,83.407917,104.227855,118.363323,39.563713,70.695304,89.929904,103.9323,30.236503,54.824455,70.086936,83.009181,-10.990968,-10.065861,-3.678213,-1.912052,17.751391,33.66688,40.99406,46.492502,33.894282,50.495226,58.10673,62.962029,45.718288,62.917359,69.419195,72.487833,53.647955,69.069231,73.416287,74.998802,62.911755,281.5456,-84.434257,284.672394
96,-15.723496,11.095524,2.272521,6.287809,-17.359474,-33.242271,-46.886604,-60.379715,-56.107647,-54.946014,-38.922455,-25.158417,-58.048794,-54.564262,-35.947517,-18.615166,-56.120533,-53.599743,-36.01403,-20.347252,-52.122448,-59.862453,-56.057865,-50.72755,-3.878741,-2.452405,3.429716,9.293696,15.592164,34.107037,43.621886,48.285166,24.900026,41.84403,52.104763,55.990407,31.529748,46.140747,54.183368,57.080784,36.41691,48.208213,55.060582,58.627669,29.005017,54.916512,77.682347,97.177334,58.093724,89.087368,106.681195,119.062878,48.832169,83.112957,103.577832,117.494648,39.264554,70.706933,89.756367,103.528187,29.861756,54.624424,69.928677,82.94608,-11.65844,-10.685735,-3.39442,-0.480282,18.0256,34.140507,41.300022,46.424751,34.247248,50.557162,57.732017,61.972134,45.919089,62.871961,69.01168,71.5504,53.622663,69.026402,73.092827,74.07803,46.68552,292.518479,-82.664475,290.837558
97,-18.052265,11.640533,1.905602,4.692649,-11.071655,-21.858833,-31.524799,-42.316338,-42.570019,-32.510319,-14.831005,-1.93079,-46.317547,-33.932568,-14.249966,2.202015,-46.033779,-36.809349,-18.156246,-3.003101,-43.278729,-50.36388,-49.271633,-46.985046,-7.623261,-7.052947,-0.671128,5.873551,10.59043,27.679647,36.670383,41.874202,21.713038,36.917298,45.875665,49.348002,29.7543,42.506353,49.110757,51.670411,35.902233,46.043256,52.151557,55.876342,28.323269,53.866859,76.275158,95.454838,57.437199,88.683712,106.000614,118.068043,48.251381,82.732944,102.876057,116.522999,38.540245,70.35339,89.262302,102.769581,28.994408,53.96323,69.307011,82.310543,-12.438991,-11.332559,-3.283714,0.421619,17.960749,34.140333,41.127775,45.956818,34.48101,50.496659,57.29801,61.076653,46.083246,62.672988,68.358361,70.297558,53.484107,68.727776,72.483239,72.84827,28.287094,304.01957,-81.105034,295.390765
98,-13.381714,4.979368,1.6119,3.004318,-4.413208,-10.661774,-18.850994,-28.808052,-33.081608,-17.331219,2.007649,14.020374,-40.210956,-20.5219,0.53413,17.161663,-43.043278,-28.018249,-7.648945,7.684422,-43.066749,-50.646732,-51.789299,-51.695148,-10.449084,-9.843769,-1.592346,6.863311,7.451595,26.016399,34.370032,39.032176,20.963388,36.634136,43.95172,45.870738,30.663204,43.618577,48.096198,49.391116,38.624586,47.99925,53.711533,57.980068,27.60989,52.909996,75.085751,94.142773,56.381745,88.15218,105.11388,116.839016,47.217488,82.324093,102.101818,115.441258,37.502404,70.075939,88.741482,101.850277,28.079842,53.440464,68.657673,81.463406,-13.170511,-11.992794,-3.277724,1.02912,17.808448,33.935742,40.790223,45.380316,34.745141,50.372713,56.812207,60.209171,46.40189,62.616622,67.818563,69.209998,53.608089,68.80615,72.296296,72.234434,14.625532,308.829359,-79.772982,298.225504
99,-16.401512,6.625461,0.989045,1.619874,0.377632,-1.72189,-6.475239,-14.915943,-22.033516,1.310863,22.194683,33.677525,-31.297245,-3.665691,18.951954,35.445751,-36.013367,-15.250214,6.68668,22.244442,-37.528667,-45.43269,-48.013298,-48.968571,-13.683274,-13.396604,-2.855203,7.889196,3.666097,21.944898,29.704999,34.680192,19.290792,33.622803,39.703082,41.173162,30.469222,41.919415,44.995537,45.799293,40.018836,48.020146,52.34843,55.960817,27.071353,52.183399,74.180385,93.096599,55.793563,88.00455,104.655475,116.096088,46.689044,82.213909,101.615421,114.793453,36.95478,69.94614,88.414272,101.266056,27.573417,53.027893,68.132549,80.912807,-13.937204,-12.938712,-3.740791,1.324929,16.899951,32.954083,39.755829,44.169897,34.159673,49.456053,55.793029,59.016005,45.910801,61.640113,66.742587,67.86684,53.120545,68.316642,71.879912,71.6606,-2.034548,315.303001,-79.042505,299.693559
100,-4.812401,0.285188,0.853569,0.483827,1.568367,1.534893,-0.892376,-7.624363,-16.352966,8.528034,28.525646,39.006512,-25.518963,3.14391,24.937832,40.618229,-30.792503,-8.890835,11.916355,26.157063,-32.948753,-39.630169,-42.18631,-43.304821,-15.737339,-16.167814,-6.28408,3.519391,2.257113,20.036835,27.176579,31.538541,18.719094,33.277939,38.489106,39.347079,30.554919,42.032974,44.543425,44.984533,40.331714,48.445483,52.048681,54.812815,26.595874,51.532356,73.324504,92.090778,55.281337,87.995922,104.551334,115.777919,46.159515,82.219127,101.446895,114.462902,36.309116,69.764087,88.144763,100.726238,26.864261,52.489666,67.528209,80.200275,-14.647717,-13.980022,-4.428468,1.052647,15.840487,31.768537,38.471161,42.679526,33.449506,48.441284,54.679668,57.824185,45.35091,60.518355,65.460228,66.4243,52.588343,67.633867,71.264804,71.019247,-7.096367,315.440621,-78.438354,300.029818
101,-1.252579,-3.505818,1.0513,-0.27411,-2.18478,-3.730121,-6.474895,-14.118919,-16.013282,7.5882,26.853184,37.465382,-23.251304,4.146458,25.643956,41.205311,-27.344696,-5.873508,14.794087,28.78101,-28.987564,-32.57246,-31.630531,-30.040741,-11.189915,-8.356979,3.301091,13.81358,6.289909,22.601972,29.083913,33.080363,21.314983,35.140332,40.404752,40.967372,32.139249,43.363375,45.898365,45.984248,41.150734,49.975387,52.891723,54.607124,26.246692,51.03384,72.724239,91.459018,54.640663,87.534084,104.005016,115.123844,45.464653,81.840992,101.077526,114.004612,35.594925,69.296779,87.68993,100.117412,26.207199,51.938427,66.984935,79.572795,-14.924569,-14.3453,-4.657747,1.170293,15.409469,31.201198,37.83423,41.985278,33.259303,47.992815,54.131955,57.246164,45.264954,60.118225,64.895459,65.722149,52.538621,67.532609,71.089655,70.68687,-8.598685,311.812784,-77.636793,299.633689
102,-1.683528,-5.110711,0.805366,-0.118648,1.168956,1.83205,-0.572182,-8.097096,-13.107171,9.357902,28.345047,38.246704,-21.740983,5.506645,27.135887,42.867507,-27.663311,-5.620686,15.37397,28.974174,-31.263703,-34.003327,-32.287697,-30.228436,-12.261038,-9.645056,2.115199,12.500185,7.098198,25.63004,31.632316,34.42909,23.380027,39.34283,43.853858,43.262722,34.958341,48.004103,49.895049,49.463858,44.439499,54.633146,57.835868,59.607562,26.130318,50.840859,72.511677,91.427387,54.103054,87.061787,103.51688,114.594669,44.951019,81.479015,100.725666,113.601963,35.115234,69.077396,87.469563,99.750698,25.79393,51.686691,66.746647,79.279781,-15.129233,-14.561167,-4.664008,1.452914,14.84822,30.89509,37.642928,41.833039,32.808587,47.612433,53.771395,56.916022,45.001478,59.820391,64.521586,65.335864,52.475093,67.544404,71.003847,70.531803,-10.517778,306.600518,-77.066992,299.413486
103,-4.915032,0.412913,0.448025,-0.201096,3.056683,5.788387,5.648483,-0.135395,-7.664223,16.574341,35.316261,44.76487,-16.357864,11.97876,33.409561,48.717568,-22.798874,0.167851,20.828339,33.887123,-27.007736,-28.329449,-26.207302,-24.047516,-14.064743,-12.046555,-1.086425,8.356337,5.720768,23.933743,29.677272,32.274384,22.768328,39.006698,43.084682,42.234453,35.005629,48.06736,49.795717,49.42461,44.753648,55.367025,58.131628,59.264822,26.248844,50.884151,72.481705,91.401993,53.70116,86.563179,103.054046,114.234718,44.534695,80.9515,100.256401,113.254143,34.693771,68.663292,87.199425,99.622444,25.37368,51.408703,66.592941,79.20813,-15.022369,-14.223429,-4.18159,1.902839,14.635292,30.98816,37.7533,41.883921,32.588051,47.565577,53.754438,56.891692,44.860452,59.795172,64.487734,65.321043,52.410279,67.542156,70.928018,70.423937,-15.641796,306.941597,-76.827953,299.140556
104,2.125374,-2.204651,0.332886,0.164417,4.618252,7.686081,6.365021,0.822945,-8.12796,14.749878,33.324509,42.077248,-17.812821,9.981766,31.262375,46.876533,-25.467705,-2.868244,17.876129,30.795135,-30.968285,-32.979664,-31.576927,-30.466553,-15.171866,-13.270459,-3.38181,4.854571,5.282081,25.341258,30.729685,32.208237,23.156911,41.606008,45.121545,43.197649,36.023931,50.852058,52.141468,51.083609,46.150653,57.450978,60.943162,62.757241,26.289413,50.817066,72.372757,91.250061,53.253032,86.128646,102.65158,113.890594,44.096054,80.62294,100.025047,113.09793,34.282219,68.457962,87.157585,99.718917,24.986869,51.238552,66.568863,79.246147,-15.097976,-14.244536,-4.095769,1.934023,14.276201,30.782654,37.527269,41.618542,32.206273,47.222837,53.436484,56.57217,44.560357,59.559137,64.24046,65.094752,52.180197,67.248261,70.56327,70.032933,-13.718107,304.691714,-76.696752,299.259741
105,-0.801487,2.782425,0.21072,0.138246,3.034859,5.17004,4.365772,-1.17374,-8.849224,14.69569,33.704945,43.241032,-17.995182,10.640293,32.718922,48.465763,-24.490551,-1.474022,19.924885,33.726597,-28.591072,-29.794373,-26.748871,-23.822903,-14.935227,-13.005255,-2.148482,7.792383,3.067204,21.339571,27.689922,30.710023,20.887558,37.562207,42.096342,41.266478,34.052388,47.060112,49.133197,48.626572,44.497346,54.801415,57.127591,57.791457,26.347641,50.697361,72.179065,90.974979,52.907524,85.714084,102.305751,113.702556,43.811988,80.353328,99.863514,113.109707,34.040554,68.369922,87.213306,99.960834,24.73344,51.222381,66.656376,79.388477,-15.143214,-14.298135,-4.182664,1.864492,13.845715,30.417525,37.180566,41.313743,31.756323,46.714866,52.976988,56.268903,44.252211,59.204764,63.931276,64.923618,52.044075,67.01056,70.274217,69.729294,-14.712473,307.442905,-76.678911,299.366753
106,1.242691,0.585048,0.3395,0.185659,7.97121,12.331226,12.012737,8.138958,-8.160152,14.810131,34.289165,43.476894,-19.770859,8.774586,31.35078,47.952129,-28.332996,-5.756905,16.097065,30.541042,-33.923435,-38.88961,-39.563072,-39.546192,-19.813089,-21.085778,-13.034104,-5.114034,-1.440711,19.501669,26.54812,29.285454,18.21647,37.889312,42.263982,40.83183,32.804474,48.023777,50.21357,49.479642,44.364768,54.770096,58.74576,61.224891,26.261753,50.482246,71.940319,90.611698,52.618469,85.380238,102.010105,113.507183,43.587513,80.031544,99.535389,112.829899,33.812702,68.224857,87.124111,99.983379,24.444992,51.18227,66.711788,79.463848,-15.284326,-14.414571,-4.288245,1.674301,13.520895,30.122222,36.840481,40.931249,31.415288,46.23225,52.47907,55.751347,44.03454,58.869718,63.571728,64.583534,51.942718,66.736042,69.903171,69.307144,-13.669813,308.005112,-76.539442,299.529571
107,1.591507,1.955413,0.352146,0.100913,5.523411,8.305401,8.101879,3.853603,-11.383015,11.980213,31.827793,41.85973,-22.480282,6.907917,30.069157,46.762356,-29.58078,-6.948418,15.343632,30.41003,-33.307365,-38.43861,-38.35128,-37.365486,-19.260028,-20.309414,-10.886709,-1.051387,-2.211628,17.248458,24.937015,28.775606,17.315347,35.104072,40.214659,39.52718,31.936374,45.29988,48.044871,47.481917,43.640572,52.992684,55.928423,57.374642,26.069504,50.239758,71.724015,90.258362,52.334576,85.103188,101.820763,113.487396,43.288365,79.676949,99.210549,112.590706,33.476029,67.940392,86.901398,99.910012,24.044655,50.964421,66.607064,79.405701,-15.438369,-14.554721,-4.447907,1.514565,13.252799,29.837638,36.545339,40.651976,31.150242,45.798984,52.037381,55.313623,43.869407,58.628126,63.308338,64.348573,51.842657,66.568364,69.671965,69.014706,-12.280191,309.942296,-76.389181,299.612255
108,1.896263,0.341566,0.534004,0.066307,4.465725,6.489567,6.127018,1.69566,-13.452942,9.516483,29.437603,39.753971,-24.402225,4.659908,27.932842,44.860531,-31.046699,-9.006088,13.312077,28.563549,-34.16708,-40.069553,-40.337414,-39.545013,-19.419553,-20.973391,-12.486563,-3.386812,-2.52075,16.939781,24.607194,28.342192,17.319336,34.885908,39.885295,38.923582,32.097321,45.131721,47.797548,46.894782,43.854723,52.854586,55.746247,57.012451,25.742524,49.821351,71.301682,89.769494,52.017598,84.730637,101.531067,113.278542,42.931241,79.272812,98.866677,112.256241,33.01838,67.555481,86.529465,99.528145,23.444321,50.486676,66.176766,78.982018,-15.558658,-14.660992,-4.555043,1.415159,13.122408,29.651177,36.347861,40.467787,31.003697,45.501285,51.68964,54.946517,43.770977,58.416965,63.018025,64.007489,51.810337,66.471577,69.548983,68.840607,-10.581739,310.262262,-76.052988,299.656962
109,-1.260315,-0.929134,0.573258,0.099011,0.426853,0.527859,-0.722717,-7.197544,-14.845276,8.847347,29.135113,40.61784,-23.95174,5.527966,28.850979,45.357479,-28.84148,-6.102241,16.090519,31.314983,-30.297615,-33.341823,-31.09766,-28.141456,-13.599206,-12.011887,-1.172739,9.454964,2.965156,20.491195,27.789378,31.935572,19.95824,35.142889,40.468071,40.152687,32.490276,43.921636,46.800724,46.366545,42.595076,51.718119,53.43483,53.547994,25.432514,49.470692,70.928764,89.154693,51.679813,84.32032,101.137688,112.966209,42.542324,78.780029,98.317589,111.691566,32.576706,67.03228,85.962639,98.970108,22.952145,50.038273,65.781944,78.588203,-15.691904,-14.740663,-4.622611,1.455531,13.095472,29.505421,36.218234,40.388993,30.95211,45.233535,51.380739,54.624624,43.703842,58.272555,62.869811,63.838996,51.701236,66.368404,69.464298,68.70052,-12.049175,309.308557,-75.686851,299.731402
110,-2.043766,-2.431496,0.454697,0.151894,3.209931,5.118004,4.944363,-0.023483,-11.602489,12.237602,32.284653,42.977692,-21.207149,8.296028,31.113831,47.893982,-27.319702,-4.33905,17.781876,32.797348,-30.222393,-33.703491,-32.892609,-31.602024,-14.481225,-13.240079,-4.317255,3.828353,3.443462,22.904389,29.913295,33.074373,21.121629,38.397085,42.963368,41.378333,33.91114,47.243894,49.535896,48.530019,44.097957,54.196719,57.555249,59.225685,25.085094,49.205875,70.731056,88.837921,51.253166,83.917968,100.821533,112.775756,42.044918,78.291961,97.831146,111.156372,32.055301,66.599647,85.454612,98.373939,22.452964,49.699173,65.498359,78.250648,-15.799807,-14.883727,-4.815903,1.340638,12.784632,29.301262,36.085495,40.264368,30.672973,45.044715,51.258523,54.460788,43.483257,58.190747,62.752991,63.595712,51.51985,66.276828,69.341946,68.457531,-14.295519,306.840307,-75.434732,299.846542
111,-5.02811,-0.107458,0.365787,-0.054983,5.071323,8.975177,11.106697,7.749927,-6.371167,18.601261,38.442272,48.595035,-16.054299,14.145504,36.812679,53.535152,-22.685658,0.860275,22.87389,37.720836,-26.255059,-28.875779,-27.753571,-26.359223,-14.724534,-13.690091,-4.957867,2.945692,2.849423,22.241893,29.595429,33.220054,20.896907,38.239202,43.036974,41.576095,33.976336,47.280672,49.697324,48.904498,44.297238,54.530615,57.928172,59.53724,24.897148,49.011269,70.512898,88.54652,50.790024,83.552433,100.574581,112.631573,41.446404,77.807819,97.45126,110.820751,31.401993,66.117519,85.016178,97.956539,21.812302,49.239498,65.12907,77.889095,-15.758507,-14.785679,-4.80827,1.347122,12.513449,29.267917,36.148963,40.368591,30.38597,45.004059,51.340812,54.590057,43.225943,58.235282,62.8501,63.674715,51.303749,66.271716,69.391655,68.456754,-19.524999,306.682328,-75.270315,299.741038
112,-2.418354,-1.772805,0.313625,-0.10647,7.693244,13.185699,16.019702,13.813453,-2.559815,22.513526,41.67263,50.76876,-12.6213,17.183647,39.214645,56.047004,-20.543278,3.102287,24.894241,39.322013,-25.6806,-28.517853,-28.40046,-28.406342,-15.8734,-15.577863,-9.064788,-3.880841,2.972665,23.81969,30.786878,33.588766,21.556599,40.986823,45.134549,42.814907,34.871791,50.170789,52.040629,50.856812,45.198683,56.364874,60.916164,63.695957,24.84795,48.901749,70.357819,88.325432,50.381459,83.150231,100.253014,112.428086,40.94727,77.2874,97.010125,110.448326,30.895832,65.6185,84.544373,97.539391,21.339363,48.864647,64.793885,77.591629,-15.580864,-14.59308,-4.725858,1.464646,12.46931,29.33336,36.280627,40.530945,30.297803,45.037317,51.489754,54.786954,43.133873,58.303282,62.985494,63.793622,51.243518,66.32382,69.463298,68.482615,-22.14228,304.849471,-75.155617,299.574516
113,-3.673943,-0.293352,0.259335,0.001087,9.178596,15.876846,20.305767,19.445389,0.893738,26.726852,45.493401,54.175987,-9.066444,21.181114,43.053658,59.931335,-17.243958,6.894093,28.745934,43.115868,-22.686035,-25.274311,-25.274323,-25.660824,-15.998284,-15.809402,-9.433005,-4.48797,3.051854,23.838179,31.041513,34.225586,21.656092,41.498772,45.723377,43.521172,34.950931,50.747156,52.60388,51.560668,45.229188,56.587991,61.295991,64.334494,24.782398,48.806808,70.296925,88.254742,49.996651,82.896275,100.132931,112.444851,40.506901,76.888607,96.741795,110.299679,30.50457,65.207828,84.186092,97.270855,21.061478,48.582401,64.544598,77.403408,-15.491017,-14.536059,-4.738295,1.490321,12.25369,29.174908,36.211578,40.545246,30.020691,44.872604,51.441403,54.801589,42.851797,58.242284,63.009861,63.820459,50.981795,66.296304,69.474771,68.455296,-26.016088,304.500562,-75.096147,299.520046
114,-4.919712,1.057007,0.17419,-0.232281,15.352135,26.249096,34.297794,37.088184,8.072239,34.40443,52.595203,59.756641,-3.560383,26.855953,48.390781,65.547306,-13.771111,10.306435,32.047794,46.168476,-21.227646,-26.037266,-28.780449,-31.795853,-22.356786,-25.915574,-22.692906,-20.124101,-3.114012,19.108233,27.077605,30.384945,18.617934,40.927778,44.958499,42.107766,34.37948,51.981176,53.655637,52.309725,46.468593,57.91681,64.185366,68.668496,24.660496,48.686772,70.218911,88.364731,49.726307,82.716271,100.078721,112.51973,40.177414,76.493317,96.47033,110.145607,30.145009,64.813637,83.819069,96.954529,20.726338,48.269577,64.224404,77.132836,-15.279596,-14.257824,-4.525267,1.599089,12.208736,29.313786,36.443019,40.826483,29.93828,45.01116,51.704263,55.108563,42.809375,58.445629,63.264286,64.072561,51.020414,66.540762,69.694776,68.617429,-31.125853,305.501515,-75.11201,299.231711
