takenoko1/special-research/HandMotion_SimilarSearch_自分用/NewProject/handData/tgt/d4_feature_d2/46.csv
,vel_0x_L,vel_0y_L,vel_0x_R,vel_0y_R,posFromWrist_1x_L,posFromWrist_2x_L,posFromWrist_3x_L,posFromWrist_4x_L,posFromWrist_5x_L,posFromWrist_6x_L,posFromWrist_7x_L,posFromWrist_8x_L,posFromWrist_9x_L,posFromWrist_10x_L,posFromWrist_11x_L,posFromWrist_12x_L,posFromWrist_13x_L,posFromWrist_14x_L,posFromWrist_15x_L,posFromWrist_16x_L,posFromWrist_17x_L,posFromWrist_18x_L,posFromWrist_19x_L,posFromWrist_20x_L,posFromWrist_1y_L,posFromWrist_2y_L,posFromWrist_3y_L,posFromWrist_4y_L,posFromWrist_5y_L,posFromWrist_6y_L,posFromWrist_7y_L,posFromWrist_8y_L,posFromWrist_9y_L,posFromWrist_10y_L,posFromWrist_11y_L,posFromWrist_12y_L,posFromWrist_13y_L,posFromWrist_14y_L,posFromWrist_15y_L,posFromWrist_16y_L,posFromWrist_17y_L,posFromWrist_18y_L,posFromWrist_19y_L,posFromWrist_20y_L,posFromWrist_1x_R,posFromWrist_2x_R,posFromWrist_3x_R,posFromWrist_4x_R,posFromWrist_5x_R,posFromWrist_6x_R,posFromWrist_7x_R,posFromWrist_8x_R,posFromWrist_9x_R,posFromWrist_10x_R,posFromWrist_11x_R,posFromWrist_12x_R,posFromWrist_13x_R,posFromWrist_14x_R,posFromWrist_15x_R,posFromWrist_16x_R,posFromWrist_17x_R,posFromWrist_18x_R,posFromWrist_19x_R,posFromWrist_20x_R,posFromWrist_1y_R,posFromWrist_2y_R,posFromWrist_3y_R,posFromWrist_4y_R,posFromWrist_5y_R,posFromWrist_6y_R,posFromWrist_7y_R,posFromWrist_8y_R,posFromWrist_9y_R,posFromWrist_10y_R,posFromWrist_11y_R,posFromWrist_12y_R,posFromWrist_13y_R,posFromWrist_14y_R,posFromWrist_15y_R,posFromWrist_16y_R,posFromWrist_17y_R,posFromWrist_18y_R,posFromWrist_19y_R,posFromWrist_20y_R,posFromBody_0x_L,posFromBody_0y_L,posFromBody_0x_R,posFromBody_0y_R
6,1.123009,1.003691,0.212219,-0.066851,11.191372,17.336929,16.512794,13.23096,6.450817,25.376827,43.022197,51.393734,-3.40828,20.469532,40.760524,55.998287,-13.235939,7.249992,28.552013,42.959346,-21.504044,-17.191052,-7.221669,-0.144459,-8.314668,-3.604421,7.677355,17.391967,6.597464,28.279725,35.671385,38.342029,19.975814,41.234505,47.385636,47.793461,28.853053,46.615349,51.368155,52.470202,36.026043,49.675033,54.275364,57.183833,23.317349,46.815766,67.645203,85.855179,46.657231,78.793785,96.164635,108.768837,37.078778,72.409264,91.985436,105.221169,27.608368,61.303505,79.883972,92.634865,19.032006,44.971974,60.356667,73.141525,-14.288082,-12.845481,-2.81903,5.299544,13.868117,30.543545,36.828501,40.307717,31.096828,46.009454,51.362313,53.50588,43.411441,59.300106,63.481103,63.693636,51.06727,67.323757,70.64357,69.785499,-31.949913,299.319653,-76.359593,295.476888
7,6.880519,-1.425879,-0.089378,0.17773,8.294907,11.032517,7.80066,2.292103,-2.606414,14.309109,33.166466,43.217309,-11.707008,10.296822,31.811577,48.590355,-20.047267,-0.889183,21.744965,37.580407,-26.604045,-23.462528,-13.358585,-5.479087,-2.58854,4.539076,16.568933,25.967778,11.753018,32.600612,40.4719,43.630223,21.559416,42.131751,49.226453,50.332823,27.240058,44.519812,50.4233,52.67803,31.695721,44.77084,50.730854,55.110514,23.073463,46.591312,67.376381,85.518883,46.690727,78.586647,95.751755,108.246895,37.041504,72.16832,91.524193,104.615387,27.488571,60.938782,79.385673,92.090813,18.794906,44.586674,59.884277,72.694153,-14.489401,-13.164373,-3.052866,4.956175,13.603542,30.329394,36.672335,40.271779,30.909255,45.772061,51.195044,53.458789,43.297413,58.998838,63.225432,63.548386,50.964702,67.017413,70.372363,69.628011,-24.741766,297.708338,-76.121343,295.469182
8,7.27525,-2.08189,-0.200867,0.272838,4.275639,2.772732,-3.404594,-11.883659,-12.407799,2.183693,22.001278,33.64365,-19.970089,0.025337,22.468472,40.295025,-26.198101,-8.198067,15.605244,32.593975,-30.541111,-27.735592,-17.132217,-8.278015,5.736724,16.384014,29.273289,38.262321,19.1964,39.024902,47.290479,50.91135,23.807476,43.739361,51.987153,53.917162,24.939398,42.038618,49.318621,52.727071,25.426708,38.035302,45.316478,51.106049,22.908154,46.34317,67.028916,85.077255,46.6516,78.465065,95.507881,107.865463,37.058647,72.080979,91.335755,104.308594,27.523235,60.818413,79.199524,91.816155,18.838463,44.558865,59.780754,72.490517,-14.662536,-13.461133,-3.38643,4.483549,13.25769,29.825363,36.146802,39.776392,30.629242,45.37198,50.839806,53.160213,43.084226,58.664485,62.891757,63.237461,50.802336,66.719949,70.058016,69.31154,-17.146362,295.497195,-76.002056,295.612767
9,1.307579,-1.717477,-0.293964,0.255042,3.009579,0.165195,-6.677937,-16.287735,-15.56488,-1.282276,18.850742,31.120823,-22.189499,-2.548256,20.277683,38.306499,-27.352764,-9.207733,15.230564,32.64085,-30.60466,-27.018471,-15.859028,-6.403496,11.116989,24.100025,37.732553,46.376437,24.369294,43.678413,52.059883,55.828795,25.602549,45.396409,54.161188,56.541518,23.601601,40.811132,48.698784,52.830726,21.370793,33.998369,41.961554,48.485263,22.728733,46.164196,66.800091,84.758732,46.67086,78.405475,95.360584,107.642223,37.133732,72.098705,91.271244,104.113254,27.606136,60.872532,79.174679,91.657345,18.8852,44.708954,59.890468,72.501972,-14.901647,-13.846159,-3.798663,3.964092,12.891127,29.454588,35.872469,39.619076,30.36763,45.052322,50.586789,52.942913,42.936506,58.414407,62.613793,62.935167,50.75233,66.475788,69.727046,68.890377,-15.505245,293.677027,-75.962482,295.765118
10,5.189175,0.029035,-0.319954,0.217003,1.571239,-2.737061,-10.552666,-20.297264,-21.605095,-7.545639,13.202385,25.945449,-28.606739,-9.06522,14.041763,32.519828,-33.272221,-15.547051,8.980453,26.736946,-35.696389,-33.259083,-22.468804,-12.801407,8.872794,20.630665,33.705784,42.177891,22.928879,42.462758,50.590853,53.986768,25.909522,45.518008,53.893623,56.116231,25.355992,42.069198,49.617617,53.569471,24.17914,36.619724,44.097637,50.122711,22.565403,46.006759,66.644016,84.59444,46.750591,78.594349,95.513454,107.736385,37.234222,72.287235,91.455562,104.292446,27.665073,60.97839,79.305691,91.804722,18.888325,44.83453,60.002483,72.587025,-15.087985,-14.135707,-4.131251,3.565938,12.55623,29.11112,35.582625,39.392872,30.066028,44.71871,50.339491,52.733728,42.674796,58.119265,62.307907,62.609953,50.523582,66.137297,69.366016,68.513811,-9.942896,293.599716,-75.909262,295.875775
11,3.730064,1.926206,-0.42231,0.152326,-2.31197,-8.965931,-16.875904,-27.552132,-28.024109,-11.887848,9.439819,22.923546,-33.917576,-12.680775,11.103699,30.015953,-36.574802,-17.809307,6.918457,25.219437,-36.552017,-33.506996,-22.370922,-11.869331,9.705571,21.835143,35.912076,45.657452,22.947243,41.708982,49.984414,54.148528,25.422348,43.934393,52.328583,54.81589,24.74134,40.555991,47.906735,51.604757,23.344261,35.286087,41.577219,46.550202,22.556969,46.034111,66.717236,84.703663,46.820892,78.928196,95.879826,108.053867,37.311985,72.582218,91.789043,104.621967,27.749039,61.275936,79.63361,92.095104,19.018101,45.172142,60.358463,72.904026,-15.172768,-14.336309,-4.42911,3.257297,12.405534,28.90249,35.374254,39.225924,29.926238,44.490813,50.079078,52.453937,42.534795,57.905004,62.02262,62.278995,50.366328,65.890122,69.047544,68.116706,-5.794127,295.434074,-75.912867,295.936253
12,-4.992817,2.238959,-0.38538,-0.015944,0.869637,-2.430839,-7.363266,-15.127624,-22.131409,-4.00534,16.87476,29.525242,-29.378815,-6.226799,17.124127,35.395466,-33.394089,-13.786949,9.701512,26.819698,-34.48621,-33.191917,-25.042488,-17.218346,1.349036,9.711289,22.025112,31.406543,16.058762,35.221323,43.008062,46.475422,23.661238,42.344752,49.343531,50.576045,27.41575,42.904433,48.799806,51.164625,29.555994,41.091577,46.63685,50.627199,22.664028,46.1456,66.817566,84.773323,46.817597,79.040863,96.000801,108.132363,37.345562,72.781494,92.05291,104.953629,27.839012,61.575875,79.974289,92.469315,19.167195,45.506653,60.732857,73.273865,-15.094333,-14.310905,-4.449772,3.251505,12.374091,28.837492,35.323323,39.183835,29.89225,44.431126,49.993405,52.338451,42.49914,57.878402,61.978221,62.215355,50.302379,65.804413,68.929539,67.945633,-10.344624,297.553694,-75.855927,295.80097
13,-10.7826,3.286282,-0.415294,0.0618,6.480423,8.983749,8.723087,5.302734,-8.856812,12.62558,32.246006,42.965412,-18.106968,8.167774,30.265239,46.763225,-24.656273,-3.334923,18.241184,33.183071,-28.307328,-27.41193,-22.076134,-17.289986,-9.126673,-5.967844,3.7864,12.561813,7.328243,26.87767,33.760408,36.412193,21.168054,39.74201,44.76963,44.554899,30.234533,45.089287,48.998495,49.779724,36.80658,47.980861,52.2675,54.813742,22.732475,46.274906,67.019657,85.031604,46.92097,79.321094,96.325824,108.468166,37.485374,73.106105,92.390796,105.305477,28.042682,61.952808,80.372989,92.900653,19.459579,45.956943,61.204937,73.763683,-15.090912,-14.369902,-4.557737,3.105996,12.375091,28.81515,35.240034,39.050948,29.894041,44.412946,49.868126,52.08541,42.472365,57.869596,61.892956,62.038934,50.233775,65.670575,68.738286,67.696519,-20.611747,300.693489,-75.755744,295.716283
14,-8.837357,3.163252,-0.385186,-0.109237,10.686001,18.085854,22.035004,22.483635,1.831741,25.653523,44.345593,53.787037,-8.937343,19.468815,40.660114,56.007855,-17.439731,4.91573,24.926708,38.254131,-23.042278,-23.258846,-21.025715,-19.169826,-17.964331,-19.54387,-12.407103,-4.363124,-0.535883,19.067218,25.462683,27.615698,18.697975,37.050951,40.543999,39.013095,32.448693,46.670232,49.070261,48.417361,42.800816,53.451626,56.856395,58.251979,22.858498,46.421929,67.238148,85.337849,46.977791,79.547688,96.595585,108.731976,37.560013,73.430661,92.764103,105.750058,28.159802,62.294781,80.750599,93.365834,19.641266,46.248093,61.525944,74.130398,-14.97771,-14.291775,-4.548992,3.097969,12.389739,28.820819,35.182754,38.919296,29.929387,44.4693,49.872461,51.999046,42.494966,57.973275,61.974109,62.06545,50.237344,65.733894,68.803828,67.715514,-28.873198,303.686143,-75.565024,295.436448
15,-8.929916,1.425409,-0.224727,-0.219942,14.010029,25.157936,32.604561,35.319156,11.739235,37.666065,55.23254,63.308887,0.588135,30.738567,51.087925,65.238773,-8.941487,14.73864,33.662693,45.475307,-15.7015,-15.042675,-14.23732,-14.194702,-20.318874,-23.601798,-17.917833,-10.671323,-2.754933,16.592064,22.614866,24.635031,17.555358,36.118088,38.82814,36.57819,32.20384,46.567394,48.158924,46.831352,43.143173,53.480723,56.438123,57.248733,22.948333,46.543155,67.439071,85.567703,47.069961,79.617119,96.703445,108.849197,37.697525,73.609932,92.957725,105.903602,28.326393,62.595634,81.044128,93.614296,19.811542,46.547699,61.900131,74.501449,-14.810009,-14.131607,-4.433964,3.178713,12.549104,28.949297,35.25126,38.900153,30.116207,44.703902,50.021291,52.027612,42.678229,58.256116,62.189,62.155828,50.401167,65.944487,68.972098,67.801903,-37.231207,304.979042,-75.217844,295.083996
16,-4.906002,-1.02849,-0.29226,-0.223105,18.066765,31.937942,40.758545,45.319107,19.04631,43.792762,60.503975,67.348388,6.7061,35.851776,55.230354,68.623466,-4.867104,18.075886,36.429245,47.2882,-13.966976,-13.815605,-13.896481,-15.136277,-22.21602,-26.997959,-23.780788,-18.543179,-3.843259,16.405084,21.735219,22.617113,17.571277,37.508658,39.27572,35.957351,32.862149,48.15428,49.212991,47.590363,44.226571,54.837441,58.372677,59.572351,22.959263,46.621434,67.595673,85.689995,47.181931,79.668274,96.794312,108.990944,37.890473,73.765709,93.109704,106.038163,28.541668,62.83754,81.308739,93.94011,19.98729,46.829258,62.268769,74.91639,-14.697796,-14.009797,-4.332816,3.298584,12.560825,28.999797,35.2923,38.861943,30.182774,44.944433,50.275728,52.199106,42.786305,58.551383,62.491047,62.381119,50.539477,66.149672,69.176653,67.939286,-41.563968,303.839957,-74.936863,294.750296
17,-2.333359,0.508132,-0.197273,-0.137617,18.731152,33.246506,42.347694,47.170647,22.104618,47.155678,63.535973,69.831871,9.573887,38.965301,57.993416,70.926979,-2.510582,20.607719,38.851959,49.379036,-12.358715,-11.25555,-10.538956,-11.38139,-22.569097,-27.809249,-24.827803,-19.338957,-4.232275,15.789296,21.018025,22.061236,17.147348,36.697973,38.417031,35.197031,32.434675,47.409447,48.400281,46.772578,43.816906,54.480993,57.63387,58.4233,22.922264,46.642456,67.771889,85.918579,47.311672,79.81984,97.018822,109.269379,38.068051,73.97049,93.326821,106.185883,28.702904,63.090065,81.561745,94.159401,20.098698,47.045277,62.544823,75.176354,-14.598958,-13.988444,-4.432876,3.210392,12.633048,29.068315,35.338662,38.861523,30.297185,45.141849,50.440837,52.285075,42.912572,58.792111,62.666455,62.429457,50.682021,66.33517,69.338859,68.016054,-43.311069,304.280166,-74.547878,294.544756
18,0.644588,-0.429672,-0.173229,-0.250558,18.593983,32.567952,41.051709,45.631291,21.495415,46.613446,63.254277,69.725888,8.890847,38.254796,57.406437,70.532628,-3.227382,19.905282,38.62769,49.540547,-13.137096,-11.527061,-9.641052,-9.480239,-22.468814,-27.390803,-23.868041,-17.806324,-3.963808,16.06721,21.309264,22.448868,17.251744,36.787116,38.711383,35.734642,32.482508,47.453389,48.578135,47.091235,43.816857,54.886026,57.789975,58.230021,22.999191,46.746712,67.994076,86.241405,47.394642,79.878994,97.106014,109.39278,38.17345,74.062077,93.469105,106.336315,28.801723,63.213444,81.697552,94.293491,20.133076,47.088901,62.616657,75.223011,-14.432368,-13.835452,-4.347241,3.298139,12.76544,29.214787,35.516762,39.028347,30.475681,45.426357,50.757196,52.578821,43.10984,59.089932,62.961597,62.645966,50.866173,66.602228,69.627776,68.266871,-42.155182,303.833528,-74.209808,294.277232
19,0.231102,0.159205,-0.162815,-0.122155,18.671643,32.399929,40.526219,45.001545,21.260457,46.725392,63.312207,69.537129,8.636044,38.569165,57.721219,70.688611,-3.443733,20.285443,38.876828,49.436406,-13.266666,-11.496929,-9.778163,-9.970172,-22.798549,-27.798739,-24.140681,-18.016473,-3.991917,16.157934,21.138858,22.050195,17.174728,36.970787,38.750631,35.65743,32.338172,47.555944,48.515384,46.850717,43.639103,54.863537,57.673563,57.988688,23.127754,46.857559,68.178955,86.504814,47.46112,79.966621,97.228271,109.549438,38.277019,74.175201,93.61116,106.431198,28.942314,63.379578,81.887741,94.445183,20.286655,47.273369,62.830215,75.387199,-14.339199,-13.828856,-4.442744,3.232041,12.87338,29.292296,35.582712,39.069375,30.595168,45.623032,50.932852,52.696394,43.217669,59.252398,63.107266,62.747274,50.928208,66.681368,69.69149,68.335612,-41.488003,304.015174,-73.936546,294.177518
20,-1.146926,0.215583,-0.181515,0.022774,18.910949,33.186183,42.025005,47.209957,22.28754,47.960987,64.785816,71.389377,9.587001,39.684551,59.182285,72.600002,-2.604916,21.275436,40.247028,51.274349,-12.662636,-10.469536,-8.035515,-7.379265,-23.027828,-28.355419,-25.035581,-19.171539,-4.56748,15.261787,20.437892,21.61462,16.785837,36.348343,38.326109,35.458803,32.125738,46.985246,48.226022,46.778012,43.603621,54.883692,57.611603,57.618778,23.316307,46.985893,68.422428,86.89468,47.524773,80.066448,97.297039,109.584103,38.391747,74.32227,93.755642,106.52972,29.129883,63.594853,82.059849,94.528874,20.556622,47.516728,63.061627,75.550633,-14.316401,-14.038549,-4.867909,2.922252,12.724117,29.192655,35.586367,39.168508,30.515794,45.665442,50.997121,52.749956,43.200193,59.28641,63.157024,62.800305,50.958576,66.698411,69.66453,68.267847,-42.273187,304.249627,-73.756319,294.219162
21,-2.181542,-0.114769,-0.084629,0.201479,19.20805,34.737019,44.771565,50.534603,24.227749,50.351635,67.228466,73.911038,11.603005,42.291996,61.889362,75.322323,-0.637333,23.949806,42.952068,53.819286,-10.869049,-8.160095,-5.659653,-4.984337,-23.459896,-28.971651,-25.840004,-20.244898,-5.114935,14.778145,20.156668,21.572173,16.506613,36.47046,38.609297,35.829911,32.012068,47.209005,48.493957,46.993718,43.652848,55.084479,57.547765,57.140336,23.460045,47.095951,68.681717,87.369873,47.838627,80.366913,97.511055,109.662827,38.707478,74.666771,94.079521,106.744011,29.445053,63.890465,82.241615,94.482948,20.91774,47.801251,63.262413,75.639839,-14.570578,-14.610259,-5.604887,2.157189,12.460455,28.87243,35.346837,39.065669,30.354922,45.472176,50.862913,52.763158,43.085979,59.117597,62.966129,62.68808,50.906546,66.542553,69.431064,68.066689,-44.178572,304.128081,-73.564791,294.413864
22,-2.927318,-0.074224,-0.20256,0.059799,19.919483,37.103851,48.53025,54.846656,26.963802,53.491836,70.364227,77.121345,14.555603,45.451721,65.341163,79.348663,2.218986,27.307216,46.486335,57.511665,-8.310231,-5.922181,-4.370465,-4.465714,-23.718753,-29.613744,-27.138837,-22.446695,-5.610655,14.187429,20.215442,22.341632,16.166702,36.489294,39.327973,37.119,31.706663,47.259393,48.878884,47.708862,43.539252,54.680385,57.588866,57.723062,23.591961,47.189186,68.89833,87.780029,48.502166,80.855507,97.939956,110.100631,39.409607,75.132454,94.578804,107.35469,30.036186,64.09806,82.399864,94.574592,21.376396,48.012199,63.301563,75.621963,-14.872735,-15.192763,-6.388475,1.126673,12.488663,28.682782,35.285383,39.22606,30.361751,45.414649,51.155066,53.513413,43.01509,58.93116,63.038415,63.127792,50.847512,66.389708,69.355939,68.25026,-46.911157,304.029015,-73.572618,294.448821
23,-4.266587,0.155648,-0.367127,-0.098838,21.090706,40.808098,54.375,61.379265,31.666867,59.954682,76.507233,82.683541,19.477249,52.293022,71.428162,84.333046,6.964646,34.513127,52.708397,62.407974,-3.911316,-0.189365,-0.668312,-2.856891,-24.436688,-31.073178,-29.634208,-25.92843,-5.46832,14.695956,20.479746,22.529057,16.916204,38.5874,41.235813,38.916604,32.376556,49.106039,50.40181,48.940128,44.018781,55.324713,58.080301,58.124526,23.888546,47.542053,69.39933,88.404694,49.390995,81.3387,98.437454,110.86956,40.334599,75.340119,94.792855,107.912567,30.781162,64.020493,82.305817,94.738953,21.749645,47.941258,62.989517,75.39798,-15.099223,-15.766115,-7.326908,-0.4242,12.72187,28.73159,35.72128,40.209078,30.425503,45.819325,52.388124,55.684188,42.952006,59.02696,64.037993,65.218575,50.898864,66.419633,69.842211,69.490555,-51.033417,304.147573,-73.795418,294.312893
24,-1.055214,-1.031738,-0.436489,-0.479121,21.533238,42.734551,56.859764,63.329521,33.248543,61.45784,78.198807,85.052262,20.894337,53.237778,72.414711,85.943917,7.951161,35.589855,54.399697,64.837853,-3.448139,1.134053,1.434746,0.320698,-23.459698,-30.204609,-29.181368,-26.257856,-4.090311,16.584308,23.758347,27.469374,18.126611,40.440987,44.898786,44.388098,33.176631,50.32561,53.190606,53.426048,44.457382,56.128308,59.40602,60.007691,24.280735,47.970749,69.892147,88.807697,50.258938,81.577915,98.631283,111.338299,41.139496,75.043614,94.467121,107.962589,31.36821,63.35154,81.565121,94.295231,21.893772,47.18795,61.857136,74.240193,-15.35587,-15.982427,-7.854492,-1.848313,13.788212,29.751472,37.359987,42.611292,31.317178,47.584904,55.578508,60.367215,43.579365,60.375131,66.819491,69.556195,51.445318,67.315347,71.737726,72.647828,-52.009644,303.07557,-74.15292,293.793507
25,14.328278,-1.876756,-0.887878,-1.643438,15.683967,31.058578,39.68652,41.057361,17.093685,42.660908,60.295669,68.540108,5.754845,35.774025,55.323418,70.148689,-4.920708,20.359875,39.806808,51.877579,-14.059731,-12.298073,-12.770645,-13.465634,-18.111828,-21.886075,-18.50214,-13.9046,0.231231,22.338458,31.025568,36.410278,19.673619,42.138111,49.503687,52.200674,32.512432,50.209902,55.506717,58.467402,42.192896,54.277229,58.62179,61.30739,24.717521,48.711284,70.536861,89.194805,51.044449,81.582493,98.457264,111.343517,41.772834,74.395282,93.629665,107.489238,31.682876,62.149635,80.23994,93.268901,21.666492,45.981319,60.149311,72.339637,-15.429032,-15.679442,-7.833645,-3.334596,15.165037,31.209152,39.42854,45.542905,32.277373,49.682282,59.255609,65.701475,44.085373,61.900354,70.096894,74.721975,51.727196,68.382073,74.209422,76.716798,-37.706177,301.143313,-75.065609,292.094568
26,15.456333,0.314717,-0.998978,-3.951359,8.009823,15.191597,17.626694,14.186337,-0.88242,17.546848,32.213024,39.870918,-9.240864,13.043495,30.166626,43.937714,-15.871216,2.259476,19.8601,31.985973,-20.677437,-21.827877,-22.268246,-22.054287,-10.344392,-10.563544,-6.031718,-0.488211,5.539815,25.587876,34.306627,40.128802,19.972158,40.194776,48.812392,53.093844,29.03024,45.462926,51.851833,55.739145,35.573239,47.385476,52.668322,56.421401,25.568562,49.52647,70.821957,89.16901,51.17815,80.991039,97.60754,110.584316,41.397514,72.771114,91.745945,106.021008,30.662498,59.455135,77.303707,90.632824,19.919758,42.039883,55.141045,66.494545,-15.540381,-15.274829,-7.63061,-3.87716,15.170656,32.392685,41.641205,48.703501,31.878934,51.160747,62.274697,70.006541,43.54576,63.116022,73.141448,79.413796,51.034924,68.903555,76.552183,80.558933,-22.360977,301.441055,-76.17572,288.126234
27,15.774719,1.661234,-2.397635,-8.013123,-0.679035,-1.486026,-4.982448,-12.314964,-16.230594,-7.310085,0.88773,4.681881,-21.16888,-9.309494,-0.038887,7.129555,-23.62231,-14.776634,-4.526378,2.05798,-23.978004,-28.616432,-31.424434,-33.237991,-8.267836,-8.221721,-4.132325,0.756023,7.376334,25.178509,33.175557,38.817693,19.824266,37.811865,46.613299,52.149063,27.831615,42.902878,49.900545,54.829167,33.546245,44.928662,50.289153,54.336571,25.949919,49.985413,70.655017,87.760884,50.996298,80.511017,95.472491,106.519913,41.366175,72.464493,89.5889,101.91322,30.771035,59.272288,75.595957,87.154152,20.013188,41.708016,53.62278,63.085276,-15.972417,-15.926283,-8.82992,-5.277869,13.366562,31.077562,40.072874,46.869329,29.834743,50.109589,60.83529,68.377824,41.702585,61.85482,71.804324,78.449341,49.626843,67.360783,75.135506,79.481419,-6.746538,303.118483,-78.733635,280.129305
28,22.643063,-2.700975,-3.61647,-12.04117,-11.969925,-23.657593,-35.026852,-46.466652,-40.074726,-44.524395,-42.075096,-40.321518,-41.000084,-44.24255,-41.098435,-36.473465,-38.626499,-43.469193,-39.236698,-35.1744,-34.288777,-45.941231,-50.683994,-52.942429,-6.124529,-3.980641,2.19682,9.177902,10.947249,28.204229,37.383502,44.023437,21.980047,39.172288,49.127862,55.857212,29.432778,44.318147,52.525357,58.641168,34.69952,46.6925,52.858637,57.791223,25.636648,49.728516,69.644549,84.596649,50.539702,80.215244,92.067713,98.999211,41.761488,73.807469,87.577509,95.513169,32.036385,61.810965,75.331507,82.795635,22.010548,45.110069,55.719395,62.109621,-16.824214,-17.704176,-11.409061,-7.337912,9.854051,27.152299,34.370249,39.431405,26.254083,46.164022,54.345408,60.07232,38.59365,57.784863,65.351381,70.669333,47.408262,63.583918,69.547909,72.776683,15.685009,300.488913,-82.561621,268.15954
29,20.686706,-2.9039,-7.777897,-17.052462,-22.304786,-43.908714,-62.468994,-77.512733,-59.849109,-76.008876,-80.217956,-82.539585,-56.743949,-73.035141,-77.585804,-78.809211,-49.777313,-66.337646,-69.714603,-70.588817,-41.124572,-58.872367,-66.87577,-71.829586,-5.009304,-0.89044,8.107965,17.409813,14.260455,30.760561,39.307262,45.328174,24.438628,40.648716,50.334021,57.137508,31.573764,46.440089,54.521687,60.255373,36.472992,48.943513,55.127891,60.031367,24.424696,48.621243,68.277644,81.523751,50.319071,80.344082,85.96332,87.776757,43.645964,75.740376,82.542326,85.316094,35.816082,65.560885,72.542204,74.823292,27.327667,50.757694,56.889851,59.232588,-14.973024,-17.492348,-13.862801,-10.75549,5.704855,19.151149,23.940282,27.16177,18.344016,33.257283,38.741955,42.992452,27.841408,41.794321,47.03196,51.306058,34.662358,46.386168,50.743771,53.313916,36.041353,297.747559,-90.66988,251.269624
30,5.939805,-1.83227,-7.143162,-23.109635,-26.664803,-51.240281,-71.482327,-86.173417,-62.745038,-88.065732,-99.719285,-107.173897,-56.554356,-83.89396,-96.624699,-104.873875,-47.399197,-73.149388,-84.517308,-91.879715,-36.822476,-57.503289,-68.12201,-76.163521,-8.797532,-5.818531,3.490047,12.804528,14.620991,29.317008,36.894525,42.037408,26.727567,42.227735,50.172024,55.374213,35.354371,50.004001,56.642813,60.655034,40.935138,53.798293,59.383037,62.778087,18.50651,38.988614,56.417651,67.533051,41.684596,70.345814,70.850195,68.287812,38.962195,69.379521,70.384696,69.043477,34.973145,62.978468,64.215678,62.562218,29.985707,52.560826,54.710988,53.300189,-16.423183,-23.44163,-23.89749,-21.464116,-4.562337,4.084493,7.317418,9.244901,7.746534,17.537592,20.908807,23.50869,17.927676,26.805347,29.890651,32.544332,25.84976,33.268615,35.71771,37.024479,41.597655,296.225569,-98.196545,228.470269
31,4.855728,-3.864872,-9.316921,-27.745115,-28.879143,-54.289479,-75.672055,-90.164452,-63.95834,-93.922039,-108.962197,-119.244015,-56.912361,-90.032147,-107.999176,-120.660942,-47.438324,-78.002449,-94.718903,-106.620758,-36.970299,-60.277554,-73.609326,-84.473992,-14.770637,-13.572012,-2.77678,7.316806,13.693636,29.585956,37.704456,43.305811,29.792079,46.277068,54.236807,59.747537,41.518519,57.071867,63.916085,68.411096,49.430513,63.26489,68.530212,71.625192,17.886,37.129818,52.102232,58.573666,34.356051,57.409104,55.753687,50.887196,31.325758,55.911736,54.926691,51.014374,27.612213,51.094282,50.425364,46.418175,23.374844,43.03767,44.319294,41.720404,-14.430781,-23.954195,-28.491677,-28.456195,-12.289011,-11.081284,-10.426205,-9.499862,-3.478913,-1.701625,-1.263833,0.26583,4.33617,4.540496,4.190272,5.27112,11.150575,10.869215,9.574599,9.282026,46.142069,292.713153,-107.82478,201.07761
32,4.343879,-4.841615,-11.212331,-27.634106,-29.988716,-56.439422,-79.048198,-93.937774,-67.120113,-99.077419,-114.385208,-124.573162,-59.846752,-95.524887,-113.853836,-126.306472,-50.350982,-83.176929,-100.256858,-111.736896,-40.192062,-64.936226,-78.459652,-89.195503,-15.324896,-12.827808,0.995775,13.498763,16.093256,33.593595,42.290301,48.205224,33.25298,50.852218,59.033949,64.430849,45.421973,62.014358,68.954635,73.180957,53.302634,68.409749,73.57322,76.340849,10.123935,24.019134,35.52,40.06398,23.152336,40.977207,37.321083,31.635211,24.744255,43.087875,39.575546,34.5741,25.712116,43.990356,40.927162,35.739486,25.996433,42.725017,42.296047,38.509735,-15.485163,-29.527361,-38.815018,-42.605759,-26.178945,-33.252732,-35.240651,-34.583534,-19.336295,-25.933765,-28.194324,-27.714727,-12.16748,-19.858055,-22.891532,-22.999935,-4.871953,-11.81436,-15.458394,-17.112138,50.053842,288.25993,-119.469217,173.831896
33,0.264771,-0.567919,-11.097165,-29.944269,-29.5448,-55.431862,-78.245155,-93.696762,-65.64893,-97.676949,-113.390282,-124.433544,-58.645638,-94.442917,-113.356762,-127.502575,-49.470909,-82.574272,-99.986115,-112.303986,-39.56028,-64.788426,-78.360603,-89.533116,-15.777489,-13.445979,1.304762,13.696748,15.734351,32.747071,41.283362,47.309646,33.151376,49.325328,57.680233,63.648385,45.523837,60.971937,68.096243,72.574309,53.475548,67.896246,73.093778,75.910362,5.539685,15.008,23.535633,27.174225,10.142075,21.652153,17.947483,13.86176,14.0029,24.344204,20.374169,16.893929,17.936383,28.696335,24.893887,21.161396,21.67986,32.554985,30.695721,27.267872,-16.040626,-33.933877,-47.458693,-55.734446,-39.218174,-54.233435,-58.262063,-57.171705,-35.042531,-50.560527,-54.289616,-53.978832,-29.437397,-45.146967,-49.727934,-50.443522,-22.942279,-35.589269,-40.348868,-42.589895,49.806971,288.028967,-131.078024,144.224583
34,-0.598618,0.066184,-9.429611,-26.012558,-29.340339,-54.944801,-77.671371,-93.52272,-64.994693,-97.040657,-112.757446,-123.849609,-58.037635,-93.905708,-112.727176,-127.058727,-48.922004,-82.255657,-99.665474,-112.112674,-39.039825,-64.442894,-77.975727,-89.104957,-16.448617,-14.284796,0.547937,12.853287,14.933856,31.588807,40.196295,46.328346,32.623151,48.104226,56.3103,62.312477,45.190039,59.974248,66.922516,71.452118,53.191101,67.248978,72.267434,75.031889,-1.474319,2.387615,7.188297,9.644394,-3.747448,3.336708,3.125748,1.213429,2.872433,9.204323,8.740654,6.992649,10.157444,17.171196,16.186569,14.307381,17.545544,25.107674,25.674797,24.132809,-21.186153,-43.278468,-60.864115,-72.383679,-49.450694,-71.657673,-73.739557,-70.365601,-43.876373,-66.269308,-68.190029,-66.310174,-36.912587,-58.496135,-61.414379,-60.493044,-29.674513,-47.329703,-55.651627,-61.101687,48.340158,288.337364,-141.37583,118.454238
35,-0.418899,0.041917,-10.275959,-25.625785,-29.028282,-54.552544,-77.248707,-93.310833,-64.576058,-96.555336,-112.266278,-123.370548,-57.707405,-93.464493,-112.238926,-126.630387,-48.675064,-81.956166,-99.333229,-111.802666,-38.830399,-64.2785,-77.741947,-88.760937,-16.892814,-14.907525,-0.112374,12.107736,14.431244,30.961459,39.486535,45.631183,32.107694,47.203731,55.26852,61.341686,44.66117,59.020525,65.891085,70.577756,52.692207,66.39776,71.37262,74.273692,-4.453377,-2.931633,1.779213,5.612915,-10.074966,-5.858024,-3.19503,-3.480629,-2.224308,2.214031,4.358666,3.293976,6.816044,12.078518,13.461765,12.207436,16.329277,21.113491,23.711735,23.901512,-22.652793,-47.104394,-67.382272,-80.519499,-53.708434,-83.322758,-82.778181,-77.211524,-49.078481,-79.421126,-79.427697,-75.596923,-43.538042,-72.253799,-73.542148,-70.653821,-37.96952,-62.176885,-74.149648,-81.708053,46.252785,288.394629,-153.320263,92.843801
36,-0.181504,0.030381,-8.436138,-20.439424,-28.846801,-54.358177,-77.094818,-93.325767,-64.17493,-96.018905,-111.759944,-122.951992,-57.451744,-93.002105,-111.698547,-126.151256,-48.56591,-81.596637,-98.844749,-111.235038,-38.849327,-64.275169,-77.668705,-88.549758,-17.382939,-15.542764,-0.665768,11.581425,14.171966,30.604504,38.995422,45.025955,31.974375,46.756411,54.61078,60.588837,44.554132,58.572995,65.287068,69.930501,52.570237,65.908808,70.796328,73.679183,-12.860905,-15.785946,-12.474564,-6.561939,-17.204155,-11.571236,-8.858036,-9.180439,-3.636475,2.573616,3.688099,1.960384,11.090813,17.162647,17.075581,15.115597,25.483395,31.307636,33.351471,33.32103,-28.05252,-56.365665,-79.477096,-94.613364,-60.344052,-94.244232,-92.242203,-85.474611,-54.259803,-89.088066,-87.254808,-82.0223,-47.759738,-79.906774,-79.029449,-74.181739,-41.995356,-68.925198,-83.013289,-93.29456,43.749864,288.430197,-164.077818,72.409564
37,0.121628,-0.239221,-5.529064,-18.476921,-28.755684,-54.247352,-76.968532,-93.273582,-63.967701,-95.708244,-111.422126,-122.716575,-57.263603,-92.573822,-111.23846,-125.831897,-48.421966,-81.261806,-98.567127,-111.126468,-38.705635,-64.162227,-77.621326,-88.597686,-17.624272,-15.840549,-0.911189,11.266807,14.200371,30.503691,38.727536,44.674348,31.981637,46.53385,54.249046,60.213061,44.468114,58.297292,64.977772,69.751511,52.385863,65.572416,70.531283,73.619891,-13.777966,-16.919266,-13.654736,-7.73552,-20.721623,-13.872505,-9.903786,-9.849987,-7.094914,0.992878,3.10952,1.255634,8.208916,15.290634,15.502201,13.45253,23.326401,28.847717,31.185562,31.600273,-30.183342,-59.488519,-84.279513,-100.406022,-59.871193,-95.788579,-91.71412,-83.664522,-54.032753,-92.050611,-87.256914,-79.569037,-48.598457,-83.85672,-79.929684,-72.486351,-44.775384,-74.484607,-90.527808,-102.733209,40.979004,288.129636,-172.49937,53.871303
38,0.035775,-0.040891,-4.306881,-13.965665,-28.571984,-54.063401,-76.729008,-93.054303,-63.716538,-95.303216,-110.978978,-122.336163,-57.043442,-92.206181,-110.856011,-125.492157,-48.274544,-80.993294,-98.279149,-110.910302,-38.554894,-63.977692,-77.468709,-88.528691,-17.798124,-16.037509,-1.099837,10.953745,14.202706,30.444669,38.580743,44.476351,31.97025,46.407608,53.989682,59.903975,44.37865,58.068025,64.707911,69.589281,52.192609,65.215931,70.210082,73.472011,-17.551266,-22.107216,-19.420258,-13.519409,-22.814942,-13.836182,-9.077763,-9.216728,-7.546875,3.566677,6.301426,4.022919,9.384395,18.824501,19.073479,16.406662,25.860226,32.364498,34.858188,35.222626,-32.123836,-62.335182,-88.835945,-105.569208,-58.697144,-96.058064,-88.741325,-78.76935,-52.498063,-91.902644,-83.242519,-72.735767,-47.320822,-84.107593,-76.125877,-65.474832,-44.568106,-76.562292,-94.271167,-108.426251,37.801735,288.060158,-180.019295,39.877051
39,0.128471,0.048128,-1.814713,-13.963633,-28.433807,-53.850929,-76.463356,-92.712811,-63.524746,-95.061482,-110.691616,-122.071987,-56.949303,-92.038731,-110.707821,-125.40176,-48.223732,-80.925877,-98.298763,-111.092079,-38.43306,-63.878849,-77.471912,-88.681,-17.805509,-16.122897,-1.244851,10.621701,14.17645,30.268335,38.267817,44.116334,31.787902,46.072007,53.568334,59.523334,44.122633,57.644343,64.295183,69.317394,51.944459,64.868857,69.887264,73.280375,-18.423774,-23.523628,-20.981083,-14.791752,-25.196731,-15.465156,-10.394268,-10.539825,-9.525386,2.054478,5.019871,2.705761,7.934292,17.343281,17.932366,15.253945,24.93702,30.67424,32.639248,32.5318,-31.32833,-61.900298,-88.343523,-104.797495,-59.757831,-96.389052,-88.319459,-77.937486,-53.483958,-92.091365,-82.841462,-72.300321,-48.089498,-84.519036,-76.233045,-65.569316,-44.920837,-77.203298,-95.047987,-109.627933,35.147101,288.176715,-184.617113,25.981847
40,0.181801,0.064443,-2.339241,-6.529426,-28.340813,-53.668556,-76.184967,-92.202702,-63.292946,-94.815228,-110.452744,-121.880333,-56.747772,-91.882427,-110.631798,-125.419613,-48.028244,-80.77858,-98.232857,-111.141804,-38.167534,-63.628887,-77.338509,-88.705467,-17.764989,-16.138372,-1.361609,10.430225,14.209757,30.139783,38.020617,43.782017,31.739341,45.866254,53.303437,59.243283,44.010494,57.439368,64.100472,69.162659,51.764419,64.597501,69.633976,73.076561,-18.713196,-24.096943,-23.027046,-18.618118,-26.906376,-15.787605,-10.527145,-10.758247,-10.885334,1.399372,4.583874,2.417347,6.952023,16.659371,17.728203,15.459069,24.230851,29.713909,31.366757,31.305325,-30.677241,-60.546841,-86.743978,-104.088835,-60.555215,-95.832151,-88.916253,-79.037978,-55.047362,-92.105748,-83.389233,-73.216735,-50.074231,-85.26797,-77.369555,-66.873023,-47.182848,-78.834065,-96.97223,-112.438318,33.551897,288.544392,-188.733359,19.755655
41,0.276924,0.044435,-2.696319,-3.109584,-28.293114,-53.557182,-76.009724,-91.699997,-63.185257,-94.824669,-110.511292,-121.985459,-56.492226,-91.756508,-110.590771,-125.441059,-47.652306,-80.578182,-98.149132,-111.163021,-37.737671,-63.364609,-77.187779,-88.655697,-17.798939,-16.152537,-1.406538,10.442217,14.095631,30.056383,37.92898,43.756268,31.585138,45.698479,53.179208,59.220658,43.824749,57.301826,63.973538,69.112519,51.527162,64.432331,69.413712,72.853433,-19.210362,-25.28167,-23.487591,-18.165551,-28.58416,-16.670952,-11.175019,-11.676041,-12.175907,0.983505,4.396705,2.063209,5.942527,16.072071,17.921894,15.804039,23.41888,27.976215,29.605842,29.579532,-28.618692,-58.478678,-84.845184,-101.420106,-58.844364,-95.000688,-87.183579,-77.062384,-53.481971,-91.08431,-81.806113,-71.72148,-48.82,-84.13577,-75.565036,-65.006703,-46.313526,-78.303975,-96.759327,-111.980655,32.669958,288.842625,-192.588541,16.899869
42,0.160034,0.223759,-3.067086,1.378775,-28.13063,-53.395615,-75.844253,-91.335617,-63.165562,-94.877724,-110.618477,-122.09063,-56.37783,-91.783253,-110.624416,-125.411465,-47.431938,-80.460331,-97.989841,-110.892528,-37.488922,-63.208099,-77.035629,-88.413403,-18.041939,-16.421139,-1.669608,10.325336,13.839762,29.945763,37.890744,43.817907,31.380547,45.478759,52.965601,59.080584,43.688565,57.138459,63.784372,68.913633,51.415097,64.25796,69.103799,72.418401,-19.667816,-26.877834,-24.700161,-18.301792,-29.765213,-18.598239,-12.693512,-13.111244,-13.120319,-0.390621,3.345784,1.185231,5.032975,14.399449,16.899559,15.114018,22.402428,25.644539,27.31437,27.531819,-26.32199,-55.912454,-82.334331,-97.88214,-55.072383,-92.820008,-83.210174,-72.369402,-49.720808,-88.292968,-77.973443,-67.885748,-45.440813,-81.436882,-72.157845,-61.657589,-43.526118,-75.85985,-94.342471,-108.87054,32.327316,289.219407,-196.158303,18.431667
43,0.631348,0.058132,-3.465671,4.81547,-28.076386,-53.399506,-75.909096,-91.228752,-63.303612,-95.030171,-110.79863,-122.280327,-56.520699,-91.882061,-110.674187,-125.398098,-47.543358,-80.520195,-98.077607,-110.9408,-37.587845,-63.315159,-77.155129,-88.500252,-18.149249,-16.6004,-1.819093,10.364078,13.841206,29.886298,37.757771,43.716562,31.31414,45.287332,52.720908,58.901915,43.58922,56.973066,63.563033,68.673065,51.307046,64.105004,68.904271,72.186293,-20.468914,-29.088936,-27.404423,-21.120483,-30.0485,-20.644604,-15.002518,-15.242775,-13.463642,-2.228062,1.614498,0.076137,4.331749,12.247478,15.172039,13.650638,21.458485,23.146213,24.741531,25.19212,-22.671157,-50.912714,-76.389539,-90.350504,-48.724076,-86.867021,-76.228722,-64.996619,-43.454067,-82.261064,-71.531609,-61.46465,-39.764172,-75.887965,-66.17683,-56.058753,-38.893114,-71.091743,-88.82756,-102.059234,32.696303,289.20853,-199.886335,23.178128
44,0.620544,0.138333,-3.945042,16.734025,-27.900352,-53.376068,-75.9589,-91.250782,-63.403622,-95.220257,-111.081299,-122.613956,-56.550018,-92.082172,-110.936153,-125.677116,-47.529877,-80.635952,-98.270016,-111.140545,-37.558662,-63.364185,-77.252014,-88.621193,-18.292399,-16.801916,-2.044186,10.229919,13.694018,29.926843,37.847618,43.88051,31.166804,45.175305,52.617576,58.867014,43.425347,56.801141,63.437236,68.606906,51.110236,63.847888,68.66999,72.017258,-21.127916,-30.999326,-30.128362,-24.413795,-30.652731,-22.994041,-17.16267,-17.011104,-14.283594,-4.412647,-0.292871,-1.303327,3.195042,10.076975,13.517887,12.402993,20.140995,20.981587,22.642599,23.251642,-20.746363,-48.264069,-73.546,-86.83803,-44.812814,-84.012297,-73.268478,-62.046628,-39.579337,-79.618273,-68.873029,-58.638392,-36.370607,-73.322911,-63.402825,-53.402074,-36.407509,-68.974617,-86.396304,-98.719519,33.010643,289.162529,-204.137581,39.727819
45,0.68747,-0.070309,-3.370342,26.462898,-27.856064,-53.368309,-76.005764,-91.372433,-63.477963,-95.291462,-111.109406,-122.590508,-56.590279,-92.076027,-110.791352,-125.29628,-47.549103,-80.641697,-98.308377,-111.086541,-37.587159,-63.418454,-77.336701,-88.690442,-18.14873,-16.67618,-2.009704,10.310997,13.744543,30.137178,38.049357,44.063501,31.081341,45.316108,52.810015,59.066702,43.26676,56.767586,63.513436,68.721503,50.924861,63.689733,68.571745,71.944664,-21.878454,-33.074255,-33.479628,-28.403423,-32.258863,-26.146637,-19.989384,-19.446808,-16.040411,-7.651291,-3.260256,-4.100538,1.318886,6.915373,10.642891,9.685833,18.095055,18.300831,19.827455,20.081995,-20.115409,-47.932624,-73.692564,-87.073206,-42.829786,-83.766937,-72.533488,-61.054985,-37.570194,-79.579358,-68.516099,-58.076117,-34.762799,-73.037316,-62.839679,-52.755201,-35.544108,-68.701118,-86.218716,-98.437467,32.985506,288.737967,-208.22053,65.836464
46,0.767326,-0.154919,-2.645554,29.671339,-27.781174,-53.442307,-76.147556,-91.889065,-63.539681,-95.256443,-110.814606,-122.023247,-56.661209,-91.950954,-110.252449,-124.242943,-47.646263,-80.611553,-98.161984,-110.774494,-37.696655,-63.462227,-77.363354,-88.657928,-18.017424,-16.448952,-1.80105,10.333524,13.844677,30.268224,38.194556,44.230103,31.048107,45.496493,53.015532,59.306034,43.187027,56.773773,63.646693,68.961674,50.851686,63.592254,68.593345,72.097027,-22.143053,-34.677709,-37.11474,-34.378978,-34.046773,-29.604068,-22.535614,-21.460556,-18.066873,-11.204555,-6.248766,-6.892862,-0.835842,3.48773,7.618493,7.028882,16.014542,15.845559,16.804213,16.434626,-18.687963,-45.612464,-70.755734,-84.565275,-38.451009,-79.974228,-69.177143,-57.899817,-33.219594,-76.44035,-65.604555,-54.861267,-30.835331,-69.949678,-60.240858,-50.318036,-32.415215,-65.617828,-83.167351,-95.47611,33.116432,288.231932,-211.502484,95.156687
47,0.656685,-0.138321,-1.59415,28.67289,-27.744965,-53.429512,-76.122231,-92.176678,-63.472138,-95.094132,-110.30151,-121.128697,-56.564736,-91.67379,-109.455643,-122.826348,-47.562287,-80.423321,-97.780232,-110.21814,-37.590592,-63.28862,-77.170475,-88.466446,-17.884179,-16.251585,-1.677759,10.242639,13.875848,30.197371,38.104364,44.14017,30.978292,45.676458,53.285023,59.661247,43.060785,56.839513,63.873416,69.35143,50.704399,63.538383,68.692232,72.368309,-22.844713,-36.878134,-41.802389,-41.194439,-36.168303,-32.583985,-25.679695,-24.680328,-20.063376,-14.115269,-8.973639,-9.52767,-2.79166,1.055929,5.348923,4.363472,14.047748,13.62965,14.311449,13.783087,-16.900813,-42.179678,-66.089336,-79.460332,-34.296361,-74.379029,-64.55008,-53.53962,-28.68754,-71.241948,-61.052691,-50.316326,-26.409574,-64.675187,-55.4764,-45.825805,-28.510656,-61.017639,-78.161696,-90.510512,33.272244,287.794403,-213.597507,123.530369
48,0.373421,0.023811,-1.373222,29.3151,-27.671265,-53.34739,-75.958729,-92.322716,-63.2883,-94.825139,-109.610093,-119.941121,-56.332695,-91.361893,-108.614903,-121.358437,-47.312439,-80.161297,-97.2487,-109.445721,-37.3499,-63.05587,-76.887555,-88.136673,-17.831296,-16.120155,-1.632545,10.008704,13.712704,29.983974,37.836601,43.750833,30.781987,45.732935,53.444845,59.874496,42.864443,56.851282,63.996521,69.561085,50.530312,63.482585,68.716056,72.469011,-22.493575,-37.560797,-43.947745,-44.419167,-39.285525,-35.769173,-27.833096,-26.380635,-22.578867,-16.505917,-10.999095,-11.749163,-4.886319,-0.519957,4.061176,2.672996,12.042537,11.800472,12.149476,11.299409,-17.113685,-41.459365,-64.839272,-78.421411,-32.293455,-72.046833,-63.581117,-53.310705,-26.252981,-69.022508,-59.622273,-49.107104,-23.901334,-62.124412,-53.862263,-44.421125,-25.957653,-58.736436,-76.011682,-88.685589,33.465065,287.672239,-215.151329,152.699494
49,0.618278,0.010868,-0.918252,19.983252,-27.669022,-53.432648,-76.067116,-92.660614,-63.438538,-94.602894,-108.861134,-118.630314,-56.57016,-90.949791,-107.473206,-119.381985,-47.628937,-79.927219,-96.606617,-108.420776,-37.71048,-62.981598,-76.645832,-87.710277,-17.874102,-16.03699,-1.535288,9.829714,13.710617,29.695143,37.350515,42.966529,30.819853,45.888497,53.50005,59.770187,42.914671,56.993629,64.092691,69.557479,50.545565,63.495985,68.761492,72.5163,-21.877498,-37.803806,-45.222759,-47.511623,-41.827377,-38.02605,-29.295341,-28.111141,-24.96762,-18.609294,-12.355407,-13.357612,-6.954917,-2.357894,2.551507,0.690629,10.298298,10.200154,10.407235,9.374451,-15.874154,-39.046502,-62.089311,-75.559422,-28.088126,-67.563664,-60.617348,-50.705993,-22.109124,-64.865288,-56.00884,-45.243792,-19.954813,-58.120939,-50.463178,-41.058627,-22.145785,-54.773394,-71.9397,-84.990353,34.022175,287.547781,-216.130749,172.54742
50,0.483765,-0.014561,-0.390586,10.197092,-27.518761,-53.355995,-76.007584,-92.752625,-63.448929,-94.257569,-108.102253,-117.414528,-56.728798,-90.547589,-106.509922,-117.775097,-47.946511,-79.740944,-96.008721,-107.489136,-38.13192,-62.944771,-76.390538,-87.266922,-17.972062,-16.071755,-1.617441,9.432882,13.697699,29.442708,36.936836,42.280803,30.929929,46.05568,53.509992,59.574241,43.093377,57.228158,64.213648,69.5548,50.736399,63.734848,69.003171,72.758683,-21.136792,-37.737545,-46.067322,-50.322716,-43.570187,-39.65046,-30.49244,-29.287651,-27.151726,-20.048378,-13.03719,-13.908417,-9.019421,-3.680649,1.494415,-0.498459,8.679588,8.692703,8.750141,7.727886,-14.461625,-36.136217,-57.972855,-70.716553,-22.888939,-60.793719,-56.57322,-47.849042,-17.057761,-59.217533,-51.404272,-40.569761,-15.239001,-53.448019,-46.398963,-37.156112,-17.781562,-49.937811,-66.691309,-79.961491,34.856484,287.420365,-216.170791,182.631657
51,0.202629,0.103481,-0.829182,5.027595,-27.392601,-53.170555,-75.802048,-92.57079,-63.417389,-94.107147,-107.66605,-116.650303,-56.725891,-90.361874,-106.025288,-116.905609,-47.952873,-79.573094,-95.573948,-106.836559,-38.109604,-62.692017,-75.993061,-86.772125,-18.019548,-16.127379,-1.738249,9.195551,13.638666,29.266411,36.615562,41.658705,30.969042,46.106785,53.447081,59.272381,43.157833,57.328058,64.247303,69.465521,50.755257,63.765884,69.013385,72.724276,-21.332005,-38.004295,-46.441315,-51.468945,-44.532143,-40.681206,-32.645611,-31.776398,-28.235275,-21.495644,-14.407757,-14.656345,-9.921867,-4.672131,-0.050491,-2.178715,8.02898,7.671478,7.615631,6.8409,-14.989085,-36.543572,-57.980771,-70.394173,-22.588683,-57.937756,-57.675156,-51.59074,-16.836707,-57.418089,-51.653923,-41.742303,-15.254031,-53.081642,-47.156406,-38.421044,-17.763383,-49.491041,-66.243143,-79.671746,35.417462,287.399067,-216.641624,187.534473
52,0.318008,-0.016573,-1.711681,2.944482,-27.397316,-53.268059,-75.888771,-92.542682,-63.542907,-94.056003,-107.44844,-116.298397,-56.871025,-90.257286,-105.798843,-116.556644,-48.073173,-79.499084,-95.400924,-106.600868,-38.171173,-62.534317,-75.751808,-86.50217,-17.975113,-16.006646,-1.623295,9.293313,13.715828,29.402026,36.705741,41.574588,31.076166,46.242006,53.52932,59.212778,43.277776,57.448359,64.332616,69.439116,50.858899,63.84175,69.057745,72.682927,-20.937092,-37.147236,-45.154404,-50.873177,-44.908047,-41.17178,-32.844086,-31.637822,-28.900921,-22.459053,-14.776303,-14.679497,-10.555287,-5.514393,-0.830658,-2.363491,7.618812,7.118419,6.612796,5.372783,-16.028616,-38.655437,-60.663296,-74.030216,-24.233937,-59.110816,-61.790327,-57.932581,-18.890933,-59.666632,-54.9973,-45.330915,-17.491063,-55.775257,-50.750243,-42.16144,-20.020126,-51.81624,-68.998471,-82.89739,36.005808,287.308557,-218.082967,190.405018
53,0.136849,-0.179632,-1.909287,0.005558,-27.352181,-53.291611,-75.982807,-92.581879,-63.677307,-94.120457,-107.533505,-116.443039,-56.988098,-90.24527,-105.810723,-116.521317,-48.156487,-79.487652,-95.422062,-106.613983,-38.179596,-62.390328,-75.622959,-86.379547,-17.89606,-15.801573,-1.396375,9.543699,13.975526,29.736763,37.071637,41.939472,31.326366,46.512485,53.743705,59.328202,43.509192,57.664696,64.563402,69.636557,51.065701,64.01265,69.210578,72.796696,-20.809032,-36.46756,-44.231621,-50.577255,-44.59956,-40.671135,-32.665523,-31.586849,-28.924175,-22.755936,-14.557022,-14.420574,-10.558983,-6.09993,-1.178009,-2.097885,7.736034,6.873551,6.15905,4.591232,-16.864618,-40.957591,-64.004673,-78.405733,-26.494496,-61.086941,-66.341092,-64.31955,-21.629268,-62.921274,-58.964493,-49.387226,-20.520144,-59.218534,-54.908849,-46.390207,-23.339878,-54.937662,-72.742961,-87.110257,36.265023,287.090139,-219.869888,190.37179
54,-0.232315,-0.22907,-1.919506,-2.019387,-27.257904,-53.147347,-75.804474,-92.350354,-63.572617,-94.137268,-107.650933,-116.671292,-56.795678,-90.300213,-106.038895,-116.865944,-47.863495,-79.476735,-95.522244,-106.77562,-37.799927,-62.212006,-75.504834,-86.348351,-17.692419,-15.515507,-1.079471,9.917326,14.087134,30.055852,37.60342,42.714242,31.302322,46.608668,54.003341,59.744277,43.45915,57.729238,64.779196,69.990251,51.090574,64.136461,69.353012,72.963694,-20.59845,-35.734703,-43.347176,-49.468014,-43.720184,-39.424553,-31.394314,-30.16753,-28.077255,-21.864338,-13.609325,-13.487984,-9.840145,-5.395409,-0.315308,-0.741177,8.222981,7.133938,6.190636,4.431541,-17.702435,-42.923279,-66.407745,-81.480854,-29.383242,-63.933135,-69.29194,-67.550529,-24.409036,-65.79126,-61.953089,-52.650945,-23.300876,-62.108935,-58.128775,-49.777884,-26.362473,-57.692286,-75.711285,-90.150279,36.096377,286.824578,-221.725725,188.315912
55,-0.173333,-0.252781,-1.787842,-3.238352,-27.23806,-53.166732,-75.819339,-92.330944,-63.501228,-94.155899,-107.822101,-117.073139,-56.662422,-90.332531,-106.32978,-117.506286,-47.63665,-79.494197,-95.811813,-107.329982,-37.424423,-61.990219,-75.382461,-86.400089,-17.571364,-15.350263,-0.746365,10.405821,14.229641,30.514015,38.253096,43.613599,31.309286,46.720991,54.308388,60.325212,43.429608,57.745404,64.936634,70.336782,51.109494,64.201273,69.490789,73.212733,-20.361912,-35.143307,-42.113159,-47.543049,-42.700596,-38.189277,-29.936851,-28.870651,-26.566509,-20.806949,-12.521827,-12.687927,-8.362827,-4.353046,0.775727,0.306805,9.338288,8.106377,7.035668,5.049122,-17.562682,-43.405167,-67.630749,-83.193984,-30.899857,-65.92708,-70.096604,-67.713057,-25.92102,-67.21688,-62.919977,-53.730009,-24.804857,-63.130694,-59.158698,-50.959268,-28.017286,-58.965024,-76.965232,-91.268591,35.884088,286.520742,-223.552523,185.026505
56,-0.094482,-0.223561,-1.482376,-3.043727,-27.248611,-53.22773,-75.853043,-92.315746,-63.481201,-94.08601,-107.987846,-117.56963,-56.630562,-90.282223,-106.538532,-118.08387,-47.57428,-79.44088,-96.000172,-107.77113,-37.270317,-61.834328,-75.311886,-86.454884,-17.43702,-15.252933,-0.607402,10.685785,14.491525,31.01323,38.889866,44.433361,31.452387,46.955075,54.653708,60.850399,43.520331,57.870658,65.151982,70.666257,51.201416,64.315203,69.661677,73.422326,-19.772175,-34.378578,-41.158722,-46.591621,-41.937595,-36.065723,-27.22047,-26.689808,-25.523117,-18.603733,-10.267879,-11.21656,-7.312328,-2.505592,3.089607,2.53188,10.319527,9.488777,8.535587,6.590412,-17.251979,-43.228191,-67.879067,-83.317633,-30.882678,-67.824127,-68.9874,-64.242795,-25.748971,-67.924577,-62.039565,-52.174381,-24.415533,-62.721499,-58.065321,-49.610133,-27.654984,-58.677452,-76.453315,-90.676047,35.680538,286.232278,-225.143967,181.917875
57,-0.18338,-0.047721,-0.60363,-2.131155,-27.185875,-53.173393,-75.833302,-92.336632,-63.555336,-94.286156,-108.44846,-118.284828,-56.611908,-90.417538,-106.952557,-118.726101,-47.442238,-79.464993,-96.235336,-108.128884,-37.009621,-61.720619,-75.306587,-86.497902,-17.435167,-15.313917,-0.588482,10.856735,14.658708,31.322192,39.346992,45.173538,31.554423,47.030028,54.729501,61.039875,43.576191,57.892271,65.174262,70.773197,51.233008,64.338582,69.690774,73.526215,-19.093563,-33.724205,-40.351788,-45.914291,-41.845665,-34.290493,-25.097969,-25.354248,-25.198357,-16.75383,-8.425747,-9.936653,-6.760506,-1.148426,4.713593,4.088448,11.096169,10.447918,9.939182,8.639168,-16.832755,-42.980251,-68.094983,-83.074923,-30.080985,-69.05275,-67.545602,-60.795973,-24.800312,-67.814049,-60.903456,-50.679687,-23.284105,-61.960561,-56.705206,-48.112352,-26.372057,-57.432428,-75.389541,-89.945113,35.399574,286.109728,-225.845181,179.711891
58,-0.051315,0.074187,-0.072395,-1.034468,-27.163422,-53.094429,-75.798981,-92.26783,-63.658379,-94.512978,-108.886162,-118.918099,-56.689728,-90.653801,-107.524304,-119.619427,-47.456864,-79.622693,-96.591088,-108.628178,-36.946656,-61.81604,-75.449868,-86.631134,-17.383742,-15.384263,-0.61233,10.996316,14.609258,31.391612,39.546989,45.567074,31.455153,46.936513,54.670925,61.066835,43.467634,57.80051,65.103817,70.76859,51.120152,64.266741,69.613845,73.467725,-18.676735,-33.583855,-39.68113,-45.156452,-42.25034,-33.232693,-23.601815,-24.704144,-25.266609,-15.284432,-6.997204,-9.028324,-6.40313,0.127704,5.929584,5.054626,11.766094,11.430221,11.357357,10.677406,-16.228996,-42.706375,-68.307287,-82.674403,-29.27981,-70.177015,-65.753413,-56.785321,-23.619162,-67.2811,-59.366117,-48.732919,-21.866994,-60.907272,-54.85462,-46.037031,-24.735424,-55.936586,-74.020132,-88.996558,35.258669,286.105949,-226.007166,178.599457
59,0.079788,0.169492,0.186298,0.078213,-27.228195,-53.069641,-75.84652,-92.270405,-63.714249,-94.742661,-109.427056,-119.762215,-56.711518,-90.930325,-108.226971,-120.743363,-47.438942,-79.709748,-96.90754,-109.139214,-36.880211,-61.851563,-75.530125,-86.691651,-17.35951,-15.567847,-0.807819,11.062735,14.706454,31.578358,39.728289,45.841654,31.576666,46.921063,54.578868,60.979471,43.573783,57.910463,65.110549,70.730268,51.143717,64.332617,69.648722,73.463737,-18.518566,-33.637516,-39.405441,-44.954761,-42.522377,-33.076836,-23.377247,-24.851784,-25.424286,-14.653622,-6.359562,-8.541195,-6.271545,0.858284,6.519402,5.480724,12.218845,12.13361,12.333962,12.063915,-16.202888,-42.874225,-68.813554,-82.712719,-28.528196,-70.03439,-65.131951,-55.877478,-22.650137,-66.763847,-58.75033,-48.029384,-20.687092,-60.096686,-53.800898,-44.976011,-23.286759,-54.732045,-72.976624,-88.290998,35.262137,286.211594,-225.897188,178.613823
60,0.130371,0.28977,0.309094,0.724209,-27.254425,-53.077126,-75.954151,-92.358318,-63.894676,-95.133843,-110.144623,-120.746899,-56.82177,-91.410782,-109.13229,-122.00164,-47.462723,-79.939716,-97.276737,-109.584377,-36.881149,-62.067307,-75.759419,-86.850449,-17.36634,-15.736895,-0.991415,10.984275,14.605541,31.534935,39.76834,46.056335,31.502603,46.680039,54.311451,60.71019,43.541772,57.843797,64.975859,70.535298,51.1338,64.285254,69.520059,73.27215,-18.57771,-33.83321,-39.616253,-45.343129,-42.625065,-32.768177,-23.286393,-25.129853,-25.586174,-14.170865,-5.987572,-8.24627,-6.363167,1.294555,6.80603,5.694053,12.26247,12.395748,12.782947,12.840786,-16.463672,-43.289793,-69.45314,-83.17896,-28.508831,-70.330737,-65.108121,-55.666378,-22.389699,-66.783126,-58.70787,-47.991407,-20.25106,-60.147272,-53.683326,-44.848558,-22.646877,-54.521131,-72.792682,-88.286114,35.325571,286.459988,-225.655031,179.296656
61,0.20343,0.493398,0.572101,0.919538,-27.362663,-53.074814,-76.023994,-92.276196,-64.074348,-95.497238,-110.70314,-121.423542,-57.073105,-91.968052,-110.000782,-123.139915,-47.777641,-80.355835,-97.743565,-110.076988,-37.246582,-62.439102,-76.11787,-87.163799,-17.480627,-16.090033,-1.368265,10.727159,14.418561,31.211228,39.419426,45.784918,31.35665,46.234831,53.802826,60.26508,43.412701,57.598216,64.649952,70.200351,51.01603,64.111921,69.355062,73.173226,-18.526268,-33.912769,-39.708252,-45.39751,-43.148083,-33.226478,-23.354141,-24.96928,-26.180294,-14.290066,-5.830799,-8.002247,-6.917152,1.125572,6.767487,5.663017,11.858711,12.034722,12.580033,12.85643,-16.393969,-43.569485,-70.080808,-83.808246,-28.970688,-71.218306,-65.621965,-55.927719,-22.689065,-67.364364,-58.95938,-48.202718,-20.330088,-60.56725,-53.754672,-44.888548,-22.526143,-54.578806,-72.805996,-88.469006,35.474899,286.926753,-225.137032,180.189561
62,0.287933,0.377604,0.520054,0.678081,-27.513244,-53.04998,-75.997638,-92.221412,-64.062835,-95.614174,-110.976516,-121.820034,-57.238426,-92.347526,-110.617401,-124.067814,-48.115928,-80.71067,-98.150848,-110.57072,-37.748954,-62.839141,-76.447895,-87.448768,-17.543477,-16.365131,-1.680438,10.443477,14.239127,30.885099,38.979849,45.185185,31.249179,45.89713,53.409389,59.812956,43.343886,57.443185,64.418709,69.882089,50.945992,63.980294,69.260584,73.093667,-18.664776,-34.17635,-40.04258,-45.850227,-43.574272,-33.47731,-23.556004,-25.237186,-26.554184,-14.362724,-5.877766,-8.062706,-7.153645,1.174164,6.765942,5.640667,11.792107,12.111832,12.723919,13.083824,-16.476689,-43.894873,-70.534816,-84.298439,-29.574545,-71.861573,-66.164023,-56.365442,-23.159492,-67.854749,-59.267206,-48.462217,-20.738431,-60.966849,-53.925745,-45.054743,-22.904734,-54.976836,-73.100792,-88.860164,35.714647,287.285375,-224.665163,180.84866
63,0.228585,0.118079,0.489189,0.515777,-27.677307,-53.093628,-75.962769,-92.11892,-63.95652,-95.50343,-111.014054,-122.010899,-57.262299,-92.438118,-110.898262,-124.64621,-48.277748,-80.822617,-98.329342,-110.870705,-38.027939,-62.962967,-76.554463,-87.637345,-17.540562,-16.468995,-1.791713,10.302563,14.251699,30.874243,38.926398,45.062598,31.314622,45.796107,53.274637,59.637943,43.442749,57.45472,64.360133,69.730962,51.07016,64.090555,69.439388,73.308398,-18.803249,-34.229793,-40.260784,-46.256641,-43.609749,-33.428203,-23.413193,-25.109539,-26.657982,-14.400249,-5.789909,-7.93642,-7.288112,1.197922,6.880829,5.823326,11.743424,12.136082,12.794655,13.267388,-16.801818,-44.40608,-71.146077,-84.917247,-30.280575,-72.599954,-66.788913,-56.920863,-23.763498,-68.572487,-59.896171,-49.081142,-21.266941,-61.539609,-54.491442,-45.71283,-23.416819,-55.320589,-73.432837,-89.271027,35.906388,287.386306,-224.212818,181.347289
64,0.221328,0.137877,0.63636,0.252028,-27.732284,-53.091476,-75.839012,-91.855041,-63.873001,-95.360824,-110.904636,-121.923374,-57.301757,-92.472999,-111.023071,-124.978317,-48.430183,-80.922432,-98.441379,-111.056202,-38.267418,-63.062599,-76.643909,-87.795536,-17.624667,-16.604427,-1.93101,10.055029,14.185588,30.732772,38.742492,44.757365,31.304087,45.692909,53.162782,59.483912,43.452591,57.327131,64.240509,69.597913,51.101565,64.025816,69.472474,73.450596,-19.012504,-34.436977,-40.552036,-46.500686,-43.707916,-33.36652,-23.355411,-25.001152,-26.748802,-14.388473,-5.839061,-8.069744,-7.436222,1.128891,6.776619,5.781361,11.601975,12.033177,12.743866,13.377251,-16.894048,-44.544352,-71.280094,-85.170368,-30.710518,-73.264129,-67.204542,-57.249301,-24.164233,-69.065088,-60.137652,-49.402997,-21.616794,-61.830688,-54.733836,-46.085469,-23.726769,-55.427368,-73.457074,-89.281593,36.098711,287.495478,-223.605463,181.570612
65,0.194687,0.115102,0.686085,0.254856,-27.88742,-53.151191,-75.762909,-91.665882,-63.741279,-95.1996,-110.678432,-121.615997,-57.282829,-92.421386,-110.939678,-124.955406,-48.524643,-80.919113,-98.388691,-111.014911,-38.451462,-63.027557,-76.565918,-87.733944,-17.701274,-16.659149,-1.985028,9.959663,14.290306,30.684929,38.576076,44.348097,31.478224,45.73916,53.148926,59.33854,43.576229,57.332096,64.225184,69.502016,51.113212,63.958718,69.499311,73.52072,-19.186455,-34.523586,-40.736767,-46.713089,-43.682773,-33.460682,-23.426388,-25.015709,-26.661507,-14.520241,-6.041622,-8.318664,-7.358906,0.984364,6.53492,5.624004,11.702271,12.088692,12.806362,13.552975,-16.903694,-44.606744,-71.327672,-85.232686,-30.965411,-73.648815,-67.516505,-57.547024,-24.438961,-69.490141,-60.486097,-49.743304,-21.811703,-61.998328,-54.968821,-46.410152,-23.821543,-55.325059,-73.344719,-89.177975,36.257108,287.587161,-222.955668,181.802049
66,0.206658,-0.091365,0.663883,0.168715,-27.990326,-53.237114,-75.799633,-91.679581,-63.669915,-95.11044,-110.645932,-121.63448,-57.205582,-92.374878,-110.997757,-125.19421,-48.412033,-80.89119,-98.41927,-111.105881,-38.337319,-63.003136,-76.539173,-87.728039,-17.739733,-16.568377,-1.85812,10.044791,14.263394,30.742133,38.673122,44.39778,31.536071,45.831291,53.310933,59.457001,43.67756,57.394093,64.292775,69.504633,51.213334,64.057296,69.607386,73.589633,-19.253059,-34.559303,-40.66222,-46.508388,-43.565059,-33.287304,-23.319671,-24.992969,-26.464966,-14.40097,-6.128391,-8.508316,-7.177826,1.124096,6.454056,5.480496,11.820156,12.326603,13.078858,13.919106,-16.948908,-44.775656,-71.619468,-85.519671,-31.084405,-73.879527,-67.534709,-57.540121,-24.562116,-69.665716,-60.553764,-49.859284,-21.956594,-62.085421,-54.951816,-46.423516,-23.968571,-55.35144,-73.338723,-89.191005,36.418522,287.474733,-222.337029,181.949701
67,0.196289,-0.202888,0.674538,0.283656,-28.072953,-53.340271,-75.890499,-91.630062,-63.569115,-94.95496,-110.551621,-121.602917,-57.098557,-92.27068,-111.031288,-125.426205,-48.285164,-80.800862,-98.376995,-111.159176,-38.196579,-62.848641,-76.404888,-87.67495,-17.601226,-16.362315,-1.721811,10.141332,14.40405,30.972093,38.920828,44.575301,31.71148,46.061522,53.5887,59.673536,43.857699,57.602674,64.531108,69.684167,51.354916,64.276276,69.865874,73.803031,-19.3423,-34.497162,-40.481541,-46.250851,-43.323189,-33.039288,-23.049614,-24.677101,-26.189873,-14.171791,-6.023735,-8.453373,-6.928448,1.313107,6.488296,5.472027,12.016182,12.580078,13.289543,14.139072,-16.956292,-44.853548,-71.778166,-85.72509,-31.224935,-74.187463,-67.708203,-57.674625,-24.702808,-69.87918,-60.65927,-50.015685,-22.0714,-62.269881,-55.172906,-46.707431,-24.05081,-55.346499,-73.331047,-89.19214,36.561985,287.254206,-221.715317,182.215718
68,0.311485,-0.046028,0.858353,0.204122,-28.088631,-53.390991,-75.990795,-91.653408,-63.55085,-94.91534,-110.544468,-121.65992,-57.065575,-92.227844,-111.04224,-125.552673,-48.243187,-80.761826,-98.349667,-111.201038,-38.15538,-62.814514,-76.355244,-87.619755,-17.501981,-16.309494,-1.81524,10.011446,14.463774,31.006351,38.930374,44.515143,31.775761,46.149911,53.69344,59.764518,43.91262,57.675107,64.621411,69.764751,51.387482,64.335951,69.932811,73.852381,-19.447472,-34.521813,-40.586289,-46.496121,-43.200634,-32.540303,-22.734009,-24.422757,-26.16473,-13.840611,-5.988957,-8.548771,-7.030575,1.42202,6.393459,5.313366,11.894462,12.606033,13.331577,14.220302,-16.662743,-44.491838,-71.419686,-85.532786,-31.198963,-74.392648,-67.598719,-57.480704,-24.800422,-69.874265,-60.364881,-49.854158,-22.185688,-62.206154,-54.873552,-46.492255,-24.138878,-55.214106,-73.100878,-89.106814,36.815357,287.182493,-220.915077,182.394155
69,0.218308,-0.024886,0.518943,0.213817,-28.072678,-53.371972,-76.044663,-91.685772,-63.501778,-94.866623,-110.482018,-121.615826,-57.002953,-92.185662,-110.979195,-125.494309,-48.168503,-80.716027,-98.268906,-111.130978,-38.06868,-62.776108,-76.306744,-87.582871,-17.378999,-16.275852,-1.984201,9.854267,14.513311,31.033473,38.968191,44.561246,31.817246,46.173945,53.725798,59.819946,43.968689,57.746491,64.682087,69.818832,51.425323,64.385166,69.961673,73.866004,-19.559005,-34.46442,-40.245838,-46.008087,-42.883049,-31.998561,-22.412841,-24.319473,-25.818981,-13.382869,-5.728202,-8.29842,-6.674045,1.951207,6.76577,5.669335,12.273423,13.158886,13.831433,14.715477,-16.722493,-44.644214,-71.676278,-85.758892,-31.391488,-74.608959,-67.580762,-57.382669,-25.067987,-70.057676,-60.466287,-49.94524,-22.482386,-62.373177,-54.950592,-46.570468,-24.404763,-55.379177,-73.175788,-89.174751,36.986378,287.125219,-220.443421,182.575584
70,0.204551,0.0783,0.421956,0.071483,-28.004631,-53.348213,-76.098438,-91.673836,-63.565155,-94.93515,-110.555168,-121.693989,-57.059669,-92.249347,-111.057598,-125.585792,-48.184204,-80.786167,-98.34383,-111.229168,-38.038971,-62.835869,-76.402656,-87.729664,-17.320756,-16.257303,-2.092092,9.802804,14.394824,30.837007,38.764624,44.413243,31.71248,46.010886,53.525763,59.635386,43.927613,57.684345,64.55656,69.669877,51.438661,64.452548,69.992462,73.870301,-19.584137,-34.288445,-39.861615,-45.441617,-42.646718,-31.348595,-21.877556,-23.89618,-25.597149,-12.852917,-5.324307,-7.909447,-6.490654,2.453281,7.251789,6.133792,12.498081,13.672451,14.362884,15.213787,-16.72242,-44.64482,-71.755764,-85.892804,-31.733463,-75.135913,-67.787701,-57.468367,-25.410653,-70.396761,-60.654861,-50.137432,-22.811924,-62.492097,-54.985062,-46.58918,-24.727916,-55.487105,-73.275281,-89.268767,37.155224,287.147774,-220.05717,182.591322
71,0.364563,0.048202,0.439476,-0.224784,-27.998565,-53.389526,-76.129326,-91.59906,-63.576622,-94.760834,-110.304439,-121.427055,-57.125358,-92.040344,-110.728283,-125.229801,-48.301941,-80.616451,-98.074642,-110.963608,-38.208687,-62.787483,-76.28088,-87.634231,-17.105333,-16.125922,-2.075073,9.841225,14.445978,30.713148,38.555525,44.104157,31.787865,46.004415,53.414613,59.387113,44.023116,57.805586,64.613976,69.582377,51.51748,64.609753,70.202895,74.039275,-19.722851,-34.246113,-39.819672,-45.452443,-42.363568,-30.936139,-21.648526,-23.720799,-25.27961,-12.559479,-5.14,-7.7337,-6.171525,2.778671,7.509372,6.384555,12.798545,14.104042,14.71376,15.465087,-16.709044,-44.539868,-71.601628,-85.839668,-31.877341,-75.021971,-67.755807,-57.514902,-25.6591,-70.384052,-60.660937,-50.137482,-23.100212,-62.451959,-55.024928,-46.634912,-25.034087,-55.580533,-73.380145,-89.290207,37.506386,287.134698,-219.631095,182.30526
72,0.07679,0.3244,0.34655,-0.45042,-27.89843,-53.19738,-75.936607,-91.393204,-63.490585,-94.56847,-110.064342,-121.269333,-57.042824,-91.796974,-110.317966,-124.707584,-48.287361,-80.369167,-97.703339,-110.531284,-38.287765,-62.815178,-76.247887,-87.553734,-17.010819,-16.128998,-2.28232,9.642203,14.304631,30.388118,38.18044,43.724997,31.665327,45.862031,53.139119,58.978535,43.967244,57.715121,64.413509,69.274638,51.52421,64.626795,70.148962,73.90372,-19.749344,-34.043885,-39.772408,-45.393734,-41.959271,-30.526017,-21.398507,-23.316754,-24.977108,-12.506333,-5.119652,-7.609097,-6.03122,2.77462,7.539711,6.45441,12.766502,14.025238,14.707786,15.439762,-16.871584,-44.53914,-71.331686,-85.652885,-32.186106,-74.790432,-67.924385,-57.963926,-26.112916,-70.369812,-60.83143,-50.477603,-23.618903,-62.573866,-55.16846,-46.71988,-25.60387,-56.031818,-73.943914,-89.813628,37.604919,287.398944,-219.262802,181.794686
73,0.316475,0.34285,0.25074,-0.703621,-27.893097,-53.130455,-75.875645,-91.401672,-63.233116,-94.317089,-109.893059,-121.232975,-56.764778,-91.463757,-109.98975,-124.3885,-48.055183,-80.017262,-97.395756,-110.225761,-38.201797,-62.719345,-76.216198,-87.544189,-16.872287,-16.1535,-2.473832,9.484221,14.174066,30.061756,37.775358,43.300464,31.542308,45.68976,52.820204,58.5294,43.888402,57.678763,64.245067,68.951931,51.480257,64.65651,70.079333,73.685668,-19.697182,-33.741898,-39.336823,-44.631489,-41.488175,-30.21801,-21.128106,-22.865548,-24.472275,-12.546673,-5.158951,-7.589035,-5.589055,2.746524,7.500331,6.467594,13.012493,14.109203,14.815738,15.471382,-17.177236,-44.849152,-71.544262,-86.090029,-32.59456,-74.507084,-68.311696,-58.719702,-26.542612,-70.258705,-61.028908,-50.770213,-24.110893,-62.716189,-55.54788,-46.980418,-26.217076,-56.705021,-74.781083,-90.46959,38.024963,287.714238,-218.908493,181.063509
74,0.267448,0.376493,0.37825,-1.208505,-27.814979,-52.936294,-75.659946,-91.326198,-62.897895,-94.01493,-109.663879,-121.126934,-56.381012,-91.0704,-109.601268,-123.97348,-47.700645,-79.613697,-97.023307,-109.872459,-37.983627,-62.481147,-76.018444,-87.350109,-16.747799,-16.1196,-2.680302,9.138394,13.998003,29.722572,37.345537,42.781179,31.372531,45.511968,52.476722,57.990787,43.744238,57.628633,64.109302,68.718662,51.345739,64.650112,69.974578,73.446915,-19.540078,-33.349961,-39.021618,-44.14642,-41.062878,-29.541836,-20.558968,-22.329186,-24.157036,-12.327942,-4.992348,-7.435845,-5.427761,2.76416,7.492698,6.438915,13.028698,14.285762,15.177623,15.816959,-17.314124,-44.911063,-71.464944,-86.312275,-32.97125,-74.533025,-68.493113,-59.030319,-26.915189,-70.274118,-60.979532,-50.71197,-24.463661,-62.829433,-55.561588,-46.81489,-26.58869,-57.043895,-75.259902,-90.938591,38.546562,288.091172,-218.276092,179.855445
75,0.2948,0.434932,0.392566,-1.59342,-27.794014,-52.725609,-75.436889,-91.264297,-62.59964,-93.779835,-109.458263,-121.006004,-56.006378,-90.694542,-109.157821,-123.489429,-47.32148,-79.1716,-96.57146,-109.421573,-37.69178,-62.209579,-75.768883,-87.083519,-16.708908,-16.307629,-3.156063,8.603611,13.607099,29.154,36.762701,42.225784,31.024766,45.099179,51.953759,57.397589,43.492804,57.420696,63.861881,68.453988,51.188239,64.562131,69.801789,73.195518,-19.481804,-32.997676,-38.225177,-42.931526,-40.243,-28.776031,-20.063404,-22.027416,-23.333622,-11.572036,-4.515026,-7.091457,-4.6585,3.519471,7.930413,6.697312,13.702721,15.088978,16.02443,16.732098,-17.830765,-45.643225,-72.165613,-87.115413,-33.244273,-74.407098,-68.35452,-58.963097,-27.061859,-70.019151,-60.645846,-50.360326,-24.536959,-62.687944,-55.335162,-46.511905,-26.544897,-57.09206,-75.309302,-90.904727,39.260679,288.555973,-217.464209,178.291894
76,0.067841,0.313742,0.888783,-1.558581,-27.695183,-52.383614,-75.050263,-91.170799,-62.130844,-93.509777,-109.288513,-120.964279,-55.503639,-90.34021,-108.860367,-123.209107,-46.834236,-78.782044,-96.272679,-109.220822,-37.224701,-61.756897,-75.395165,-86.790619,-16.604513,-16.365761,-3.547018,8.003421,13.353428,28.739136,36.357704,41.900137,30.743801,44.768394,51.526112,56.960865,43.282988,57.299504,63.809097,68.574154,51.065207,64.580026,69.885609,73.414534,-19.320088,-32.391827,-37.146366,-41.172672,-39.339798,-27.708344,-19.003784,-21.085362,-22.62529,-10.427628,-3.599556,-6.389717,-4.121143,4.477775,8.569908,6.894436,14.332523,16.080643,17.293934,18.110241,-18.412552,-46.495886,-73.119231,-87.856417,-33.870965,-75.130824,-68.471314,-59.01656,-27.367474,-70.222099,-60.55824,-50.371725,-24.461536,-62.574551,-54.997967,-46.194927,-25.93705,-56.452128,-74.546752,-90.007357,39.819163,288.898487,-216.084783,176.762085
77,0.183174,0.200541,1.278854,-0.90284,-27.582207,-52.110077,-74.817123,-91.3316,-61.597824,-93.290737,-109.183331,-120.880943,-54.977989,-90.011982,-108.622925,-122.946156,-46.304672,-78.479508,-96.118755,-109.126602,-36.699509,-61.27906,-75.01918,-86.476399,-16.622483,-16.512703,-3.858512,7.598413,12.985827,28.224372,35.902146,41.657124,30.410682,44.341698,51.028786,56.493661,43.03485,57.122045,63.703824,68.649168,50.902581,64.561846,69.953793,73.676614,-19.100624,-31.462475,-35.512218,-38.901512,-37.754493,-24.705642,-16.612026,-19.325477,-21.418384,-7.370613,-1.440056,-4.581962,-3.028553,7.21661,10.572418,8.206295,15.700436,18.811192,20.705258,22.156861,-19.354209,-48.02521,-74.897766,-89.656343,-35.188608,-76.693752,-68.859854,-59.099714,-28.083927,-70.659107,-60.619867,-50.352583,-24.388523,-62.331181,-54.499308,-45.665393,-24.715504,-55.06446,-72.576111,-87.342197,40.581717,289.134356,-214.226549,175.894573
78,-0.103523,0.292511,2.306088,-0.025133,-27.375939,-51.813492,-74.561577,-91.341053,-61.298401,-93.171295,-109.057194,-120.726872,-54.691452,-89.813588,-108.287041,-122.446163,-46.047638,-78.330036,-95.905793,-108.890488,-36.456986,-61.031205,-74.724427,-86.198845,-16.885045,-16.762989,-4.24166,7.105089,12.609941,27.683723,35.402549,41.291056,30.111909,43.855859,50.39997,55.792498,42.826986,56.756113,63.283552,68.295845,50.758913,64.416165,69.915101,73.896657,-18.642678,-29.947792,-33.542965,-36.098831,-34.813568,-20.056629,-12.227211,-14.525128,-19.070503,-2.966011,2.496986,-0.383435,-0.962174,11.082859,14.315654,11.880558,18.028885,23.135536,26.203914,28.15377,-21.260506,-49.965963,-75.944034,-90.290594,-37.005268,-78.336016,-71.141025,-61.966816,-28.807962,-71.76555,-64.267821,-55.245722,-23.54285,-62.516024,-57.739413,-50.827344,-21.895967,-52.0069,-69.170248,-83.223352,41.07605,289.46577,-211.322605,175.908343
79,-0.287636,0.385656,3.312515,0.840819,-27.201782,-51.540688,-74.347412,-91.197979,-60.937431,-93.072956,-108.954529,-120.546341,-54.385185,-89.682346,-108.027203,-121.998253,-45.811775,-78.209564,-95.738342,-108.649532,-36.314507,-60.977074,-74.682335,-86.154419,-17.215533,-17.196415,-4.806158,6.682519,12.090842,26.869383,34.642562,40.694399,29.783607,43.298772,49.71848,55.021285,42.642884,56.323119,62.736394,67.700904,50.690086,64.221614,69.680178,73.722026,-18.416325,-28.581161,-31.214985,-31.735645,-31.091961,-15.109921,-6.76038,-7.070435,-15.540218,2.202335,8.404083,7.300198,2.219547,15.998199,20.086315,18.842503,20.755497,28.435902,32.900745,35.562252,-22.551436,-51.189029,-76.430918,-91.114863,-37.699652,-76.747932,-74.880303,-70.422276,-28.721105,-69.756909,-69.038863,-65.170206,-22.231038,-59.820514,-61.219803,-59.245711,-18.925205,-47.720731,-64.629519,-78.286814,41.406195,289.885422,-207.392309,176.783158
80,-0.400223,-0.060033,4.709393,2.271069,-27.014099,-51.285393,-74.079941,-90.933323,-60.61599,-92.799408,-108.681713,-120.30645,-54.211212,-89.480644,-107.798962,-121.718433,-45.7565,-78.126285,-95.691055,-108.646294,-36.322769,-60.933082,-74.671829,-86.196247,-17.278025,-17.174531,-4.788671,6.647123,12.033253,26.460076,34.140839,40.206607,29.792017,42.986363,49.244533,54.432593,42.677167,56.097618,62.368533,67.243024,50.74944,64.143351,69.551415,73.59545,-17.678021,-26.452332,-28.252373,-26.352665,-26.2939,-8.45707,0.585033,2.276859,-11.195435,8.836418,16.384368,17.213848,5.634841,21.801784,27.374141,27.454513,22.877403,33.855537,40.23801,43.675037,-23.197407,-51.39288,-75.872237,-90.808835,-38.193606,-75.013295,-78.611819,-79.169728,-28.6257,-67.736707,-73.759552,-75.373868,-20.881297,-57.001799,-64.301174,-67.347463,-15.720358,-42.773868,-59.072204,-72.262864,41.772869,289.856036,-201.916019,179.084874
81,-0.201553,-0.080276,6.411838,2.82108,-26.89888,-51.204483,-74.115052,-90.925942,-60.524826,-92.72683,-108.623291,-120.299801,-54.186699,-89.467575,-107.740162,-121.603615,-45.806305,-78.214199,-95.748642,-108.649658,-36.550576,-61.326668,-75.111901,-86.605454,-17.533251,-17.389855,-5.004809,6.490499,11.591479,25.76363,33.2647,39.217464,29.441337,42.304059,48.322649,53.22536,42.42667,55.483462,61.455776,66.006905,50.632436,63.771639,68.828788,72.578001,-16.675312,-24.091919,-24.645447,-19.55294,-20.600452,-0.835041,8.616188,12.427712,-6.150478,16.166142,25.060146,28.070824,9.468945,28.168522,35.061161,36.476292,24.761261,38.628056,46.366345,50.281391,-23.348239,-50.385249,-73.488641,-88.200244,-37.107391,-70.971058,-80.008731,-85.204441,-26.769372,-63.236337,-75.979263,-83.033612,-18.083905,-52.254829,-65.386882,-73.121448,-11.697134,-37.049161,-52.77336,-65.309039,42.587088,289.814706,-194.488409,181.9449
82,-0.027947,-0.443541,7.150406,2.796738,-26.888214,-51.240738,-74.09087,-90.731506,-60.642631,-92.605179,-108.453975,-120.247959,-54.471519,-89.418171,-107.603164,-121.530189,-46.250313,-78.393299,-95.83152,-108.763687,-37.151298,-61.843506,-75.585972,-87.116329,-17.675598,-17.486531,-5.111057,6.285167,11.386356,25.206,32.452991,38.132448,29.241821,41.673513,47.431998,52.063637,42.225142,54.847074,60.541142,64.817703,50.48547,63.283811,68.112816,71.671592,-15.58881,-21.541397,-20.071392,-11.628639,-13.340035,6.557075,17.046741,23.492615,0.279385,22.43391,33.425457,39.287682,13.83831,32.872948,41.740345,45.287933,26.021782,41.010876,49.589905,53.58197,-22.969066,-47.863375,-68.467863,-81.691572,-35.233872,-64.832635,-78.593899,-87.960511,-24.379409,-56.731401,-74.969644,-86.957344,-15.119045,-45.59585,-63.610582,-75.724154,-8.104618,-30.007267,-44.836555,-56.899633,43.833881,289.413699,-186.063263,184.784172
83,-0.135406,-0.723048,8.667389,6.164222,-26.815407,-51.153717,-73.899834,-90.483891,-60.648102,-92.374123,-108.248989,-120.162747,-54.597771,-89.257954,-107.41452,-121.330319,-46.462052,-78.423294,-95.771862,-108.673943,-37.431175,-62.091271,-75.860962,-87.403771,-17.784699,-17.570524,-5.119455,6.193925,11.163981,24.855307,31.898571,37.32248,29.071316,41.303258,46.847395,51.168318,42.044077,54.455021,60.004308,64.069795,50.290363,62.830242,67.454644,70.765466,-14.752785,-19.55452,-15.326569,-3.791748,-2.226643,17.43845,25.788071,31.340263,12.230633,33.049484,41.650017,46.839718,24.762188,42.876057,49.637295,52.53202,34.467018,49.168751,55.277962,57.65245,-22.964657,-46.237412,-65.571947,-76.948713,-34.744536,-60.929767,-76.101195,-86.534588,-24.089181,-53.265189,-72.38776,-84.945873,-15.104793,-42.615676,-60.680339,-72.263426,-7.877698,-28.477141,-41.30732,-50.493966,45.255959,288.661125,-175.83839,190.918868
84,-0.098786,-1.047163,9.429645,5.934993,-26.785812,-51.157196,-73.864402,-90.385345,-60.600219,-92.092804,-107.994278,-120.096164,-54.699028,-89.162201,-107.377018,-121.454338,-46.709838,-78.6347,-96.070255,-109.153118,-37.80883,-62.535278,-76.397163,-88.10099,-17.797556,-17.518308,-5.098102,6.157257,11.009666,24.47296,31.20152,36.2756,28.827661,40.705995,45.941763,49.926838,41.761421,53.837022,59.107963,62.853151,50.049178,62.374177,66.848007,69.993474,-13.534813,-15.895683,-9.279693,3.453473,4.265122,24.782994,33.569012,39.926445,18.275517,39.884629,49.078057,55.342827,29.813176,49.117653,56.990479,61.043004,38.215519,53.41895,59.826153,62.719494,-22.965744,-43.881893,-60.770266,-69.16408,-31.099508,-54.691686,-68.289077,-78.050761,-20.19898,-46.402248,-63.924947,-75.9412,-11.537077,-36.309119,-52.606263,-63.373003,-4.760549,-23.209918,-34.50392,-42.93873,46.839426,287.534594,-164.726492,196.774493
85,-0.01078,-0.896159,8.155409,7.736573,-26.659973,-51.088371,-73.843986,-90.359047,-60.614891,-91.958485,-107.907085,-120.114304,-54.791199,-89.118221,-107.342892,-121.434082,-46.864448,-78.699795,-96.115013,-109.218098,-38.022469,-62.787186,-76.699848,-88.478439,-18.001913,-17.959181,-5.776727,5.463812,10.693257,24.06831,30.586967,35.485899,28.439103,40.12764,45.097919,48.782183,41.368058,53.280651,58.362451,61.908443,49.682047,61.840728,66.184709,69.215431,-10.321329,-8.994873,0.543011,14.097599,13.465233,36.40012,44.724896,50.342984,26.007345,49.639269,58.304964,64.145445,35.936205,57.417984,65.116333,68.843462,42.903008,59.224343,65.296515,67.843415,-20.9856,-38.747445,-53.047432,-58.753232,-23.288161,-45.013376,-57.69525,-66.003663,-13.70388,-37.58185,-53.808154,-64.143339,-7.2406,-29.670665,-44.50753,-53.534162,-2.90837,-19.556781,-29.838182,-37.101834,48.380224,286.611218,-155.019505,204.483849
86,-0.305763,-0.912535,6.136402,10.12955,-26.501312,-50.861824,-73.528336,-89.970635,-60.714066,-91.855007,-107.771256,-119.952027,-55.028664,-89.146477,-107.340019,-121.345711,-47.18676,-78.799336,-96.177899,-109.254696,-38.29493,-62.885697,-76.84742,-88.680519,-18.156585,-18.346641,-6.270298,5.099151,10.593567,23.704068,30.112254,35.010631,28.300324,39.77712,44.576955,48.173225,41.155093,52.871147,57.826173,61.322086,49.404331,61.331089,65.643355,68.664321,-5.080999,1.400151,14.385785,28.193951,25.570919,52.777096,59.865887,62.928017,35.922175,63.245894,70.666804,74.451147,43.574267,68.592934,75.466256,77.625681,48.760895,67.725689,73.619276,75.325848,-17.042169,-31.309447,-43.411836,-47.135466,-12.391745,-33.562825,-46.329321,-53.023337,-6.029539,-28.941041,-44.292095,-52.039826,-3.493486,-24.378828,-38.011584,-44.713745,-3.062005,-18.066633,-27.542969,-33.336405,49.452524,285.693907,-147.50504,214.608623
87,-0.463463,-0.432278,5.194039,10.925661,-26.047417,-49.785233,-71.334675,-85.990219,-61.243927,-92.111801,-108.079742,-120.106567,-55.757698,-89.51017,-107.781464,-121.633484,-47.866333,-79.023159,-96.450577,-109.401615,-38.766998,-63.272759,-77.23399,-88.976543,-18.653947,-20.001872,-9.957168,-0.115263,9.838755,23.110635,29.547127,34.419297,27.44213,39.185033,44.133143,47.768118,40.371505,52.246134,57.276323,60.60425,48.786197,60.735445,65.125862,67.979769,1.10166,11.829197,27.39743,42.021606,35.836578,65.22987,73.840473,78.010952,44.668608,74.520899,83.070402,87.610903,50.919576,78.464435,86.622917,90.109011,55.142772,75.999035,82.906133,86.226677,-16.437015,-27.663172,-36.45937,-37.981178,-4.365625,-22.356434,-34.077657,-40.088689,2.342619,-17.543755,-31.393928,-38.028275,4.501796,-13.091878,-24.894426,-30.306263,4.360802,-8.01416,-16.088107,-20.909184,50.157497,285.334856,-141.142565,225.607511
88,-0.18045,-0.235084,20.103813,14.387784,-26.852211,-50.995377,-73.122494,-88.080918,-61.174828,-92.669484,-108.844174,-120.774216,-55.94909,-90.024262,-108.551091,-122.377511,-48.412995,-79.550801,-97.292965,-110.504998,-39.722214,-64.187394,-78.247685,-90.024491,-18.297524,-20.935637,-13.230804,-4.157186,8.759136,21.224024,27.058178,31.206966,26.375626,38.158124,43.007791,46.414104,39.568059,51.638671,56.55414,59.45878,48.220465,59.969024,64.46869,67.171407,0.124517,10.479538,25.448261,39.337772,32.880615,58.687523,65.992859,69.100605,41.092318,66.645773,72.90188,74.805948,46.706182,69.621677,75.322357,76.06489,50.274227,67.937817,72.901148,73.895897,-16.037971,-26.382098,-32.370233,-31.285568,0.548091,-11.255859,-20.352244,-25.058799,9.591364,-1.967411,-13.061046,-18.703212,14.100552,5.124667,-3.7405,-8.790727,15.623707,10.926186,5.224814,0.455916,50.849791,285.308071,-120.166008,240.203594
89,-0.167771,-1.584688,13.698715,16.011289,-28.528175,-53.343155,-75.033302,-89.707992,-61.960945,-92.152943,-107.324741,-118.530544,-56.812134,-89.479603,-108.002312,-121.547207,-49.299911,-79.410805,-97.329803,-110.622951,-40.259399,-64.078834,-78.192135,-90.189148,-16.669833,-18.264537,-10.977087,-2.053461,9.640178,21.233669,25.771485,28.516846,26.346505,37.71562,42.199873,44.791291,39.356032,51.365931,56.555535,59.084115,48.190935,59.719774,64.705564,67.51417,2.628279,13.663719,29.342411,43.849514,34.010765,60.730625,68.606117,71.213127,41.278364,67.215506,71.810137,70.863951,45.763487,67.567944,70.091938,66.991957,47.980282,64.660298,67.381949,64.670975,-16.464173,-25.976891,-29.226791,-26.104338,2.361243,-6.14332,-13.702725,-16.70398,13.309888,5.273467,-3.949587,-7.565907,19.667673,14.857335,7.965772,4.939947,22.727054,22.802964,18.501757,14.982107,51.313997,284.085259,-105.835316,256.576759
90,-0.214416,-0.376838,7.596731,11.217234,-29.965371,-55.084854,-76.026043,-89.888775,-60.449707,-89.589318,-104.840241,-116.384159,-55.15519,-86.845288,-105.452568,-118.828217,-48.158547,-77.99104,-96.344067,-109.707951,-39.770325,-63.492325,-77.997254,-90.293782,-14.791892,-15.230814,-8.088897,0.788021,10.738619,21.31061,24.887824,26.533287,26.179297,35.941432,39.049256,40.136285,38.484141,49.139224,53.712422,55.29327,47.000128,58.298119,63.405557,66.122934,7.085324,20.526318,37.32977,51.972874,40.508458,69.13638,76.778504,77.950493,45.776242,73.641884,77.463456,74.328015,48.371865,71.457104,73.214035,68.173817,48.554695,65.937252,68.359898,64.338913,-18.945273,-26.743733,-26.275418,-20.485526,4.448895,0.714329,-5.736675,-8.466537,18.512144,14.973215,6.052331,2.313912,27.722094,27.430842,21.220949,18.248358,33.203493,37.800577,34.077743,30.413968,51.571902,284.106217,-97.766264,268.191789
91,-1.126969,0.527891,6.692425,7.411087,-29.182869,-53.954246,-73.50864,-85.829567,-55.0196,-82.383659,-97.32463,-108.943908,-50.551643,-81.338127,-100.951446,-115.392791,-45.063263,-74.443588,-93.878837,-108.524391,-38.312072,-61.831993,-77.058677,-90.312343,-14.480718,-15.064889,-8.842411,-0.510651,9.612885,18.354631,20.387726,20.694194,24.78007,33.57139,35.949645,36.380342,37.102563,47.569393,52.243838,53.792995,45.689069,56.837821,62.356764,65.445619,9.951393,24.708378,42.422653,57.517307,41.269753,69.233093,79.917938,84.493801,45.37603,73.569443,80.367291,80.359028,47.241177,70.385616,75.162071,73.321106,46.780689,64.036801,68.176197,66.166054,-22.92552,-29.411585,-24.98539,-16.880167,2.694553,5.04349,1.71739,-0.42751,21.692611,23.896755,17.606129,13.724844,35.362028,40.248548,36.035071,32.588434,44.516045,53.008876,50.569808,46.535098,50.776565,285.12072,-90.742207,276.089488
92,-2.235168,0.957836,7.476586,6.53538,-28.419617,-52.761429,-71.598461,-83.21275,-48.887146,-72.616894,-86.387158,-97.692421,-44.732002,-72.301598,-91.542046,-105.870381,-40.374092,-67.772839,-87.204025,-102.014443,-35.065018,-57.753433,-73.600525,-87.561882,-13.805503,-13.914665,-6.891605,2.462063,8.953032,15.738278,16.111905,14.987479,23.79131,30.981799,31.781541,30.760844,35.798788,45.252777,48.440271,48.826643,44.051348,54.416192,59.322139,62.002094,11.727836,28.198974,46.74385,61.870319,42.24916,71.835617,82.526287,86.786087,44.423721,74.705646,82.00241,81.98315,44.877296,69.782054,75.13393,73.382698,43.404659,61.971313,66.51099,64.170604,-23.094716,-28.810063,-22.960681,-14.067633,3.397618,8.356041,6.658596,5.982651,23.66871,28.64509,24.106904,21.504037,38.32459,45.46274,42.475021,39.603775,47.880405,57.927518,56.15785,52.315443,48.750944,286.58424,-83.056074,283.130552
93,-1.322045,0.024033,-8.707661,-0.600992,-27.19004,-51.815254,-70.301662,-81.931972,-51.760826,-69.213375,-76.218612,-82.662929,-48.5144,-67.621341,-78.475353,-86.002555,-44.277889,-64.523117,-75.786415,-84.069088,-38.719162,-58.970203,-70.973327,-80.863426,-3.600345,0.640006,9.211667,18.329708,15.33595,22.208005,22.123209,20.473979,23.080785,30.738503,31.582434,29.841245,28.525097,38.560811,41.870213,41.986118,31.229814,40.675565,45.777705,48.835375,20.370003,43.050865,64.748417,81.051636,51.300339,88.137016,104.377029,112.924988,48.982178,88.676136,103.839317,110.132423,46.118568,80.612961,93.567501,98.293979,42.372024,67.821808,78.516792,82.038986,-21.466432,-23.982662,-15.744491,-7.016292,9.307849,14.647,12.102265,10.414589,28.94143,32.995455,27.765529,23.978302,41.86011,48.10483,44.28064,40.411556,49.328143,58.590717,56.027334,51.231982,47.60606,287.090219,-91.586574,283.011506
94,-1.583175,3.255865,-2.975945,-1.645599,-24.298439,-48.688042,-67.035668,-79.028618,-52.075115,-64.732979,-65.416168,-66.361885,-49.398731,-62.061356,-64.451443,-64.87587,-45.425755,-59.485531,-62.394974,-63.851109,-40.304146,-57.573681,-65.289162,-70.866291,4.001661,9.768421,17.887464,26.684366,17.272232,24.663929,25.836409,25.520383,19.762033,28.10775,29.970562,29.325431,20.066759,30.547546,34.3346,35.317308,18.349616,27.247801,32.648826,36.503743,25.517487,51.869431,75.07568,91.863968,59.734097,98.113747,114.656891,123.785385,54.143566,96.216683,114.442498,123.994446,48.483639,86.416878,103.476471,112.610413,42.61678,70.920708,84.915253,93.084092,-19.659096,-19.586959,-9.885266,-1.369872,14.318636,22.098286,21.165064,20.386478,33.472218,39.71248,36.293705,33.096417,45.374993,53.325815,50.782464,47.020579,51.650712,61.025425,59.023526,54.466333,46.190878,290.757932,-94.394526,281.777755
95,-4.44944,4.226618,3.820919,0.629174,-18.483216,-39.503838,-56.09483,-67.251343,-50.109593,-55.911141,-49.107022,-43.954502,-49.63274,-54.115826,-47.810749,-41.449116,-46.671604,-52.923352,-47.422188,-42.580822,-42.212769,-53.70084,-55.258438,-55.755318,2.650809,6.098989,12.169882,19.745065,13.290726,21.144168,23.117613,23.456264,16.268615,25.655443,29.153419,29.958583,16.883476,27.955498,32.052774,33.617356,15.426624,23.863755,28.577522,32.028271,26.06543,52.722645,76.19981,93.825543,58.453835,95.267567,113.659321,125.910862,51.653115,92.527279,113.481182,127.010342,44.851033,82.132565,101.687886,114.686749,38.343441,66.612328,82.181111,93.483319,-18.049719,-17.242505,-7.070632,0.603611,14.585398,24.459796,26.459941,27.75891,33.688061,42.056687,42.499684,41.503774,45.551933,55.221788,55.45912,53.117161,51.6641,61.518021,61.1336,57.82237,41.997895,295.361604,-90.31715,282.783983
96,-13.042774,1.543612,5.29834,1.959279,-13.832314,-30.255604,-44.378838,-54.850903,-43.849251,-40.401432,-26.874104,-17.491116,-44.263871,-36.534966,-22.191525,-9.437211,-42.239171,-37.656762,-24.405224,-13.569878,-38.981026,-46.340344,-44.809983,-42.437314,2.757045,7.147017,14.290762,22.437296,13.380153,24.346779,27.094253,27.584403,15.933557,27.530272,31.279622,31.769216,15.699449,28.072997,30.779369,31.19448,13.749198,22.748407,27.045025,30.154924,25.656018,52.028446,75.026413,92.814251,58.618904,94.082554,111.737469,123.818722,50.857716,89.872502,110.411968,124.047489,42.686726,78.64951,97.751942,110.900837,34.841789,62.612824,78.009464,89.756779,-17.322497,-16.368577,-6.224589,0.937779,14.493477,26.194105,29.822337,32.262602,33.287844,43.477354,45.714522,46.033129,45.295051,56.481447,58.231713,56.937659,51.685886,62.445154,62.948012,60.355643,29.284316,297.227223,-84.689615,285.065269
97,-10.955613,0.595533,4.323258,1.850858,-9.728004,-22.73862,-35.008552,-45.634243,-38.899498,-27.439144,-8.05363,4.803097,-40.703521,-22.61309,-1.549381,16.187313,-40.140529,-25.794273,-5.780994,9.843625,-38.35326,-41.782013,-36.970367,-31.670711,3.46053,9.52799,18.141641,27.121707,14.211759,28.048309,31.71432,32.621545,16.173594,30.202139,35.025353,36.028006,15.133087,29.307339,32.24714,32.915366,12.888077,23.025852,27.885992,31.662104,25.232597,51.334751,74.058941,91.989635,57.957584,92.568729,109.751072,121.528118,49.798027,87.616825,107.614437,120.972438,41.01757,76.056324,94.684581,107.55431,32.574451,59.989185,75.300785,87.309185,-16.927949,-15.853826,-5.732847,1.220138,14.618891,27.563272,32.343989,35.544438,33.115362,44.151371,47.376348,48.570515,45.066401,56.97608,59.588715,59.064195,51.64219,63.008441,64.020826,62.014061,18.686462,298.079622,-80.008598,287.172993
98,-15.068344,1.528002,3.39949,1.310022,-4.342975,-11.150608,-18.738693,-26.22298,-22.638668,-4.584228,15.068699,26.872776,-25.003956,-0.767132,19.123364,35.004124,-26.572654,-6.676288,12.359059,26.392079,-27.576919,-27.673393,-23.536308,-19.968464,-5.913578,-1.728357,7.849169,18.096217,8.503143,24.098765,28.160831,29.335262,16.139915,30.930225,35.349122,36.394532,20.002724,34.719737,36.444377,36.526875,22.365937,34.347098,39.00298,42.670745,24.934525,50.889542,73.42519,91.559177,56.912876,90.622364,107.319134,118.865467,48.504433,85.496189,105.027088,118.071705,39.354172,73.954571,92.335499,104.756527,30.615818,58.088551,73.357464,85.164425,-16.689802,-15.456782,-5.427219,1.276097,14.75925,28.593492,34.007545,37.61887,33.072249,44.955301,48.5986,50.111238,45.097524,57.527487,60.285544,59.897344,51.831691,63.339102,64.323626,62.363754,3.989902,299.822892,-76.237324,288.698283
99,-15.540413,-0.773943,2.42078,0.68979,0.234696,-0.384716,-3.710929,-8.459289,-7.68069,16.535878,35.699353,45.400647,-10.994224,20.531147,39.194332,52.760479,-14.570823,11.752934,30.040844,42.335827,-18.026676,-13.620781,-8.914329,-5.868404,-12.062659,-8.561954,2.422605,12.93292,6.798276,24.133173,27.762319,28.152198,18.080311,34.405675,37.998425,37.970069,24.797187,41.101642,41.415001,39.921024,29.753547,43.754885,47.597267,50.080128,24.415684,50.375279,72.851074,90.907952,56.04007,89.0812,105.509537,117.098099,47.409256,83.828819,102.966019,115.837441,37.925801,72.304001,90.542565,102.783211,28.914402,56.431606,71.702088,83.449448,-16.474294,-15.213808,-5.208524,1.625493,14.62845,29.201399,35.003937,38.829782,32.826284,45.312773,49.224587,50.940582,45.007269,57.781861,60.644869,60.276602,51.986535,63.658413,64.631538,62.663502,-11.156548,299.227185,-73.422581,289.566309
100,-11.907474,-1.487234,1.547631,0.468673,3.079468,5.884071,4.942051,1.762813,3.633247,31.786606,49.882347,57.434028,0.236355,36.914863,53.906959,65.278381,-4.716259,26.002579,43.197258,53.722183,-9.996678,-5.150551,-2.655064,-1.792706,-12.689722,-7.819084,5.083652,16.863309,8.429154,27.179802,30.214316,29.996782,19.750869,37.752942,40.616667,39.970832,25.864061,43.893922,43.328239,41.031741,30.376596,45.343982,49.436812,52.146926,24.141094,50.196224,72.606147,90.170722,55.269996,87.81324,104.120155,115.793243,46.555892,82.473106,101.390762,114.192764,36.943565,71.056137,89.272567,101.478378,27.774272,55.233982,70.5363,82.15821,-16.383434,-15.217895,-5.302619,1.970715,14.415905,29.385625,35.308243,39.071029,32.504812,45.479104,49.402404,51.004074,44.690564,57.81738,60.584403,60.043766,51.725393,63.489106,64.332271,62.176625,-22.714027,297.858966,-71.524955,290.153997
101,-3.029389,0.799372,0.69334,0.186004,4.703373,9.996026,10.856518,9.181755,7.293618,36.396401,53.914879,61.111565,3.650826,40.600022,57.152367,67.90979,-1.836525,29.061585,45.643547,55.367363,-7.470771,-2.900985,-1.074943,-0.905548,-14.398023,-11.364312,0.077101,11.697022,6.984626,25.762049,28.779693,28.547647,19.322741,37.276117,39.991456,39.315351,26.132354,43.723342,42.867667,40.209633,31.196678,45.463111,49.164109,51.506413,24.029766,50.193134,72.616092,89.686786,54.724514,86.988476,103.306698,115.074932,46.007973,81.630306,100.43169,113.226688,36.396,70.30315,88.513035,100.734226,27.233574,54.500267,69.734768,81.321178,-16.212558,-15.205458,-5.361627,2.393273,13.959706,28.952113,34.923366,38.667935,31.934362,45.142244,49.14519,50.793469,44.106195,57.463538,60.213778,59.635263,51.24337,63.344289,64.199347,62.017915,-25.427708,298.721635,-70.515907,290.403298
102,-4.321323,0.789108,0.701145,-0.05271,6.747974,15.182751,18.303703,18.369701,12.037491,40.927082,58.272549,65.576466,8.077286,44.576717,61.079144,71.713451,2.059914,32.518765,48.934902,58.365269,-4.107994,0.190762,1.347736,0.882282,-16.515876,-15.569687,-5.724102,5.442583,4.702059,23.948946,27.079495,26.813301,18.426187,36.439635,39.079959,38.424799,26.19224,43.536856,42.522816,39.506284,31.860249,45.396149,48.828669,50.807054,23.75861,49.964893,72.337326,88.873947,54.063515,85.968384,102.211349,113.976242,45.338722,80.704376,99.519081,112.37709,35.667915,69.541763,87.788704,100.014587,26.419361,53.716141,68.915863,80.275177,-16.116339,-15.019293,-5.033399,3.071762,13.707332,28.803925,34.732248,38.388231,31.666661,45.180974,49.206495,50.869298,43.912941,57.510481,60.069875,59.307294,51.193698,63.382315,64.004216,61.563024,-29.435995,299.534147,-69.501726,290.373992
103,-0.260136,0.311827,0.201359,0.187623,8.093583,17.886635,21.998188,23.29279,12.324097,39.93409,57.751763,65.752259,7.843861,43.218293,60.322083,71.628868,1.53756,30.803376,47.509919,57.305924,-4.821544,-1.233387,-0.212242,-0.609192,-18.159672,-18.960118,-10.278183,0.452396,2.416245,21.868378,25.381606,25.324622,17.543972,35.407835,38.279933,37.776667,26.543267,43.449764,42.595336,39.721348,33.122069,45.941763,49.170013,50.960825,23.568283,49.737968,72.113216,88.254421,53.567276,85.471058,101.774631,113.62167,44.821563,80.195263,99.106029,112.124645,35.159969,68.93597,87.244159,99.55949,25.942989,53.002945,68.055095,79.180378,-16.158626,-15.189552,-5.16767,3.396964,13.345931,28.284726,34.162884,37.83549,31.268519,44.846446,48.919664,50.712081,43.47308,57.117538,59.64182,58.826233,50.711513,62.905552,63.426194,60.79349,-29.335539,299.84598,-68.939775,290.561621
104,-1.976509,0.556409,-0.035145,0.170381,10.361561,22.366402,27.937798,30.79715,15.06379,42.662133,60.293724,67.971062,9.652325,44.308663,61.209641,72.202446,2.218769,30.610863,46.788552,55.96653,-5.113632,-3.579277,-4.459202,-6.310352,-21.740283,-25.266392,-18.237244,-8.000334,-0.835002,18.689737,22.312424,22.280351,16.92685,34.720787,37.526577,37.005675,28.248849,44.39673,43.330375,40.446878,36.709199,48.516557,51.521814,53.229164,23.455914,49.551475,71.816208,87.632561,53.376389,85.167435,101.392158,113.205574,44.55043,79.808418,98.680962,111.701431,34.767002,68.418594,86.644501,98.83326,25.424355,52.334198,67.200279,78.040215,-16.073187,-15.205409,-5.250291,3.587625,13.06824,27.946656,33.78291,37.424665,30.917024,44.584625,48.703007,50.576181,43.069826,56.680457,59.134393,58.309334,50.293513,62.463037,62.878296,60.141987,-30.943297,300.396692,-68.606169,290.726305
105,-2.573204,-1.157141,-0.251232,0.22245,11.036911,24.092377,30.655815,34.042717,16.458401,44.239174,62.304566,70.356102,10.565792,45.219383,62.38646,73.468483,2.642018,31.089615,47.381859,56.493782,-5.099087,-3.379062,-4.093254,-5.874756,-21.641025,-25.6776,-18.985276,-9.135924,-1.5302,18.812053,22.992852,23.153428,16.973113,35.573325,38.784939,38.105314,29.078158,45.632554,45.018989,42.217089,38.242833,50.344468,53.269561,54.67437,23.405182,49.404762,71.495968,87.145786,53.188179,84.950077,101.184185,112.982151,44.313778,79.694698,98.660511,111.751591,34.510677,68.202587,86.388004,98.47855,25.189018,52.046974,66.771297,77.335499,-16.07089,-15.241175,-5.357564,3.418231,12.812309,27.539807,33.377814,37.022225,30.630119,44.24974,48.458834,50.534598,42.739288,56.214475,58.64286,57.911537,49.930766,61.998562,62.296422,59.476367,-33.131653,299.225349,-68.472553,290.934553
106,-1.290172,-2.118484,-0.19083,0.203826,11.046627,23.249908,29.574245,32.73508,16.016178,43.200817,61.861232,70.526104,10.2625,45.227634,63.5182,75.271122,2.703186,31.710537,49.475246,59.612171,-4.901997,-0.356427,2.068405,2.599868,-19.258039,-21.753028,-14.20157,-4.421848,0.562806,21.387552,25.904125,26.322546,17.677673,37.123705,40.908882,40.448903,28.786375,46.246958,46.580732,44.320135,37.306005,50.404984,53.368596,54.7203,23.356075,49.27312,71.232124,86.754158,52.889705,84.846038,101.136703,112.971885,43.951675,79.671501,98.721313,111.79216,34.167354,68.053527,86.199417,98.12812,24.924614,51.839904,66.437851,76.688118,-16.139495,-15.392155,-5.424342,3.38412,12.612917,27.239465,33.074237,36.836047,30.508063,44.010581,48.237668,50.492385,42.627544,55.882431,58.216349,57.547481,49.759532,61.601618,61.743891,58.854206,-34.032554,297.087571,-68.274112,291.119085
107,-1.515278,-1.147125,-0.572102,0.137938,12.149666,24.498173,31.197693,34.672897,16.795212,44.031578,63.048637,72.130165,10.583851,45.638237,64.744812,77.127937,2.662079,31.810524,50.525665,61.358734,-5.245617,0.186184,3.906669,5.416591,-18.228376,-20.629467,-13.279155,-3.831663,0.973816,21.742962,26.601052,27.263684,17.821873,38.087271,42.114608,41.494486,28.937836,47.040105,47.90098,45.910653,37.574767,51.495262,54.365692,55.476595,23.537567,49.469101,71.347607,86.635586,52.841148,84.934078,101.409473,113.466007,43.880253,79.812756,98.899921,112.012882,34.144077,68.028774,86.108471,97.952465,24.952389,51.685364,66.120907,76.127094,-16.172297,-15.518348,-5.558068,3.416749,12.342858,26.778325,32.621508,36.437708,30.225073,43.652502,47.874008,50.232614,42.330957,55.511447,57.837881,57.223835,49.440825,61.219717,61.264683,58.285251,-35.150585,295.910349,-68.448967,291.226926
108,-4.044182,-0.927788,-0.477161,-0.045967,13.849239,27.632023,35.838661,39.995728,20.4165,49.071259,67.734375,76.509727,13.750957,49.799171,68.929642,81.048637,5.24564,35.570435,54.547783,65.2416,-3.090305,4.050076,8.924561,11.182343,-17.755985,-20.507299,-13.831499,-4.743284,1.46782,22.146687,27.014249,27.798134,18.268749,39.344139,43.493841,42.75895,29.426159,47.91501,49.149561,47.222615,38.169079,52.592159,54.977343,55.421131,23.701572,49.575576,71.339538,86.555534,52.776352,84.850479,101.448303,113.542762,43.84711,79.849433,99.038108,112.168762,34.144592,68.073944,86.127433,97.872711,24.981582,51.762016,66.204002,76.159172,-16.139989,-15.398379,-5.490785,3.350207,12.304041,26.710474,32.625867,36.471547,30.12458,43.621071,47.890223,50.338034,42.249521,55.464603,57.757531,57.177979,49.408703,61.245429,61.243095,58.244273,-38.81852,294.942905,-68.549881,291.141303
109,1.708626,-0.525804,-0.414769,0.099603,13.614315,26.464634,34.245048,37.95488,17.777973,45.922714,65.302231,74.926025,10.933605,46.134567,66.149894,79.525818,2.721725,32.124962,51.797493,63.453209,-5.095768,0.239158,4.466697,6.511642,-17.231169,-19.862107,-13.768848,-4.998919,1.705163,22.674899,27.517453,28.162312,18.326015,40.048785,43.914978,42.753379,29.491082,48.504491,49.664436,47.794769,38.140401,52.767814,55.480287,56.369332,23.613625,49.521561,71.35896,86.553532,52.644322,84.800297,101.587132,113.76289,43.89774,80.13255,99.51582,112.713124,34.394795,68.566761,86.67342,98.375576,25.40989,52.430489,66.926182,76.87872,-16.291413,-15.563314,-5.560155,3.328607,12.081518,26.302366,32.218018,36.037677,29.931117,43.200144,47.427824,49.843043,42.134826,55.216083,57.464032,56.850431,49.386646,61.136095,61.137836,58.160355,-36.735512,294.37549,-68.590268,291.199295
110,1.879749,-0.224513,-0.232074,-0.129305,13.410988,25.478233,32.82114,36.288838,15.593468,43.14941,63.072178,73.329563,8.792862,42.921856,63.448483,77.821873,0.826939,29.122822,49.157444,61.592869,-6.628612,-3.599773,-0.711147,0.71759,-16.982981,-19.586415,-14.095297,-5.671516,2.039505,22.998274,27.661937,28.091646,18.453716,40.510617,43.919623,42.342036,29.540064,48.754519,49.763879,48.002078,38.062707,52.578056,55.810331,57.520126,23.462677,49.288902,71.155403,86.46492,52.643875,84.73645,101.599731,113.774482,44.000736,80.225349,99.642288,112.794914,34.572979,68.775467,86.828727,98.419326,25.617622,52.677337,67.151344,77.044441,-16.332885,-15.512284,-5.43269,3.496259,12.085272,26.172986,32.104311,35.914435,29.924509,43.118806,47.317859,49.628547,42.163465,55.236275,57.469108,56.762448,49.485113,61.231029,61.288766,58.293402,-34.500795,294.110719,-68.467374,291.029732
111,-0.908523,0.006793,-0.505326,-0.086426,14.846569,28.004001,36.139217,40.178295,17.022285,44.677013,64.726902,75.211223,9.308544,43.177288,63.903476,78.743007,0.533042,28.634914,48.681758,61.32265,-7.342804,-5.852383,-4.347325,-3.685433,-17.404774,-20.79707,-16.202493,-8.451841,0.540452,21.696761,26.610932,27.004863,17.88739,40.494166,43.762974,41.799397,29.96235,49.409506,50.395512,48.530587,39.325281,53.813594,57.187489,58.952081,23.394242,49.283249,71.25998,86.678101,52.742501,84.819168,101.773613,113.983681,44.22329,80.497559,99.945282,113.108368,34.892269,69.13028,87.126183,98.621132,25.982552,53.087094,67.547539,77.399346,-16.327241,-15.442531,-5.357811,3.61976,11.94952,25.915537,31.860644,35.635607,29.762834,42.757875,46.933215,49.180893,42.045905,55.017518,57.285524,56.570232,49.440937,61.198894,61.307279,58.313915,-35.038358,294.080227,-68.60174,290.906021
112,-1.103531,-0.680638,-0.286331,-0.210631,15.374462,28.789478,37.227573,41.332821,17.88755,45.734905,65.722309,76.322834,10.061222,44.126896,64.864048,79.746311,1.310325,29.728969,49.697284,62.258571,-6.396206,-4.584904,-3.034184,-2.366066,-16.689358,-19.717759,-15.28792,-8.02496,1.022575,22.370458,27.247715,27.562865,18.207035,41.162924,44.323483,42.189475,30.259369,49.947463,51.01987,49.144288,39.704502,54.188197,57.600241,59.393362,23.232536,49.166668,71.219353,86.766815,52.922081,84.951851,101.897118,114.014282,44.469006,80.690163,100.13047,113.215599,35.132275,69.408531,87.354492,98.758347,26.187309,53.415859,67.894043,77.773636,-16.328006,-15.308569,-5.211697,3.654254,12.024436,25.861839,31.865078,35.692813,29.844654,42.70393,46.970254,49.25492,42.153265,55.003982,57.33075,56.663043,49.566797,61.35022,61.554429,58.642996,-35.774952,293.364434,-68.521134,290.660235
113,-0.7095,-0.096108,-0.403004,-0.079225,15.792092,29.772263,39.004692,43.565712,18.488606,46.421929,66.466713,77.045929,10.376026,44.321778,65.159386,80.074425,1.486565,29.991074,49.925949,62.480667,-6.040489,-4.20124,-2.932548,-2.403213,-16.513703,-20.099413,-16.457992,-9.826813,0.71644,22.148452,26.905803,27.056931,18.194487,41.532327,44.426284,42.028874,30.52539,50.445665,51.359868,49.297836,40.13384,54.710087,58.000161,59.550381,23.113404,49.183835,71.355938,86.974926,53.289139,85.231373,102.164761,114.243268,44.881611,80.997357,100.349408,113.342411,35.527474,69.821286,87.637516,98.899304,26.543438,53.8984,68.355389,78.196713,-16.302825,-15.242003,-5.149552,3.708458,12.031166,25.759814,31.785777,35.612191,29.853644,42.517653,46.813407,49.125972,42.197304,54.820447,57.187044,56.566267,49.68217,61.343835,61.549785,58.684195,-36.084378,293.228788,-68.524064,290.541472
