takenoko1/special-research/HandMotion_SimilarSearch_自分用/NewProject/handData/tgt/d4_feature_d2/52.csv
,vel_0x_L,vel_0y_L,vel_0x_R,vel_0y_R,posFromWrist_1x_L,posFromWrist_2x_L,posFromWrist_3x_L,posFromWrist_4x_L,posFromWrist_5x_L,posFromWrist_6x_L,posFromWrist_7x_L,posFromWrist_8x_L,posFromWrist_9x_L,posFromWrist_10x_L,posFromWrist_11x_L,posFromWrist_12x_L,posFromWrist_13x_L,posFromWrist_14x_L,posFromWrist_15x_L,posFromWrist_16x_L,posFromWrist_17x_L,posFromWrist_18x_L,posFromWrist_19x_L,posFromWrist_20x_L,posFromWrist_1y_L,posFromWrist_2y_L,posFromWrist_3y_L,posFromWrist_4y_L,posFromWrist_5y_L,posFromWrist_6y_L,posFromWrist_7y_L,posFromWrist_8y_L,posFromWrist_9y_L,posFromWrist_10y_L,posFromWrist_11y_L,posFromWrist_12y_L,posFromWrist_13y_L,posFromWrist_14y_L,posFromWrist_15y_L,posFromWrist_16y_L,posFromWrist_17y_L,posFromWrist_18y_L,posFromWrist_19y_L,posFromWrist_20y_L,posFromWrist_1x_R,posFromWrist_2x_R,posFromWrist_3x_R,posFromWrist_4x_R,posFromWrist_5x_R,posFromWrist_6x_R,posFromWrist_7x_R,posFromWrist_8x_R,posFromWrist_9x_R,posFromWrist_10x_R,posFromWrist_11x_R,posFromWrist_12x_R,posFromWrist_13x_R,posFromWrist_14x_R,posFromWrist_15x_R,posFromWrist_16x_R,posFromWrist_17x_R,posFromWrist_18x_R,posFromWrist_19x_R,posFromWrist_20x_R,posFromWrist_1y_R,posFromWrist_2y_R,posFromWrist_3y_R,posFromWrist_4y_R,posFromWrist_5y_R,posFromWrist_6y_R,posFromWrist_7y_R,posFromWrist_8y_R,posFromWrist_9y_R,posFromWrist_10y_R,posFromWrist_11y_R,posFromWrist_12y_R,posFromWrist_13y_R,posFromWrist_14y_R,posFromWrist_15y_R,posFromWrist_16y_R,posFromWrist_17y_R,posFromWrist_18y_R,posFromWrist_19y_R,posFromWrist_20y_R,posFromBody_0x_L,posFromBody_0y_L,posFromBody_0x_R,posFromBody_0y_R
6,-0.044884,1.145149,-0.104519,0.67881,0.236058,-3.732868,-10.813224,-17.714435,-26.748104,-8.558738,10.540043,22.464421,-35.341564,-13.8418,7.912434,25.73354,-38.8404,-22.582855,-3.133541,12.589611,-39.420456,-40.407051,-38.254314,-34.921703,-16.09995,-24.210855,-23.627091,-20.436138,-9.154042,3.353381,9.20343,13.191827,6.824927,17.105902,21.872762,25.431154,19.171897,26.726591,28.40766,30.043243,28.598234,35.507314,34.742041,34.214285,28.14497,53.64497,75.693112,95.806813,48.785134,81.741772,99.330769,111.786724,37.656865,75.075955,95.228177,107.990078,28.317616,63.002839,82.063374,94.468197,21.087479,47.102715,62.778088,74.523343,-12.926881,-10.052646,0.763902,8.304208,20.565913,37.463444,43.341009,46.579966,37.915568,53.982395,57.853059,58.134802,49.330317,66.434452,69.166513,67.667312,55.13782,71.665268,73.838401,71.684386,8.114124,333.143158,-71.732632,301.271041
7,-1.909092,-0.024083,0.226273,0.236591,0.71061,-2.602226,-9.013538,-15.361221,-25.149822,-6.289798,12.938668,24.807381,-34.194454,-11.922454,9.92656,27.643113,-38.061069,-20.80553,-0.984741,14.613144,-39.024833,-39.192272,-36.014682,-31.750122,-16.542441,-25.397524,-25.456829,-22.50432,-9.399227,3.650635,9.415036,13.256208,6.801796,17.841683,22.546088,26.031208,19.210763,27.287112,28.695886,30.081355,28.538954,35.956512,35.016769,34.041101,28.076649,53.449116,75.328182,95.395077,48.556583,81.720348,99.270664,111.675098,37.467625,74.991978,95.113918,107.913197,28.165695,62.898834,81.978733,94.447163,20.927204,46.962009,62.612446,74.345112,-13.065214,-10.256028,0.558631,7.9825,20.131943,37.072551,42.936864,46.235411,37.535654,53.49653,57.438195,57.896222,49.060813,65.958282,68.849251,67.610451,54.942651,71.367421,73.669896,71.671023,5.50387,333.009051,-72.207521,301.397608
8,0.43063,-1.186645,0.236916,0.529176,0.902195,-2.29311,-8.279068,-14.310413,-26.037678,-7.046425,12.547932,24.286297,-35.105575,-12.565143,9.332623,27.095112,-38.939506,-21.404503,-1.331211,14.38567,-39.7309,-41.961239,-40.682236,-38.207542,-17.361042,-26.495682,-26.017931,-22.322663,-9.10847,4.48387,10.025389,13.620498,7.786431,18.861083,23.165642,26.691233,20.430741,28.36851,29.631627,31.071671,29.906231,36.609782,35.505511,34.477194,27.873493,53.130912,74.978061,95.077274,48.189468,81.532711,99.157711,111.505336,37.124359,74.856708,95.077251,107.798412,27.927749,62.918529,82.121601,94.549358,20.865829,47.194725,62.95071,74.633571,-13.390318,-10.73857,0.059268,7.527128,19.704667,36.57115,42.405663,45.722586,37.251096,53.103823,56.973659,57.441085,48.893,65.618816,68.316333,66.977831,54.823065,71.102364,73.190454,71.000253,5.457258,331.713833,-72.447847,301.818211
9,-9.308624,3.807345,-0.017876,0.320904,4.243915,4.425487,2.530941,0.234352,-15.90667,6.222027,24.680408,35.237148,-25.318691,-0.197525,20.006275,35.84135,-29.999611,-8.923164,9.284008,22.69186,-31.359627,-30.658722,-27.901051,-24.507546,-18.491198,-29.840479,-32.574071,-31.413892,-12.46684,0.958317,7.255686,10.957006,4.106464,16.186895,20.898143,24.329897,16.706105,25.682812,27.198438,28.304018,26.076483,33.229984,32.597042,31.488314,27.862095,53.116905,74.942402,95.010578,48.143211,81.500667,99.109074,111.480823,37.124061,74.815693,95.033443,107.822033,27.965412,62.835789,82.082989,94.631527,20.92876,47.122124,62.877296,74.626476,-13.610927,-11.045852,-0.316162,7.270938,19.480835,36.27775,42.065628,45.359247,37.000254,52.70021,56.495983,56.971758,48.652607,65.256156,67.978263,66.712626,54.605581,70.80327,72.97497,70.87138,-4.145759,335.419117,-72.760116,302.037054
10,-1.153038,0.879956,0.105709,0.343827,5.173221,5.984814,5.455341,4.99427,-13.528187,8.020809,26.068577,36.840557,-23.025753,1.828812,21.047756,36.431499,-27.938313,-6.954529,10.520794,23.145664,-29.20134,-30.547371,-30.390209,-29.165474,-18.480009,-30.359096,-34.942792,-35.2686,-12.683609,1.33949,7.954342,11.217716,3.45312,16.30264,20.748793,23.507888,15.620915,25.757233,27.147457,27.710164,24.573045,32.036583,32.428043,32.338147,27.747162,52.930115,74.73484,94.780998,48.032593,81.38768,99.003685,111.297478,37.085552,74.671349,94.859619,107.597351,27.98711,62.723362,81.972313,94.489174,21.005379,47.181759,62.933292,74.659195,-13.675555,-11.242861,-0.66646,7.006856,19.395075,36.076505,41.87351,45.23004,36.831552,52.549143,56.361009,56.898101,48.395551,65.017836,67.744413,66.524299,54.286466,70.470064,72.608777,70.487416,-5.485617,336.184786,-72.841227,302.266594
11,-9.363407,5.074204,0.153889,0.191735,7.386806,11.054352,14.159019,16.613434,-3.637001,20.403946,37.41069,47.245926,-12.743386,13.906311,31.303756,45.024238,-17.897885,5.415264,21.239593,31.934646,-19.576905,-20.807717,-23.279366,-24.877018,-18.624529,-31.968238,-39.45072,-42.513084,-15.803388,-2.688736,4.720449,8.289054,-0.554852,13.155382,17.891824,20.404596,11.161992,22.452598,23.767573,23.894655,19.828638,26.7856,27.838012,28.117359,27.633258,52.778789,74.563717,94.577282,48.064693,81.330677,98.915027,111.197284,37.123695,74.577518,94.701267,107.378185,27.992202,62.591777,81.810756,94.284702,20.959591,47.09293,62.818336,74.499721,-13.792881,-11.406092,-0.889157,6.825631,19.339735,35.935664,41.746502,45.121137,36.761304,52.434621,56.22065,56.744244,48.271495,64.905228,67.627211,66.376555,54.117493,70.294779,72.416993,70.265028,-14.958538,341.153149,-72.796852,302.352488
12,7.700123,-4.000686,0.102607,0.114423,4.625404,5.37688,5.211902,5.243774,-11.126976,10.53606,27.998645,38.654995,-20.093342,4.347106,22.327045,36.498951,-25.065079,-3.980336,12.945591,24.546535,-26.582268,-29.400982,-30.839425,-31.39571,-17.235923,-28.358456,-33.157748,-33.823961,-13.092087,1.584652,9.24689,12.661206,2.31238,16.262441,21.301805,23.901177,14.059729,25.571735,27.368129,27.495433,22.811492,30.491786,32.031656,32.660238,27.487473,52.642262,74.487545,94.50507,48.169728,81.304516,98.90086,111.177578,37.264298,74.557858,94.634274,107.212155,28.09433,62.583825,81.749829,94.103634,20.973576,47.125752,62.802338,74.364842,-13.861349,-11.503262,-1.034344,6.702205,19.32594,35.861811,41.725359,45.119087,36.69764,52.461384,56.264049,56.743676,48.134533,64.894373,67.58779,66.228219,53.915038,70.165622,72.242931,69.991363,-7.334867,337.074445,-72.770697,302.388893
13,-0.504857,0.575909,-0.019546,-0.066641,4.985516,6.113823,5.650017,5.18771,-10.257659,11.344689,28.775483,39.468132,-19.335228,5.006276,23.336358,37.996491,-24.40995,-4.318073,12.477288,24.452385,-26.201168,-28.497757,-29.736511,-29.958423,-17.589975,-29.008824,-33.973335,-35.201291,-13.233397,0.616467,7.826507,11.479365,2.107764,15.554188,20.598839,23.38298,13.896968,24.692619,26.415765,26.998244,22.742097,30.327431,31.561451,31.920962,27.314793,52.582889,74.530163,94.565563,48.378422,81.3922,99.02187,111.345119,37.571823,74.690449,94.723858,107.334743,28.406135,62.852898,81.920597,94.166462,21.210903,47.533562,63.162071,74.566486,-13.806503,-11.469966,-1.045681,6.666105,19.353407,35.847238,41.744316,45.104675,36.698813,52.452665,56.337791,56.808872,48.159603,64.916047,67.581467,66.082611,54.024336,70.33861,72.288453,69.83916,-7.88934,337.568247,-72.839859,302.240145
14,-0.86285,-0.775202,-0.023003,-0.039471,5.355961,7.171978,7.427159,7.239876,-9.799965,12.161694,29.641125,40.533131,-19.063568,5.813027,24.057072,38.995091,-24.093281,-3.73257,13.065228,25.219952,-25.714645,-28.717952,-31.581115,-33.304344,-18.088943,-29.089075,-33.277482,-33.705289,-12.801824,1.441094,8.242457,11.291088,3.050915,16.894616,21.478238,23.581087,15.07598,26.230735,27.374983,27.384937,23.90503,31.453536,32.11965,31.808156,27.132008,52.46323,74.507275,94.648945,48.52866,81.441754,99.093075,111.470112,37.83704,74.847943,94.846035,107.486561,28.704014,63.210411,82.181179,94.31741,21.450703,48.018196,63.594441,74.823475,-13.782395,-11.466421,-1.00889,6.626462,19.422147,35.869197,41.808672,45.150308,36.764417,52.446206,56.409199,56.870796,48.24966,64.886864,67.495164,65.85558,54.192915,70.478833,72.261073,69.631062,-8.798704,336.71674,-72.909376,302.124369
15,-4.683346,2.304266,-0.065666,-0.062108,6.922337,10.52195,11.669838,11.705945,-4.504154,19.056931,36.642952,47.160485,-13.768764,12.119191,30.600976,45.635399,-19.444061,1.278798,17.34565,29.405274,-22.260761,-23.744339,-26.56121,-28.496303,-19.12262,-30.55666,-35.014756,-36.365188,-15.511098,-1.877842,4.879654,8.565103,1.010212,14.645432,19.33687,21.741073,13.837415,24.176386,25.324252,25.695149,23.428279,30.065806,29.658538,28.054386,26.925247,52.332779,74.496471,94.76508,48.543469,81.560017,99.306622,111.693684,37.88475,75.075703,95.106731,107.630871,28.777325,63.581886,82.517223,94.462795,21.546272,48.473923,64.053612,75.095661,-13.761574,-11.396866,-0.882624,6.647197,19.486417,35.916015,41.831952,45.113579,36.91489,52.576363,56.522461,56.914453,48.457697,65.057467,67.483456,65.659818,54.426492,70.6916,72.250007,69.425519,-13.527655,338.968901,-73.020647,302.010156
16,9.747975,-5.950158,-0.373707,-0.079399,3.641292,3.969463,1.38644,-1.842213,-15.233036,5.489548,24.218868,35.739109,-24.285221,-0.478329,19.730152,36.333446,-29.208927,-11.290032,6.409504,20.431743,-31.168419,-34.064266,-36.131676,-36.792927,-17.524446,-26.344517,-26.663655,-24.434095,-11.432262,3.564752,9.577587,12.95447,5.352612,18.655466,23.050848,25.687269,18.206318,27.982792,29.267645,30.028953,27.897267,35.187669,34.883178,33.647453,26.888855,52.490135,74.826805,95.173645,48.589737,81.839905,99.677719,112.10463,37.974575,75.568062,95.691376,108.266854,28.914459,64.149651,83.129105,95.071472,21.735146,49.029774,64.64803,75.586418,-13.769255,-11.363447,-0.783897,6.747752,19.448972,35.872296,41.652098,44.785116,36.952348,52.557233,56.484189,56.869721,48.610357,65.10404,67.44706,65.606342,54.674062,70.849681,72.297172,69.398312,-3.8302,332.968571,-73.444874,301.880585
17,-6.707314,3.620673,-0.228996,-0.053179,5.960347,8.968174,9.328183,8.032517,-9.055423,13.906655,32.480656,43.305302,-18.237087,7.703019,27.530194,43.572773,-23.176059,-3.443275,13.24403,26.379925,-25.058098,-26.781612,-30.14336,-32.206226,-18.496903,-29.166337,-31.570429,-30.887593,-13.70291,0.047783,5.881431,9.46682,2.921066,16.0228,19.989967,22.50274,15.693287,25.400069,26.157388,26.903753,25.213805,31.773378,31.13809,29.805442,26.864216,52.581516,75.015152,95.40271,48.590481,82.049721,99.940109,112.357819,37.997395,75.871307,96.04422,108.569229,28.996159,64.511192,83.4795,95.33844,21.904312,49.475441,65.139175,76.005844,-13.728587,-11.32079,-0.684294,6.831868,19.501113,35.941308,41.633869,44.725613,37.119926,52.726527,56.628845,57.037991,48.868609,65.332108,67.57355,65.705204,54.961645,71.080751,72.394849,69.423641,-10.577214,336.539307,-73.71357,301.777469
18,-1.053028,1.196205,-0.261349,-0.061874,5.913952,9.01973,9.59887,8.830593,-8.302894,15.590687,34.210144,45.159394,-17.295696,8.871861,28.249489,43.661408,-22.416618,-1.551956,14.926552,27.207115,-24.454387,-25.714519,-28.711143,-30.836105,-17.972952,-28.537941,-31.496947,-31.634699,-14.707602,-0.22702,6.365269,10.224497,1.830504,15.773661,20.074108,22.71127,14.581964,25.277086,26.006704,26.413504,24.071397,30.696265,30.318316,29.357393,26.966446,52.778298,75.267185,95.64243,48.46415,82.184246,100.119221,112.468449,37.862641,76.161976,96.360913,108.769352,28.929451,64.794171,83.786671,95.588322,21.9646,49.703121,65.387364,76.215992,-13.698638,-11.274341,-0.594385,7.00945,19.591615,36.042208,41.63829,44.685488,37.305622,52.979704,56.776268,57.144066,49.070051,65.557954,67.70866,65.858358,55.11654,71.153011,72.419697,69.500237,-11.665735,337.705683,-74.010412,301.685766
19,9.408474,-3.777928,-0.214702,-0.059281,2.717297,2.76527,-0.330791,-3.913765,-17.975967,2.885811,22.250805,33.982006,-26.627529,-3.408417,17.543255,34.419193,-31.089283,-13.897579,4.041104,18.17696,-32.670799,-35.245468,-36.76672,-36.975654,-16.038928,-24.671216,-25.318533,-23.964766,-11.574275,2.703359,9.224178,13.57279,4.790264,17.604993,22.486104,26.135195,17.454878,26.799123,28.404671,29.97512,27.129834,33.604253,33.385262,32.988688,27.146152,53.027893,75.574218,95.868003,48.449684,82.34111,100.301193,112.58908,37.817287,76.458068,96.702003,109.059059,28.924667,65.038913,84.043235,95.773819,22.057434,49.938285,65.623409,76.350013,-13.664909,-11.247343,-0.494806,7.225762,19.63983,36.096895,41.605798,44.599631,37.494727,53.24596,56.966768,57.293132,49.310656,65.850454,67.91046,66.010808,55.344635,71.310475,72.508989,69.542734,-2.284126,333.895839,-74.251979,301.594569
20,3.736233,-1.710832,-0.277623,-0.032011,1.849491,0.729813,-3.161545,-7.182278,-22.821957,-2.326984,17.081726,28.837189,-31.568756,-8.582371,12.855057,30.083176,-35.467907,-17.9954,0.899757,15.502258,-36.208946,-38.131943,-38.309624,-37.331944,-15.592399,-24.407443,-24.868249,-23.094938,-9.607141,4.612731,10.632248,14.643641,6.667143,19.06912,23.630586,27.217779,18.909619,27.921548,29.405089,31.019924,28.151865,35.072925,34.708165,34.387113,27.355179,53.343945,75.894642,96.093464,48.672455,82.606488,100.49889,112.742238,38.018017,76.808911,97.017415,109.384884,29.106022,65.338726,84.281971,95.985615,22.21962,50.130902,65.764916,76.416722,-13.677605,-11.291298,-0.512504,7.361563,19.613857,36.177207,41.699967,44.684327,37.538619,53.297781,57.053676,57.421251,49.394648,65.891283,68.015028,66.186191,55.466171,71.380043,72.598996,69.651735,1.430586,332.150004,-74.551123,301.527555
21,-9.247753,4.714483,0.049279,-0.11845,5.444469,7.594013,7.550068,6.647449,-13.631401,10.539196,29.068783,39.676449,-22.677349,3.662487,23.554996,39.211498,-27.212414,-5.404827,11.97163,24.606479,-28.310349,-27.651123,-27.435208,-26.622517,-17.663186,-29.039205,-32.597437,-33.245125,-13.180193,0.632806,6.953171,10.80836,3.302524,16.401972,20.790759,23.945896,15.680493,25.569969,26.653837,27.678993,24.833312,31.784247,31.172806,30.383525,27.364277,53.328678,75.84486,95.98859,48.738029,82.594883,100.456455,112.636242,38.110462,76.773571,96.916706,109.192028,29.198959,65.379043,84.216991,95.787975,22.282711,50.178016,65.761127,76.362156,-13.568875,-11.17864,-0.402143,7.497414,19.86801,36.527851,42.175692,45.270129,37.780421,53.646165,57.446297,57.79184,49.596029,66.140916,68.261302,66.369306,55.644976,71.602011,72.786631,69.807038,-7.832966,336.831293,-74.517643,301.375911
22,-2.027355,1.176877,-0.200947,-0.08377,6.185577,8.755989,9.227417,8.913711,-11.341702,13.918144,31.995941,42.209426,-20.126999,6.93869,25.694252,40.237312,-24.845387,-1.353379,15.321098,26.77391,-26.084073,-24.56305,-23.749901,-22.656819,-17.272171,-28.926165,-33.415791,-35.113853,-14.049207,0.521198,7.216388,10.764739,2.177542,16.112004,20.695873,23.550557,14.434974,25.378197,26.551294,26.989598,23.571034,31.159727,31.033546,30.43516,27.443516,53.500637,76.070755,96.192032,48.945648,82.720894,100.567268,112.737236,38.353557,77.003769,97.144295,109.479446,29.432007,65.632564,84.429153,96.002289,22.445766,50.295891,65.829414,76.427559,-13.525452,-11.154657,-0.404305,7.599512,19.945778,36.672631,42.390163,45.465877,37.809715,53.675249,57.506429,57.803683,49.622507,66.121501,68.287162,66.374097,55.745789,71.734552,72.948948,69.977011,-9.872074,337.975825,-74.730343,301.259796
23,9.737663,-6.185057,0.007965,0.099998,3.187717,2.665031,-0.343895,-3.596443,-21.612877,0.269749,19.327492,30.588295,-30.534645,-5.897392,14.689751,30.868126,-34.65897,-14.409153,3.961189,17.583778,-35.167122,-34.284062,-31.180985,-27.385655,-15.466774,-24.469762,-25.109422,-22.998175,-9.207789,6.169928,12.217689,15.425203,7.142435,20.291111,24.713601,27.724959,19.33887,29.4917,31.03777,31.929829,28.484872,36.945049,36.517501,35.837629,27.402729,53.445774,76.073799,96.282692,49.265076,82.913612,100.715446,112.832931,38.673603,77.165794,97.2575,109.479423,29.659035,65.758873,84.406219,95.757637,22.530716,50.326481,65.759937,76.21756,-13.540679,-11.22473,-0.520222,7.397428,19.977481,36.708632,42.521951,45.651401,37.824943,53.72649,57.600649,57.855221,49.623064,66.140335,68.255485,66.224662,55.77438,71.799106,72.929398,69.801616,-0.140104,331.759297,-74.728071,301.328323
24,-8.456246,5.21418,-0.104862,-0.007422,6.558117,8.729485,8.327271,6.863549,-12.728187,11.529362,29.852807,39.894471,-21.998096,4.987359,24.748993,39.982933,-26.741306,-3.545883,13.536622,25.689538,-28.144226,-23.697841,-19.896217,-16.223854,-17.875522,-29.658402,-33.455521,-34.172851,-13.595872,0.609032,6.35718,9.495756,2.820116,16.10079,20.071292,22.606591,15.253611,25.55437,26.443873,26.997033,24.507343,32.769412,31.50243,29.783323,27.375881,53.448589,76.078754,96.362972,49.615585,83.172237,100.931797,113.012615,38.974994,77.236782,97.208233,109.257007,29.822948,65.72501,84.240772,95.414463,22.522339,50.181095,65.547065,75.9463,-13.5524,-11.2077,-0.552209,7.326946,20.085161,36.963772,42.876411,46.046825,37.85446,53.85845,57.762089,58.012906,49.56424,66.230614,68.419567,66.432995,55.645223,71.804379,72.963904,69.847064,-8.593106,336.948147,-74.829689,301.295571
25,9.183953,-5.146094,-0.066628,-0.097072,1.641849,-0.487702,-4.927838,-9.54269,-23.3172,-1.871842,17.497078,29.067489,-31.544358,-6.991883,13.62886,29.910484,-35.200928,-14.547878,3.794838,17.503601,-35.560444,-32.791363,-27.813744,-22.63591,-13.462874,-21.73407,-22.410003,-20.512697,-8.275371,7.152698,13.048381,16.112325,7.00719,20.497308,24.828124,27.541202,18.550058,29.488613,30.886741,31.475086,27.194202,36.322728,35.754587,34.769471,27.359928,53.267693,75.873699,96.251049,49.763741,83.231472,101.003254,113.094029,39.114647,77.171894,97.106861,109.11034,29.873326,65.565033,84.06538,95.182972,22.458493,49.914128,65.268711,75.74033,-13.495663,-11.157496,-0.497856,7.460105,20.26693,37.234634,43.22004,46.446771,37.912938,54.07223,58.001112,58.277223,49.502539,66.35188,68.58974,66.646158,55.504309,71.817162,73.07135,70.051569,0.622284,331.772731,-74.86488,301.169177
26,-2.216973,1.951288,-0.06253,0.110336,2.457837,1.617897,-2.791751,-7.670024,-19.066886,1.2407,19.780426,31.239121,-27.09589,-4.145164,16.261414,33.062371,-31.139465,-12.522731,4.943917,18.819191,-32.671119,-28.562187,-22.787246,-16.656852,-14.358959,-23.447558,-24.997036,-24.523571,-10.19813,3.464754,8.863308,12.093732,5.011503,17.175951,21.26883,24.043202,16.836546,26.28531,27.669298,28.69701,25.871471,34.476774,32.995382,30.972179,27.403358,53.155185,75.721607,96.195682,49.960407,83.341747,101.06567,113.127285,39.279979,77.23685,97.128467,109.094181,29.959717,65.519211,83.971721,95.014538,22.448536,49.727966,65.056503,75.563999,-13.523847,-11.262448,-0.595089,7.425215,20.293828,37.275117,43.284408,46.516153,37.883705,53.999673,57.936015,58.255178,49.406924,66.244471,68.506734,66.624471,55.3917,71.747519,73.053047,70.091077,-1.555436,333.679895,-74.888157,301.235389
27,7.48209,-5.045725,0.165092,0.207148,0.343804,-2.725147,-9.646362,-16.148208,-27.467937,-9.313739,10.101323,22.697468,-35.927192,-14.751777,7.503972,26.090458,-39.851245,-23.680572,-4.359409,11.63918,-41.239425,-36.950111,-28.714828,-20.289688,-13.512077,-20.682498,-19.731776,-17.013523,-7.046685,7.00719,12.353059,15.875821,8.77692,20.382539,24.878068,28.203377,21.148639,29.798847,31.492117,33.05029,30.643766,39.291787,37.32516,35.079804,27.396881,52.98468,75.464321,95.997517,49.911381,83.247814,100.960728,113.003987,39.17078,77.111424,97.004482,108.885578,29.803757,65.379902,83.797566,94.70303,22.265717,49.537869,64.82618,75.236401,-13.730945,-11.503941,-0.747328,7.318572,20.080962,37.141279,43.261956,46.60106,37.751979,53.944876,57.917662,58.291709,49.299133,66.151413,68.347715,66.435724,55.285848,71.606778,72.870759,69.880582,5.969535,328.57418,-74.680184,301.382547
28,-9.805549,5.130434,0.169911,0.142322,4.09425,4.816623,1.988731,-1.196686,-16.654576,3.797264,22.032131,33.180462,-25.592045,-2.539513,18.400921,35.70496,-30.414059,-11.735642,6.029926,20.268848,-32.901844,-25.861977,-17.607788,-9.897068,-15.666956,-25.415024,-27.707891,-27.821586,-11.258125,1.571585,6.858582,10.445367,4.544868,16.437281,20.688352,23.63376,17.106816,25.902347,27.179234,28.491146,26.623048,34.922872,32.585606,29.606458,27.436294,52.886249,75.220573,95.689933,49.791011,83.038307,100.731353,112.827209,39.015037,76.898002,96.793213,108.771766,29.624611,65.156479,83.63475,94.671753,22.030426,49.215602,64.554073,75.114921,-13.887445,-11.739754,-0.97741,7.179782,19.783017,37.011666,43.217323,46.608025,37.492281,53.724699,57.776489,58.281311,49.097456,65.948724,68.276517,66.524621,55.140586,71.477325,72.886469,70.097759,-3.780836,333.638596,-74.455095,301.458851
29,6.928688,-4.670356,0.383205,0.309913,1.739307,0.043819,-5.297379,-10.235813,-24.335301,-5.114502,13.851917,25.981647,-33.483055,-11.470425,10.18745,28.149982,-38.128704,-21.005001,-1.71159,13.839947,-40.198403,-35.500374,-27.034069,-18.733383,-14.36653,-21.972625,-21.823102,-19.498224,-8.01939,6.108696,11.703111,15.336851,8.287288,20.430605,25.062627,28.193916,21.0252,29.963671,31.696029,33.103803,30.660438,39.313511,37.327877,34.699903,27.33617,52.656246,74.964191,95.440418,49.535294,82.657803,100.38081,112.470394,38.833546,76.657871,96.608654,108.604008,29.505283,65.037323,83.533642,94.540752,21.925243,49.127426,64.475224,75.082821,-14.07403,-12.129658,-1.486666,6.659103,19.32941,36.606385,42.92843,46.449055,37.114282,53.414514,57.590781,58.187043,48.841303,65.656373,68.01262,66.272543,55.046479,71.358801,72.791188,70.06161,3.211979,328.894387,-74.007763,301.694911
30,-10.8895,4.948369,0.59269,0.415309,7.010079,10.625771,10.682144,10.49239,-11.087963,10.772988,28.536095,39.210343,-21.512489,2.676613,23.073258,39.825051,-27.87323,-8.414337,9.030716,22.766579,-31.586849,-25.843025,-19.193104,-12.570419,-18.804544,-29.967981,-32.837029,-32.203482,-13.349476,0.095861,6.020628,10.202798,4.201572,17.075459,21.477398,24.600253,17.904902,26.77367,28.092918,29.564591,28.16193,35.939827,33.543108,30.294913,27.252365,52.502941,74.787174,95.158573,48.989158,82.101093,99.955478,112.067081,38.294826,76.357097,96.558254,108.660015,29.084323,64.875526,83.475643,94.397037,21.680831,49.165981,64.597549,75.110195,-14.30988,-12.574558,-2.165982,5.836809,18.93522,36.253395,42.790084,46.531195,36.838282,53.387986,57.6767,58.432043,48.663869,65.551829,67.790664,65.942561,54.958113,71.084937,72.410274,69.540103,-7.638222,333.766528,-73.375774,302.033992
31,-3.720646,-4.799983,0.586177,-0.358005,7.871281,13.19521,14.649594,15.87735,-7.309799,15.362767,33.530285,44.714733,-18.565716,6.575466,27.026608,43.366185,-25.82817,-5.400718,12.588879,25.870755,-29.839496,-25.424629,-20.261879,-15.348621,-17.991118,-27.185446,-28.57709,-26.200527,-9.08146,7.443926,14.168126,18.422531,8.640562,24.208644,29.152073,32.310162,21.848617,33.470477,34.623876,35.373588,31.204484,40.317832,38.522254,35.958166,27.241528,52.543946,74.908562,95.08429,49.091618,81.917588,99.746979,111.972817,38.374192,76.0887,96.354149,108.807541,29.002018,64.364903,82.916634,94.00692,21.349572,48.559983,63.940041,74.644844,-14.40495,-12.702047,-2.586835,5.095249,18.710375,36.430632,43.635682,47.956964,36.496717,53.807741,59.016042,60.646661,48.259121,65.732734,68.637658,67.369144,54.636024,70.963339,72.831129,70.488528,-11.321549,328.893439,-72.752278,301.602881
32,0.146073,-0.131911,0.863675,-1.832566,8.918667,14.828945,16.091228,16.084076,-4.745808,18.119991,35.994907,46.593876,-16.593132,8.398338,27.907756,43.63583,-24.512925,-4.960167,11.886097,24.158306,-29.289185,-28.065674,-26.633252,-25.027085,-18.6084,-28.624935,-31.09526,-29.862215,-9.35089,8.698076,16.32529,21.425293,8.257956,24.914957,30.273473,33.276556,21.045084,33.304973,35.099416,36.267598,30.385636,39.130273,38.446831,37.011258,27.496044,52.549919,74.662639,94.525463,50.052108,82.075229,99.460727,111.5163,39.120941,75.557132,95.376125,108.0359,29.015522,62.961708,81.296573,92.72446,20.341644,46.565849,61.689033,72.676654,-14.308127,-12.732071,-3.170674,3.696342,18.289965,36.548006,44.702654,49.988107,35.666161,54.348735,61.225607,64.381362,47.280363,65.892604,70.381933,70.554378,53.841913,70.842209,73.876661,72.624326,-11.135009,328.68451,-71.848136,299.693297
33,10.862915,-2.497323,1.425006,-4.28811,4.406753,5.994564,4.055477,1.95346,-16.196194,-0.245671,14.115349,22.96915,-26.439354,-8.808106,6.731289,19.461055,-32.608956,-20.70044,-8.711804,-0.140282,-35.248009,-38.946373,-40.730141,-41.891751,-18.848535,-28.451342,-30.047898,-28.533778,-8.575539,8.445382,16.136383,21.273141,8.870002,23.912168,29.357418,32.598524,21.718312,33.625656,36.145752,37.749707,31.550064,39.807539,40.229109,39.964064,27.934822,53.270256,75.09858,94.403641,51.661709,82.126351,98.417771,109.51371,40.419331,74.735459,93.205262,105.212861,29.321961,60.431649,77.222832,87.657853,19.274128,42.788407,56.198342,65.637085,-14.713295,-12.897784,-3.196744,3.772629,16.908251,36.058672,45.56248,52.090153,34.045263,54.279699,63.048184,67.966209,45.952162,65.937683,72.212834,73.987566,53.072392,70.985162,75.110102,74.616432,-0.182871,326.101224,-70.333907,295.319224
34,1.716385,-2.010494,5.414612,-7.028629,1.052742,1.107868,0.823013,0.81863,-18.304837,-11.25935,-3.29028,1.70597,-25.759987,-19.269219,-10.958771,-2.564701,-29.737885,-26.700291,-21.404171,-17.266812,-30.41074,-37.783608,-43.092122,-46.957432,-20.588415,-32.3441,-37.678805,-39.085134,-7.028309,8.794407,16.327945,20.873985,10.714363,26.221126,31.180623,33.481258,23.658954,36.611893,38.671368,39.339866,33.178533,42.161514,43.108222,42.743067,25.153279,48.301975,66.496914,81.635845,50.677025,73.631264,84.627159,91.256848,40.769955,66.227246,76.807194,82.599266,29.843228,51.729447,60.357479,64.948517,18.983746,35.174755,42.52557,47.198788,-10.307848,-5.93624,5.006303,13.447276,18.176135,39.170522,50.294797,57.603365,32.638279,55.909366,67.087253,73.397589,43.132477,65.764473,74.256377,77.35726,49.385645,69.057573,74.951613,75.842844,1.693348,324.019816,-64.759461,288.219681
35,12.241687,-6.723274,1.015972,-18.001381,-6.103809,-12.308155,-18.330173,-23.193443,-30.76007,-34.926612,-33.191791,-32.008358,-34.656623,-40.481163,-39.636589,-36.909679,-35.256408,-43.180492,-44.204624,-44.804329,-33.13639,-46.553283,-55.028778,-61.720733,-19.71109,-28.711706,-31.221144,-31.307545,-2.249234,13.554845,21.175229,25.425497,15.332393,30.637911,36.032514,38.243981,28.168216,41.83441,44.794984,45.748373,37.439571,47.652558,49.709613,50.235245,26.450123,49.840599,67.50364,80.597855,56.780445,75.323216,81.82346,84.214623,47.763142,67.056565,71.504082,72.309346,36.357525,52.160237,55.107033,55.08664,24.069443,36.222279,39.243794,39.879456,-8.957429,-3.749004,7.04876,15.537058,20.492985,44.937553,57.138977,64.19579,33.379889,60.471153,73.291341,80.23226,42.997688,68.461051,78.75445,82.891962,48.910809,70.097993,77.434399,79.404657,14.180088,317.254397,-63.498436,270.176155
36,18.323136,-4.348279,1.446614,-23.598674,-14.609848,-29.546093,-42.273594,-52.046517,-49.072792,-64.924633,-69.580788,-73.151482,-49.284073,-67.567372,-73.753144,-76.61285,-45.815518,-64.814724,-72.08408,-76.82919,-40.155831,-59.047119,-69.351952,-77.377373,-19.332905,-26.710165,-26.146545,-24.146041,0.357337,14.415869,21.68856,26.179742,17.878832,31.129074,36.78062,39.540864,31.053924,43.145025,47.463108,49.720642,40.8292,50.821725,53.944357,55.304509,25.09671,47.977981,63.858158,74.84991,56.426868,71.800003,76.207328,76.525005,48.270195,63.401882,65.32275,63.724868,37.103599,48.916683,49.739261,47.968334,24.777317,34.09505,35.059627,33.881824,-9.832394,-7.113758,-0.299625,5.148478,14.115058,34.900345,45.376858,51.469957,26.552764,52.130661,64.844071,72.078095,36.730973,61.103231,71.861104,76.807188,43.737669,64.16594,71.611089,73.981996,32.82304,312.996243,-61.732006,246.667606
37,4.750808,-3.123719,-1.495354,-31.057295,-20.588172,-39.537014,-54.383914,-64.912822,-54.013378,-79.51799,-91.403743,-99.817279,-50.268688,-79.149478,-93.237144,-102.593399,-43.588245,-70.858623,-85.215442,-95.382694,-35.132915,-56.544364,-68.718166,-78.38031,-19.389567,-24.845759,-21.421205,-17.728086,3.362619,15.285784,21.748162,25.730483,20.656934,32.785591,37.970786,41.030148,33.860629,45.928648,50.294192,52.678697,43.049523,53.856734,57.055862,58.215522,23.325256,46.315807,60.689472,68.981106,55.695602,69.18132,72.290909,71.17551,48.618484,61.557735,59.806274,55.06366,38.092415,46.971485,44.478767,40.159321,26.123543,32.792393,30.995098,27.488617,-11.193905,-11.675188,-9.185177,-7.696164,7.066606,24.382446,32.721629,37.07638,18.59689,42.78954,54.13193,60.608647,28.632937,52.145876,61.475091,65.793508,36.168994,55.526464,61.523985,63.142105,37.699253,310.174273,-63.101955,215.91206
38,2.628502,-5.735649,-2.16972,-32.412384,-23.603828,-44.719127,-61.805225,-74.504711,-54.897319,-84.257183,-99.154873,-109.954811,-49.431141,-82.695636,-100.537937,-112.986225,-41.428985,-71.593586,-87.796634,-99.217998,-32.28574,-55.459087,-68.504654,-78.702964,-18.721145,-21.494528,-14.665328,-8.479271,8.424398,21.760536,28.474041,32.75017,25.995935,39.538529,45.037712,48.337209,39.023506,52.079618,56.792619,59.371897,47.444545,59.62311,63.071463,64.365579,24.667168,47.482224,60.048294,65.18525,54.875965,63.939526,65.3871,62.447995,46.328751,56.188683,52.847775,45.798088,35.081623,42.187592,38.232971,31.970879,22.895439,29.391815,27.357468,22.92572,-9.118535,-12.839967,-14.77709,-17.027744,-6.947292,-0.626044,2.30631,2.905264,0.756554,22.369,35.78855,42.382815,9.288046,31.178351,41.576312,45.630751,16.865742,34.16126,41.144584,43.376262,40.371969,305.063199,-65.227461,184.124251
39,4.022988,-1.772781,-4.167011,-36.112234,-25.214264,-48.281582,-69.219292,-85.603627,-56.256901,-86.491379,-102.492211,-114.605313,-50.141018,-83.471821,-102.696579,-117.638237,-41.637612,-72.303772,-90.057621,-103.333683,-32.201271,-56.486744,-70.342518,-81.828999,-17.173234,-16.566264,-4.286009,5.266545,9.91004,23.753889,30.821545,36.092783,26.595717,39.501368,45.73422,50.42288,39.126951,51.842065,57.789976,61.860983,47.343584,59.416185,63.622277,66.033347,28.363976,52.344269,64.653042,68.702408,54.317001,64.22921,67.366768,66.339912,42.561047,56.075844,58.039364,54.979397,29.58173,41.254131,42.898762,40.367271,16.490994,27.257378,29.758472,28.46236,-12.675087,-23.081019,-31.35949,-38.788898,-25.790436,-31.26524,-34.750124,-38.25932,-19.094104,-3.16327,11.208466,19.279109,-10.343947,7.27904,18.498102,24.053718,-1.400141,11.545876,19.311262,22.829356,44.437392,304.33483,-69.352037,149.056429
40,1.518882,-1.190795,2.033077,-31.690416,-25.424217,-48.819625,-70.077278,-86.635757,-56.709159,-86.958984,-103.264411,-115.839763,-50.813346,-84.108467,-103.469284,-118.893322,-42.462982,-73.111289,-90.935577,-104.423789,-32.970359,-57.247318,-71.193523,-82.948974,-17.300403,-16.341555,-3.121508,6.512495,10.740237,24.7817,31.743578,37.206748,27.469943,39.902647,46.066969,51.157833,39.943711,52.348159,58.420892,62.765256,48.143894,60.074704,64.480818,67.21089,26.946854,48.811604,57.594979,58.939671,45.00895,52.824921,56.548611,57.133347,30.840397,44.379982,49.716065,49.601418,16.829373,29.092358,33.708916,33.833943,3.287281,14.312817,19.53994,20.822811,-13.106852,-28.799225,-41.907714,-53.054818,-45.828192,-64.958729,-74.603995,-81.43146,-41.249924,-31.42229,-15.029062,-4.451303,-32.738698,-19.375939,-6.700031,1.010848,-22.936462,-14.674769,-5.780203,-0.25624,45.858919,304.431507,-67.416315,118.653485
41,0.270218,-0.942496,0.234055,-28.600154,-25.823021,-49.228546,-70.389381,-87.18275,-57.269909,-87.388069,-103.601738,-116.18177,-51.421714,-84.577194,-103.882759,-119.25484,-43.170112,-73.684776,-91.466159,-104.966148,-33.6641,-57.594337,-71.444755,-83.170383,-17.106025,-15.975449,-2.602817,6.822049,11.299757,25.342344,32.314793,37.827104,28.005071,40.479272,46.62718,51.749846,40.41373,52.993166,59.015461,63.395702,48.519645,60.689478,65.060345,67.791208,28.897259,50.272224,57.048145,54.590698,42.600197,48.059097,50.550155,50.778431,26.105369,38.845379,43.51997,43.121029,10.613113,22.786056,26.766105,26.600464,-4.178433,6.850719,12.495689,13.820091,-12.095696,-29.300169,-43.549886,-55.526533,-57.706248,-82.543307,-96.384428,-106.7474,-56.469319,-48.490654,-29.127342,-16.091096,-50.0222,-38.026188,-23.061044,-13.392386,-40.972924,-35.432547,-24.504818,-16.753085,45.821737,304.749608,-67.48966,91.313928
42,0.418946,-0.48463,3.665039,-22.579594,-25.967125,-49.571411,-70.919644,-87.80951,-57.614468,-87.948761,-104.140606,-116.635266,-51.720749,-85.186249,-104.490727,-119.826966,-43.450974,-74.280453,-92.02858,-105.441159,-33.928849,-58.041321,-71.785744,-83.393566,-16.955786,-15.732165,-2.359298,7.120119,11.34754,25.539526,32.513321,37.973811,27.953164,40.582149,46.844369,52.018424,40.294281,53.090399,59.232675,63.671962,48.383251,60.794071,65.261182,67.978287,30.886265,51.46075,56.320392,50.428448,39.696659,41.790562,42.241676,41.31023,20.834072,31.589573,37.40015,37.6875,3.941574,15.725899,20.591331,20.847427,-11.781716,-0.244309,6.807987,8.669208,-10.531644,-28.436905,-43.524259,-55.092748,-68.114478,-99.458517,-117.840275,-131.601478,-69.656503,-64.412213,-41.583728,-25.608248,-64.642999,-54.766015,-36.522028,-24.144294,-55.974946,-52.86391,-38.859695,-28.126059,45.67467,305.333634,-64.390634,69.80299
43,0.478798,-0.322905,5.499985,-20.268455,-26.119492,-49.769417,-71.251648,-88.20995,-57.833245,-88.452084,-104.683468,-117.124249,-51.849633,-85.608662,-104.919697,-120.155423,-43.504486,-74.614586,-92.272122,-105.449616,-33.950249,-58.19973,-71.782689,-83.127675,-16.657742,-15.40185,-2.054683,7.521336,11.466397,25.790134,32.811452,38.347117,28.001231,40.780441,47.236533,52.578129,40.303518,53.34071,59.595261,64.141548,48.375828,60.994476,65.50044,68.18173,28.654907,47.959007,50.874057,42.276168,34.845153,36.613529,36.104953,35.53379,16.018604,26.196418,31.681686,32.874195,-0.668061,10.958587,15.998943,17.486572,-16.375283,-5.106182,2.349964,5.36103,-11.269475,-30.293036,-46.780309,-58.553952,-70.705093,-101.896782,-121.55371,-136.926148,-72.095193,-68.154362,-45.120755,-27.285673,-67.241024,-58.231682,-39.255626,-24.86883,-58.561924,-56.540956,-41.7616,-29.420928,45.263667,305.901013,-59.78045,50.424819
44,0.655265,-0.085388,2.927238,-13.479504,-26.15055,-49.9029,-71.489456,-88.556682,-58.122688,-88.956997,-105.245246,-117.691108,-52.14711,-86.085971,-105.392189,-120.584369,-43.821601,-75.093956,-92.685974,-105.726104,-34.322708,-58.679523,-72.156543,-83.320816,-16.721271,-15.464131,-2.033689,7.627447,11.378859,25.810412,32.856875,38.407644,27.968021,40.904448,47.398368,52.74094,40.275878,53.429457,59.677178,64.18076,48.340741,61.008727,65.464205,68.073011,27.451,46.496452,49.301376,39.559868,33.15588,34.837452,34.151299,33.343678,14.327087,23.595554,28.452622,29.788731,-2.671486,8.557983,13.503811,15.432999,-18.585136,-7.83807,-0.404388,2.910015,-10.509599,-29.45452,-46.276469,-58.084092,-70.137526,-102.045273,-122.167188,-138.337046,-71.638209,-67.946615,-44.561666,-26.681235,-67.095108,-58.287683,-38.99047,-24.41116,-58.773005,-57.252246,-42.194069,-29.632182,44.8572,306.384195,-57.914944,37.513885
45,0.818779,-0.062974,1.005249,-5.179303,-26.121872,-50.016975,-71.796684,-89.059101,-58.377216,-89.575183,-105.919544,-118.357051,-52.406662,-86.610832,-105.889068,-121.027668,-44.063003,-75.610084,-93.20573,-106.207592,-34.576057,-59.13668,-72.587288,-83.645084,-16.786936,-15.500032,-2.067095,7.514692,11.299276,25.729137,32.777885,38.373571,27.925661,40.884355,47.409225,52.794404,40.220366,53.418738,59.680761,64.215057,48.245486,60.911681,65.348004,67.965122,26.752144,45.973858,48.988392,38.369591,32.700119,33.812153,33.194275,32.549893,13.695179,22.220009,26.702213,28.308861,-3.569813,7.567062,12.647919,15.039734,-19.446041,-9.020622,-1.537914,2.153034,-9.876516,-28.102193,-44.964637,-57.006073,-69.827274,-101.94751,-122.054932,-138.544268,-71.443628,-68.151392,-44.652915,-26.901919,-66.911833,-58.12738,-38.536561,-23.935034,-58.569791,-56.58047,-41.413075,-29.015512,44.666977,306.935619,-57.918697,32.94898
46,1.008408,0.052402,2.041374,-0.277927,-26.067856,-50.190468,-72.210411,-89.592064,-58.693783,-90.109303,-106.534882,-119.011059,-52.761452,-87.11142,-106.399521,-121.579296,-44.446083,-76.136765,-93.83416,-106.898598,-35.017822,-59.701195,-73.209217,-84.281582,-16.95922,-15.651704,-2.191386,7.366305,11.145109,25.504748,32.546345,38.129533,27.861823,40.763867,47.237756,52.614587,40.166642,53.274871,59.460472,63.964757,48.157244,60.752105,65.168198,67.832963,25.322251,43.182633,45.779457,35.706917,31.077233,30.889527,29.572335,28.587319,11.74498,19.012104,23.666531,26.124173,-5.810714,4.293343,9.636635,12.462136,-21.728222,-12.292316,-4.652263,-0.661525,-8.334755,-25.977564,-42.182842,-53.824752,-68.531786,-101.765914,-121.230644,-137.288054,-70.151919,-65.028611,-41.415556,-24.539484,-64.870543,-54.448932,-35.052948,-21.306843,-56.194739,-53.041337,-38.204621,-26.813603,44.723528,307.529698,-56.82918,33.21273
47,0.934319,-0.024033,1.370076,4.541163,-26.104294,-50.406464,-72.639668,-90.162117,-59.019185,-90.588295,-107.0808,-119.575367,-53.063805,-87.576577,-106.880425,-122.075924,-44.741547,-76.569294,-94.383877,-107.536068,-35.366639,-60.273903,-73.927907,-85.105202,-17.216238,-15.882268,-2.334549,7.178411,10.986225,25.251781,32.28167,37.770442,27.890783,40.687778,47.114477,52.402486,40.274878,53.165943,59.167911,63.488365,48.269667,60.67488,64.993741,67.588258,23.871311,40.006027,41.917957,32.423149,29.088123,28.366161,26.901157,26.029861,9.494625,15.10461,19.625644,22.97335,-8.237195,0.630855,5.979389,9.209644,-24.042778,-16.029877,-8.506073,-4.315201,-6.90072,-23.592363,-38.383507,-49.033742,-67.072606,-100.817928,-118.956494,-134.172987,-68.696259,-61.334832,-37.235295,-21.048079,-62.680231,-50.058947,-30.569634,-17.498103,-53.612066,-49.109399,-34.468191,-24.018366,45.136506,308.326072,-55.980445,38.5743
48,0.749885,-0.033951,-1.15107,7.635068,-26.167488,-50.646355,-73.07008,-90.800663,-59.232765,-90.934193,-107.499813,-120.040352,-53.26934,-87.930508,-107.268848,-122.458671,-44.972099,-76.939922,-94.899422,-108.139927,-35.676842,-60.830051,-74.662983,-85.977161,-17.472452,-16.06779,-2.433522,6.89641,10.801086,24.978696,32.01539,37.457924,27.90742,40.601143,46.92609,52.086325,40.402887,53.095203,58.897197,63.029473,48.435603,60.66626,64.844836,67.367637,23.491733,38.618065,40.237999,30.970745,29.116871,28.081158,26.554298,25.349396,9.390312,13.826328,18.519905,22.313198,-8.6479,-0.720577,4.758659,8.121128,-24.463703,-17.580608,-10.182827,-5.861252,-6.004802,-22.215619,-36.147284,-46.421138,-65.611079,-98.911841,-116.336041,-130.874867,-67.581288,-58.508046,-34.715322,-19.407327,-61.478581,-47.28079,-27.993358,-15.481045,-52.521628,-46.696255,-32.233462,-22.422254,45.677187,309.31946,-57.340719,47.236707
49,0.531555,-0.000667,-1.772163,5.6285,-26.325805,-50.86084,-73.407291,-91.216255,-59.484558,-91.228729,-107.813575,-120.410293,-53.442283,-88.283523,-107.689396,-122.914638,-45.123642,-77.221309,-95.342342,-108.747505,-35.878486,-61.264,-75.348312,-86.916321,-17.712414,-16.313643,-2.775483,6.412793,10.628234,24.614456,31.610468,36.993277,27.926587,40.400627,46.575421,51.580515,40.53486,53.060783,58.660903,62.611707,48.588818,60.701458,64.731549,67.157575,23.270725,37.849754,38.935913,29.960254,29.420562,28.834213,27.614673,26.617515,9.827568,13.36655,17.717662,21.581874,-8.17487,-1.806691,3.518062,7.220237,-23.845734,-18.491536,-11.387639,-6.774514,-5.299803,-21.201923,-34.518134,-44.28671,-64.613124,-96.533227,-113.759634,-128.501125,-67.494225,-56.284061,-32.860691,-18.700982,-61.525628,-45.653172,-26.780937,-15.568316,-52.428897,-44.708607,-30.262777,-21.501184,45.896244,310.202688,-59.42538,53.749102
50,0.32872,0.024466,-3.878804,0.668066,-26.512916,-51.065117,-73.688999,-91.566513,-59.662181,-91.407577,-108.044826,-120.695755,-53.571945,-88.580097,-108.059955,-123.314838,-45.270675,-77.495258,-95.675857,-109.104995,-36.128379,-61.74353,-75.978618,-87.649006,-17.944855,-16.557064,-3.054633,6.133112,10.547069,24.413013,31.369543,36.680251,28.041171,40.341593,46.337694,51.171134,40.766115,53.140552,58.49204,62.243069,48.852739,60.838296,64.685471,66.975028,24.027832,38.831738,39.653538,30.718449,31.774578,31.989407,30.795136,29.62563,12.553505,15.692585,19.701245,23.260563,-5.388782,-0.218593,4.947602,8.783581,-21.095958,-16.856197,-10.151149,-5.535301,-5.73707,-21.399525,-34.836279,-44.725663,-63.495207,-92.875294,-110.129618,-125.01663,-67.13511,-56.473512,-33.611281,-20.16214,-62.166641,-47.191999,-28.500668,-17.98913,-53.681653,-46.063282,-31.505931,-23.086775,45.854919,310.785165,-63.674229,54.975179
51,0.073059,-0.03458,-2.034336,-10.699877,-26.716964,-51.280746,-74.017536,-91.940837,-59.840904,-91.687362,-108.336925,-120.999778,-53.630493,-88.897361,-108.404766,-123.563415,-45.296196,-77.711059,-95.924869,-109.323349,-36.252388,-62.150631,-76.545433,-88.302509,-18.129674,-16.726767,-3.230572,5.970968,10.483367,24.355918,31.316993,36.676434,28.115691,40.372147,46.229655,50.931023,40.954787,53.341401,58.492583,62.070032,49.097283,61.06965,64.677863,66.770387,24.343975,40.062664,41.337685,32.728947,32.942333,32.080273,30.621403,28.980274,13.763043,16.03632,20.478573,23.617653,-4.19252,0.081127,5.372612,8.431503,-20.006687,-16.265762,-9.725223,-5.904304,-6.154052,-22.459131,-35.906679,-45.494431,-64.057216,-94.832257,-113.024675,-128.247257,-67.406441,-57.587582,-34.273844,-20.891023,-62.617592,-48.875445,-29.978417,-19.640997,-54.301985,-47.869895,-33.031444,-24.468039,45.270898,310.996256,-66.365645,44.520973
52,-0.247055,-0.181374,-0.962951,-20.755691,-26.91394,-51.367881,-74.079105,-92.007648,-59.882263,-91.768352,-108.374061,-121.059585,-53.623993,-88.997634,-108.428501,-123.467319,-45.321601,-77.826439,-96.01839,-109.387344,-36.377678,-62.365505,-76.820423,-88.629066,-18.145803,-16.683318,-3.183159,5.958162,10.559234,24.367466,31.28949,36.706545,28.228151,40.448953,46.131856,50.716071,41.093664,53.55281,58.574971,62.094201,49.26832,61.337833,64.807119,66.803177,25.786342,43.130149,46.659805,40.977527,33.612808,32.002487,30.691223,28.975742,13.830768,15.001098,19.228134,21.787536,-4.511902,0.156555,6.011318,9.042285,-20.366444,-16.08601,-9.263272,-5.688046,-7.910505,-26.087177,-40.022905,-49.264849,-66.701461,-99.141864,-118.084726,-133.211533,-69.353351,-70.082611,-54.648747,-45.420392,-64.159733,-55.466443,-36.862285,-26.228487,-55.210043,-52.551045,-38.363863,-29.581528,44.294082,310.624687,-68.058357,23.575087
53,-0.281547,-0.030961,-3.250466,-25.526076,-27.189583,-51.531098,-74.157063,-92.036568,-60.028404,-91.82436,-108.202343,-120.76672,-53.752281,-89.006436,-108.222576,-123.11126,-45.499375,-77.997082,-96.043751,-109.359215,-36.633911,-62.537979,-76.919689,-88.713398,-18.124426,-16.727619,-3.298312,5.714383,10.477563,24.177608,31.044661,36.385392,28.16104,40.250697,45.777618,50.203517,41.031086,53.374277,58.267108,61.681387,49.225094,61.272661,64.627919,66.493893,27.317894,45.989662,51.450874,48.938702,35.284962,33.577538,32.463936,30.833725,15.480583,15.841622,20.533653,23.023579,-2.777401,0.649155,7.150795,10.325409,-18.821297,-15.565739,-8.675766,-4.908348,-10.473605,-29.427955,-43.869759,-53.599191,-70.064861,-102.930107,-123.037955,-139.079678,-72.280883,-79.589822,-64.473275,-54.664731,-67.414672,-64.986606,-46.086074,-34.639771,-58.588155,-60.614736,-46.612243,-36.845662,42.813858,310.048189,-72.5075,-2.496526
54,-0.373261,0.016746,4.072392,-34.685966,-27.134491,-51.473694,-74.093856,-91.964515,-59.957462,-91.618091,-107.848102,-120.297809,-53.79483,-88.898151,-107.974308,-122.734542,-45.655059,-78.159794,-96.07267,-109.276176,-36.886413,-62.735572,-76.999431,-88.707664,-18.153287,-16.788652,-3.405942,5.502308,10.256299,23.957209,30.722596,35.918424,27.877915,39.860212,45.226373,49.471899,40.763176,52.896552,57.68479,61.004813,49.04009,61.044086,64.374002,66.177312,28.480739,47.313892,53.621212,52.693084,32.827697,29.365871,27.815414,26.316421,11.617584,9.850456,16.131191,19.935836,-7.185036,-3.966694,4.018798,7.982883,-23.399987,-20.755474,-12.941712,-9.102482,-11.237241,-28.832552,-41.152861,-49.610837,-74.422813,-109.22679,-128.607845,-141.626107,-75.707382,-91.388513,-80.049964,-70.538326,-69.339927,-69.24501,-48.86462,-35.291904,-58.777222,-64.128019,-49.852935,-38.802693,41.269695,309.544913,-69.60601,-37.702514
55,-0.480011,0.054489,1.678974,-34.356602,-26.933738,-51.295829,-73.926693,-91.726238,-59.833992,-91.400528,-107.565261,-119.976276,-53.709846,-88.7696,-107.796993,-122.493965,-45.606742,-78.225162,-96.118377,-109.314239,-36.87355,-62.795597,-77.031486,-88.752548,-18.211382,-16.971879,-3.727947,5.200508,10.101676,23.788827,30.431912,35.483985,27.635248,39.471839,44.674805,48.770833,40.463859,52.371562,57.057393,60.276183,48.700858,60.636459,63.979614,65.795842,28.049663,46.158027,51.658012,50.833099,29.992309,25.859081,23.963207,22.000305,8.417084,6.863285,13.39983,17.263424,-10.559075,-6.684941,1.693302,5.590896,-27.16111,-23.829151,-15.254746,-11.21505,-12.833927,-31.395335,-44.448826,-53.720277,-78.341911,-116.169673,-136.674928,-150.594646,-78.404782,-96.659664,-84.664829,-74.351479,-71.123522,-72.688713,-51.774537,-37.555819,-59.988935,-66.995618,-52.725468,-41.231176,39.571003,309.266284,-69.145717,-72.392234
56,-0.607704,0.193118,-1.240551,-27.998847,-26.655189,-50.94461,-73.51577,-91.280971,-59.71336,-91.23357,-107.342205,-119.704422,-53.686661,-88.721763,-107.622585,-122.22876,-45.685776,-78.349605,-96.160847,-109.310543,-37.055076,-63.045776,-77.232902,-88.925113,-18.384827,-17.280766,-4.200658,4.652857,9.779932,23.303988,29.863018,34.882178,27.269921,38.793017,43.809003,47.828399,40.07498,51.625123,56.216365,59.434796,48.317252,60.021326,63.341053,65.21629,27.656112,44.046284,48.290085,47.258274,29.119961,26.341953,25.037178,23.372223,7.808143,5.616955,11.588756,15.788715,-11.085892,-8.042942,0.692562,5.778866,-27.706478,-25.598156,-16.740486,-11.397938,-15.602282,-35.00084,-49.724624,-60.835907,-81.025086,-117.768437,-138.788799,-153.813025,-80.566509,-103.331061,-91.769034,-80.971215,-73.498125,-78.789175,-57.495098,-42.398092,-62.352707,-71.704445,-57.43663,-45.085031,38.035623,309.471674,-71.313944,-100.378809
57,-0.580192,0.247422,-2.102211,-22.732417,-26.393853,-50.587304,-73.144421,-90.834126,-59.687954,-91.179097,-107.248684,-119.556427,-53.736512,-88.727269,-107.556244,-122.054695,-45.780945,-78.513634,-96.243428,-109.270501,-37.194443,-63.224991,-77.315712,-88.856232,-18.539549,-17.64665,-4.853682,3.956583,9.362054,22.755953,29.260766,34.263957,26.866406,38.192815,43.126981,47.116873,39.7232,51.025477,55.519807,58.702041,48.012649,59.545428,62.804627,64.666649,25.880127,40.297863,41.667743,37.695385,28.462383,26.608406,25.517578,24.023346,8.219581,6.266235,12.551296,17.279686,-10.073181,-8.560845,0.283287,5.891041,-26.839039,-26.201477,-17.249348,-11.071015,-16.558493,-35.897558,-52.402962,-65.42596,-81.507734,-117.294981,-139.135596,-155.843431,-80.769023,-98.061377,-78.83128,-63.69508,-74.227036,-79.259244,-57.236231,-42.246112,-63.793069,-72.756811,-57.424425,-44.700558,36.611075,309.908334,-74.260511,-122.921988
58,-0.528786,-0.048079,1.300781,-20.976642,-26.038536,-50.224571,-72.835957,-90.465111,-59.465927,-91.067185,-107.280899,-119.691227,-53.565537,-88.716053,-107.641617,-122.18121,-45.629974,-78.502544,-96.316109,-109.326668,-37.072334,-63.211693,-77.320862,-88.820549,-18.632273,-17.785786,-5.1456,3.676768,9.158759,22.47342,28.899921,33.899827,26.637361,37.841171,42.759233,46.768317,39.516101,50.738844,55.236682,58.44879,47.836994,59.313037,62.581177,64.494859,23.5425,35.644089,34.448273,27.667294,25.6161,23.973175,22.83918,21.359264,5.920326,3.624573,9.569527,14.685894,-12.028507,-10.762699,-1.969025,4.173363,-28.398914,-28.014805,-18.925816,-12.502281,-15.964032,-35.717701,-53.273109,-67.10145,-80.439446,-117.258722,-139.027765,-156.085203,-78.662149,-94.751543,-74.947661,-60.301955,-71.451615,-75.184301,-52.766651,-38.496945,-60.811238,-69.120809,-53.324698,-41.300019,35.704697,310.107957,-73.337322,-143.650928
59,-0.381706,-0.013128,-4.918568,-10.541339,-25.867081,-49.995758,-72.637425,-90.3028,-59.301167,-91.048325,-107.408959,-119.901398,-53.411248,-88.739479,-107.724758,-122.294907,-45.517777,-78.504719,-96.353428,-109.332138,-37.0635,-63.332497,-77.443623,-88.85471,-18.699927,-17.925577,-5.394714,3.405844,9.043076,22.257417,28.708927,33.789282,26.585367,37.714385,42.592025,46.632491,39.482003,50.681823,55.13262,58.380309,47.794819,59.201602,62.389195,64.319315,21.506699,32.305973,29.871895,21.741658,25.812481,25.841675,24.943406,23.162636,7.848507,6.987877,12.02615,16.521664,-9.18267,-7.990356,0.171833,6.020325,-25.073925,-24.352821,-15.68003,-9.041954,-17.116069,-39.276019,-60.292806,-76.592568,-78.404705,-114.967603,-138.252695,-158.766248,-75.718195,-88.540961,-64.396284,-48.149368,-69.373522,-75.284333,-53.348898,-39.777766,-60.26496,-69.063816,-53.415798,-41.739592,35.094561,310.371826,-78.48432,-153.91527
60,-0.214371,-0.111534,-0.430252,-7.445593,-25.895393,-49.882462,-72.498093,-90.239422,-59.194084,-90.986298,-107.386448,-119.911652,-53.351532,-88.66864,-107.622379,-122.182297,-45.522377,-78.433113,-96.24202,-109.147671,-37.13681,-63.28624,-77.332718,-88.61784,-18.628407,-17.897221,-5.432258,3.193571,8.91366,21.985444,28.467039,33.660273,26.47996,37.607335,42.504254,46.601332,39.442224,50.746452,55.216675,58.531128,47.859237,59.36114,62.484044,64.361676,20.578057,30.880154,28.545319,20.072033,25.073685,25.568379,25.088539,23.68618,7.445092,5.590199,10.614476,15.531933,-9.230461,-8.97932,-0.726642,5.575676,-24.520546,-24.814991,-16.542343,-9.905605,-16.050661,-38.51908,-59.736462,-75.623655,-76.513691,-112.904969,-135.937266,-156.484665,-73.333987,-86.477333,-62.303986,-46.164528,-66.742081,-73.308867,-51.129103,-37.463574,-57.591,-66.775145,-50.860458,-39.33731,34.732985,310.379402,-79.061777,-161.241753
61,-0.119751,-0.41537,0.783394,-4.552132,-26.004318,-49.852203,-72.406059,-90.287064,-58.916634,-90.680843,-107.112568,-119.736385,-53.041809,-88.303986,-107.345959,-122.05798,-45.1604,-78.047367,-95.930946,-108.929947,-36.711021,-62.742657,-76.775173,-88.09568,-18.399486,-17.67429,-5.241635,3.282046,9.059057,22.226184,28.695157,33.814661,26.580403,37.922496,42.923094,46.988272,39.545519,51.100676,55.693277,59.061848,47.975686,59.692246,62.923595,64.865584,19.995896,30.560612,28.266575,19.41045,23.798607,24.638603,24.282177,22.997887,6.327244,4.789353,9.869717,14.961434,-10.146458,-9.329029,-1.128765,5.287674,-25.165169,-24.714054,-16.4561,-9.888382,-13.923279,-36.237489,-57.381521,-72.678732,-74.486722,-111.166959,-133.864132,-154.174922,-71.052643,-83.652626,-59.205764,-43.105576,-64.209144,-69.950327,-47.47234,-33.872905,-55.148321,-63.559456,-47.255182,-36.081171,34.51355,310.032112,-78.378067,-165.725805
62,0.076286,-0.203727,0.555691,-1.77899,-26.088684,-49.952522,-72.450359,-90.501594,-58.724018,-90.413074,-106.927196,-119.669952,-52.819267,-88.020012,-107.183418,-122.135799,-44.887573,-77.721348,-95.767456,-108.985061,-36.333641,-62.325405,-76.45404,-87.965664,-18.393447,-17.692864,-5.171955,3.285542,9.104752,22.395281,28.867984,33.953563,26.594396,37.961584,42.960564,47.004821,39.547409,51.101677,55.789311,59.218521,47.971314,59.739139,63.113787,65.187687,19.634891,30.264336,28.151218,19.48201,23.021828,23.839863,23.521145,22.195541,5.549915,4.197304,9.251839,14.346394,-10.911186,-9.766239,-1.693726,4.698704,-25.778572,-25.092178,-16.890072,-10.366196,-12.349384,-34.503586,-55.397403,-70.51549,-72.981521,-109.747813,-132.370163,-152.598479,-69.329055,-82.27275,-57.84199,-41.81162,-62.412533,-68.351694,-45.706376,-31.893365,-53.54246,-62.204626,-45.950877,-34.891369,34.497127,309.886039,-77.915085,-167.447141
63,-0.037742,-0.012202,0.095032,-0.677893,-26.123703,-49.924462,-72.348976,-90.558541,-58.540707,-90.213753,-106.766716,-119.520779,-52.581116,-87.827168,-107.054089,-122.138741,-44.563362,-77.427098,-95.552731,-108.907196,-35.886269,-61.928925,-76.107388,-87.730877,-18.428497,-17.806929,-5.268459,3.195053,9.216064,22.597007,29.066166,34.099108,26.683699,37.989866,42.972247,47.040192,39.594031,51.03548,55.772404,59.265921,47.939982,59.663162,63.159902,65.354302,19.60223,30.4598,28.620403,20.08564,22.901928,23.851043,23.550716,22.124725,5.503498,4.533611,9.449203,14.326881,-10.973809,-9.426018,-1.470967,4.780735,-25.947705,-24.969166,-16.789536,-10.40165,-11.601454,-33.582273,-54.307273,-69.289214,-71.898008,-108.531793,-131.316573,-151.574595,-68.411157,-81.174624,-56.806711,-40.633966,-61.678176,-67.841451,-45.229518,-31.134897,-53.028212,-62.057549,-45.850872,-34.555956,34.424704,309.895261,-77.854734,-168.10361
64,-0.013161,-0.117388,-0.141083,-0.670853,-26.289505,-50.028511,-72.313923,-90.550163,-58.347954,-89.967396,-106.520714,-119.340202,-52.347794,-87.510075,-106.769348,-121.969769,-44.288086,-77.062225,-95.270245,-108.765186,-35.498497,-61.443157,-75.664078,-87.429325,-18.443366,-17.833864,-5.193913,3.309822,9.28557,22.742813,29.182788,34.171999,26.698458,38.017395,43.045879,47.140672,39.586535,51.038284,55.919988,59.51175,47.92673,59.666904,63.314983,65.63907,19.518173,30.477562,28.808853,20.595291,23.103138,24.106945,23.871826,22.508869,5.729141,4.73251,9.409984,14.225063,-10.76469,-9.108891,-1.365727,4.840656,-25.791,-24.75396,-16.727703,-10.395939,-10.998443,-32.724615,-53.364604,-68.572313,-71.073514,-107.56039,-130.399095,-150.73038,-67.735555,-80.619473,-56.129957,-39.942862,-61.168828,-67.515736,-44.721161,-30.555157,-52.731573,-61.982803,-45.665482,-34.242067,34.416819,309.789642,-77.990541,-168.762694
65,-0.071251,-0.081671,-0.079445,-0.874892,-26.276527,-49.933182,-72.089916,-90.391033,-58.090919,-89.690071,-106.273704,-119.153904,-52.107948,-87.229946,-106.583771,-121.953381,-44.022514,-76.749836,-95.079414,-108.764271,-35.109283,-61.002685,-75.28624,-87.207252,-18.397152,-17.819971,-5.161704,3.346823,9.418161,22.912392,29.299225,34.162428,26.731482,38.011961,43.103443,47.215847,39.525636,50.891602,55.927966,59.62337,47.80192,59.506143,63.310475,65.748369,19.395504,30.150833,28.497952,20.540897,23.029404,24.150913,24.058319,22.815983,5.717503,4.798576,9.371979,14.17844,-10.72934,-9.003616,-1.320477,4.894615,-25.70438,-24.546329,-16.507702,-10.147247,-10.855259,-32.322852,-52.933849,-68.37541,-70.43332,-106.850778,-129.748314,-150.125457,-67.218244,-80.333319,-55.802736,-39.737245,-60.799181,-67.548887,-44.716462,-30.596307,-52.517061,-62.144763,-45.882313,-34.438569,34.392769,309.735907,-78.022785,-169.60965
66,0.022797,0.180744,0.023483,-1.003657,-26.170578,-49.859001,-72.00055,-90.276146,-57.991963,-89.617482,-106.249901,-119.134907,-52.068123,-87.212265,-106.637696,-122.05901,-43.988823,-76.74099,-95.164021,-108.925656,-35.003884,-60.966351,-75.334099,-87.332543,-18.543402,-18.007285,-5.328641,3.219481,9.32362,22.746159,29.112738,33.958811,26.61959,37.70721,42.786626,46.958718,39.377916,50.519691,55.604825,59.369303,47.627043,59.185633,63.036142,65.507529,19.229599,29.893582,28.432926,20.830902,23.027264,24.204449,24.047104,22.778401,5.736306,4.778927,9.2276,14.028672,-10.658981,-9.02037,-1.527099,4.582489,-25.638885,-24.637848,-16.75914,-10.495651,-10.684325,-31.955879,-52.305363,-67.547059,-69.844514,-106.264741,-129.308789,-149.763995,-66.681504,-80.058727,-55.78088,-39.81277,-60.339209,-67.488483,-44.791742,-30.729457,-52.162395,-61.963775,-45.819226,-34.44936,34.507639,309.980671,-77.907229,-170.549287
67,-0.048935,0.159649,-0.151886,-1.036515,-26.073899,-49.704987,-71.833649,-90.079434,-57.876641,-89.578846,-106.219059,-119.075661,-52.037293,-87.235314,-106.710972,-122.130844,-43.987862,-76.759758,-95.188088,-108.936642,-34.98143,-60.949196,-75.31271,-87.291447,-18.558098,-18.050102,-5.396344,3.163968,9.300687,22.63202,28.967057,33.783762,26.498263,37.535346,42.664669,46.879913,39.163482,50.272678,55.426713,59.262538,47.341015,58.875474,62.753239,65.223799,19.320649,30.031655,28.648579,21.093716,23.1847,24.361107,24.191746,22.89473,5.898136,4.873844,9.203602,13.86874,-10.466411,-8.907119,-1.550892,4.377114,-25.420681,-24.478649,-16.724933,-10.662414,-10.49615,-31.595747,-51.874622,-67.086265,-69.395403,-105.662082,-128.663747,-149.097555,-66.280215,-79.768753,-55.53652,-39.704443,-59.977743,-67.285043,-44.578635,-30.645411,-51.879772,-61.605444,-45.381588,-34.09067,34.565094,310.221491,-77.952725,-171.504631
68,0.099998,0.058033,-0.11103,-0.810888,-26.063026,-49.67498,-71.814663,-90.121307,-57.919864,-89.621326,-106.255028,-119.143169,-52.12944,-87.256965,-106.719909,-122.160862,-44.097908,-76.796585,-95.19635,-108.947605,-35.072044,-61.036194,-75.417114,-87.396618,-18.546168,-18.03648,-5.404766,3.126844,9.228451,22.458341,28.762231,33.61832,26.364796,37.402929,42.55048,46.775036,39.005006,50.172778,55.384402,59.281075,47.193222,58.758234,62.630652,65.07645,19.388775,30.171661,28.876144,21.461574,23.344951,24.4193,24.230495,22.988182,6.011615,5.001297,9.229168,13.761692,-10.366986,-8.791134,-1.480866,4.303058,-25.330399,-24.474724,-16.779911,-10.867584,-10.239987,-31.191325,-51.369269,-66.591116,-69.038248,-105.205478,-128.239407,-148.737924,-65.903834,-79.532107,-55.325769,-39.610595,-59.570175,-66.996455,-44.218436,-30.373823,-51.492838,-61.101724,-44.815834,-33.622679,34.755861,310.377096,-77.972986,-172.217947
69,-0.028244,0.026726,0.02845,-0.657818,-25.9403,-49.459144,-71.640678,-90.040993,-57.804886,-89.661598,-106.34547,-119.212097,-52.066635,-87.370548,-106.881168,-122.312095,-44.045105,-76.894089,-95.327648,-109.087211,-35.027412,-61.132004,-75.553516,-87.535572,-18.499139,-17.987092,-5.44462,3.11038,9.237256,22.350092,28.652821,33.552877,26.323978,37.299163,42.444603,46.686806,38.911281,50.048758,55.256516,59.177099,47.031991,58.621778,62.523898,64.993556,19.334633,30.16135,28.983089,21.544567,23.193706,24.204906,24.028244,22.845073,5.861194,5.142711,9.279945,13.600513,-10.471321,-8.683422,-1.511845,4.032383,-25.414032,-24.452236,-16.827233,-11.113369,-10.222777,-31.001451,-50.966252,-65.890746,-68.77533,-104.807961,-127.843278,-148.361121,-65.593739,-79.256048,-55.280941,-39.604068,-59.194275,-66.578686,-43.973734,-30.225301,-51.064321,-60.548045,-44.403128,-33.363096,34.80986,310.516529,-77.862293,-172.763058
70,0.020554,0.009361,-0.045811,-0.701534,-25.918213,-49.440651,-71.669724,-90.09335,-57.717968,-89.69933,-106.410004,-119.277455,-51.946198,-87.396263,-106.866165,-122.248238,-43.933525,-76.904743,-95.310024,-109.039353,-35.010979,-61.269631,-75.709946,-87.662808,-18.598668,-18.045557,-5.518622,3.105601,9.157488,22.25002,28.557701,33.495671,26.288534,37.26441,42.346741,46.551438,38.905489,50.080029,55.232681,59.139469,47.013133,58.622816,62.492837,64.992173,19.365395,30.370228,29.47403,22.1758,23.3279,24.278423,24.003399,22.72776,5.961468,5.521179,9.553906,13.702641,-10.369125,-8.373344,-1.363506,3.984261,-25.35331,-24.34203,-16.824921,-11.287468,-9.908962,-30.47652,-50.108323,-64.697151,-68.289064,-104.514284,-127.592848,-148.084512,-65.117714,-78.56328,-54.733181,-39.071338,-58.682926,-65.932403,-43.441319,-29.782471,-50.567634,-59.872017,-43.792944,-32.873187,34.905556,310.651898,-77.832962,-173.338584
71,-0.011055,0.035272,0.097137,-0.100193,-25.889122,-49.374321,-71.61517,-90.073345,-57.589016,-89.664986,-106.432183,-119.341828,-51.809143,-87.351734,-106.797215,-122.132263,-43.857056,-76.863041,-95.243958,-108.945328,-35.051697,-61.334393,-75.766308,-87.680638,-18.581069,-18.037246,-5.583806,3.042282,9.142988,22.170436,28.48838,33.47932,26.297883,37.314947,42.331735,46.514264,38.910577,50.181312,55.28034,59.186362,46.980455,58.681058,62.535519,65.057863,19.621983,30.852757,29.90482,22.179223,23.33566,24.162072,23.900563,22.685532,5.869801,5.672162,9.659913,13.544472,-10.531448,-8.289505,-1.268566,3.885144,-25.594722,-24.499259,-16.983959,-11.645759,-9.627936,-30.174966,-49.683702,-64.217069,-68.163887,-104.360131,-127.38298,-147.829265,-64.910693,-78.204371,-54.330958,-38.620353,-58.383026,-65.43245,-42.801736,-29.062828,-50.234309,-59.462791,-43.301704,-32.364861,34.960716,310.809497,-77.66961,-173.31645
72,-0.011536,-0.026577,0.241711,0.170996,-25.839981,-49.307464,-71.569439,-90.035156,-57.419174,-89.620411,-106.437034,-119.398945,-51.608185,-87.28141,-106.726742,-122.051296,-43.690269,-76.808189,-95.212864,-108.9333,-34.985184,-61.370704,-75.842594,-87.771755,-18.586393,-18.032627,-5.646693,2.989461,9.089401,22.084689,28.423801,33.463252,26.316383,37.337325,42.283471,46.433679,38.973908,50.282385,55.341114,59.240764,47.051702,58.783761,62.624995,65.195936,19.741551,31.118431,30.157734,22.226738,23.425564,24.130417,23.815006,22.598053,5.909855,5.844727,9.790787,13.635716,-10.530155,-8.153343,-1.200085,3.927967,-25.68798,-24.558929,-17.08929,-11.772034,-9.339181,-29.824723,-49.118473,-63.450135,-67.970926,-104.283163,-127.355371,-147.783386,-64.718763,-77.773322,-53.979471,-38.151816,-58.208822,-65.067811,-42.470491,-28.583315,-50.094833,-59.310665,-43.247444,-32.272581,35.002516,310.90597,-77.374563,-173.022404
73,-0.130577,0.008188,0.326649,0.265373,-25.643669,-49.015137,-71.310871,-89.6716,-57.231285,-89.583332,-106.427261,-119.356338,-51.400085,-87.287109,-106.727749,-121.957638,-43.477547,-76.775562,-95.217396,-108.944412,-34.81723,-61.309193,-75.86095,-87.846119,-18.537709,-18.073024,-5.84459,2.917275,9.126093,22.065954,28.387109,33.386521,26.403192,37.389998,42.252262,46.320305,39.056864,50.341826,55.343066,59.171789,47.10461,58.783453,62.548696,65.061382,19.89862,31.386062,30.27499,22.060764,23.599113,24.302936,24.011055,22.889946,6.052757,5.964729,9.809063,13.660663,-10.409569,-8.089256,-1.333901,3.813927,-25.639778,-24.474198,-17.174458,-11.867203,-9.292026,-29.714756,-48.795645,-62.746477,-67.876868,-104.14957,-127.176048,-147.520622,-64.612566,-77.603071,-54.149986,-38.225478,-58.14178,-64.702141,-42.261078,-28.179634,-50.056119,-59.225089,-43.295598,-32.298235,34.89525,311.036223,-77.024603,-172.634966
74,0.013641,0.074483,0.3708,0.491641,-25.45008,-48.804245,-71.17099,-89.442409,-57.208877,-89.690094,-106.49477,-119.392112,-51.383079,-87.380504,-106.794296,-121.96035,-43.451797,-76.856906,-95.365425,-109.170215,-34.757606,-61.283374,-75.932991,-87.98814,-18.540339,-18.200934,-6.179117,2.665271,9.15256,21.955618,28.191793,33.106928,26.483616,37.412265,42.193093,46.186295,39.139004,50.420484,55.397382,59.190709,47.197013,58.791691,62.439164,64.856421,20.136795,31.749012,30.43507,21.851269,23.771164,24.464321,24.206337,23.200779,6.22102,6.09193,9.87149,13.720081,-10.29839,-7.981224,-1.299053,3.903705,-25.631813,-24.453369,-17.253582,-11.931713,-9.499989,-30.00271,-49.075664,-62.90123,-67.837428,-104.01156,-126.967829,-147.235541,-64.510307,-77.395123,-53.979842,-37.909248,-58.077362,-64.468319,-42.014681,-27.716864,-50.076299,-59.261228,-43.353825,-32.280889,34.913286,311.222302,-76.649408,-172.031729
75,0.065644,-0.007608,0.675442,0.700923,-25.326233,-48.637779,-71.055416,-89.225556,-57.25264,-89.861058,-106.657437,-119.537419,-51.462021,-87.55735,-107.010235,-122.150563,-43.516365,-77.011769,-95.623043,-109.503548,-34.755478,-61.292382,-76.039582,-88.187748,-18.43866,-18.192288,-6.333986,2.582724,9.207888,21.9016,28.100748,33.007399,26.553974,37.436583,42.217053,46.197349,39.196025,50.478023,55.480152,59.256956,47.271003,58.793506,62.360334,64.686076,20.255436,31.830848,30.088737,21.032547,23.738319,24.405864,24.161659,23.284847,6.148807,5.822525,9.600586,13.538337,-10.386647,-8.171471,-1.519032,3.777385,-25.760525,-24.658493,-17.526375,-12.144013,-9.699699,-30.33196,-49.369044,-63.024471,-68.026094,-103.923387,-126.783282,-146.949385,-64.53199,-77.635011,-54.41853,-38.170295,-58.01488,-64.420167,-42.009111,-27.454184,-49.953453,-59.259845,-43.43411,-32.273189,34.968802,311.290539,-75.984094,-171.254961
76,0.102562,-0.095564,0.263557,0.596888,-25.219048,-48.51558,-70.999432,-89.136612,-57.35804,-90.064545,-106.812321,-119.651207,-51.578453,-87.768952,-107.219513,-122.319798,-43.598419,-77.196408,-95.881886,-109.822563,-34.756966,-61.370694,-76.220536,-88.455277,-18.329943,-18.1358,-6.412114,2.553169,9.299278,21.920556,28.060511,32.924381,26.636151,37.466741,42.220238,46.138784,39.295109,50.563867,55.586115,59.323139,47.438482,58.901606,62.379698,64.591659,20.312553,31.983627,30.204506,21.134617,23.928646,24.725418,24.576187,23.797142,6.397442,5.995159,9.696201,13.636356,-10.13253,-7.998905,-1.463619,3.832466,-25.563972,-24.443218,-17.395763,-12.00016,-9.732738,-30.357181,-49.39567,-62.914997,-67.882564,-103.6816,-126.483744,-146.607164,-64.368475,-77.628727,-54.545753,-38.271583,-57.908733,-64.410403,-42.099016,-27.487813,-49.904889,-59.421229,-43.707898,-32.577464,35.051085,311.240725,-75.740816,-170.612323
77,0.192993,-0.028714,0.338883,0.562155,-25.120102,-48.42437,-71.011162,-89.121552,-57.539864,-90.359585,-107.057957,-119.838535,-51.799164,-88.079189,-107.502308,-122.52404,-43.818695,-77.484638,-96.22197,-110.186337,-34.919403,-61.573975,-76.525658,-88.81303,-18.272194,-18.13123,-6.549496,2.510586,9.416752,21.873527,27.936207,32.781478,26.771718,37.471051,42.130601,45.981098,39.426539,50.635189,55.629896,59.332722,47.576469,58.931542,62.318849,64.43259,20.226757,31.914917,30.15287,21.090168,24.042835,24.909141,24.804004,24.146381,6.515464,6.032569,9.681358,13.646049,-10.031949,-8.020569,-1.582741,3.74628,-25.517705,-24.416245,-17.451439,-12.045559,-9.841383,-30.400417,-49.298445,-62.564619,-67.7471,-103.48389,-126.238354,-146.333803,-64.149959,-77.636286,-54.771785,-38.5326,-57.672147,-64.255772,-42.097189,-27.509503,-49.65615,-59.314504,-43.705448,-32.64556,35.222986,311.243001,-75.423025,-170.019178
78,0.330002,0.012807,0.304183,0.615154,-25.231041,-48.580857,-71.24524,-89.426537,-57.791096,-90.643513,-107.326676,-120.146508,-52.10289,-88.349579,-107.777127,-122.812374,-44.170349,-77.788788,-96.539749,-110.513295,-35.278565,-61.88221,-76.821453,-89.082379,-18.279641,-18.182706,-6.660869,2.390864,9.320187,21.749446,27.795848,32.631832,26.710177,37.406497,42.030912,45.828093,39.40253,50.659914,55.639616,59.320792,47.595352,58.956959,62.31113,64.388204,20.159672,31.843186,30.084675,21.163262,24.08614,24.976307,24.861924,24.219338,6.526864,5.976895,9.635159,13.630394,-10.083904,-8.13113,-1.636573,3.736371,-25.648315,-24.510784,-17.501735,-12.065254,-9.693746,-30.230908,-49.060455,-62.361,-67.580058,-103.300265,-126.043663,-146.149475,-63.966508,-77.549928,-54.690753,-38.49458,-57.475548,-64.188087,-42.018438,-27.483617,-49.473525,-59.148086,-43.529956,-32.540445,35.555632,311.281166,-75.116198,-169.378666
79,0.292923,-0.113374,0.212655,0.61237,-25.427513,-48.841759,-71.522919,-89.720135,-58.076409,-90.867817,-107.577725,-120.427735,-52.355759,-88.494953,-107.930844,-122.981701,-44.400811,-77.857979,-96.526692,-110.370667,-35.521981,-62.000439,-76.841126,-88.994522,-18.154572,-17.958774,-6.335407,2.650686,9.320311,21.862758,27.97285,32.901644,26.652058,37.46106,42.164145,46.016975,39.336556,50.762679,55.794585,59.491792,47.502863,59.011299,62.427147,64.517473,20.028568,31.781845,30.147319,21.298256,24.066879,25.039821,24.956623,24.319736,6.46939,5.862911,9.550449,13.56229,-10.146721,-8.322693,-1.771923,3.600162,-25.732773,-24.668747,-17.603062,-12.174969,-9.384491,-29.750389,-48.48936,-61.793091,-67.368996,-103.15356,-125.93135,-146.03417,-63.740193,-77.594037,-54.911746,-38.953355,-57.247047,-64.165218,-42.027534,-27.620858,-49.24106,-59.098004,-43.495302,-32.574491,35.853779,311.190096,-74.898319,-168.743992
80,0.22602,-0.076583,-0.083222,0.558146,-25.540214,-49.033973,-71.749752,-90.047229,-58.258335,-90.975631,-107.66677,-120.507511,-52.538131,-88.614326,-108.061363,-123.129982,-44.579315,-77.946464,-96.565246,-110.334766,-35.715499,-62.175498,-76.971256,-89.058036,-18.090611,-17.781155,-6.018813,2.861465,9.256053,21.942922,28.080605,33.000556,26.546107,37.470323,42.215113,46.070476,39.264815,50.786157,55.836044,59.510811,47.47326,59.082399,62.551599,64.636194,20.065624,32.100975,30.801418,22.130722,24.378639,25.273304,25.148174,24.462101,6.7351,5.975155,9.593525,13.599083,-9.955456,-8.315128,-1.773846,3.626381,-25.602997,-24.593468,-17.508728,-12.063457,-9.102461,-29.409868,-48.20456,-61.614774,-67.125171,-103.055216,-125.911364,-146.087065,-63.557124,-77.331643,-54.60826,-38.846613,-57.118285,-64.008479,-41.877518,-27.666895,-49.179142,-58.883461,-43.230253,-32.434573,36.086105,311.138352,-74.975235,-168.161007
81,0.15477,-0.051376,0.286892,0.772677,-25.584915,-49.176681,-71.925922,-90.262939,-58.371494,-91.117344,-107.801536,-120.578441,-52.637237,-88.746986,-108.22158,-123.259483,-44.640815,-78.015129,-96.581485,-110.235992,-35.771736,-62.237251,-76.964584,-88.93111,-18.09938,-17.644106,-5.647372,3.228768,9.202861,22.074068,28.286443,33.230799,26.501128,37.608446,42.431425,46.307918,39.218588,50.851711,55.922161,59.572215,47.384228,59.047608,62.57289,64.658708,19.834786,31.911472,30.740833,22.140484,23.956661,24.861282,24.876515,24.353062,6.311565,5.550133,9.292019,13.418186,-10.357223,-8.789417,-2.133385,3.418259,-25.996788,-25.03125,-17.828911,-12.237442,-9.244707,-29.466395,-48.211931,-61.577397,-67.242617,-103.068158,-125.919413,-146.100936,-63.612619,-77.549558,-54.991786,-39.257176,-57.134973,-64.125049,-42.058446,-27.804327,-49.113138,-59.010296,-43.466569,-32.670124,36.25542,311.119404,-74.673798,-167.355902
82,0.157151,-0.087871,-0.180519,0.570546,-25.720368,-49.326554,-72.083004,-90.416531,-58.468792,-91.1899,-107.888878,-120.670121,-52.69455,-88.775551,-108.268856,-123.318638,-44.657181,-77.972603,-96.444661,-109.978833,-35.821839,-62.24001,-76.834488,-88.647309,-18.016337,-17.480443,-5.307905,3.592602,9.067665,22.207424,28.490541,33.422299,26.355928,37.771233,42.758961,46.674753,39.13194,51.024946,56.162716,59.773534,47.366431,59.208617,62.779223,64.825533,19.938675,32.111515,31.125996,23.087322,24.099129,25.044205,25.062298,24.401768,6.430916,5.84008,9.653538,13.748142,-10.243023,-8.610043,-1.90678,3.522423,-25.87587,-24.829273,-17.51738,-11.982983,-8.989909,-29.166575,-47.854285,-61.336644,-67.088306,-102.971066,-125.910348,-146.168903,-63.557671,-77.639194,-55.006202,-39.30846,-57.119381,-64.577861,-42.477966,-28.303869,-49.10189,-59.261287,-43.735844,-32.944604,36.443453,311.080526,-74.823435,-166.736363
83,0.146667,-0.108125,0.119877,0.656713,-25.770538,-49.455276,-72.191986,-90.454697,-58.56197,-91.23785,-107.915897,-120.652954,-52.765068,-88.768021,-108.259415,-123.311565,-44.709,-77.95507,-96.361336,-109.820881,-35.89167,-62.266548,-76.781937,-88.499828,-17.972235,-17.270133,-4.947579,3.917335,9.129885,22.389193,28.718919,33.682701,26.386482,37.963449,43.077421,47.089123,39.183699,51.200996,56.377311,60.000245,47.449671,59.387989,63.003785,65.06904,19.842213,32.037655,31.158817,23.350994,23.934677,24.970745,25.096859,24.479885,6.278492,5.984596,9.868847,13.843792,-10.353195,-8.539524,-1.861416,3.354423,-25.976498,-24.749817,-17.39344,-12.012795,-8.895681,-28.953697,-47.648397,-61.252769,-67.131825,-102.939073,-125.917064,-146.199726,-63.616433,-77.916389,-55.300866,-39.648937,-57.163345,-65.033151,-42.948696,-28.816232,-49.101041,-59.509978,-44.021462,-33.211203,36.624189,311.044841,-74.669489,-166.00721
84,0.147904,-0.070766,0.297134,0.907684,-25.832016,-49.532891,-72.225151,-90.446091,-58.607106,-91.2044,-107.861515,-120.598881,-52.832222,-88.66927,-108.132786,-123.184159,-44.796868,-77.953904,-96.304917,-109.744435,-35.980797,-62.247368,-76.670266,-88.33873,-17.892466,-17.197366,-4.798155,4.03655,9.14836,22.569244,28.953163,33.908855,26.389014,38.14686,43.355038,47.410175,39.216081,51.303267,56.503702,60.135873,47.547187,59.534782,63.167584,65.236778,19.835369,31.854012,30.865551,23.632221,23.936257,24.970253,25.028046,24.23679,6.256714,5.992436,9.9207,13.838013,-10.423759,-8.580906,-1.843666,3.246872,-26.098823,-24.700218,-17.250686,-11.982616,-8.495801,-28.661256,-47.518535,-61.379588,-67.045818,-102.995116,-126.017752,-146.318524,-63.597722,-77.869826,-54.999304,-39.3203,-57.143158,-65.186192,-42.919932,-28.795853,-49.084664,-59.509495,-43.894749,-33.006787,36.817893,311.0533,-74.326555,-165.020301
85,0.108856,0.036074,0.340977,1.865042,-25.93348,-49.656578,-72.265652,-90.341961,-58.747936,-91.184281,-107.81654,-120.512387,-52.853462,-88.583576,-108.019776,-123.077111,-44.73246,-77.848114,-96.14185,-109.576241,-35.82779,-62.027573,-76.411869,-88.113636,-17.921476,-17.215372,-4.762068,4.179701,9.431252,22.884864,29.292445,34.245742,26.716131,38.362876,43.552751,47.628019,39.501282,51.487457,56.616755,60.205886,47.712617,59.672882,63.341461,65.444631,19.729603,31.740349,30.650951,23.381973,23.641296,24.75341,24.924774,24.192661,6.038578,6.04319,10.136112,14.019756,-10.603798,-8.548931,-1.71032,3.309608,-26.320782,-24.666355,-17.174652,-12.053318,-8.540484,-28.917076,-47.969326,-61.680974,-67.155191,-103.319639,-126.193136,-146.348858,-63.704871,-77.820259,-54.870438,-39.043378,-57.23898,-65.10412,-42.832108,-28.584133,-49.17529,-59.624673,-44.010136,-33.010363,37.043902,311.221415,-73.868425,-163.023218
86,0.432609,0.064752,0.263088,3.540352,-26.039932,-49.85614,-72.451,-90.366245,-58.769142,-91.041137,-107.695976,-120.474689,-52.891021,-88.46046,-107.948604,-123.107849,-44.847862,-77.902794,-96.230964,-109.702251,-36.022934,-62.133693,-76.527305,-88.279575,-17.934679,-17.29077,-4.969908,4.033438,9.540179,22.941575,29.320195,34.218089,26.903185,38.368075,43.487394,47.504592,39.741602,51.547268,56.606738,60.146988,47.993989,59.845498,63.448993,65.524609,19.995712,31.848427,30.544201,23.406235,23.70607,24.703022,24.712773,24.01989,6.151486,6.852585,11.144634,14.993534,-10.529056,-7.660229,-0.922222,3.763149,-26.42189,-23.827366,-16.416115,-11.692268,-8.884103,-30.139077,-49.523031,-63.187014,-67.601804,-103.906239,-126.488933,-146.363879,-63.951117,-77.947277,-55.097954,-39.367815,-57.35885,-65.059852,-43.025665,-28.853553,-49.332753,-59.531711,-43.955759,-32.890697,37.537159,311.415071,-73.544689,-159.353962
87,0.392144,0.246952,0.476361,5.880318,-25.984291,-49.938401,-72.52002,-90.323868,-58.864506,-90.980221,-107.689557,-120.508976,-52.946389,-88.434632,-107.993077,-123.231057,-44.882241,-77.92146,-96.303761,-109.848427,-36.028611,-62.187985,-76.64954,-88.522328,-17.993946,-17.399389,-5.183552,3.775717,9.707548,23.069954,29.498567,34.448826,27.115668,38.386353,43.467276,47.549793,39.926149,51.460781,56.464305,60.044384,48.091147,59.783587,63.396481,65.560746,20.257129,32.061355,30.513095,22.962181,23.164695,24.061878,24.164669,24.070003,5.619564,7.096847,11.879276,15.8138,-11.023156,-7.146962,-0.368866,4.044559,-26.908379,-23.388257,-16.100029,-11.813782,-9.498062,-31.293271,-50.947242,-64.444949,-68.060041,-104.629935,-126.512475,-145.516303,-64.263798,-77.505514,-55.221794,-39.593894,-57.324519,-63.386983,-41.892986,-27.671999,-49.109744,-58.295482,-43.031098,-31.935003,37.901041,311.629089,-73.09659,-153.506578
88,0.403793,0.230638,-0.130463,7.776532,-26.005188,-50.032173,-72.603447,-90.314186,-58.875984,-90.949986,-107.710545,-120.561516,-52.851242,-88.410301,-107.996327,-123.273445,-44.718613,-77.8549,-96.235153,-109.786995,-35.848526,-62.136475,-76.60302,-88.494415,-18.018733,-17.40423,-5.139264,3.948531,9.886068,23.249672,29.694773,34.670041,27.344206,38.501925,43.597433,47.731154,40.11965,51.505191,56.490833,60.092636,48.172694,59.76253,63.34934,65.553274,21.204437,33.293312,32.26609,25.85646,22.652927,24.006557,24.37714,25.042705,5.169308,7.421276,12.89471,17.225452,-11.146523,-6.500359,0.589714,4.950233,-26.482029,-22.480316,-15.056202,-10.86779,-9.620383,-31.262476,-49.978711,-62.291135,-67.516785,-103.734109,-124.273695,-141.999273,-64.173461,-75.186202,-52.884723,-36.834658,-56.749545,-60.805102,-39.746467,-25.178634,-48.022341,-55.658017,-41.013459,-29.978543,38.289482,311.679014,-73.242405,-145.910759
89,0.626678,0.289115,-0.530691,15.350918,-25.969322,-50.099258,-72.753502,-90.377369,-58.907352,-90.928905,-107.705772,-120.57637,-52.845955,-88.459488,-108.107002,-123.430252,-44.722137,-77.927215,-96.328731,-109.881134,-35.939735,-62.315574,-76.858177,-88.776947,-18.182063,-17.570721,-5.462182,3.752548,9.988883,23.291688,29.682769,34.534289,27.566903,38.58435,43.603115,47.627908,40.372235,51.639486,56.560006,60.093871,48.380016,59.835372,63.349266,65.525968,22.402885,35.572677,35.754467,30.203676,23.011333,24.416216,24.933597,26.246961,5.520916,8.852834,14.879556,19.491193,-10.525418,-4.821436,2.342954,6.655357,-25.520571,-20.824969,-13.372004,-9.211407,-10.289422,-31.789609,-49.593523,-60.950787,-68.095331,-104.155577,-123.674586,-140.338753,-65.107203,-74.632471,-52.434041,-35.841335,-57.287023,-59.457489,-38.698091,-23.488736,-47.95683,-54.386604,-40.134126,-28.827328,39.07267,311.606312,-73.616586,-130.921658
90,0.809304,0.290215,-0.919648,22.224508,-25.930985,-50.15593,-72.92894,-90.604557,-59.021553,-91.127816,-107.954911,-120.845513,-52.972756,-88.615345,-108.243061,-123.506836,-44.879814,-78.09597,-96.490071,-110.007054,-36.17704,-62.650921,-77.201535,-89.057659,-18.220966,-17.63388,-5.575247,3.704012,9.889785,23.13494,29.515499,34.375145,27.536744,38.621573,43.682995,47.759683,40.381855,51.694049,56.627907,60.211073,48.394477,59.775955,63.246723,65.457413,23.987458,38.745244,40.681275,36.475588,24.536603,25.575972,25.909665,27.385958,6.929146,11.516402,17.907092,22.582907,-8.993717,-2.046598,5.041941,9.182271,-23.912195,-18.333085,-10.819192,-6.667877,-10.796998,-32.112814,-49.10573,-60.215004,-69.402684,-105.613354,-124.589697,-140.501026,-66.740045,-75.7026,-53.460324,-36.37551,-58.653223,-59.367087,-38.45758,-22.427741,-48.719525,-54.382634,-40.038163,-28.032591,40.683026,311.1578,-73.735182,-109.435877
91,0.738624,0.220017,-1.727199,27.960021,-26.001755,-50.262588,-73.120674,-90.854782,-59.32846,-91.45499,-108.283916,-121.146663,-53.222534,-88.78696,-108.321522,-123.485538,-45.056831,-78.152012,-96.41399,-109.857479,-36.297065,-62.736076,-77.20174,-88.959068,-18.232871,-17.655085,-5.553314,3.803516,9.888402,23.143227,29.530344,34.429065,27.556899,38.74742,43.904617,48.090294,40.408753,51.888735,56.87266,60.510315,48.383992,59.830431,63.323256,65.591522,24.971134,41.263573,44.501862,40.529325,26.50478,27.441816,27.816387,29.338846,8.99929,14.689081,21.228166,25.266466,-6.687847,0.88048,7.928919,11.445373,-21.381094,-15.269148,-7.611563,-3.738533,-9.957424,-30.476777,-46.591996,-57.673356,-68.904487,-105.684938,-124.087089,-138.861064,-67.273204,-72.903592,-50.186638,-33.040043,-59.558938,-57.734406,-36.986715,-20.910199,-49.727699,-53.998009,-39.760607,-27.64523,42.29163,310.596817,-74.592401,-82.256856
92,0.949585,-0.087896,-1.667679,34.372675,-26.183899,-50.432693,-73.365806,-91.194889,-59.339721,-91.648613,-108.51963,-121.395035,-53.225326,-88.855865,-108.358543,-123.428924,-45.085144,-78.214485,-96.453106,-109.833584,-36.351837,-62.681488,-77.081589,-88.735336,-18.182989,-17.596237,-5.498738,3.939652,9.933974,23.13562,29.477412,34.341343,27.67898,38.89798,44.015805,48.093629,40.58121,52.270044,57.302382,60.933825,48.56003,60.185336,63.718423,65.984045,26.006693,44.002647,48.601685,44.823263,28.776667,30.04537,30.825485,32.478745,11.323111,18.344221,24.695732,27.931412,-4.120153,4.315928,11.129002,13.976412,-18.620355,-11.613058,-3.854862,-0.161808,-9.547005,-29.593987,-44.844401,-55.481149,-68.756755,-104.858096,-122.551081,-136.330892,-67.938499,-70.587365,-47.265939,-30.130165,-60.660136,-57.145427,-36.503595,-20.529032,-50.903171,-53.767266,-39.454238,-27.217195,44.571213,309.786802,-74.930082,-48.6063
93,1.046517,-0.147793,-1.431553,41.042282,-26.232949,-50.479088,-73.506615,-91.392861,-59.3993,-91.78172,-108.681553,-121.596074,-53.390099,-89.00853,-108.506562,-123.448288,-45.344902,-78.335701,-96.659031,-110.077893,-36.62986,-62.737816,-77.191258,-88.863556,-18.311653,-17.918871,-6.011996,3.517353,9.760863,22.790755,29.084753,33.896024,27.651661,38.826004,43.806644,47.658498,40.689507,52.480539,57.483137,60.949941,48.767412,60.515465,64.081515,66.28782,26.731184,46.494518,52.004357,47.031115,31.405855,32.841997,34.297989,36.249665,13.872294,22.51446,28.445492,30.537667,-1.561117,8.399843,14.632988,16.492201,-16.246393,-7.590036,-0.062542,3.102436,-9.989102,-30.199654,-45.529988,-56.17586,-69.55998,-104.733348,-121.958919,-134.858599,-68.96832,-69.883843,-46.726141,-30.203161,-62.211439,-57.190715,-37.01119,-21.606904,-52.684744,-54.031039,-39.421613,-27.023675,47.473784,308.979632,-74.505581,-8.223395
94,1.085243,-0.417976,-2.562492,39.527467,-26.299095,-50.519531,-73.620335,-91.742363,-59.354164,-91.936409,-108.92577,-121.920925,-53.346176,-89.174709,-108.647793,-123.487072,-45.2994,-78.356335,-96.806511,-110.274754,-36.571358,-62.754284,-77.294449,-88.990471,-18.292177,-17.97988,-6.065916,3.509263,9.598002,22.451968,28.74452,33.644106,27.593406,38.690338,43.584033,47.377806,40.7241,52.535027,57.503095,60.910495,48.872981,60.732789,64.35413,66.568191,27.493652,48.531,55.237421,50.444589,34.360542,37.726564,40.555967,43.147488,17.524452,28.497104,34.634462,36.235348,2.745008,14.764709,20.646149,21.645641,-11.284704,-0.475988,6.662681,9.177761,-9.600791,-28.383154,-42.199972,-51.537332,-66.888405,-99.461071,-114.82725,-125.970066,-66.426051,-66.334327,-45.376049,-30.97636,-59.826155,-52.866075,-33.401558,-19.166031,-50.155312,-49.027518,-34.64238,-22.984245,50.438856,307.865226,-75.188244,30.607642
95,1.200279,-0.648429,-3.693432,38.012652,-26.35833,-50.602661,-73.74836,-91.991558,-59.126724,-91.926842,-108.989159,-122.061287,-53.159042,-89.16085,-108.631336,-123.42786,-45.187866,-78.283882,-96.874786,-110.464359,-36.522148,-62.557503,-77.146294,-88.922218,-18.319668,-18.077087,-6.199606,3.456331,9.548948,22.314079,28.56311,33.438181,27.632062,38.643679,43.365696,46.967153,40.833522,52.686316,57.626127,60.967034,49.042301,61.02871,64.754187,67.091674,28.294098,50.112093,58.300878,55.063688,37.640728,44.699072,49.59942,53.172215,22.279587,36.292156,43.262644,45.024456,8.798223,23.410526,29.168484,29.436733,-3.735289,9.729086,16.320808,18.064167,-8.382072,-24.144489,-34.854353,-41.565567,-60.742028,-89.041263,-101.156073,-109.665292,-60.311692,-59.938819,-43.215662,-32.449761,-53.504284,-44.171506,-25.674698,-13.206412,-43.314873,-38.756701,-25.116539,-15.098902,52.95599,306.473408,-77.564821,67.876905
96,1.228272,-0.565955,-1.688564,36.899132,-26.321091,-50.620491,-73.813191,-92.190777,-58.828789,-91.736001,-108.89748,-122.059388,-52.946663,-89.143193,-108.649315,-123.459435,-45.113114,-78.306084,-97.10701,-110.923668,-36.555039,-62.565331,-77.308022,-89.299542,-18.425495,-18.28862,-6.420042,3.293322,9.44559,22.11465,28.346453,33.19922,27.637274,38.522377,43.010224,46.355207,40.927988,52.671088,57.448174,60.592653,49.238828,61.225163,65.033731,67.431956,27.624515,50.4209,62.084272,63.311777,42.149734,55.003263,59.075895,60.947399,30.266395,47.201969,51.353948,51.097126,19.093923,35.450328,38.324054,36.705379,8.652082,22.814764,26.156753,25.936431,-12.447083,-26.612993,-34.099183,-36.922888,-54.636246,-73.853039,-81.011879,-86.705143,-50.318346,-47.026505,-34.571512,-27.544439,-40.575353,-28.895732,-14.172918,-5.39117,-28.109594,-19.804265,-9.430595,-3.032403,55.780919,304.897899,-77.656728,103.766483
97,1.025734,-0.653097,-0.894139,30.208814,-26.344254,-50.579407,-73.668286,-92.116379,-58.560517,-91.44983,-108.614388,-121.774533,-52.680016,-88.874005,-108.347123,-123.204495,-44.902565,-77.956238,-96.785134,-110.757329,-36.384499,-62.216057,-76.992749,-89.149235,-18.276245,-18.122215,-6.104893,3.749263,9.719379,22.374064,28.50383,33.223006,27.837592,38.633392,43.059859,46.382488,41.036533,52.781053,57.588261,60.760689,49.313657,61.398076,65.440715,68.076174,28.884974,52.955035,67.305628,72.642878,43.716631,60.640051,66.809218,70.129034,32.589461,52.238137,58.522568,60.166609,22.256802,41.083489,45.942862,46.470938,13.398669,28.514574,33.118132,34.491909,-13.495318,-23.251257,-25.49912,-24.376781,-43.827775,-53.015443,-53.750406,-54.650569,-37.532753,-31.616915,-19.941478,-13.310129,-26.760709,-13.416389,0.938593,9.17424,-13.602653,-2.751377,7.179945,12.899309,58.23214,302.96232,-77.12538,132.692815
98,0.786186,-0.562015,-4.562381,29.175624,-26.511978,-50.378289,-73.105419,-91.708168,-57.897675,-90.95343,-108.104691,-121.326531,-52.256928,-88.405358,-107.81947,-122.856766,-44.738137,-77.760865,-96.685009,-110.915509,-36.393219,-62.13501,-77.015019,-89.428448,-17.474515,-16.952847,-5.304497,3.920163,10.325953,22.667094,28.647263,33.249731,28.123064,38.827658,43.166996,46.50694,41.070841,52.802654,57.634747,60.805433,49.166258,61.459654,65.904263,68.864319,30.149877,56.39855,74.016408,83.325124,50.681985,74.172643,80.25258,81.312853,40.805631,66.080909,71.896522,72.153059,31.138813,54.951908,59.011716,58.055002,22.68429,41.806097,45.972696,46.111461,-13.318032,-18.064413,-14.730669,-9.421689,-29.380883,-27.46251,-24.171748,-23.347982,-20.093831,-9.408749,-1.699627,1.419204,-7.649875,8.916797,19.415799,24.132388,6.260689,19.479884,25.89423,28.171187,60.06744,301.011603,-80.638647,160.479737
99,0.758583,0.235318,-4.967451,26.090259,-26.634773,-50.230225,-72.032044,-89.793034,-57.687447,-89.908734,-107.164112,-120.81831,-52.760559,-87.8302,-107.452927,-122.940788,-45.705002,-77.501564,-96.371292,-110.863323,-37.465279,-61.787842,-76.312832,-88.77475,-14.618311,-13.09788,-2.7803,5.333951,10.950584,22.620843,28.134599,32.36349,27.086263,37.696947,42.383816,45.816558,39.119071,51.006013,56.269767,59.53151,47.018431,59.341541,64.376781,67.794715,32.08049,60.271991,80.635379,93.564285,56.52666,83.810966,91.161094,92.941932,46.809207,75.526222,83.066986,84.935508,36.922966,64.096447,70.35609,71.412242,28.109539,49.854984,55.515117,56.802623,-13.434901,-14.739576,-8.20763,-0.978781,-17.301922,-6.109672,1.486827,5.356528,-5.512805,10.49263,18.113737,21.172803,8.138822,27.073789,35.721181,39.049973,22.308461,37.301201,41.816947,42.348952,61.795006,299.904677,-84.637115,185.227752
100,0.870712,0.380395,-3.703995,22.623906,-25.318451,-48.778725,-70.664154,-88.53091,-56.505226,-87.608425,-105.554043,-120.278995,-52.874542,-86.519085,-106.219494,-122.397182,-46.714622,-76.992004,-94.444393,-108.246666,-39.029526,-62.078957,-74.556988,-85.082508,-4.591761,0.468809,10.056425,18.208813,17.546738,27.292299,32.288253,36.132871,26.711363,35.742621,39.885974,42.78034,32.483533,41.75511,45.695675,47.89546,35.047558,43.990944,47.61105,49.761347,33.57883,63.299503,85.026867,100.213508,60.349743,89.614609,98.207588,101.331779,50.311317,80.991073,90.018585,93.441684,40.086571,69.437313,77.890388,81.134216,30.56773,53.638687,60.857528,63.570236,-14.280215,-13.541914,-5.288539,2.420481,-7.281497,11.337475,22.359812,29.225569,7.280127,29.484698,38.815951,43.560149,22.091643,42.369836,49.203161,51.732248,36.064032,51.894392,54.768133,54.216566,63.671888,299.227843,-87.33494,206.794429
101,0.251152,-0.030986,-1.670677,21.008355,-24.440048,-47.806641,-69.515854,-87.35717,-54.764969,-85.01231,-103.748474,-119.48148,-51.898201,-84.6973,-104.18343,-120.482128,-46.599792,-76.335468,-92.752155,-105.679951,-39.922462,-62.437111,-73.786388,-83.084782,5.206696,13.914319,22.867375,30.784976,24.775969,32.648505,36.29562,38.998744,27.125906,33.904743,35.780782,36.404758,26.683934,33.387632,35.044927,35.343626,23.655236,30.126074,32.547197,33.703226,37.27407,68.727733,90.160766,102.894355,63.15628,95.107956,105.353347,108.613243,50.485817,85.353263,97.681572,101.37577,38.914444,72.895431,84.426372,87.867794,28.154617,55.483635,66.188575,69.636314,-11.583513,-7.450916,2.975407,11.337055,4.893523,27.865232,36.904245,41.928394,18.954215,42.870409,50.185721,53.474819,32.32639,53.503064,59.224289,61.175825,44.328756,61.047939,63.726166,63.187851,64.661407,298.460582,-88.26725,227.066509
102,0.446961,-0.44674,-4.060444,19.170057,-24.997948,-48.760529,-69.869019,-87.377667,-54.051659,-82.729397,-101.621407,-117.867646,-51.522721,-82.649918,-101.630002,-117.859337,-46.770745,-75.416096,-90.879822,-103.086823,-40.812928,-62.401452,-73.327034,-82.35347,9.988389,21.18033,29.251615,36.345527,30.232384,36.294571,38.34256,39.469406,28.895327,33.791888,33.321202,31.456364,25.198417,29.931524,29.506755,27.700321,19.252951,24.626978,26.53724,26.922303,38.044063,70.889763,93.657978,106.789386,68.327236,103.841125,114.271648,115.881649,55.861232,94.79306,106.937793,108.980289,44.2752,81.944641,93.294079,94.876602,32.976082,63.755962,74.651859,76.942325,-10.875285,-5.915454,4.781051,13.782816,11.573398,37.233473,43.272898,45.008567,27.316357,53.212516,56.608048,56.278325,41.150339,63.897462,66.251795,65.100113,52.484899,70.444734,70.939343,67.907052,65.679005,297.48432,-91.757057,245.707044
103,-0.014283,-0.756726,-1.304867,11.656082,-25.171119,-49.468094,-70.248996,-87.815391,-52.391601,-78.901863,-98.257427,-115.326759,-50.263939,-79.409431,-98.857235,-115.907455,-46.01255,-72.976192,-88.80709,-101.700336,-40.734077,-61.147178,-72.365993,-82.08712,10.35931,21.659167,28.333756,33.877609,33.122846,37.398062,37.996942,37.330124,30.655979,34.196007,32.12375,28.388022,25.975607,30.048627,28.214615,25.051314,18.95188,23.951292,25.21662,24.813909,38.291393,70.775139,94.18055,108.782364,67.068443,102.516849,115.595833,120.72187,54.915001,94.017483,109.572395,115.219368,43.818626,81.478809,96.491638,101.742302,33.307102,63.144848,76.340881,81.491352,-10.669841,-5.838514,4.081567,11.777977,15.49345,40.23889,46.356356,48.83335,32.032693,56.349894,60.52195,60.851845,45.455652,67.469118,71.050827,70.435089,55.566763,73.941179,75.907744,73.721458,66.072446,296.288904,-92.6542,256.924436
104,-0.579414,-0.864383,0.589565,9.283001,-24.296265,-48.91436,-69.815769,-87.669663,-52.372124,-75.88242,-90.961441,-103.433212,-50.196785,-75.62138,-89.410149,-100.767265,-46.099777,-70.150715,-80.893799,-88.763546,-41.064789,-59.674553,-68.096615,-74.494206,8.689852,18.764246,24.775093,29.324666,33.280434,37.711557,39.343201,39.290034,31.154516,34.854428,33.255018,29.456528,26.528706,30.416302,28.338734,24.756309,19.355543,23.941821,24.650147,23.555559,37.237004,69.162266,92.779141,107.917568,66.216431,102.549225,116.224995,121.960064,54.568897,94.687283,110.929196,117.215527,44.058712,81.99075,97.495777,103.376667,34.290402,63.439236,76.956162,83.21957,-10.853832,-6.284253,3.684685,10.961267,19.056511,42.974977,48.251933,50.116734,36.419183,59.760666,63.292999,62.937725,49.505133,71.131905,74.340926,73.093951,58.508071,77.233921,79.517364,77.515651,65.749746,295.1541,-91.807921,265.937016
105,-1.310463,-0.379555,1.424767,7.030223,-23.897598,-48.455498,-68.460125,-85.507187,-52.920593,-72.344616,-81.063927,-87.022339,-50.299553,-71.472382,-78.483547,-82.593967,-46.086616,-66.786049,-72.718803,-75.468807,-40.966118,-57.63327,-64.392826,-68.908916,-0.643945,5.040773,9.935086,12.417329,26.052079,32.603687,35.191362,35.623121,29.940577,35.526173,35.643474,33.022194,31.147229,37.308204,37.327803,35.243369,29.390825,36.884645,39.244215,39.552967,35.900001,67.302852,91.58559,107.576282,65.941074,103.802776,117.631199,123.259495,54.685226,96.403415,113.119869,119.589443,44.409988,82.993755,98.855793,105.029148,35.099384,64.194889,78.152492,85.395572,-10.977198,-6.90545,3.187149,10.191152,21.816384,45.227237,49.364107,49.988008,39.512878,62.106588,65.105695,63.825028,52.013941,73.520238,76.281321,74.262935,60.018399,79.040997,81.527118,79.646744,64.525698,294.602141,-90.296739,272.794835
106,-1.582901,0.335873,-0.797608,2.438783,-22.562599,-46.537971,-65.80315,-82.268932,-51.079239,-67.046345,-70.131512,-70.585407,-48.414047,-65.584431,-66.648914,-64.860935,-44.209763,-61.038826,-62.073967,-60.575832,-38.890617,-52.903656,-56.852646,-58.864277,-9.81755,-8.846006,-5.278586,-4.216491,17.354546,25.547541,29.700219,30.998954,27.321519,35.116422,38.455773,38.358121,34.447579,42.535697,45.533025,45.602198,38.32322,47.665773,51.348283,52.631124,34.016259,64.573918,89.588345,108.976055,64.684983,101.175602,117.615681,127.039158,54.033795,94.808293,114.017086,124.857823,43.995186,81.58302,99.872052,110.238613,35.118164,62.954064,78.150032,88.726673,-10.585947,-6.940573,2.840988,8.416655,20.933921,42.067789,48.430947,51.794035,38.901512,59.708252,65.694991,67.25046,51.217595,71.81447,76.675314,76.376553,58.852367,76.865839,80.784396,80.333038,63.02536,294.797736,-91.011784,275.09334
107,-3.618164,1.07405,1.505413,2.666,-18.932945,-41.33218,-60.165012,-76.340944,-49.835283,-60.830263,-57.25716,-52.019165,-48.480841,-59.576437,-53.722,-45.503037,-45.030201,-56.213104,-50.978256,-44.237137,-40.014078,-51.647438,-52.627871,-51.525633,-12.812501,-14.632779,-11.653149,-10.775361,10.864386,21.413394,27.29065,29.895548,23.405326,33.487378,39.77709,42.118554,32.965871,42.706387,47.901437,49.930018,39.503263,49.300287,53.599728,55.866567,32.852875,62.282856,87.034424,107.292481,63.724858,99.286789,116.349312,127.813546,53.61129,93.403199,113.641068,127.010239,43.860695,80.23074,99.42112,112.166405,35.066483,61.843415,77.193352,89.51619,-10.646907,-7.901323,1.16791,4.823424,21.023113,39.555326,47.184663,52.309626,38.852581,57.513235,64.989406,68.177543,50.772498,70.070329,76.016857,76.866765,58.04167,75.149597,79.661119,80.145144,59.484907,295.914906,-89.42866,277.80246
108,-4.875984,1.494187,3.11134,2.586552,-14.892517,-35.181393,-53.284744,-68.686381,-51.35681,-55.626566,-43.484299,-31.464421,-51.794283,-54.243616,-39.295029,-23.009365,-49.281613,-52.974724,-38.640415,-24.175736,-44.659086,-53.865532,-51.478609,-46.455271,-10.397813,-12.04025,-7.963636,-5.177908,7.563159,21.687813,29.054081,33.09864,19.794397,32.137465,40.448391,44.505393,28.932099,39.549459,45.953162,49.189853,35.936881,45.608391,50.740338,54.416124,31.975193,60.803204,85.134556,105.33791,63.174889,98.469463,115.387585,126.937031,52.953815,92.376125,112.67728,126.596271,43.064838,78.923538,98.120212,111.478146,34.112686,60.767795,76.020916,88.816647,-11.079382,-8.706475,0.361944,3.637025,20.558108,38.340287,46.114751,51.614699,38.113293,56.032163,63.593588,67.175902,49.728669,68.393077,74.423943,75.679946,56.735216,73.361712,77.847546,78.493987,54.713122,297.540529,-86.213121,280.520448
109,-6.413155,2.994203,3.135349,1.629235,-10.885437,-28.116154,-44.518615,-58.418352,-49.4345,-47.272573,-31.61087,-18.048466,-51.358847,-46.852987,-28.507736,-10.488567,-49.506683,-47.796077,-30.170666,-14.007339,-45.240515,-53.972271,-52.987146,-49.855287,-10.624103,-12.349174,-7.84179,-4.068278,6.276405,21.288115,27.495859,31.070992,18.449214,30.305676,37.425758,41.754536,27.292849,37.208415,42.650367,46.371281,34.130249,43.403827,49.078449,54.183202,31.264195,59.734566,83.76931,103.943344,61.689949,97.128365,114.26635,126.082146,51.508862,91.016716,111.383652,125.343521,41.753254,77.680447,96.956909,110.411637,32.915371,59.721337,75.099117,87.775635,-11.408178,-9.01966,0.248237,3.752956,20.497592,37.703307,45.030117,50.173358,38.146885,55.434518,62.510387,65.844662,49.582827,67.658173,73.260084,74.29176,56.22317,72.238856,76.275887,76.490359,48.450514,300.677431,-82.927225,282.292382
110,-8.951866,4.345216,2.647568,1.043817,-6.970001,-20.343281,-34.075333,-45.915144,-44.502016,-36.753599,-19.353195,-5.767055,-47.750067,-37.445967,-17.548325,0.632183,-46.589104,-39.988163,-20.615879,-4.042969,-42.838137,-51.227303,-52.780626,-52.626005,-11.363984,-14.060007,-10.949367,-8.631176,3.898186,18.244894,23.923845,27.221459,16.298583,27.383399,33.137118,36.629795,25.150171,34.502327,38.570975,41.570273,32.149667,40.780485,46.497752,51.959606,30.721195,58.886536,82.606636,102.426224,60.205364,95.654686,112.975914,125.05529,49.921864,89.466568,109.765366,123.721573,40.197796,76.162136,95.483894,109.064598,31.491497,58.349018,73.833137,86.379524,-11.763256,-9.146792,0.418618,4.717744,20.703838,37.672852,44.750894,49.612985,38.402309,55.36537,62.077096,65.125998,49.671673,67.500635,72.756719,73.507258,55.901129,71.575594,75.20201,74.907621,39.637579,305.164747,-80.140726,283.478299
111,-2.863861,0.614269,1.734112,0.791714,-7.51918,-20.511372,-33.904095,-46.088717,-49.09437,-37.954107,-17.474899,-2.355389,-52.820761,-37.719973,-15.135681,4.595203,-51.374416,-40.608982,-18.571415,-0.213867,-47.014727,-54.237454,-55.031061,-53.859129,-3.185772,-2.30988,1.760078,5.356897,8.681187,23.277614,28.8908,32.549037,16.590501,27.964878,33.995374,37.926899,21.043583,30.979169,35.377057,38.801581,24.249022,32.559392,38.862609,45.242001,30.393539,58.325821,81.721653,101.282787,59.015018,94.237987,111.58723,123.86626,48.426853,87.876972,108.005596,121.91106,38.556244,74.452755,93.756832,107.358181,29.824974,56.582084,72.134548,84.498607,-11.830613,-8.91156,1.02833,6.272582,20.872294,38.00045,44.923116,49.595893,38.529256,55.529577,61.906752,64.705626,49.673439,67.565831,72.556907,73.01018,55.655078,71.305486,74.676861,73.964681,36.868692,305.870647,-78.31164,284.361644
112,-3.487106,1.313097,0.926719,0.604389,-6.59594,-18.434853,-30.413807,-41.008439,-49.250222,-35.413205,-14.142655,1.237037,-52.423005,-34.833161,-11.215096,8.697898,-50.062306,-37.217549,-14.567551,3.713379,-44.688149,-51.289673,-53.870465,-55.092659,3.294076,7.916502,12.990904,17.317743,13.156654,27.206503,32.159553,35.503313,16.045388,26.832827,32.531488,36.405907,15.878328,25.162565,29.946715,33.891368,14.886345,20.508436,25.599004,31.140684,29.996956,57.62328,80.712719,100.133114,57.63834,92.66161,110.142575,122.667355,46.888253,86.355503,106.472592,120.352055,37.054974,72.956704,92.311924,105.960789,28.50269,55.144627,70.737786,82.91914,-12.195867,-8.940237,1.427644,7.613072,20.883322,38.088481,44.828749,49.336059,38.622635,55.664822,61.787437,64.454931,49.764335,67.752428,72.546187,72.814134,55.531392,71.210686,74.420904,73.401973,33.438584,307.231366,-77.327923,285.013655
113,-2.724266,1.606647,0.297776,0.557742,-6.137192,-17.365128,-28.239888,-37.415669,-48.440815,-33.038819,-12.241402,2.670982,-50.391541,-31.780255,-8.152405,11.436309,-46.800316,-33.057301,-10.905373,6.744209,-40.278008,-45.501595,-48.756066,-51.159222,6.182106,12.819003,18.625098,23.338321,15.179091,28.510906,32.893679,36.123077,15.667698,25.795877,30.897461,34.782859,13.733712,22.453413,27.240565,31.534441,11.015051,15.727114,20.506435,25.850835,29.600509,56.945743,79.780414,99.033863,56.678867,91.475406,109.041881,121.845462,45.882167,85.284885,105.396343,119.342319,36.088382,71.959648,91.297725,105.044162,27.655082,54.201679,69.756214,81.930095,-12.521959,-9.152881,1.519084,8.368391,20.54183,37.542953,44.070725,48.439308,38.345276,55.24466,61.266115,64.011798,49.565042,67.524124,72.283525,72.621621,55.325578,70.975207,74.158799,73.106535,30.741543,308.846735,-77.002922,285.580119
