takenoko1/special-research/HandMotion_SimilarSearch_自分用/NewProject/handData/tgt/d4_feature_d2/56.csv
,vel_0x_L,vel_0y_L,vel_0x_R,vel_0y_R,posFromWrist_1x_L,posFromWrist_2x_L,posFromWrist_3x_L,posFromWrist_4x_L,posFromWrist_5x_L,posFromWrist_6x_L,posFromWrist_7x_L,posFromWrist_8x_L,posFromWrist_9x_L,posFromWrist_10x_L,posFromWrist_11x_L,posFromWrist_12x_L,posFromWrist_13x_L,posFromWrist_14x_L,posFromWrist_15x_L,posFromWrist_16x_L,posFromWrist_17x_L,posFromWrist_18x_L,posFromWrist_19x_L,posFromWrist_20x_L,posFromWrist_1y_L,posFromWrist_2y_L,posFromWrist_3y_L,posFromWrist_4y_L,posFromWrist_5y_L,posFromWrist_6y_L,posFromWrist_7y_L,posFromWrist_8y_L,posFromWrist_9y_L,posFromWrist_10y_L,posFromWrist_11y_L,posFromWrist_12y_L,posFromWrist_13y_L,posFromWrist_14y_L,posFromWrist_15y_L,posFromWrist_16y_L,posFromWrist_17y_L,posFromWrist_18y_L,posFromWrist_19y_L,posFromWrist_20y_L,posFromWrist_1x_R,posFromWrist_2x_R,posFromWrist_3x_R,posFromWrist_4x_R,posFromWrist_5x_R,posFromWrist_6x_R,posFromWrist_7x_R,posFromWrist_8x_R,posFromWrist_9x_R,posFromWrist_10x_R,posFromWrist_11x_R,posFromWrist_12x_R,posFromWrist_13x_R,posFromWrist_14x_R,posFromWrist_15x_R,posFromWrist_16x_R,posFromWrist_17x_R,posFromWrist_18x_R,posFromWrist_19x_R,posFromWrist_20x_R,posFromWrist_1y_R,posFromWrist_2y_R,posFromWrist_3y_R,posFromWrist_4y_R,posFromWrist_5y_R,posFromWrist_6y_R,posFromWrist_7y_R,posFromWrist_8y_R,posFromWrist_9y_R,posFromWrist_10y_R,posFromWrist_11y_R,posFromWrist_12y_R,posFromWrist_13y_R,posFromWrist_14y_R,posFromWrist_15y_R,posFromWrist_16y_R,posFromWrist_17y_R,posFromWrist_18y_R,posFromWrist_19y_R,posFromWrist_20y_R,posFromBody_0x_L,posFromBody_0y_L,posFromBody_0x_R,posFromBody_0y_R
6,-0.61377,0.614552,0.365982,-0.171715,1.971359,3.649818,8.261879,12.569115,-18.79612,-1.021294,20.191784,35.991634,-24.303085,-1.661911,22.602024,42.824375,-25.024258,-4.85844,17.851948,35.81448,-23.069149,-11.789291,3.806969,17.395489,-18.453135,-27.758526,-25.224178,-16.851292,-9.935752,0.100703,7.346138,11.208318,8.918909,19.057968,25.453792,27.527852,24.141102,33.517877,36.050817,35.430855,35.840186,45.254901,43.545403,39.383771,24.794632,49.416927,71.601047,89.478046,48.005756,81.372562,98.59695,110.594021,39.991905,76.705272,96.678486,109.85812,32.458442,66.458839,85.717426,98.559047,26.073326,52.268017,68.125534,81.202732,-15.149402,-15.897545,-7.96116,0.446937,14.995704,28.396359,32.375753,34.216977,32.650456,44.938961,47.261986,46.663254,44.103243,58.193551,60.425025,58.449395,50.213224,64.8354,67.442836,65.938028,-8.061556,318.717205,-75.481653,300.619074
7,7.958954,3.585624,-0.075897,0.24831,0.2757,-1.097786,1.121109,4.508171,-25.75898,-9.35598,11.69482,26.899807,-31.637123,-9.808045,14.517002,35.026142,-31.845223,-12.667946,9.57011,27.545208,-29.140526,-19.579067,-4.502152,8.897793,-17.226648,-27.705866,-27.118767,-20.600098,-11.444475,-3.080728,4.078603,8.310383,6.554461,15.09852,21.848124,24.104212,21.288393,29.150592,32.219377,31.952072,32.933335,40.794076,39.482806,35.702199,24.732364,49.478588,71.733352,89.465892,48.330848,81.655597,98.790309,110.696788,40.276451,76.885654,96.731815,109.764209,32.697349,66.546054,85.709003,98.434329,26.278907,52.350322,68.201854,81.184673,-15.471788,-16.464105,-8.627039,-0.02596,14.797375,28.075245,32.160356,34.12518,32.439752,44.61965,47.062015,46.592316,43.859169,57.877118,60.272527,58.393857,49.93431,64.555289,67.190969,65.661461,-0.047945,322.227793,-75.502893,300.792348
8,-9.445976,6.773477,0.059944,0.016129,3.800937,6.065918,12.172748,18.709247,-15.078987,3.240669,23.235065,37.735576,-20.920395,3.420055,25.74963,44.9305,-21.374909,0.509617,20.866069,37.41212,-18.748593,-7.779293,5.98851,18.516208,-19.317776,-32.707019,-35.780029,-32.361353,-15.082303,-8.665114,-2.260522,1.475008,2.412292,10.577661,16.068631,17.726691,16.693458,24.737932,26.755392,25.877276,27.861922,35.761813,34.319261,30.275079,24.761192,49.436908,71.555751,89.381366,48.330242,81.683796,98.816379,110.715992,40.222572,76.90163,96.74271,109.685726,32.630825,66.572685,85.687374,98.288921,26.256786,52.42408,68.296886,81.262149,-15.647579,-16.626261,-8.661508,-0.093947,14.397912,27.890599,32.191528,34.364018,32.157417,44.504659,47.119233,46.743556,43.640079,57.757458,60.194944,58.368985,49.722161,64.305583,66.881674,65.314634,-9.443132,328.949943,-75.39216,300.75715
9,-3.760907,2.723601,0.087707,-0.087833,4.997944,8.583539,15.542771,22.196709,-10.925903,8.918313,28.493569,42.440163,-17.145641,9.029664,30.282143,48.640114,-17.913265,5.82066,25.406113,41.296578,-15.634758,-3.705791,9.794632,22.056748,-18.620157,-32.289735,-37.214997,-35.954758,-15.96589,-10.095069,-4.138661,-0.627878,0.662903,9.047028,13.873589,15.246164,14.363418,22.662735,24.2009,23.073634,25.226834,33.377839,31.979933,27.913508,24.770428,49.354328,71.446861,89.292973,48.247673,81.641201,98.77763,110.700794,40.125664,76.885128,96.741154,109.621845,32.549618,66.58413,85.673664,98.179562,26.210404,52.436417,68.316628,81.244435,-15.646023,-16.623693,-8.671376,-0.085673,14.330072,27.854573,32.318066,34.690961,32.124207,44.5558,47.327491,47.046898,43.62921,57.780428,60.29509,58.516333,49.723691,64.252242,66.831606,65.233839,-13.159104,331.634768,-75.259518,300.630541
10,-3.152916,0.073199,0.009991,-0.094293,5.886498,10.433693,18.063561,24.497979,-6.99607,14.126999,33.4403,47.263802,-13.227802,13.692399,33.97094,51.777604,-14.478286,9.950398,28.962754,44.390648,-12.634071,-0.919052,12.213089,24.308373,-18.364227,-31.463379,-36.575337,-37.010739,-14.831177,-8.158835,-2.556035,0.565572,1.401092,10.435671,14.749679,15.834498,14.680963,23.675491,24.616369,23.156565,25.064628,33.868335,32.323401,28.416502,24.743225,49.186031,71.232708,89.258308,48.18687,81.585411,98.789703,110.807258,40.089146,76.910591,96.811203,109.72657,32.565124,66.636085,85.780769,98.346405,26.287617,52.529526,68.415974,81.3311,-15.652803,-16.549135,-8.603981,-0.213138,14.436493,27.903776,32.432551,34.878596,32.164209,44.595073,47.435283,47.189418,43.610413,57.773821,60.320359,58.557718,49.640551,64.200631,66.804671,65.214042,-16.275416,331.66531,-75.212923,300.493591
11,9.614869,-7.81139,0.142032,-0.052537,2.117683,2.342754,5.279594,7.912719,-17.841843,1.357189,21.471908,36.2043,-24.115803,0.489578,22.169105,41.472816,-25.253563,-3.040043,17.811149,34.851585,-23.255986,-12.916066,1.556694,14.846145,-10.837457,-18.809163,-20.749398,-19.523344,-6.633723,2.320667,8.582245,12.152197,6.648988,17.144458,22.653064,24.116574,17.446541,27.846447,29.976614,29.132338,25.883018,35.878162,35.337241,32.367627,24.684266,49.052514,71.081749,89.169011,48.171399,81.521267,98.728421,110.840481,40.131936,76.941823,96.845227,109.7944,32.623868,66.693272,85.849309,98.468205,26.319375,52.603707,68.456406,81.350544,-15.728065,-16.62494,-8.666004,-0.3275,14.518423,27.872271,32.4326,34.932343,32.206779,44.46657,47.414411,47.294097,43.636966,57.61858,60.2428,58.551641,49.661459,64.154824,66.765904,65.169211,-6.628841,323.820948,-75.039185,300.408082
12,4.180904,-3.654661,0.229638,-0.01902,1.145416,0.01799,1.861759,3.631336,-21.623486,-3.690319,16.367947,31.719257,-27.653789,-5.547649,16.43288,36.737217,-28.701565,-8.552593,12.54681,30.068745,-26.525642,-17.395351,-3.020348,10.376186,-11.726045,-18.253916,-17.224314,-14.074648,-5.571209,4.937699,11.49784,15.166012,8.507119,19.819498,25.750774,27.386616,19.824019,30.432888,32.78464,32.255204,28.450922,38.5956,38.2301,35.707558,24.595413,48.926113,70.948997,89.158413,48.042823,81.482814,98.707065,110.794223,40.042236,77.051479,96.994411,109.89188,32.567173,66.818344,85.987667,98.539043,26.27671,52.635257,68.438152,81.27277,-15.756778,-16.654938,-8.657099,-0.35793,14.410459,27.664358,32.203569,34.720145,32.094518,44.217816,47.124593,46.988161,43.576846,57.364219,59.920822,58.170259,49.664893,64.109451,66.764447,65.172027,-2.421793,320.134832,-74.783403,300.357607
13,4.422752,-0.856219,0.161522,-0.241024,0.61171,-1.520141,-1.176487,-0.378582,-25.998321,-9.600299,10.577534,26.150425,-32.098743,-12.134227,10.460186,31.408642,-33.004097,-15.479782,6.258259,24.76038,-30.655162,-25.4202,-14.471431,-3.733303,-11.376624,-18.119448,-16.47354,-12.096486,-6.191084,4.743111,11.84032,15.974004,8.024898,19.226707,25.565041,27.450121,19.48943,29.365075,32.513061,32.821789,28.40614,37.706432,37.975738,35.890574,24.398185,48.869682,70.95235,89.113529,47.784107,81.423625,98.761905,110.934459,39.768539,77.037242,96.999309,109.850383,32.350227,66.837696,86.064273,98.641788,26.122982,52.602127,68.45327,81.317745,-15.62898,-16.595423,-8.601351,-0.145027,14.569392,27.629086,32.008684,34.425003,32.32413,44.234574,46.949888,46.669603,43.836136,57.370493,59.788367,57.942128,49.902151,64.29837,66.94361,65.313016,2.022457,319.252452,-74.600383,300.090422
14,0.47596,0.350112,0.212196,-0.132343,0.748146,-1.615059,-1.845188,-1.868145,-26.187412,-9.051029,11.221012,26.986302,-32.491813,-11.857372,10.507862,31.267056,-33.536922,-15.321304,6.003651,24.249287,-31.155521,-26.208629,-15.610531,-4.959537,-11.171477,-17.786576,-16.374579,-12.410338,-6.443914,4.625403,11.677868,15.449781,7.432799,18.822959,25.093379,26.804916,18.770125,29.041182,32.306322,32.532217,27.648179,37.01994,37.458282,35.431992,24.348678,48.877865,70.940266,88.953632,47.661907,81.344639,98.703289,110.884701,39.602463,76.969906,96.925838,109.807629,32.198994,66.730156,86.007923,98.686993,25.993492,52.46648,68.320667,81.221844,-15.631512,-16.632523,-8.506626,0.074767,14.740107,27.653576,31.829509,34.144223,32.518162,44.222878,46.773677,46.50132,44.050471,57.349966,59.658765,57.82663,50.117017,64.372248,66.970668,65.373667,2.517208,319.578793,-74.369396,299.934308
15,0.154095,0.431204,0.285965,-0.251942,1.520233,-0.334671,-0.969772,-1.690682,-25.852261,-8.557022,11.684875,27.430115,-32.396061,-11.875809,10.557632,30.899551,-33.745651,-15.648159,5.664528,23.521934,-31.660744,-27.373444,-17.485188,-7.65683,-10.804445,-17.264971,-16.19806,-12.711397,-6.894829,4.106575,11.280886,15.089577,6.711281,18.130093,24.550753,26.321347,18.002505,28.411278,31.921702,32.240865,27.072442,36.117791,36.564926,34.651169,24.301334,48.920574,70.989933,88.783527,47.413387,81.107174,98.471248,110.689121,39.322231,76.77721,96.761043,109.723698,31.938743,66.523876,85.834179,98.618717,25.762756,52.194408,68.039177,81.000629,-15.588237,-16.629275,-8.425831,0.382445,14.968362,27.731962,31.775638,34.069925,32.801868,44.321951,46.78352,46.562787,44.373389,57.451435,59.710734,57.916057,50.454483,64.57931,67.173975,65.601822,2.685248,319.998715,-74.069486,299.671084
16,-8.314396,9.014189,0.286526,-0.279433,5.61454,7.976704,11.191418,13.059872,-14.464748,4.757057,24.057644,38.934345,-21.580982,0.824146,21.394627,40.166073,-23.722755,-4.017128,14.999714,30.979557,-22.310188,-19.02356,-12.628521,-5.490303,-17.767063,-29.42359,-32.339308,-32.013365,-15.317462,-6.335383,0.124217,3.27744,0.653949,10.672114,15.884738,17.021822,14.078822,23.101903,25.481097,24.957145,24.833138,32.581172,32.301702,29.59349,24.310936,48.952743,70.952362,88.530326,47.171459,80.866676,98.252952,110.486045,39.036323,76.524192,96.541145,109.583221,31.681034,66.180015,85.52893,98.452674,25.589023,51.834377,67.658866,80.675285,-15.541134,-16.543528,-8.216769,0.729569,15.273051,27.972665,31.904437,34.174963,33.102926,44.58854,46.950036,46.770231,44.628147,57.667228,59.884166,58.154488,50.641772,64.742207,67.354274,65.855295,-5.622145,328.999921,-73.775957,299.378668
17,-4.777004,3.416798,0.275917,-0.198392,6.718849,10.748256,14.911148,16.601372,-8.606701,11.979355,31.315567,45.982109,-16.077141,8.252861,27.618095,45.283287,-18.818047,2.538414,20.68705,35.765121,-17.963917,-15.118664,-10.058007,-3.934902,-17.13464,-29.536086,-35.478143,-38.053765,-15.596536,-7.126355,-1.160315,1.24973,-0.619208,9.322892,13.569406,13.928769,12.067241,21.515795,22.945231,21.453291,22.162915,30.675123,30.054099,26.815154,24.276329,48.9207,70.918098,88.342186,46.835037,80.511703,97.903312,110.187996,38.723201,76.311355,96.353553,109.533165,31.463379,65.992653,85.405861,98.545784,25.512966,51.734333,67.552253,80.622573,-15.453571,-16.544034,-8.146275,0.997232,15.498489,28.158608,31.961915,34.191796,33.357116,44.718587,46.937649,46.783063,44.889166,57.806858,59.918376,58.227243,50.862913,64.872427,67.422459,65.957591,-10.398439,332.40176,-73.49933,299.165317
18,-2.892918,1.187461,0.270115,0.103852,7.21043,12.189835,17.233578,19.347164,-5.224537,16.770779,35.937069,50.114971,-12.738464,13.059666,31.858898,48.870632,-15.641361,7.467384,25.08086,39.386135,-15.109588,-9.411564,-1.888584,6.567593,-17.191574,-29.592131,-36.508585,-40.089936,-15.528241,-8.155859,-2.718994,-0.5808,-0.75191,8.533993,12.689833,12.951815,11.925585,21.187863,22.339298,20.305536,21.931363,30.676159,29.545756,25.645971,24.205822,48.766445,70.774898,88.141674,46.747695,80.305973,97.679889,109.973568,38.710144,76.253528,96.287349,109.55524,31.496292,65.937549,85.327274,98.550235,25.585807,51.660244,67.387985,80.474315,-15.540232,-16.716269,-8.29965,0.848784,15.570206,28.010802,31.679987,33.840844,33.381186,44.48123,46.663873,46.651288,44.889981,57.575961,59.672103,58.070433,50.858479,64.727955,67.265132,65.875426,-13.301405,333.586449,-73.239263,299.266397
19,-2.677975,-1.742807,0.186904,0.218955,7.801415,14.170121,20.507973,23.727562,-2.333656,19.744194,38.701813,52.798211,-9.529003,16.215729,34.934121,51.897629,-12.528934,10.763581,28.503937,42.900696,-12.244514,-6.068527,1.596268,10.215477,-17.803866,-29.601814,-35.454579,-38.307251,-14.054295,-5.933634,-0.479838,1.822218,1.066245,10.936603,14.947675,15.18434,13.685287,23.325378,24.240816,22.05395,23.390488,32.812205,31.55351,27.570435,24.091794,48.61726,70.698407,88.130803,46.664303,80.197186,97.560002,109.850132,38.711071,76.34911,96.372242,109.613949,31.548043,66.077076,85.398892,98.57079,25.700341,51.754464,67.424836,80.49963,-15.619372,-16.973509,-8.719232,0.352533,15.415422,27.72491,31.405,33.602153,33.245841,44.076666,46.236374,46.267212,44.790859,57.202395,59.221374,57.61532,50.787528,64.550768,67.040952,65.624028,-16.0047,331.853241,-73.077679,299.494951
20,1.343525,-6.264023,0.124672,0.292474,7.311688,12.92323,18.525387,21.577504,-5.272178,17.209362,36.958386,50.582348,-12.806373,13.466469,33.429554,50.827504,-16.220146,7.312146,26.699307,41.878224,-16.638988,-8.224937,2.016987,11.927113,-18.534732,-28.48176,-31.4483,-31.426267,-11.415811,-1.654627,3.813631,6.145277,4.749372,15.320092,19.73185,20.064623,18.137899,27.834307,28.881211,27.041851,28.33672,38.169387,36.733702,32.573293,24.033383,48.564949,70.701062,88.247692,46.688313,80.234013,97.578221,109.833722,38.767376,76.498249,96.46082,109.555149,31.629914,66.245419,85.494656,98.539318,25.815056,51.912907,67.537995,80.557103,-15.739698,-17.261907,-9.099417,-0.076978,15.007067,27.356088,31.064953,33.292735,32.877599,43.641931,45.816225,45.87164,44.494902,56.795992,58.767917,57.167902,50.552198,64.226122,66.634598,65.16931,-14.697527,325.61327,-72.989359,299.811477
21,-2.239219,-3.837109,0.074582,0.083734,6.852504,12.869808,20.411144,25.840885,-5.612538,17.357025,37.146114,50.522449,-13.021134,14.011711,35.316227,52.749355,-16.050991,8.256248,28.494816,43.677395,-16.197979,-4.351616,8.276092,19.274734,-19.754303,-29.084049,-28.752585,-24.918243,-11.609201,-1.098676,5.422538,8.989674,6.388068,17.843251,23.127542,23.531797,21.139932,30.742677,32.201864,30.239547,32.500563,41.357672,39.472864,34.696963,23.962543,48.445301,70.635841,88.341865,46.277217,79.930114,97.485969,109.939933,38.436115,76.369194,96.571838,109.82611,31.453159,66.278251,85.655204,98.763404,25.850349,52.076843,67.778789,80.813438,-15.785035,-17.309134,-9.292325,-0.402292,14.736514,27.258991,31.151169,33.45867,32.675255,43.777794,46.04007,46.049975,44.37928,56.976302,58.894912,57.191997,50.450087,64.167792,66.464142,64.838525,-16.988743,321.807675,-72.966774,299.926725
22,-1.023938,-0.899494,0.08646,-0.255449,6.652703,12.65149,21.242066,28.664864,-6.027969,17.316754,36.852105,49.93927,-13.521514,13.727978,36.011857,53.55185,-16.614372,8.002739,28.847512,44.316857,-17.061584,-3.397419,10.676537,22.413929,-20.58676,-29.98968,-27.764652,-21.593489,-11.839703,-1.587899,5.453982,9.866049,6.424908,17.892775,23.842069,24.806339,21.42149,30.919061,33.186969,31.788952,33.154426,41.370751,40.006573,35.519072,24.017898,48.444957,70.516056,88.243915,46.086731,79.761188,97.510929,110.106662,38.153148,76.226589,96.690433,110.068576,31.123512,66.037147,85.531551,98.592395,25.528976,51.688499,67.490123,80.544857,-15.885639,-17.29876,-9.159031,-0.19628,14.576691,27.569348,31.846602,34.400129,32.595325,44.298362,46.864512,47.019641,44.372092,57.467403,59.551677,57.873659,50.494534,64.42891,66.785195,65.094073,-18.075606,320.948205,-72.943239,299.7113
23,-2.316524,-0.560076,-0.405087,-0.994429,7.791721,14.684658,24.050983,32.452137,-3.612133,20.018234,39.592037,52.68726,-11.586365,15.757427,38.44479,56.220829,-15.541054,8.815727,29.833157,45.497646,-16.838688,-4.378372,8.372726,19.028366,-21.193087,-30.584003,-28.398496,-22.388909,-12.014728,-0.311222,7.675317,12.879654,6.234754,18.88214,25.302305,27.163574,21.042342,31.042105,33.721838,33.283608,32.546827,40.458401,39.246079,35.19645,24.579792,48.962048,70.758808,88.362717,45.945339,79.258003,97.065216,109.967835,37.785439,75.737229,96.54126,110.433586,30.671929,65.335808,84.871445,98.032311,25.091721,51.1623,66.862106,79.710251,-15.815836,-17.025922,-8.843844,0.182831,14.077699,28.214393,33.575861,37.110886,32.08549,45.234326,48.913329,50.012919,43.937382,58.158391,60.796615,59.615231,50.274061,64.459304,66.962024,65.402332,-20.463238,320.406487,-73.419434,298.735229
24,7.080803,-7.984761,1.96455,-5.484128,-2.199726,-2.134838,2.568981,8.91655,-14.12273,2.7136,17.91402,27.731117,-17.313423,1.64827,19.135597,33.196175,-17.841328,-1.957008,14.166286,26.334194,-17.016346,-9.222645,-0.377472,6.561184,-18.465657,-23.975844,-18.778226,-10.32126,-6.546815,5.896177,11.991338,15.308607,10.591592,23.718494,29.185147,29.531604,24.498266,34.635918,36.87458,35.305156,34.990859,43.331574,42.59252,38.619177,25.948048,49.501694,68.289482,82.829098,48.013779,76.243344,88.939613,97.292519,38.557915,69.938564,84.621895,93.99773,29.609654,57.525719,71.242985,80.106377,21.797688,42.732056,54.043682,63.222439,-12.922842,-11.155446,-0.785836,9.570116,16.321387,34.199465,41.97215,45.835725,31.886777,49.319202,54.75083,55.798722,42.24915,59.518258,62.95184,61.409056,47.794029,63.381203,65.8673,63.811134,-13.519638,312.422563,-71.592087,293.251938
25,6.572296,1.061342,3.697849,-7.726767,-8.056114,-12.675076,-11.606186,-7.731022,-19.644825,-12.033176,-3.954426,1.269173,-19.88435,-11.126049,-1.902523,5.766415,-17.64045,-10.559486,-2.575287,3.438709,-13.974552,-12.532185,-10.136696,-8.40802,-16.980363,-23.609677,-20.651339,-14.26022,-7.135384,2.750178,8.554593,12.240809,8.765928,20.103699,25.412357,26.640177,21.82924,31.33889,34.418753,34.18751,31.608072,39.691819,40.802523,38.724128,25.978501,48.161568,63.122109,74.538895,49.64906,70.870858,78.02496,81.534817,38.861081,61.842476,69.743386,74.138443,28.281464,48.037445,55.219151,59.310803,18.244263,33.169716,39.634232,44.845242,-9.594742,-4.455243,8.239691,20.060745,22.163112,42.839163,52.735877,57.2864,34.734829,55.272905,62.199584,63.778382,42.696816,62.067451,66.713614,65.745849,46.495392,63.051913,66.342333,65.023369,-7.193853,313.469807,-68.140749,285.511073
26,15.511745,-5.961298,-0.327684,-15.546556,-14.615364,-26.501461,-32.853321,-34.274826,-32.164672,-36.220413,-34.769016,-33.472675,-29.405227,-34.384517,-33.532848,-30.556903,-24.853878,-30.222015,-29.629669,-27.706867,-19.407119,-27.379188,-30.731025,-32.496105,-15.336567,-19.58875,-16.564153,-10.304119,-2.071245,9.451419,14.863595,17.947868,12.526972,25.145274,29.965424,31.580729,24.486335,36.230349,39.671231,40.497192,33.134085,44.014952,46.172475,45.419082,25.134584,46.189459,58.523014,67.227968,51.730339,67.996153,69.638432,68.346285,41.512728,57.826178,59.023665,58.465124,30.775503,43.993624,44.624737,43.968658,19.816114,30.226175,31.616753,32.659172,-9.073994,-3.922843,7.934521,18.89512,20.530388,41.596189,51.869914,56.242615,31.438765,52.704088,60.001462,61.7597,38.765118,58.277328,63.208759,62.59433,42.888811,59.058632,62.266257,61.266703,8.079053,307.505042,-68.707272,269.96105
27,15.561242,-9.02964,-4.320213,-23.345632,-21.867085,-40.15638,-53.471661,-60.256451,-45.128621,-60.102768,-65.04094,-68.083844,-39.327839,-56.503613,-63.759053,-66.566174,-32.150929,-48.646706,-55.345768,-58.676033,-24.474289,-40.269242,-49.160008,-55.427754,-13.801093,-14.870549,-9.375305,-1.641177,3.471991,16.771721,22.282883,25.329501,18.302007,32.109511,37.081666,39.238312,30.079206,43.339231,47.201978,48.688928,38.194927,50.823171,53.799022,54.122297,23.342817,43.481741,54.458393,60.982858,53.443599,67.045927,63.49031,57.727426,45.907556,57.505331,52.401048,47.248586,36.856092,45.391496,39.69897,34.625049,26.739618,34.324133,30.492679,27.205627,-11.247992,-9.267465,-1.633533,5.779233,11.580258,30.495095,39.371914,42.642432,22.168373,41.98392,48.387851,49.773808,30.613508,48.531668,52.607411,51.948287,37.004255,51.435876,53.51274,52.285302,23.32037,298.689342,-73.34741,246.829358
28,16.031227,-9.756466,-4.55357,-32.79599,-30.398976,-55.701622,-75.306267,-86.308651,-59.018532,-85.128903,-96.949608,-104.576157,-49.861897,-79.215729,-94.371701,-103.354271,-39.624916,-66.565155,-80.53101,-89.584637,-29.346703,-50.121838,-61.97834,-71.416558,-12.753041,-10.632519,-0.694272,10.793194,9.792615,23.557535,28.650623,31.529069,25.074088,39.007365,43.665816,45.565246,36.978123,51.3263,55.378078,56.644666,44.912371,59.25877,63.164398,64.429454,23.833162,42.707777,51.760437,55.628694,52.239544,60.772699,54.340759,45.901033,44.764555,50.165663,42.096491,34.340429,35.741037,39.358377,31.448879,24.683075,25.520742,29.543226,23.681271,18.692516,-7.002515,-5.764981,-0.838496,3.692564,3.73314,16.782046,23.438511,25.045807,9.142964,21.623383,24.71974,23.991888,14.269236,24.564796,25.37472,22.937203,19.166192,26.856428,25.89485,22.731445,38.788765,289.396529,-78.463812,214.497021
29,8.94413,-0.830889,-7.818329,-35.143604,-28.172539,-53.742245,-75.279591,-88.190094,-62.403912,-92.813279,-106.98412,-116.205345,-55.391018,-88.833184,-105.959771,-117.035076,-46.237393,-76.137543,-92.118519,-103.052307,-36.238221,-59.310997,-72.141598,-82.439312,-14.544124,-13.811863,-3.459443,8.774338,9.074902,23.006857,30.491242,35.97269,25.787182,39.527587,45.74946,50.179138,38.792967,53.529049,59.162699,62.773283,47.752162,62.112356,66.682652,69.113309,23.143061,41.70793,50.272144,52.205538,47.118599,54.830767,50.252495,43.889952,39.911333,45.420874,40.174891,34.527826,31.782412,36.843126,32.471775,28.263805,22.850847,28.819982,25.961472,22.873123,-8.8321,-13.801649,-16.270931,-17.608303,-14.37678,-13.276141,-13.380666,-15.832367,-10.299246,-10.007327,-12.988662,-17.30262,-4.941422,-4.676087,-7.853949,-11.898712,1.611618,2.327175,-0.201294,-3.320981,47.363079,289.127702,-86.651957,179.915479
30,7.34143,-4.645693,-9.504009,-41.06219,-29.725479,-56.773761,-79.921394,-93.667053,-67.375065,-99.91856,-114.53754,-123.55957,-60.137809,-96.039138,-113.555339,-124.351616,-50.712639,-83.114982,-99.596466,-110.28622,-40.672348,-65.833843,-79.162559,-89.315815,-14.821161,-12.152173,1.520208,16.643897,12.623661,28.52396,36.641916,42.508959,30.043971,45.248355,51.655047,55.989827,43.254867,59.071,64.73145,67.744178,52.126968,67.281198,71.441385,73.250722,23.1681,41.064691,49.29039,49.070017,41.141899,49.764135,47.496036,43.664514,33.709379,40.781782,39.248251,36.964857,25.697187,34.832262,35.413776,34.659301,17.738806,27.507139,28.977287,28.751324,-11.754914,-24.014704,-33.764298,-40.992696,-37.26604,-47.481627,-53.842438,-60.57474,-33.481808,-44.856098,-53.673526,-61.528228,-26.576229,-32.661639,-33.708334,-34.844739,-17.237411,-21.307727,-22.596075,-23.686044,54.534313,285.110452,-96.326162,139.481732
31,-0.034767,-0.274049,-5.606306,-39.203589,-29.738342,-55.869987,-78.892616,-92.518375,-66.293232,-98.400833,-113.326217,-123.078953,-59.344036,-94.503238,-112.21582,-124.409008,-50.167122,-81.831608,-98.551037,-110.428562,-40.221313,-64.72522,-78.064522,-89.038502,-14.853246,-12.348316,2.166637,17.49903,13.312006,27.866627,35.848609,42.107384,30.725943,44.24769,50.820009,55.777456,43.875619,58.307432,64.349882,67.732249,52.624603,66.76977,71.371151,73.622213,23.844898,41.019012,47.713737,44.599937,34.915203,42.295578,42.151039,40.323475,25.368541,32.228759,33.989158,34.428177,15.826,27.176777,32.475494,34.703018,7.163269,19.234909,25.062172,27.545826,-11.360396,-27.89079,-41.990725,-52.378398,-52.692127,-72.035326,-83.393617,-93.893194,-50.707364,-72.070197,-86.059048,-97.468499,-44.063655,-55.406854,-53.464643,-51.465412,-34.247847,-42.272616,-41.389529,-39.843929,54.084245,285.513518,-102.347769,100.955258
32,-1.085357,0.148881,-2.935192,-34.170017,-29.320633,-54.953133,-77.785126,-91.183056,-65.113701,-97.081913,-112.164013,-122.260598,-58.270833,-93.278584,-111.066926,-123.730671,-49.198105,-80.647213,-97.404637,-109.593316,-39.19883,-63.58358,-76.98618,-88.117596,-15.01097,-12.882124,1.395337,16.645737,13.22427,27.309193,35.053337,41.316435,30.54883,43.439969,49.826086,54.913529,43.724133,57.63177,63.638159,67.183312,52.550699,66.405973,70.882161,73.091356,26.174949,42.68906,47.186897,41.255241,29.962246,33.987236,35.803962,36.059452,16.649162,21.673851,26.293304,28.913223,4.095783,15.534393,25.067813,29.864524,-6.973423,5.070831,15.290863,20.9011,-10.093611,-27.514254,-42.929392,-54.864302,-61.219037,-86.332405,-100.819706,-113.88153,-62.532907,-91.080869,-108.70151,-123.229375,-58.394024,-75.293771,-70.245694,-64.719927,-50.472594,-62.65558,-59.148385,-54.153487,52.471425,286.248849,-105.810424,67.371691
33,-1.268876,0.198317,-1.226876,-26.222306,-28.867332,-54.011329,-76.508331,-89.872226,-64.359706,-96.011558,-111.097045,-121.34729,-57.546867,-92.199955,-109.974563,-122.734966,-48.442588,-79.727451,-96.514892,-108.77314,-38.296646,-62.730262,-76.201011,-87.356964,-15.25518,-13.340151,0.877214,15.897224,12.824128,26.90337,34.568745,40.925654,30.067375,42.835545,49.290797,54.540101,43.231958,56.935807,63.012825,66.797459,52.163179,65.854555,70.332312,72.609901,25.153508,41.143982,44.140217,35.814102,27.402329,30.938187,32.455857,32.646721,13.096733,17.50121,21.591008,24.282326,-0.740627,11.195652,21.190728,25.823319,-13.029007,-0.334499,11.453797,17.985775,-13.803279,-35.021308,-53.478673,-67.485129,-69.773723,-98.305618,-116.13542,-132.435349,-69.522671,-100.916185,-121.493386,-138.987466,-63.330216,-80.171184,-69.474592,-58.892134,-53.661849,-65.178338,-57.417639,-47.823255,50.794601,286.903964,-107.445248,41.606183
34,-1.149032,-0.118721,1.303803,-20.708285,-28.671456,-53.319489,-75.508793,-88.584961,-63.585709,-94.879429,-109.920628,-120.335095,-56.828236,-91.191021,-109.033093,-121.992314,-47.693459,-78.877648,-95.738972,-108.1497,-37.421837,-61.879429,-75.455864,-86.767216,-15.287735,-13.476645,0.74618,15.742403,12.706629,26.645858,34.081102,40.338271,29.867229,42.50907,48.991566,54.323764,42.964257,56.473259,62.564591,66.484174,51.89265,65.493586,70.064018,72.471518,23.881737,39.198314,42.118915,33.387462,25.604839,29.33741,31.331646,31.8391,11.169903,15.523315,20.014984,23.234299,-3.035626,9.773231,20.395534,25.084911,-15.785076,-2.472622,10.145725,17.338623,-13.113083,-35.412095,-54.211779,-67.951042,-69.364966,-97.587053,-115.559875,-132.140336,-68.975401,-100.598806,-121.959929,-140.011393,-62.722814,-78.945913,-62.184999,-45.885193,-53.543473,-65.249499,-54.495275,-41.516685,48.97744,287.269487,-106.809574,21.382142
35,-1.040177,0.271344,1.140209,-11.946179,-28.34832,-52.630348,-74.620559,-87.774261,-62.801513,-94.050842,-109.219883,-119.824665,-56.011665,-90.342453,-108.257148,-121.293972,-46.838768,-78.104873,-95.090229,-107.550293,-36.543754,-61.147888,-74.836212,-86.196086,-15.620669,-13.97523,0.2461,14.993506,12.263668,26.236305,33.645403,39.947502,29.44677,42.144779,48.626918,54.018062,42.489643,55.902648,62.025497,66.14462,51.346208,64.848467,69.450725,71.957705,23.245892,38.63102,42.108604,33.862392,25.396271,29.385601,31.817665,32.52467,11.36578,16.168453,20.84626,23.856056,-2.659664,9.834229,20.243706,24.578762,-15.641716,-2.782413,9.663963,16.750465,-11.611146,-34.148194,-53.355709,-67.044077,-67.450339,-95.245719,-113.690338,-130.768421,-67.437995,-98.94497,-121.13808,-140.451327,-61.64606,-80.040272,-63.636257,-47.156573,-53.183018,-66.799743,-56.540381,-43.376169,47.12574,288.002783,-106.480888,9.897915
36,-0.764762,0.008323,0.205101,-3.67447,-28.115342,-52.084282,-73.840256,-86.898869,-62.158711,-93.318341,-108.643147,-119.530301,-55.356892,-89.520676,-107.613991,-120.834813,-46.126511,-77.404667,-94.592469,-107.189976,-35.780549,-60.436982,-74.253926,-85.72157,-15.759137,-14.156726,0.139507,14.694388,11.973245,26.052771,33.387028,39.707763,29.089335,41.89479,48.453412,53.983878,42.052636,55.423169,61.626319,65.940264,50.872213,64.332395,68.983004,71.608285,23.055794,38.572105,42.712452,35.407562,26.408981,31.14394,34.149811,35.442661,12.632172,18.113743,23.12796,26.282581,-1.305599,10.871441,21.090351,25.313587,-14.414852,-1.877621,10.500217,17.723591,-10.753649,-33.272481,-52.607683,-66.482921,-66.108849,-93.662383,-112.364446,-129.598128,-66.475937,-97.883048,-120.499402,-140.528201,-60.885913,-81.080885,-64.886988,-48.297813,-52.534787,-67.230675,-57.217648,-43.981188,45.698685,288.472304,-106.93808,6.684643
37,-0.351082,0.344543,-0.553047,1.210289,-27.683785,-51.575981,-73.202225,-86.5555,-61.620793,-92.69616,-108.168549,-119.190514,-54.948922,-88.997498,-107.173703,-120.485562,-45.828987,-76.984978,-94.207524,-106.789433,-35.558098,-60.022751,-73.738186,-85.075825,-16.012388,-14.477013,-0.04178,14.294825,11.895982,25.94572,33.198133,39.498256,28.927907,41.546813,48.025099,53.631678,41.762965,54.894103,61.099168,65.599525,50.410974,63.622524,68.284544,71.069611,22.165809,37.925754,42.119556,34.543979,26.690082,32.110348,35.625709,37.069382,12.808262,18.824386,24.226845,27.592747,-1.326336,10.954319,20.823543,24.60894,-14.668179,-1.772392,10.152202,16.604576,-8.100814,-30.493372,-49.925375,-63.209945,-64.227295,-92.946529,-112.274445,-130.244191,-64.776911,-97.090599,-120.458931,-141.051671,-58.955712,-78.821955,-61.822925,-45.302751,-50.424349,-64.89473,-54.358153,-41.36636,44.771656,289.107395,-108.067074,8.18548
38,-0.010002,0.287732,-5.559368,3.21698,-27.369278,-51.132019,-72.719273,-86.135308,-60.937237,-91.974873,-107.569622,-118.74638,-54.501217,-88.56165,-106.875378,-120.363911,-45.60006,-76.664154,-93.898957,-106.500813,-35.529465,-59.819367,-73.443135,-84.650403,-16.064258,-14.663944,-0.143829,14.244437,11.900947,25.75091,32.766016,38.896251,28.933292,41.26869,47.506865,53.00953,41.704574,54.625452,60.710041,65.2093,50.232059,63.2085,67.805707,70.65245,22.220352,37.435627,40.34634,32.191475,26.544342,31.839237,35.471145,36.960022,12.627273,18.9356,23.975933,26.918277,-1.317169,9.866295,18.900318,22.617084,-14.930134,-2.656723,8.219661,13.862354,-7.150944,-28.967328,-47.837229,-61.018972,-63.823737,-92.726783,-112.383817,-130.32559,-64.239787,-96.815858,-119.985453,-140.488714,-58.068265,-77.241515,-59.724516,-43.534373,-48.899533,-63.134967,-51.885579,-38.682693,43.788838,289.531416,-114.599258,11.538749
39,0.073883,0.379543,-8.574784,3.518267,-26.96711,-50.588791,-72.102105,-85.895348,-60.471886,-91.60849,-107.38044,-118.723195,-54.125565,-88.274987,-106.731411,-120.351586,-45.3265,-76.372296,-93.670819,-106.270981,-35.342583,-59.490338,-73.078537,-84.163731,-16.237024,-14.931978,-0.384149,13.729438,11.990967,25.788713,32.654458,38.674789,29.023583,41.147968,47.157295,52.550737,41.68632,54.506903,60.534732,65.085527,50.006151,62.814038,67.343332,70.171377,22.528508,37.443879,38.443612,29.25951,26.54163,31.069668,34.058854,35.067833,12.380001,18.226754,22.915135,25.63781,-1.589126,8.654194,17.174412,20.571671,-15.238243,-3.86539,6.187283,11.207554,-7.728206,-29.015796,-47.653355,-61.140225,-65.208669,-94.771482,-114.694425,-132.701956,-65.396236,-98.561969,-121.536376,-142.0216,-58.679057,-76.433159,-58.192285,-42.545564,-48.688236,-62.17087,-50.116251,-37.154222,42.641453,289.726705,-124.39531,14.872762
40,0.183036,0.195391,-9.91531,1.215798,-26.878898,-50.363891,-71.756218,-85.409397,-60.193073,-91.102798,-106.875915,-118.382331,-53.987812,-88.084911,-106.666179,-120.515407,-45.354126,-76.240024,-93.497348,-106.162284,-35.516807,-59.404083,-72.877098,-83.855495,-16.235159,-14.975056,-0.354077,13.764278,12.140822,25.691851,32.306234,38.031881,29.176971,41.010647,46.810529,52.032181,41.790332,54.503556,60.421926,64.888234,50.032765,62.703603,67.120684,69.864317,22.61205,36.832192,35.849385,24.944252,25.523083,29.218564,31.452656,31.876843,11.033089,15.908387,19.953724,22.281567,-2.93843,5.729908,14.059113,17.578915,-16.432891,-6.22055,3.439408,8.443326,-8.761723,-30.051721,-48.723125,-62.239784,-67.332094,-97.144575,-117.284645,-135.103368,-67.293956,-100.689549,-123.437382,-143.814474,-59.79456,-76.976378,-58.48061,-43.075198,-48.710022,-61.796219,-49.540997,-36.804487,41.391895,289.497741,-135.743214,15.664205
41,0.332383,0.4026,-9.366737,-2.902029,-26.779656,-50.178429,-71.536023,-85.179989,-60.051545,-90.869614,-106.607083,-118.116589,-53.970223,-88.089936,-106.686974,-120.591534,-45.480149,-76.196972,-93.33648,-105.920895,-35.745644,-59.359394,-72.677708,-83.473389,-16.301034,-15.210324,-0.603721,13.58083,12.144972,25.38347,31.863213,37.475473,29.215651,40.771129,46.421527,51.52794,41.791382,54.434421,60.316296,64.762474,49.924418,62.479758,66.837917,69.523961,22.365933,35.747978,33.168137,21.115036,23.956764,26.615879,28.258907,28.358814,9.16349,13.094845,16.462441,18.188278,-4.774372,3.055801,11.384548,14.910496,-18.132648,-8.881702,0.678097,5.661415,-9.783556,-31.480094,-50.243611,-63.653386,-69.062797,-98.863613,-119.185223,-137.272811,-68.770266,-101.888396,-124.574744,-145.012954,-60.841137,-77.515996,-59.043162,-43.775472,-49.123545,-62.234887,-50.111138,-37.654796,40.162611,289.393445,-146.671618,12.25528
42,0.303337,0.363339,-5.919971,-6.54826,-26.787415,-50.038925,-71.379158,-85.046894,-59.887734,-90.670761,-106.418347,-117.99844,-53.834404,-87.909394,-106.516434,-120.468453,-45.398598,-76.077565,-93.212883,-105.833142,-35.728386,-59.275646,-72.613243,-83.451897,-16.170913,-15.229948,-0.755639,13.367532,11.988102,25.068766,31.506728,37.134055,29.138785,40.545778,46.125817,51.174543,41.767967,54.340857,60.151027,64.544483,49.930173,62.456504,66.748775,69.335821,22.478702,34.638931,30.535652,18.157688,22.657436,24.430561,25.373142,24.974739,7.523105,10.566558,13.432811,14.992035,-6.498185,0.682445,9.364574,13.397426,-19.674775,-11.190331,-1.251938,4.481598,-10.881405,-33.317139,-52.259374,-65.490931,-70.545808,-100.140501,-120.483088,-138.650155,-70.071885,-102.954332,-125.653777,-146.351154,-61.928883,-78.395174,-59.894917,-44.620218,-49.78656,-63.065066,-51.453303,-39.249667,38.909478,289.282093,-154.148059,5.232329
43,0.059692,0.237987,0.537655,-6.079489,-26.710121,-49.945839,-71.293487,-85.352772,-59.648712,-90.462742,-106.18531,-117.775875,-53.52317,-87.638775,-106.21392,-120.20787,-45.055893,-75.7645,-92.949852,-105.63874,-35.373207,-58.947578,-72.339329,-83.254143,-16.185623,-15.130383,-0.704832,13.021507,12.13256,25.046572,31.416695,36.945728,29.3331,40.650592,46.218405,51.251014,41.962467,54.476201,60.258941,64.637182,50.09249,62.580374,66.826295,69.343588,22.658844,34.375831,30.759395,19.289611,22.764392,24.596786,25.542961,25.082668,7.427227,10.79409,14.068176,15.96199,-7.058362,1.221553,10.559692,14.795402,-20.272053,-11.133557,-0.451756,5.971103,-11.907097,-34.596483,-54.138871,-67.310462,-71.007614,-100.331248,-120.521039,-138.677883,-70.835707,-103.342674,-125.779729,-146.20734,-62.927529,-79.26386,-61.037726,-45.911549,-51.04218,-63.641166,-52.409013,-40.636143,37.959389,289.090927,-154.620185,-1.276313
44,0.056717,0.320793,3.231056,-4.120018,-26.70163,-49.98658,-71.307163,-85.267616,-59.451862,-90.048397,-105.719856,-117.343277,-53.339172,-87.395393,-105.959187,-120.003662,-44.922066,-75.643101,-92.855907,-105.672317,-35.31958,-58.95092,-72.424416,-83.459518,-16.204457,-15.146524,-0.796284,12.929264,12.078998,24.878154,31.274336,36.728157,29.318145,40.609813,46.147775,51.042705,41.999851,54.43531,60.127586,64.397837,50.241839,62.672284,66.846167,69.326533,22.726455,34.388511,32.03714,21.793064,23.476684,25.86755,27.118126,26.652523,8.312668,12.182522,15.699554,17.798893,-6.331295,2.145012,11.693058,16.458091,-19.722714,-10.490158,0.658962,7.668983,-12.353275,-35.187867,-54.824931,-67.826949,-71.114757,-100.158532,-120.271123,-138.33633,-71.178496,-103.575603,-125.847809,-145.76756,-63.627155,-81.355686,-63.781328,-48.481613,-52.069078,-65.142097,-54.549011,-42.705795,37.475304,289.176809,-151.929931,-5.631242
45,0.147675,0.358622,5.455684,-0.863913,-26.553383,-49.889763,-71.261136,-85.184166,-59.247185,-89.821278,-105.508313,-117.114624,-53.183144,-87.228665,-105.824501,-119.871506,-44.810074,-75.564492,-92.888398,-105.841896,-35.224343,-58.900738,-72.472195,-83.648873,-16.117253,-15.164704,-0.985068,12.792091,12.06708,24.805535,31.252908,36.763391,29.256838,40.494117,46.049468,50.935593,41.919551,54.260976,59.986684,64.288736,50.178372,62.552278,66.803386,69.403214,22.999649,35.302391,34.547402,25.486382,25.113247,28.853554,30.835041,30.545597,10.215512,15.343483,19.420842,21.915482,-4.581333,5.270508,14.853058,19.550835,-18.177028,-7.89664,3.450669,10.323098,-11.953027,-34.753768,-54.57415,-67.510299,-70.312027,-99.40879,-119.268476,-137.330774,-70.660373,-103.343501,-125.492522,-144.980211,-63.607426,-81.965725,-64.352025,-48.911909,-52.663061,-65.621002,-54.81137,-42.797488,37.3711,289.488945,-146.726126,-6.541641
46,0.132865,0.225426,6.095822,2.977957,-26.39328,-49.820457,-71.232181,-85.046401,-59.063369,-89.526912,-105.270893,-116.94905,-53.016311,-87.02275,-105.716594,-119.86996,-44.669151,-75.496456,-92.970165,-106.129692,-35.105072,-58.899124,-72.594028,-83.968242,-16.11582,-15.166,-1.091056,12.766836,12.081492,24.791876,31.237421,36.707038,29.246847,40.390796,45.883841,50.709981,41.912277,54.070488,59.721429,63.996509,50.234688,62.479042,66.761569,69.486392,23.317646,36.279659,36.690593,28.407234,26.69656,31.372467,33.664261,33.209152,11.996635,18.082638,22.617588,25.433109,-2.968655,7.621525,17.232147,21.959575,-16.819634,-5.485028,5.914078,12.616379,-11.156071,-33.468458,-53.251376,-66.378766,-69.028569,-98.42124,-117.892047,-135.471052,-69.544136,-103.058344,-125.021033,-144.039317,-62.811081,-81.662537,-63.872836,-48.329028,-52.290175,-64.937388,-53.811866,-41.629214,37.563732,289.688232,-140.570537,-3.589823
47,-0.007896,0.094058,3.876388,6.509487,-26.178955,-49.595993,-71.053516,-84.838142,-58.843426,-89.290512,-105.073849,-116.781017,-52.786262,-86.879024,-105.658138,-119.864685,-44.436447,-75.370056,-92.9576,-106.227928,-34.877861,-58.873501,-72.676346,-84.171112,-16.2956,-15.354573,-1.335217,12.580498,12.014975,24.787085,31.273595,36.742903,29.165794,40.370505,45.873825,50.662693,41.828642,53.978283,59.661988,63.961447,50.188993,62.374968,66.676069,69.483799,23.129334,37.209412,39.188656,31.417454,27.64,33.288014,36.280632,36.346711,13.18158,20.374489,25.386223,28.469456,-1.761726,9.571186,18.889035,23.360104,-15.75523,-3.613323,7.543328,13.823811,-9.61896,-31.377095,-51.018968,-64.444378,-67.492613,-96.868983,-116.448846,-134.010512,-68.239355,-101.929849,-124.107139,-143.086668,-61.735937,-80.728259,-62.910375,-47.1919,-51.600361,-64.045261,-52.426038,-39.863318,37.710794,289.760273,-136.539191,2.897647
48,0.132225,0.206555,-0.66402,6.865232,-26.08081,-49.503685,-70.941513,-84.374348,-58.811565,-89.235626,-105.029148,-116.745266,-52.736664,-86.856777,-105.678921,-119.920715,-44.367165,-75.389751,-93.022739,-106.373554,-34.803909,-58.908359,-72.767326,-84.331592,-16.419138,-15.583717,-1.596298,12.541608,11.729429,24.475628,31.018257,36.598815,28.884299,40.064174,45.559009,50.38352,41.559164,53.690267,59.361523,63.707307,49.95018,62.156396,66.491819,69.382108,22.714416,37.976784,40.509292,32.475048,28.318874,34.576,37.723915,38.003746,13.91859,21.571781,26.937023,30.203682,-1.037075,10.537021,19.590511,23.418113,-15.283299,-2.841168,8.056904,13.422008,-8.41668,-29.792863,-48.907129,-62.026412,-66.395451,-96.24079,-115.764041,-133.288765,-66.888367,-100.697564,-122.884876,-141.808296,-60.198143,-79.329982,-61.201784,-45.359586,-50.044726,-62.744952,-50.688425,-37.94853,37.922418,289.952663,-137.123812,9.748714
49,0.212883,0.221449,-4.52702,5.149639,-25.900383,-49.316505,-70.830734,-84.354172,-58.848839,-89.460091,-105.257709,-116.89468,-52.774223,-86.922981,-105.697494,-119.813347,-44.360824,-75.398529,-92.99517,-106.207008,-34.729706,-58.955875,-72.756855,-84.145111,-16.651949,-15.902657,-1.962502,12.183196,11.341155,24.063173,30.695809,36.510981,28.552069,39.757867,45.337943,50.316076,41.283041,53.483909,59.266835,63.780074,49.707699,61.953744,66.281127,69.183631,22.665047,38.596585,40.805855,32.185215,28.725872,35.264294,38.607125,39.200054,14.280396,22.085518,27.446812,30.518486,-0.569378,11.1847,19.944008,23.091191,-14.92678,-2.293567,8.158539,12.789448,-7.12664,-27.843984,-46.891541,-60.659307,-65.310287,-95.431779,-115.10422,-132.679443,-65.84478,-99.849571,-122.259456,-141.806611,-59.038791,-77.363714,-58.587087,-42.784342,-48.802864,-61.337969,-48.657541,-35.81196,38.093044,290.170564,-141.693089,14.894805
50,0.282005,-0.038433,-7.905143,2.32678,-25.917549,-49.338157,-70.821407,-84.349445,-58.963565,-89.633239,-105.412605,-117.00983,-52.883674,-86.879184,-105.57106,-119.629142,-44.414886,-75.325435,-92.830318,-105.915424,-34.695694,-58.933376,-72.690673,-83.986118,-16.849674,-16.024318,-1.950572,12.188938,11.109714,23.846243,30.56964,36.608423,28.39258,39.578766,45.233288,50.381494,41.210446,53.386751,59.188338,63.790806,49.716022,61.938034,66.220895,69.083607,22.726318,37.80186,38.20483,28.870456,28.063144,33.54459,36.391216,37.024921,13.451877,20.618385,25.458206,28.177207,-1.304615,8.807533,16.90464,20.09341,-16.028149,-4.953701,4.879863,9.559272,-7.266307,-27.825742,-46.744963,-61.19301,-65.67898,-95.951452,-115.986707,-133.733701,-66.066062,-100.227082,-122.845986,-143.108785,-59.169677,-77.14897,-58.182245,-42.199472,-48.729128,-62.1278,-49.44337,-36.053769,38.237737,290.139414,-149.735544,17.228868
51,0.242752,0.039841,-11.115761,-1.745289,-25.902786,-49.370246,-70.854743,-84.541957,-58.91455,-89.754386,-105.504341,-116.993602,-52.814689,-86.861457,-105.446411,-119.372737,-44.319602,-75.249675,-92.676853,-105.633613,-34.57164,-58.906105,-72.619205,-83.77811,-16.983561,-16.064443,-1.875372,12.16682,11.023153,23.81664,30.633404,36.847052,28.296596,39.558673,45.284047,50.576255,41.104384,53.339833,59.208531,63.927608,49.576467,61.78151,66.017193,68.832542,22.927894,36.636806,35.222316,24.860687,26.951477,30.837364,32.798298,33.037811,12.333332,18.060173,22.142647,24.493583,-2.282719,5.530163,13.133915,16.631218,-17.099327,-8.607685,0.623943,5.917705,-9.272918,-30.100702,-49.308816,-64.267161,-67.654536,-97.784433,-118.231822,-136.189039,-67.956434,-101.925415,-124.637872,-145.670142,-60.976575,-79.615214,-60.807193,-44.730788,-50.321837,-64.990203,-52.343935,-38.183744,38.12511,290.177258,-161.206684,15.481582
52,0.343964,-0.126279,-12.178585,-6.393502,-25.951515,-49.468758,-70.908028,-84.622055,-58.904354,-89.849487,-105.604225,-117.062405,-52.791916,-86.844772,-105.402557,-119.280521,-44.250137,-75.185978,-92.598472,-105.498161,-34.440376,-58.820721,-72.515945,-83.569347,-16.973497,-15.881823,-1.568276,12.46122,11.041467,23.880959,30.75704,37.109972,28.268227,39.607924,45.411845,50.826813,41.069853,53.396841,59.326659,64.156269,49.544875,61.805456,66.038373,68.852401,23.361065,35.011928,31.520473,20.753917,26.101455,28.222961,28.94252,28.138389,11.297275,15.184478,18.263454,19.68948,-3.371384,1.914882,9.751568,13.872104,-18.383698,-12.249836,-2.94397,3.054771,-12.619641,-33.620802,-53.197714,-68.992525,-70.883094,-101.115806,-121.640383,-139.38655,-71.21822,-105.092717,-127.736476,-148.859208,-64.048176,-83.685492,-65.050644,-48.667655,-52.754414,-68.208956,-56.117663,-41.744211,38.055628,290.056002,-173.798715,9.093103
53,0.260742,-0.156748,-9.905617,-9.711401,-26.126335,-49.66143,-71.011139,-84.857837,-58.868007,-89.816803,-105.526909,-116.91101,-52.757652,-86.748996,-105.270458,-119.096889,-44.219879,-74.997001,-92.362358,-105.21627,-34.385879,-58.635978,-72.264724,-83.258434,-16.803695,-15.614777,-1.272268,12.644089,11.343675,24.182672,31.12227,37.578152,28.452306,39.832042,45.703111,51.216323,41.187538,53.568038,59.59368,64.549089,49.613999,61.876297,66.171063,69.066045,22.982014,32.667515,27.664856,16.866234,24.284878,25.101791,25.08395,23.62936,9.332714,11.753757,14.141052,14.955254,-5.244095,-1.891663,6.30122,11.09079,-20.013233,-15.512215,-5.918049,0.8367,-15.484132,-37.516105,-57.832577,-74.59945,-74.292557,-104.444004,-125.217467,-143.329208,-74.762792,-108.603099,-131.669452,-153.423415,-67.441317,-88.264131,-69.682598,-53.064123,-55.548305,-71.925064,-60.302643,-46.040996,37.927242,289.909514,-184.09346,-0.608038
54,0.382874,0.026603,-6.360581,-11.510517,-26.358833,-49.903954,-71.152817,-85.10352,-58.808373,-89.68832,-105.475914,-116.924378,-52.640534,-86.531388,-105.026047,-118.904,-44.11924,-74.752247,-92.072434,-104.928005,-34.355187,-58.429836,-72.000561,-83.012627,-16.660583,-15.440839,-0.99128,12.807677,11.732837,24.762186,31.707045,38.11307,28.784769,40.246621,46.110008,51.658146,41.413,53.809531,59.813573,64.752185,49.713885,62.002872,66.3697,69.313441,22.997235,30.804692,24.583832,13.914906,23.328793,23.463044,22.805626,20.706185,7.971211,9.633694,11.379067,11.651425,-6.89249,-4.544528,4.287484,9.78954,-21.605335,-17.943614,-7.738391,-0.175758,-18.062027,-41.676768,-62.606032,-79.668437,-77.312331,-107.601909,-128.541464,-146.975818,-77.570084,-111.581318,-134.852162,-156.717973,-69.978482,-91.856832,-73.195086,-56.257695,-57.607466,-74.784714,-63.486667,-49.14175,37.94969,289.937062,-190.814467,-12.11761
55,0.278,0.116893,-3.492382,-10.926495,-26.427407,-50.025032,-71.216629,-85.229874,-58.725312,-89.450077,-105.25185,-116.742234,-52.530121,-86.376767,-104.869469,-118.814072,-44.056069,-74.570801,-91.868203,-104.803482,-34.342781,-58.23935,-71.746125,-82.772713,-16.485112,-15.233567,-0.797778,12.952174,12.155445,25.275382,32.160146,38.410979,29.090891,40.663091,46.482623,51.967245,41.574984,54.069204,60.126253,65.081612,49.734918,62.119519,66.643218,69.709064,22.679684,30.344399,24.393895,14.087323,23.065064,23.533677,22.771019,20.332558,7.587983,9.011616,10.708809,10.637833,-7.370349,-4.933113,4.949387,10.593533,-21.78376,-18.109016,-7.2033,0.546318,-19.01076,-43.394695,-64.763548,-82.044901,-78.748893,-109.168164,-129.987269,-148.293547,-78.910543,-113.147719,-136.514257,-158.173473,-70.949247,-93.477774,-74.587149,-57.827106,-58.180281,-75.378555,-64.124271,-50.350526,37.929674,290.045853,-194.604865,-23.052207
56,0.238495,0.117042,0.009201,-8.183233,-26.547593,-50.095505,-71.234562,-85.199135,-58.612874,-89.247986,-105.056569,-116.632142,-52.39103,-86.204258,-104.776234,-118.901516,-43.935402,-74.382489,-91.711476,-104.783581,-34.246926,-57.99796,-71.489708,-82.595044,-16.328526,-15.093382,-0.691086,13.075674,12.464185,25.641117,32.392512,38.387279,29.381747,40.97146,46.719299,52.070059,41.780946,54.3362,60.41969,65.313707,49.832595,62.299484,66.91308,70.021175,22.302063,30.215584,24.537552,14.696846,23.104901,24.577733,24.244744,22.00105,7.433156,9.249115,11.207829,11.156731,-7.619075,-4.664405,5.815728,11.363926,-21.878139,-17.341312,-5.87741,1.586312,-18.623078,-43.659183,-65.36793,-82.753635,-78.938577,-109.523275,-130.171785,-148.348609,-78.963104,-113.504346,-137.003786,-158.204305,-70.639859,-93.178432,-73.680826,-56.787988,-57.521243,-74.781829,-63.483949,-50.277253,37.999867,290.146615,-194.763966,-31.25172
57,0.226867,0.381025,2.170704,-4.661754,-26.59243,-50.145927,-71.309658,-85.253563,-58.618309,-89.174904,-104.955837,-116.545944,-52.37899,-86.218403,-104.780445,-118.980549,-43.935035,-74.381538,-91.733459,-104.929584,-34.267181,-57.966327,-71.452263,-82.611774,-16.371406,-15.22906,-0.896765,12.892436,12.568123,25.674326,32.322413,38.082578,29.509151,41.067976,46.742641,51.957154,41.843647,54.373399,60.438265,65.216968,49.813378,62.250009,66.890121,69.985792,21.764008,30.296231,24.749062,14.874047,22.980355,25.354397,25.368748,23.377762,7.325169,9.501217,11.582428,11.687611,-7.624054,-4.140518,6.531636,11.817547,-21.551227,-16.081455,-4.558479,2.464646,-17.308209,-43.002308,-64.783704,-81.907192,-78.457307,-109.232385,-129.683186,-147.812665,-78.169229,-113.426235,-136.915746,-157.912625,-69.432022,-92.020483,-71.99672,-55.366692,-56.167138,-73.488993,-61.629431,-48.715499,38.112453,290.502841,-192.707543,-35.938273
58,0.251885,0.225586,2.221608,-1.542692,-26.501816,-50.011299,-71.261284,-85.259548,-58.576378,-89.155621,-104.986027,-116.668362,-52.401032,-86.327523,-104.958962,-119.296589,-43.981407,-74.584797,-92.00465,-105.294319,-34.325707,-58.138619,-71.67104,-82.857857,-16.455101,-15.315337,-1.040865,12.744359,12.47015,25.53797,32.088379,37.621192,29.465901,41.02706,46.665416,51.754885,41.808475,54.366174,60.423334,65.10735,49.786282,62.261273,66.855319,69.840284,21.816021,30.816387,25.311321,15.156417,23.284378,26.161388,26.245948,24.331867,7.607746,9.916832,11.807281,11.861183,-7.365693,-3.989342,6.752277,12.015861,-21.218468,-15.485596,-3.945122,3.00563,-16.336708,-42.332335,-63.993904,-80.612329,-78.044944,-108.607597,-128.806657,-146.515833,-77.501553,-113.196913,-136.581979,-157.258898,-68.32588,-91.16143,-70.800466,-54.180608,-54.805134,-72.110186,-59.67671,-46.496294,38.281935,290.663567,-190.568338,-37.545825
59,0.048706,-0.015623,1.218029,1.236731,-26.404495,-49.825539,-71.080845,-84.958534,-58.498684,-89.072296,-104.859123,-116.517037,-52.439003,-86.441139,-105.154885,-119.578675,-44.05497,-74.752911,-92.261891,-105.682343,-34.367043,-58.233513,-71.83865,-83.142323,-16.415556,-15.269395,-1.058686,12.819806,12.381736,25.325758,31.817369,37.21459,29.350144,40.878328,46.548313,51.579625,41.702511,54.24728,60.356829,65.020072,49.740081,62.187099,66.794915,69.773544,21.524437,30.908821,25.59526,15.476097,23.171493,26.183395,26.270027,24.432151,7.563972,9.73954,11.522174,11.478515,-7.337494,-4.368245,6.223651,11.28907,-21.121399,-15.374279,-3.899357,2.796192,-15.887937,-41.986168,-63.388916,-79.445419,-77.99652,-108.259495,-128.114886,-145.315929,-77.307817,-113.141498,-136.363262,-156.629293,-67.797945,-90.858982,-70.367707,-53.747411,-54.042596,-71.163028,-58.344562,-45.164301,38.251322,290.562954,-189.429628,-36.394084
60,0.052643,-0.009608,0.903144,2.049774,-26.377671,-49.660149,-70.960007,-84.896874,-58.312306,-89.054741,-104.868405,-116.550019,-52.304512,-86.438038,-105.229912,-119.732907,-43.918145,-74.773819,-92.381733,-105.849312,-34.234452,-58.244866,-71.952496,-83.35714,-16.367787,-15.227923,-1.080583,12.739468,12.242031,25.203665,31.691324,37.060349,29.27009,40.77849,46.46989,51.499189,41.678379,54.213157,60.312282,64.948552,49.775463,62.235659,66.789085,69.682672,21.407525,30.777432,25.579537,15.643513,23.105473,25.868271,25.796299,23.924206,7.445103,9.306473,10.925229,10.791447,-7.527122,-4.888778,5.601574,10.564591,-21.258567,-15.288402,-3.811683,2.72136,-16.033458,-42.300971,-63.520321,-79.31042,-78.398626,-108.391573,-128.146799,-145.251283,-77.596136,-113.323359,-136.513411,-156.59638,-67.820021,-91.123323,-70.675304,-54.056212,-53.76998,-70.736814,-57.597864,-44.335444,38.2225,290.471746,-188.607949,-34.42591
61,0.231056,0.182448,0.301667,1.630309,-26.441735,-49.809792,-71.245983,-85.392277,-58.473381,-89.14563,-104.963368,-116.647614,-52.483681,-86.594238,-105.35471,-119.824551,-44.061424,-74.853527,-92.508671,-105.99115,-34.323647,-58.39682,-72.15437,-83.597592,-16.570526,-15.492092,-1.393942,12.472583,11.897847,24.988983,31.646493,37.172117,28.997203,40.752851,46.601097,51.72706,41.515691,54.144613,60.303143,64.967855,49.758556,62.209131,66.797569,69.701432,21.326042,30.808422,25.763946,15.894024,22.966964,25.587238,25.30188,23.228347,7.295448,8.990043,10.37051,9.994194,-7.681446,-5.025479,5.574108,10.478565,-21.337773,-15.304333,-3.791313,2.646801,-15.878531,-42.048819,-62.954767,-78.726026,-78.761656,-108.633532,-128.414535,-145.52052,-77.848657,-113.509394,-136.695519,-156.838448,-67.855786,-90.985971,-70.471422,-54.022193,-53.54351,-70.214886,-56.855012,-43.709596,38.337919,290.582338,-188.421919,-32.867457
62,0.356666,0.063652,0.131183,1.078928,-26.570411,-49.971588,-71.504654,-85.847923,-58.618515,-89.376903,-105.247455,-116.956421,-52.628173,-86.727699,-105.483799,-119.899463,-44.194862,-74.949497,-92.631191,-106.036995,-34.428039,-58.491268,-72.277359,-83.732368,-16.568957,-15.550421,-1.443873,12.448945,11.748621,24.919354,31.681382,37.423689,28.872912,40.725175,46.646076,51.882313,41.471231,54.171117,60.351889,65.090541,49.78727,62.29573,66.907769,69.831207,21.219521,30.789849,26.057373,16.241764,22.682923,25.246468,24.898842,22.835335,6.980587,8.742222,10.127873,9.770726,-8.00457,-5.261776,5.456715,10.39674,-21.61996,-15.691795,-4.061966,2.44875,-15.843754,-41.932389,-62.632417,-78.374901,-79.135956,-109.013615,-128.881878,-146.042938,-78.059381,-113.614367,-136.846471,-157.127014,-67.886068,-90.70032,-70.066259,-53.69328,-53.322672,-69.924585,-56.519046,-43.462706,38.581621,290.564884,-188.4037,-31.869635
63,0.253327,0.03463,-0.108467,0.716071,-26.655808,-50.208481,-71.860199,-86.307644,-58.718926,-89.60162,-105.479622,-117.125862,-52.635864,-86.800335,-105.504891,-119.811516,-44.14682,-74.893421,-92.597317,-105.940167,-34.36068,-58.437905,-72.222576,-83.684544,-16.616851,-15.632006,-1.488753,12.556859,11.643003,25.110941,32.047105,37.94974,28.814323,40.903744,46.972427,52.278257,41.474775,54.283614,60.557406,65.316473,49.836509,62.376017,67.046349,69.985113,21.214405,31.078091,26.509312,16.640557,22.62402,25.198609,24.884297,22.829556,6.859383,8.73452,10.149536,9.756111,-8.126278,-5.122204,5.626007,10.51323,-21.732925,-15.677753,-4.013843,2.473538,-15.502997,-41.507689,-62.154859,-77.971449,-79.202931,-109.304667,-129.26157,-146.503498,-78.090955,-113.665302,-136.966601,-157.337281,-67.925738,-90.321674,-69.663487,-53.323118,-53.376025,-69.940357,-56.606819,-43.571215,38.723471,290.543763,-188.623644,-31.209315
64,0.262184,-0.036087,0.01284,0.378857,-26.705521,-50.442146,-72.236126,-86.92297,-58.815628,-89.85553,-105.758068,-117.375732,-52.611374,-86.901638,-105.564068,-119.81583,-44.022743,-74.813084,-92.5425,-105.852459,-34.196571,-58.285423,-72.06451,-83.529259,-16.59283,-15.527944,-1.341614,12.747594,11.586773,25.352335,32.434675,38.472668,28.780372,41.130998,47.294677,52.638336,41.466216,54.476942,60.871358,65.69714,49.818021,62.486402,67.24174,70.222568,21.19217,31.19941,27.043019,17.315381,22.565529,25.249306,25.0238,23.070786,6.853879,8.852177,10.403504,10.136639,-8.118862,-4.872745,5.959466,10.861222,-21.692321,-15.511722,-3.81372,2.697281,-15.169261,-40.908895,-61.484472,-77.45038,-79.138007,-109.407583,-129.477341,-146.761806,-78.029235,-113.739832,-137.100056,-157.538633,-67.87743,-90.154391,-69.392872,-53.046932,-53.31102,-69.992209,-56.662394,-43.584503,38.885782,290.469887,-188.710677,-30.868247
65,0.272667,0.169011,0.098683,0.508928,-26.796501,-50.750725,-72.721722,-87.695812,-59.036751,-90.200512,-106.109917,-117.649189,-52.748886,-87.191116,-105.760357,-119.838593,-44.140778,-74.993477,-92.684384,-105.861397,-34.354706,-58.426827,-72.136528,-83.469395,-16.78228,-15.714863,-1.480392,12.673074,11.444623,25.403304,32.612936,38.736218,28.707025,41.266664,47.452412,52.753908,41.437329,54.570469,60.974629,65.766436,49.770078,62.429691,67.150633,70.127065,21.204174,31.351238,27.287247,17.329845,22.620827,25.463653,25.343731,23.464954,6.921707,9.057506,10.694424,10.500641,-8.072502,-4.569798,6.339558,11.241577,-21.654808,-15.278366,-3.52906,2.979023,-15.129981,-40.765368,-61.312527,-77.074104,-79.195286,-109.623169,-129.743602,-147.107475,-78.065111,-113.874416,-137.272691,-157.681384,-67.938137,-90.143264,-69.088868,-52.580192,-53.397915,-70.300664,-56.896317,-43.739187,39.07243,290.593481,-188.698013,-30.404736
66,0.188278,-0.093701,0.174202,0.620271,-26.809593,-50.817009,-72.860756,-87.894836,-59.046341,-90.540115,-106.549599,-118.056152,-52.685829,-87.394249,-105.986458,-119.950035,-44.043091,-75.152756,-92.85442,-105.895969,-34.304626,-58.461708,-72.137604,-83.372303,-16.664805,-15.503824,-1.185817,12.942245,11.487788,25.519309,32.739587,38.883803,28.767122,41.355042,47.506902,52.75602,41.509072,54.710149,61.055412,65.776811,49.807945,62.577596,67.225587,70.121014,21.18837,31.422146,27.298187,17.178875,22.719841,25.564865,25.447323,23.607387,6.975071,9.201725,10.821407,10.655617,-8.093136,-4.491474,6.349537,11.215668,-21.765782,-15.306873,-3.564766,2.923324,-15.169131,-40.800788,-61.33411,-77.029601,-79.327593,-109.864975,-129.983935,-147.387474,-78.149377,-113.886591,-137.253045,-157.587808,-68.020308,-89.991549,-68.814301,-52.203101,-53.461908,-70.314385,-56.91236,-43.758973,39.217838,290.449685,-188.566681,-29.83456
67,0.044083,-0.191475,0.160389,0.745259,-26.854775,-50.940056,-72.986401,-88.042683,-59.041947,-90.695389,-106.755272,-118.233319,-52.614807,-87.479954,-106.098118,-120.049141,-43.933251,-75.188679,-92.901696,-105.925965,-34.224381,-58.4011,-72.022442,-83.211033,-16.586358,-15.270544,-0.888255,13.189394,11.570817,25.804385,33.085216,39.152169,28.890548,41.616492,47.800932,52.980964,41.640686,54.934895,61.325495,65.996876,49.916538,62.748323,67.402192,70.2663,21.100673,31.269481,27.044197,16.880905,22.769485,25.630726,25.48986,23.646366,7.048965,9.161705,10.697101,10.501522,-8.045929,-4.519673,6.302227,11.227581,-21.745125,-15.226719,-3.487301,3.04985,-15.292205,-40.961895,-61.409092,-76.953215,-79.39871,-109.828399,-129.853941,-147.18131,-78.191095,-113.895383,-137.15827,-157.329178,-68.027767,-89.890389,-68.628728,-51.987857,-53.454911,-70.1844,-56.614655,-43.381251,39.236058,290.215704,-188.432155,-29.131807
68,0.060264,-0.120698,0.096256,1.234613,-26.913048,-51.020233,-73.049411,-88.169529,-59.049843,-90.765953,-106.889476,-118.428405,-52.581482,-87.550747,-106.208439,-120.182773,-43.885071,-75.250614,-92.983509,-106.033344,-34.209091,-58.418266,-72.053306,-83.276172,-16.494868,-15.091084,-0.7105,13.186653,11.637113,25.952143,33.224489,39.273979,28.98126,41.760767,47.88742,53.021658,41.750183,55.082566,61.418146,66.032235,50.027788,62.887114,67.504736,70.356098,21.110127,31.306892,27.258671,17.095814,23.085354,25.870823,25.675896,23.809319,7.397816,9.363213,10.719086,10.400059,-7.749596,-4.355461,6.458439,11.507481,-21.520843,-15.040729,-3.323605,3.300064,-15.297318,-40.834275,-61.249264,-76.532979,-79.301009,-109.745506,-129.743497,-147.084189,-78.130425,-113.948365,-137.195376,-157.25459,-68.002659,-90.021152,-68.693696,-52.004591,-53.468144,-70.204599,-56.51607,-43.223627,39.24329,290.037165,-188.388931,-27.955035
69,0.104943,0.12507,0.101749,1.987246,-27.010666,-51.122567,-73.178959,-88.20702,-59.147759,-90.919842,-107.07272,-118.600182,-52.65358,-87.674561,-106.336132,-120.249298,-43.960144,-75.369004,-93.1069,-106.124154,-34.327332,-58.537674,-72.139687,-83.30991,-16.494005,-15.184105,-0.898234,12.985284,11.480044,25.794839,33.113312,39.203027,28.858647,41.667671,47.798338,52.936269,41.69883,55.014257,61.285567,65.824395,50.048128,62.874294,67.422644,70.212614,21.172543,31.448697,27.404366,17.087071,23.466694,26.097771,25.87492,23.995469,7.819371,9.622731,10.812081,10.379391,-7.36687,-4.205577,6.531842,11.665272,-21.261657,-14.934127,-3.3288,3.289444,-15.326607,-40.881737,-61.358643,-76.388989,-79.213892,-109.594594,-129.524682,-146.931437,-78.159886,-114.006998,-137.329193,-157.417188,-68.179575,-90.403548,-69.062748,-52.2634,-53.803832,-70.588594,-56.784666,-43.422025,39.297638,290.10916,-188.337777,-26.020864
70,0.133209,-0.017241,0.049004,2.741477,-27.062576,-51.154061,-73.192658,-88.123615,-59.26474,-91.066361,-107.257633,-118.782601,-52.721947,-87.662567,-106.317181,-120.211979,-43.943733,-75.28941,-93.079491,-106.195816,-34.221382,-58.405449,-72.011913,-83.308376,-16.344655,-15.146351,-0.973915,12.925152,11.366423,25.625112,32.977178,39.16116,28.722006,41.482692,47.706047,52.941061,41.596695,54.859622,61.186124,65.758273,50.01981,62.870614,67.515653,70.391394,21.289021,31.972698,28.290436,17.89444,23.952919,26.418274,26.177525,24.285072,8.312473,10.186215,11.224972,10.675976,-6.919693,-3.728348,6.801373,11.96196,-20.97884,-14.608601,-3.147491,3.419964,-15.197548,-40.387344,-60.727393,-75.471205,-78.992269,-109.413112,-129.21784,-146.730606,-78.021176,-113.916987,-137.214692,-157.333112,-68.224788,-90.394112,-69.086002,-52.333925,-54.08369,-70.71935,-56.820666,-43.458359,39.385786,290.067938,-188.333834,-23.303368
71,0.158501,0.31962,0.328915,3.882446,-27.070107,-51.196908,-73.284966,-88.269677,-59.244027,-91.063557,-107.269387,-118.833607,-52.629227,-87.535264,-106.089112,-119.966424,-43.872002,-75.163296,-92.937436,-106.126191,-34.237061,-58.428956,-72.015049,-83.390946,-16.404133,-15.409198,-1.412195,12.487477,11.051163,25.203357,32.541652,38.734477,28.476882,41.216955,47.444805,52.73169,41.433909,54.644533,60.92923,65.521522,49.94109,62.722339,67.426535,70.43993,21.409836,32.32386,29.057716,18.625202,24.247707,26.578399,26.437042,24.647735,8.68864,10.715858,11.81599,11.259704,-6.52525,-3.165825,7.285434,12.558689,-20.70036,-14.206707,-2.840641,3.69033,-15.131246,-39.698074,-59.712864,-74.058454,-78.41121,-108.954619,-128.663618,-146.252482,-77.460464,-113.653174,-136.933156,-156.927983,-67.907805,-90.254785,-68.988523,-52.118095,-54.091872,-70.757246,-56.896354,-43.45206,39.496062,290.389985,-188.053144,-19.418495
72,0.398826,0.486519,0.836757,5.428096,-26.994301,-51.134148,-73.387367,-88.460129,-59.206695,-91.017666,-107.199371,-118.808864,-52.56292,-87.449077,-105.884159,-119.70401,-43.866051,-75.136024,-92.856514,-106.070595,-34.367477,-58.654793,-72.2005,-83.573604,-16.531536,-15.775044,-2.02214,11.928216,10.605473,24.417114,31.64679,37.812223,28.111628,40.658571,46.823238,52.094043,41.167135,54.26215,60.416875,64.961508,49.781355,62.508065,67.209828,70.332843,21.683808,32.745083,29.584454,19.067711,24.285771,26.490899,26.456543,24.767144,8.622082,10.785542,12.041703,11.581971,-6.587402,-2.867294,7.777474,13.235241,-20.758689,-13.870857,-2.371971,4.180298,-14.855451,-39.015299,-58.660613,-72.704114,-77.778213,-108.520483,-128.064831,-145.6548,-76.704318,-113.137416,-136.395483,-156.266553,-67.261012,-89.399202,-68.18331,-51.218774,-53.657921,-70.05725,-56.385987,-43.00529,39.868257,290.885906,-187.243018,-13.980997
73,0.662087,0.582492,1.723698,7.219778,-26.996888,-51.156166,-73.610104,-88.783219,-58.987702,-90.874398,-107.068863,-118.785977,-52.365006,-87.289673,-105.671185,-119.523583,-43.798623,-75.070267,-92.793709,-106.087933,-34.524605,-58.932267,-72.501103,-83.934609,-16.752356,-16.216893,-2.669767,11.350652,10.05251,23.550755,30.642938,36.661763,27.66931,40.061395,46.089347,51.203318,40.815429,53.848743,59.870025,64.310498,49.497562,62.178737,66.864495,70.06592,21.631874,32.514828,29.398029,19.155235,23.487328,25.756279,25.803967,24.16618,7.786148,10.217377,11.730995,11.488255,-7.28096,-2.7258,7.958633,13.404007,-21.195717,-13.541897,-1.970901,4.50539,-14.865356,-38.699656,-57.850972,-71.71457,-76.98811,-108.107082,-127.467677,-144.967975,-75.607569,-112.205105,-135.315648,-154.963279,-66.155779,-87.331076,-66.42246,-49.762687,-52.773934,-68.288496,-54.778265,-41.681034,40.652865,291.479933,-185.396799,-6.749684
74,0.825714,0.543601,2.426903,9.159581,-26.899132,-51.149323,-73.864426,-89.34177,-58.617348,-90.60862,-106.809597,-118.645901,-52.034272,-87.084858,-105.445633,-119.39653,-43.629502,-75.022751,-92.81622,-106.27105,-34.644654,-59.339791,-73.080426,-84.706124,-17.008496,-16.628818,-3.304499,10.66174,9.569412,22.764969,29.624032,35.389631,27.310627,39.436394,45.247219,50.151635,40.539356,53.4208,59.251534,63.526539,49.265578,61.83254,66.42456,69.63547,21.622982,32.388496,29.447925,19.380832,22.562015,25.041916,25.205772,23.526501,6.851475,9.77576,11.470745,11.377476,-8.038582,-2.090824,8.521923,13.857124,-21.703079,-13.222824,-1.657288,4.795761,-14.544939,-37.623853,-55.988648,-69.130821,-75.917445,-107.486775,-126.680727,-144.048796,-74.276607,-110.868363,-133.630146,-152.742392,-64.861602,-84.043299,-63.424738,-47.054481,-51.652787,-65.925759,-52.629074,-39.790718,41.66926,292.024522,-182.779215,2.410885
75,0.988105,0.594224,2.82637,13.099263,-26.795471,-51.055732,-73.959365,-89.782665,-58.204719,-90.254928,-106.523757,-118.566696,-51.680603,-86.877388,-105.240818,-119.338554,-43.463333,-75.010631,-92.843559,-106.433475,-34.792007,-59.792312,-73.66967,-85.421218,-17.271738,-17.04751,-3.965796,9.764766,9.141741,22.118751,28.82634,34.332859,26.989241,38.951358,44.611301,49.306618,40.288167,53.049396,58.75469,62.917051,49.045043,61.477389,65.950453,69.117829,21.706043,32.980568,30.207882,19.730518,22.410645,25.098312,25.518414,23.988693,6.60949,9.848969,11.821312,11.936714,-8.259911,-1.327011,9.172783,14.342903,-21.79462,-12.678726,-1.167126,5.143169,-14.480824,-37.238555,-55.429603,-68.102541,-75.2503,-106.665346,-125.733299,-143.046274,-73.597661,-109.807195,-132.307461,-150.938391,-64.269119,-82.074986,-61.759983,-45.615523,-51.289621,-64.70168,-51.503042,-38.753898,43.030202,292.56853,-179.580008,15.459932
76,1.05185,0.368416,4.302361,18.137751,-26.776131,-50.940376,-73.876957,-89.802578,-57.85595,-89.900677,-106.217709,-118.392105,-51.369095,-86.516144,-105.002209,-119.29913,-43.20092,-74.730515,-92.61612,-106.344097,-34.593155,-59.679428,-73.641346,-85.461731,-17.306788,-17.13837,-4.166202,9.450283,9.165428,22.10887,28.743532,34.064627,27.014236,38.896016,44.542498,49.097592,40.234049,52.961142,58.732731,62.868193,48.837734,61.28348,65.790877,68.944421,21.875301,34.013454,32.127239,21.500804,22.239738,25.124965,25.904388,24.627388,6.391719,9.923893,12.246986,12.843532,-8.518513,-0.311154,10.026661,15.181377,-21.924683,-11.840756,-0.336457,5.97108,-13.486722,-35.727325,-53.670871,-65.735617,-74.31241,-105.173889,-124.010308,-141.273118,-72.875675,-108.131505,-130.015585,-148.18921,-63.760518,-79.560509,-59.628526,-43.848227,-51.041625,-63.097343,-49.944184,-37.319819,44.61406,292.793802,-174.745639,33.454539
77,0.590195,0.440502,4.683437,18.4328,-26.617928,-50.591835,-73.414628,-89.499344,-57.443573,-89.364991,-105.719971,-118.035359,-51.109017,-86.173302,-104.756138,-119.201832,-43.063134,-74.569771,-92.537384,-106.409489,-34.499543,-59.613305,-73.761658,-85.844113,-17.320842,-17.291226,-4.542175,8.717454,9.321546,22.252576,28.871961,34.086932,27.121634,38.881765,44.402017,48.764523,40.231975,52.763714,58.534476,62.593281,48.712109,61.065415,65.564019,68.658876,21.836151,34.680279,33.651489,22.852947,21.978905,24.974178,26.096729,25.187096,6.141346,10.028858,12.836288,14.133671,-8.794041,1.007206,10.843712,15.702782,-21.962036,-10.740349,0.633648,6.924992,-13.318853,-34.826837,-52.144981,-63.00392,-73.292021,-103.803659,-122.207362,-139.33747,-71.945818,-106.142696,-127.333493,-144.73009,-63.150571,-76.544742,-57.1752,-41.79521,-50.718454,-61.166487,-48.197814,-35.789464,45.984295,293.014844,-169.282162,51.667879
78,0.536109,0.497375,6.142914,19.095939,-26.443954,-50.296119,-73.04132,-89.422382,-57.341308,-88.993412,-105.343608,-117.729629,-51.028495,-85.894947,-104.462047,-118.939613,-42.958511,-74.341403,-92.305675,-106.215637,-34.323303,-59.473754,-73.701049,-85.874153,-17.383111,-17.481356,-4.895066,8.060689,9.485123,22.498355,29.154062,34.408886,27.248333,38.956223,44.450244,48.762189,40.274385,52.702186,58.511801,62.582647,48.650618,60.975259,65.473937,68.508933,21.361461,34.499862,34.03973,23.363136,21.213375,24.281719,25.541027,25.063717,5.520309,9.732479,13.147339,15.351265,-9.256542,1.551178,10.934818,15.804657,-22.102021,-10.438946,0.569675,7.038952,-12.8373,-33.559701,-49.509357,-58.679367,-72.073883,-101.792887,-119.440124,-135.96207,-70.669599,-103.663492,-123.167175,-139.062083,-62.000971,-72.384784,-53.219834,-38.202794,-49.228929,-57.396632,-44.660239,-32.661485,47.416488,292.991181,-162.243164,70.24278
79,0.453461,0.392659,6.396412,23.257971,-26.397171,-50.067192,-72.637813,-89.166767,-57.309929,-88.77087,-105.151565,-117.638088,-50.98954,-85.679512,-104.254131,-118.77626,-42.85334,-74.101513,-92.041191,-105.98513,-34.050567,-59.124824,-73.337082,-85.519123,-17.417223,-17.582331,-5.065374,7.588323,9.69516,22.742602,29.430271,34.708671,27.412107,39.168533,44.705446,48.997717,40.362082,52.854079,58.792024,62.948024,48.657595,61.071355,65.655496,68.701001,21.538192,35.717411,36.308681,25.888607,21.374771,24.53009,26.187904,26.421981,5.570537,10.033882,14.467884,17.903114,-9.199597,2.845585,12.234752,17.186611,-21.593674,-8.950402,2.075866,8.563717,-12.837904,-33.263903,-48.487127,-56.921153,-71.294099,-99.500254,-116.074658,-131.897435,-69.791316,-100.609248,-118.516658,-132.962951,-61.262096,-69.443902,-51.209876,-36.850281,-48.235266,-54.312099,-42.122099,-30.606116,48.76815,292.87929,-154.948551,92.996201
80,0.258087,0.138271,5.855587,19.917318,-26.368652,-49.982437,-72.434646,-88.973167,-57.228332,-88.571937,-104.957107,-117.477585,-50.866996,-85.4683,-104.067112,-118.582843,-42.665062,-73.872539,-91.835575,-105.776481,-33.764671,-58.846321,-73.11573,-85.321254,-17.439415,-17.488507,-4.941675,7.619359,9.968024,23.076759,29.777296,35.113829,27.71503,39.52676,45.017026,49.235518,40.622546,53.216999,59.153684,63.274968,48.837141,61.367622,65.979451,68.994526,22.032589,36.591865,39.084045,30.17284,19.963154,25.522716,29.263195,30.499763,4.480659,11.594993,18.330368,22.422798,-8.965748,6.53556,16.223282,20.375507,-19.067986,-3.723233,6.937854,12.337577,-12.008566,-30.296599,-43.12245,-49.631351,-67.787299,-96.864593,-108.020132,-118.392231,-64.533034,-94.286013,-106.083559,-115.409526,-54.771461,-59.752157,-43.296363,-30.937105,-40.598117,-43.796536,-32.835943,-22.752094,49.73961,292.51636,-148.379591,112.412318
81,-0.127922,0.034803,3.190441,17.376047,-26.175636,-49.746734,-72.076412,-88.690017,-57.037193,-88.277733,-104.591709,-117.087249,-50.741798,-85.4309,-103.950531,-118.308792,-42.593582,-73.995586,-91.974655,-105.909565,-33.714729,-58.919723,-73.329471,-85.701439,-17.528892,-17.365859,-4.800897,7.55457,10.155868,23.161431,29.793672,35.080224,27.942506,39.642801,44.874444,48.82673,40.85469,53.37077,59.137221,63.08984,49.059171,61.620674,66.18624,69.157645,19.67379,35.363056,42.257286,38.627517,20.434261,32.596229,36.669136,36.724697,8.146568,21.889972,28.251869,30.721378,-1.912777,18.084263,25.30228,26.931358,-8.794327,9.263889,17.219639,20.167534,-14.960816,-32.506146,-42.299131,-45.738438,-63.192889,-88.096195,-93.608555,-99.457184,-56.855926,-81.382912,-87.528968,-92.549492,-45.26354,-47.918931,-34.176562,-24.63579,-30.160457,-31.581964,-22.586442,-14.980033,50.191086,292.089755,-144.609752,129.326957
82,0.253487,-0.025466,4.055597,19.255279,-26.179344,-49.788757,-72.042217,-88.681263,-56.980454,-88.288365,-104.640621,-117.236961,-50.603508,-85.407303,-103.92675,-118.239395,-42.403633,-73.949627,-91.964115,-105.897698,-33.557236,-58.843575,-73.297199,-85.63377,-17.571141,-17.095861,-4.419131,7.776896,10.31117,23.303914,29.7955,34.923032,28.098006,39.80744,44.942024,48.790606,40.962099,53.547722,59.330191,63.315303,49.060011,61.68471,66.287536,69.313541,18.890419,36.945002,48.254992,49.608587,23.386585,42.434595,47.838003,47.83552,13.607735,34.621926,41.7558,43.401135,6.157362,30.699429,35.126198,34.072277,1.474554,22.566908,27.571718,27.725218,-16.137655,-31.294572,-36.668469,-36.693639,-56.055589,-74.160349,-74.071021,-75.386681,-46.781915,-64.068837,-64.42938,-65.391328,-33.255839,-33.003792,-22.466869,-16.16112,-17.140025,-16.689673,-10.154269,-5.127495,50.783741,291.61805,-140.214987,148.135997
83,0.147446,-0.25472,3.568268,20.162448,-26.099419,-49.751587,-71.903218,-88.456604,-56.948571,-88.357018,-104.782666,-117.4655,-50.567528,-85.493283,-104.107041,-118.421128,-42.371109,-74.151135,-92.330292,-106.396111,-33.513543,-58.890084,-73.509327,-85.973328,-17.641883,-16.957034,-4.27776,7.818269,10.488035,23.345805,29.726808,34.74708,28.2931,39.889543,44.883151,48.597364,41.144361,53.640878,59.372712,63.285996,49.184857,61.820375,66.460819,69.541276,20.205791,42.188044,57.77564,63.098368,29.598324,55.661642,63.570894,64.650358,21.357307,50.187572,59.261724,60.920894,15.42782,45.124718,46.439815,42.210972,11.840257,36.98398,39.174139,36.169928,-16.360642,-27.483941,-27.40579,-23.602465,-46.659257,-55.784464,-50.198806,-47.320032,-34.560501,-42.632108,-38.030189,-35.617039,-19.194795,-15.879934,-9.300452,-6.407204,-2.468041,-0.74379,2.718667,5.320267,51.041851,291.192176,-136.536055,168.127291
84,-0.21389,-0.217769,2.03936,14.998298,-25.98452,-49.744172,-71.892712,-88.507519,-56.815133,-88.344235,-104.800667,-117.47374,-50.47371,-85.606946,-104.288727,-118.557107,-42.357583,-74.401806,-92.700314,-106.804677,-33.557122,-59.024003,-73.765366,-86.360173,-17.695223,-16.801707,-4.067117,8.000729,10.728948,23.505763,29.796846,34.745153,28.538545,39.996272,44.862884,48.540652,41.324771,53.606755,59.262895,63.12789,49.256685,61.826476,66.555446,69.747905,21.173126,45.609049,64.537382,73.585539,34.95084,67.131002,78.03174,81.344381,28.269219,64.243801,75.733068,78.751339,23.854277,58.295425,56.682335,49.692764,21.406546,50.186754,49.570478,43.592108,-17.199274,-24.59664,-18.994439,-11.164283,-36.627328,-37.395111,-26.982682,-19.828057,-21.365828,-21.446671,-12.359728,-6.421431,-4.089458,1.910095,4.677829,4.285936,13.132479,16.213948,16.530011,16.232837,50.876244,290.782218,-134.448412,182.9334
85,-0.168091,-0.113461,3.295212,15.790865,-25.854081,-49.445641,-71.449162,-88.04963,-56.852784,-88.527706,-104.951889,-117.648491,-50.789475,-85.868569,-104.644398,-118.88831,-42.821595,-74.861161,-93.32626,-107.468056,-34.018593,-59.360916,-74.263275,-86.968083,-17.339491,-16.163454,-3.70332,8.06889,11.150223,23.408347,29.501037,34.321509,28.719499,39.84333,44.499706,48.018035,41.325895,53.372228,58.962233,62.691093,49.070385,61.538942,66.435836,69.733876,21.766422,48.070936,68.671617,80.277677,41.392971,76.332464,88.607465,94.127363,35.932834,75.213135,88.215723,93.756099,31.726724,67.783218,65.930866,59.430427,28.439718,58.21332,57.746664,52.40502,-18.074833,-23.001491,-13.390663,-2.876822,-27.617437,-18.593728,-7.485342,-0.083987,-10.835913,-2.165945,6.736661,12.300491,6.724478,14.985275,15.291057,13.374163,23.35395,27.307347,25.363852,22.972314,50.763171,290.504927,-131.098182,198.560435
86,0.031929,0.208396,10.230583,15.638329,-26.270027,-49.602837,-71.123223,-87.222737,-57.255799,-88.889969,-105.366383,-118.312512,-51.739769,-86.368939,-105.250889,-119.404393,-44.135697,-75.631497,-94.060788,-107.910851,-35.615204,-60.204209,-74.84174,-87.172097,-14.739429,-11.942888,0.455014,12.251738,11.141305,23.017577,29.046986,33.973496,27.659281,39.017491,44.122806,47.832795,39.841995,52.008469,57.720036,61.270784,47.598675,59.685737,64.681704,68.001925,25.677944,53.077223,71.948977,82.274672,53.252518,82.910826,90.969767,93.930193,46.541668,80.643826,88.858549,90.497612,39.943777,71.202289,65.496128,55.8097,33.203848,59.782705,58.066526,51.847544,-8.450847,-7.821968,4.036414,15.445328,-11.232712,6.927359,19.620693,27.162641,2.576412,20.535779,31.491277,36.813836,17.264001,32.644658,35.562161,33.996442,31.184952,40.233376,40.799059,39.617051,50.86278,290.584969,-120.799919,214.07041
87,0.306701,0.272541,5.984865,14.537696,-25.319183,-49.28041,-70.861713,-87.041874,-56.840332,-87.311565,-104.269935,-117.94479,-52.174827,-85.313701,-104.238178,-118.924472,-45.305992,-75.688682,-93.404503,-107.156479,-37.212822,-60.92736,-74.73175,-86.534282,-5.367691,0.893949,12.729366,24.170939,16.910869,27.7628,33.446777,38.072056,26.869716,37.387059,42.307529,45.69696,33.294773,43.042297,47.267804,49.645108,36.106528,45.510869,49.362217,51.653442,29.6586,58.070984,76.63052,86.638287,58.877998,88.099079,97.495342,101.472691,50.413822,84.738533,93.521668,95.022526,42.166855,73.946652,70.422547,61.541668,33.820267,60.659615,60.867909,55.271897,-6.487313,-3.148036,10.274453,22.414164,-2.851227,18.819314,31.290168,38.798055,11.354678,33.044436,43.270798,47.81716,25.62479,44.27917,47.25591,45.810753,38.79866,50.983832,51.766605,50.373713,51.318008,290.716222,-114.666527,228.466818
88,0.171067,-0.273925,3.562374,11.94043,-24.398713,-48.860367,-70.727555,-87.114441,-54.985245,-85.087761,-103.242108,-118.205784,-51.226685,-83.683365,-103.0001,-118.207089,-45.513268,-75.585904,-92.835263,-106.162262,-38.710717,-62.04538,-74.89999,-85.695958,4.099993,14.13383,25.577898,36.58691,23.623818,33.162874,38.065326,42.161058,26.882758,35.465843,38.654054,40.432738,27.103108,34.434191,36.546389,37.272413,24.336517,31.492933,34.128749,35.383147,32.111355,60.46415,79.234268,89.145539,61.721112,89.999817,100.571331,105.928322,52.686951,86.42355,96.828484,100.075688,44.011585,76.118763,77.948101,73.147488,35.357437,61.723263,65.525311,62.939839,-6.078377,-2.310651,10.458259,22.586695,2.934157,24.295008,35.668211,42.796394,17.515949,38.599639,47.441433,51.015597,30.94649,49.682566,53.195695,52.127203,42.515998,55.71379,56.94066,55.296333,51.694725,290.290468,-110.898503,240.255419
89,-0.210045,-0.013017,5.086361,11.679534,-24.052231,-48.883393,-70.635819,-86.970532,-54.891747,-83.19175,-101.751881,-117.462902,-52.062424,-81.821903,-100.153027,-114.676827,-47.181427,-75.195877,-90.510899,-102.043167,-40.982643,-62.758827,-73.8456,-82.668675,13.569987,27.118472,37.892869,48.242485,29.634628,37.551031,41.807635,45.042962,26.362462,33.458127,34.975854,34.705881,20.606249,26.281247,26.817426,25.87367,12.502767,18.179754,20.169636,20.59049,33.649235,62.500969,82.097283,92.435635,64.139981,92.314602,103.315499,108.861981,55.017288,88.488819,99.567261,102.913227,46.16985,78.077168,84.620133,83.46167,37.214195,63.057026,70.289761,70.737557,-5.203707,-0.92134,10.831541,22.360701,7.752616,28.392716,39.287613,46.085407,22.648137,43.534313,51.592173,53.820153,35.463311,54.321208,58.815872,57.972584,45.746027,59.681107,61.608139,59.89217,51.737629,290.075524,-105.559193,251.733026
90,-0.845719,0.659865,5.510033,10.018943,-23.285728,-48.76181,-70.866096,-87.479129,-54.596466,-80.884861,-99.73273,-115.653934,-52.403343,-77.870636,-90.339649,-99.808113,-47.934402,-72.008766,-80.583801,-86.527553,-42.091323,-62.757362,-71.644043,-78.16967,22.826299,39.569059,49.726594,59.685775,34.665101,41.296502,44.60294,46.637691,24.285375,30.193963,30.736898,29.334694,12.075553,16.570069,16.94934,15.61295,-1.402364,1.808954,3.060301,2.842397,34.77111,64.238708,85.414535,97.585121,66.08305,95.394127,106.555847,111.708538,56.797726,91.381462,102.335747,104.740574,47.764,80.403969,88.741756,89.039062,38.596596,64.668846,72.991688,74.67049,-4.90197,-0.61722,10.299648,21.384131,11.448786,32.085131,42.239159,48.089726,26.576599,47.459551,55.131694,56.540036,39.003771,58.200578,63.500369,62.855287,48.287661,63.421069,66.37227,65.314905,51.234552,290.458018,-99.706518,261.474598
91,-1.683883,0.877301,0.941059,6.669526,-21.956658,-48.110596,-70.717884,-88.205612,-55.484722,-76.833195,-90.113056,-101.834404,-53.306591,-71.506062,-76.12056,-79.031571,-48.495095,-66.170861,-67.143746,-67.126351,-41.969467,-60.869751,-68.549332,-74.086235,29.965141,48.02432,57.20011,66.454163,37.929301,43.310343,45.487305,46.24292,21.467531,25.934382,26.460731,24.881439,3.553575,6.693905,7.939806,7.301208,-14.727634,-14.392403,-14.162383,-15.083872,34.76445,64.568859,87.581646,101.914524,60.305695,94.828869,113.303547,124.841801,50.443211,90.759373,110.38512,120.288219,41.84935,80.326549,96.914715,104.07906,34.233948,64.41608,77.573307,83.41959,-12.383131,-10.116607,0.985611,11.790105,6.549101,22.478533,30.558636,36.379971,25.352768,40.997618,46.056718,47.163038,40.003844,54.997091,57.178943,55.736638,50.4624,63.075984,63.216811,60.600447,49.982037,291.010713,-98.334091,267.819518
92,-4.909905,0.044127,4.63417,4.305399,-20.259865,-45.131515,-66.832832,-84.079868,-55.58313,-69.571083,-75.393905,-80.925373,-53.735389,-62.425071,-58.830745,-54.452636,-48.357525,-57.260799,-51.143142,-44.97084,-40.942337,-55.221634,-59.366798,-61.415451,29.240796,46.996645,56.330306,65.64091,35.651588,41.988341,44.044901,44.505609,19.51644,25.004174,25.932801,24.646145,2.038541,7.807228,10.5764,11.099216,-15.427365,-13.203683,-11.36567,-10.513724,32.77319,61.876591,85.663113,101.471501,58.506089,93.221844,112.247967,125.223668,49.50562,89.498211,111.146702,123.919201,41.422577,79.714715,98.955082,109.610425,34.267537,64.143277,79.119954,88.271977,-13.35959,-12.467124,-2.833294,6.580322,7.251252,21.338411,28.624947,34.150251,26.043064,39.335779,44.324878,45.66548,40.163456,53.21406,55.724288,54.383341,49.633623,61.081841,61.461754,58.92669,45.511585,290.780532,-93.260468,271.850609
93,-16.769371,-0.157291,6.245041,3.608991,-15.756489,-34.889511,-51.524631,-66.227577,-44.754432,-47.356327,-45.553287,-45.503666,-43.081547,-37.807148,-26.663029,-16.791183,-38.131187,-34.206344,-20.891933,-9.786941,-31.079315,-36.480057,-35.530689,-33.952411,27.557023,44.78566,54.913666,64.540925,32.172841,40.162048,42.460485,42.608217,17.151387,25.911992,28.669358,28.57914,1.120029,10.621145,15.435541,17.278988,-14.345473,-9.617874,-6.459587,-4.435495,30.534863,58.856118,83.038227,100.503102,57.440483,92.566212,111.270802,124.090268,49.072815,88.673939,109.872425,122.568341,41.108517,78.70435,97.781468,108.994,33.847149,63.295578,78.593205,89.009182,-14.039796,-14.175091,-6.010118,1.208517,7.697831,21.093286,28.114901,33.512455,26.204923,39.184527,44.419615,46.189172,39.966274,52.739322,55.715223,54.816223,49.132073,60.847287,62.024448,60.089276,29.254514,290.381198,-86.503127,275.217557
94,-13.959263,-0.296241,5.886509,2.684438,-10.904113,-24.92292,-37.389289,-49.947693,-33.138553,-26.537796,-17.603325,-12.466724,-31.811473,-15.273639,2.326802,16.769772,-27.838749,-13.681675,5.398854,20.077435,-22.119003,-21.327129,-16.801529,-12.95898,24.219512,40.656841,51.90174,62.369077,28.58534,38.636096,41.388164,42.007051,15.673403,27.027525,31.491487,33.016772,1.821439,14.036881,20.165189,23.284561,-10.917041,-4.254579,-0.281953,2.64409,28.800019,56.205872,80.464554,99.324257,56.842415,91.895394,110.152863,122.588242,48.821125,87.800446,108.493103,121.021294,40.810147,77.491299,96.438217,108.174477,33.298279,62.018132,77.529396,89.078087,-14.524129,-15.454967,-8.298502,-2.645276,8.888997,22.160865,28.713115,33.739079,26.720058,39.234335,44.560049,46.856003,39.848245,52.592048,56.118849,55.975625,48.540863,60.637435,62.769578,61.822512,15.867662,289.923375,-80.044207,277.740413
95,-13.643291,0.086425,4.876191,2.113001,-6.143978,-14.427052,-22.150051,-32.042519,-20.2351,-4.480843,11.098308,20.508453,-19.161575,6.359482,24.750297,38.696159,-16.788162,5.27314,24.615372,38.452171,-13.186237,-6.301369,0.453541,5.51865,18.631693,33.861283,46.229916,57.343421,23.728436,36.084088,39.6254,41.132246,14.767858,28.523516,33.801694,36.137058,4.710865,18.987005,24.554854,27.670829,-4.178082,5.10445,9.644451,13.367779,27.393127,53.998935,78.154678,97.700775,56.445739,91.000625,108.717567,120.758399,48.762496,86.898445,107.267623,119.99208,40.720882,76.421882,95.2462,107.419212,32.995445,61.038333,76.472511,88.533714,-15.010179,-16.571946,-10.186595,-5.981096,9.92644,23.004362,29.217417,34.007866,27.40566,39.3875,44.682808,47.316895,40.013834,52.553194,56.422611,56.762251,48.28445,60.334611,62.80338,62.200128,2.810658,289.972722,-74.581729,279.816336
96,-6.145844,-1.369648,3.628692,1.897578,-3.582996,-8.715694,-13.741985,-22.14537,-13.104675,7.42273,24.059761,34.002571,-12.612476,17.349015,35.024918,47.744568,-11.483642,14.41111,33.414025,46.341042,-9.49213,1.034272,10.569054,18.026001,15.256254,30.562082,44.228633,55.86556,23.723915,37.892893,42.151189,44.360471,17.383654,32.665091,37.392109,39.442482,9.47849,25.069802,29.234682,31.698104,2.430928,14.506974,20.139699,25.049808,26.362415,52.361961,76.356949,95.941475,56.537201,90.24044,107.483437,119.204201,49.140564,86.164856,106.188057,119.065567,40.969895,75.488709,94.029648,106.287415,32.905815,60.107563,75.318581,87.55719,-15.504343,-17.785663,-12.174835,-9.100208,10.338636,23.228331,29.211304,33.797136,27.457024,38.973068,44.20192,47.152046,39.717173,51.941494,55.96667,56.648296,47.853642,59.916103,62.57452,62.201301,-2.786442,288.640939,-70.404293,281.751779
97,-9.197605,-0.579676,2.208401,1.404525,-1.532673,-2.789463,-4.57584,-11.602581,-2.142608,20.739521,36.878689,45.729023,-1.528599,30.905354,47.64188,58.944111,-1.825287,26.322293,44.925831,57.019169,-1.914814,10.969357,21.098339,28.829327,14.275744,29.631985,43.73363,55.259974,23.831188,38.334199,42.783526,45.181245,18.100886,34.243641,38.918716,40.867114,10.604349,26.972592,31.117416,33.607316,3.899687,16.877672,22.418956,27.131291,25.846424,51.444111,75.122761,94.789547,56.471088,89.472668,106.483761,118.060993,49.076603,85.313221,105.031048,117.848682,40.698429,74.585003,92.912807,104.949245,32.398945,59.187321,74.253651,86.114376,-15.878056,-18.272317,-12.895832,-10.366375,10.271045,23.602452,29.71972,34.363524,27.338982,39.211487,44.517379,47.717829,39.519782,51.894775,55.837316,56.649408,47.562884,59.552542,62.185431,61.92277,-11.445442,288.14282,-67.657287,283.237861
98,2.936737,-0.174853,1.247589,0.687875,-2.723613,-5.135444,-7.860706,-15.848465,-3.975059,18.040249,34.110226,42.90366,-3.083038,28.448765,45.113789,56.62405,-3.064041,24.342602,42.545552,54.567959,-2.816883,8.888638,17.91441,25.194844,15.287266,31.034485,44.761923,55.727005,25.379173,39.666032,44.259336,46.926102,18.859651,34.843004,39.492081,41.576405,10.568571,26.732272,31.088023,33.952291,3.059573,15.682876,21.444473,26.464103,25.674889,51.123207,74.56731,94.213474,56.012569,88.526333,105.433376,116.872341,48.472893,84.343998,103.900623,116.612835,39.911018,73.543568,91.837887,103.783459,31.494015,58.06731,73.057514,84.52216,-16.187722,-18.337094,-12.69439,-10.128648,10.395447,24.520372,30.7985,35.395657,27.595889,39.93367,45.317158,48.560314,39.840946,52.57808,56.420018,57.235234,47.804069,59.801223,62.26562,61.871801,-8.029518,288.071362,-65.930511,284.029131
99,1.883343,-0.108446,0.430675,0.229415,-3.460304,-6.727512,-10.067551,-18.543068,-6.08963,15.693855,31.719864,40.475281,-4.957077,25.954559,42.466026,54.239845,-4.45887,22.464134,40.412682,52.484848,-3.687572,7.33358,15.486923,22.405884,16.09748,32.288624,45.808914,56.321081,26.578551,40.62525,45.036613,47.707516,19.374266,35.093068,39.626425,41.823443,10.404809,26.40481,30.739886,33.944054,2.12088,14.424341,20.332274,25.851279,25.552643,51.173871,74.509644,94.178879,55.610596,87.989777,104.808449,116.132607,47.778866,83.659951,103.122529,115.741494,38.953743,72.715874,91.057503,103.014542,30.346711,56.964558,71.943512,83.163414,-16.416569,-18.17858,-11.981062,-9.041446,10.282605,24.991923,31.353846,35.865084,27.777274,40.460191,45.887299,49.058973,40.179079,53.199524,56.899596,57.545518,48.093617,60.115829,62.37114,61.717178,-5.731264,288.069256,-65.084925,284.364886
100,2.901753,-0.819242,-0.215389,-0.002248,-4.610974,-9.078072,-13.224278,-22.141377,-10.119118,11.65298,28.223567,37.209194,-9.316384,21.583408,38.74934,51.412593,-8.397995,18.125919,36.331409,48.909999,-6.896862,2.595863,9.70103,16.092281,15.625089,31.674466,45.269671,55.716433,27.712461,41.561386,45.557292,47.973722,21.019939,36.292866,40.698165,42.679266,12.373955,28.143429,32.362217,35.489184,4.168128,16.55216,22.815344,28.707803,25.390446,51.174053,74.439297,94.060101,54.846749,87.472767,104.43536,115.897808,46.855442,83.178898,102.847492,115.560436,37.963818,72.211727,90.771893,102.816891,29.386185,56.236862,71.406521,82.559407,-16.568512,-18.064218,-11.437324,-8.127206,10.215704,25.178756,31.38219,35.66673,27.994673,40.822963,46.086902,49.107139,40.553447,53.721698,57.076054,57.436837,48.391304,60.388124,62.313897,61.283073,-2.4505,287.300798,-64.921303,284.413422
101,-2.1148,-0.647577,-0.447498,-0.129428,-4.544003,-9.222771,-13.63829,-23.046902,-9.6091,13.341923,29.896946,38.349461,-8.928463,23.819607,40.974186,53.494869,-7.843277,20.226048,38.535358,51.058537,-6.033955,4.364639,11.545544,18.037754,17.510675,34.181928,47.606542,57.38493,30.066498,43.774052,47.220824,49.213707,21.795969,37.184283,41.37742,43.239367,11.656057,27.806062,32.119563,35.325855,2.017065,14.597624,20.885484,26.940717,25.361011,51.218044,74.448624,93.98616,54.23497,87.226364,104.27948,115.875412,46.050041,82.790543,102.612671,115.454613,37.044056,71.770981,90.560486,102.834412,28.426208,55.576343,70.926498,82.075973,-16.552544,-17.786441,-10.82386,-6.967732,10.283901,25.510268,31.581457,35.701778,28.213911,41.204395,46.440657,49.382014,40.865595,54.234991,57.464402,57.709613,48.619186,60.655256,62.355084,61.035613,-4.199055,286.669693,-65.002556,284.300466
102,-0.383114,-0.813574,-0.306439,-0.038854,-4.595627,-9.679012,-14.665146,-24.503517,-10.047226,12.948944,29.231003,37.369698,-9.30772,23.705681,40.421265,52.691277,-8.058586,20.342102,38.498085,50.802086,-6.275299,4.772473,12.335816,18.920311,18.719835,36.07012,49.605613,58.875621,32.165296,45.743902,48.593993,50.229588,22.72199,37.955471,41.757012,43.468733,11.512228,27.457024,31.613074,34.884697,0.752083,12.916803,18.881263,24.809031,25.370785,51.257287,74.44566,93.925793,53.930352,87.05238,104.144268,115.81152,45.656571,82.494725,102.322278,115.22041,36.601433,71.466031,90.350934,102.873288,27.938347,55.221623,70.632283,81.91943,-16.653061,-17.721343,-10.480885,-6.278473,10.283296,25.582566,31.531749,35.521171,28.272797,41.277952,46.398618,49.226848,40.986799,54.422787,57.547444,57.704612,48.759348,60.886092,62.461246,60.987733,-4.255606,285.846686,-64.982432,284.252179
103,1.255142,0.864259,-0.539806,0.094318,-4.190883,-9.3605,-14.834015,-24.355407,-11.001068,12.29226,28.766556,36.528466,-11.028591,21.822625,38.077927,49.912514,-10.588668,17.251854,34.876419,46.624535,-9.683841,-0.438835,5.602364,10.6749,12.866884,28.425987,42.235861,51.997045,28.007998,42.012794,44.590441,46.121111,22.48882,36.99188,40.400898,41.788702,14.765906,30.19668,33.275333,35.799752,7.261305,19.879989,25.613181,31.286266,25.389713,51.218983,74.358032,93.737915,54.015026,87.084892,104.129562,115.84536,45.687973,82.39167,102.102814,115.032234,36.551148,71.277649,90.095993,102.644463,27.807129,55.081364,70.513527,81.993622,-16.648455,-17.714884,-10.361374,-5.817124,10.289841,25.390929,31.287402,35.300166,28.179689,41.035569,46.110502,48.994567,40.840512,54.093855,57.226749,57.442839,48.622756,60.782845,62.392073,60.917028,-2.691908,286.685344,-65.213682,284.320896
104,-2.423744,-0.065382,-0.478626,0.050388,-3.69318,-8.236004,-13.473312,-22.817905,-9.051212,14.963242,30.992432,38.278725,-9.219097,24.599167,40.339577,51.318924,-9.195625,19.542732,36.894791,48.127213,-8.813724,1.531838,8.234986,13.454304,12.557033,27.917127,41.778958,51.250706,27.508018,41.549531,44.030057,45.435558,22.276165,36.792205,40.122343,41.384324,14.784605,30.332173,33.264713,35.404426,7.55483,20.514068,25.904755,30.917345,25.336281,51.024753,74.031338,93.254139,53.942093,86.939541,103.99522,115.801197,45.689907,82.298481,102.059063,115.124187,36.588936,71.205288,90.024502,102.599911,27.862472,55.108246,70.54723,82.152134,-16.731842,-17.816822,-10.349048,-5.505679,10.191609,25.111818,30.911219,34.882413,28.02556,40.719123,45.695157,48.569811,40.677516,53.739581,56.869363,57.117822,48.53386,60.71072,62.361939,60.862762,-4.81814,286.56823,-65.394796,284.319552
105,-0.887512,-0.15918,-0.433754,0.047214,-3.90485,-8.853722,-14.594261,-24.539784,-8.573124,15.057381,30.535995,37.542412,-8.316982,25.222733,40.485878,50.99572,-8.278336,20.446838,37.618195,48.608482,-8.069984,3.088955,10.727646,16.561375,14.95679,31.123826,45.006948,54.02998,28.620612,42.580133,45.321987,46.815976,21.803873,36.42232,40.006894,41.43896,12.917211,28.637025,31.922444,34.257461,4.521402,17.621802,22.854655,27.523875,25.259376,50.821552,73.748485,92.825786,54.038795,86.906765,103.939487,115.765629,45.876823,82.293697,102.003422,115.116039,36.777798,71.185787,89.917454,102.467502,27.997261,55.130401,70.514843,82.205601,-16.796507,-17.903074,-10.342292,-5.261555,10.080891,24.751542,30.53238,34.518666,27.778102,40.217216,45.20439,48.115329,40.374717,53.190768,56.411867,56.735291,48.287958,60.440921,62.229225,60.79869,-5.46468,286.364902,-65.587578,284.322618
106,-0.396286,0.13164,-0.377632,0.053464,-3.654408,-8.193054,-13.594414,-23.058575,-8.031521,14.548851,30.247627,37.77594,-7.865799,24.181892,39.861603,50.772285,-8.35516,19.214333,36.468636,47.764984,-8.862648,1.460014,9.14843,15.035442,13.014554,28.300745,42.229464,51.490408,26.370266,40.529586,43.810756,45.592441,21.235843,35.867084,39.736711,41.110596,13.93766,29.778802,32.987675,34.960415,7.186933,20.899118,26.266921,30.538666,25.312797,50.757396,73.55595,92.57761,53.804592,86.708164,103.799686,115.640796,45.731117,82.229038,102.017864,115.191433,36.740787,71.168873,89.918415,102.430332,28.096893,55.222606,70.660663,82.465542,-16.803399,-17.921773,-10.310985,-5.126643,9.852723,24.369442,30.129965,34.110755,27.471412,39.762671,44.723662,47.672788,40.045303,52.698641,55.927212,56.29895,48.008006,60.119756,62.001168,60.636348,-5.65844,286.459096,-65.762684,284.338636
107,7.482124,0.195082,-0.32325,-0.067061,-5.839096,-12.921558,-20.277145,-30.543113,-16.127723,4.812538,21.239434,29.727036,-16.130092,13.983261,30.477951,42.400727,-16.051151,9.546639,27.163353,39.081986,-15.576645,-8.604034,-2.533745,2.578755,11.578511,25.968999,39.774156,49.541145,24.677811,38.90166,42.66042,44.742384,21.536715,35.499076,39.800338,41.199331,15.927926,31.196431,34.430436,36.053966,10.900145,24.826481,30.672318,35.144222,25.227882,50.573868,73.303539,92.253193,53.568844,86.536617,103.641529,115.491314,45.545299,82.127209,101.999164,115.237827,36.582012,71.018108,89.827984,102.357113,27.95343,55.073913,70.577465,82.528713,-16.855602,-17.957934,-10.229474,-4.994978,9.795925,24.134803,29.840664,33.891887,27.353049,39.390032,44.344934,47.368309,39.857804,52.307564,55.587634,56.072597,47.755632,59.832308,61.856487,60.614612,1.986019,286.619999,-65.923599,284.237396
108,2.101021,1.474044,-0.170426,-0.09123,-3.879204,-9.523956,-15.315182,-23.71463,-18.057186,2.600372,19.499611,29.148651,-19.23468,9.273033,27.300316,40.995804,-19.09845,4.925675,23.74395,37.428749,-17.837643,-12.315514,-7.020115,-2.057041,10.101404,22.717828,35.652292,45.073033,21.916678,35.465497,40.110066,43.038592,20.134697,33.797951,38.741825,40.720963,16.144064,30.747987,34.819266,36.981766,12.315465,24.979832,30.813332,35.360274,25.095852,50.385567,73.061108,91.858647,53.14119,86.2477,103.443844,115.359799,45.082249,81.856671,101.906834,115.226819,36.096932,70.732922,89.717297,102.356907,27.473328,54.730076,70.335537,82.342221,-16.886885,-17.968703,-10.149483,-4.780717,9.6064,24.004904,29.65734,33.709155,27.224966,39.29527,44.277799,47.332049,39.775046,52.285049,55.532269,56.007945,47.657918,59.748624,61.772395,60.521715,4.208444,288.07449,-65.972621,284.126613
109,9.127739,-0.207494,-0.041278,0.040903,-6.953133,-15.967609,-24.428684,-34.829349,-28.26194,-9.621277,8.018303,19.233833,-29.068176,-3.187683,15.992409,31.746643,-27.486935,-5.681992,13.815239,28.672737,-24.361324,-21.213982,-16.049892,-10.384426,13.292431,26.707535,39.003388,48.13247,24.205112,37.327136,42.031715,45.185222,20.271079,33.459794,39.059297,41.3976,14.304915,28.08941,33.197133,36.082149,8.537143,19.451676,25.863271,31.365899,24.983585,50.135902,72.793602,91.574409,52.53828,86.003128,103.313049,115.301651,44.529613,81.652816,101.868919,115.31417,35.681923,70.625267,89.741203,102.456596,27.235302,54.609123,70.253494,82.340973,-16.858121,-18.084744,-10.274367,-4.869909,9.286052,23.538356,29.16262,33.317917,26.976841,38.94974,44.063575,47.363629,39.582039,52.0019,55.290381,55.902315,47.523858,59.578391,61.586663,60.346035,13.433275,287.867453,-65.916807,284.167973
110,4.102638,1.626963,-0.005127,0.053365,-6.585113,-15.825782,-24.212425,-34.272995,-33.087776,-13.977173,4.424584,16.81984,-34.783539,-9.680557,11.097931,28.222916,-32.803848,-11.695495,9.363533,25.733345,-28.545616,-28.335983,-26.123726,-22.751747,11.874937,24.187105,36.02934,45.440905,22.219218,35.032762,40.116315,43.952584,19.597938,31.994271,37.730452,40.482248,15.14209,27.75534,33.448629,36.970811,10.681796,20.313218,27.114507,33.1679,24.935966,50.030365,72.617592,91.365165,52.112686,85.836845,103.162101,115.142532,44.047702,81.345543,101.61161,115.046631,35.258869,70.33081,89.489593,102.18853,26.959968,54.375045,70.035415,82.100853,-16.874177,-18.181754,-10.396781,-5.043082,9.032813,23.268827,28.926178,33.218844,26.845745,38.798895,43.961304,47.392046,39.512557,51.953475,55.213057,55.880084,47.46254,59.516369,61.443463,60.147026,17.630716,289.499291,-65.827131,284.226213
111,4.738335,0.145521,0.053364,0.146126,-8.21006,-19.075493,-28.833538,-40.055203,-38.512791,-20.334709,-1.850647,11.345444,-39.768997,-16.061211,5.105965,23.21521,-36.604328,-16.65992,4.696838,21.542976,-30.913559,-31.434849,-28.749802,-24.597336,15.129703,28.261385,39.474482,48.5172,23.914057,36.256618,41.469057,45.63332,19.075888,31.255872,37.66885,41.045573,12.641223,24.653901,31.384758,35.759812,6.152564,14.275546,21.379153,28.157731,24.610485,49.600204,72.162677,90.827579,51.815528,85.699436,102.958087,114.88393,43.781181,81.110698,101.387432,114.796222,35.046501,70.14204,89.27853,101.924869,26.82106,54.254997,69.846576,81.863307,-16.959936,-18.422506,-10.709769,-5.316278,8.858517,22.953938,28.635371,33.043992,26.766778,38.608988,43.805582,47.290602,39.463577,51.845078,55.090025,55.745444,47.398431,59.370761,61.235056,59.880956,22.45689,289.652713,-65.685928,284.38024
112,-2.264992,3.046963,-0.03225,0.190426,-4.767906,-12.774399,-19.797375,-28.258129,-34.79274,-15.202217,3.605965,17.099419,-37.406135,-13.916542,7.924393,26.477944,-35.182525,-15.853454,6.038063,23.382889,-30.007816,-32.305538,-32.093696,-30.626358,7.612257,16.649677,26.005519,33.541873,17.786835,29.801514,35.472474,40.103965,17.026058,28.747052,34.763629,38.085134,14.517176,25.620357,31.924481,36.242626,11.436559,18.486344,25.292203,31.879663,24.417217,49.288364,71.781269,90.317059,51.614227,85.579845,102.835316,114.723759,43.657734,80.9202,101.19849,114.589634,35.012432,70.006496,89.127995,101.691822,26.884609,54.226124,69.7813,81.744198,-17.038519,-18.648896,-11.015989,-5.517609,8.705845,22.668181,28.357,32.815923,26.620121,38.373979,43.572598,47.122085,39.304706,51.630989,54.857782,55.505766,47.245957,59.187078,61.015101,59.601276,20.27338,292.711162,-65.636696,284.582152
113,-0.384064,1.473241,-0.020267,0.10752,-5.39978,-13.917137,-20.43552,-28.1273,-34.879074,-15.135177,3.923081,17.553109,-37.090381,-13.876327,8.02034,26.493668,-34.66753,-15.666503,6.438172,23.65123,-29.411098,-33.452899,-34.651989,-34.567005,6.881836,15.083044,23.406839,30.39932,17.49073,29.671283,35.345578,39.740243,16.723753,28.32568,34.158426,37.372905,14.042612,24.744847,30.931918,35.220101,10.872173,17.862962,24.754851,31.259627,24.278755,49.037979,71.464988,89.961227,51.464538,85.541175,102.778495,114.632721,43.562553,80.80204,101.058265,114.42659,35.011665,69.888931,88.952522,101.449859,27.00151,54.204402,69.685867,81.600654,-17.088574,-18.80794,-11.239452,-5.658351,8.662459,22.472025,28.196621,32.755951,26.563409,38.182861,43.409317,47.045058,39.207461,51.481034,54.754733,55.452932,47.12111,59.059984,60.89712,59.474415,19.96919,294.195759,-65.577089,284.701028
