takenoko1/special-research/HandMotion_SimilarSearch_自分用/NewProject/handData/tgt/d4_feature_d2/60.csv
,vel_0x_L,vel_0y_L,vel_0x_R,vel_0y_R,posFromWrist_1x_L,posFromWrist_2x_L,posFromWrist_3x_L,posFromWrist_4x_L,posFromWrist_5x_L,posFromWrist_6x_L,posFromWrist_7x_L,posFromWrist_8x_L,posFromWrist_9x_L,posFromWrist_10x_L,posFromWrist_11x_L,posFromWrist_12x_L,posFromWrist_13x_L,posFromWrist_14x_L,posFromWrist_15x_L,posFromWrist_16x_L,posFromWrist_17x_L,posFromWrist_18x_L,posFromWrist_19x_L,posFromWrist_20x_L,posFromWrist_1y_L,posFromWrist_2y_L,posFromWrist_3y_L,posFromWrist_4y_L,posFromWrist_5y_L,posFromWrist_6y_L,posFromWrist_7y_L,posFromWrist_8y_L,posFromWrist_9y_L,posFromWrist_10y_L,posFromWrist_11y_L,posFromWrist_12y_L,posFromWrist_13y_L,posFromWrist_14y_L,posFromWrist_15y_L,posFromWrist_16y_L,posFromWrist_17y_L,posFromWrist_18y_L,posFromWrist_19y_L,posFromWrist_20y_L,posFromWrist_1x_R,posFromWrist_2x_R,posFromWrist_3x_R,posFromWrist_4x_R,posFromWrist_5x_R,posFromWrist_6x_R,posFromWrist_7x_R,posFromWrist_8x_R,posFromWrist_9x_R,posFromWrist_10x_R,posFromWrist_11x_R,posFromWrist_12x_R,posFromWrist_13x_R,posFromWrist_14x_R,posFromWrist_15x_R,posFromWrist_16x_R,posFromWrist_17x_R,posFromWrist_18x_R,posFromWrist_19x_R,posFromWrist_20x_R,posFromWrist_1y_R,posFromWrist_2y_R,posFromWrist_3y_R,posFromWrist_4y_R,posFromWrist_5y_R,posFromWrist_6y_R,posFromWrist_7y_R,posFromWrist_8y_R,posFromWrist_9y_R,posFromWrist_10y_R,posFromWrist_11y_R,posFromWrist_12y_R,posFromWrist_13y_R,posFromWrist_14y_R,posFromWrist_15y_R,posFromWrist_16y_R,posFromWrist_17y_R,posFromWrist_18y_R,posFromWrist_19y_R,posFromWrist_20y_R,posFromBody_0x_L,posFromBody_0y_L,posFromBody_0x_R,posFromBody_0y_R
6,-7.646714,0.785588,0.175621,-0.271727,10.872643,17.882596,19.118294,16.557026,3.769639,29.894017,46.962193,54.684025,-7.725151,23.328381,43.257054,58.022999,-17.511199,7.695145,26.818898,39.163983,-25.160545,-19.659393,-13.058979,-7.549404,-17.773473,-18.80384,-11.549747,-4.369138,0.733867,23.927692,30.324269,32.226812,19.437733,41.245151,45.675249,46.409128,32.62131,50.645478,52.550478,52.872197,42.506193,56.448114,56.030249,54.09488,25.695122,50.196351,72.187214,91.452759,51.955948,83.998101,100.769211,112.328591,42.442349,78.356461,98.274697,111.645997,32.489789,66.11443,84.810997,97.287667,23.181244,49.133938,64.276589,76.720162,-14.719396,-13.596724,-3.483489,2.665321,15.900274,32.59803,39.561711,44.126919,33.306444,48.587682,54.615819,57.84565,45.317257,60.822748,65.325613,66.226206,52.646006,68.255929,71.888113,71.938983,-26.179476,295.958869,-76.630583,286.896008
7,-4.364398,-1.372501,0.034195,0.072261,13.906585,23.394722,26.423286,25.701587,9.388286,35.158424,52.157936,59.9477,-2.829907,27.952938,47.826095,62.948822,-14.042885,11.038719,30.439338,42.844299,-23.398694,-17.981358,-11.193764,-5.600419,-19.092684,-20.817052,-15.281387,-9.261179,-0.072458,24.8826,31.409371,32.493993,19.133661,43.187818,47.640319,47.83419,32.692434,52.409513,54.610693,54.959373,42.93847,58.384866,58.560533,56.680925,25.840405,50.293991,72.239262,91.524582,52.001416,84.13852,100.960053,112.543236,42.539967,78.477745,98.418984,111.852677,32.664608,66.279934,84.993645,97.478188,23.400731,49.317662,64.420693,76.857491,-14.673405,-13.672493,-3.685475,2.488924,15.846674,32.517532,39.484041,44.021164,33.213323,48.43911,54.435779,57.619074,45.222235,60.695134,65.251129,66.137643,52.594011,68.206639,71.897215,71.954519,-30.178241,294.894644,-76.230755,287.276545
8,-1.787259,0.310938,0.248154,0.064294,13.796986,23.745358,27.192959,26.955426,10.333947,37.160397,54.014546,61.467007,-1.770996,30.733532,50.590611,65.691479,-12.775314,13.613972,32.833432,44.974377,-21.988964,-16.376861,-10.810627,-6.46241,-19.655416,-21.139229,-15.26059,-9.041236,-0.319658,24.730546,31.149032,32.184191,18.997539,43.082743,47.403271,47.524907,32.620396,52.064501,54.212304,54.580781,42.861059,58.001001,58.431228,56.823297,25.883926,50.252106,72.139996,91.436989,51.985165,84.243851,101.105072,112.642502,42.48222,78.474838,98.411316,111.808159,32.60178,66.286972,84.979797,97.394371,23.353626,49.286076,64.36932,76.781387,-14.622819,-13.686905,-3.774765,2.459717,15.743441,32.415027,39.376385,43.926193,33.072459,48.334308,54.343697,57.575738,45.077134,60.522678,65.083428,65.996605,52.470647,68.050498,71.732292,71.782088,-31.769715,295.341239,-75.786816,287.476496
9,5.188877,0.14252,0.298885,-0.004792,12.354321,20.614403,22.584,21.649819,5.172238,30.786484,48.282921,56.295022,-6.931308,24.083474,44.794899,60.98449,-17.633789,7.493077,27.469368,40.638588,-26.369945,-22.630554,-17.242778,-12.457328,-19.584823,-20.824327,-14.459279,-7.828545,-0.70398,23.847502,30.727091,32.2504,18.581427,41.973422,46.74411,47.305261,32.290266,50.892565,53.349614,54.243896,42.703756,57.384336,58.453088,57.726384,26.054936,50.359669,72.201565,91.53162,52.02887,84.122372,100.927517,112.442563,42.49181,78.287693,98.169056,111.565876,32.603062,66.084366,84.741887,97.133297,23.333336,49.071831,64.104001,76.502644,-14.496613,-13.575346,-3.724328,2.461569,15.811366,32.492956,39.431121,43.948979,33.06926,48.376607,54.371843,57.597981,45.052829,60.51822,65.093184,66.008054,52.468473,68.036901,71.72177,71.747767,-26.438044,295.540371,-75.345137,287.528316
10,3.77314,0.627273,0.321637,-0.103728,9.133255,15.463166,16.806015,14.475861,0.11475,25.826432,44.012948,52.879761,-11.283279,19.31083,40.702813,56.787117,-20.332431,4.125,24.675797,38.261261,-27.135932,-23.752109,-17.39233,-11.45391,-17.89606,-18.223646,-10.197636,-2.254681,0.356435,22.56612,29.788398,32.347718,19.110208,40.025196,45.290074,46.178674,32.640366,49.199751,52.041444,53.092868,43.102022,56.320241,57.302974,56.622447,26.154155,50.346611,72.1436,91.440399,52.180183,84.066467,100.838516,112.385467,42.606479,78.108947,97.924415,111.382232,32.597122,65.75806,84.401092,96.884102,23.139782,48.67955,63.695366,76.166679,-14.333913,-13.418426,-3.640804,2.529112,16.042745,32.639304,39.564539,44.054053,33.175582,48.426526,54.442769,57.684061,45.054249,60.547576,65.198407,66.170852,52.427088,68.027452,71.79009,71.866315,-22.547179,296.181087,-74.905775,287.438031
11,9.738396,-0.174655,0.262138,-0.261624,5.556233,8.450249,6.583283,2.226185,-10.537342,13.29047,32.901032,43.516136,-21.521335,7.185974,29.665627,46.977883,-29.105152,-6.569355,15.205971,30.470627,-34.201938,-33.00325,-26.842403,-20.272865,-16.286116,-16.003694,-7.092294,1.942013,0.515282,22.733031,30.292393,33.416816,18.994612,39.024778,44.951706,46.606049,32.439183,48.132742,51.365129,52.922153,43.065552,55.722089,57.044265,57.054935,26.226551,50.414371,72.151978,91.416321,52.234497,83.924057,100.685074,112.313667,42.639393,77.878761,97.667931,111.22847,32.575733,65.457298,84.159325,96.818756,23.022835,48.409412,63.459263,76.069084,-14.189084,-13.129064,-3.290667,2.920597,16.423708,32.985687,39.88448,44.344267,33.441886,48.632661,54.655907,57.885194,45.208884,60.750154,65.477321,66.483161,52.496223,68.169034,71.979528,72.074587,-12.710758,296.011842,-74.545612,287.181817
12,3.209633,3.442301,0.508141,-0.061973,3.861946,5.036419,2.649948,-1.737991,-14.333588,9.669125,29.200378,39.796417,-24.570225,3.761982,26.09111,43.055786,-30.715038,-7.935654,13.806793,29.2248,-34.212914,-31.174244,-23.406773,-15.658504,-16.061603,-17.065862,-8.47044,1.294845,-1.061489,18.975803,26.5426,30.223752,16.916501,35.26634,41.589026,43.867011,30.286786,44.847262,47.951616,49.255611,40.771759,52.416578,53.511722,53.241662,26.143547,50.224422,71.939575,91.221267,52.167881,83.732185,100.373016,111.907539,42.590835,77.716209,97.435249,110.962417,32.53403,65.289997,83.930923,96.577697,23.00624,48.332244,63.377918,75.972198,-14.17062,-13.122913,-3.228818,3.133426,16.760519,33.229008,40.058616,44.458864,33.755912,48.756508,54.670974,57.776131,45.452996,60.958735,65.625782,66.508812,52.646203,68.255015,71.994855,71.990557,-9.427471,299.461087,-73.963817,287.126788
13,7.530533,0.18519,0.46146,0.018081,2.214203,1.036686,-4.006668,-10.417202,-21.144985,1.487858,21.705437,32.945892,-31.969414,-5.060051,17.613304,34.574982,-37.737316,-16.379276,5.838112,21.691131,-40.458756,-37.86977,-28.7146,-19.479904,-15.185291,-16.409345,-7.865163,2.520923,-1.120066,19.415354,27.229906,31.148488,16.836126,34.89081,41.604229,44.322753,30.24277,44.293385,47.526019,49.012932,40.848194,52.198228,52.850448,52.489356,26.120876,50.069423,71.768291,91.058841,52.198002,83.497936,100.014965,111.539554,42.683075,77.584591,97.195713,110.739772,32.607261,65.14468,83.733593,96.430217,22.98183,48.158992,63.166305,75.780498,-14.140573,-13.190728,-3.403807,2.992104,16.957009,33.320275,40.101186,44.451367,33.89238,48.70129,54.498875,57.497229,45.531962,61.006924,65.667117,66.51642,52.730714,68.312998,72.068226,72.087925,-1.843649,299.63933,-73.449068,287.137922
14,-0.904289,2.687526,0.568393,0.037457,-0.422173,-3.205525,-9.046086,-16.754677,-21.672226,2.291919,22.117858,32.917488,-30.919281,-3.111969,19.062057,35.030799,-35.19286,-12.688557,8.912796,24.236595,-36.50512,-31.493283,-20.881543,-10.547459,-13.891756,-14.805353,-5.229729,6.513285,-1.192882,17.429263,25.127342,29.532801,15.533019,32.104162,39.075772,42.029244,28.310279,41.539897,44.693417,45.716436,38.292381,48.84875,49.084649,48.040733,25.888653,49.673504,71.34224,90.626931,52.084431,83.235421,99.74675,111.314782,42.65244,77.395317,96.915253,110.418206,32.566876,64.992543,83.46753,96.100228,22.897202,47.983578,62.946465,75.568909,-14.101274,-13.216527,-3.487996,2.910446,16.970483,33.293303,40.065903,44.393891,33.86589,48.571528,54.385391,57.370876,45.471188,60.894885,65.582433,66.447606,52.682772,68.264575,72.026261,72.0756,-2.722572,302.309226,-72.855309,287.157749
15,3.920963,-0.15287,0.680569,0.210285,0.846943,-2.459072,-10.109127,-17.969833,-24.099014,-1.508034,18.195911,28.740703,-34.456352,-7.377846,14.48148,30.865299,-39.701809,-17.654961,3.798511,19.082577,-41.853344,-37.981213,-28.653134,-19.41465,-15.220476,-17.763951,-10.482256,0.108693,-2.090572,18.896195,26.256745,29.651844,15.268457,33.758852,40.077759,42.49036,28.224298,42.608946,45.197473,45.979061,38.089927,49.418596,49.808438,49.055936,25.737442,49.317741,70.910351,90.249859,51.771172,82.787716,99.256657,110.829105,42.40844,77.079334,96.530674,109.969174,32.390888,64.791927,83.114513,95.584179,22.786812,47.76495,62.641892,75.190075,-14.098817,-13.344708,-3.711533,2.764875,16.796421,33.08944,39.874143,44.216605,33.700843,48.359378,54.182677,57.171113,45.331546,60.685415,65.342817,66.189353,52.603139,68.104246,71.81468,71.837182,1.215117,302.126413,-72.158014,287.338091
16,-7.532261,2.570806,0.74152,0.281125,3.188152,2.780376,-0.589634,-5.797302,-15.631897,9.619034,28.150314,37.190781,-26.15403,3.074673,23.826897,38.20871,-31.881214,-7.700466,12.286285,25.576286,-34.482079,-27.01656,-16.595181,-7.483166,-16.38131,-20.39484,-13.948665,-4.182491,-2.666074,16.407739,23.871869,27.871863,14.623881,31.947107,37.932722,39.896311,27.52737,40.922961,43.225758,43.480886,37.184295,47.615026,47.22648,45.420343,25.501808,48.868858,70.421104,89.780502,51.3857,82.333488,98.807236,110.3638,42.07869,76.758957,96.139275,109.446625,32.097507,64.593887,82.762001,95.012466,22.531494,47.526501,62.342663,74.78579,-14.151774,-13.608519,-4.147936,2.353914,16.452508,32.718703,39.533182,43.910323,33.366205,48.009266,53.878,56.908748,45.042085,60.354186,64.986998,65.848194,52.397349,67.817588,71.511386,71.534283,-6.312115,304.651255,-71.411465,287.573252
17,-1.932301,-0.072841,0.636646,0.288041,3.793316,5.238739,3.571885,-1.216323,-12.10239,13.352177,31.895634,41.333485,-22.578323,6.502842,27.374943,41.721943,-28.578632,-5.481353,14.060223,27.324635,-31.522052,-25.950176,-17.439342,-9.445186,-15.352758,-17.7908,-10.600483,-0.980843,-1.766012,16.648726,24.126281,28.699319,15.043166,31.771946,37.961202,40.101026,27.647907,40.558128,43.559025,44.593616,37.426456,47.902462,47.7634,46.641618,25.405712,48.604752,70.127117,89.510205,51.158867,81.902676,98.355686,109.944683,41.849247,76.407887,95.714001,108.955639,31.826924,64.314251,82.424893,94.62592,22.153977,47.146843,61.95924,74.450444,-14.153688,-13.784754,-4.502815,1.931207,15.98134,32.294972,39.114737,43.529521,32.85427,47.528959,53.426,56.532194,44.56363,59.866839,64.518695,65.464811,52.051016,67.406466,71.132807,71.228174,-8.26264,304.504258,-70.793043,287.787137
18,-1.493568,-0.590593,0.495438,0.129553,4.274151,6.652794,6.218994,2.532108,-10.620621,14.914959,33.346745,42.890705,-21.09589,8.156982,29.21838,44.020603,-27.206509,-4.069691,15.697872,29.283474,-30.264977,-25.860409,-18.900192,-12.063412,-15.544604,-17.889947,-10.766073,-1.652034,-1.633533,16.568364,24.143942,28.788598,15.289834,32.026098,38.253763,40.152995,27.939394,40.733746,44.089411,45.160126,37.779013,47.809417,48.412903,47.878046,25.163372,48.353794,69.870769,89.306911,50.874905,81.648067,98.205471,109.859768,41.556187,76.162571,95.441769,108.571735,31.534195,64.14529,82.177563,94.27367,21.915619,46.987324,61.806827,74.2775,-14.13152,-13.835057,-4.576015,1.864726,15.577615,32.069347,38.956507,43.447132,32.440616,47.263753,53.310019,56.547198,44.169217,59.540722,64.235298,65.280127,51.677042,67.085042,70.77994,70.827944,-9.789408,303.841192,-70.330805,287.844217
19,-0.373684,0.594792,0.232407,0.070741,6.745159,11.215061,13.298721,11.831417,-8.67984,16.788872,35.226448,44.815224,-20.618317,8.930775,29.900482,44.270531,-27.583328,-4.200199,15.673348,28.875916,-31.351444,-26.342297,-19.115215,-12.641075,-17.151424,-21.422193,-16.167023,-8.842041,-2.925067,15.046204,22.887815,27.802345,15.048662,31.498898,37.606038,39.305953,28.353295,40.404764,43.83973,45.059387,38.760067,48.546865,48.739205,47.742714,25.136661,48.351058,69.893589,89.410366,50.842987,81.617054,98.184185,109.850955,41.541229,76.173992,95.431606,108.521564,31.512783,64.199684,82.191272,94.252567,21.89384,47.035697,61.840827,74.28963,-14.128025,-13.920618,-4.698626,1.816919,15.22365,31.828076,38.77175,43.331647,32.083229,46.955396,53.062734,56.406914,43.846115,59.246704,63.965041,65.102397,51.405131,66.811278,70.470891,70.496271,-10.224049,304.366542,-70.159355,287.845516
20,-3.664593,2.394706,0.194,-0.158229,6.340027,11.937184,16.860043,16.892292,-5.042347,22.230343,40.476643,50.022641,-15.690502,14.612904,35.714482,50.032414,-21.789608,1.976841,21.403553,34.775929,-24.931743,-19.091274,-11.706344,-4.962753,-16.304752,-19.588713,-13.179094,-5.640419,-3.089978,12.052532,20.101488,26.207727,13.936697,28.378439,34.987808,37.418181,26.869395,37.789893,41.824085,43.688651,37.053878,46.215997,46.302484,45.413019,25.093231,48.430584,70.009517,89.534511,50.784267,81.655437,98.284618,109.973705,41.519256,76.232609,95.487453,108.523304,31.528896,64.391155,82.374355,94.429172,21.96746,47.309086,62.129825,74.562801,-14.087962,-13.762932,-4.450241,2.028723,14.945686,31.792977,38.790151,43.385963,31.810885,46.854977,53.051186,56.478112,43.629716,59.101949,63.855952,65.067039,51.227326,66.675093,70.288863,70.283899,-13.978375,306.697717,-70.055088,287.623756
21,1.696404,-2.995513,0.12997,-0.013783,6.823551,11.9645,15.025921,14.097484,-5.697842,20.143558,38.177959,47.432041,-16.755318,12.768642,33.58826,48.030178,-23.613453,-0.695172,18.630535,31.706783,-27.584644,-23.635849,-17.263699,-11.265015,-16.69641,-19.060191,-12.51398,-4.780754,-1.715241,15.326675,22.52082,26.984288,15.596969,31.89699,37.910962,39.636787,28.562555,40.904004,44.853869,46.572667,38.734576,49.002768,49.548197,48.97939,25.094845,48.474713,70.088677,89.669884,50.986599,81.886322,98.493462,110.154396,41.730881,76.454064,95.641091,108.584015,31.727955,64.633129,82.535019,94.525887,22.168053,47.566498,62.35207,74.731316,-14.137646,-13.7985,-4.432074,2.045248,14.669786,31.710689,38.756139,43.375478,31.569552,46.708555,52.955646,56.457599,43.43976,58.908485,63.666305,64.959803,51.084016,66.507083,70.041467,70.028018,-12.394552,303.644272,-70.037699,287.552041
22,5.185753,-3.205513,0.039883,-0.155105,2.099075,2.855678,1.833652,-2.963265,-12.181664,11.955906,30.005092,39.67622,-22.012287,6.47723,27.13702,41.502147,-27.844929,-5.613407,13.982608,26.876186,-30.829422,-27.63675,-20.238831,-13.379643,-13.117986,-13.144687,-4.570864,4.243278,2.844533,19.908358,26.841793,30.685855,19.041209,34.403439,40.167383,41.293871,30.672875,42.415518,45.978282,47.194568,39.78316,49.913747,50.337787,49.172891,25.159309,48.704384,70.379162,90.060345,50.95689,82.08926,98.791615,110.483654,41.708382,76.643909,95.871334,108.775509,31.806461,64.929737,82.819027,94.762241,22.454761,47.972477,62.739601,75.011913,-14.169607,-13.665736,-4.210254,2.191263,14.585015,31.771328,38.835316,43.430275,31.585447,46.855867,53.140169,56.646086,43.536881,58.996603,63.687683,65.003646,51.15419,66.557953,69.97495,69.906246,-7.338215,300.386126,-70.127232,287.344303
23,-5.837986,0.076534,0.033142,-0.045967,4.033756,6.774673,7.647926,4.135448,-5.445156,19.833984,37.064094,45.561607,-14.803688,14.687599,34.541359,47.793617,-21.215218,2.200927,20.86187,32.397331,-25.10384,-20.530827,-13.173271,-7.129109,-13.900549,-14.043032,-5.471013,3.049865,3.081518,19.813459,26.138208,29.475558,19.221433,34.925897,40.015106,40.498637,30.730388,43.002789,46.16956,46.959286,39.709615,50.220202,50.456064,48.8137,25.371792,48.961418,70.64011,90.396046,50.847359,82.164379,98.870464,110.502926,41.60986,76.828777,96.13876,109.04623,31.878285,65.288509,83.227238,95.142529,22.780151,48.500187,63.276844,75.452488,-14.331875,-13.82814,-4.319478,2.184347,14.340138,31.611901,38.647965,43.163785,31.51068,46.818804,53.042838,56.467689,43.605511,59.017413,63.63564,64.88611,51.287966,66.574293,69.897453,69.765776,-13.322096,300.414007,-70.239985,287.249683
24,-1.722039,-3.034366,0.116718,-0.014474,5.45319,9.30272,9.80848,6.107472,-2.411247,22.266381,39.258019,47.435875,-11.898571,16.901917,36.69777,50.494561,-19.419456,2.901123,21.298073,32.882287,-24.668014,-22.738266,-17.631923,-13.096458,-14.303495,-13.615287,-4.837207,3.544893,3.813236,22.858817,28.749213,30.907106,20.446845,38.275585,42.870964,42.687627,32.145708,46.195569,49.351608,50.066666,41.323005,52.795478,53.591564,52.523591,25.590844,49.223523,70.955452,90.790421,50.835869,82.238549,98.966515,110.599114,41.60614,76.868363,96.19217,109.125115,31.994992,65.438107,83.368698,95.263115,23.051777,48.797093,63.545483,75.646981,-14.317043,-13.866142,-4.475534,1.995514,14.398541,31.48861,38.424577,42.816068,31.598612,46.832809,53.024227,56.370037,43.688058,58.993058,63.59691,64.775169,51.338798,66.541861,69.83632,69.655391,-15.191534,297.322328,-70.270666,287.177896
25,-6.390094,-2.960525,0.069432,0.165985,9.271946,16.349189,18.378101,16.233947,5.564243,30.031757,46.363826,53.815006,-4.925503,24.540744,43.505092,56.396267,-14.334366,8.87899,26.960575,37.473324,-21.656376,-18.825028,-14.112889,-10.656041,-15.890962,-16.270579,-9.205122,-1.946731,3.272735,25.165145,30.585634,31.203311,20.931525,41.591286,45.529122,44.125239,33.186413,49.258242,52.190213,51.919858,42.80031,55.577334,56.62824,54.91001,25.695739,49.467979,71.364772,91.2709,50.764217,82.480945,99.380481,111.073345,41.4356,77.058162,96.441501,109.244716,31.86605,65.58284,83.515995,95.278621,23.096306,48.965343,63.796039,75.843624,-14.281796,-13.909861,-4.767996,1.627556,14.487993,31.220984,37.996301,42.209198,31.782073,46.981875,53.057769,56.205262,43.826342,59.159587,63.599145,64.541864,51.34154,66.487854,69.722798,69.455023,-21.71517,294.288604,-70.334776,287.270682
26,-7.27002,-0.014647,-0.071686,-0.194798,11.809902,22.6306,28.05138,27.991356,13.470246,38.073956,54.506962,62.670262,2.846077,32.075421,51.693707,65.457653,-7.401821,15.975472,34.691975,46.111897,-15.733154,-12.172829,-6.774055,-2.521316,-15.993369,-16.974546,-10.630222,-3.736654,1.594099,23.08528,29.246637,30.695043,19.528518,40.415533,45.304894,44.426939,32.154143,48.542888,52.491382,52.578759,42.243889,55.034449,56.751963,55.322033,25.839077,49.947739,72.020336,91.948185,50.540119,82.585041,99.67036,111.483593,41.149189,77.107303,96.699406,109.676502,31.651989,65.569404,83.755543,95.732906,23.013027,48.896141,63.868893,76.121235,-14.140943,-13.675715,-4.571642,1.754552,14.891421,31.301432,37.950803,42.060898,32.197048,47.409768,53.532433,56.659103,44.103762,59.517814,64.018826,64.852506,51.425373,66.736301,70.180504,70.008048,-29.096186,294.186012,-70.517458,286.987939
27,-9.042629,-0.562337,0.010002,-0.430647,19.541748,37.077392,47.091202,51.139503,24.942501,50.172157,66.633156,74.48053,12.102058,41.904785,61.686813,75.86158,-0.7687,23.631615,42.340668,53.744957,-11.645119,-7.968933,-4.488087,-2.048504,-21.301446,-25.697582,-23.197184,-18.817474,-2.55023,20.970354,27.572622,28.954855,17.411999,41.300936,46.376956,45.594195,31.651063,50.154154,54.784423,55.340436,42.935346,56.04707,59.044287,58.961134,26.192814,50.494606,72.668964,92.409382,50.512573,82.51363,99.685833,111.759693,41.164455,76.871487,96.573887,110.00021,31.714394,65.261318,83.692348,96.109806,22.975628,48.406528,63.358246,75.872669,-13.84338,-13.562984,-4.635455,1.708374,15.064778,31.072894,37.796599,41.976843,32.211905,47.491661,53.947407,57.406443,43.990363,59.551628,64.5574,65.720926,51.289991,67.083486,71.263038,71.703244,-38.224657,293.537993,-70.593298,286.47161
28,-4.545925,-3.105699,0.522697,-2.159931,17.768017,34.392391,43.503788,45.641807,29.26989,54.970516,69.187969,74.932102,18.654144,48.612613,65.593242,76.610767,6.594326,31.716076,48.566288,57.753788,-4.507347,0.571403,2.733925,3.370491,-17.438354,-18.788415,-14.773441,-10.360188,1.963033,24.126565,30.561711,32.465007,19.05651,42.588555,48.278485,48.485349,30.534862,49.739611,54.989655,56.190688,39.399714,52.862897,57.023751,58.775672,27.129216,51.936951,73.873066,92.869481,51.292557,82.44199,99.138119,110.961468,41.590062,75.692402,94.727818,108.25343,31.473004,62.737576,80.432339,92.538243,21.882557,44.726658,58.264355,69.461689,-13.752916,-13.173561,-4.151011,2.513822,13.917185,29.951741,37.163362,41.732781,30.753867,46.674518,53.780435,57.842352,42.573118,58.948265,65.288624,67.603919,49.958763,66.676094,72.039488,73.288094,-42.830377,290.355365,-70.130396,284.23475
29,11.84032,-2.103627,3.434693,-5.521228,7.230011,14.060852,15.851303,12.656056,15.112427,30.255272,38.877594,41.891545,9.444523,27.347157,37.088848,43.566399,1.899639,16.598214,26.822251,31.547665,-5.183372,-4.330593,-5.318103,-7.18713,-17.9576,-20.193237,-18.196216,-14.977044,3.855597,24.781181,30.940451,33.016266,20.525479,43.635854,49.318239,49.671982,31.805007,51.279049,56.701328,57.901212,39.983589,54.084469,59.072704,61.511067,24.747768,47.415447,66.077717,81.52042,48.884388,75.36953,86.760406,93.867634,40.328842,68.009262,80.514221,88.309753,30.632835,54.878597,66.033108,73.09108,20.963299,37.524731,46.416527,53.73119,-5.978786,-0.855712,10.078483,18.318062,19.243578,37.590304,45.643311,50.247422,30.861226,49.771116,58.00031,62.251344,38.532566,57.450682,65.088232,67.764989,42.530424,60.607758,67.763618,70.323914,-31.000059,288.195771,-66.705705,278.657555
30,19.074143,-3.289482,1.561844,-14.276386,-3.833348,-6.683109,-12.224179,-19.8792,-5.214237,-2.042439,1.012184,1.123775,-6.824215,-2.563935,0.249641,2.391838,-9.902367,-6.708687,-3.33617,-3.03146,-12.862026,-18.237671,-22.483887,-26.827252,-17.232897,-20.099178,-18.853932,-15.970274,6.231519,25.537698,32.902324,36.548797,22.485178,44.732678,51.935234,54.097919,33.736819,52.969874,59.351162,62.037231,41.779008,56.229679,62.221284,66.140434,24.866707,48.334362,66.778072,80.10783,48.653377,76.766739,83.964866,86.52444,41.136989,70.633621,78.73629,81.994514,32.680732,58.670242,65.400524,67.722862,24.060745,42.413944,48.18956,51.497577,-2.061488,4.021607,14.985466,23.685148,15.953589,33.924935,41.985476,46.026361,23.691435,42.096021,50.191686,53.855189,29.242167,47.481966,55.010181,57.569267,32.616481,49.230615,56.275349,59.093514,-11.883882,284.873237,-65.101827,264.348117
31,19.89735,-1.923957,1.151882,-22.38802,-13.985756,-26.535576,-39.651455,-51.693695,-24.254791,-32.688148,-36.240703,-40.303985,-21.524963,-30.318397,-35.904762,-39.939926,-19.955761,-28.261585,-32.941315,-38.067387,-18.682743,-30.339008,-39.039928,-46.954594,-16.632869,-18.935418,-15.741008,-11.254667,9.522346,27.352851,34.76295,39.13704,25.113682,45.571866,52.949076,56.218131,35.821241,54.195545,60.702322,64.073722,43.133058,57.396193,63.761759,68.454592,23.689453,47.983005,67.238823,79.0559,44.593323,76.611797,78.725956,76.531128,39.131081,71.390888,73.735737,71.595646,33.364494,61.713295,62.742119,59.878395,27.296299,47.926643,49.912948,48.857162,3.966254,9.999578,17.267873,23.007488,15.456376,29.771628,35.20927,37.509831,16.649603,31.771946,37.672741,40.379373,16.86389,31.290453,37.621007,40.382572,16.288746,28.40687,34.796839,38.184059,8.060514,283.146032,-63.902899,242.156849
32,18.977291,-2.052016,0.692081,-31.844144,-24.174053,-45.900203,-65.950733,-81.872967,-42.752941,-61.943058,-72.175415,-80.677402,-36.062599,-57.033108,-70.56689,-80.774597,-30.146335,-49.27581,-61.284954,-71.721496,-24.759006,-41.536754,-53.0247,-63.559215,-15.373111,-16.2719,-9.985338,-3.45396,12.522255,29.686202,37.068649,41.728187,27.640016,46.878233,54.424825,58.551753,38.035302,55.995694,62.585414,66.314126,44.639694,59.508144,65.731116,70.374981,19.978192,43.263737,62.719437,73.617817,39.144654,72.073494,69.361657,62.39098,36.915745,69.378434,66.012257,58.796334,34.741013,63.875794,59.291714,51.566758,32.191841,54.191391,53.664688,48.90176,-0.184689,1.291578,4.428684,9.689295,4.168054,12.632937,17.183497,19.255236,5.960885,14.881677,19.701111,22.392713,7.419053,15.293694,20.359235,23.583353,8.284324,14.345943,18.626419,21.680014,26.964037,281.410842,-63.284586,210.629531
33,20.34018,0.96653,0.191861,-39.467528,-30.971249,-58.783963,-83.169571,-100.754151,-61.446705,-92.564415,-107.126175,-117.157894,-53.29374,-87.676529,-106.113808,-118.824383,-44.183739,-75.588593,-93.063732,-105.978676,-34.754425,-58.21669,-71.547295,-82.623871,-18.379269,-21.559292,-15.252241,-7.87666,10.591838,27.388827,35.318976,40.48504,28.031056,45.827562,53.642225,58.419916,40.827718,57.351202,64.195889,68.431362,49.190909,63.894337,69.581612,73.175202,21.834228,45.626621,64.482135,72.237693,39.16373,69.427814,65.364566,56.290557,35.845356,66.043544,60.444374,49.634101,33.116775,61.306388,54.952159,44.069801,30.256359,52.556018,52.180069,46.215602,1.780245,0.933647,-0.452779,0.390034,-7.502398,-8.485878,-4.421472,-1.632694,-9.925459,-9.472149,-3.407512,0.618053,-11.276317,-11.452633,-5.677939,-1.133139,-11.722334,-13.50476,-9.643507,-5.382691,47.273312,282.866161,-63.12363,171.650792
34,3.999572,-0.186313,-4.245301,-45.996215,-28.94815,-54.177761,-76.648876,-92.448806,-61.826946,-93.960891,-109.551464,-120.637023,-54.876869,-90.277874,-109.323497,-123.335254,-46.19078,-78.529163,-96.683441,-110.043846,-36.832649,-61.525039,-75.073814,-86.382602,-16.868397,-17.991835,-7.801535,2.001948,11.650746,27.962155,36.469707,42.531769,28.858178,45.316812,53.918558,60.066984,41.405429,56.904511,64.458155,69.824365,49.74686,63.845788,69.465582,73.34951,19.170262,42.349652,63.116043,73.320717,42.753044,77.590554,77.6941,72.080544,41.137081,75.319474,71.112728,61.73798,39.599144,71.320976,64.838734,53.862957,37.319802,63.491913,62.48235,55.668572,-10.51964,-21.594805,-29.045344,-31.059204,-31.45377,-41.490472,-41.865334,-41.626564,-28.501773,-37.52935,-34.977101,-32.301073,-24.257137,-32.690261,-29.538507,-25.077614,-18.773218,-27.448213,-26.748568,-23.651192,51.259838,283.311684,-67.381977,126.286413
35,0.836495,1.027996,-3.442474,-41.595271,-27.901932,-52.6054,-74.944805,-90.887901,-61.006428,-93.353691,-109.557427,-121.309273,-54.17276,-89.8629,-109.260292,-123.993645,-45.459732,-78.387795,-96.5159,-109.70826,-35.827492,-61.088081,-74.859799,-86.160164,-16.668165,-15.645825,-1.946842,9.990352,12.389936,28.418725,36.332077,42.127391,29.372374,44.60599,52.722971,58.911177,41.483692,56.146426,63.602467,68.998008,49.303344,62.790474,68.299142,72.085603,13.810642,33.435833,53.056072,64.304874,42.393612,75.203327,77.072544,73.777759,42.883793,72.675354,67.488651,58.483257,42.362064,69.153046,60.784122,49.754959,40.330009,62.91494,60.66793,54.015743,-19.062976,-36.903183,-48.66523,-52.194869,-46.580244,-63.571419,-66.053922,-66.494005,-40.062307,-55.501925,-54.085177,-50.957648,-32.649427,-46.947657,-44.23803,-38.668306,-24.356022,-38.007735,-38.662841,-35.615168,52.062887,285.46304,-70.857897,85.814502
36,-0.173676,0.308184,-3.966763,-37.512021,-27.646248,-51.898521,-73.990081,-90.178768,-60.678611,-92.781223,-109.133583,-121.170135,-54.034584,-89.680252,-108.831894,-123.57724,-45.366783,-78.411426,-96.222004,-109.331737,-35.626968,-61.04932,-74.734256,-86.091304,-16.620025,-15.082958,-1.224597,10.217285,12.339091,28.323308,36.079172,41.758926,29.314538,44.28311,52.243442,58.433229,41.399847,55.832499,63.168498,68.750068,49.04193,62.60463,67.997331,71.811863,9.513748,25.584446,43.071865,54.742813,43.857903,72.410591,75.855515,74.168496,45.625878,70.423336,65.366867,57.363739,45.344937,67.364514,58.60231,47.973473,43.063099,62.520104,60.719159,55.252018,-29.804318,-53.512475,-66.219506,-67.763272,-64.637145,-85.950053,-86.471776,-85.245153,-52.159801,-71.499974,-68.244493,-63.594576,-38.631027,-56.335735,-52.552682,-45.815039,-24.586495,-41.232917,-43.059791,-40.568835,51.715358,287.181128,-74.998513,49.712385
37,-0.332336,-0.033827,-4.66262,-32.041251,-27.441353,-51.616814,-73.580589,-89.675823,-60.473122,-92.706059,-109.069828,-121.089352,-53.785263,-89.486149,-108.628498,-123.327896,-45.034607,-78.269131,-96.037045,-109.000477,-35.26149,-60.894253,-74.674828,-85.993698,-16.828988,-15.069558,-1.082151,10.404278,12.532135,28.358827,36.06166,41.754776,29.613917,44.236069,52.063464,58.132641,41.719122,55.822274,63.004032,68.458903,49.317559,62.725056,67.92202,71.519401,7.231819,21.836345,37.953266,49.592411,44.750004,72.328571,76.038425,74.912418,46.716934,69.812702,64.700534,57.040832,46.350094,66.275242,57.350097,46.758705,43.837074,62.299644,60.840156,56.725364,-30.611767,-55.531479,-68.802785,-70.731238,-71.639969,-95.612609,-94.548372,-91.998345,-60.580798,-81.220644,-76.370354,-70.470478,-47.914121,-66.986551,-61.790637,-53.965427,-34.073501,-53.305976,-55.467574,-53.095555,50.862906,288.669974,-80.181249,19.193807
38,-0.040215,-0.086908,-6.258144,-23.179555,-27.408737,-51.567695,-73.534092,-89.456142,-60.465568,-92.624118,-108.932098,-120.899391,-53.699386,-89.305332,-108.408428,-123.066066,-44.842117,-78.044963,-95.737758,-108.622673,-35.054901,-60.725578,-74.50399,-85.778343,-16.841597,-15.014217,-0.880993,10.834987,12.639495,28.485441,36.135366,41.829445,29.780421,44.288199,51.963059,57.899052,41.913611,55.932449,62.930907,68.223276,49.518817,62.870997,67.923552,71.371756,-1.158326,9.399284,25.170467,39.909393,37.77325,69.520271,71.737609,68.992721,45.477779,71.232959,64.890723,56.841018,50.660865,72.251895,62.051959,51.25391,53.200664,73.517875,72.942466,70.765823,-37.259637,-65.756631,-80.001185,-79.056329,-77.883979,-99.257538,-97.82567,-95.377328,-63.819761,-83.160552,-79.944492,-75.185418,-48.134619,-67.042379,-63.695945,-57.101044,-31.622108,-50.964622,-56.537356,-57.561048,49.936946,290.136728,-87.325138,-2.432086
39,0.193474,0.069544,-4.680966,-14.780832,-27.391823,-51.54602,-73.574798,-89.508922,-60.453975,-92.575092,-108.835247,-120.766525,-53.696388,-89.238499,-108.308178,-122.921676,-44.872146,-77.980259,-95.626648,-108.447704,-35.177147,-60.803627,-74.557411,-85.725986,-17.017438,-15.160344,-0.834508,10.982656,12.839812,28.551291,36.105737,41.749379,30.083565,44.365547,51.768791,57.488411,42.207728,56.113637,62.85777,67.90142,49.693236,62.955026,67.882833,71.174006,-1.616364,8.387981,23.596767,37.994396,30.409756,61.893402,62.176151,57.011101,39.562603,65.901558,60.894436,53.552296,47.496323,70.769005,63.580879,54.274464,53.411785,75.657669,80.169868,82.35022,-37.783095,-65.667376,-80.947392,-81.273941,-78.813292,-99.289272,-94.010778,-88.228606,-66.300596,-84.667274,-78.83354,-72.439581,-51.609105,-70.846093,-65.952873,-58.635307,-36.079333,-56.540418,-63.551962,-66.774679,49.116806,291.663952,-93.019718,-15.755238
40,0.424164,0.163997,-3.202938,-11.245347,-27.377975,-51.572777,-73.749962,-89.857841,-60.479839,-92.672058,-108.900181,-120.8325,-53.742485,-89.360458,-108.420055,-123.007484,-44.950676,-78.12228,-95.782917,-108.580307,-35.360138,-61.053394,-74.82589,-85.906208,-17.270615,-15.411952,-0.936668,10.908506,12.919742,28.52044,36.004256,41.654147,30.257232,44.323717,51.447022,56.971238,42.397227,56.179635,62.697638,67.545206,49.80388,62.97307,67.755207,70.917359,-2.360897,6.72969,21.521114,35.864746,24.53099,55.683964,54.806995,47.858414,35.167271,61.497696,57.712574,50.839325,45.321892,69.272606,64.48436,56.262684,53.76939,77.153705,85.802574,91.585205,-38.007286,-65.373296,-81.475628,-82.637371,-79.669776,-98.19532,-90.452466,-82.634654,-68.326147,-85.146747,-77.736805,-70.479199,-54.295573,-72.871632,-66.917503,-59.25454,-39.433654,-60.032703,-68.367277,-73.77058,48.533077,292.795541,-97.230549,-26.032993
41,0.277153,-0.127503,-1.900463,-7.601403,-27.448906,-51.649292,-73.897785,-90.120003,-60.427975,-92.701447,-108.930542,-120.917324,-53.672081,-89.367805,-108.489521,-123.137123,-44.886063,-78.092789,-95.823429,-108.696579,-35.342926,-61.026798,-74.851524,-85.992062,-17.306689,-15.31567,-0.69836,11.17039,13.148454,28.634556,36.047273,41.676564,30.524501,44.515835,51.492829,56.86593,42.660643,56.465022,62.839652,67.526768,50.007682,63.236621,67.949351,71.018149,-3.172474,4.691459,18.877945,33.193657,20.256271,50.496403,49.424068,41.62603,32.287342,57.754795,55.282093,48.957962,44.115223,67.598717,64.787922,57.483478,54.256061,77.702144,89.324135,97.722107,-38.054322,-64.596964,-81.29091,-83.428852,-80.374331,-96.162787,-87.302622,-78.662899,-69.880947,-84.800162,-76.889823,-69.64193,-56.156047,-73.267834,-66.813675,-59.239283,-41.584963,-61.534465,-71.151005,-78.688446,47.963957,293.141037,-99.977285,-33.161397
42,0.709854,0.226192,-1.232105,-3.914649,-27.490127,-51.811455,-74.328232,-90.828003,-60.474151,-92.983452,-109.331726,-121.462486,-53.691856,-89.64117,-108.863479,-123.615955,-44.957748,-78.372013,-96.262436,-109.265694,-35.562584,-61.425247,-75.370273,-86.535553,-17.420606,-15.502923,-0.952525,10.885498,13.041168,28.307599,35.641202,41.286264,30.425367,44.257138,51.051511,56.365443,42.554852,56.261381,62.481154,67.10379,49.90299,63.081319,67.665027,70.672704,-4.063202,2.46136,16.148506,30.311336,17.106571,46.417682,46.173191,38.374214,30.445415,54.826618,53.749099,47.928337,43.475395,65.822078,64.484893,57.776767,54.662876,77.493644,91.19926,101.56517,-37.738555,-63.33047,-79.977893,-82.969503,-81.123239,-92.982221,-84.250114,-75.971977,-71.105828,-83.496512,-75.945548,-69.433899,-57.276157,-72.005519,-65.511815,-58.482537,-42.5468,-60.83185,-71.307863,-80.738164,48.23327,293.614419,-101.649931,-36.828856
43,0.339432,0.103321,0.015197,-4.207223,-27.444832,-51.734596,-74.408878,-91.201424,-60.424015,-93.223801,-109.623608,-121.786606,-53.671028,-89.91354,-109.208485,-123.953419,-45.019798,-78.610737,-96.636498,-109.696598,-35.738663,-61.680496,-75.693089,-86.839657,-17.570277,-15.632475,-1.164848,10.589269,12.832007,28.048605,35.422123,41.101704,30.260382,44.082964,50.826962,56.093061,42.416938,56.150909,62.358826,66.965901,49.753789,62.985976,67.526694,70.499358,-5.214019,0.568611,13.775368,27.442784,15.13044,42.351116,41.639534,33.971455,28.93618,51.514996,50.15292,44.493267,42.342167,63.196118,61.487675,54.860642,53.729302,76.313565,90.372334,101.399208,-36.908375,-61.593992,-77.713307,-81.359064,-79.505242,-90.014421,-81.056604,-72.904506,-69.577276,-80.676555,-73.250333,-66.983691,-55.953542,-69.26393,-62.748107,-55.777486,-41.664454,-59.219762,-69.494241,-79.03203,48.153168,293.745654,-102.054268,-41.008165
44,0.306198,-0.012585,-0.954197,-2.418226,-27.500885,-51.806763,-74.612125,-91.536461,-60.400154,-93.395004,-109.869839,-122.122147,-53.618202,-90.059967,-109.37019,-124.168774,-44.98455,-78.743031,-96.828712,-109.937279,-35.817375,-61.88229,-75.945213,-87.125244,-17.601646,-15.685988,-1.336057,10.462434,12.65676,27.885276,35.269439,40.878279,30.13104,43.910138,50.655024,55.918543,42.355744,56.002387,62.192533,66.79447,49.774772,62.969674,67.442145,70.375598,-6.966842,-1.348285,12.377152,25.753189,11.929333,38.02335,36.740204,29.279389,26.284436,47.880535,45.889447,40.164872,40.172242,59.957692,57.830407,51.330071,51.96381,74.046009,88.044995,99.216534,-35.437919,-59.66909,-75.209421,-78.238217,-77.093611,-87.201505,-77.806106,-69.504998,-67.686084,-78.364342,-70.751195,-64.255879,-54.691062,-67.5329,-60.833344,-53.59075,-41.054502,-58.188074,-67.921001,-76.582651,47.677523,293.709366,-103.790308,-43.450094
45,0.196449,-0.024577,-3.342521,-1.618793,-27.506744,-51.786461,-74.659778,-91.693714,-60.470524,-93.546444,-110.057018,-122.352264,-53.609482,-90.147823,-109.461376,-124.266506,-44.919594,-78.699005,-96.813389,-109.959102,-35.765052,-61.905018,-76.008121,-87.255443,-17.597965,-15.70839,-1.513193,10.283062,12.477103,27.744819,35.117151,40.645369,29.998622,43.808892,50.563597,55.801032,42.297427,55.963608,62.174465,66.747009,49.781083,62.983889,67.39808,70.252592,-8.273735,-3.026654,10.38668,23.412311,9.204563,33.553196,31.908428,24.893795,23.840618,44.205585,41.812374,36.273525,38.074344,56.581695,53.934242,47.424133,50.367313,71.658062,85.368267,96.281971,-33.670036,-57.507813,-72.638165,-75.693161,-74.399966,-84.9298,-75.191785,-66.824555,-65.366325,-76.064732,-68.302748,-61.902954,-52.902801,-65.804691,-58.837114,-51.368556,-39.928342,-57.484799,-67.034339,-75.155735,46.383287,293.733371,-108.623514,-45.020305
46,0.404091,0.156291,-5.555683,-0.58963,-27.522171,-51.801452,-74.823166,-91.935825,-60.462055,-93.68193,-110.303364,-122.699158,-53.60749,-90.283619,-109.647239,-124.515278,-44.960083,-78.853935,-97.044033,-110.25087,-35.911217,-62.211868,-76.394897,-87.678108,-17.710525,-15.977166,-1.95471,9.931565,12.253776,27.44891,34.815351,40.324217,29.888644,43.580291,50.238505,55.416907,42.284039,55.832042,61.942579,66.419694,49.830532,62.928301,67.223758,69.941999,-9.503884,-4.951241,7.703407,20.071369,6.383731,29.000461,27.125415,20.577701,21.15224,40.53392,37.910511,32.497478,35.449802,52.879909,49.757389,43.248149,48.03543,68.147872,80.914455,90.757118,-31.797381,-55.66817,-70.967711,-74.522657,-71.486075,-83.298824,-73.488634,-64.848789,-63.063621,-74.487046,-66.781045,-60.359404,-51.313469,-64.840008,-57.781151,-50.174915,-39.0076,-56.903888,-66.268054,-73.695535,45.093653,293.924943,-115.872922,-45.574654
47,0.235314,0.188388,-7.512669,0.132454,-27.513268,-51.684311,-74.703438,-91.742077,-60.324624,-93.600106,-110.286988,-122.744625,-53.540543,-90.317952,-109.78394,-124.703408,-44.969422,-78.928791,-97.182702,-110.433838,-36.020897,-62.39906,-76.62917,-87.971638,-17.736719,-16.176966,-2.355247,9.554221,12.013617,27.1594,34.510774,39.949787,29.769355,43.334241,49.90919,54.933932,42.279358,55.688003,61.721994,66.053749,49.907584,62.920508,67.061787,69.575782,-10.576424,-6.861946,4.800945,16.615517,2.983784,24.499901,22.790062,16.844421,17.900196,36.834389,34.405071,29.311283,32.368801,49.085964,45.906658,39.661068,45.326626,63.93655,75.25716,83.546116,-30.213791,-54.196632,-70.0799,-74.457479,-68.327911,-82.898724,-73.154898,-64.236749,-60.436573,-73.843285,-66.277847,-59.982269,-49.378754,-64.682871,-57.86121,-50.334032,-37.759876,-56.685569,-66.089595,-72.915084,43.402251,294.144497,-125.312307,-45.411034
48,0.217598,0.327351,-7.824795,1.010669,-27.500382,-51.5663,-74.540715,-91.466069,-60.13456,-93.446263,-110.253022,-122.856469,-53.420266,-90.276215,-109.861668,-124.855431,-44.918908,-78.970139,-97.264206,-110.5112,-36.069077,-62.566235,-76.806817,-88.126397,-17.740436,-16.352793,-2.727071,9.134393,11.760514,26.853093,34.167294,39.542432,29.544312,43.030021,49.538564,54.457367,42.126959,55.374262,61.349652,65.581037,49.849848,62.709729,66.690791,69.018152,-11.682232,-8.713222,2.029301,13.343136,-0.926639,20.244141,19.010594,13.342209,14.260712,33.082581,30.962242,25.832749,29.126061,45.369461,42.489418,36.30613,42.613621,59.449036,69.141964,75.648434,-28.939207,-53.003608,-69.262812,-74.552964,-66.915265,-83.586778,-73.735654,-64.816937,-59.42407,-74.467359,-66.609391,-60.105893,-48.74362,-65.579907,-58.54375,-50.94467,-37.489261,-57.598394,-66.905799,-73.1665,41.600087,294.490679,-135.156864,-44.381534
49,0.009292,0.283657,-6.819019,0.312729,-27.425194,-51.437645,-74.29953,-91.090874,-60.178299,-93.365066,-110.134449,-122.697281,-53.476387,-90.230427,-109.80756,-124.719875,-44.977157,-78.947536,-97.230995,-110.461006,-36.089882,-62.594547,-76.885734,-88.267193,-17.739498,-16.418336,-2.900689,8.957156,11.606434,26.651823,33.978535,39.358181,29.368101,42.869532,49.338221,54.140032,41.954613,55.199706,61.168476,65.344372,49.67539,62.485649,66.478567,68.802963,-12.194195,-10.101826,-0.513989,10.315624,-3.321762,18.722294,18.69112,13.016773,11.60955,31.60754,30.732742,25.610905,26.542408,43.486942,41.587875,35.546551,40.424881,56.735607,65.71772,71.20689,-28.095795,-52.656231,-70.262706,-77.18875,-66.319992,-84.488377,-74.822949,-65.92687,-58.521051,-75.434093,-67.482048,-60.894323,-47.609537,-66.08689,-58.939978,-51.438291,-36.265115,-57.485045,-67.166374,-73.850831,39.975345,294.83733,-143.609917,-44.005811
50,-0.162208,0.327104,-3.872566,0.54065,-27.351654,-51.308899,-74.07367,-90.789254,-60.097241,-93.231926,-110.005257,-122.522839,-53.437912,-90.170346,-109.733391,-124.545445,-44.996384,-78.970311,-97.243756,-110.427876,-36.170174,-62.734486,-77.08651,-88.497494,-17.79721,-16.571415,-3.1314,8.729372,11.441969,26.407428,33.742018,39.085924,29.222395,42.728618,49.120106,53.750239,41.806684,55.038476,60.938654,65.019034,49.509949,62.230571,66.191946,68.497176,-11.151169,-8.747326,0.533191,10.674568,-3.127911,20.309841,23.676521,20.852863,10.895679,32.616783,35.694019,33.829628,25.268772,43.894912,45.724868,43.144535,39.181034,55.233135,63.961933,69.613529,-28.325272,-53.605823,-72.55645,-81.686706,-65.848015,-84.848598,-78.081846,-70.726397,-57.866398,-76.649317,-71.489027,-66.389727,-46.722461,-67.127342,-62.74946,-57.359266,-34.832457,-56.447194,-66.125892,-72.830264,38.791804,295.246729,-148.503816,-43.382866
51,-0.299561,0.351928,2.985866,-2.140517,-27.245888,-51.16262,-73.823788,-90.528568,-60.161419,-93.163834,-109.863762,-122.284023,-53.54789,-90.17181,-109.679558,-124.368164,-45.12085,-79.041355,-97.243812,-110.310448,-36.274086,-62.811275,-77.139507,-88.506168,-17.883228,-16.750812,-3.383453,8.41626,11.206094,26.144717,33.504625,38.808998,28.980617,42.535042,48.924802,53.42842,41.565215,54.797686,60.695517,64.705552,49.281571,61.93696,65.909562,68.214569,-6.575397,-1.558239,8.223004,17.6735,4.312168,32.742291,39.707337,38.910084,14.645588,42.625145,48.519448,47.942311,25.886341,50.241188,54.232235,52.666969,37.110535,56.425507,64.798508,69.847035,-29.240851,-54.449543,-72.652274,-81.790075,-67.855632,-86.528169,-81.408498,-75.20674,-59.093205,-77.931459,-73.74588,-68.954591,-47.031151,-67.396215,-63.907298,-59.23956,-33.885853,-54.953081,-63.139314,-68.61983,37.684856,295.701314,-146.325337,-45.420726
52,-0.48452,0.12024,14.165131,-3.909329,-27.203293,-51.082031,-73.612713,-90.358234,-60.395599,-93.184524,-109.82349,-122.185203,-53.786201,-90.17886,-109.60112,-124.187519,-45.324829,-79.092178,-97.208919,-110.184196,-36.389099,-62.794189,-77.080845,-88.439564,-17.941372,-16.829642,-3.477783,8.201752,11.082569,26.025712,33.399143,38.684225,28.787968,42.420804,48.853333,53.316554,41.341889,54.60941,60.578031,64.61841,49.049094,61.69501,65.781319,68.188918,-3.652353,2.555986,11.004015,18.102053,14.714143,45.182047,53.392278,53.193014,22.686945,53.561216,59.543815,58.743805,30.571918,56.361431,59.243648,57.028341,37.793329,56.572975,62.370952,65.457178,-31.032956,-56.723947,-74.928768,-84.878502,-71.480713,-90.291897,-88.583927,-84.515045,-61.754285,-81.499624,-79.483072,-75.601347,-48.494759,-68.816624,-66.809607,-62.986074,-33.972196,-54.023005,-61.085894,-65.389848,37.126058,295.8487,-132.234484,-49.302909
53,-0.449226,-0.069333,23.730926,-5.61126,-27.204895,-51.143624,-73.583416,-90.322186,-60.669079,-93.198384,-109.792122,-122.132344,-54.029434,-90.116078,-109.405552,-123.936734,-45.517182,-79.116841,-97.144821,-110.113289,-36.4571,-62.786579,-77.068096,-88.521561,-17.985758,-16.869459,-3.564493,7.976041,11.125053,25.984475,33.354201,38.582991,28.811594,42.414073,48.917973,53.392691,41.331836,54.536124,60.551997,64.665353,49.037299,61.60914,65.839796,68.412256,-2.30314,3.661051,8.929476,11.883059,27.617346,57.440443,64.701868,64.002028,34.579302,65.325125,69.029217,66.90897,38.941384,62.12098,60.656903,56.332816,41.117872,55.52702,56.280877,55.843146,-33.924747,-60.866257,-79.95238,-91.494833,-75.915396,-96.467392,-99.990274,-98.777961,-64.97774,-87.368356,-88.668004,-86.328437,-50.241709,-71.41619,-71.653921,-68.936665,-34.248035,-53.406946,-59.916928,-63.137039,36.961968,295.949057,-108.218422,-54.744479
54,-0.309105,0.083931,24.167272,-4.050155,-27.104714,-51.028977,-73.483944,-90.348931,-60.634369,-93.150719,-109.769097,-122.150059,-54.103661,-90.167027,-109.45221,-124.046345,-45.635399,-79.254948,-97.297199,-110.326115,-36.562752,-62.942608,-77.218117,-88.70921,-18.087634,-17.145236,-3.936848,7.38099,10.834419,25.633498,33.001384,38.256789,28.556256,42.039582,48.560413,53.101267,41.134926,54.155791,60.188868,64.3845,48.946847,61.345132,65.576591,68.197612,-0.139532,6.185206,8.929853,8.790326,40.769105,69.175612,75.324423,74.693533,46.82508,76.627441,78.112172,75.373189,47.84317,68.078839,62.777493,57.103848,45.142498,55.319087,51.376447,47.749531,-35.863625,-62.966525,-81.626062,-93.578676,-77.754374,-99.732335,-107.868957,-109.425545,-66.229682,-90.27966,-94.882633,-94.148879,-50.81626,-72.170953,-74.732199,-73.136141,-34.180058,-52.180019,-57.774408,-59.312609,36.983008,296.102812,-83.721005,-58.72481
55,-0.141129,-0.044929,23.741133,-3.119209,-27.129226,-51.018127,-73.36425,-90.217643,-60.652977,-93.025463,-109.665733,-122.112373,-54.23822,-90.069248,-109.309524,-123.99432,-45.825256,-79.334427,-97.326336,-110.41943,-36.670578,-62.933361,-77.145378,-88.677601,-18.116324,-17.275086,-4.079097,6.971918,10.656787,25.337663,32.705982,37.966907,28.379958,41.711983,48.325304,53.021114,40.982353,53.76081,59.867852,64.223861,48.897125,61.118569,65.447866,68.188263,1.529978,8.185267,8.907366,6.352983,52.041828,79.503509,83.125528,80.408529,57.545434,86.884412,84.38711,78.601,55.827415,73.52915,63.178768,54.044827,48.619365,55.522931,47.552024,40.633975,-36.44202,-62.592076,-80.230177,-91.651651,-77.674337,-100.620421,-110.326656,-112.91433,-65.918435,-90.742729,-95.703593,-94.897012,-50.391217,-70.875728,-73.099075,-70.858056,-33.97643,-50.423399,-55.02174,-55.034109,37.238851,296.139307,-59.5829,-61.762595
56,-0.145019,-0.098307,19.403404,0.382638,-27.092629,-50.982285,-73.194592,-90.058342,-60.522423,-92.807019,-109.493752,-122.009297,-54.218193,-89.890675,-109.104973,-123.856613,-45.860619,-79.227997,-97.208359,-110.409371,-36.623154,-62.76178,-76.960018,-88.570587,-18.1141,-17.315804,-4.105217,6.579346,10.58081,25.145583,32.483236,37.721882,28.299498,41.502563,48.155256,52.996525,40.884207,53.46636,59.644921,64.191011,48.831608,60.852808,65.253229,68.134503,0.877367,6.787451,5.975961,1.993065,57.231344,81.024373,82.58951,79.233015,64.670804,89.804009,85.254894,79.204906,62.933956,75.176299,62.545166,53.218639,54.241818,55.960355,45.827849,38.10487,-35.731952,-60.865171,-78.583308,-90.889528,-73.336324,-96.984304,-109.040338,-113.200054,-61.980753,-88.028626,-94.903744,-95.438206,-47.331093,-67.926023,-71.573874,-70.225901,-32.321067,-47.781907,-52.702465,-52.702565,37.313061,296.3471,-39.960267,-61.073857
57,-0.064888,-0.04819,11.122784,3.236397,-26.98851,-50.840081,-72.984925,-89.823235,-60.362412,-92.604252,-109.279072,-121.821888,-54.1344,-89.705395,-108.850182,-123.636406,-45.794289,-79.057869,-97.036606,-110.360688,-36.495529,-62.623169,-76.857193,-88.584595,-18.20002,-17.478726,-4.271214,6.243708,10.420728,24.849391,32.148228,37.385651,28.217901,41.234603,47.863559,52.790328,40.85101,53.187384,59.326832,63.940069,48.880576,60.66752,65.045784,67.967258,3.019352,10.453033,10.732212,7.705577,61.584067,84.354082,86.562939,84.588833,69.170028,93.335029,90.013414,85.895372,67.316723,78.876253,68.142872,61.011927,58.28037,59.759339,51.022102,44.904058,-33.334805,-56.21069,-72.840367,-84.860766,-65.430205,-87.678477,-100.081868,-104.817887,-55.064389,-79.837247,-87.507905,-88.896864,-42.135416,-61.383877,-65.694296,-65.115558,-29.185936,-43.208868,-48.065158,-48.224734,36.822762,296.906398,-29.262894,-57.229972
58,-0.027924,0.047708,2.842165,6.090156,-26.857269,-50.58847,-72.695011,-89.55368,-60.084732,-92.474029,-109.174187,-121.734787,-53.92868,-89.613991,-108.772487,-123.58556,-45.632973,-78.923378,-96.96064,-110.385635,-36.354881,-62.486515,-76.778629,-88.571205,-18.269946,-17.721676,-4.582942,5.858608,10.096316,24.41678,31.674738,36.913149,27.943507,40.864855,47.403334,52.34433,40.647777,52.915769,58.999753,63.642396,48.742145,60.442526,64.75662,67.671264,7.955932,19.182014,23.176117,23.490519,65.099994,89.492634,95.045814,96.475982,71.043107,97.477471,98.66267,98.672398,68.975715,84.629009,79.971885,77.424692,60.735021,66.919882,63.134782,61.031537,-29.250579,-48.628635,-63.001356,-73.565365,-53.955979,-72.702941,-83.451244,-87.767828,-45.169341,-66.168592,-73.516075,-75.272985,-34.804186,-51.249291,-55.460343,-55.527029,-24.571036,-36.704282,-41.109821,-41.600617,36.243673,297.511956,-26.971894,-50.581966
59,0.032112,-0.027182,2.842164,6.090157,-26.724151,-50.352081,-72.359092,-89.136291,-59.839702,-92.254577,-109.074211,-121.74131,-53.816665,-89.462093,-108.746361,-123.70372,-45.609329,-78.812931,-96.934066,-110.487602,-36.318123,-62.261936,-76.550823,-88.420509,-18.273318,-17.856935,-4.848717,5.423242,9.958291,24.11156,31.256292,36.379847,27.736272,40.532847,47.047342,52.012384,40.427093,52.623343,58.714749,63.395764,48.551311,60.229363,64.572677,67.533906,12.892514,27.910996,35.620022,39.275461,68.615922,94.631187,103.528691,108.363133,72.916187,101.619914,107.311928,111.449425,70.634709,90.381767,91.8009,93.837458,63.189673,74.080427,75.247463,77.159018,-25.166354,-41.04658,-53.162346,-62.269965,-42.481754,-57.727406,-66.820622,-70.71777,-35.274295,-52.499938,-59.524246,-61.649106,-27.472957,-41.114706,-45.22639,-45.938501,-19.956137,-30.199697,-34.154484,-34.976501,35.656488,298.125537,-24.749027,-43.851046
60,0.04953,0.17794,2.842165,6.090156,-26.392273,-50.003494,-72.056808,-88.775161,-59.738525,-92.244941,-109.127746,-121.823238,-53.799568,-89.543541,-108.957802,-123.974762,-45.615852,-78.801979,-97.000019,-110.583172,-36.30336,-62.186405,-76.486232,-88.350048,-18.406699,-18.207307,-5.451648,4.717954,9.718835,23.737229,30.755336,35.763368,27.409847,40.054528,46.530454,51.509267,40.096481,52.231413,58.25298,62.890176,48.244535,59.846461,64.134385,67.08671,17.829094,36.639977,48.063927,55.060403,72.131849,99.76974,112.011566,120.250282,74.789265,105.762356,115.961184,124.22645,72.293701,96.134524,103.629913,110.250222,65.644324,81.24097,87.360142,93.286498,-21.082129,-33.464524,-43.323335,-50.974564,-31.007528,-42.75187,-50.189998,-53.667711,-25.379247,-38.831283,-45.532416,-48.025227,-20.141727,-30.98012,-34.992437,-36.349971,-15.341237,-23.695111,-27.199147,-28.352384,35.080232,299.18664,-22.532648,-36.877727
61,0.244698,0.328561,1.569852,5.494261,-26.100952,-49.743508,-71.978886,-88.742397,-59.608738,-92.364784,-109.331314,-122.025868,-53.819504,-89.853893,-109.443249,-124.50903,-45.7397,-79.20884,-97.541577,-111.083279,-36.529106,-62.552353,-76.851998,-88.578964,-18.667964,-18.628222,-6.113933,4.024917,9.232403,23.096606,30.005662,34.931912,26.907372,39.358478,45.765268,50.730953,39.63097,51.589567,57.517533,62.116617,47.838897,59.328821,63.537012,66.459141,22.289703,43.703453,57.533889,66.967836,74.059161,102.498867,116.794624,127.062355,75.178887,107.428292,120.591152,131.141094,72.257583,99.051975,110.896064,120.557085,65.945905,85.006697,94.681748,103.304822,-18.352076,-28.441783,-36.407708,-43.203016,-22.584208,-33.38454,-40.432018,-44.146788,-18.027393,-30.380758,-37.683053,-41.10111,-15.031427,-25.222907,-30.384403,-32.961404,-12.820495,-20.990612,-24.952665,-27.018585,34.8515,300.292843,-21.436226,-30.605824
62,0.308464,0.130022,0.037585,4.647034,-25.889809,-49.606682,-71.980465,-88.806999,-59.412518,-92.462174,-109.536209,-122.190067,-53.797257,-90.172531,-109.96518,-125.073521,-45.827087,-79.666718,-98.133728,-111.599304,-36.671997,-62.844212,-77.116596,-88.722164,-18.788069,-18.782808,-6.435825,3.531012,8.843054,22.642975,29.500333,34.329215,26.464028,38.846332,45.289827,50.28488,39.224529,51.124129,57.035002,61.648808,47.52145,58.973138,63.212032,66.219944,26.418457,49.702137,64.991364,76.108903,74.08872,102.530925,117.787354,128.741936,73.574132,105.969403,120.701418,132.120379,69.739929,98.054591,112.656372,123.989312,63.009551,84.084324,96.335561,106.901534,-14.430492,-23.182494,-30.281691,-37.028619,-16.712527,-27.931392,-35.299118,-39.81982,-13.38595,-26.154075,-34.496503,-39.219532,-12.332492,-23.073526,-29.86564,-34.096637,-12.334542,-21.285702,-25.932911,-29.070301,34.758265,300.825178,-21.80034,-25.556477
63,0.587631,0.088353,-1.062242,3.6362,-25.713066,-49.620552,-72.150627,-89.001697,-59.461784,-92.657593,-109.809379,-122.442707,-53.993591,-90.528396,-110.503944,-125.700577,-46.100372,-80.176266,-98.736648,-112.131592,-36.970299,-63.27071,-77.518764,-89.0518,-18.870605,-18.856613,-6.632242,3.183579,8.58858,22.361096,29.194248,34.009755,26.117003,38.445769,44.963155,50.040681,38.878504,50.683725,56.588374,61.235833,47.257219,58.639858,62.898327,65.983946,28.594105,52.418587,68.052784,79.821237,70.851365,98.195381,112.799595,123.01862,69.119677,100.311717,115.135131,125.991798,64.862835,93.177558,108.705494,120.275621,58.138548,79.948201,93.181384,104.272223,-11.624766,-19.630264,-26.390115,-33.307607,-13.286931,-24.125419,-31.652965,-36.668641,-10.865011,-23.350866,-32.35207,-38.1957,-10.996353,-21.661343,-29.562249,-35.070001,-12.165346,-21.105318,-26.124639,-30.102923,35.012787,300.713231,-23.195691,-22.120577
64,0.772385,-0.034173,-6.247594,2.357075,-25.547425,-49.642754,-72.419312,-89.405136,-59.468788,-92.878601,-110.110382,-122.753002,-54.049118,-90.871353,-110.954956,-126.154186,-46.195954,-80.643746,-99.282063,-112.581413,-37.135025,-63.746819,-78.035797,-89.471398,-18.97106,-18.853747,-6.664981,3.115543,8.479381,22.239349,29.13072,34.046003,26.011398,38.358121,44.947124,50.112695,38.77275,50.57276,56.465367,61.193547,47.176549,58.491966,62.72781,65.883268,29.883356,53.646744,68.980214,80.707109,67.899431,94.08898,107.340392,115.928656,65.283466,95.225453,109.124182,118.365475,60.592023,88.372639,103.361979,113.885702,53.696128,75.452254,88.4132,98.821661,-9.121407,-16.949185,-23.61186,-30.609764,-12.370269,-23.299417,-31.073809,-36.450606,-10.518185,-23.185242,-32.528948,-39.11775,-11.100671,-21.919714,-30.484164,-36.79277,-12.503978,-21.534737,-26.777321,-31.254188,35.240524,299.499351,-29.987933,-20.943209
65,0.952675,-0.120302,-11.432945,1.077949,-25.639824,-49.87294,-72.800789,-89.887539,-59.358296,-92.943318,-110.25063,-122.966824,-54.006661,-91.086216,-111.301026,-126.624802,-46.2193,-81.025395,-99.768208,-113.095803,-37.259514,-64.14972,-78.487015,-89.925957,-18.933393,-18.695691,-6.491068,3.258618,8.332353,22.247623,29.199695,34.157154,25.894257,38.363468,45.01463,50.215126,38.695834,50.552678,56.48798,61.28243,47.166162,58.509528,62.74505,65.935743,30.286211,53.386608,67.773651,78.766517,65.232917,90.211721,101.409742,107.472044,62.065495,90.71061,102.66857,109.241409,56.927493,83.639831,96.625826,104.819555,49.68229,70.596479,82.031007,90.549849,-6.920412,-15.139256,-21.946927,-28.93509,-13.96254,-25.453385,-33.56165,-39.165713,-12.345473,-25.657204,-35.027138,-41.98568,-12.645444,-23.848636,-32.631383,-39.264941,-13.350437,-22.573959,-27.890955,-32.524095,35.636015,297.461921,-41.978062,-21.782388
66,1.020355,-0.423398,-15.345983,0.39472,-25.802261,-50.137024,-73.081741,-90.190178,-59.242115,-92.674736,-110.103333,-123.078953,-53.877411,-90.85096,-111.218765,-126.81871,-46.111885,-80.899532,-99.741486,-113.290295,-37.200188,-64.129784,-78.560898,-90.236229,-18.638362,-18.286903,-6.015775,3.662688,8.618554,22.753359,29.75472,34.715168,26.126908,38.788682,45.464939,50.642031,38.94722,51.004482,57.00451,61.825463,47.457884,58.975719,63.318687,66.592027,30.27864,53.303684,67.407039,77.87697,64.440439,88.97303,98.707466,102.723861,60.949224,89.243694,99.787582,104.481983,55.564355,81.814441,93.059898,99.183082,48.250104,68.775695,78.82588,85.56594,-3.667611,-11.641164,-18.471932,-24.759733,-15.012841,-24.97912,-32.243846,-37.284828,-13.803681,-25.548622,-33.704175,-40.09973,-13.409745,-23.070739,-30.377989,-36.286556,-12.610568,-20.422899,-24.756689,-28.622326,36.128786,294.660517,-57.851629,-23.765674
67,0.839584,-0.110052,-18.99907,-0.03718,-25.86058,-50.240387,-73.135998,-90.286606,-59.218277,-92.479831,-109.941158,-123.105205,-53.759193,-90.540092,-110.91077,-126.643867,-45.983894,-80.483356,-99.325767,-113.038124,-37.097625,-63.879352,-78.37762,-90.207893,-18.574931,-18.153065,-5.759436,3.806296,8.900433,23.168026,30.262173,35.342602,26.393423,39.24051,45.957016,51.21594,39.163198,51.440786,57.535181,62.460171,47.540136,59.170949,63.580694,66.914513,29.71653,52.797261,66.918927,76.927328,65.831137,90.660553,99.324074,101.741524,62.445574,91.473027,100.981636,104.160176,57.289038,83.976002,93.607178,97.745018,50.484438,71.283188,79.67454,84.182396,-1.908706,-9.250768,-15.320648,-20.010391,-16.020435,-23.570642,-29.367956,-33.143129,-14.72559,-23.853783,-30.039708,-35.11712,-13.203134,-20.355561,-25.260627,-29.533771,-10.343735,-15.882052,-18.856647,-21.453684,36.726665,291.996941,-77.092404,-26.356378
68,0.435585,0.0453,-23.927112,-0.920869,-25.948929,-50.298843,-73.091606,-90.307823,-59.091636,-92.210712,-109.66904,-122.937732,-53.560112,-90.208133,-110.528675,-126.289364,-45.795181,-80.083374,-98.908367,-112.737064,-36.936538,-63.610439,-78.158809,-90.091667,-18.612821,-18.104158,-5.5513,3.929204,9.129935,23.458821,30.594156,35.691986,26.707029,39.627969,46.322319,51.587184,39.456476,51.859096,58.02827,62.994498,47.702576,59.415197,63.902217,67.27663,30.295086,54.103935,68.757036,79.207895,66.407484,89.919937,97.817459,99.426555,61.632557,89.310923,97.681589,99.830126,55.05958,80.17551,88.487657,91.334226,47.314407,66.406494,73.534349,76.602024,-0.408782,-7.726631,-13.619488,-17.385455,-18.858178,-25.955754,-29.599683,-31.562911,-17.656894,-25.809551,-29.150863,-32.055886,-15.139972,-21.506878,-23.652624,-25.820595,-10.498638,-15.216271,-16.930092,-18.218224,37.202013,289.981617,-100.979753,-29.337871
69,0.027329,-0.013239,-24.769633,-1.536265,-26.146065,-50.440018,-73.005673,-90.171261,-59.076828,-91.948288,-109.290104,-122.571774,-53.43908,-89.74926,-109.942417,-125.681179,-45.594956,-79.512131,-98.276379,-112.214596,-36.627823,-63.060631,-77.635563,-89.712616,-18.545279,-17.979917,-5.322219,4.002835,9.343776,23.821642,31.010538,36.112629,26.969851,40.063779,46.783224,52.063674,39.74611,52.28605,58.582035,63.583424,47.962002,59.817266,64.405075,67.772547,30.9476,55.429768,70.659308,82.116403,62.617147,82.15444,88.67858,89.742709,55.042234,77.987166,84.655552,85.881712,45.910261,66.461209,73.38279,75.481018,36.376783,51.291693,57.21133,59.420054,0.018667,-7.904664,-14.489574,-18.31514,-23.463221,-30.801663,-31.358778,-30.786821,-22.543986,-30.201815,-29.758445,-29.827895,-19.1426,-25.591338,-24.544049,-24.235755,-12.88421,-17.340278,-17.727554,-17.778214,38.018275,289.251335,-124.960453,-31.591179
70,-0.216728,-0.05003,-24.017589,-3.244395,-26.207222,-50.504906,-72.883358,-90.029091,-59.140618,-91.861039,-109.162285,-122.438942,-53.320107,-89.383828,-109.439484,-125.080296,-45.354195,-78.958054,-97.657414,-111.627984,-36.267174,-62.510365,-77.1022,-89.210518,-18.49394,-17.792344,-4.993089,4.252183,9.706942,24.161343,31.420746,36.64556,27.375193,40.56492,47.332876,52.703964,40.133235,52.785574,59.192623,64.290132,48.258342,60.220311,64.892285,68.29288,30.5417,55.062286,70.84461,83.505938,58.073859,74.197225,78.573835,78.559004,48.75236,67.494627,71.22266,70.604364,38.294658,55.032532,58.918888,58.978123,28.301391,39.688196,43.175775,43.623522,1.087166,-6.655354,-13.665644,-18.384852,-24.63646,-30.81827,-29.060665,-26.875732,-24.596976,-30.674489,-27.672797,-25.886408,-21.682931,-26.87259,-23.633746,-21.74336,-15.880206,-19.475848,-18.820804,-17.931672,38.851256,288.983811,-147.928333,-35.053068
71,-0.537346,-0.0906,-25.374619,-0.535686,-26.234208,-50.440338,-72.568062,-89.49741,-59.324021,-91.96756,-109.100087,-122.146946,-53.336724,-89.156113,-108.937077,-124.292645,-45.196358,-78.462662,-96.965287,-110.763085,-35.909752,-61.935665,-76.426232,-88.426323,-18.497596,-17.647539,-4.730255,4.564244,9.936444,24.425103,31.788346,37.167462,27.621329,40.977919,47.924618,53.487873,40.359093,53.158546,59.748352,65.006264,48.452041,60.491889,65.201482,68.588109,31.161667,55.550789,71.875843,85.823742,52.390057,64.532358,67.632037,67.67153,40.611414,54.259421,56.229802,54.87446,28.427863,40.513487,42.759224,42.086964,17.554974,25.213789,27.594424,27.562929,0.231366,-7.632842,-14.942615,-20.737091,-25.394814,-30.517687,-27.377233,-24.408008,-25.990677,-30.373836,-25.999971,-23.040416,-23.702232,-27.795129,-23.544283,-20.602883,-18.64713,-21.875886,-20.797233,-19.220637,39.476218,288.921882,-172.140644,-35.560083
72,-0.472344,-0.091514,-26.731647,2.173022,-26.33258,-50.502182,-72.448437,-89.146511,-59.391128,-91.942978,-108.99028,-121.878216,-53.31942,-88.975055,-108.620819,-123.800789,-45.086082,-78.216156,-96.560291,-110.168266,-35.694969,-61.624409,-75.983711,-87.805458,-18.387112,-17.453989,-4.498394,4.888718,10.068096,24.623903,32.066408,37.541854,27.750882,41.207494,48.277781,53.964117,40.500279,53.357888,60.067589,65.434207,48.642207,60.748141,65.497155,68.879694,32.807499,56.895275,73.753006,89.069813,45.565739,53.159838,55.853182,57.080286,30.619394,38.281545,39.676975,38.691999,16.309874,22.904074,24.903797,24.807541,4.137531,7.868471,10.467276,11.238275,-2.54873,-10.837127,-18.320486,-25.371855,-25.738282,-29.899911,-26.308482,-23.383649,-26.725088,-29.299854,-24.739966,-21.289915,-25.200501,-28.358954,-24.275662,-20.814323,-21.18498,-24.540392,-23.656839,-21.645107,40.144792,289.101146,-197.731373,-33.116283
73,-0.29219,-0.150153,-17.988499,-0.230184,-26.380211,-50.512276,-72.373627,-88.94751,-59.449242,-91.908348,-108.892022,-121.677464,-53.340821,-88.854504,-108.450463,-123.560463,-44.979378,-77.992436,-96.262104,-109.791161,-35.365517,-61.174897,-75.470879,-87.236012,-18.229462,-17.365438,-4.43715,5.046923,10.156795,24.844167,32.381274,37.979838,27.766678,41.411494,48.654657,54.489342,40.504442,53.506732,60.373613,65.891197,48.684655,60.880732,65.725187,69.171848,31.487354,53.377853,69.0273,83.828911,37.088127,40.482382,41.327677,41.450403,21.088257,22.954376,21.277285,18.034767,6.843104,8.065069,7.091051,5.177279,-4.451483,-4.773313,-4.508291,-5.217092,-2.089196,-8.879639,-15.691064,-23.119472,-20.755008,-23.389537,-20.42624,-17.920399,-22.506417,-23.12284,-19.228436,-16.0663,-22.125336,-23.38452,-20.114014,-16.987897,-19.823429,-23.054127,-22.082164,-19.506224,40.923672,289.206245,-214.648802,-33.091215
74,-0.085259,-0.033345,-20.78809,1.624023,-26.431022,-50.532738,-72.38055,-88.936947,-59.520447,-91.918396,-108.919121,-121.648224,-53.411316,-88.874725,-108.474529,-123.599922,-45.001076,-77.972797,-96.179775,-109.63084,-35.275383,-60.961658,-75.156463,-86.819778,-18.156461,-17.347926,-4.380908,5.234829,10.168082,24.948043,32.550507,38.231915,27.704051,41.424436,48.789507,54.752423,40.38682,53.448983,60.412602,66.047673,48.540739,60.76742,65.685,69.208256,30.746006,51.465512,66.569956,81.063435,32.593953,34.717593,35.327471,35.612555,16.426369,15.972966,13.296015,9.406517,2.931982,1.82194,-0.822126,-3.956972,-7.167497,-8.976797,-10.450601,-12.529249,-2.482348,-8.03538,-13.4973,-20.820108,-16.716673,-16.155748,-14.514453,-13.744206,-18.367478,-15.412628,-13.319329,-11.402093,-18.401051,-16.188028,-14.395191,-12.428672,-16.860706,-18.998558,-18.335926,-15.948059,41.541904,288.972702,-234.733401,-31.66739
75,-0.114738,-0.029986,-19.416435,3.016675,-26.416054,-50.459999,-72.336994,-88.889809,-59.440613,-91.757733,-108.762165,-121.435158,-53.404084,-88.820973,-108.43594,-123.576302,-45.020165,-77.925728,-96.104897,-109.485409,-35.264763,-60.780876,-74.9072,-86.518044,-18.147001,-17.463004,-4.50363,5.217428,10.06901,24.995406,32.715195,38.476126,27.616785,41.41053,48.893408,54.949666,40.301234,53.383528,60.437092,66.132641,48.456512,60.6939,65.685531,69.255829,30.338356,49.917687,64.249735,78.057678,27.61409,26.505243,26.86334,27.030722,10.636196,6.123779,3.530451,-0.06736,-2.877966,-7.95072,-10.764021,-13.769045,-12.803404,-17.699289,-19.752439,-22.325838,-4.183115,-9.507844,-14.311856,-21.518413,-15.002822,-13.058502,-12.31596,-12.835685,-16.273843,-12.060933,-11.088244,-9.86218,-16.145748,-13.173145,-12.46375,-11.28327,-14.208656,-17.12686,-17.347278,-15.469908,41.952559,288.567947,-253.624443,-29.025484
76,-0.031884,-0.047078,-14.948324,-1.139972,-26.408569,-50.490165,-72.430961,-89.101673,-59.368972,-91.619339,-108.652027,-121.332126,-53.34526,-88.786594,-108.490963,-123.730808,-44.932205,-77.905014,-96.134445,-109.552585,-35.093673,-60.580902,-74.736419,-86.394229,-18.081398,-17.494794,-4.573434,5.236002,10.052436,25.093564,32.872029,38.653954,27.570447,41.415173,48.959962,55.050924,40.215511,53.36273,60.470782,66.210335,48.334147,60.610437,65.685741,69.354777,27.885761,46.123707,59.509769,71.940514,22.445389,19.437996,19.182289,18.833015,5.48671,-1.718124,-4.900189,-8.796318,-7.690739,-15.678406,-19.813282,-23.755154,-17.196156,-25.433247,-29.544617,-33.92379,-4.250651,-9.146588,-13.709233,-20.936891,-12.816773,-10.075543,-9.458372,-10.502837,-14.260918,-9.500615,-8.379135,-7.517075,-14.185737,-10.965076,-10.221644,-9.652762,-12.122618,-15.643658,-16.356788,-15.183426,42.377763,288.212249,-268.115679,-30.474076
77,0.062211,-0.151178,-11.039772,-3.272259,-26.324822,-50.454255,-72.515305,-89.371491,-59.289528,-91.539929,-108.613461,-121.332997,-53.252427,-88.772931,-108.571324,-123.935498,-44.786019,-77.861859,-96.212426,-109.746357,-34.858521,-60.385918,-74.646882,-86.420357,-18.023401,-17.431548,-4.517845,5.378659,10.100984,25.297946,33.105026,38.883074,27.573881,41.542528,49.150784,55.288404,40.16421,53.446402,60.650217,66.465982,48.241324,60.625134,65.794014,69.56983,24.631096,41.241611,53.411259,64.283031,18.383068,13.578117,11.853001,9.91531,1.928215,-7.566742,-12.729115,-17.942253,-10.665276,-20.876827,-27.741348,-33.704281,-19.380684,-30.517021,-38.068337,-45.280426,-3.271333,-7.677688,-12.072243,-19.657571,-10.868005,-6.635316,-5.912485,-6.964236,-12.686177,-7.19028,-5.870673,-5.380332,-13.196909,-9.922501,-8.698589,-8.343963,-11.994912,-15.416398,-16.248015,-15.809841,43.024916,287.841437,-278.570509,-33.965969
78,-0.040741,-0.191957,-14.950951,0.15487,-26.261467,-50.382958,-72.455338,-89.449254,-59.171151,-91.465828,-108.546387,-121.253632,-53.092942,-88.724751,-108.542839,-123.944069,-44.612709,-77.780228,-96.190602,-109.741574,-34.72268,-60.316979,-74.602639,-86.360184,-17.96464,-17.214138,-4.248922,5.653139,10.231154,25.498622,33.326129,39.121591,27.695628,41.701992,49.343223,55.533319,40.276002,53.590762,60.818586,66.655161,48.3452,60.760948,65.93809,69.744139,23.917168,40.535809,53.113278,63.917748,18.400566,13.261906,11.655041,9.566986,1.764633,-8.282478,-12.789962,-17.451977,-11.071655,-21.675567,-28.152363,-34.26305,-19.88285,-32.12384,-40.332424,-48.450496,-4.735478,-10.17033,-14.963897,-23.082489,-13.296129,-9.006279,-8.548443,-9.94097,-15.152267,-9.85389,-9.028083,-8.683905,-15.559869,-12.707358,-11.396545,-10.851048,-13.869933,-17.741393,-19.251321,-19.533736,43.584807,287.470151,-292.920828,-33.990428
79,-0.101464,-0.303615,-7.844112,-0.01524,-26.210312,-50.364212,-72.427826,-89.479786,-59.045059,-91.369125,-108.398494,-121.090347,-52.959343,-88.615551,-108.44149,-123.834995,-44.451965,-77.649204,-96.125725,-109.713684,-34.536346,-60.167541,-74.502445,-86.320289,-17.77446,-16.887613,-3.97575,5.86193,10.424693,25.725704,33.501192,39.248698,27.81083,41.969693,49.669957,55.895436,40.376187,53.890857,61.172009,67.033407,48.485819,61.01331,66.239655,70.110653,22.185768,37.335697,49.543636,59.570652,17.658623,11.131302,8.909145,6.098728,1.57901,-9.046177,-13.446488,-17.807202,-11.057373,-21.793579,-28.081535,-34.024212,-19.860226,-32.875385,-42.412262,-52.030689,-4.487174,-10.667908,-16.393691,-25.246193,-14.156455,-10.683914,-10.984336,-12.877591,-16.367175,-12.301404,-12.237227,-12.289789,-17.302478,-15.564759,-14.310312,-13.385501,-16.210854,-20.457356,-22.707325,-23.293589,44.16937,287.041942,-300.078913,-34.130262
80,0.10817,-0.398784,-5.651688,0.469062,-26.280968,-50.500626,-72.449673,-89.527176,-59.126564,-91.284599,-108.281937,-121.047764,-53.079117,-88.523243,-108.401825,-123.928436,-44.572792,-77.659733,-96.163067,-109.845726,-34.57917,-60.101029,-74.413593,-86.299072,-17.538759,-16.46839,-3.531642,6.222997,10.742929,26.03532,33.742352,39.416264,27.970887,42.267132,49.974732,56.224652,40.451473,54.184665,61.525221,67.463499,48.570565,61.200574,66.51873,70.529814,21.095375,35.410561,47.42062,56.987549,17.130821,10.623974,8.50589,5.976746,1.285744,-8.627048,-12.532127,-16.306102,-11.549503,-21.4617,-26.843261,-32.10094,-20.725433,-33.528293,-43.933136,-54.515281,-4.259253,-10.925611,-17.202781,-26.167799,-14.96901,-12.513393,-13.716532,-15.929994,-17.196433,-14.297221,-15.173021,-15.528604,-18.091228,-17.248427,-16.11561,-14.70641,-17.018722,-20.880191,-23.505294,-24.294007,45.005121,286.544074,-305.00302,-33.760284
81,0.121536,-0.253782,-4.158313,2.328133,-26.422256,-50.678238,-72.591202,-89.674118,-59.130958,-91.254478,-108.261944,-121.078468,-53.090355,-88.529663,-108.428856,-124.01635,-44.641296,-77.718132,-96.205284,-109.876339,-34.718079,-60.217369,-74.488495,-86.298511,-17.517999,-16.293871,-3.243638,6.489141,10.887648,26.250348,33.972261,39.611815,28.116149,42.488125,50.18624,56.432912,40.595512,54.386663,61.730875,67.667621,48.711689,61.348924,66.732287,70.822301,20.953617,34.678401,46.644321,56.558029,16.649459,9.17712,6.937477,4.246273,0.989685,-8.96172,-12.407685,-15.733235,-11.839222,-21.309437,-25.327172,-29.509324,-21.079262,-33.336674,-44.160084,-55.222149,-4.058589,-11.219951,-18.032263,-27.270662,-16.438917,-14.429824,-16.728854,-19.427427,-18.415498,-16.148616,-18.507883,-19.143912,-19.094543,-18.482862,-17.932727,-16.087273,-17.783032,-21.014956,-23.901368,-24.683844,45.893583,286.187218,-308.394407,-31.535225
82,0.082947,-0.160057,-2.26672,1.932257,-26.575905,-50.862763,-72.753971,-89.77961,-59.215073,-91.262638,-108.244698,-121.064919,-53.237274,-88.600159,-108.510807,-124.100464,-44.872444,-77.865589,-96.314049,-109.919861,-35.040093,-60.464848,-74.657158,-86.368618,-17.501956,-16.197145,-3.067562,6.655522,10.920598,26.302354,34.031628,39.662302,28.158509,42.598287,50.288783,56.50306,40.66529,54.491355,61.816028,67.710809,48.803648,61.424889,66.849761,70.962635,20.821964,34.478038,46.677349,56.854282,16.33406,8.399448,6.041496,3.493595,0.937225,-8.864731,-11.914135,-14.813095,-11.8904,-21.124329,-24.104679,-27.459687,-21.336457,-33.209336,-44.034268,-55.287014,-3.763861,-11.145357,-18.427367,-27.80413,-17.228878,-16.089373,-19.026074,-22.213766,-19.041746,-18.082046,-20.997339,-21.607136,-19.299276,-19.06268,-18.715723,-16.761927,-17.212137,-20.134117,-23.193288,-23.931743,46.611265,285.914636,-310.026392,-29.715493
83,0.014923,-0.253325,-1.089856,1.714438,-26.752625,-51.047791,-72.909153,-89.779587,-59.285362,-91.258232,-108.265743,-121.113155,-53.332626,-88.586506,-108.479862,-124.064552,-45.012795,-77.891144,-96.242386,-109.732235,-35.223244,-60.474209,-74.566338,-86.197643,-17.4561,-16.084191,-2.894575,6.944748,10.984682,26.470093,34.258314,39.922729,28.222026,42.777018,50.50092,56.758559,40.71611,54.604013,61.948779,67.878523,48.836932,61.481205,66.990244,71.176724,20.957497,35.008187,47.401337,57.667283,16.735222,9.551995,7.592183,5.567734,1.430958,-7.169586,-9.387714,-11.400444,-11.663452,-19.971336,-22.266265,-24.853992,-21.668037,-32.986083,-43.512622,-54.355224,-3.890943,-11.403578,-18.656182,-28.092158,-16.978609,-16.541824,-19.933842,-23.609868,-18.782518,-18.08793,-21.435772,-22.579921,-18.96499,-19.076783,-19.104571,-17.477139,-16.76142,-19.263004,-22.546329,-23.519509,47.236118,285.566824,-310.506318,-28.095542
84,0.075417,-0.052685,0.589142,1.207301,-26.859078,-51.160149,-72.995648,-89.700783,-59.332741,-91.291386,-108.367585,-121.211369,-53.369706,-88.640442,-108.500988,-124.061772,-45.110001,-77.97139,-96.194401,-109.523369,-35.433472,-60.623852,-74.588814,-86.025548,-17.577415,-16.166394,-2.837765,7.225403,10.914904,26.508736,34.42005,40.187959,28.241329,42.818563,50.547739,56.862027,40.742514,54.553043,61.883188,67.834594,48.810107,61.424642,66.954428,71.148059,21.234856,35.723225,48.361233,58.937199,16.816899,9.626004,7.902203,6.028313,1.539997,-6.756202,-8.652122,-10.514488,-11.51905,-19.843288,-21.708,-23.918152,-21.413715,-32.770191,-42.894779,-53.191646,-4.354769,-11.738562,-18.626048,-27.732443,-16.484322,-15.836912,-19.635495,-23.378947,-18.13081,-17.478368,-21.139401,-22.269594,-18.244412,-18.114218,-18.243122,-16.677267,-15.939603,-18.552658,-22.14563,-23.388679,47.853007,285.428071,-309.375704,-26.974309
85,0.096748,0.052772,0.938301,1.290602,-26.939575,-51.081024,-72.95501,-89.585449,-59.268334,-91.319492,-108.418293,-121.169666,-53.299233,-88.67498,-108.442303,-123.870243,-45.059418,-77.968781,-96.072682,-109.241867,-35.431847,-60.703961,-74.611439,-85.943607,-17.686183,-16.455102,-3.039602,7.220303,10.854981,26.428793,34.403415,40.262664,28.314058,42.745438,50.454199,56.784728,40.871251,54.43452,61.685525,67.570722,48.940622,61.417404,66.882884,70.968007,21.6041,36.22942,48.936322,59.89531,17.334767,9.99313,8.161675,6.154038,1.827736,-6.322906,-8.31538,-10.298091,-11.38932,-19.72261,-21.686325,-23.970153,-21.343643,-32.686763,-42.670063,-52.706577,-4.611422,-12.16685,-18.989406,-28.105268,-16.732818,-15.774735,-19.559011,-23.270939,-18.266352,-17.109112,-20.802232,-22.008057,-18.27727,-17.49906,-17.713025,-16.199239,-15.935138,-18.275985,-21.70288,-22.832017,48.485647,285.426895,-307.901511,-25.737655
86,-0.034767,0.197786,1.419022,0.733867,-26.804489,-50.778946,-72.614525,-89.173897,-59.246018,-91.374241,-108.39188,-120.958752,-53.335396,-88.734101,-108.391663,-123.633934,-45.118058,-77.979916,-95.973118,-109.004219,-35.490692,-60.760655,-74.593106,-85.83371,-17.85381,-16.803423,-3.35774,6.969905,10.743695,26.150695,34.114361,40.051318,28.289408,42.554111,50.24757,56.62172,40.865583,54.239549,61.411193,67.267021,48.905055,61.268957,66.651641,70.67368,22.060352,36.812931,49.367054,60.253464,17.696159,10.489071,8.72691,6.752483,1.925125,-6.095375,-8.344791,-10.560024,-11.472828,-19.911427,-22.295734,-24.778439,-21.49403,-32.91687,-42.700355,-52.321941,-4.880561,-12.522749,-19.167316,-28.164437,-16.677409,-15.581475,-19.45167,-23.139732,-18.14526,-16.623656,-20.364848,-21.708543,-18.096409,-16.823492,-16.922095,-15.428304,-15.775847,-18.202731,-21.749489,-22.978354,48.957276,285.583147,-305.976093,-25.045322
87,0.022087,0.045264,1.31266,0.957378,-26.736008,-50.575035,-72.323376,-88.820538,-59.325737,-91.420578,-108.406574,-120.871319,-53.401932,-88.704552,-108.233036,-123.344788,-45.143028,-77.950196,-95.816094,-108.744736,-35.418457,-60.634209,-74.381252,-85.580818,-17.950376,-17.061429,-3.57651,6.870264,10.737692,26.08015,34.067245,40.077375,28.321764,42.46046,50.129774,56.512803,40.890937,54.124754,61.232511,67.06254,48.916688,61.22478,66.564955,70.565913,22.155224,36.878689,49.529366,60.831059,17.748207,9.95644,8.046559,6.035671,1.86985,-6.256885,-8.296531,-10.249099,-11.608532,-20.070499,-22.089912,-24.196724,-21.681072,-33.296528,-42.979065,-52.459327,-5.026737,-13.066813,-20.058849,-29.027417,-17.872236,-16.74413,-20.270357,-23.677158,-19.180141,-17.358207,-20.697225,-21.654844,-18.853191,-17.178934,-17.171449,-15.464378,-16.236906,-18.664834,-22.141505,-23.26088,49.41425,285.599963,-304.228546,-24.116392
88,0.276169,0.041508,1.643841,0.337022,-26.660523,-50.449173,-72.184056,-88.717598,-59.408867,-91.511158,-108.500805,-120.913765,-53.450318,-88.742249,-108.277932,-123.385678,-45.123734,-77.966,-95.835125,-108.811192,-35.292847,-60.609101,-74.403271,-85.686573,-17.965739,-17.21909,-3.739086,6.723718,10.745683,26.016548,33.96579,39.97944,28.30366,42.325412,49.95412,56.315931,40.838524,54.015333,61.071837,66.860889,48.850603,61.166266,66.448433,70.373746,22.148792,36.634747,49.062744,60.655758,16.872631,8.126553,6.306942,4.478119,1.043278,-7.241627,-8.941463,-10.536919,-12.259907,-20.714035,-22.396728,-24.00824,-22.151047,-33.618542,-43.294704,-52.644894,-5.114132,-13.274598,-20.395822,-29.278736,-18.43771,-16.32973,-19.691379,-23.033349,-19.370067,-16.892246,-20.329434,-21.127299,-18.79485,-16.293205,-16.131598,-14.203738,-16.015124,-18.346406,-21.934908,-23.053158,50.057934,285.617215,-302.21719,-23.803626
89,0.170814,-0.090402,0.663345,0.756411,-26.527038,-50.219215,-71.903011,-88.492046,-59.439949,-91.486896,-108.391319,-120.774376,-53.510559,-88.724315,-108.290817,-123.40559,-45.134147,-77.909157,-95.811024,-108.887787,-35.193374,-60.49942,-74.321869,-85.723812,-17.829444,-17.178953,-3.777434,6.541307,10.836542,26.066886,33.949993,39.903672,28.299645,42.304095,49.917007,56.217723,40.797595,54.034821,61.062043,66.792246,48.815083,61.169847,66.415952,70.301794,22.457302,36.969292,49.418301,61.32264,17.725159,9.019524,6.791531,4.62648,1.674443,-6.47113,-8.488037,-10.341385,-11.818782,-20.055095,-22.118888,-24.23862,-21.991619,-32.90665,-42.377369,-51.763,-5.428281,-13.684873,-20.956231,-30.069505,-18.499021,-16.65274,-19.77413,-23.136477,-19.366121,-17.329425,-20.767089,-21.650522,-18.77194,-16.936032,-17.033876,-15.160201,-16.094392,-18.490395,-21.919661,-22.791385,50.517963,285.508115,-301.26463,-23.065913
90,0.087799,-0.142397,1.364743,0.22145,-26.348808,-50.102897,-71.774849,-88.434482,-59.428871,-91.492252,-108.385368,-120.774719,-53.469749,-88.709221,-108.336136,-123.453197,-45.056648,-77.879276,-95.847473,-108.967941,-35.099098,-60.428467,-74.272751,-85.68837,-17.719318,-16.979758,-3.616931,6.608035,10.888796,26.192401,34.070506,40.036127,28.263485,42.377035,49.984316,56.246425,40.711219,54.103241,61.13129,66.859678,48.68852,61.190756,66.426672,70.328681,22.806564,37.621559,49.893654,61.680919,17.451576,9.093692,7.056484,4.838939,1.300563,-6.80967,-8.768109,-10.763054,-12.138657,-20.426205,-22.823044,-25.202214,-22.121327,-33.031277,-42.071869,-50.836418,-5.542798,-13.629378,-20.840746,-29.894425,-18.237231,-16.65576,-19.654045,-22.758757,-19.334264,-17.037828,-20.400466,-21.371799,-18.838211,-16.84471,-16.91744,-15.13841,-16.232547,-18.934789,-22.194401,-22.830233,50.829197,285.354282,-299.676452,-22.855899
91,0.288368,-0.284558,1.029659,1.519813,-26.297882,-50.12162,-71.852668,-88.556934,-59.336883,-91.459499,-108.410648,-120.913559,-53.335144,-88.635417,-108.337577,-123.50473,-44.884162,-77.827777,-95.923736,-109.15068,-34.93119,-60.345451,-74.278484,-85.808727,-17.53419,-16.751751,-3.511586,6.820172,10.933219,26.393559,34.273467,40.179091,28.211836,42.55784,50.213113,56.390069,40.626757,54.249206,61.358568,67.085746,48.623818,61.336042,66.655939,70.595047,23.039177,38.156639,50.715076,62.792278,17.878235,9.248714,6.948818,4.572098,1.651874,-6.567295,-8.585415,-10.539082,-11.755955,-20.160484,-22.453137,-24.740398,-21.74382,-32.516155,-40.935459,-49.092121,-5.925631,-14.303013,-21.659371,-30.865141,-19.477377,-18.31151,-21.115078,-24.047549,-20.218128,-18.340879,-21.626594,-22.433597,-19.439511,-17.942829,-18.272428,-16.416063,-16.725383,-19.842099,-23.01331,-23.376427,51.324577,285.06718,-298.439781,-21.33863
92,0.414071,-0.188821,1.664783,1.557074,-26.349678,-50.256409,-72.076447,-88.936684,-59.190857,-91.466549,-108.467377,-121.069176,-53.111481,-88.579663,-108.328228,-123.546582,-44.622208,-77.733685,-95.932583,-109.263382,-34.72744,-60.300797,-74.318356,-85.921933,-17.38936,-16.573452,-3.43972,6.908266,10.885042,26.427275,34.267898,40.109128,28.113395,42.611391,50.275827,56.428651,40.53633,54.340709,61.483194,67.219708,48.562476,61.435621,66.795001,70.761465,23.619404,39.16721,51.64626,63.814087,17.814091,9.741784,7.467076,4.863453,1.31527,-6.511024,-8.84571,-11.296268,-12.037845,-20.320026,-23.062957,-25.71413,-21.854713,-32.430393,-40.234405,-47.557582,-6.257521,-14.809003,-22.14505,-31.555406,-20.130283,-19.881533,-23.199698,-26.22293,-20.615943,-19.127376,-23.237779,-24.591151,-19.548742,-18.596236,-19.373124,-17.630015,-16.668351,-20.655519,-24.037873,-24.34749,51.960835,284.878656,-296.552811,-19.781259
93,0.309631,-0.141939,1.312844,2.872357,-26.274582,-50.232811,-72.174305,-89.153057,-58.935562,-91.40831,-108.424347,-121.026638,-52.783722,-88.486416,-108.24107,-123.412193,-44.283325,-77.559837,-95.836945,-109.220432,-34.538292,-60.270012,-74.330246,-85.92207,-17.289436,-16.453583,-3.420331,7.026542,10.732098,26.41879,34.289905,40.096877,27.994154,42.659346,50.312074,56.33805,40.502552,54.504631,61.659318,67.30564,48.579457,61.620884,66.996418,70.926647,24.600826,40.681766,53.628204,66.034538,19.643051,12.198406,9.753994,7.470371,2.744648,-4.282139,-6.585915,-8.742394,-10.916703,-18.609947,-21.313523,-23.844967,-21.041737,-30.9543,-38.079357,-44.629498,-6.715209,-15.899588,-23.75655,-33.832075,-22.070252,-22.585732,-25.723215,-28.350682,-22.474877,-21.601523,-25.458565,-26.574018,-21.307677,-21.345827,-21.949702,-19.896501,-18.370661,-22.751834,-25.874151,-25.879912,52.54636,284.652072,-294.964073,-16.993547
94,0.815529,-0.068951,2.9538,2.584082,-26.403717,-50.480873,-72.643387,-89.746433,-58.773422,-91.413666,-108.549374,-121.223271,-52.476746,-88.340103,-108.134526,-123.32412,-43.923134,-77.346829,-95.746536,-109.201573,-34.308266,-60.239937,-74.379788,-86.00853,-17.213013,-16.392449,-3.451032,7.28067,10.471018,26.337552,34.286781,40.147599,27.773607,42.572859,50.246422,56.219576,40.400553,54.559614,61.785808,67.415963,48.612469,61.86454,67.323091,71.273882,25.216312,42.009464,55.19997,67.973888,20.496242,13.578014,11.321526,9.73209,3.114693,-3.640205,-5.218689,-6.300682,-10.883709,-18.291298,-20.258469,-21.57851,-21.047619,-30.680637,-36.443882,-40.957214,-6.870159,-16.838615,-25.385391,-35.700043,-24.459233,-24.807913,-27.293262,-29.094108,-25.196762,-22.949652,-25.895733,-26.562187,-23.876976,-22.879769,-22.787359,-20.607601,-20.460029,-24.529437,-26.813881,-26.329085,53.685093,284.441778,-291.687069,-14.550808
95,1.13578,-0.089673,4.583496,3.379897,-26.590622,-50.723717,-73.078789,-90.409115,-58.551773,-91.211517,-108.467834,-121.299042,-52.193024,-88.042923,-107.911274,-123.24551,-43.652458,-76.950279,-95.469314,-109.094868,-34.179085,-60.064316,-74.248649,-85.9949,-17.172358,-16.400231,-3.659416,7.112486,10.306674,26.283186,34.266427,40.059431,27.621403,42.575958,50.307875,56.209646,40.313163,54.747013,62.099647,67.689047,48.568415,62.136833,67.850636,71.907082,25.437538,42.704773,56.298237,69.674984,21.623646,14.995594,13.612049,13.456844,3.88345,-2.596493,-2.359646,-1.54842,-10.590614,-17.574646,-17.319134,-16.84061,-21.128254,-29.673557,-33.068562,-35.558315,-7.149068,-18.097052,-27.698981,-38.829969,-28.06681,-26.815524,-27.644289,-28.852467,-28.821802,-24.377143,-25.112133,-25.456132,-27.030928,-24.151581,-22.560433,-20.701048,-22.818037,-25.570216,-26.589061,-25.814198,55.209217,284.205722,-286.715229,-11.317294
96,1.276474,-0.114399,7.133434,3.785454,-26.684555,-50.895126,-73.380821,-90.954883,-58.476471,-91.07943,-108.377186,-121.295826,-52.041664,-87.77742,-107.678627,-123.118881,-43.436714,-76.533119,-95.142574,-108.955238,-33.946701,-59.679062,-73.888172,-85.753406,-17.042212,-16.292785,-3.703889,6.977858,10.322384,26.340342,34.276406,39.984231,27.630296,42.56609,50.203467,55.998929,40.369739,54.942923,62.34303,67.8824,48.626683,62.419354,68.356742,72.555239,25.53526,43.023629,56.372715,69.93298,21.83749,16.655743,16.61055,17.747292,3.726597,-1.198894,0.981789,3.133004,-11.15126,-16.489082,-14.416145,-12.889572,-21.895122,-28.580085,-29.650863,-30.301185,-8.001452,-19.890697,-30.628538,-42.394634,-31.135255,-29.351879,-28.383027,-28.633962,-31.980921,-26.093137,-25.067536,-24.836281,-29.638722,-25.546633,-23.002701,-21.389021,-24.593923,-26.329906,-26.442718,-25.201794,56.876844,283.979354,-279.190642,-7.643809
97,1.456467,0.01792,9.087342,6.196407,-26.706299,-51.031471,-73.667793,-91.437344,-58.423073,-91.085793,-108.409023,-121.35133,-51.876686,-87.593388,-107.477486,-122.905861,-43.231384,-76.236431,-94.918373,-108.841232,-33.775383,-59.388268,-73.635201,-85.579457,-17.142384,-16.385225,-3.752301,6.863101,10.352938,26.355495,34.279753,40.015909,27.715684,42.584702,50.058477,55.716915,40.483508,55.118035,62.470841,67.941051,48.684654,62.606495,68.664519,73.022455,25.021179,42.720623,55.55373,68.799945,21.804245,18.670166,20.323185,23.130855,4.04908,1.21978,5.507618,9.214748,-10.914769,-13.968384,-9.505635,-6.27071,-22.059918,-26.720318,-24.946118,-23.168873,-8.836811,-22.363381,-34.27787,-46.520402,-35.606646,-34.71694,-31.11954,-29.409399,-35.999694,-31.28894,-27.683692,-25.555352,-32.707575,-29.429246,-25.724518,-23.535892,-26.615298,-28.309334,-27.475512,-25.530726,58.833533,283.888828,-269.603078,-1.555848
98,1.455139,-0.137531,8.612068,7.892407,-26.767548,-51.133415,-73.845062,-91.797981,-58.310532,-90.974533,-108.306084,-121.339806,-51.744072,-87.381741,-107.299221,-122.795071,-43.104172,-75.992844,-94.796402,-108.884789,-33.619606,-59.060371,-73.363403,-85.446888,-17.077879,-16.307938,-3.709483,6.706132,10.668606,26.525482,34.36219,40.08265,28.004096,42.74119,50.090625,55.691919,40.721445,55.36411,62.694564,68.164366,48.833844,62.81699,68.973395,73.519238,24.725223,42.784275,54.843017,67.572086,23.670845,24.710998,28.708614,33.195339,6.745239,8.079288,14.219765,18.881058,-7.83823,-6.625157,-0.789173,2.883224,-19.223705,-19.3568,-15.362652,-12.540825,-9.493922,-24.329545,-37.139224,-48.857439,-40.953349,-40.077876,-33.78094,-30.119017,-40.895643,-35.873198,-29.435403,-25.716429,-36.34838,-31.64235,-25.726673,-22.706856,-28.874789,-29.025658,-26.123481,-23.141332,60.801441,283.69189,-260.478241,6.277152
99,1.051414,-0.066641,9.332382,8.806565,-26.703254,-51.076446,-73.831718,-91.914459,-58.124244,-90.928127,-108.27745,-121.336177,-51.530296,-87.400795,-107.346851,-122.765178,-42.902298,-75.981628,-94.917457,-109.096538,-33.461082,-59.089027,-73.60493,-85.86351,-17.21189,-16.450594,-3.825302,6.430762,11.003541,26.609092,34.409256,40.199914,28.425641,42.889971,50.060874,55.558859,41.097764,55.559489,62.775345,68.161797,49.018539,62.854855,68.948398,73.559684,23.998295,41.268906,52.31805,64.563744,23.797943,29.710911,37.026649,43.6478,8.900711,15.500267,25.02103,31.373978,-4.091812,2.06543,11.366982,16.676296,-14.643333,-10.369011,-3.20533,1.443844,-11.080104,-26.462577,-39.605899,-50.526441,-44.216184,-44.963204,-37.320886,-32.016063,-42.715372,-40.622107,-32.586803,-27.171583,-36.331805,-33.871231,-26.725948,-22.470641,-27.176115,-27.16445,-23.790253,-20.387658,62.300073,283.531197,-250.698641,14.989665
100,0.596673,-0.142915,10.396111,12.63934,-26.662743,-51.018036,-73.841046,-91.842156,-58.142327,-91.056988,-108.326008,-121.357773,-51.427964,-87.535035,-107.412724,-122.605729,-42.726471,-76.085621,-95.057374,-109.196595,-33.298737,-59.254601,-73.982243,-86.362198,-17.303972,-16.557669,-3.957905,6.434936,11.174663,26.68717,34.467586,40.354857,28.708125,43.01609,49.952675,55.278796,41.438157,55.782902,62.799934,68.07111,49.344408,62.985025,68.738459,73.200717,25.316001,43.588577,55.492389,66.699005,27.210273,40.960063,49.977893,56.191886,13.452987,29.521373,39.962699,45.176353,1.706749,16.922172,27.361621,32.144199,-7.743874,3.370468,11.9901,16.905921,-13.416654,-29.633121,-42.509854,-52.514081,-48.026593,-47.797375,-38.134992,-31.463625,-44.292168,-41.725568,-32.336924,-25.410208,-35.625165,-32.798206,-24.825326,-19.48328,-24.31013,-22.789428,-19.113469,-15.857524,63.236075,283.299173,-239.963201,27.539896
101,0.432609,-0.14683,8.793411,11.463699,-26.67318,-51.055641,-73.95179,-91.852615,-58.239876,-91.253723,-108.505978,-121.557964,-51.438034,-87.795708,-107.707786,-122.825706,-42.720154,-76.352394,-95.42474,-109.595798,-33.383972,-59.703712,-74.656746,-87.188816,-17.402847,-16.697522,-4.157618,6.303655,11.214208,26.591827,34.384111,40.390426,28.835812,42.969716,49.778835,55.037179,41.60224,55.806206,62.639815,67.801545,49.503897,62.951618,68.360361,72.616978,26.077228,46.568126,60.350452,72.018448,32.202781,51.009132,62.483562,70.744674,20.227409,41.417873,54.572548,62.144703,9.662544,30.077728,43.129291,50.546001,0.968628,16.971164,28.076385,35.647442,-14.527544,-30.160069,-41.324308,-49.391148,-47.570245,-45.62628,-34.498541,-25.748452,-41.513376,-37.113529,-26.377547,-17.572488,-30.875614,-26.840897,-17.657808,-10.789767,-17.979201,-14.643289,-10.089585,-6.086707,64.029499,283.25835,-230.808975,39.109602
102,0.061638,-0.42099,11.949394,13.339194,-26.586777,-50.9515,-73.936466,-91.799194,-58.314606,-91.340195,-108.556446,-121.656509,-51.551285,-88.090176,-108.136139,-123.309826,-42.845444,-76.619385,-95.852165,-110.174435,-33.554993,-60.202675,-75.391125,-88.158726,-17.210704,-16.563584,-4.314081,6.256577,11.465866,26.677191,34.419223,40.395181,29.054014,43.016523,49.773722,54.944455,41.787628,55.927657,62.716436,67.802348,49.648455,62.986927,68.242134,72.352353,26.959831,49.297394,64.893826,76.712334,39.878254,63.309208,76.225971,84.928654,28.758064,54.370365,69.616596,78.649498,18.401768,43.25465,58.122574,66.985359,9.555565,29.67231,42.146278,50.699982,-15.735197,-29.151659,-37.843758,-43.974802,-42.280532,-35.736186,-24.086014,-14.923981,-35.047496,-26.013528,-14.141795,-4.614633,-23.486553,-15.325211,-4.534079,3.242632,-9.593056,-3.053558,2.850078,7.293804,64.176722,283.137711,-218.773996,52.749147
103,-0.108627,-0.308208,13.213142,15.149704,-26.572976,-51.027329,-74.09277,-91.948815,-58.653786,-91.627648,-108.828267,-121.97509,-51.874627,-88.495263,-108.598584,-123.76727,-43.177163,-77.042233,-96.360787,-110.753666,-33.955674,-60.88115,-76.251377,-89.187687,-17.277222,-16.654284,-4.499407,6.15118,11.537632,26.567089,34.307158,40.336505,29.187727,42.961762,49.592731,54.657475,41.930271,55.923025,62.581572,67.568782,49.758803,62.981579,68.087819,72.089332,27.492039,51.593193,69.298302,82.747124,44.48901,69.834137,84.426968,94.499348,34.498124,62.265782,79.889191,91.542458,24.610394,51.412068,69.146244,81.079915,15.878403,37.022622,51.093464,61.774876,-16.963134,-28.15334,-34.420328,-39.446342,-36.028364,-26.176666,-14.130655,-4.342962,-27.161443,-15.292613,-3.156255,7.174737,-14.832319,-4.691592,5.923415,14.288694,-0.418303,7.859389,13.500974,18.170016,63.851012,283.2123,-205.777937,68.281648
104,-0.397843,-0.323005,14.858471,18.663948,-26.515663,-51.019981,-74.146992,-92.112442,-59.026359,-91.877289,-108.99892,-122.171654,-52.238205,-88.765434,-108.796863,-123.947067,-43.56102,-77.268665,-96.521129,-110.914158,-34.398056,-61.255806,-76.608604,-89.537784,-17.291325,-16.636746,-4.626871,6.068522,11.586551,26.471179,34.094935,39.982478,29.299892,43.018561,49.444815,54.29342,42.049005,56.055975,62.535124,67.358906,49.838659,63.098844,68.100442,71.961596,28.423245,55.338639,75.424845,89.896191,51.024508,78.848998,93.935744,104.14198,41.106846,71.618786,89.623707,101.742308,30.600746,60.202532,78.180291,90.68751,20.866139,44.29695,58.523364,69.415118,-17.116544,-26.428543,-30.200561,-34.471041,-29.700874,-15.242953,-2.067228,8.046928,-19.332319,-2.414302,10.461585,20.877786,-6.279619,8.264555,19.072489,27.298545,8.464012,18.953934,25.17861,30.10541,63.230741,283.374656,-191.141894,87.430957
105,-0.605415,-0.137345,14.968197,19.439277,-26.446999,-51.005242,-74.131966,-92.219479,-59.253433,-92.115875,-109.120342,-122.214913,-52.458389,-89.048653,-109.040783,-124.191033,-43.785462,-77.488358,-96.718792,-111.129192,-34.673538,-61.553764,-76.894638,-89.811939,-17.392411,-16.635363,-4.584153,6.010242,11.568088,26.271281,33.749663,39.489994,29.330199,42.873706,49.151155,53.895093,42.069123,55.947862,62.273068,66.961492,49.806252,63.034475,68.00484,71.805466,27.349285,55.403446,76.340395,92.22892,55.190374,83.208041,99.295286,110.908562,46.09346,75.95446,95.541367,109.470263,35.355904,64.489569,83.686718,97.824915,24.464115,48.392092,63.594218,75.585451,-16.443502,-23.458207,-24.78342,-27.867415,-21.028708,-5.085418,7.45237,17.727564,-9.299724,8.540548,21.118736,31.712334,4.363132,19.661476,30.030389,38.377334,18.965262,29.277429,35.453131,40.956352,62.419785,283.733152,-176.379238,107.366075
106,-0.924706,-0.018982,14.354027,23.842921,-26.202026,-50.761757,-73.981681,-92.278724,-59.278404,-92.333725,-109.299671,-122.302322,-52.501968,-89.296325,-109.204399,-124.188434,-43.862663,-77.671829,-96.82529,-111.089676,-34.836456,-61.817161,-77.140571,-89.949909,-17.615355,-16.710402,-4.472533,6.185267,11.570274,26.124957,33.518927,39.268754,29.422417,42.871829,48.984688,53.653266,42.13942,55.972834,62.206797,66.878216,49.759384,62.947617,67.890811,71.714792,27.850365,56.066185,77.157469,93.426945,58.867739,87.97312,104.000112,115.293114,49.906437,81.135258,100.596817,114.509485,39.193863,69.389345,88.581299,102.404909,27.754761,52.44861,67.551012,79.284857,-17.109468,-22.979691,-23.247299,-25.850795,-15.324989,1.272033,13.287648,23.364358,-3.086434,14.462048,26.968186,37.363559,10.408096,26.226946,36.697328,44.922186,24.587624,35.618406,42.075443,47.41455,61.174936,283.993927,-162.345354,131.488753
107,-1.049377,0.163355,13.077942,24.188766,-26.209122,-50.688034,-73.747433,-92.177101,-59.230568,-92.470654,-109.425922,-122.381676,-52.537811,-89.407391,-109.240414,-124.09092,-43.994614,-77.803219,-96.860275,-110.934036,-35.112053,-62.024437,-77.295914,-89.978748,-17.552802,-16.350991,-4.127361,6.058678,11.566,26.028737,33.361018,39.091629,29.437594,42.935444,48.934768,53.520329,42.168837,56.066039,62.216257,66.753492,49.748404,62.958571,67.895331,71.605271,27.952652,56.454197,78.108484,95.221046,60.115225,92.256769,107.840486,117.398437,51.874592,86.864857,105.455269,117.111277,41.896705,75.563993,93.81292,105.363378,31.057148,58.649168,73.751982,84.202269,-17.08252,-22.247849,-21.749906,-23.345426,-11.759631,6.547748,18.207847,27.214293,2.404382,21.326792,32.563928,40.957304,16.921573,33.708472,42.283449,48.307276,30.999676,42.247616,47.252258,51.10423,59.911629,284.171194,-149.481342,155.691431
108,-0.826904,0.379394,11.48172,22.82738,-26.248101,-50.023659,-71.966904,-89.184277,-59.01519,-91.718605,-108.765828,-121.925595,-52.94838,-89.079472,-109.034603,-124.117401,-44.904717,-77.931942,-96.989159,-111.208866,-36.232315,-62.273255,-77.352002,-90.105309,-17.475811,-17.232243,-7.370307,0.462128,11.576844,25.485853,32.552298,38.005835,28.868367,42.492595,48.461847,52.898058,41.419114,55.422316,61.618168,66.018564,49.255698,62.582573,67.619443,71.309771,29.642395,58.305393,80.253336,97.123352,62.767668,96.119757,111.298742,120.157493,54.07037,90.660885,109.108566,119.965559,44.158287,79.453817,97.906483,108.966837,33.629059,62.953588,78.370783,88.786119,-16.507704,-20.973796,-19.620721,-20.264568,-6.940407,12.388942,23.592699,32.039142,8.568888,28.386673,39.426715,47.247787,23.75073,41.18218,49.64403,54.863904,37.697583,49.834956,54.625745,57.523179,59.069693,284.470066,-138.014654,178.438289
109,-0.764305,0.115844,8.656574,20.826225,-25.116829,-48.999276,-70.896824,-88.126248,-58.461045,-89.732747,-107.240193,-121.164792,-53.646424,-87.939148,-107.496277,-122.846146,-46.757287,-78.095639,-96.031735,-109.728035,-38.944771,-63.659512,-77.541928,-89.399083,-7.670488,-3.685697,5.770366,13.298223,17.087574,28.991769,35.361991,40.305383,27.391482,38.75015,43.769001,46.929053,33.901026,44.709904,49.093097,51.684132,36.851868,46.669492,50.190871,52.316777,31.431759,60.537884,82.803875,99.981709,65.306294,98.474968,113.830307,122.933224,56.34668,92.907337,111.554054,122.627701,46.576195,81.87022,100.627258,111.990063,36.242638,65.848103,81.489784,92.425942,-16.216214,-19.366807,-16.958763,-16.686728,-1.861763,17.65117,28.45806,36.944283,14.027902,34.154325,45.025066,52.59558,28.960881,46.923014,55.626574,60.731851,42.019586,55.062459,60.315542,63.179081,58.29336,284.408951,-129.370108,199.087555
110,-0.824433,-0.62216,10.005123,19.901997,-26.040413,-50.313629,-71.064846,-87.4002,-58.160934,-87.394581,-105.273994,-120.090053,-53.386322,-85.213142,-104.196533,-119.875809,-46.680748,-75.935039,-92.626476,-105.645653,-38.95182,-61.838047,-74.748104,-85.940403,-2.707089,3.634197,12.805615,19.918065,21.945565,32.709588,38.27845,42.306887,28.57714,37.923904,40.934966,41.865902,31.822099,40.186069,42.141198,42.159921,31.980242,40.055911,42.614046,43.554665,32.347504,61.242623,83.306889,100.300049,67.224964,101.67722,115.526882,122.197266,58.196766,96.080223,112.207455,119.942242,48.429909,84.382977,100.931282,109.243012,38.199131,68.415562,83.313629,92.384732,-16.948586,-18.729332,-15.293811,-13.595749,3.550389,24.627941,34.225771,41.272987,20.126238,41.906386,50.699509,56.004351,34.455087,54.035068,61.562728,65.105867,45.946542,61.10433,65.894445,67.60834,57.430115,283.597156,-119.403797,218.799917
111,-0.34948,0.404934,7.901734,15.753172,-26.9412,-51.428375,-71.562068,-87.835693,-55.805122,-83.353008,-101.34605,-117.014522,-51.386238,-81.746418,-100.718193,-117.192317,-45.335403,-73.888046,-90.674961,-104.15625,-38.462791,-60.437885,-73.482215,-85.05891,-1.507796,4.384576,10.822946,15.209633,26.109322,33.105125,35.768803,37.345847,30.777826,36.481502,35.882535,33.82054,31.852296,37.007146,35.959933,33.417619,29.729366,36.000182,37.401644,37.18453,33.069557,62.425243,85.190368,102.678245,68.430816,104.562034,118.557712,124.631893,59.33686,99.292568,115.179577,121.431118,49.571434,87.168972,103.308963,110.252781,39.609924,70.504863,85.311756,93.268261,-15.938547,-16.340888,-11.719524,-8.51222,8.377604,31.638626,40.735475,46.349477,25.859109,49.301961,57.111388,60.458211,39.982898,61.046285,67.505291,69.114124,50.341332,66.135346,70.387689,70.992436,57.048734,283.811744,-111.533964,234.362743
112,-1.1166,0.208081,4.200966,11.272884,-26.875236,-51.464836,-71.100751,-87.51535,-56.376914,-79.218738,-93.149923,-106.133846,-52.729574,-77.745815,-92.230522,-105.324634,-47.253988,-71.611593,-84.102333,-94.336933,-40.88178,-61.494644,-74.202953,-85.403223,3.411642,10.091635,15.338888,18.819537,29.462572,34.97957,36.484632,36.973479,30.902432,34.994588,33.006015,29.650596,29.035735,32.585377,30.303119,26.852481,24.554545,29.565671,30.644759,30.72104,34.563571,64.379379,87.659065,105.788967,69.611869,103.736469,118.622211,126.903385,59.946876,98.072525,114.99583,123.613506,49.905864,85.1968,102.221363,111.136035,39.937614,68.536239,83.348796,92.379112,-14.905216,-14.288564,-8.413482,-4.632072,12.669085,34.859478,44.122139,50.62815,30.052801,53.09871,61.513068,65.867559,43.402969,64.619509,72.042168,74.498241,52.725922,69.470004,74.615073,75.764112,55.896108,283.889615,-107.369024,245.505417
113,-2.196396,-0.04761,5.500488,9.375762,-25.97763,-51.069511,-71.113683,-89.216628,-59.913757,-75.798946,-81.348581,-87.847995,-57.025606,-73.580074,-78.907356,-84.096679,-51.709642,-69.061494,-72.755298,-75.693511,-45.474305,-64.959136,-76.974574,-86.851049,12.439306,22.515571,30.137869,35.953955,31.998082,38.847345,41.12746,42.056143,29.381038,33.972014,32.809167,29.898302,23.981242,27.677665,25.871144,23.069713,16.810364,21.100443,22.69663,24.352634,33.965183,63.604511,87.222015,105.705562,69.292167,103.560345,118.506649,126.838772,59.779621,98.04467,115.021282,123.728679,49.728538,84.738899,101.434856,110.265163,39.792389,67.593338,82.205612,91.278705,-14.004758,-12.670567,-5.877429,-1.714994,16.031457,37.945801,46.777284,52.815177,33.46592,56.43548,64.487524,68.382777,46.265348,67.666905,74.8446,76.980756,54.78383,71.662947,76.847647,78.064575,53.656076,283.765012,-101.912172,254.804186
