takenoko1/special-research/HandMotion_SimilarSearch_自分用/NewProject/handData/tgt/d4_feature_d2/67.csv
,vel_0x_L,vel_0y_L,vel_0x_R,vel_0y_R,posFromWrist_1x_L,posFromWrist_2x_L,posFromWrist_3x_L,posFromWrist_4x_L,posFromWrist_5x_L,posFromWrist_6x_L,posFromWrist_7x_L,posFromWrist_8x_L,posFromWrist_9x_L,posFromWrist_10x_L,posFromWrist_11x_L,posFromWrist_12x_L,posFromWrist_13x_L,posFromWrist_14x_L,posFromWrist_15x_L,posFromWrist_16x_L,posFromWrist_17x_L,posFromWrist_18x_L,posFromWrist_19x_L,posFromWrist_20x_L,posFromWrist_1y_L,posFromWrist_2y_L,posFromWrist_3y_L,posFromWrist_4y_L,posFromWrist_5y_L,posFromWrist_6y_L,posFromWrist_7y_L,posFromWrist_8y_L,posFromWrist_9y_L,posFromWrist_10y_L,posFromWrist_11y_L,posFromWrist_12y_L,posFromWrist_13y_L,posFromWrist_14y_L,posFromWrist_15y_L,posFromWrist_16y_L,posFromWrist_17y_L,posFromWrist_18y_L,posFromWrist_19y_L,posFromWrist_20y_L,posFromWrist_1x_R,posFromWrist_2x_R,posFromWrist_3x_R,posFromWrist_4x_R,posFromWrist_5x_R,posFromWrist_6x_R,posFromWrist_7x_R,posFromWrist_8x_R,posFromWrist_9x_R,posFromWrist_10x_R,posFromWrist_11x_R,posFromWrist_12x_R,posFromWrist_13x_R,posFromWrist_14x_R,posFromWrist_15x_R,posFromWrist_16x_R,posFromWrist_17x_R,posFromWrist_18x_R,posFromWrist_19x_R,posFromWrist_20x_R,posFromWrist_1y_R,posFromWrist_2y_R,posFromWrist_3y_R,posFromWrist_4y_R,posFromWrist_5y_R,posFromWrist_6y_R,posFromWrist_7y_R,posFromWrist_8y_R,posFromWrist_9y_R,posFromWrist_10y_R,posFromWrist_11y_R,posFromWrist_12y_R,posFromWrist_13y_R,posFromWrist_14y_R,posFromWrist_15y_R,posFromWrist_16y_R,posFromWrist_17y_R,posFromWrist_18y_R,posFromWrist_19y_R,posFromWrist_20y_R,posFromBody_0x_L,posFromBody_0y_L,posFromBody_0x_R,posFromBody_0y_R
6,-3.786003,2.925673,1.401718,0.381926,-5.739213,-13.963303,-20.664494,-26.184563,-42.266499,-30.158673,-10.510781,3.868217,-46.154778,-32.164261,-9.253739,10.134956,-45.675705,-36.413121,-15.940865,1.361846,-42.242455,-43.889397,-39.436089,-34.147969,-5.570814,-5.517992,2.006789,10.763479,1.203725,14.485127,21.447634,26.602213,11.568865,22.96231,30.090457,34.720787,19.866676,29.165781,34.522531,38.544286,26.246185,33.040039,35.503794,38.410003,27.979362,52.498352,72.875839,87.892868,43.490227,75.068642,91.94902,103.791756,31.908325,68.31189,88.186546,101.008072,22.53606,57.709396,76.135277,88.297737,15.741314,42.83012,58.054207,69.16848,-10.67798,-9.856243,-0.392374,10.942087,15.308446,36.048618,43.982225,48.532255,32.367516,52.5486,59.890366,63.339114,44.545389,64.1023,69.43672,70.249306,51.871964,68.228191,71.025213,69.55165,21.54138,316.470232,-68.151461,293.034703
7,3.755447,-3.471053,0.596786,0.452952,-10.720505,-22.717529,-32.61668,-41.495087,-49.946514,-38.27068,-17.330589,-1.748406,-52.119358,-37.94038,-14.37458,6.371246,-49.947613,-39.999264,-18.452454,0.070541,-45.065163,-46.950897,-41.635803,-35.030491,2.225942,6.115539,14.922975,24.699165,6.930187,20.978949,28.571731,34.308924,13.739652,26.381036,34.446813,39.363183,18.566818,29.275698,35.631062,40.205484,21.796871,29.904021,33.306505,37.063771,27.537461,51.953957,72.262047,87.203843,42.951886,74.409234,91.29847,103.155098,31.511273,67.871476,87.79905,100.62323,22.294442,57.385895,75.895432,88.069199,15.66322,42.775521,58.079636,69.259163,-11.012322,-10.43314,-0.998517,10.40445,15.110004,35.67672,43.519146,47.973314,32.187711,52.162783,59.363734,62.76586,44.300103,63.687263,68.995439,69.868677,51.530842,67.781994,70.608311,69.213147,25.163109,312.783942,-67.688393,293.272418
8,-4.275879,2.902788,0.3116,0.341912,-7.535316,-16.712608,-22.643738,-27.315491,-44.555775,-31.689777,-11.528,3.333366,-47.065968,-31.994476,-8.877686,11.393509,-45.1348,-34.929016,-13.973991,3.891312,-40.326691,-43.115112,-40.750168,-37.165421,-2.590664,-1.958883,5.174574,13.965622,3.499433,16.954008,24.205124,29.911097,11.768999,23.893729,31.132928,35.992031,17.737535,27.769087,33.381606,37.966451,21.835539,28.974516,32.156861,35.81272,27.229912,51.650929,71.975899,86.814675,42.781803,74.126679,91.044777,102.994995,31.396076,67.603821,87.559937,100.4553,22.240769,57.075417,75.633522,87.911453,15.677479,42.671986,57.973755,69.243233,-11.317023,-10.942173,-1.510107,9.998947,15.067693,35.433263,43.180358,47.568022,32.145362,51.869666,58.933333,62.275648,44.18137,63.373953,68.651502,69.523739,51.295931,67.417976,70.265349,68.923982,20.75881,315.540125,-67.505213,293.467725
9,3.563141,-2.859031,0.244469,0.327116,-11.22686,-23.692017,-33.597016,-42.49007,-50.204521,-37.296753,-16.304466,-0.78756,-51.81657,-36.287235,-12.683991,8.324661,-48.986973,-37.818066,-16.165672,2.347824,-43.471653,-44.886898,-39.656925,-33.371304,2.560962,6.396811,14.679468,24.180918,7.354153,21.933252,29.414092,35.082372,13.849506,26.870753,34.790009,39.512446,18.176826,29.373485,35.476488,39.857556,20.868169,29.441695,33.10053,37.118753,27.003765,51.471348,71.828338,86.573456,42.768013,73.973511,90.818138,102.766823,31.432228,67.478531,87.381637,100.280846,22.31353,56.980568,75.493172,87.778999,15.766903,42.742424,57.981834,69.229156,-11.55817,-11.268437,-1.788329,9.758344,14.879725,35.167132,42.899753,47.301298,31.948638,51.531707,58.529313,61.821154,43.966874,63.048591,68.288534,69.136947,51.079583,67.075459,69.889277,68.582947,24.189886,312.584816,-67.392809,293.698563
10,-9.060196,4.68346,0.122715,0.237072,-5.315529,-12.05381,-17.053505,-21.224682,-37.271656,-22.956265,-3.793556,10.164001,-40.627613,-24.163033,-1.835358,17.791717,-39.839905,-27.606377,-7.338249,9.963043,-36.219509,-35.256638,-29.02264,-22.167778,-4.166683,-4.564443,1.276949,9.283939,1.223547,14.418215,21.58004,27.035516,9.87415,22.064101,29.718003,34.535177,16.299651,26.51018,32.330663,36.569816,20.87485,28.457825,31.308768,34.087833,26.800861,51.320515,71.730297,86.50526,42.694164,73.850063,90.693317,102.703205,31.421436,67.367557,87.323032,100.299785,22.346603,56.917866,75.444568,87.758617,15.842605,42.798374,58.022861,69.30479,-11.733084,-11.489541,-2.031847,9.456113,14.700983,34.919068,42.696372,47.147724,31.780986,51.315939,58.313866,61.611993,43.782154,62.81121,67.995849,68.75922,50.871299,66.830545,69.640028,68.327054,14.989328,317.190307,-67.410456,293.857666
11,-4.551338,1.328659,0.199447,0.240765,-3.750229,-9.401871,-14.01091,-18.2673,-32.856068,-17.711987,1.405929,15.621757,-37.011704,-19.419388,2.351921,22.024452,-37.008271,-23.330921,-3.190888,14.096214,-34.149273,-33.246849,-27.584473,-21.132385,-3.429878,-4.216899,-0.298156,4.974242,-0.363192,12.727686,20.702961,26.354977,7.729472,20.62565,28.761575,33.714292,13.921914,25.098306,31.232296,35.341823,18.548156,27.041073,30.266211,32.957652,26.733651,51.195134,71.601254,86.43536,42.648778,73.79369,90.563382,102.494809,31.441842,67.314091,87.209027,100.15218,22.404854,56.954625,75.418339,87.68549,15.940762,42.921113,58.127095,69.419552,-11.799318,-11.643657,-2.272934,9.141877,14.64437,34.774238,42.553889,47.020642,31.664772,51.064318,58.046129,61.352023,43.624246,62.494122,67.643007,68.412763,50.723221,66.565055,69.353494,68.088944,10.299528,318.461729,-67.349471,294.041194
12,-9.636143,5.280784,0.224637,0.276395,2.719929,2.424809,2.563877,2.692383,-20.209866,-2.446083,15.422298,28.538555,-27.057907,-7.261002,13.377262,31.971325,-29.7136,-13.950211,5.099865,21.369862,-29.088295,-29.450706,-27.532173,-24.464619,-11.428322,-17.399266,-16.205569,-13.63606,-8.779168,4.012455,12.343907,17.785242,3.165672,16.106533,23.955763,28.819374,13.130879,24.124255,29.472422,32.715504,21.36936,28.76927,31.246486,32.867731,26.664905,51.054142,71.432739,86.324867,42.662784,73.776146,90.474792,102.335884,31.458297,67.26963,87.109062,99.984123,22.388797,56.916297,75.320091,87.484405,15.890979,42.860252,58.027816,69.249298,-11.922745,-11.879692,-2.580278,8.784923,14.464639,34.502981,42.288337,46.77779,31.509469,50.769991,57.743477,61.082186,43.487147,62.211836,67.3027,68.084127,50.641155,66.361291,69.071294,67.784304,0.539812,323.701431,-67.248407,294.276507
13,-4.932838,1.327127,0.300087,0.104346,4.219883,5.351818,6.087673,6.233688,-14.502972,4.359809,21.760883,34.638301,-22.092362,-1.2407,18.467182,36.67432,-25.651692,-7.467282,10.964824,26.617595,-25.745087,-25.019371,-22.303173,-18.294056,-10.886548,-17.330685,-17.787453,-17.289399,-10.207096,2.885634,11.866132,17.200602,1.373243,15.469207,24.184648,29.195718,11.157781,23.546791,29.236523,32.015675,19.458234,27.613426,30.168658,31.42602,26.491539,50.765132,71.043205,85.947189,42.468933,73.784545,90.409034,102.070449,31.216175,67.161781,86.96363,99.703399,22.102901,56.723899,75.129478,87.282371,15.569778,42.552932,57.748626,69.026802,-12.080875,-12.000402,-2.663221,8.649837,14.191035,34.297686,42.134233,46.683213,31.341879,50.714539,57.733634,61.093449,43.396769,62.231238,67.2523,68.017622,50.573637,66.378593,69.115853,67.877634,-4.487726,324.983606,-67.04302,294.335901
14,-8.249268,3.972503,0.30574,0.145743,9.366909,15.044964,20.391483,24.632984,-3.753834,16.733288,33.000996,44.822788,-13.045235,9.377232,28.048656,45.455097,-18.291733,2.162315,19.733631,34.614269,-19.611969,-19.284645,-19.551991,-17.916504,-15.810267,-26.642092,-30.13572,-31.595994,-15.427834,-2.719834,6.902535,12.499247,-2.121201,12.544003,21.277278,26.587591,9.143421,21.863042,27.554899,30.312796,18.913694,26.28226,28.536878,29.141847,26.34732,50.512768,70.654449,85.46196,42.325436,73.866646,90.469345,101.933899,30.993999,67.124908,86.88652,99.486511,21.83218,56.576843,74.961113,87.053787,15.262104,42.30273,57.456917,68.659973,-12.247194,-12.18532,-2.791896,8.570278,13.915345,34.110175,42.013807,46.585635,31.172683,50.666028,57.722396,61.086373,43.309368,62.187395,67.142841,67.888811,50.517926,66.362526,69.089609,67.852922,-12.812702,328.915836,-66.812988,294.441371
15,-0.123413,0.240011,0.311451,0.221178,9.276272,14.174183,19.208439,23.169674,-5.096214,16.696094,33.584301,45.687321,-14.763325,9.262974,28.183559,45.948223,-20.042473,2.414726,20.706356,35.883991,-21.001534,-22.175732,-25.003841,-25.471447,-15.225021,-26.847399,-31.597352,-34.356039,-16.153179,-2.632926,8.129726,14.229383,-2.654637,13.202239,22.418031,27.907667,8.666942,22.383203,28.448625,31.276831,18.587776,25.950278,28.822018,29.749249,26.199108,50.249485,70.233616,84.881527,42.066994,73.795612,90.358761,101.619884,30.743969,67.09798,86.847942,99.348301,21.655758,56.530346,74.910335,86.960689,15.163044,42.291527,57.422619,68.579395,-12.493998,-12.464098,-2.961772,8.530288,13.557698,33.764693,41.736498,46.344771,30.971401,50.513702,57.56382,60.87962,43.228635,62.089903,66.966889,67.674808,50.503612,66.311087,69.023116,67.780315,-12.991699,329.12181,-66.557121,294.628512
16,-1.893391,-1.63788,0.242798,0.170789,9.400154,14.944863,21.01458,25.867584,-3.24995,19.854561,36.555908,48.197068,-12.915264,12.476624,31.099709,48.43055,-18.234638,5.628136,23.609848,38.337754,-19.104114,-21.954288,-27.385151,-30.119224,-16.047598,-27.577079,-31.364121,-32.581234,-15.112092,0.108434,10.778584,16.727063,-0.951191,16.250856,25.268121,30.693771,10.479218,25.284633,30.819199,33.291006,20.320764,27.54492,30.46196,31.747937,26.080455,50.055164,69.865116,84.410557,41.835457,73.734707,90.25542,101.355114,30.474357,67.050808,86.816677,99.268192,21.426407,56.410183,74.852817,86.962246,14.976528,42.170414,57.29797,68.463535,-12.801527,-12.731243,-3.079061,8.545973,13.225765,33.512579,41.521928,46.137574,30.816,50.474355,57.485583,60.713981,43.165947,62.143046,66.946907,67.590581,50.434155,66.283695,69.029106,67.793406,-14.919777,327.451974,-66.34901,294.767345
17,-0.431957,-0.654332,0.168148,-0.006558,8.93803,14.580563,21.697323,27.503231,-2.881931,20.087254,36.721859,48.007381,-12.162449,13.266644,32.511005,49.686161,-17.261604,5.908894,24.131756,39.034252,-18.147823,-19.936123,-23.579029,-24.860676,-17.145175,-28.443623,-30.681816,-29.327024,-14.590795,0.323869,10.777929,17.041125,0.185177,16.92233,25.496264,30.604245,12.017371,26.029725,31.376953,33.889417,21.823633,28.732714,31.02279,31.761127,25.971473,49.954445,69.632858,84.127945,41.543724,73.702469,90.273926,101.295936,30.117004,67.015457,86.858185,99.29837,21.126056,56.307861,74.838569,87.014969,14.777344,42.139034,57.30384,68.476021,-12.980541,-12.745235,-2.961105,8.719529,13.075724,33.495153,41.558904,46.196373,30.76676,50.594385,57.619075,60.818846,43.17595,62.332361,67.110052,67.723727,50.419644,66.376852,69.182173,67.977028,-15.377283,326.766859,-66.206411,294.730004
18,7.717346,-5.14192,0.167312,0.01424,4.557461,6.217404,8.996922,10.621411,-13.089649,8.060017,26.028294,38.392491,-21.071754,3.247822,23.865063,42.026173,-24.855823,-3.299389,16.397083,32.616383,-24.751087,-25.804516,-26.437706,-24.871525,-10.447638,-16.951896,-15.864891,-11.635864,-8.30564,7.405875,17.844499,24.234913,4.029449,20.978628,30.069598,35.039518,13.652115,27.811571,34.166454,37.369596,21.468828,29.349341,32.599821,34.338231,25.943665,49.945919,69.530411,84.01442,41.627575,73.655365,90.203705,101.2118,30.194722,67.101975,86.913208,99.35978,21.196747,56.410286,74.926415,87.067452,14.797737,42.248257,57.376877,68.421479,-13.003797,-12.705604,-2.857994,8.824974,13.056668,33.474948,41.579208,46.191494,30.741319,50.517518,57.561956,60.759133,43.178074,62.272734,67.112484,67.769385,50.490632,66.407468,69.186668,67.941619,-7.68199,321.60509,-66.061152,294.724395
19,6.201714,-4.653572,0.224076,0.100159,0.77473,-0.693798,-1.752182,-3.92989,-21.357617,-1.666706,17.574543,31.128994,-28.519627,-5.02684,16.67419,35.651745,-31.338536,-11.442902,9.354618,26.587635,-30.653939,-31.79876,-30.217964,-26.633824,-6.956604,-9.542946,-5.105438,1.153287,-4.131572,12.726784,22.862077,29.111811,7.485718,24.147264,33.61123,38.457106,16.49535,30.383895,37.084148,40.570774,23.773031,32.539972,36.47761,39.09216,25.942543,49.898151,69.433685,83.978462,41.75362,73.648521,90.071113,100.993034,30.366085,67.181259,86.931839,99.339821,21.333526,56.524292,74.998901,87.064773,14.828544,42.330871,57.452842,68.437957,-13.035327,-12.773282,-2.948903,8.644379,13.057125,33.391968,41.486706,46.107217,30.7305,50.386681,57.43801,60.658986,43.172084,62.154495,67.002285,67.686232,50.53161,66.345409,69.076209,67.799174,-1.503279,316.935012,-65.860079,294.808048
20,-0.368088,-1.14284,0.25423,-0.067666,0.394169,-0.802265,-0.778381,-1.568333,-21.118149,-2.149029,16.928112,30.520191,-27.90287,-5.159431,16.753727,35.679783,-30.367104,-11.540153,9.083942,26.352161,-29.626396,-29.96925,-27.075554,-22.55817,-7.774747,-9.627494,-3.187383,5.318526,-3.404238,12.921113,22.441792,28.49101,8.561868,24.865273,33.827357,38.147429,17.845214,31.375866,37.894449,41.240111,25.088982,33.937273,37.59086,39.833128,25.939018,49.816326,69.279911,84.021549,41.764847,73.501248,89.936634,100.92564,30.38023,67.106838,86.92709,99.376888,21.252571,56.396885,74.936314,86.989277,14.603977,42.056809,57.239857,68.249668,-12.978541,-12.667047,-2.927241,8.408665,13.111564,33.468439,41.604451,46.31565,30.704182,50.38058,57.531328,60.907605,43.091809,62.127954,67.055007,67.83489,50.435341,66.330638,69.076654,67.794221,-1.903725,315.781857,-65.638207,294.730067
21,-1.135014,-3.50026,0.029,-0.179916,0.191597,-0.635627,-1.653156,-4.416366,-19.585338,-1.319732,18.022019,31.170021,-26.519416,-3.835704,18.60862,37.403801,-29.894805,-11.611072,9.624459,27.09977,-30.6847,-28.46957,-21.60942,-14.070304,-6.531045,-5.59854,3.643472,14.240336,-1.165996,15.085872,24.743736,31.193665,10.872518,26.570313,36.197165,40.673329,20.236511,33.327648,40.440258,44.235537,27.487109,37.292802,41.059108,42.981819,25.945129,49.851253,69.337383,84.262058,42.115093,73.68774,90.134822,101.188282,30.71371,67.203678,86.990238,99.427082,21.430583,56.258846,74.847805,86.923519,14.545177,41.707786,56.881588,67.919254,-12.907256,-12.540335,-2.791366,8.302047,13.061077,33.469514,41.858221,46.946455,30.46301,50.25104,57.786542,61.628134,42.741079,61.914619,67.203677,68.363276,50.094145,66.091058,69.027612,67.936914,-3.080344,312.274159,-65.650812,294.542713
22,-6.625774,-4.982876,0.20272,-0.477874,3.491261,6.360638,6.250992,2.755268,-11.670513,8.680149,27.847286,40.09473,-19.1269,6.356392,27.689312,45.12743,-23.914226,-2.631065,17.940594,33.875095,-26.6101,-22.203026,-15.460224,-8.607971,-6.820913,-3.996832,6.612593,17.881438,1.583182,19.857327,29.562652,35.687897,14.208758,32.12296,41.738907,45.943789,23.522671,38.845443,45.62649,49.081364,30.600664,42.51695,46.509225,48.614037,25.980423,49.613766,69.004109,84.353085,42.821869,73.764965,90.173412,101.521008,31.511788,66.985874,86.733616,99.396893,21.878334,55.743839,74.379605,86.67722,14.3256,40.728436,55.670769,66.542988,-12.673383,-12.225754,-2.495075,8.068457,13.01937,33.593657,42.540439,48.345274,30.093421,50.351397,58.904286,63.864092,42.20637,61.664295,67.963566,70.171538,49.61863,65.795175,69.215629,68.65927,-9.744804,307.274879,-65.486778,294.048435
23,-4.845818,-0.608241,0.424141,-1.276628,6.920254,13.337826,15.915047,14.055256,-4.699745,17.252072,35.76685,46.644917,-13.515907,13.444771,33.670613,49.629124,-19.568664,2.553132,21.836529,36.175496,-23.545406,-20.329387,-16.355461,-12.423934,-12.475238,-10.572004,1.653231,14.455932,-0.539242,18.224843,28.542658,35.202662,14.798054,32.772055,42.654776,47.228036,26.289262,41.583999,47.892261,51.317865,35.275503,46.483647,50.323449,52.451368,26.055016,49.231785,68.296658,83.923588,42.954804,73.387928,89.742153,101.268139,31.80328,66.398724,86.147793,99.11768,21.967793,54.92767,73.671284,86.291348,13.955669,39.580708,54.326958,65.064823,-12.614016,-11.99151,-2.04873,7.965074,12.056805,33.193255,42.896838,49.599512,28.971515,50.214262,60.010495,66.333071,41.208409,61.445377,68.954153,72.488179,48.955134,65.746182,69.844483,69.93764,-14.667658,306.633113,-65.139673,292.738282
24,1.607438,2.66306,1.092339,-2.439536,6.122783,10.811588,12.78804,11.633972,-4.67228,10.327045,22.095325,27.901828,-11.845688,6.904266,20.143764,30.05223,-16.447472,-0.500897,12.77964,22.121189,-18.932923,-16.918488,-14.813359,-12.988873,-9.003988,-6.403876,3.830959,15.435393,1.433795,16.75017,25.783663,31.974265,12.840974,28.689452,37.125052,41.205988,21.10907,34.787737,40.142943,43.34585,27.135774,36.215691,38.950975,40.393662,25.811805,48.432346,66.565258,81.759464,41.860267,71.024471,87.358005,99.176113,31.168853,64.022152,83.395191,96.427311,21.507957,51.77005,69.393779,81.223514,13.37915,36.002998,48.861568,57.53817,-13.116628,-12.682967,-2.955684,6.951589,9.606684,30.631625,41.222352,49.127232,26.406785,48.033261,58.909287,66.537513,38.887717,59.759405,68.414911,73.302259,47.132681,64.54915,69.466768,70.150197,-13.133394,309.244112,-64.120508,290.246685
25,10.620781,-2.996673,3.230816,-5.741146,-0.944516,-2.101811,-5.690094,-11.097428,-17.795025,-11.350182,-3.993325,-1.036972,-22.725438,-13.260407,-5.5761,0.453769,-25.204766,-17.141259,-8.812066,-3.077065,-25.676629,-27.030453,-26.294999,-25.382332,-9.907829,-7.168519,0.879486,9.723084,5.513657,20.592268,28.416885,33.390214,16.914241,32.44006,39.826867,43.14048,24.859851,38.52029,42.692073,45.156903,30.618695,40.07992,42.368452,43.956166,23.28757,43.774211,59.237148,72.393219,41.261444,64.242553,76.183296,84.081653,32.303237,57.004257,69.612682,77.080581,23.311328,45.214817,55.937599,62.541183,14.657707,30.840282,38.525219,42.823436,-8.46366,-5.077094,6.212178,17.031628,12.826684,35.022326,46.994496,55.511607,26.503054,49.876993,62.127299,70.407363,36.934835,59.076421,69.2026,74.842277,43.701458,62.085025,68.409453,70.300164,-2.562973,306.182415,-60.940052,284.440515
26,14.198799,-0.879696,1.430351,-12.990768,-8.393795,-16.340504,-24.922772,-32.76725,-30.977097,-35.219834,-34.089123,-34.551693,-32.209328,-35.44788,-35.140034,-34.084786,-30.927418,-34.266678,-33.549855,-32.958767,-27.97807,-36.694634,-41.584122,-45.148877,-10.41895,-8.669178,-1.655603,6.911587,6.584187,21.180094,28.554477,33.076842,18.155757,33.700373,40.171681,42.924341,26.368685,39.782653,43.673003,45.894067,32.099494,41.442344,43.755687,45.454922,21.873264,42.175564,56.759617,68.548874,45.977772,65.545555,72.776436,76.761898,39.193668,59.439651,66.166111,69.019798,30.92609,48.345531,53.565147,55.477524,21.953705,34.697628,37.972034,38.241783,-3.47661,0.598349,10.301513,19.230536,12.242501,31.914429,43.265723,50.93831,21.031696,42.481801,54.241883,61.782695,27.756267,47.685027,57.654544,63.02436,31.870339,47.965707,54.549104,56.852357,11.608492,305.236356,-59.537035,271.383384
27,20.330143,-0.935198,0.965584,-17.367106,-18.445382,-36.322564,-52.46727,-64.147065,-49.842945,-66.805184,-71.672276,-75.233643,-47.721531,-65.743595,-72.036518,-75.376477,-42.582322,-59.34795,-65.054215,-68.374455,-35.960518,-52.574078,-60.49276,-66.154587,-9.244951,-6.986368,0.817674,10.035862,8.120401,21.369409,28.404794,32.943524,19.252272,32.846637,39.134188,42.374862,27.579463,39.529477,43.695246,46.377338,33.437848,42.067036,44.957968,47.302162,18.607372,37.730449,51.556411,61.952339,46.414844,63.843017,66.580993,66.603572,42.354091,59.530998,60.191219,58.439952,35.862156,49.923122,49.290321,46.776249,27.81784,38.069915,36.838966,33.629207,-5.595081,-5.168954,1.378344,8.908831,0.706129,15.376705,25.648157,32.433157,8.851341,25.21688,35.539388,41.839214,16.060961,31.536368,40.074857,44.530137,21.494269,34.08934,39.702761,41.675625,31.971033,304.264037,-58.539053,253.979157
28,10.778206,-0.561422,2.091911,-24.223995,-24.755494,-48.440392,-68.722229,-81.584095,-57.798638,-85.044915,-96.928734,-104.696469,-52.300278,-82.467373,-96.27047,-105.190064,-44.469887,-71.712868,-84.574803,-92.916356,-35.648667,-56.776303,-67.179337,-74.842484,-10.308775,-9.425275,-3.17349,5.121789,8.73383,20.577077,26.552146,30.435814,20.281416,33.064591,38.063867,40.824691,29.043664,40.459499,44.115926,46.250317,34.840051,43.875038,46.211624,47.659474,18.898086,37.222069,48.638786,54.315514,44.451919,56.796684,57.66719,55.547115,39.853352,51.168331,49.714748,45.606125,32.99905,41.918289,39.212997,34.208588,24.544487,30.947124,28.307018,23.499527,-6.002177,-9.448307,-7.967729,-3.111084,-13.599089,-8.944189,0.544966,7.837455,-9.060946,-2.877723,6.556776,13.296531,-3.758895,2.917053,10.905389,16.244737,1.349074,7.022838,12.442486,15.798133,42.916655,303.847429,-56.279726,229.899976
29,6.093589,-4.081159,0.097687,-33.720566,-27.642128,-52.936317,-74.845962,-88.594173,-60.924556,-90.40686,-103.031238,-111.094448,-54.599613,-87.757587,-102.842651,-112.536918,-46.488784,-77.363765,-92.234859,-101.997677,-37.927643,-62.7682,-75.261749,-84.669227,-17.224067,-18.420827,-10.393867,-0.366378,7.291476,21.347265,28.223976,32.459437,24.002163,38.475311,43.89323,46.904662,37.036353,49.971533,53.807172,55.665983,46.305065,57.375877,60.337118,61.920225,18.925804,35.075889,44.622356,47.821735,39.859714,49.955131,49.975341,45.977932,35.234035,44.73349,42.298587,36.005161,29.014709,38.087562,34.62046,27.693786,21.718414,29.351749,27.140831,22.052467,-8.285577,-16.052588,-19.254254,-17.910997,-27.989127,-32.552619,-24.368478,-17.67261,-25.676815,-28.862673,-20.128979,-13.300378,-21.410856,-23.207262,-15.462785,-9.244228,-16.309315,-18.055425,-12.844759,-8.106155,49.368398,300.160358,-55.823885,196.573498
30,2.494446,-2.921153,-1.141814,-35.122749,-27.623657,-53.057007,-75.710094,-90.200729,-58.105797,-89.10759,-103.48986,-113.075626,-51.247673,-86.300686,-103.29546,-114.933597,-42.967026,-76.032097,-92.986256,-104.641331,-34.746918,-61.677956,-75.517113,-86.249245,-15.47432,-14.521165,-2.358347,11.696948,8.261341,23.581383,31.403753,36.618291,25.177915,40.236,46.504519,50.400242,38.455687,52.040851,56.660449,59.102295,47.745542,59.643994,63.373435,65.562203,21.284074,36.741369,46.127939,48.327862,34.095037,45.807493,48.603367,46.600763,28.122682,40.868637,43.103416,40.10054,21.908913,35.45625,36.498805,32.118926,15.987165,27.217305,28.294423,25.184832,-16.395274,-32.113772,-41.952342,-45.223291,-48.626574,-64.087641,-58.933588,-53.350187,-45.375403,-59.844533,-53.515903,-47.120765,-39.743885,-51.356421,-45.635056,-39.238751,-32.554187,-42.624992,-39.248974,-34.787555,52.487577,297.89496,-56.340966,162.106504
31,1.231979,-0.35178,1.859397,-32.497903,-27.771217,-53.188018,-75.946483,-90.306678,-58.205932,-88.852283,-103.410518,-113.45573,-51.592483,-86.16069,-103.150817,-115.283866,-43.537147,-76.148002,-92.877983,-104.675262,-35.444343,-62.176528,-75.791828,-86.215679,-15.768684,-14.781048,-1.906272,12.773024,9.010003,23.834288,31.550867,37.06918,25.997319,40.318092,46.468939,50.759864,39.175709,52.373155,56.912342,59.510256,48.380423,59.857861,63.503432,65.848898,22.516301,35.077222,42.416043,42.918125,21.725263,31.292043,36.588867,36.376,13.996287,25.222985,30.778256,30.096014,7.730805,20.927664,24.644962,22.24959,2.981786,14.030207,17.361811,15.899112,-25.470447,-47.37697,-61.015036,-66.307827,-66.084959,-89.158039,-86.376901,-81.704881,-59.855243,-82.49239,-78.334588,-72.376717,-50.999797,-69.708357,-66.115132,-60.079791,-40.404906,-56.065795,-54.602662,-50.852414,54.705322,298.506135,-53.495803,130.571556
32,0.07631,-0.412863,3.193845,-32.507972,-27.977143,-53.22258,-75.907963,-90.534336,-57.996941,-88.534539,-103.114357,-113.293293,-51.275849,-85.716305,-102.65379,-114.770005,-43.175606,-75.757794,-92.54036,-104.420483,-35.047806,-61.72799,-75.483113,-85.998986,-15.638205,-14.609999,-1.761752,12.84789,9.673153,24.441369,32.187415,37.713348,26.672609,40.899756,47.042847,51.247655,39.752384,52.870271,57.363972,59.898011,48.77954,60.199995,63.819607,66.172841,25.569234,36.29704,41.496114,40.08498,12.425546,17.959073,24.915951,26.03922,2.254582,10.044571,18.480068,19.767787,-5.060658,5.992268,12.281618,11.452189,-9.650302,-0.41862,5.080975,4.902296,-28.291929,-52.584213,-68.655239,-76.378998,-73.265588,-101.958867,-102.599068,-100.195921,-67.983143,-96.472309,-95.579647,-91.367078,-59.954826,-84.336902,-83.721086,-79.376084,-49.916649,-70.547924,-71.100368,-68.715442,56.123143,299.31811,-48.960447,99.288422
33,-0.136254,-0.212014,2.863485,-29.551601,-27.931183,-52.922859,-75.411621,-90.000309,-57.86412,-88.171199,-102.64738,-112.758419,-51.102722,-85.339656,-102.079765,-114.07085,-42.933906,-75.377151,-91.997188,-103.858394,-34.770332,-61.383224,-75.076183,-85.569671,-15.599167,-14.48288,-1.400808,13.268422,10.211876,24.904806,32.596536,38.099399,27.211357,41.326167,47.402037,51.536153,40.172262,53.240637,57.71322,60.240244,49.044129,60.511069,64.078724,66.39329,25.028092,33.548275,38.422371,38.576661,5.016095,8.443715,13.863888,14.389493,-4.429389,1.47194,8.246556,9.092743,-10.866851,-1.391784,3.223309,1.967251,-14.217533,-6.44704,-2.229778,-2.999816,-33.336386,-60.333931,-77.424006,-86.471355,-77.396293,-107.475863,-113.248267,-115.74005,-70.116907,-100.364692,-104.923996,-105.508835,-60.734728,-87.567258,-92.485796,-93.186824,-49.828414,-72.894249,-77.423734,-79.225815,57.661743,300.560698,-44.422108,71.191423
34,-0.07061,-0.306257,5.055188,-23.74898,-27.877807,-52.681549,-75.013881,-89.538013,-57.599189,-87.916591,-102.440391,-112.545398,-50.728889,-84.987579,-101.723121,-113.658256,-42.412788,-74.915107,-91.543487,-103.41315,-34.131202,-60.756592,-74.43742,-84.933391,-15.499687,-14.196692,-0.813105,13.926854,10.834739,25.41048,33.048857,38.582114,27.878248,41.862321,47.936141,52.072541,40.695621,53.770246,58.332329,60.933516,49.308754,60.88435,64.503887,66.837843,25.052513,32.720741,37.278351,37.522545,0.486053,-1.297795,1.02911,0.494751,-9.109143,-9.45797,-5.62603,-5.147965,-16.120835,-12.989434,-10.482182,-11.460354,-20.219342,-17.898777,-15.446308,-16.146778,-36.550167,-65.803789,-84.09528,-94.299054,-80.579384,-112.519087,-124.206504,-131.838253,-72.574092,-105.234663,-116.631201,-122.705713,-62.734262,-92.744777,-104.820879,-111.836199,-51.375879,-76.773867,-86.36491,-93.304712,59.648655,301.561206,-37.309398,48.749208
35,-0.021515,-0.251398,3.998961,-19.20554,-27.931732,-52.567566,-74.670982,-89.004776,-57.554054,-87.743969,-102.191219,-112.268543,-50.574005,-84.681427,-101.360836,-113.278209,-42.081115,-74.46342,-90.997295,-102.849838,-33.618301,-60.086197,-73.732647,-84.2597,-15.276707,-13.747853,-0.06947,14.651594,11.456578,25.947152,33.541922,39.099817,28.486094,42.287213,48.403974,52.597123,41.155772,54.148541,58.839769,61.537595,49.581443,61.231251,64.882454,67.236787,24.801868,31.703589,36.036162,36.35721,-3.414277,-9.398443,-9.554871,-10.936382,-13.021347,-18.402147,-16.946574,-16.769156,-20.366358,-22.347232,-21.576602,-22.379818,-24.934561,-26.981069,-25.987074,-26.696725,-39.082348,-70.090182,-89.333781,-100.503441,-82.884223,-116.230897,-132.58989,-144.253854,-74.305356,-108.871362,-125.67979,-136.045848,-64.120566,-96.67241,-114.427012,-126.422505,-52.445901,-79.713143,-93.321807,-104.325184,61.773153,302.462123,-31.164424,30.695983
36,0.151223,-0.203752,2.942735,-14.662101,-28.025322,-52.733529,-74.774552,-89.067856,-57.451973,-87.52739,-101.953652,-112.047295,-50.366181,-84.356644,-100.96811,-112.832383,-41.719666,-74.066185,-90.492875,-102.255146,-33.157448,-59.515938,-73.10717,-83.609116,-15.165061,-13.376127,0.635436,15.347052,12.197522,26.784994,34.256461,39.700192,29.259741,42.900592,48.875859,52.986349,41.791172,54.65608,59.344949,62.073218,49.951711,61.569384,65.213474,67.593594,24.276155,30.49682,34.695805,35.080655,-6.684898,-15.858232,-17.888055,-19.903908,-16.166004,-25.360593,-25.715077,-25.77083,-23.603423,-29.46518,-30.059951,-30.791141,-28.363191,-33.693916,-33.852074,-34.649657,-40.932925,-73.193109,-93.13951,-105.084517,-84.310809,-118.611292,-138.398424,-152.986851,-75.3107,-111.27479,-132.069761,-145.529239,-64.893639,-99.350157,-121.304192,-136.945743,-53.038479,-81.712077,-98.294426,-112.287231,63.974053,303.194032,-26.172012,16.969543
37,0.337417,-0.21951,1.88651,-10.118662,-27.985336,-52.574386,-74.428402,-88.513641,-57.319336,-87.349125,-101.792701,-111.988518,-50.182548,-84.081859,-100.671592,-112.63496,-41.447731,-73.713203,-90.139835,-102.031002,-32.804374,-59.110176,-72.751579,-83.451187,-15.015465,-13.064844,1.189609,15.835102,12.813506,27.370573,34.758565,40.226145,29.876343,43.257818,49.161911,53.257779,42.282075,55.008403,59.821983,62.652202,50.309431,62.011443,65.653383,68.01998,23.475374,29.100432,33.257278,33.69288,-9.32581,-20.677161,-23.970443,-26.407828,-18.543114,-30.333309,-31.931541,-32.15299,-25.832029,-34.34328,-35.932231,-36.694325,-30.505234,-38.037319,-39.041311,-40.005575,-42.101901,-75.11257,-95.512465,-108.042281,-84.85914,-119.660272,-141.632106,-158.037246,-75.590123,-112.444945,-135.801116,-151.155886,-65.053482,-100.778017,-125.45242,-143.405911,-53.153613,-82.770668,-101.282765,-117.190853,66.252125,303.609915,-22.344847,7.486274
38,0.256806,-0.151437,0.830283,-5.575222,-28.071854,-52.569237,-74.204533,-88.277951,-57.230324,-87.15588,-101.545212,-111.767933,-50.000771,-83.712399,-100.203862,-112.158497,-41.171814,-73.250473,-89.622654,-101.560902,-32.428231,-58.508561,-72.134514,-82.923901,-14.883406,-12.688635,1.6877,16.192526,13.282106,27.970997,35.350011,40.916169,30.250983,43.56436,49.396698,53.564654,42.564966,55.25191,60.18699,63.184145,50.52026,62.328383,66.068211,68.5703,22.399527,27.514428,31.720583,32.193887,-11.337011,-23.85523,-27.802033,-30.448138,-20.152675,-33.320292,-35.595962,-35.915632,-27.052176,-36.981528,-39.193439,-40.089367,-31.360687,-40.011276,-41.554783,-42.764478,-42.589275,-75.848566,-96.452649,-109.376734,-84.529219,-119.377838,-142.290936,-159.405039,-75.143626,-112.381829,-136.873854,-152.925789,-64.600094,-100.955991,-126.871698,-145.803011,-52.791303,-82.888917,-102.286826,-119.036051,68.174933,303.690268,-19.848562,2.142842
39,0.279121,-0.045066,-0.225942,-1.031783,-28.164848,-52.576469,-74.012936,-88.088367,-57.202286,-86.824367,-101.067684,-111.28418,-49.878021,-83.26981,-99.627937,-111.59071,-40.94561,-72.784698,-89.053883,-100.985401,-32.100082,-58.049286,-71.659161,-82.528496,-14.784617,-12.407016,2.052843,16.351188,13.600245,28.529333,35.903382,41.468329,30.471853,43.766222,49.595992,53.816028,42.730816,55.349056,60.366363,63.485834,50.690716,62.518933,66.340049,68.953413,21.048612,25.738804,30.085719,30.583672,-12.718503,-25.39244,-29.382827,-32.024843,-20.99469,-34.321545,-36.708343,-37.058758,-27.263866,-37.379928,-39.843579,-40.97627,-30.929553,-39.61579,-41.392491,-42.926367,-42.395047,-75.401096,-95.960059,-109.087875,-83.321045,-117.763989,-140.374914,-157.090228,-73.971208,-111.08544,-135.287975,-150.838948,-63.533476,-99.884078,-125.562023,-144.137043,-51.951549,-82.066824,-101.306608,-117.822825,69.696911,303.640509,-18.831647,1.106366
40,0.528397,0.084327,-0.225943,-1.031783,-27.97538,-52.384758,-73.794354,-87.775418,-57.075669,-86.614724,-100.812653,-110.991806,-49.721695,-83.101284,-99.423146,-111.345852,-40.744835,-72.636521,-88.923329,-100.873169,-31.838173,-57.915619,-71.5429,-82.431691,-14.869734,-12.558317,1.76353,16.064122,13.708715,28.668085,35.968849,41.518396,30.548163,43.698049,49.491411,53.756426,42.795518,55.300569,60.361472,63.607061,50.800804,62.577966,66.428993,69.176282,19.697697,23.963181,28.450856,28.973459,-14.099994,-26.929649,-30.96362,-33.601546,-21.836703,-35.322798,-37.820724,-38.201884,-27.475554,-37.778326,-40.493717,-41.863171,-30.498417,-39.220303,-41.230199,-43.088255,-42.200819,-74.953626,-95.467469,-108.799016,-82.11287,-116.150141,-138.458892,-154.775418,-72.79879,-109.789052,-133.702096,-148.752107,-62.466858,-98.812165,-124.252349,-142.471074,-51.111795,-81.244731,-100.32639,-116.609598,71.270714,303.493966,-18.012184,-0.156287
41,0.553115,-0.025096,-0.225942,-1.031782,-27.69889,-51.884719,-73.087657,-86.964466,-56.920761,-86.298557,-100.515163,-110.815544,-49.509361,-82.82349,-99.187522,-111.23307,-40.464317,-72.394386,-88.719051,-100.739753,-31.440948,-57.582504,-71.257896,-82.250003,-14.836005,-12.434013,1.938173,16.085834,13.893151,28.830761,36.091264,41.68574,30.648051,43.660765,49.55641,53.947519,42.811339,55.226481,60.440464,63.872688,50.799817,62.583401,66.511838,69.378095,18.346782,22.187558,26.815991,27.363245,-15.481486,-28.46686,-32.544414,-35.17825,-22.678718,-36.324051,-38.933105,-39.345011,-27.687243,-38.176726,-41.143856,-42.750074,-30.067283,-38.824817,-41.067907,-43.250145,-42.006592,-74.506158,-94.97488,-108.510158,-80.904696,-114.536293,-136.54287,-152.460609,-71.626373,-108.492665,-132.116217,-146.665268,-61.40024,-97.740254,-122.942675,-140.805106,-50.272043,-80.422638,-99.346172,-115.396372,72.763195,302.948839,-17.29876,-1.7081
42,0.741509,0.253609,-0.225943,-1.031783,-27.672638,-51.769066,-72.839802,-86.529293,-56.88858,-86.089851,-100.233158,-110.492043,-49.416275,-82.579926,-98.913185,-110.932606,-40.323326,-72.140579,-88.375637,-100.28944,-31.211197,-57.268936,-70.858601,-81.71648,-14.9013,-12.49837,1.905581,16.188044,13.831129,28.761132,36.090226,41.797496,30.577446,43.595828,49.615431,54.158026,42.740931,55.157802,60.435882,64.002055,50.73115,62.47393,66.448742,69.420122,16.995868,20.411935,25.181128,25.753031,-16.862978,-30.004069,-34.125207,-36.754953,-23.520732,-37.325303,-40.045485,-40.488137,-27.898931,-38.575124,-41.793995,-43.636975,-29.636147,-38.429329,-40.905614,-43.412033,-41.812364,-74.058688,-94.48229,-108.221299,-79.696522,-112.922444,-134.626848,-150.145799,-70.453955,-107.196276,-130.530338,-144.578427,-60.333622,-96.668341,-121.633001,-139.139138,-49.432289,-79.600545,-98.365954,-114.183145,74.324667,302.483278,-16.70474,-3.459053
43,0.854874,0.226488,-0.225942,-1.031783,-27.561814,-51.557648,-72.614273,-86.121621,-56.715042,-85.91811,-100.133686,-110.448098,-49.195588,-82.436039,-98.878727,-110.985146,-40.074005,-71.946751,-88.19513,-100.112927,-30.931321,-57.064934,-70.662346,-81.496296,-14.992901,-12.732144,1.664125,16.243879,13.736985,28.591997,35.953474,41.698473,30.575927,43.560149,49.710404,54.345661,42.755344,55.177365,60.493384,64.111872,50.726395,62.440856,66.372073,69.328312,15.644952,18.636312,23.546264,24.142817,-18.24447,-31.541279,-35.706001,-38.331658,-24.362746,-38.326556,-41.157866,-41.631263,-28.11062,-38.973524,-42.444134,-44.523878,-29.205013,-38.033843,-40.743322,-43.573922,-41.618136,-73.611218,-93.989701,-107.93244,-78.488347,-111.308595,-132.710826,-147.830988,-69.281538,-105.899888,-128.944459,-142.491586,-59.267004,-95.596429,-120.323326,-137.473169,-48.592535,-78.778452,-97.385736,-112.969918,75.988015,301.903352,-16.122208,-5.29725
44,0.739425,0.16538,-0.225943,-1.031783,-27.505279,-51.458564,-72.578613,-85.875801,-56.525871,-85.839191,-100.142749,-110.477634,-48.902595,-82.348594,-98.904075,-111.0779,-39.734459,-71.740825,-88.041492,-100.031181,-30.588089,-56.843353,-70.439621,-81.254459,-15.057652,-12.887706,1.526681,16.482272,13.767502,28.521627,35.937839,41.72978,30.705492,43.686317,49.925258,54.621476,42.867359,55.34813,60.691195,64.311449,50.766743,62.510918,66.382101,69.294213,14.294038,16.860689,21.9114,22.532604,-19.625961,-33.078488,-37.286793,-39.908361,-25.20476,-39.327808,-42.270247,-42.774389,-28.322308,-39.371922,-43.094273,-45.41078,-28.773877,-37.638356,-40.58103,-43.73581,-41.423908,-73.163748,-93.497111,-107.643581,-77.280172,-109.694746,-130.794804,-145.516178,-68.10912,-104.603499,-127.35858,-140.404745,-58.200385,-94.524516,-119.013652,-135.8072,-47.752781,-77.956359,-96.405518,-111.756691,77.52202,301.268425,-15.553571,-7.12934
45,0.686325,0.154265,-0.225942,-1.031782,-27.584701,-51.513198,-72.644966,-85.905441,-56.332145,-85.642582,-100.001232,-110.416477,-48.636451,-82.148094,-98.773235,-111.104702,-39.462158,-71.445305,-87.798557,-99.932991,-30.382324,-56.621818,-70.248745,-81.115905,-15.091158,-12.906515,1.61339,16.785751,13.935031,28.790698,36.13833,41.78002,30.957878,43.991228,50.141693,54.737863,43.063466,55.649595,60.971974,64.522919,50.82716,62.678459,66.5191,69.356593,12.943123,15.085065,20.276536,20.922389,-21.007453,-34.615698,-38.867587,-41.485065,-26.046774,-40.329061,-43.382628,-43.917516,-28.533997,-39.770322,-43.744412,-46.297682,-28.342742,-37.24287,-40.418738,-43.8977,-41.229681,-72.71628,-93.004522,-107.354723,-76.071999,-108.080898,-128.878783,-143.201369,-66.936703,-103.307112,-125.772702,-138.317906,-57.133768,-93.452604,-117.703978,-134.141233,-46.913028,-77.134266,-95.425301,-110.543466,78.896026,300.591338,-15.091832,-8.992474
46,0.422837,0.122167,-0.225943,-1.031783,-27.738648,-51.699051,-72.791714,-85.773228,-56.274559,-85.614842,-99.991757,-110.356648,-48.555382,-82.099961,-98.771828,-111.130909,-39.366738,-71.2603,-87.62629,-99.871628,-30.292511,-56.482842,-70.122208,-81.045925,-15.131963,-13.000413,1.495237,17.04388,13.92021,28.734851,36.116717,41.677465,31.084478,44.212888,50.351447,54.825943,43.256584,56.012725,61.290989,64.667786,51.049202,63.065844,66.867447,69.531779,11.592208,13.309443,18.641673,19.312176,-22.388944,-36.152907,-40.44838,-43.061768,-26.888788,-41.330313,-44.495008,-45.060642,-28.745685,-40.16872,-44.39455,-47.184584,-27.911607,-36.847383,-40.256445,-44.059588,-41.035453,-72.26881,-92.511932,-107.065864,-74.863824,-106.467049,-126.962761,-140.886558,-65.764285,-102.010724,-124.186822,-136.231065,-56.06715,-92.380692,-116.394304,-132.475264,-46.073274,-76.312173,-94.445083,-109.330239,79.934315,299.944515,-14.702323,-10.793247
47,0.249252,0.104124,-0.225942,-1.031783,-27.658653,-51.521553,-72.635033,-85.632271,-56.217613,-85.544392,-99.975941,-110.3825,-48.574883,-82.130344,-98.875168,-111.337177,-39.438721,-71.286438,-87.702415,-100.037842,-30.413589,-56.551506,-70.24118,-81.261772,-15.195245,-13.20335,1.161797,16.867397,13.983801,28.63064,35.952411,41.458066,31.174831,44.192361,50.25908,54.652511,43.323434,56.030064,61.253037,64.502245,51.094366,63.192012,66.959417,69.510166,10.241293,11.533819,17.006808,17.701962,-23.770436,-37.690117,-42.029174,-44.638473,-27.730803,-42.331567,-45.60739,-46.203768,-28.957374,-40.567119,-45.04469,-48.071486,-27.480472,-36.451896,-40.094153,-44.221477,-40.841225,-71.82134,-92.019343,-106.777005,-73.655649,-104.8532,-125.046739,-138.571748,-64.591867,-100.714335,-122.600943,-134.144224,-55.000531,-91.308779,-115.084629,-130.809295,-45.233521,-75.49008,-93.464864,-108.117012,80.693069,299.440478,-14.418763,-12.433191
48,0.074364,0.115127,-0.225943,-1.031783,-27.586739,-51.382691,-72.453106,-85.512623,-56.135376,-85.401009,-99.836769,-110.264889,-48.545746,-82.051873,-98.854191,-111.440895,-39.454308,-71.256363,-87.747322,-100.186764,-30.456757,-56.535141,-70.336647,-81.528706,-15.235815,-13.19584,1.171998,16.813687,14.061607,28.730429,36.022054,41.433848,31.225949,44.259509,50.262205,54.554748,43.34522,56.057024,61.288038,64.473087,51.11488,63.293271,67.157377,69.704965,8.890379,9.758196,15.371945,16.091748,-25.151927,-39.227326,-43.609967,-46.215176,-28.572816,-43.332819,-46.71977,-47.346894,-29.169063,-40.965518,-45.694828,-48.958388,-27.049337,-36.056409,-39.93186,-44.383365,-40.646997,-71.37387,-91.526753,-106.488146,-72.447474,-103.239352,-123.130717,-136.256938,-63.419449,-99.417947,-121.015064,-132.057383,-53.933913,-90.236866,-113.774955,-129.143327,-44.393767,-74.667987,-92.484646,-106.903785,81.186322,299.019849,-14.225817,-14.00073
49,0.247146,0.208927,-0.225942,-1.031782,-27.636886,-51.275734,-72.217758,-85.579971,-56.231163,-85.467704,-99.981731,-110.561611,-48.686989,-82.079246,-98.922546,-111.64246,-39.647758,-71.394893,-87.945842,-100.405758,-30.645538,-56.633262,-70.52362,-81.78812,-15.406852,-13.433951,0.906101,16.304591,14.192813,28.724105,35.951176,41.305789,31.357736,44.23534,50.188549,54.423491,43.425582,55.968523,61.209083,64.408829,51.14442,63.310882,67.255967,69.830959,7.539464,7.982573,13.737081,14.481534,-26.533419,-40.764536,-45.190761,-47.79188,-29.414831,-44.334072,-47.832151,-48.490021,-29.380752,-41.363917,-46.344967,-49.84529,-26.618202,-35.660923,-39.769569,-44.545254,-40.45277,-70.926402,-91.034164,-106.199288,-71.239301,-101.625504,-121.214696,-133.942128,-62.247032,-98.121559,-119.429186,-129.970543,-52.867295,-89.164955,-112.465281,-127.477359,-43.554014,-73.845895,-91.504429,-105.690559,81.724811,298.81615,-14.160416,-15.445138
50,0.055481,0.188548,-0.225943,-1.031783,-27.684906,-51.201462,-71.992344,-85.800922,-56.32885,-85.570621,-100.165638,-110.92036,-48.757301,-82.069324,-98.967396,-111.813926,-39.742058,-71.470299,-88.096126,-100.592296,-30.694404,-56.640129,-70.598945,-81.948498,-15.459141,-13.441644,0.90205,15.865781,14.326195,28.673718,35.95272,41.417545,31.414016,44.246665,50.331921,54.677174,43.415357,55.868537,61.214987,64.532775,51.11982,63.255789,67.285225,69.926649,6.188549,6.20695,12.102217,12.871321,-27.914911,-42.301745,-46.771554,-49.368583,-30.256845,-45.335324,-48.944531,-49.633147,-29.59244,-41.762316,-46.995106,-50.732192,-26.187067,-35.265436,-39.607276,-44.707143,-40.258542,-70.478932,-90.541574,-105.91043,-70.031126,-100.011655,-119.298674,-131.627318,-61.074614,-96.825171,-117.843307,-127.883703,-51.800677,-88.093042,-111.155607,-125.81139,-42.71426,-73.023801,-90.524211,-104.477332,82.022861,298.744232,-14.14379,-16.737387
51,0.108834,0.334033,-0.225943,-1.031783,-27.707245,-51.148774,-71.99722,-86.34343,-56.4413,-85.711728,-100.354992,-111.238953,-48.807747,-82.094193,-99.020531,-111.99939,-39.797974,-71.508614,-88.215512,-100.779683,-30.723816,-56.644867,-70.65548,-82.055317,-15.57233,-13.667737,0.600078,15.268345,14.421982,28.625256,35.883337,41.436947,31.413311,44.146098,50.321176,54.844518,43.311776,55.642074,61.131438,64.668934,50.941818,63.024261,67.152375,69.961537,4.837635,4.431327,10.467354,11.261107,-29.296402,-43.838954,-48.352347,-50.945287,-31.098858,-46.336576,-50.056912,-50.776272,-29.804128,-42.160714,-47.645244,-51.619094,-25.755931,-34.869948,-39.444983,-44.869031,-40.064314,-70.031462,-90.048984,-105.621571,-68.822951,-98.397806,-117.382652,-129.312508,-59.902196,-95.528783,-116.257427,-125.796862,-50.734059,-87.021129,-109.845933,-124.145422,-41.874506,-72.201708,-89.543993,-103.264106,82.309679,298.957135,-14.191749,-17.8903
52,0.045478,0.334317,-0.225942,-1.031783,-27.784584,-51.298118,-72.271465,-87.031665,-56.450431,-85.942108,-100.62284,-111.543972,-48.672546,-82.159286,-99.103569,-112.141983,-39.612121,-71.518753,-88.306572,-100.916359,-30.525535,-56.604103,-70.685073,-82.143516,-15.699005,-13.779963,0.521877,14.990579,14.400159,28.721882,36.050977,41.686357,31.34914,44.176442,50.47885,55.150651,43.197179,55.513311,61.18232,64.92584,50.778537,62.831353,67.098319,70.089632,3.48672,2.655704,8.83249,9.650893,-30.677894,-45.376164,-49.933141,-52.521991,-31.940873,-47.337829,-51.169293,-51.919399,-30.015817,-42.559114,-48.295383,-52.505996,-25.324796,-34.474462,-39.282691,-45.03092,-39.870086,-69.583993,-89.556395,-105.332712,-67.614777,-96.783957,-115.466629,-126.997697,-58.729778,-94.232394,-114.671548,-123.710021,-49.66744,-85.949217,-108.536258,-122.479453,-41.034752,-71.379615,-88.563775,-102.050879,82.473867,299.238412,-14.298981,-18.975123
53,-0.019592,0.384544,-0.225943,-1.031782,-27.743179,-51.362961,-72.45639,-87.423981,-56.60701,-86.377361,-101.13097,-112.05653,-48.684471,-82.453697,-99.480411,-112.49461,-39.492279,-71.717285,-88.648636,-101.262073,-30.28006,-56.699547,-70.851116,-82.292404,-15.877957,-14.063076,0.174322,14.580668,14.406483,28.721685,36.157966,42.026763,31.333024,44.05188,50.481901,55.395887,43.146829,55.322627,61.11647,65.088652,50.676118,62.661737,67.029356,70.250912,2.135805,0.880081,7.197626,8.04068,-32.059385,-46.913373,-51.513934,-54.098694,-32.782886,-48.339081,-52.281673,-53.062525,-30.227505,-42.957512,-48.945522,-53.392898,-24.893661,-34.078975,-39.120399,-45.192808,-39.675859,-69.136524,-89.063806,-105.043854,-66.406603,-95.170109,-113.550608,-124.682888,-57.557361,-92.936007,-113.08567,-121.623181,-48.600823,-84.877305,-107.226585,-120.813485,-40.194999,-70.557523,-87.583558,-100.837653,82.549198,299.603378,-14.430001,-20.026483
54,-0.172508,0.397537,0.268896,1.139255,-27.602348,-51.411942,-72.620041,-87.709568,-56.770981,-86.679806,-101.373642,-112.176224,-48.799461,-82.696713,-99.716663,-112.675896,-39.553414,-71.918266,-88.905613,-101.549881,-30.286583,-56.806297,-70.958943,-82.426346,-15.982303,-14.169694,0.034346,14.333703,14.205164,28.658749,36.188841,42.277086,31.040475,43.849066,50.375924,55.533788,42.865407,55.073624,61.012371,65.203989,50.446098,62.460184,66.919008,70.321147,1.209546,-0.506554,6.109576,7.876375,-34.912789,-49.202727,-53.601491,-56.236537,-35.1773,-49.867127,-53.980996,-55.404333,-31.886637,-44.197882,-50.043605,-54.726695,-25.415174,-34.686811,-39.791011,-45.769246,-38.459252,-67.540353,-88.206025,-104.69029,-64.167424,-92.775352,-111.164115,-122.739278,-56.007443,-91.42209,-111.643361,-121.089922,-47.929049,-84.311965,-106.571182,-120.261883,-40.748207,-71.104573,-88.020392,-100.934828,82.491715,300.011314,-14.04608,-18.876829
55,-0.179947,0.411048,-0.39149,1.843605,-27.428787,-51.396355,-72.807335,-88.006004,-56.832298,-86.932228,-101.641663,-112.329838,-48.847687,-82.936352,-99.965458,-112.85812,-39.574516,-72.124901,-89.07209,-101.60693,-30.330986,-57.038429,-71.193729,-82.671124,-16.190205,-14.44478,-0.314211,14.072894,13.923174,28.554181,36.198907,42.397573,30.81059,43.718526,50.25808,55.435148,42.709117,54.961003,60.937875,65.171755,50.312519,62.363038,66.935075,70.478437,0.079043,-2.336267,4.346718,7.097839,-38.576466,-51.299582,-55.153013,-57.638595,-38.189176,-50.98023,-55.009428,-56.883845,-33.516327,-44.68322,-50.462299,-55.386197,-25.201788,-34.038813,-39.072679,-45.015053,-36.614587,-64.920521,-86.095658,-102.4019,-60.730207,-90.071109,-108.675395,-120.770877,-53.346714,-90.012631,-110.814081,-121.764097,-46.540151,-84.16376,-106.646191,-120.949225,-41.224568,-72.556752,-89.556006,-102.427863,82.433567,300.446846,-14.315771,-17.00874
56,-0.18187,0.30333,-1.335814,1.815705,-27.24987,-51.359344,-72.931549,-88.172287,-56.839302,-87.173687,-101.906318,-112.477146,-48.854713,-83.201499,-100.284336,-113.080947,-39.539062,-72.357284,-89.312931,-101.728328,-30.275436,-57.156166,-71.335773,-82.824829,-16.319139,-14.481398,-0.359585,14.003796,13.725363,28.574509,36.317542,42.56761,30.70722,43.718427,50.296291,55.457144,42.686418,54.963721,60.986905,65.237112,50.30075,62.358777,67.022156,70.65434,-3.149438,-8.081426,-3.84108,-1.723726,-42.602104,-53.338272,-56.433914,-58.528222,-40.853505,-51.676024,-55.248433,-57.143056,-34.132662,-44.353861,-49.672863,-54.327522,-23.487587,-32.322723,-37.122909,-42.72727,-33.281532,-59.759627,-80.530801,-96.161704,-56.254192,-87.002243,-105.861689,-118.770249,-50.126921,-88.014171,-109.460486,-122.323753,-45.115988,-83.583861,-106.110817,-121.1067,-42.119927,-73.889563,-90.906028,-104.017986,82.342763,300.776089,-15.560519,-15.167122
57,-0.086746,0.1493,-2.668335,2.275164,-27.2154,-51.446892,-73.077942,-88.258873,-57.038681,-87.399788,-102.145786,-112.722667,-49.074806,-83.388805,-100.540329,-113.358227,-39.729561,-72.530571,-89.525642,-101.98669,-30.387497,-57.198601,-71.399231,-82.963508,-16.383545,-14.47994,-0.398314,13.838947,13.737454,28.654859,36.413873,42.635906,30.825139,43.855847,50.475133,55.617781,42.858294,55.178168,61.26151,65.541777,50.480851,62.533753,67.229267,70.918718,-6.302124,-13.586334,-11.581363,-9.579929,-45.864715,-54.044185,-56.250148,-57.802574,-42.740535,-50.91608,-54.053821,-55.981487,-34.122528,-42.784401,-47.38821,-51.600711,-21.41827,-29.703724,-34.128009,-39.302467,-29.102413,-53.521046,-73.750363,-88.682484,-52.172232,-84.310178,-103.664782,-117.544318,-47.666792,-86.935361,-109.147966,-124.062141,-44.695133,-83.86828,-106.557968,-122.324392,-43.875298,-75.64628,-92.835304,-106.282833,82.340543,300.957049,-18.144328,-12.860298
58,-0.12133,0.145497,-2.834449,1.744208,-27.31208,-51.661743,-73.324436,-88.70779,-57.280586,-87.5984,-102.26651,-112.806267,-49.390709,-83.561874,-100.65382,-113.506187,-40.106827,-72.699211,-89.62801,-102.177475,-30.772087,-57.293884,-71.468674,-83.134495,-16.435984,-14.481979,-0.395524,13.597687,13.577322,28.515648,36.284245,42.435105,30.726486,43.909853,50.561879,55.648187,42.833037,55.266359,61.418651,65.675157,50.555778,62.630923,67.34553,70.973614,-9.459744,-18.826905,-18.883164,-16.82079,-48.501355,-54.218216,-55.672451,-56.631981,-43.984143,-49.706589,-52.575268,-54.47271,-33.658402,-40.97279,-44.975029,-48.602887,-19.113591,-27.177613,-31.380284,-36.050412,-24.541836,-46.902692,-66.48849,-80.625907,-47.82583,-81.361935,-101.30625,-116.279879,-45.01865,-85.418869,-108.499142,-125.641815,-44.100279,-83.772677,-106.694578,-123.349572,-45.428543,-77.042555,-94.329596,-108.075299,82.283638,301.163583,-20.914352,-11.055053
59,-0.246597,0.146435,-3.58508,-0.663341,-27.247948,-51.656159,-73.465748,-88.949524,-57.253464,-87.703549,-102.451104,-112.982838,-49.458779,-83.775547,-100.94236,-113.803425,-40.236855,-72.888153,-89.836052,-102.409161,-30.96579,-57.469574,-71.697602,-83.466912,-16.506441,-14.53974,-0.399982,13.579965,13.290837,28.414822,36.316751,42.445862,30.566268,43.993117,50.684343,55.635441,42.766001,55.366321,61.560035,65.719432,50.56346,62.699367,67.48369,71.097979,-12.755058,-23.947643,-26.1557,-24.901085,-49.103428,-53.035537,-54.007564,-54.375297,-43.199237,-47.540348,-50.097381,-51.380035,-31.425579,-38.034427,-41.818805,-44.84404,-15.695263,-23.567733,-27.692745,-32.193443,-20.710415,-41.108237,-59.222665,-72.229185,-44.457574,-79.152913,-99.440542,-114.731932,-42.775783,-84.02804,-107.625275,-125.616356,-43.170757,-83.068272,-106.100441,-123.223657,-45.629504,-76.950511,-94.278813,-108.401891,82.075098,301.412811,-24.461375,-11.615601
60,-0.337876,0.10584,-3.000343,-1.416592,-27.278869,-51.811569,-73.745704,-89.149418,-57.252708,-87.916568,-102.692882,-113.120796,-49.437126,-83.985157,-101.204166,-113.976379,-40.187027,-73.022094,-90.010894,-102.583683,-30.906646,-57.45314,-71.715419,-83.496162,-16.578541,-14.585151,-0.292524,13.648101,13.13435,28.485317,36.505065,42.691098,30.477904,44.078346,50.898246,55.933535,42.727703,55.418932,61.692564,65.899842,50.581084,62.735776,67.541069,71.160409,-15.597118,-28.243927,-32.217762,-31.678047,-48.427036,-51.530216,-52.350792,-52.31852,-41.422977,-45.411999,-47.923119,-48.762245,-28.992531,-35.661358,-39.081047,-41.417049,-12.93774,-21.195351,-25.327721,-29.485153,-17.376973,-36.285993,-53.14488,-65.486151,-42.282507,-77.29262,-97.785291,-113.428905,-41.682386,-82.506436,-106.181105,-124.551445,-43.013608,-81.881157,-104.752929,-121.926824,-45.969711,-75.929856,-93.090864,-107.268419,81.765209,301.673311,-27.433731,-12.877533
61,-0.36161,0.005916,-2.313148,-1.278838,-27.443138,-51.989296,-73.922756,-89.261009,-57.504685,-88.07579,-102.852573,-113.287342,-49.680428,-84.121433,-101.344952,-114.142639,-40.401924,-73.136295,-90.070095,-102.657532,-31.085243,-57.497315,-71.680378,-83.38789,-16.583864,-14.613581,-0.281348,13.602911,13.166274,28.557317,36.606656,42.775152,30.552041,44.259039,51.072864,56.083663,42.849055,55.684409,61.894006,66.054749,50.762037,62.991854,67.708635,71.244216,-15.987202,-28.092053,-31.254788,-29.706803,-47.007889,-49.447518,-50.252873,-50.110016,-39.745251,-43.276898,-46.058373,-46.919747,-27.384785,-33.701798,-37.063408,-39.217656,-11.541596,-19.554474,-23.757111,-27.830029,-15.490104,-33.962517,-50.473546,-62.50457,-41.270635,-75.951877,-96.597355,-112.299534,-41.29573,-81.773601,-105.490946,-123.831399,-42.994188,-81.207702,-104.136587,-121.293173,-45.847613,-74.979889,-92.05029,-105.99197,81.416977,301.883297,-29.733501,-13.952301
62,-0.596306,0.095737,-1.034625,0.265397,-27.526291,-52.060089,-74.027504,-89.469852,-57.592071,-88.186695,-102.987339,-113.394688,-49.76548,-84.284374,-101.525162,-114.318809,-40.518082,-73.280365,-90.172508,-102.728233,-31.272285,-57.718231,-71.858894,-83.51675,-16.566808,-14.637885,-0.3037,13.540285,13.072773,28.524084,36.635285,42.836434,30.473829,44.373118,51.185436,56.172238,42.841806,55.881727,62.014037,66.103075,50.861406,63.229705,67.885909,71.350193,-15.664289,-26.998056,-29.499313,-27.537784,-45.251115,-47.404763,-48.227777,-48.123404,-38.117313,-41.644596,-44.513967,-45.359692,-26.102739,-32.410862,-35.778166,-37.857821,-10.642327,-18.719238,-22.938952,-26.897476,-14.690101,-33.06692,-49.345979,-60.93158,-40.530683,-74.822394,-95.015055,-110.35958,-40.698123,-80.441301,-103.697633,-121.596953,-42.345039,-79.785197,-102.304409,-119.066745,-45.017063,-73.583595,-90.15416,-103.525353,80.831938,302.238354,-30.756859,-13.427584
63,-0.631714,-0.002037,-0.922505,2.800049,-27.63549,-52.128753,-74.086155,-89.458774,-57.701477,-88.326416,-103.185585,-113.589786,-49.847191,-84.397682,-101.652271,-114.403187,-40.583221,-73.360016,-90.225712,-102.721298,-31.37558,-57.864006,-71.95808,-83.530529,-16.529561,-14.572752,-0.194662,13.721287,13.130101,28.671259,36.878568,43.177184,30.592055,44.671557,51.501548,56.46328,43.002468,56.240781,62.32311,66.362253,51.038185,63.478077,68.062304,71.475225,-14.547656,-24.986028,-26.94231,-24.820974,-43.01966,-44.601063,-45.204775,-45.188354,-36.405292,-39.508907,-42.14023,-43.008512,-24.97392,-30.790603,-33.858635,-35.94043,-10.120185,-17.693848,-21.580943,-25.377731,-14.512363,-32.901288,-49.028036,-60.105514,-40.721149,-74.537152,-93.816819,-108.42225,-40.837243,-79.866866,-102.178548,-119.185556,-42.243473,-78.857984,-100.549464,-116.500272,-44.540203,-72.525324,-88.416713,-101.015676,80.202455,302.561989,-31.677133,-10.301863
64,-0.693168,-0.051772,-0.720711,5.040255,-27.800766,-52.227654,-74.119835,-89.452275,-57.820084,-88.426518,-103.28199,-113.680481,-49.960396,-84.44291,-101.672139,-114.378285,-40.694893,-73.395665,-90.187821,-102.613839,-31.50634,-57.909188,-71.896477,-83.331185,-16.38352,-14.447188,-0.103284,13.784557,13.294407,28.779669,36.932588,43.162797,30.771231,44.917719,51.749674,56.679184,43.230241,56.597081,62.610941,66.597968,51.318495,63.828462,68.281407,71.559564,-12.929191,-22.300446,-23.721369,-21.547502,-40.250204,-41.109096,-41.370357,-41.38487,-34.441872,-36.850237,-39.065607,-39.904212,-23.865586,-28.88365,-31.471381,-33.508589,-9.900804,-16.651634,-20.037164,-23.633902,-14.868653,-33.41065,-49.407424,-59.853866,-41.630449,-74.881658,-92.818664,-106.361341,-41.497303,-79.704482,-100.678858,-116.490045,-42.455311,-78.148271,-98.637686,-113.43797,-44.174228,-71.563811,-86.530989,-98.146027,79.522471,302.887049,-32.38466,-4.884776
65,-0.735535,0.013153,-0.699056,7.092851,-27.914795,-52.165718,-73.930836,-89.37711,-57.94867,-88.425636,-103.257031,-113.723602,-50.198868,-84.509491,-101.69244,-114.435528,-41.004982,-73.533131,-90.258591,-102.660679,-31.845085,-58.044846,-71.939243,-83.320507,-16.213991,-14.300074,-0.102123,13.615669,13.37961,28.610349,36.700135,42.926095,30.821199,44.869862,51.609636,56.467207,43.332919,56.684976,62.583623,66.472244,51.50697,64.076957,68.453357,71.607346,-10.770951,-18.813873,-19.796083,-17.799998,-36.848288,-36.83944,-36.67202,-36.723883,-32.124839,-33.615682,-35.244978,-36.04899,-22.686153,-26.594961,-28.582235,-30.590616,-9.89728,-15.530491,-18.267138,-21.657579,-15.595827,-34.321655,-50.179546,-60.052924,-43.210572,-75.774984,-91.934716,-104.044419,-42.667416,-79.8886,-99.074364,-113.290883,-42.985481,-77.619403,-96.515562,-109.775085,-43.897414,-70.60336,-84.407348,-94.82514,78.810751,303.318258,-33.059901,2.626131
66,-0.942009,0.23191,-0.495923,8.986694,-27.876045,-51.992432,-73.722382,-89.347309,-57.709946,-88.412739,-103.255669,-113.670776,-49.990288,-84.516758,-101.642944,-114.26984,-40.887474,-73.575256,-90.30423,-102.660748,-31.869347,-58.157799,-72.08551,-83.491173,-16.191798,-14.344954,-0.154549,13.508038,13.19468,28.398718,36.625688,43.023006,30.597675,44.749597,51.536807,56.446422,43.123462,56.53922,62.474658,66.388041,51.358608,64.008414,68.455593,71.659698,-8.177919,-14.677641,-15.230881,-13.594537,-32.726512,-31.912497,-31.293611,-31.333669,-29.329312,-29.852253,-30.790983,-31.500442,-21.394007,-24.135986,-25.418279,-27.334649,-10.174956,-14.648666,-16.641458,-19.747234,-16.605626,-35.625146,-51.327898,-60.611904,-45.332276,-77.101447,-91.130876,-101.550185,-44.238568,-80.193134,-97.1781,-109.525712,-43.78677,-77.123841,-94.039344,-105.446329,-43.815474,-69.669173,-82.045627,-91.034702,77.942871,303.953182,-33.481695,12.015839
67,-0.81173,0.274715,-0.495922,8.986694,-27.840751,-51.857597,-73.565105,-89.251888,-57.590011,-88.44057,-103.266117,-113.65409,-49.951171,-84.576267,-101.608932,-114.089984,-40.903587,-73.714908,-90.412651,-102.653331,-31.938217,-58.238388,-72.14368,-83.451553,-16.209483,-14.413744,-0.1792,13.539889,13.059928,28.126596,36.416725,42.931455,30.438729,44.576486,51.373774,56.323366,42.963034,56.304124,62.247552,66.190847,51.206702,63.828536,68.312776,71.527688,-5.584889,-10.541411,-10.665679,-9.389077,-28.604737,-26.985555,-25.915204,-25.943456,-26.533785,-26.088825,-26.33699,-26.951895,-20.101862,-21.677013,-22.254324,-24.078684,-10.452633,-13.766842,-15.015779,-17.836891,-17.615425,-36.928638,-52.476249,-61.170885,-47.45398,-78.42791,-90.327036,-99.055951,-45.809721,-80.497668,-95.281835,-105.760541,-44.588059,-76.628279,-91.563125,-101.117574,-43.733533,-68.734986,-79.683905,-87.244263,77.236141,304.582972,-33.872617,21.357608
68,-0.639198,0.316298,-0.495923,8.986693,-27.717727,-51.679069,-73.473873,-89.230465,-57.44854,-88.397507,-103.233513,-113.621177,-49.901184,-84.662979,-101.658966,-114.047779,-40.919563,-73.86914,-90.533592,-102.631313,-32.022697,-58.378052,-72.234352,-83.431812,-16.22907,-14.502825,-0.342517,13.388687,12.883322,27.812237,36.125708,42.715267,30.204362,44.260102,51.095749,56.117268,42.733632,56.016417,61.989016,65.976017,51.018252,63.672801,68.219509,71.466123,-2.991858,-6.405179,-6.100477,-5.183616,-24.482961,-22.058612,-20.536795,-20.553242,-23.738258,-22.325395,-21.882995,-22.403347,-18.809717,-19.218038,-19.090369,-20.822718,-10.730309,-12.885017,-13.390099,-15.926546,-18.625223,-38.232128,-53.6246,-61.729864,-49.575683,-79.754371,-89.523196,-96.561716,-47.380873,-80.802201,-93.38557,-101.995368,-45.389347,-76.132715,-89.086906,-96.788817,-43.651592,-67.800798,-77.322183,-83.453823,76.720024,305.179323,-34.245459,30.624354
69,-0.381729,0.342999,-0.495923,8.986694,-27.63517,-51.641098,-73.534012,-89.368481,-57.386238,-88.510872,-103.368748,-113.75465,-49.910431,-84.824844,-101.789577,-114.103111,-40.995506,-74.091637,-90.804943,-102.873711,-32.137802,-58.580841,-72.467331,-83.630882,-16.349509,-14.683705,-0.582652,13.187517,12.723042,27.454332,35.845138,42.602449,30.022,43.985547,50.871088,56.000522,42.537413,55.753409,61.785078,65.850997,50.833112,63.428615,68.055203,71.378351,-0.398826,-2.268948,-1.535275,-0.978155,-20.361185,-17.131669,-15.158386,-15.163028,-20.94273,-18.561966,-17.429001,-17.8548,-17.517571,-16.759064,-15.926413,-17.566752,-11.007986,-12.003192,-11.764419,-14.016201,-19.635021,-39.53562,-54.772951,-62.288845,-51.697387,-81.080834,-88.719356,-94.067482,-48.952025,-81.106735,-91.489306,-98.230197,-46.190636,-75.637153,-86.610688,-92.460061,-43.569651,-66.866611,-74.960461,-79.663384,76.489082,305.763785,-34.590595,39.852511
70,-0.258202,0.171147,-0.495922,8.986694,-27.670692,-51.850685,-73.852981,-89.77177,-57.421348,-88.771019,-103.667221,-114.048671,-49.91677,-84.975666,-101.916149,-114.155044,-40.980789,-74.169754,-90.940979,-103.059162,-32.111618,-58.66967,-72.581211,-83.72129,-16.501525,-14.801746,-0.564374,13.228791,12.571285,27.412675,35.915929,42.778216,29.905033,44.047434,51.011275,56.234779,42.463832,55.819903,61.939504,66.094208,50.777883,63.37961,68.087301,71.512066,2.194204,1.867282,3.029927,3.227305,-16.23941,-12.204727,-9.779978,-9.772815,-18.147204,-14.798538,-12.975007,-13.306253,-16.225426,-14.30009,-12.762458,-14.310787,-11.285663,-11.121369,-10.138739,-12.105857,-20.64482,-40.839112,-55.921302,-62.847825,-53.819091,-82.407297,-87.915517,-91.573248,-50.523178,-81.411268,-89.593042,-94.465026,-46.991925,-75.141591,-84.134469,-88.131305,-43.48771,-65.932424,-72.59874,-75.872945,76.370224,306.030364,-34.947173,48.934637
71,0.104599,0.077312,-0.495923,8.986694,-27.752861,-52.088745,-74.217876,-90.305706,-57.643409,-89.073921,-103.989234,-114.448196,-50.220268,-85.252864,-102.161235,-114.441696,-41.330062,-74.476615,-91.244659,-103.379825,-32.463729,-58.986351,-72.840946,-83.902061,-16.562943,-14.832424,-0.595756,13.015974,12.476041,27.130167,35.585651,42.457903,29.847222,43.859638,50.79248,56.043846,42.479356,55.77538,61.865416,66.025479,50.848352,63.368581,68.044965,71.463801,4.787236,6.003514,7.595129,7.432766,-12.117634,-7.277784,-4.401569,-4.3826,-15.351677,-11.035108,-8.521013,-8.757705,-14.933281,-11.841116,-9.598503,-11.054821,-11.563339,-10.239544,-8.513059,-10.195512,-21.654619,-42.142603,-57.069654,-63.406805,-55.940795,-83.73376,-87.111677,-89.079014,-52.094331,-81.715802,-87.696778,-90.699854,-47.793214,-74.646029,-81.658251,-83.80255,-43.40577,-64.998237,-70.237018,-72.082507,76.621959,306.038901,-35.29596,57.852556
72,0.390564,0.000518,-0.495922,8.986693,-27.765953,-52.25933,-74.55503,-90.851669,-57.659454,-89.286975,-104.310573,-114.843235,-50.294654,-85.480968,-102.451252,-114.839344,-41.494194,-74.688446,-91.517429,-103.718673,-32.726692,-59.278564,-73.096435,-84.11483,-16.599634,-14.904128,-0.751107,12.707185,12.351997,26.85912,35.26082,42.121895,29.764773,43.61486,50.514345,55.775949,42.448209,55.675209,61.732851,65.869474,50.853404,63.286862,67.925713,71.342005,7.380266,10.139744,12.160331,11.638226,-7.995858,-2.350842,0.976839,1.007613,-12.55615,-7.27168,-4.067019,-4.209159,-13.641136,-9.382142,-6.434548,-7.798856,-11.841016,-9.35772,-6.88738,-8.285169,-22.664417,-43.446094,-58.218004,-63.965785,-58.062497,-85.060221,-86.307836,-86.584779,-53.665482,-82.020335,-85.800512,-86.934682,-48.594502,-74.150465,-79.182032,-79.473793,-43.323828,-64.064049,-67.875296,-68.292067,77.069349,305.928929,-35.735056,66.728759
73,0.801522,-0.069395,-0.495923,8.986694,-27.777008,-52.426529,-74.99366,-91.617005,-57.504502,-89.426411,-104.655384,-115.464901,-50.199417,-85.735543,-102.993084,-115.699471,-41.486069,-74.978886,-92.068039,-104.523789,-32.82795,-59.673317,-73.656945,-84.783943,-16.680935,-15.163048,-1.105073,12.346267,12.219493,26.662754,34.900148,41.60208,29.680657,43.393299,50.13101,55.266631,42.375146,55.538185,61.491962,65.582927,50.75317,63.102277,67.636276,71.013308,9.973297,14.275975,16.725533,15.843687,-3.874082,2.576101,6.355248,6.397827,-9.760623,-3.508251,0.386975,0.339389,-12.34899,-6.923168,-3.270593,-4.542889,-12.118692,-8.475895,-5.2617,-6.374824,-23.674216,-44.749585,-59.366356,-64.524765,-60.184201,-86.386684,-85.503997,-84.090545,-55.236635,-82.324869,-83.904248,-83.169511,-49.395791,-73.654903,-76.705813,-75.145037,-43.241887,-63.129862,-65.513574,-64.501628,77.784931,305.685386,-36.316919,75.541305
74,0.966339,-0.25393,-0.495922,8.986694,-27.864876,-52.694756,-75.488938,-92.223862,-57.441216,-89.441357,-104.840721,-115.944077,-50.145676,-85.820641,-103.319847,-116.379135,-41.486595,-75.068401,-92.374489,-105.143818,-32.926712,-59.870247,-73.948208,-85.26574,-16.687283,-15.242261,-1.271354,12.211292,12.02099,26.554703,34.696779,41.255167,29.56837,43.252978,49.898248,54.913123,42.337589,55.511398,61.404721,65.427835,50.735917,63.102129,67.624667,71.030437,12.566328,18.412206,21.290735,20.049147,0.247693,7.503043,11.733656,11.78804,-6.965096,0.255178,4.840968,4.887936,-11.056846,-4.464194,-0.106638,-1.286924,-12.396369,-7.594071,-3.636021,-4.46448,-24.684015,-46.053077,-60.514707,-65.083746,-62.305905,-87.713147,-84.700157,-81.596311,-56.807787,-82.629403,-82.007984,-79.40434,-50.19708,-73.159341,-74.229595,-70.816281,-43.159947,-62.195675,-63.151853,-60.711189,78.27812,305.171814,-37.285991,84.268357
75,1.15583,-0.216435,-0.495923,8.986694,-27.761604,-52.631103,-75.649326,-92.257988,-57.404754,-89.293522,-104.873108,-116.286724,-50.184974,-85.845096,-103.623104,-117.011696,-41.59893,-75.102424,-92.61676,-105.663082,-33.089653,-59.99929,-74.170257,-85.680942,-16.693705,-15.503503,-1.814116,11.891289,11.692329,26.004111,34.043558,40.536923,29.380574,42.952944,49.534032,54.437583,42.254066,55.443435,61.284505,65.26322,50.717972,63.123161,67.573748,70.911814,15.159359,22.548437,25.855937,24.254608,4.369469,12.429986,17.112064,17.178254,-4.169569,4.018607,9.294963,9.436483,-9.7647,-2.005219,3.057318,1.969042,-12.674046,-6.712246,-2.010341,-2.554135,-25.693814,-47.356569,-61.663059,-65.642726,-64.427609,-89.03961,-83.896318,-79.102077,-58.37894,-82.933937,-80.11172,-75.639168,-50.998369,-72.663779,-71.753377,-66.487526,-43.078006,-61.261488,-60.790132,-56.92075,78.204477,304.590981,-39.011387,92.890653
76,1.248802,-0.235108,-0.495923,8.986694,-27.657783,-52.635887,-75.892192,-92.469795,-57.186126,-89.098239,-104.967315,-116.745208,-49.994407,-85.745464,-103.84671,-117.527458,-41.483574,-75.029125,-92.796913,-106.103828,-33.079376,-60.037994,-74.379947,-86.092723,-16.792877,-15.794632,-2.366832,11.461938,11.403708,25.625457,33.574748,39.966842,29.268756,42.827578,49.320054,54.066697,42.225648,55.465788,61.264411,65.179906,50.691654,63.113799,67.501734,70.737974,17.75239,26.684669,30.421139,28.460069,8.491245,17.356929,22.490473,22.568468,-1.374042,7.782037,13.748957,13.985031,-8.472554,0.453755,6.221273,5.225008,-12.951722,-5.830421,-0.38466,-0.64379,-26.703613,-48.66006,-62.81141,-66.201706,-66.549313,-90.366072,-83.092478,-76.607843,-59.950093,-83.238471,-78.215455,-71.873997,-51.799658,-72.168216,-69.277159,-62.15877,-42.996066,-60.327301,-58.42841,-53.130312,77.803613,303.940586,-41.156976,101.46206
77,0.996781,-0.382186,-0.495922,8.986693,-27.612099,-52.629364,-75.981228,-92.507401,-56.915978,-88.955498,-105.04747,-117.092377,-49.684365,-85.647469,-104.001377,-117.864052,-41.153023,-74.93739,-92.97908,-106.597916,-32.772354,-59.935227,-74.564484,-86.628205,-16.995245,-16.122465,-2.916633,10.87757,10.85902,25.308579,33.220771,39.460971,28.900724,42.644674,49.052749,53.619019,42.031332,55.409386,61.203167,65.035793,50.586209,63.098769,67.478985,70.671284,20.345421,30.820899,34.986341,32.665529,12.61302,22.283871,27.868881,27.958681,1.421485,11.545465,18.202951,18.533578,-7.18041,2.912729,9.385228,8.480973,-13.229399,-4.948597,1.241019,1.266553,-27.713411,-49.963551,-63.95976,-66.760686,-68.671016,-91.692534,-82.288637,-74.113608,-61.521244,-83.543004,-76.31919,-68.108825,-52.600946,-71.672653,-66.800939,-57.830013,-42.914124,-59.393113,-56.066688,-49.339872,76.809065,303.035596,-43.644227,109.925949
78,0.867508,-0.35257,-1.19331,13.306913,-27.535126,-52.51632,-75.811753,-92.055485,-56.96077,-88.889603,-105.082295,-117.251679,-49.735405,-85.606968,-103.994065,-117.856156,-41.199578,-74.836842,-92.890194,-106.559178,-32.81337,-59.835549,-74.497261,-86.673592,-17.191056,-16.44763,-3.52811,10.244714,10.335179,24.691458,32.544566,38.664032,28.55791,42.276394,48.637897,53.079209,41.840992,55.194531,60.962748,64.675195,50.467895,63.000821,67.359214,70.429815,20.613893,32.181339,36.963637,34.686121,17.218872,28.537298,33.747316,33.378915,6.30029,17.928141,24.257491,24.087814,-2.756736,8.479556,14.629895,13.319856,-9.726282,-0.39747,5.445816,5.184041,-28.217006,-50.664926,-64.56391,-67.222141,-68.502785,-89.750223,-79.186112,-70.17898,-60.564822,-80.208945,-71.738475,-62.7105,-50.765872,-67.590034,-61.663404,-52.074429,-40.121081,-54.985153,-50.771862,-43.44391,75.326655,302.014321,-47.187455,122.564157
79,0.962425,-0.411875,-1.890697,17.627132,-27.367928,-52.255188,-75.557636,-91.729225,-56.784668,-88.757114,-105.138519,-117.538158,-49.67704,-85.558697,-104.057167,-118.022644,-41.236656,-74.886074,-93.054623,-106.834602,-32.920715,-59.922112,-74.742256,-87.096245,-17.3944,-16.905312,-4.330631,9.226536,10.048051,24.113597,31.803932,37.790795,28.413365,41.907349,48.086169,52.355729,41.734707,54.875392,60.539424,64.151885,50.334329,62.774209,67.081979,70.046542,18.557808,30.765986,36.353027,34.521844,22.308801,36.117208,40.125778,38.829169,13.262374,26.930065,31.912576,30.647737,4.798466,17.154235,21.955274,19.741655,-2.442372,7.822958,12.22973,11.108671,-28.214397,-50.764185,-64.623857,-67.58607,-66.044619,-84.539138,-73.7849,-64.803958,-57.080824,-73.236294,-64.47331,-55.679023,-46.294436,-59.920359,-53.864552,-44.892016,-34.616934,-47.103419,-42.543931,-35.442426,73.984457,300.808932,-51.382775,139.397775
80,0.800148,-0.432451,-1.658933,20.0038,-27.394981,-52.372147,-75.66251,-91.911518,-56.520218,-88.676525,-105.218285,-117.785671,-49.533806,-85.5718,-104.241829,-118.409477,-41.255196,-75.090054,-93.444981,-107.409473,-33.083427,-60.113709,-75.09779,-87.67606,-17.566275,-17.289189,-5.12952,8.037742,9.618331,23.699598,31.252365,36.996475,28.068415,41.27463,47.254046,51.321657,41.432637,54.207686,59.76153,63.180675,50.036618,62.248948,66.557064,69.486788,19.102593,32.555244,39.388932,38.241489,27.91196,43.036285,45.122979,42.477015,18.771168,32.295643,35.340567,33.432603,9.142366,19.814167,23.340436,21.563226,0.376279,8.544142,11.508507,10.329905,-26.077176,-47.109155,-58.848098,-60.724457,-59.212469,-71.414046,-61.200677,-53.282278,-48.648586,-57.9039,-50.108595,-42.985812,-36.676692,-44.163481,-39.533994,-32.944001,-24.251227,-31.751657,-28.360362,-23.068756,72.763956,299.583173,-55.062357,158.608267
81,0.467949,-0.289498,-0.838987,21.505723,-27.127007,-51.925346,-75.162575,-91.619396,-56.230682,-88.533291,-105.179661,-117.793499,-49.378258,-85.561787,-104.358925,-118.607334,-41.244049,-75.177796,-93.704567,-107.819126,-33.198967,-60.344284,-75.490357,-88.224724,-17.589988,-17.553061,-5.68068,7.088021,9.335699,23.313077,30.635503,36.168105,27.758341,40.555361,46.317909,50.324572,41.103482,53.496111,58.91014,62.266583,49.655914,61.755759,66.092849,69.043901,16.415422,29.702436,36.242168,35.774047,37.129571,45.12977,43.198923,39.385219,29.192836,33.619926,32.531478,30.1394,18.518005,20.234195,20.534803,19.159223,7.524318,9.311102,9.448637,8.15677,-24.560856,-43.742534,-52.062056,-50.808714,-46.671069,-52.586462,-44.8845,-39.483047,-33.431981,-37.887505,-33.65445,-29.758768,-20.367669,-24.482047,-23.252719,-20.133959,-8.233404,-13.054978,-12.56012,-10.499524,71.33115,298.553248,-57.802099,179.373563
82,0.470055,-0.062714,-0.546107,24.802134,-26.697052,-51.125405,-73.938458,-90.01315,-56.014344,-88.289315,-105.008126,-117.804669,-49.650147,-85.648236,-104.663899,-119.097737,-41.814515,-75.60664,-94.390664,-108.69912,-33.856408,-60.910676,-76.122288,-88.947453,-17.564151,-17.960478,-7.335665,4.164571,8.412148,22.213328,29.564158,35.133354,26.736545,39.515966,45.238611,49.168198,40.216141,52.524135,57.943684,61.233672,49.012784,61.167859,65.688779,68.637917,12.088074,24.777129,31.597504,32.321875,45.693913,49.257923,42.918921,36.481974,40.288164,38.899601,31.94941,26.45862,30.133227,26.102978,21.454697,17.654074,18.496594,16.367747,12.568262,9.105915,-22.307942,-39.582972,-44.991752,-40.949064,-31.922231,-29.789643,-23.414691,-20.016921,-16.209243,-13.28847,-11.094277,-10.074176,-2.200557,-0.260652,-1.107399,-1.520626,9.692159,9.726594,8.915104,8.292719,69.892302,297.816127,-60.257109,203.50129
83,0.366691,-0.087587,0.444163,23.778323,-26.296509,-50.658394,-73.206894,-89.434376,-55.473862,-87.401287,-104.51104,-117.78178,-49.571251,-85.062309,-104.719105,-119.946545,-42.252228,-75.589817,-94.817814,-109.664841,-34.515221,-61.189819,-76.585327,-89.728008,-16.856355,-18.310108,-10.655058,-3.00496,9.122895,22.507643,29.418353,34.298526,26.596187,39.208239,44.680326,48.298838,39.689596,51.864752,57.089973,60.228759,48.478532,60.472352,65.146253,68.276653,8.445104,20.555111,28.042842,30.069837,53.120905,54.094259,43.782943,33.737257,49.973871,45.515419,31.993812,21.384573,40.8565,34.31266,24.019403,15.464859,29.51231,26.044773,18.288265,11.170194,-19.824636,-35.23258,-38.181385,-31.243028,-17.255887,-6.292361,0.910066,3.675706,0.492058,12.254617,14.887475,14.434814,15.188286,24.913649,24.240655,21.469174,26.814363,33.11929,33.132209,31.202453,68.372824,297.133877,-61.699115,226.68495
84,-0.20137,-0.100159,1.271289,22.506593,-25.556831,-49.346031,-71.129128,-86.437878,-55.191673,-87.631828,-105.35939,-119.047405,-50.147324,-85.499691,-105.978962,-121.985802,-43.419663,-76.007893,-95.631054,-110.980076,-35.831452,-61.654015,-77.028477,-90.332371,-16.322733,-18.200835,-11.445883,-4.525811,9.132219,19.453158,23.918096,26.757207,26.213729,36.939615,40.910167,43.39777,39.126654,50.87115,55.91627,59.004384,47.764574,60.046409,65.022369,68.36377,7.548129,18.609295,27.384671,31.754855,50.488192,50.080748,40.619008,30.99507,49.075419,44.042691,30.501973,19.31333,41.787638,35.605935,25.208136,15.764443,32.099877,28.99791,21.375138,12.926188,-20.282368,-33.584536,-32.83354,-22.262753,-8.070662,5.043323,10.944174,13.080911,11.897557,26.223078,28.015303,27.072924,27.728843,40.154811,39.065916,35.613846,39.351598,48.678714,48.347275,45.233406,66.244738,296.631139,-62.354542,248.788964
85,-0.31176,0.36744,-5.699821,15.598216,-25.5,-48.934525,-69.795273,-83.906788,-55.168717,-87.280094,-105.365868,-119.244839,-50.893616,-85.771099,-106.644791,-122.835789,-44.816551,-76.968807,-96.612167,-111.675808,-37.446236,-62.719071,-78.09494,-91.250359,-16.105545,-18.051165,-11.451034,-5.095706,9.914238,17.77099,20.084741,20.914024,26.438451,34.968332,37.007405,37.733873,38.970117,49.440838,53.129684,54.855595,47.476619,59.377739,63.990383,66.744933,9.437731,21.843098,31.806839,37.558084,52.172361,57.511614,51.894596,43.910677,51.780664,54.521942,44.697636,34.235956,46.803228,49.135872,41.588591,31.935711,39.531635,43.859138,38.882011,30.513823,-20.583846,-30.275184,-25.624452,-12.489206,4.703436,20.919057,23.949934,23.689286,25.617843,41.339949,40.000206,36.541535,40.831861,54.343894,51.390076,46.349353,50.73646,61.361359,59.969579,55.534374,64.27989,296.822798,-69.707451,264.211399
86,0.081688,0.924391,-8.267441,12.426961,-25.866806,-49.902168,-70.469261,-83.63451,-55.921784,-87.608769,-105.050892,-118.291798,-52.046677,-86.901192,-107.389675,-122.933842,-46.509087,-78.604592,-97.540123,-111.615257,-39.521393,-64.686676,-79.436154,-91.547161,-16.963134,-19.254433,-12.723425,-6.633291,9.863332,14.510841,14.786383,14.093605,26.513886,32.078425,32.234715,31.351388,38.882975,47.169287,48.803438,48.814368,47.221293,57.434379,60.273256,61.454899,13.263731,28.533669,42.303898,50.466059,48.739123,66.782084,68.191887,64.147906,48.463904,66.985268,64.425465,57.294726,46.072535,63.283928,61.880911,54.815678,42.456059,57.394856,57.523041,51.773833,-18.653972,-24.871701,-17.599231,-3.918039,12.645268,30.940137,34.832827,35.347591,33.024213,51.191648,51.398184,48.524598,47.254793,63.877702,62.900884,58.438886,56.140375,69.897218,70.782732,67.671888,62.788748,297.802989,-79.547722,276.69416
87,0.184227,0.805942,-8.560255,8.319096,-26.701904,-51.379921,-71.905094,-84.347237,-58.478508,-87.977234,-101.379204,-110.745369,-54.206841,-86.70147,-102.848889,-113.892666,-48.277062,-78.032021,-92.816883,-102.61171,-40.867996,-64.694023,-76.61372,-85.286328,-18.101306,-20.800318,-13.622549,-6.894001,10.425729,11.207551,8.312433,5.734773,27.281641,28.3981,25.595904,23.183488,39.344831,44.135032,42.847956,41.307641,47.228259,54.966104,55.275202,54.92257,18.495999,36.967678,53.839016,64.020676,46.170502,73.273396,81.755013,83.435051,44.548371,74.588757,80.725926,80.070053,42.886448,70.725369,76.856632,75.592632,41.165314,63.293987,69.196518,68.318573,-16.663065,-18.711103,-8.201653,5.958828,19.4013,37.325704,40.591732,41.366552,39.010736,56.667674,57.089022,54.786151,52.027859,68.837272,68.695382,65.131321,59.622814,74.076264,75.532252,73.092246,61.637501,298.88029,-89.443451,285.284615
88,-0.523865,0.761666,-7.904137,4.649609,-27.336708,-52.019142,-72.090694,-83.616875,-60.752472,-86.847645,-95.395019,-100.192886,-55.820892,-84.333183,-95.316467,-100.86858,-48.992088,-74.994015,-84.966808,-89.934196,-40.783859,-62.166618,-70.712414,-75.642872,-19.233512,-21.82793,-12.767268,-3.538829,9.309949,6.478187,1.081547,-2.344342,26.757294,23.45004,18.138665,14.75294,38.835872,40.026951,36.326706,33.680219,46.549746,51.84099,50.077917,48.442989,24.729035,46.354901,65.541024,77.873177,43.632752,77.053174,92.826279,101.533265,39.40907,77.222123,93.616745,101.94468,36.937867,71.731041,86.92099,94.264939,35.540795,62.168473,74.668053,80.568409,-15.537936,-13.52549,0.402686,14.901325,23.788271,39.254996,40.582556,40.9208,42.730408,57.327267,56.534799,54.468679,54.57137,68.967479,68.435968,65.789,60.638842,73.935225,74.367095,71.847345,60.073482,300.189355,-98.387742,290.481623
89,-1.437263,0.501278,-6.744392,0.524149,-28.079888,-52.768341,-72.265114,-83.691708,-61.036766,-82.647469,-86.777436,-87.340851,-55.084237,-78.574219,-84.648308,-85.332264,-47.176094,-69.105355,-74.457402,-74.900265,-38.069001,-56.874756,-62.233612,-63.621827,-19.544055,-22.407187,-13.566652,-5.072883,9.017536,6.521399,1.056377,-2.167081,26.216384,21.364976,15.050699,11.287975,37.828883,36.612363,30.625623,26.503623,45.364607,48.033027,44.149321,41.002088,29.700955,54.939514,75.464447,88.776146,49.73267,87.388229,106.292187,118.288845,41.935707,84.389385,105.303944,118.471974,36.91816,75.670876,95.151089,107.596127,33.94923,63.45694,79.357464,90.113216,-12.059979,-6.561808,9.314383,23.613222,31.186206,49.69562,51.689714,51.977767,48.994272,65.400059,65.083391,62.87816,59.049499,74.819973,74.950143,72.364839,63.103561,77.485121,78.241774,76.0226,57.859286,301.338006,-105.909067,291.653145
90,-2.028603,-0.11435,0.982269,3.857499,-27.882614,-52.165306,-71.118256,-82.203541,-59.131073,-77.356773,-77.898479,-75.089973,-52.023674,-71.180443,-73.262306,-70.112846,-42.931389,-60.729103,-62.429455,-59.48188,-32.932594,-48.957893,-51.784538,-50.41151,-18.755415,-22.047367,-14.135916,-6.106695,8.072842,6.095618,0.627026,-2.48638,24.684147,19.881311,13.222307,9.530473,35.572536,33.788504,26.826084,22.511088,42.506316,43.874014,38.57163,34.488038,28.465405,53.869263,75.24297,90.594555,50.248593,85.937325,105.494946,120.029995,41.883419,82.564511,104.67191,120.913205,35.82827,72.942032,93.535252,109.030323,31.993916,60.106877,76.73029,90.030384,-10.777731,-4.894251,10.618342,24.049797,30.870649,47.540704,51.924897,54.519007,48.07892,63.285046,66.267591,66.800114,57.665795,72.783581,75.979164,75.625631,61.447687,75.50996,78.372178,77.771705,55.159344,301.873826,-105.598137,296.160814
91,-5.935249,2.505005,3.616539,3.929957,-25.618996,-48.411621,-65.950482,-75.192501,-60.757016,-72.153706,-66.16547,-57.718552,-54.840626,-65.504288,-59.131874,-48.818322,-45.774491,-55.402874,-49.449349,-40.607552,-35.483368,-44.965508,-42.181687,-36.626999,-18.500942,-22.508235,-15.169718,-6.873253,8.435884,9.939642,6.128123,3.799453,24.781934,23.438628,18.400363,15.347632,35.755044,35.715611,29.910071,26.230994,43.064367,45.251529,40.155552,36.351702,27.905709,52.950406,73.931969,90.181057,50.995949,85.851471,104.866368,119.423756,41.826645,81.359208,103.14394,119.630642,34.572373,70.573323,90.844426,106.562153,29.552468,57.035923,73.168568,86.397732,-10.823896,-4.547473,10.553923,23.085046,30.265865,46.108316,50.72411,53.540917,47.139746,62.115937,65.7653,66.967433,56.52834,71.591044,75.419471,75.613429,60.125265,74.122144,77.110852,76.497917,48.662178,304.99322,-102.543515,300.70516
92,-6.5411,3.301325,3.82988,3.339277,-22.081901,-43.07357,-58.951584,-67.215282,-57.294205,-64.976108,-57.29678,-47.404701,-52.841823,-59.176163,-49.662643,-37.018455,-44.789223,-50.520859,-41.511452,-30.702164,-35.205597,-41.352173,-36.766983,-30.297775,-18.058624,-22.459255,-15.192973,-6.528748,6.540208,11.228337,10.492865,9.950498,22.64784,25.680971,23.956505,22.38161,33.993849,36.819128,33.891392,31.52361,42.073396,45.883458,42.720738,39.846071,27.263329,51.865929,72.45995,89.091396,50.366844,85.074474,103.760159,117.970333,40.763672,79.961815,101.553715,117.637493,32.963894,68.702786,88.901642,104.423321,27.35836,54.944367,70.893608,83.745232,-11.387072,-5.441434,9.21904,21.349501,29.014814,44.605163,49.191922,51.752489,45.787227,60.6043,64.110105,65.075449,55.202571,70.092794,73.815405,73.755767,58.726124,72.582237,75.509207,74.701276,41.718475,308.793955,-99.116238,304.543847
93,-4.842087,2.757829,3.15715,1.969875,-19.604164,-39.611206,-54.512415,-61.342026,-56.6735,-61.961649,-52.468448,-41.061458,-53.963911,-57.54515,-44.62009,-29.654594,-47.125614,-50.325079,-38.179184,-25.388088,-38.409811,-42.17229,-35.627094,-28.002342,-17.67416,-22.266526,-14.705521,-5.169158,6.201662,15.042104,16.871299,17.165707,22.318174,30.447714,31.229684,30.08004,34.12852,40.304191,39.350197,37.278859,42.726357,48.499755,46.321164,43.503357,26.616681,50.965977,71.236325,87.74413,49.242669,83.598942,102.050297,116.134747,39.388321,78.459263,99.916478,115.761464,31.355759,66.889286,87.092068,102.469243,25.529068,53.078053,68.934346,81.499627,-11.771444,-5.91065,8.739672,20.770023,28.33146,43.864961,48.265827,50.540403,44.933441,59.404489,62.333126,62.804158,54.273203,68.711623,71.846271,71.236226,57.683678,70.924881,73.509654,72.464701,36.638265,311.891476,-96.197211,306.853414
94,-2.452903,2.609054,2.310265,1.047719,-18.194962,-38.166367,-53.100672,-58.482159,-60.391148,-63.068751,-50.388485,-36.663792,-59.362009,-60.37476,-42.879834,-24.526566,-53.670651,-54.386931,-38.224778,-22.735211,-45.81161,-47.317601,-38.065854,-28.66697,-17.377536,-22.391089,-14.735791,-4.162713,7.06592,19.564815,23.166877,23.932193,23.411415,35.955554,38.468524,37.285769,35.845453,44.802721,45.084735,42.918932,44.895377,52.547766,50.637814,47.477848,25.846264,49.879223,69.86039,86.200413,47.670879,81.604076,99.966007,114.221478,37.823387,76.778641,98.151958,113.999371,29.881084,65.189083,85.519306,100.90527,24.174889,51.512821,67.342678,79.822723,-11.835985,-5.965695,8.923849,20.951137,28.166216,43.789601,48.013811,50.079288,44.562556,58.776352,61.192831,61.203242,53.773334,67.914672,70.516192,69.367116,57.097593,69.928081,72.327739,71.156618,33.999848,314.722893,-94.07246,308.123496
95,-2.206032,2.904504,1.673092,0.37364,-16.552231,-36.370354,-50.934374,-55.516342,-62.448109,-64.35446,-50.582142,-35.43948,-62.707071,-63.077969,-42.639073,-21.384705,-58.12698,-57.949888,-38.858597,-20.827778,-51.016016,-51.385082,-40.155407,-29.161011,-18.423167,-23.524146,-15.236957,-4.10626,6.790205,21.224271,26.442305,28.418299,23.894674,39.202009,43.621992,43.484696,37.251548,48.010371,49.869775,48.383597,47.148564,55.738584,54.473923,51.820631,25.329037,49.159138,68.818348,84.783943,45.636635,79.194488,97.652573,112.010422,35.778236,74.618832,95.982353,111.815872,28.112217,63.180256,83.692085,99.095238,22.788528,49.983593,65.85593,78.285679,-11.814731,-5.810368,9.348728,21.536765,28.235734,44.112246,48.29023,50.236331,44.460087,58.908806,61.074504,60.824007,53.622934,67.840559,70.021793,68.385815,56.948317,69.665283,71.99709,70.753239,31.672549,317.868795,-92.520635,308.738534
96,1.4141,-0.4726,0.873001,0.312358,-17.025421,-37.07809,-51.660793,-56.326955,-62.234253,-65.569078,-53.416734,-39.288574,-62.088025,-64.096384,-45.049152,-24.629264,-57.442354,-58.836101,-40.722896,-23.045711,-50.125402,-51.891391,-41.649204,-31.036846,-17.757202,-22.493156,-14.352556,-3.448594,7.047241,21.524853,26.47631,28.211639,23.797763,39.308676,43.45529,43.17503,36.891443,47.900622,49.59874,47.922154,46.487272,55.262296,54.047721,51.309065,24.806557,48.503494,67.892727,83.762398,43.914196,77.38163,96.037788,110.615547,34.289898,73.249855,94.675278,110.620903,27.152596,62.188225,82.868523,98.404587,22.491497,49.668995,65.601585,78.094265,-11.947037,-6.011118,9.414443,21.635603,27.860514,43.681686,47.884802,49.908264,43.956166,58.359092,60.443514,60.17343,53.20171,67.276172,69.183136,67.297686,56.715518,69.319988,71.64799,70.402843,33.012222,317.603534,-91.722061,309.258231
97,1.930756,-1.341034,0.684448,-0.224389,-18.66964,-39.431499,-54.593651,-58.802851,-67.340801,-69.439493,-56.301824,-41.477348,-67.320745,-67.799006,-47.801685,-26.675125,-62.401091,-62.099613,-42.826893,-24.362011,-54.590544,-55.047214,-43.449909,-31.840748,-16.689512,-21.214441,-13.711673,-3.100544,11.069255,26.490661,30.352655,30.707146,27.225714,42.869835,45.674662,43.972388,39.44402,50.379938,50.506014,47.539042,47.952956,56.85127,54.11787,50.204857,24.252239,47.74379,66.860012,82.75129,42.69318,76.137566,94.900841,109.67862,33.273022,72.131893,93.489075,109.527718,26.52285,61.329575,81.975746,97.555161,22.320374,49.374047,65.316628,77.929493,-12.117592,-6.182414,9.481258,21.666022,27.722465,43.444503,47.716668,49.92196,43.780079,58.026653,60.23523,60.210073,53.057041,66.896087,68.801951,67.018303,56.657362,69.17564,71.526589,70.370474,34.872585,316.43663,-91.108006,309.207972
98,0.323112,0.412363,0.58215,-0.174778,-18.435516,-39.191814,-54.583722,-59.059392,-66.453998,-69.587688,-57.254556,-42.526576,-66.43333,-67.496858,-48.047607,-26.729621,-61.697862,-61.529611,-42.822795,-24.229614,-53.994048,-54.451526,-43.074256,-31.371723,-17.200108,-21.775424,-14.527834,-4.289542,10.124727,25.024003,29.135802,29.858924,26.301773,41.452755,44.472795,43.129032,38.475052,49.181221,49.333022,46.538612,47.100948,55.632262,52.762467,48.919158,23.803699,46.978374,65.859615,81.824924,41.699821,75.157367,94.056072,108.973858,32.474075,71.261764,92.592602,108.691967,26.034645,60.763252,81.416622,96.989879,22.190277,49.267662,65.282455,77.992985,-12.171759,-6.422858,9.302786,21.519228,27.571485,43.135108,47.291146,49.501057,43.641647,57.67607,59.884006,59.95818,52.975506,66.494128,68.319384,66.557472,56.679431,69.054844,71.402915,70.271055,35.129659,317.004342,-90.591894,309.188543
99,-1.77246,0.421286,0.302822,0.076188,-17.732094,-38.086796,-53.040877,-57.493086,-65.844773,-67.877724,-55.286562,-40.432972,-66.120621,-66.140013,-46.399865,-24.531418,-61.475699,-60.21741,-41.012021,-21.747391,-53.750393,-53.62658,-41.743103,-29.489582,-17.531868,-22.099985,-15.042425,-4.759561,10.080069,24.274896,28.567044,29.745192,26.057315,40.302234,43.952807,43.183064,37.831328,47.90074,48.272841,45.904114,46.283793,54.593039,51.567708,47.797684,23.727459,46.843288,65.537819,81.505211,41.199577,74.650314,93.599739,108.509216,32.09927,70.761909,92.083969,108.169899,25.876556,60.539749,81.186584,96.713035,22.286075,49.432846,65.481228,78.175621,-12.37603,-6.577901,9.233675,21.293691,27.311083,42.596187,46.772294,49.160738,43.360583,57.085193,59.377232,59.622295,52.744114,65.826643,67.571178,65.86126,56.565958,68.624752,70.861784,69.669371,33.32491,317.550132,-90.321361,309.389235
100,-1.786973,1.910088,0.123962,0.124674,-16.654861,-36.042743,-50.912412,-55.730764,-64.338455,-65.287914,-51.284814,-35.708804,-65.227203,-64.007177,-43.57109,-21.423431,-61.112165,-59.033517,-39.275241,-19.872299,-54.032752,-53.995708,-42.075851,-29.796718,-18.235118,-23.563135,-17.509934,-7.866076,8.51613,22.458162,26.982985,28.520237,24.356376,37.990707,41.790926,41.400787,36.135675,45.734066,46.237672,44.257466,44.799993,52.99384,50.13064,46.566789,23.68269,46.703728,65.272625,81.255707,41.064343,74.491448,93.40036,108.329659,32.005486,70.565426,91.85495,107.933052,25.812733,60.402226,80.999108,96.475891,22.26891,49.37994,65.413147,78.093956,-12.590094,-6.82431,8.996701,20.893104,26.885203,41.921391,46.132806,48.698758,42.970481,56.392934,58.778945,59.203541,52.447675,65.207929,66.938743,65.348954,56.387969,68.283358,70.444462,69.219495,31.530046,319.480823,-90.20529,309.534512
101,-1.584434,0.559978,0.203007,0.007422,-16.106323,-35.018257,-49.727074,-54.456333,-64.88031,-64.363621,-48.853123,-32.41024,-66.178917,-63.446812,-41.658417,-18.646339,-62.203445,-58.737282,-37.815926,-17.716942,-55.275661,-54.294159,-41.416557,-28.466972,-18.290089,-24.325192,-19.010482,-9.220991,8.494201,22.337248,26.973136,28.555082,24.30763,37.543472,41.709217,41.321128,36.012396,45.311242,45.861846,43.788872,44.670112,52.971652,49.943091,46.124186,23.710556,46.767494,65.277672,80.937641,41.080399,74.393475,93.2047,108.081562,31.888126,70.243652,91.490971,107.507526,25.478691,59.917637,80.457951,95.868587,21.75507,48.787216,64.777485,77.431217,-12.724944,-6.951194,8.899568,20.71262,26.585467,41.659595,45.853176,48.445718,42.636054,55.996447,58.501254,59.059045,52.092808,64.752248,66.638204,65.289884,56.05779,67.922057,70.098352,68.954709,29.96311,320.015499,-89.984785,309.516632
102,-1.623173,0.773288,0.335701,0.282076,-15.334968,-33.736873,-48.176462,-52.852667,-63.458244,-62.864444,-47.028837,-30.36438,-64.922796,-62.199302,-39.891689,-16.430877,-61.184761,-57.705797,-36.34433,-15.810985,-54.612447,-53.451456,-40.306869,-27.051418,-18.699223,-25.460701,-20.711384,-10.823378,7.028173,20.651666,25.653455,27.568916,23.070528,36.061839,40.840092,40.846434,35.028885,44.233333,45.180961,43.327504,44.093289,52.324687,49.495339,45.802559,23.479122,46.462486,64.976017,80.564816,40.88443,74.094143,92.937458,107.771381,31.654507,69.97665,91.362385,107.38496,25.122986,59.595863,80.234356,95.586857,21.283596,48.406128,64.389805,76.924541,-12.951297,-7.362637,8.372837,20.073454,25.961738,41.030963,45.37508,48.087751,42.017907,55.386588,57.997432,58.628706,51.545206,64.193382,66.07882,64.745394,55.597799,67.492324,69.600668,68.361905,28.369154,320.752203,-89.619867,309.762124
103,-1.220283,-0.206506,0.296162,0.311716,-15.594155,-33.701008,-47.821432,-51.948721,-65.537682,-63.084938,-45.753771,-28.452118,-67.311144,-63.107186,-39.361943,-15.189285,-63.488823,-58.859408,-35.856674,-14.425129,-56.84598,-54.770468,-40.441017,-26.358548,-18.241998,-25.582127,-21.621079,-11.487379,8.784318,22.899628,27.319605,28.474264,24.638063,37.619543,42.032617,41.406029,36.2685,45.290253,45.636828,43.223516,44.912187,53.37852,49.900088,45.633425,23.289905,46.360977,64.959274,80.269683,40.664714,73.95449,92.885719,107.652397,31.394703,69.871387,91.407486,107.382385,24.804611,59.46128,80.202713,95.489936,20.962932,48.256839,64.271747,76.727256,-13.224715,-7.765756,7.929062,19.510932,25.073273,40.239434,44.762948,47.634046,41.201122,54.617844,57.336542,58.034421,50.888404,63.59812,65.513421,64.226418,55.129817,67.098615,69.117644,67.796049,27.19285,320.501224,-89.279726,310.029367
104,-0.047676,0.252399,0.488227,0.242148,-15.592037,-33.399662,-47.528166,-51.732342,-65.202227,-63.483107,-46.26697,-28.901734,-66.981984,-63.550513,-39.821366,-15.582733,-63.270985,-59.300886,-36.316704,-14.810006,-56.798664,-54.930371,-40.758843,-26.691239,-18.458699,-26.260962,-22.76834,-12.766737,8.206543,22.230445,26.657764,27.785271,24.192231,37.174792,41.55778,40.933156,36.028074,45.052211,45.402305,42.949097,44.829181,53.288135,49.831496,45.565055,23.051285,46.092328,64.737774,79.577431,40.295701,73.679352,92.743332,107.478928,30.976101,69.561081,91.251893,107.160851,24.339158,59.090607,79.90844,95.069436,20.504368,47.821438,63.853707,76.215912,-13.32564,-8.144558,7.402566,19.11915,24.334133,39.586534,44.237168,47.195309,40.556658,54.090076,56.870388,57.611208,50.389028,63.242512,65.169656,63.889101,54.782842,66.897865,68.826997,67.405441,27.207316,320.710166,-88.729357,310.228058
105,0.626724,-1.516467,0.342545,0.282212,-16.445194,-34.770733,-49.188532,-53.031006,-69.669783,-66.596689,-47.919771,-29.509735,-71.758381,-67.098421,-41.563774,-15.920723,-67.774418,-62.393343,-37.739067,-15.031586,-60.83384,-57.363201,-41.430428,-26.102005,-17.637677,-25.448499,-21.899067,-11.222767,10.500053,24.778662,29.062881,29.762754,26.508168,39.61292,44.191325,42.966758,38.257882,47.175339,47.311826,44.260071,46.766873,55.526366,51.449801,46.466549,22.999741,46.145039,64.859161,79.156151,40.318485,73.649666,92.74221,107.35833,30.889526,69.397236,91.117767,106.914207,24.114452,58.805008,79.620873,94.663719,20.145802,47.438358,63.471233,75.74231,-13.473792,-8.439132,7.055923,18.926971,23.6974,39.027878,43.794578,46.803959,39.978266,53.665764,56.534318,57.31525,49.873115,62.878407,64.855606,63.596021,54.354466,66.568043,68.450418,66.97667,27.902258,319.154679,-88.318594,310.47125
106,0.4758,-0.136264,0.266762,0.337972,-16.618802,-35.078385,-49.718319,-53.766787,-70.298064,-67.581013,-48.685765,-30.014866,-72.524689,-68.394442,-42.594361,-16.611638,-68.656523,-63.733023,-38.858906,-15.866822,-61.798749,-58.550532,-42.535847,-27.032547,-17.602449,-25.207914,-21.466098,-10.87137,10.170978,24.393018,28.928512,29.87785,26.221411,39.311232,44.201451,43.208128,38.122228,46.94819,47.411491,44.603594,46.802557,55.512478,51.599156,46.783705,22.892452,46.029522,64.798782,78.786918,40.190609,73.481346,92.62809,107.14373,30.735306,69.230907,91.023742,106.688965,23.941864,58.659839,79.48249,94.319298,19.951515,47.315655,63.362045,75.493881,-13.707825,-8.910349,6.463453,18.512984,22.955061,38.322145,43.167095,46.242414,39.395318,53.136576,55.992261,56.781036,49.443605,62.517884,64.373977,62.992596,54.063499,66.270295,67.98729,66.360834,28.440417,318.985237,-87.989473,310.776044
107,0.56615,-0.319485,0.317745,0.249892,-16.864368,-35.599079,-50.425924,-54.756809,-71.099161,-68.676475,-49.527597,-30.590023,-73.333872,-69.698187,-43.683277,-17.42474,-69.482076,-64.942829,-39.965961,-16.786045,-62.56006,-59.562836,-43.533451,-27.931789,-17.350569,-24.464654,-20.302115,-9.713475,10.205436,24.334004,29.138698,30.411375,26.172511,39.168423,44.455752,43.754922,38.053723,46.769701,47.665705,45.1505,46.737103,55.448264,51.789287,47.183842,22.814163,45.9856,64.799973,78.550701,40.029167,73.236889,92.385052,106.77879,30.541695,68.972237,90.758411,106.2384,23.724747,58.402725,79.148701,93.728931,19.745728,47.097508,63.100021,75.046177,-13.862622,-9.175024,6.122788,18.240825,22.400135,37.799107,42.674314,45.77311,38.954408,52.813905,55.61788,56.382659,49.106583,62.246082,63.929213,62.381452,53.826327,65.970361,67.505884,65.715566,29.054266,318.635025,-87.624029,310.995209
108,1.031628,-0.801835,0.283951,0.198565,-17.411751,-36.704739,-51.766451,-56.408861,-72.610171,-70.326588,-50.888083,-31.706646,-74.754027,-71.373991,-45.115562,-18.579632,-70.84255,-66.379893,-41.287193,-17.958893,-63.726609,-60.796721,-44.69529,-29.029473,-16.503446,-22.659196,-17.832988,-7.333973,11.139305,25.331915,30.438396,32.067384,26.656609,39.687169,45.409123,44.995284,38.170597,46.983048,48.363664,46.155642,46.542193,55.476336,52.139288,47.772805,22.647663,45.731312,64.517704,78.242008,39.955376,72.997295,92.093708,106.409374,30.46463,68.697075,90.439236,105.815334,23.604606,58.117046,78.758274,93.131298,19.54787,46.770126,62.679817,74.456989,-13.998807,-9.496411,5.682742,17.845424,22.146007,37.345722,42.238504,45.394506,38.760289,52.504164,55.294085,56.139473,48.943635,61.97669,63.535184,61.918459,53.681757,65.760063,67.185992,65.287784,30.113423,317.802713,-87.312549,311.163297
109,1.215317,-0.978411,0.135841,-0.00063,-18.14375,-38.178601,-53.46385,-58.338593,-74.476559,-72.209284,-52.516543,-33.139744,-76.45229,-73.091732,-46.526081,-19.67648,-72.439562,-67.850127,-42.557442,-19.035862,-65.061511,-62.050759,-45.860665,-30.162907,-15.277916,-20.296168,-14.788556,-4.435148,12.662268,27.087424,32.400133,34.253516,27.460335,40.664469,46.687456,46.457868,38.329229,47.421754,49.139429,47.163582,46.162911,55.453939,52.388809,48.256608,22.503411,45.601673,64.440193,78.221729,39.828518,72.713093,91.738415,106.00581,30.270481,68.34264,90.074581,105.452328,23.327053,57.707714,78.369953,92.774929,19.194134,46.321175,62.208023,74.00346,-14.178834,-9.676734,5.562341,17.87998,21.829425,36.984075,41.879673,45.013753,38.486006,52.374143,55.197322,56.095148,48.735265,62.042849,63.564429,61.911247,53.535087,65.854332,67.29697,65.362354,31.315024,316.79455,-87.190424,311.132915
110,1.021225,0.698361,0.24646,-0.222969,-17.378781,-37.579091,-53.210398,-58.429596,-71.893502,-71.403517,-53.575614,-34.942601,-73.978146,-71.978085,-46.963543,-20.75346,-70.39725,-67.140456,-43.504532,-20.652112,-63.336749,-61.636757,-46.897957,-31.969494,-16.533216,-21.570648,-15.378619,-4.808208,10.050904,24.117661,30.027768,32.623403,25.248903,38.745537,45.111646,45.57943,36.696942,46.22771,48.424889,46.890052,45.225983,54.336799,51.829881,48.149383,22.278523,45.317585,64.183617,78.027203,39.350624,72.286457,91.340595,105.634907,29.789349,67.960705,89.760922,105.214085,22.894123,57.393437,78.143566,92.638081,18.843762,46.037007,61.937565,73.786389,-14.176906,-9.769137,5.478065,17.985919,21.670925,36.870233,41.787591,44.975814,38.358158,52.337167,55.214378,56.195506,48.717173,62.216369,63.738726,62.081975,53.653439,66.145782,67.611193,65.668562,32.303999,317.46417,-86.976214,310.881205
111,0.694324,0.275283,0.171684,-0.280742,-17.008564,-37.316734,-53.192762,-58.546354,-70.721357,-71.007574,-54.16083,-35.922935,-72.953911,-71.497289,-47.233154,-21.3185,-69.669251,-66.910704,-44.056034,-21.511986,-62.871242,-61.63294,-47.54044,-32.990948,-17.232743,-22.335846,-15.728373,-5.031707,8.654394,22.595476,28.799738,31.765264,24.140243,37.823819,44.28776,45.115858,35.994402,45.788758,48.130914,46.827042,44.981835,54.043312,51.714037,48.22291,22.189293,45.246243,64.135872,78.055287,39.134137,72.13155,91.150029,105.43974,29.520905,67.769692,89.553784,105.074078,22.60936,57.19637,77.957623,92.551449,18.547806,45.775212,61.649998,73.532628,-14.135892,-9.762011,5.606814,18.229339,21.692562,36.861625,41.839461,45.104712,38.406558,52.414355,55.393232,56.466096,48.837808,62.444907,64.000177,62.348156,53.878247,66.482606,67.997491,66.056404,32.951832,317.699077,-86.851021,310.560087
112,0.367424,-0.147793,0.215344,-0.385236,-17.0331,-37.391533,-53.410944,-58.688867,-70.960127,-71.021456,-54.272192,-36.08075,-73.379585,-71.649347,-47.334915,-21.371601,-70.255566,-67.160871,-44.211948,-21.615486,-63.664993,-62.039308,-47.788113,-33.227268,-17.376498,-22.591765,-15.83782,-5.105648,8.472737,22.520869,28.716041,31.679097,24.134352,37.899315,44.215795,45.067148,36.221606,46.104895,48.257502,46.974551,45.430463,54.573476,52.041277,48.477185,22.2262,45.354549,64.257053,78.096702,38.92852,72.012794,91.075493,105.400978,29.197643,67.542206,89.378792,105.009338,22.221165,56.898502,77.741753,92.510857,18.138863,45.385368,61.30275,73.322708,-14.029212,-9.613736,5.863412,18.641721,21.803293,37.001193,41.960405,45.204846,38.528182,52.688601,55.767452,56.895014,48.997655,62.912987,64.554214,62.931142,54.104587,67.02801,68.650527,66.771993,33.264324,317.504184,-86.690609,310.127751
