takenoko1/special-research/HandMotion_SimilarSearch_自分用/NewProject/handData/tgt/d4_feature_d2/69.csv
,vel_0x_L,vel_0y_L,vel_0x_R,vel_0y_R,posFromWrist_1x_L,posFromWrist_2x_L,posFromWrist_3x_L,posFromWrist_4x_L,posFromWrist_5x_L,posFromWrist_6x_L,posFromWrist_7x_L,posFromWrist_8x_L,posFromWrist_9x_L,posFromWrist_10x_L,posFromWrist_11x_L,posFromWrist_12x_L,posFromWrist_13x_L,posFromWrist_14x_L,posFromWrist_15x_L,posFromWrist_16x_L,posFromWrist_17x_L,posFromWrist_18x_L,posFromWrist_19x_L,posFromWrist_20x_L,posFromWrist_1y_L,posFromWrist_2y_L,posFromWrist_3y_L,posFromWrist_4y_L,posFromWrist_5y_L,posFromWrist_6y_L,posFromWrist_7y_L,posFromWrist_8y_L,posFromWrist_9y_L,posFromWrist_10y_L,posFromWrist_11y_L,posFromWrist_12y_L,posFromWrist_13y_L,posFromWrist_14y_L,posFromWrist_15y_L,posFromWrist_16y_L,posFromWrist_17y_L,posFromWrist_18y_L,posFromWrist_19y_L,posFromWrist_20y_L,posFromWrist_1x_R,posFromWrist_2x_R,posFromWrist_3x_R,posFromWrist_4x_R,posFromWrist_5x_R,posFromWrist_6x_R,posFromWrist_7x_R,posFromWrist_8x_R,posFromWrist_9x_R,posFromWrist_10x_R,posFromWrist_11x_R,posFromWrist_12x_R,posFromWrist_13x_R,posFromWrist_14x_R,posFromWrist_15x_R,posFromWrist_16x_R,posFromWrist_17x_R,posFromWrist_18x_R,posFromWrist_19x_R,posFromWrist_20x_R,posFromWrist_1y_R,posFromWrist_2y_R,posFromWrist_3y_R,posFromWrist_4y_R,posFromWrist_5y_R,posFromWrist_6y_R,posFromWrist_7y_R,posFromWrist_8y_R,posFromWrist_9y_R,posFromWrist_10y_R,posFromWrist_11y_R,posFromWrist_12y_R,posFromWrist_13y_R,posFromWrist_14y_R,posFromWrist_15y_R,posFromWrist_16y_R,posFromWrist_17y_R,posFromWrist_18y_R,posFromWrist_19y_R,posFromWrist_20y_R,posFromBody_0x_L,posFromBody_0y_L,posFromBody_0x_R,posFromBody_0y_R
6,-2.166435,-1.410848,1.000065,0.432055,21.280666,38.849716,49.306389,51.023002,28.77681,55.401169,67.32534,73.483085,20.796867,49.03276,61.931579,70.284004,11.878738,38.71994,51.427414,59.20784,2.07772,22.22113,33.489166,40.366196,-27.320828,-41.538885,-47.805317,-49.799682,-21.132399,-11.310379,-8.885885,-8.30527,0.012597,13.9025,15.034842,13.241622,17.74892,29.349402,27.582859,24.94419,31.99069,41.877462,37.191013,31.176091,26.245869,51.174408,74.269364,94.425087,46.494072,78.907334,96.606789,109.790131,37.697914,75.243233,95.16021,109.304856,30.275769,64.736756,83.736397,97.521538,24.653939,51.290291,66.760758,78.763825,-13.275239,-14.313684,-8.050599,-2.03722,19.573436,32.319277,35.178037,36.548982,36.334832,48.410483,50.782934,51.14405,47.181563,60.196179,61.936145,60.817326,52.751043,65.522634,66.480074,64.403827,-33.806213,335.033348,-67.019394,311.187759
7,-3.664696,-0.88292,0.340737,0.087081,22.189442,41.119721,52.803909,54.808136,32.128761,59.230728,71.065613,77.312943,24.002014,52.252899,65.238098,73.790039,14.73523,41.936714,54.793144,62.772217,4.621159,25.256401,36.755722,43.965202,-27.061068,-41.12428,-47.461577,-49.542343,-20.94968,-11.094647,-8.623618,-7.947698,0.2667,14.35145,15.707909,13.937932,18.154843,29.997164,28.541127,25.979053,32.592398,42.740214,38.232249,32.238037,26.039898,51.023243,73.996833,94.14093,46.278064,78.487335,96.117645,109.392791,37.420623,74.813644,94.68798,108.902984,29.959568,64.213234,83.24263,97.176384,24.309837,50.767204,66.192375,78.297043,-13.336113,-14.419438,-8.129059,-2.049497,19.326446,32.101433,34.873989,36.222742,36.118211,48.238026,50.557841,50.931776,47.016874,59.95855,61.676904,60.68245,52.549785,65.344137,66.310222,64.330097,-37.879801,334.160518,-67.087549,311.28493
8,1.332527,1.591963,0.025795,0.418531,21.741429,40.072975,51.153099,53.0056,31.04393,57.504662,69.175667,75.387863,23.133339,51.165093,63.921936,72.304894,14.241783,41.13279,53.619026,61.272606,4.347222,24.655884,35.822251,42.665772,-27.704767,-42.537846,-49.010413,-50.805485,-22.065917,-13.126063,-10.967516,-10.348011,-0.775178,12.725339,13.683212,11.846693,17.107,28.311785,26.362238,23.676725,31.492401,41.066753,36.147369,29.95978,25.855671,50.843547,73.828926,94.0074,46.249065,78.452247,96.078117,109.344268,37.459728,74.843193,94.738014,108.899643,30.004692,64.257637,83.308067,97.226646,24.340461,50.842826,66.240165,78.335678,-13.508297,-14.746158,-8.489854,-2.427137,19.079877,31.779097,34.552048,35.905025,35.869469,47.843219,50.110139,50.446431,46.754411,59.55148,61.14574,60.09108,52.237971,64.962965,65.884936,63.91122,-36.749623,335.782686,-67.264103,311.733666
9,1.288262,1.345874,-0.014637,0.057391,21.677524,39.714477,50.429718,52.318725,30.258522,56.539192,67.683311,73.412864,22.346397,50.962875,63.056099,70.710411,13.761028,41.102394,52.761749,59.509712,4.058876,24.737503,35.36222,41.379341,-28.32689,-43.786871,-50.538612,-52.285173,-23.460006,-14.78947,-12.769602,-12.263718,-2.018411,11.370672,12.090151,10.052066,15.933607,26.863529,24.647393,21.743457,30.309573,39.60795,34.427312,27.984818,25.791778,50.799122,73.715252,93.863834,46.257259,78.431522,96.04256,109.320224,37.379036,74.71487,94.606212,108.761341,29.85704,64.061336,83.136966,97.095943,24.133861,50.651516,66.039447,78.155719,-13.54452,-14.773378,-8.493411,-2.410266,19.035195,31.85216,34.612934,35.965552,35.807483,47.80381,50.044844,50.385842,46.64557,59.471575,61.076542,60.050238,52.048113,64.802291,65.757668,63.813975,-35.536834,337.172427,-67.354213,311.834924
10,4.200176,1.328054,-0.076996,0.178224,20.698688,37.1926,45.912563,46.796184,27.150364,52.282139,63.217495,68.90324,19.239109,46.477306,58.516628,66.592358,10.713444,36.548664,48.130611,55.147762,1.017208,20.491985,30.965229,36.935726,-28.810852,-44.841568,-51.883622,-53.427481,-24.057219,-15.907746,-13.926027,-13.431134,-2.715054,10.136651,10.748647,8.931407,15.008648,25.244804,22.786631,20.071774,29.247033,37.995733,32.560239,26.125896,25.689743,50.780697,73.752102,93.891506,46.462623,78.632755,96.20486,109.434711,37.606006,74.917019,94.78371,108.918857,30.059566,64.234646,83.300709,97.275867,24.289295,50.856296,66.245647,78.369907,-13.701873,-14.946576,-8.596904,-2.524134,19.005369,31.713888,34.452988,35.797258,35.798665,47.567862,49.78464,50.152499,46.619697,59.267218,60.841113,59.838298,52.00621,64.664353,65.572405,63.624686,-31.375271,338.525404,-67.469822,312.038071
11,1.392872,0.784749,-0.19788,0.065456,20.448166,36.558449,44.739555,45.392326,26.533195,51.502533,62.362358,67.849113,18.766823,45.891815,57.78424,65.601288,10.331302,35.946121,47.276024,53.988395,0.708217,19.966804,30.166534,35.828911,-29.101672,-45.50173,-52.634013,-54.154259,-24.861247,-16.993096,-15.076338,-14.564785,-3.524355,9.139407,9.806842,8.085093,14.199347,24.195071,21.783137,19.156966,28.451959,36.991313,31.543531,25.098492,25.663513,50.855289,73.889626,94.065422,46.394588,78.639015,96.248795,109.534126,37.578323,75.010574,94.950623,109.189682,30.096268,64.360542,83.485428,97.534126,24.420158,51.066055,66.468613,78.596695,-13.771589,-15.012019,-8.661422,-2.620675,18.933034,31.52356,34.17416,35.494235,35.797689,47.423316,49.628781,50.073681,46.644705,59.114163,60.673818,59.736237,52.017645,64.562538,65.412026,63.441299,-29.97488,339.337002,-67.660183,312.130376
12,3.284603,0.660285,-0.090008,0.191389,19.50404,34.366917,41.18549,41.279171,23.60622,47.79182,58.92445,64.661808,15.945454,42.145603,54.354,62.737141,7.662506,32.15871,43.802181,51.040684,-1.824314,16.370304,26.636524,32.493908,-29.364593,-46.031734,-53.124188,-54.498419,-24.827235,-17.179644,-15.139793,-14.495082,-3.483242,8.715231,9.399969,7.880291,14.074154,23.505084,20.945246,18.429151,28.211268,36.270006,30.674468,24.273395,25.641129,50.853012,73.942303,94.099743,46.444119,78.708012,96.314564,109.578129,37.705879,75.203167,95.172375,109.447575,30.260937,64.602322,83.728855,97.785198,24.600621,51.310501,66.717991,78.834378,-13.878615,-15.185106,-8.84587,-2.83569,18.843373,31.303606,33.932419,35.254446,35.745239,47.169003,49.359216,49.869176,46.618486,58.910239,60.445638,59.542267,52.028884,64.424872,65.220513,63.236609,-26.660631,340.010952,-67.720545,312.33543
13,3.62717,-1.119239,0.080658,-0.05066,18.45369,31.878159,37.200875,36.068345,19.405472,42.910309,55.207856,61.862503,11.699616,36.608368,50.081635,59.844063,3.502179,26.689179,39.796761,48.549797,-5.809993,11.415299,22.761521,29.889061,-28.016581,-44.162696,-50.51716,-51.506376,-23.348683,-15.573725,-13.338286,-12.611089,-2.345132,9.892379,11.007629,9.676352,14.995952,24.731436,22.579063,20.319171,29.163374,37.569939,32.389919,26.210333,25.680702,50.905861,74.00037,94.231785,46.415131,78.739163,96.360043,109.527661,37.563309,75.161076,95.082745,109.257099,30.080807,64.61546,83.658634,97.552059,24.432587,51.284569,66.641865,78.615292,-13.858398,-15.097,-8.716552,-2.690416,18.519504,31.14303,33.826468,35.172862,35.49489,47.096125,49.359945,49.969088,46.493799,58.914413,60.470647,59.60088,52.055647,64.517411,65.210115,63.131238,-22.997578,338.890799,-67.604004,312.283856
14,0.450085,-2.406388,0.034607,0.070321,17.680058,30.910298,36.093647,34.53693,16.449967,39.502567,53.822903,62.650669,8.836235,33.735043,49.128216,60.813526,1.430145,24.290348,39.253407,49.72189,-6.552589,9.943325,22.666752,31.387173,-26.050338,-40.673453,-45.534544,-45.530592,-19.432312,-10.452826,-7.668624,-7.068471,0.717107,13.42549,15.106361,13.974649,17.144878,27.702296,26.33902,24.277285,30.357095,39.962186,35.793453,29.986901,25.720963,50.94627,74.095562,94.384358,46.382973,78.790981,96.456608,109.54121,37.525807,75.256451,95.240215,109.379986,30.085877,64.865421,83.90173,97.659748,24.483181,51.542702,66.896908,78.738293,-13.928472,-15.148747,-8.766335,-2.734456,18.089969,30.830363,33.576836,34.925762,35.15346,46.848963,49.162813,49.776365,46.322652,58.776722,60.31143,59.38673,52.110173,64.532392,65.117638,62.91957,-22.506764,336.474473,-67.528668,312.344239
15,-0.960983,-0.503266,0.05769,-0.014783,17.970165,31.813923,38.156467,37.290516,16.519249,39.032352,54.033703,63.84486,8.712135,33.055584,49.388019,61.919689,1.320946,23.758976,39.960377,51.595928,-6.688923,9.749142,23.515835,33.424656,-25.360549,-39.929237,-44.347405,-44.094623,-19.139429,-10.692665,-7.654977,-6.695474,0.838595,13.385118,15.407629,14.470776,17.307368,28.068526,27.134316,25.326968,30.691387,40.543282,36.763601,31.138991,25.688415,50.898296,74.089416,94.432983,46.190735,78.750206,96.510704,109.540947,37.27819,75.237785,95.304451,109.384758,29.868358,64.994728,84.037376,97.628128,24.343872,51.637172,66.975288,78.657623,-13.907786,-15.143164,-8.828049,-2.745077,17.735064,30.659883,33.445827,34.778499,34.896825,46.835712,49.207496,49.837943,46.20256,58.824344,60.37859,59.417222,52.150891,64.642073,65.172348,62.87737,-23.422869,335.956189,-67.4261,312.314438
16,0.649898,-0.236183,0.028953,-0.157933,17.418663,30.954117,37.132828,36.047928,14.804409,37.022026,52.733803,63.283059,7.077267,31.305336,48.284935,61.548455,-0.009395,22.261711,39.096474,51.401871,-7.753223,8.620331,22.882485,33.286629,-24.883033,-39.141499,-43.10758,-42.521136,-18.088042,-9.727617,-6.553991,-5.5019,1.715562,14.005475,16.025516,15.08276,17.895812,28.667431,27.71561,25.860541,31.013317,40.811921,37.11732,31.535243,25.787625,51.039917,74.311135,94.770584,46.034844,78.689072,96.518303,109.488213,37.018559,75.215653,95.335968,109.32946,29.62611,65.092553,84.159462,97.606842,24.174317,51.700756,67.067574,78.63842,-13.849962,-14.929137,-8.593879,-2.581117,17.523866,30.710111,33.556422,34.875818,34.776881,46.960127,49.368244,49.937818,46.206315,59.044102,60.576574,59.534017,52.28731,64.873884,65.312732,62.894154,-22.72811,335.7043,-67.352286,312.140799
17,-1.061885,-0.232626,-0.078163,-0.118437,17.54433,31.444576,38.212863,37.376094,15.072097,37.240665,53.407024,64.5592,7.28215,31.439128,48.893863,62.583812,0.225986,22.452838,39.79153,52.551487,-7.54057,8.965953,23.736682,34.701953,-24.388486,-38.427726,-42.0144,-41.236691,-17.936556,-9.819847,-6.433665,-5.173092,1.654861,13.905612,16.204222,15.418089,17.806459,28.826364,28.166771,26.414788,30.973599,40.935768,37.510028,32.024084,25.978993,51.297604,74.668167,95.226608,45.935887,78.662842,96.505898,109.409981,36.845043,75.259278,95.380074,109.298676,29.516899,65.275475,84.339867,97.709519,24.182579,51.952812,67.346054,78.865311,-13.828881,-14.830683,-8.468921,-2.48617,17.242135,30.683496,33.566474,34.883993,34.605499,46.923014,49.310866,49.786727,46.178465,59.130787,60.610808,59.501944,52.411947,65.022147,65.348979,62.841752,-23.740436,335.452383,-67.38089,312.003071
18,-2.232743,0.233367,-0.22435,-0.159859,18.133587,33.111065,41.103413,41.206707,16.998848,39.294743,55.610218,67.039112,9.081528,33.228001,50.751835,64.40997,1.906586,24.163525,41.482716,54.122372,-5.975258,10.722748,25.475979,36.348255,-24.868596,-38.951679,-42.539365,-41.807388,-18.163983,-9.955352,-6.418733,-5.002932,1.469264,13.676777,15.929346,15.110992,17.570968,28.520638,27.919028,26.173048,30.580483,40.437294,36.987224,31.513248,26.066323,51.498127,74.987778,95.549126,45.886585,78.616631,96.450119,109.357453,36.845787,75.314621,95.478836,109.457726,29.606999,65.413834,84.533409,97.984932,24.35915,52.150521,67.611214,79.218796,-13.731316,-14.703984,-8.404417,-2.482157,17.284669,30.72367,33.564955,34.848857,34.728221,46.98248,49.346829,49.775821,46.339337,59.278555,60.7783,59.670818,52.578907,65.146363,65.491832,62.991595,-25.904148,335.667438,-67.536209,311.8249
19,-0.153728,1.801296,-0.221008,-0.200702,18.56726,33.599739,41.613167,41.834678,18.963432,41.132652,56.440727,66.821182,10.8628,33.690399,50.500122,63.542015,2.829151,24.096519,40.820732,53.123611,-6.404022,10.137371,24.49189,35.030914,-26.103183,-41.305431,-45.549561,-45.171575,-21.075107,-14.280017,-10.994562,-9.116559,-0.877189,10.638015,12.670221,11.952842,15.898101,26.083177,25.080276,23.48278,29.738616,38.400803,34.299143,28.772074,26.182056,51.72702,75.314575,95.900459,45.92276,78.692459,96.474701,109.332207,36.880829,75.44696,95.547569,109.454544,29.681419,65.584923,84.66925,98.117844,24.503838,52.359352,67.867104,79.559326,-13.626068,-14.56376,-8.280359,-2.40519,17.345432,30.831994,33.668351,34.969419,34.845054,47.003624,49.358698,49.780095,46.503952,59.398376,60.935134,59.889465,52.763072,65.321575,65.666636,63.216157,-25.985401,337.455112,-67.684742,311.610576
20,0.881973,-0.215262,-0.247616,-0.211766,18.035866,32.619713,39.996643,39.81855,17.926483,39.859154,55.608376,66.281204,9.975792,32.266045,49.444313,63.043098,2.040356,22.731995,39.545082,52.042442,-7.062,8.976185,23.262337,33.779137,-26.01183,-41.045807,-45.06077,-44.571101,-20.520106,-13.517202,-10.08793,-8.137975,-0.410887,11.039344,13.185751,12.496703,16.144497,26.203788,25.248175,23.673478,29.765169,38.269719,34.17111,28.700011,26.34359,51.992146,75.654614,96.29829,46.04599,78.872143,96.626392,109.433567,36.946632,75.619526,95.678387,109.496349,29.758736,65.803402,84.886425,98.312336,24.634083,52.639538,68.230351,79.964092,-13.608124,-14.45466,-8.112004,-2.29509,17.33008,30.930324,33.793357,35.120621,34.897121,47.064039,49.387535,49.753467,46.6327,59.576155,61.06103,59.974643,52.932737,65.508332,65.790037,63.323997,-25.033178,337.224032,-67.862108,311.382992
21,-0.106487,0.186845,-0.232063,-0.138358,18.463451,33.152034,40.983455,41.396953,18.218502,39.734379,55.510746,66.280575,10.029865,31.764118,49.123638,62.772411,1.942497,22.166897,39.189686,51.710666,-7.26883,8.512195,23.023235,33.659946,-26.106123,-41.329082,-45.235573,-44.463668,-21.025126,-14.197297,-10.786426,-8.780872,-0.94824,10.497335,12.768639,12.111973,15.703969,25.741202,24.98823,23.553966,29.491404,38.012775,34.08335,28.747546,26.45478,52.216175,75.957012,96.590641,46.267147,79.175022,96.889057,109.601887,37.155933,75.916591,95.895229,109.622852,29.966503,66.161259,85.178661,98.563694,24.867576,53.017376,68.659458,80.446918,-13.56785,-14.46806,-8.12717,-2.241911,17.352965,30.981898,33.816859,35.127327,34.973025,47.048145,49.344038,49.7137,46.751903,59.645451,61.144233,60.071257,53.085421,65.650247,65.94093,63.505531,-25.064998,337.391176,-68.019504,311.224933
22,0.914772,0.116029,-0.17553,-0.236467,18.588672,32.99049,41.068462,42.020176,17.039371,37.957912,54.000973,65.019138,8.681614,29.908596,47.713451,61.741688,0.67543,20.445064,37.954571,50.835331,-8.3279,7.193699,22.032749,32.892277,-26.266489,-41.648344,-45.409512,-44.267883,-21.16798,-14.577012,-11.197165,-9.1225,-1.075408,10.248864,12.564183,11.91405,15.621619,25.487272,24.862741,23.590942,29.448734,37.909739,34.055895,28.814706,26.531502,52.328751,76.039479,96.6106,46.468472,79.374768,97.046826,109.72752,37.342575,76.095967,96.002507,109.700512,30.124237,66.366612,85.310749,98.683972,25.005787,53.151043,68.827732,80.701161,-13.443176,-14.347647,-8.003101,-1.994489,17.483369,31.156195,34.011398,35.313455,35.100144,47.200989,49.528906,49.92932,46.881061,59.817821,61.422739,60.419258,53.238871,65.865891,66.237518,63.859114,-24.073665,337.491147,-68.118473,310.972408
23,2.589958,-0.1689,-0.176136,-0.039768,17.89262,31.133068,38.460651,39.032673,14.26482,34.613605,50.779964,61.943607,5.876404,26.756435,44.864216,59.230122,-1.870194,17.515812,35.327625,48.465351,-10.486691,4.642353,19.621983,30.575306,-26.15661,-41.492831,-45.087718,-43.604843,-20.835565,-14.419845,-11.079963,-9.056908,-0.777228,10.285976,12.713409,12.090582,15.86147,25.479319,24.910598,23.665549,29.651844,37.927177,34.143828,28.962079,26.649079,52.449807,76.172058,96.751076,46.516949,79.583336,97.283913,109.97509,37.396328,76.34182,96.244515,109.915329,30.227097,66.673554,85.601235,98.962487,25.204514,53.516785,69.244149,81.140007,-13.468036,-14.443421,-8.071964,-2.006345,17.434649,31.08969,33.920317,35.244764,35.136763,47.206585,49.489683,49.881699,46.984765,59.869828,61.442463,60.420148,53.386047,65.954529,66.25382,63.821669,-21.420845,337.306513,-68.231747,310.916906
24,-1.269573,-0.760061,-0.079754,-0.02943,16.992462,30.621597,39.655426,42.475479,13.557564,34.263679,50.907509,62.654182,5.533802,27.790832,46.664451,61.790725,-1.260327,19.777199,38.351303,52.203827,-8.502434,7.763923,23.103721,34.41941,-25.918538,-40.701401,-43.276578,-40.826384,-19.903022,-13.07975,-9.267675,-7.255674,0.106062,11.126374,13.953358,13.560489,16.661224,26.36256,26.303465,25.114782,30.189554,38.796895,35.40739,30.307621,26.725571,52.561329,76.307042,96.864682,46.626515,79.800992,97.493786,110.143948,37.453457,76.544507,96.418568,110.046536,30.244183,66.869191,85.751233,99.073002,25.219689,53.647992,69.394925,81.288266,-13.473977,-14.520202,-8.137494,-2.010322,17.402551,31.037387,33.847686,35.176666,35.183112,47.242943,49.51873,49.944363,47.055123,59.900012,61.458493,60.428867,53.462902,66.005929,66.281447,63.803033,-22.630897,336.53152,-68.25198,310.872544
25,-0.443917,0.182546,0.032181,-0.057761,16.832016,30.99408,41.010384,44.833535,13.24617,33.280381,50.302849,62.747498,5.060749,26.84871,46.352051,62.167695,-1.642673,18.971352,38.304749,53.032654,-8.625022,7.426999,23.149956,35.061058,-26.10306,-40.9692,-43.543327,-40.583692,-21.004847,-14.666513,-10.406315,-8.062047,-0.765272,9.749403,13.064832,13.002674,16.253932,25.559768,25.985068,25.050327,30.249811,38.656067,35.45747,30.482239,26.710316,52.493569,76.262593,96.802197,46.540833,79.702069,97.409191,110.090412,37.503468,76.592434,96.495426,110.206501,30.394627,67.042065,85.912274,99.238804,25.427239,53.834072,69.565052,81.470066,-13.400482,-14.529267,-8.242828,-2.08914,17.643599,31.099804,33.891689,35.186434,35.389865,47.21828,49.500501,49.917674,47.216859,59.853353,61.426901,60.365585,53.60878,66.096517,66.35493,63.798624,-23.021462,336.701448,-68.166447,310.802165
26,1.590466,-0.51648,-0.065849,0.13175,15.792149,29.63435,39.639965,43.866062,10.357098,29.55653,47.498692,60.989765,2.16592,23.247288,43.788746,60.896564,-4.206551,15.661938,35.94659,51.928287,-10.658775,4.681538,20.750736,33.37579,-25.923786,-40.462711,-42.951117,-39.830275,-21.12883,-14.879812,-10.047545,-7.417571,-0.720714,9.512898,13.339954,13.587944,16.586309,25.637931,26.55038,25.919328,30.852679,39.167545,36.147839,31.310868,26.597259,52.337677,76.13039,96.644726,46.523357,79.744938,97.482891,110.192425,37.567726,76.783779,96.715244,110.40192,30.544784,67.319561,86.196979,99.457958,25.672314,54.123218,69.809109,81.616733,-13.536579,-14.754396,-8.575502,-2.450861,17.604672,30.978762,33.772449,35.072246,35.341293,47.036092,49.299393,49.684493,47.176191,59.686096,61.196684,60.076458,53.601198,66.058022,66.210571,63.553759,-21.389688,336.167128,-68.190988,310.916075
27,2.361076,-0.236022,0.013424,-0.084425,14.486653,27.627011,37.312512,41.618878,7.338902,25.969036,44.309567,58.453503,-0.780178,19.74812,40.889386,58.764004,-6.812233,12.340428,33.125645,49.863018,-12.74525,1.825081,17.960804,30.965458,-25.961998,-40.241373,-42.6158,-39.194741,-21.482598,-15.397107,-10.203182,-7.362428,-0.878425,9.028144,13.138202,13.537839,16.7291,25.504612,26.678203,26.1131,31.313065,39.464552,36.561393,31.801264,26.536171,52.318073,76.176086,96.769386,46.543888,79.888939,97.679169,110.383392,37.605583,76.88855,96.865013,110.504654,30.606262,67.456924,86.362518,99.51979,25.758373,54.264221,69.927337,81.601364,-13.575482,-14.748518,-8.675735,-2.661183,17.770225,31.089085,33.876869,35.175258,35.485591,47.110612,49.393735,49.749183,47.289157,59.791887,61.280529,60.083472,53.673323,66.192996,66.269505,63.49974,-18.999361,335.896486,-68.148313,310.79703
28,-4.519592,-2.371821,-0.056133,-0.074335,15.878117,31.190815,42.52232,47.192127,10.396282,30.507053,49.829693,65.07407,2.253365,24.928288,46.631596,64.726833,-3.43103,17.589649,38.726841,55.355198,-8.511429,6.895809,23.318241,36.644932,-24.654359,-37.883829,-39.632662,-36.09035,-19.397892,-11.793576,-5.776159,-2.756736,0.847116,11.681967,16.582566,17.397153,18.165798,28.045345,29.970278,29.474719,32.372406,41.996381,39.812923,35.177604,26.498725,52.323394,76.249042,96.872005,46.556957,79.967342,97.788402,110.513042,37.668525,77.062099,97.081249,110.750713,30.7126,67.666523,86.592899,99.736805,25.903987,54.381214,70.015537,81.668163,-13.567368,-14.750173,-8.749971,-2.765393,17.828703,31.164445,33.968284,35.258226,35.507339,47.06052,49.370875,49.7354,47.300902,59.747105,61.265214,60.063724,53.68797,66.305493,66.441974,63.688115,-23.500019,333.485712,-68.185512,310.683742
29,2.200962,0.869729,-0.056797,-0.179212,16.204468,30.863228,40.782944,43.76635,9.79644,29.021896,48.108788,63.227257,1.381668,22.035095,43.39492,61.419823,-5.076233,13.676422,34.620117,51.330231,-11.303078,2.49963,18.838188,32.276047,-25.155401,-39.039956,-41.751441,-38.716507,-20.90633,-14.092432,-8.314532,-5.098027,-0.480282,9.894417,14.670663,15.426587,17.216213,26.479763,28.166982,27.764233,32.053194,41.043289,38.554006,33.8867,26.4761,52.308025,76.277664,96.955947,46.446006,79.881065,97.779441,110.601265,37.702709,77.133476,97.234222,111.02552,30.867553,67.819267,86.810783,100.012527,26.13787,54.550827,70.184806,81.845008,-13.474063,-14.631155,-8.741573,-2.812385,18.019697,31.304285,34.100393,35.364683,35.624875,47.091963,49.403022,49.736635,47.394108,59.852118,61.396471,60.171256,53.765985,66.53928,66.705796,63.913862,-21.285605,334.318376,-68.228857,310.467465
30,0.206028,-0.158735,-0.149804,-0.056514,16.304798,30.638157,39.928562,42.280689,10.23373,30.015415,48.58524,63.072979,1.918739,22.959972,43.69582,61.130367,-4.671787,14.355801,34.652241,50.780102,-11.204246,2.750977,18.766239,31.824566,-25.162774,-39.030904,-41.846921,-39.158345,-20.447871,-13.09499,-7.63718,-4.698712,-0.162885,10.725861,15.120416,15.676243,17.301045,26.936851,28.211935,27.60005,31.911748,41.11277,38.445708,33.672537,26.507607,52.437928,76.445,97.101128,46.742535,80.158493,97.962593,110.732277,37.94862,77.378128,97.362374,111.081185,31.020928,67.953576,86.89325,100.10994,26.205964,54.601159,70.241364,81.942627,-13.52071,-14.696437,-8.785157,-2.835443,17.87982,31.237138,34.050091,35.36493,35.521196,47.007588,49.30553,49.653852,47.308176,59.802866,61.365954,60.17138,53.683733,66.459387,66.653914,63.900018,-21.063257,334.120966,-68.362341,310.372276
31,-3.497429,-1.350593,-0.15097,-0.496955,17.445545,32.934872,43.018421,45.225369,14.892185,36.174008,53.609471,66.699383,6.79073,29.340122,48.596523,64.248722,-0.179077,20.373585,39.258579,53.807087,-7.253494,7.960831,23.304966,35.437855,-25.073668,-38.553227,-41.243717,-38.89551,-19.453985,-11.524096,-6.49518,-3.776519,0.791492,12.098425,15.991702,16.29255,18.105937,28.185235,29.028968,28.120953,32.490807,41.935816,39.105659,34.202837,26.704811,52.609554,76.535065,97.165123,46.864368,80.159958,97.923546,110.768394,38.035652,77.213997,97.148827,110.921974,31.044228,67.623848,86.5532,99.894859,26.106823,54.212494,69.863708,81.683098,-13.328048,-14.335358,-8.380679,-2.566421,17.91908,31.426872,34.410467,35.906926,35.547119,47.193716,49.587137,49.992343,47.31739,60.040691,61.779867,60.714092,53.648437,66.564104,66.928789,64.277992,-24.533484,332.727577,-68.486109,309.832525
32,-6.857105,-1.701854,0.041153,-0.288325,19.592514,37.81073,50.388977,53.817696,22.282631,45.66822,61.926933,73.473564,14.380188,39.699806,57.120346,70.369331,7.11874,30.624275,47.775352,60.140991,-0.410923,17.194427,31.691299,42.460304,-24.97488,-38.07413,-40.777415,-38.827164,-18.800789,-10.302302,-5.762968,-3.336658,1.668336,13.508484,16.891159,16.7611,19.084089,29.694526,30.078033,28.648388,33.264145,43.115707,40.058987,34.817007,26.718807,52.469021,76.298057,96.846611,47.073131,80.222488,97.858246,110.654045,38.325954,77.255379,97.078308,110.804855,31.314285,67.655205,86.523765,99.949539,26.281425,54.305351,69.943634,81.868309,-13.434518,-14.493624,-8.430981,-2.676016,17.647477,31.02726,34.048288,35.583354,35.257979,46.826227,49.176188,49.511752,47.068758,59.71397,61.46615,60.414911,53.465804,66.233529,66.696435,64.171201,-31.367735,330.997784,-68.422102,309.516261
33,-0.276753,-0.750971,0.057003,-0.712106,19.259434,37.411252,49.950154,53.810429,24.5518,48.198727,62.555111,71.76257,16.649701,41.362095,56.94302,68.523961,8.547238,31.890278,47.659367,59.01257,-0.240131,18.057141,31.834454,41.573536,-25.888465,-39.003055,-42.010547,-40.421807,-19.77116,-11.476129,-7.747935,-5.586412,1.183113,13.188591,15.611035,15.017169,19.010346,29.49911,28.991485,27.308268,33.584789,42.857738,39.180352,33.754689,26.665993,52.139099,75.719707,96.127224,47.493256,80.696743,98.324695,111.166111,38.876461,77.385487,97.154674,110.85387,31.813179,67.714016,86.629269,100.167721,26.590107,54.417057,70.069118,82.118145,-13.87465,-14.935745,-8.8938,-3.314861,17.083412,30.545126,33.829062,35.546378,34.589284,46.303077,48.764437,49.062568,46.397901,59.2471,61.211726,60.194882,52.85098,65.834091,66.596696,64.250649,-31.633971,330.223005,-68.354582,308.780347
34,-3.362606,-5.95584,-0.05563,-1.459681,19.972058,38.953423,51.735604,55.312706,28.130745,54.174637,67.105294,73.990403,20.083294,47.653267,61.194832,70.042626,11.54028,37.744492,51.938622,60.758126,2.541493,22.871167,35.756951,43.746895,-24.570674,-35.963168,-38.391367,-37.224346,-15.458067,-4.162323,-0.851303,0.663311,5.319033,19.862243,21.572618,20.382342,22.489389,35.368376,34.121006,31.685335,36.174083,47.573963,43.892057,38.140439,26.40025,51.372471,74.668465,95.027985,48.371292,81.424233,98.952484,111.664787,39.979294,77.830925,97.523346,111.104782,32.710728,67.831558,86.809204,100.346398,26.998135,54.224407,69.739884,81.958397,-14.826039,-16.251745,-10.544426,-5.639714,15.764263,29.242884,33.190143,35.463237,33.22539,45.104984,48.048576,48.638663,45.080074,58.038546,60.573067,59.865148,51.694469,64.857496,66.336233,64.526427,-34.988795,324.225045,-68.40243,307.278546
35,1.673699,-7.286474,-0.346424,-3.457084,18.898876,36.355522,48.016067,51.095604,25.400093,51.555519,64.735313,71.381973,17.210552,45.407661,58.997497,67.713981,8.568638,35.349335,49.798256,58.564545,-0.11816,19.387001,32.132835,40.173614,-23.204545,-32.826037,-34.705028,-33.727062,-11.563617,2.273094,6.241756,7.907511,8.864259,25.075249,27.519182,26.743449,25.283286,39.630266,39.345843,37.501556,38.176908,51.165502,48.788902,43.967775,26.212395,50.984985,73.853176,93.70808,49.108887,81.700459,99.176067,112.08086,41.209202,77.828671,97.647869,111.80801,33.810951,67.549542,86.596104,100.464878,27.371555,53.597511,68.904133,81.476841,-16.036409,-17.73194,-12.26052,-8.28525,13.505062,27.133514,31.933398,35.074654,30.802476,43.369661,47.340768,48.911353,42.814068,56.341459,60.07989,60.425507,50.08119,63.860868,66.514024,65.591522,-33.322603,316.889174,-68.756361,303.772065
36,5.29303,-8.768151,-0.073082,-5.731821,16.709827,31.280342,40.058441,42.385414,19.740577,44.518089,56.164009,61.370796,11.501117,38.518592,50.804374,58.721603,2.851558,28.153587,41.763679,49.937439,-5.59916,11.924823,23.964683,31.56443,-21.915036,-28.859957,-27.815695,-24.822826,-8.692927,7.467724,10.996069,11.479006,11.376044,29.400742,31.669897,30.212525,27.253927,43.503573,42.929393,40.264862,39.454265,54.542336,52.628308,47.975167,25.473106,49.918041,72.15057,91.432675,49.160351,80.609928,97.817677,111.102963,41.867787,76.479435,96.08012,111.070965,34.388741,65.938419,84.546581,98.742977,27.388516,51.764706,66.404995,78.876743,-17.612638,-19.857179,-15.009167,-12.234857,9.643932,22.768895,28.376549,32.404282,26.865986,40.01418,45.340326,48.392933,39.300753,53.702382,58.946844,60.917979,47.53543,62.225272,66.343123,66.761692,-28.037006,308.078116,-68.836876,297.997337
37,10.260921,-12.088273,2.932915,-8.372331,11.665146,21.212025,26.319981,27.495678,9.623852,27.751637,38.466969,43.527317,2.835686,21.454537,33.102574,42.345852,-4.374378,12.743317,25.479847,34.736836,-11.104259,0.244927,10.397472,17.700359,-19.569817,-24.682257,-22.809429,-19.17869,-5.993495,10.150434,13.460787,13.157222,13.5802,31.123801,34.073803,32.183388,28.980543,45.498976,45.543078,42.342924,41.052724,57.529413,56.5718,52.303179,23.331528,46.880871,68.530666,87.455692,49.508182,76.914104,91.823124,103.742534,43.726982,73.745945,89.795528,102.16666,36.876858,64.142521,78.85944,90.080257,29.359714,51.014889,62.74728,72.890911,-20.133055,-25.093491,-23.650569,-22.037747,4.099202,14.924197,20.320084,24.701066,21.913319,34.713735,40.182327,44.007592,35.804259,50.776919,56.288538,58.373961,46.284922,62.077084,66.479579,66.69741,-17.749409,295.885142,-65.877285,289.520305
38,26.817936,-17.689739,-2.182697,-14.940315,-0.888691,-1.604668,-2.660133,-3.181526,-12.9123,-8.304932,-2.378941,1.698841,-16.085186,-11.352905,-4.850052,2.599915,-19.221874,-14.887173,-7.277321,0.088875,-21.60783,-19.731205,-14.553406,-9.722099,-17.429091,-18.705003,-13.562404,-7.546938,-1.311209,14.732364,17.587381,16.749503,17.503623,35.16266,37.538557,35.015978,32.322623,49.421991,49.444135,45.666307,43.636842,60.851881,60.810225,57.27347,22.397197,45.307994,65.790756,84.546501,55.327388,80.839416,93.086082,101.1305,50.224811,77.56945,90.219543,98.655395,42.901702,67.278442,78.542495,86.020523,33.812107,52.685474,61.938468,69.258384,-20.639383,-26.862627,-27.008173,-26.944446,3.633024,14.75804,21.44477,25.947387,21.47667,36.007468,42.70635,46.629638,35.359472,51.451333,57.690681,59.768903,46.32553,62.536297,66.858468,66.70487,9.134457,278.02541,-67.994052,274.409997
39,29.221161,-19.00101,-4.327733,-21.210365,-11.844795,-22.206757,-29.97068,-33.18512,-34.246445,-44.375084,-40.627247,-35.374226,-34.308415,-45.692207,-41.222328,-32.378197,-33.734757,-44.348499,-39.708595,-31.507713,-32.188763,-41.426731,-39.613792,-34.7463,-16.240753,-14.870771,-6.620891,2.20281,-0.205505,15.919466,19.427903,18.812202,17.749675,35.833135,39.446485,37.662132,32.389178,49.986144,50.975842,47.598675,43.653861,60.712338,61.364114,58.654605,21.334591,44.42157,64.298024,82.02055,55.008797,79.939419,91.291661,98.202565,51.199757,78.898396,92.098172,100.690442,44.577507,69.328206,80.670788,88.026638,35.584282,54.63834,63.088017,68.636868,-22.017196,-29.961114,-31.919652,-32.528598,-1.636596,8.017069,14.604689,18.617774,16.50817,31.54279,38.504111,42.206061,31.201359,47.410892,53.97711,56.235186,43.400018,59.116041,63.074119,62.607903,38.41761,258.898229,-72.259793,253.073461
40,27.143944,-23.994728,-7.642873,-25.060904,-19.025345,-37.277436,-50.692795,-56.980088,-47.35112,-70.356652,-70.744412,-66.188084,-45.056923,-70.306343,-70.34095,-63.166374,-41.66977,-64.923947,-64.54271,-57.950524,-36.923825,-54.280712,-55.468117,-51.884903,-16.845809,-14.703464,-3.886237,7.357932,-3.827093,10.211999,13.949097,13.262581,14.877132,32.063482,35.772903,33.612306,30.694846,48.017429,48.594055,44.295324,42.945386,59.169998,59.082029,55.583213,21.487455,44.473228,63.658327,80.599834,54.514166,78.107133,88.559292,94.058939,51.135343,78.245178,91.448061,99.143388,45.030166,69.724765,81.000269,87.596946,36.821399,55.562267,62.913746,66.457031,-23.111565,-33.887614,-38.871653,-40.759098,-9.663829,-4.327905,0.769771,3.392805,7.996456,20.096897,26.056762,28.992534,23.466731,37.797041,43.883381,45.696848,37.495091,52.090486,55.754465,55.234101,65.63189,234.806167,-79.83233,227.915223
41,27.269989,-28.044036,-11.419178,-28.280936,-25.485283,-50.178978,-67.954239,-76.938515,-56.936142,-92.790573,-96.18021,-90.858135,-52.122505,-90.986779,-94.089066,-86.960953,-45.96682,-81.192845,-83.786225,-77.311455,-38.390236,-63.852196,-67.636734,-64.52829,-17.466363,-17.054025,-7.472998,3.043307,-10.436912,0.356306,6.949317,8.267639,7.830323,22.822668,29.145478,28.285122,24.599907,40.473246,43.390891,40.153576,38.704109,53.976764,55.333754,52.386691,23.29149,46.405323,64.972212,80.996852,54.600935,76.407812,86.091808,89.886778,50.917104,76.732361,89.822141,95.894193,45.101509,69.6973,81.197096,86.623764,37.899673,56.529007,62.882663,64.780723,-23.989772,-38.53774,-47.245718,-50.768845,-19.830638,-21.018318,-18.691173,-18.17967,-3.605977,2.588846,6.40144,8.166641,12.437923,22.814619,27.766437,28.528456,29.080758,41.809858,45.264738,44.756452,93.00289,206.739231,-91.150497,199.611387
42,25.589218,-29.726451,-15.97443,-28.641681,-29.366753,-58.405312,-79.807411,-91.610001,-62.379341,-102.195465,-110.455387,-107.446163,-57.069328,-100.319309,-108.920654,-105.305603,-50.079231,-89.379295,-96.434052,-93.092903,-41.653862,-70.035874,-74.966744,-72.405625,-19.486145,-21.207184,-12.895054,-3.180282,-18.72827,-13.77065,-7.166647,-4.714434,-2.082903,8.181887,14.289565,15.262504,14.662247,27.066287,29.866723,27.695295,29.697836,42.532338,44.69669,42.854354,27.9801,51.892204,70.339571,86.717079,55.102483,76.057851,86.918689,91.73604,49.660509,73.248619,88.834013,97.0309,42.639862,66.81427,82.093568,90.073299,35.737083,54.82489,63.65752,67.172184,-22.77177,-36.993622,-44.279192,-49.209524,-28.614252,-34.131222,-36.121364,-39.206822,-15.042308,-14.448327,-15.216626,-17.359547,-0.053087,5.398619,6.887808,5.698655,16.52278,25.646366,27.695579,26.75102,118.686882,177.432562,-107.030153,171.389488
43,7.380295,-24.035829,-7.410267,-30.24621,-27.831848,-54.56472,-75.918412,-90.788773,-56.134552,-89.048653,-96.013298,-94.502816,-50.736351,-86.928452,-94.864426,-92.969033,-43.653946,-76.790863,-83.175888,-81.187043,-35.650727,-59.551346,-63.478272,-61.51252,-20.802972,-27.204792,-23.29772,-17.762197,-30.453555,-33.704091,-31.93446,-32.600488,-16.107675,-15.259051,-13.639622,-15.280238,-0.826887,2.934127,1.824781,-2.194115,14.123246,20.067063,19.435405,16.024319,30.768854,54.424118,72.520231,88.186763,47.634229,64.765028,77.0965,85.51304,40.745275,59.529545,77.055696,88.668188,33.508014,53.375484,70.713861,82.020904,27.918995,43.825344,53.476993,59.140755,-19.926509,-34.189956,-41.296795,-46.6047,-42.164818,-56.020872,-62.831307,-68.266683,-31.534645,-40.742987,-45.889291,-50.133955,-16.972064,-20.405927,-22.700205,-25.578676,0.988667,3.761712,3.951464,2.341736,126.102036,154.376051,-114.405561,142.122596
44,4.297096,-27.865219,-7.038929,-25.588123,-27.565018,-52.655182,-73.173431,-89.459724,-50.05735,-75.232956,-82.881958,-84.002518,-44.504356,-71.461784,-80.395935,-81.83876,-37.690842,-62.32814,-69.150696,-70.13459,-30.40052,-47.733238,-51.396172,-51.294914,-20.644077,-31.035356,-31.044501,-29.289301,-43.666094,-56.45671,-59.148311,-62.918649,-31.586422,-41.938916,-45.134525,-50.059861,-17.253436,-24.016328,-28.838362,-35.306415,-1.786273,-3.674934,-6.943451,-12.118067,33.099603,56.65155,75.095094,90.593021,46.394777,58.925783,70.58971,79.896074,37.706949,49.876716,65.248014,76.382028,29.407779,42.878345,58.172098,68.919674,23.746776,34.844227,43.693828,49.900051,-16.695981,-30.457885,-36.626143,-41.453975,-49.902799,-70.005377,-81.007109,-89.281621,-42.503439,-60.336986,-70.064584,-77.213481,-29.518439,-40.580936,-47.184608,-52.851079,-11.494759,-14.444132,-16.816262,-19.912322,130.432766,127.574264,-121.410856,117.597905
45,2.803894,-24.20006,-4.219042,-22.428374,-29.61573,-52.89109,-72.876823,-90.138886,-47.612869,-65.16275,-73.236626,-77.26474,-40.854881,-59.581375,-68.805771,-72.955696,-33.273216,-50.012329,-57.277176,-60.786896,-26.015808,-37.579926,-41.772217,-43.53598,-19.3349,-31.73203,-34.585665,-35.929385,-51.414338,-71.394258,-80.0715,-88.271899,-42.996078,-62.482785,-71.489897,-80.490224,-30.726098,-45.939991,-55.553512,-65.401992,-15.714764,-23.363534,-29.044708,-35.660351,34.557323,58.029579,77.180946,93.115082,45.400978,54.491592,65.485725,75.539394,35.371181,42.55719,56.090183,66.900341,25.982117,34.022861,47.415481,57.953773,19.589287,26.925579,35.575035,42.612877,-13.255874,-25.196607,-28.904065,-32.635018,-53.5536,-77.469918,-91.802034,-102.910032,-48.366096,-72.333376,-86.242793,-97.074877,-36.591485,-53.870275,-64.741892,-73.655255,-19.071343,-26.940729,-31.490018,-35.848886,133.395041,104.481886,-125.471517,96.277213
46,1.480408,-20.055447,-0.394238,-18.462558,-32.182022,-55.023789,-74.899544,-93.833474,-49.106804,-58.838173,-66.919625,-73.955429,-41.360871,-51.487175,-60.585617,-67.546898,-32.746537,-41.849327,-49.393456,-55.599953,-24.880577,-31.050957,-35.451233,-38.729966,-17.868019,-31.120312,-35.23197,-38.010059,-55.83153,-82.15457,-98.185416,-111.464317,-50.00202,-77.702625,-94.062884,-107.679683,-39.662512,-62.781428,-78.690959,-92.417686,-25.703338,-39.625567,-48.8982,-57.417843,34.562634,57.712773,77.876439,94.599942,44.714161,51.673611,62.323185,73.532467,34.052937,38.038445,50.354371,61.829647,23.598999,27.315113,38.968769,49.96003,15.797116,20.281689,29.040516,37.073388,-9.034178,-18.059667,-18.065669,-19.586934,-53.195145,-78.353696,-94.908685,-108.15208,-49.433959,-76.81361,-94.058758,-108.481104,-38.922507,-61.135063,-76.019925,-88.153604,-22.968837,-35.622621,-42.733255,-48.871425,135.065832,85.456748,-125.675372,78.844964
47,-0.604889,-16.486836,1.263462,-16.120229,-35.379914,-58.703499,-79.441544,-100.367089,-52.596039,-58.724671,-64.99569,-72.573189,-43.325844,-47.99421,-54.148476,-61.095177,-33.253144,-37.133469,-42.778038,-49.271828,-24.395554,-27.203041,-32.024231,-36.477677,-15.41389,-28.165449,-31.40571,-34.000783,-57.698022,-85.3319,-105.432783,-122.86225,-53.53644,-84.616126,-105.911064,-124.426543,-44.673236,-72.195031,-92.27908,-109.440576,-31.673478,-49.829871,-62.341592,-73.181568,32.941189,55.777485,76.32399,92.325303,43.211655,50.090012,60.55505,72.217747,32.198857,36.502842,48.285702,60.186688,21.396664,23.155152,33.166546,44.380303,12.854279,14.626442,22.326519,30.391297,-5.460144,-13.501746,-12.227699,-11.402856,-52.303173,-78.989886,-95.07183,-108.14835,-49.552285,-79.409764,-96.165565,-110.460094,-39.814517,-65.219964,-80.06317,-92.440422,-24.173088,-39.750488,-46.890268,-52.758607,134.675835,69.591411,-124.197018,63.346234
48,-2.176964,-16.054162,-1.924633,-7.896741,-35.455421,-59.770844,-80.99556,-101.680298,-53.649834,-60.212082,-67.066452,-75.013252,-44.259224,-48.55204,-53.623741,-59.575195,-34.127037,-37.487343,-42.358498,-48.289192,-25.245071,-28.263245,-33.005608,-36.743614,-13.389539,-25.612144,-27.590813,-28.354214,-59.385427,-87.275865,-106.498274,-123.978439,-55.615885,-87.098345,-107.887646,-126.826219,-46.086148,-73.756915,-93.545588,-111.293107,-31.777373,-49.224322,-61.05777,-71.542613,31.929131,55.308621,77.074254,93.230187,44.00948,51.34282,61.476986,73.366414,33.019741,38.203389,49.589791,61.589379,22.022908,24.303761,33.740834,44.888432,12.85468,15.429657,23.109604,30.915619,-5.039371,-13.112311,-11.235191,-8.627898,-50.925732,-77.990678,-94.656373,-108.550012,-48.339236,-78.613561,-96.186024,-111.462094,-38.680508,-64.061971,-79.358882,-92.395394,-23.143462,-38.615559,-45.510283,-51.194451,132.828369,53.642888,-125.792153,55.555132
49,-0.988289,-9.281112,-0.384773,-6.386784,-35.888626,-61.118477,-83.103653,-103.84536,-55.844238,-63.439339,-70.964355,-79.687523,-45.792023,-50.875832,-55.770744,-61.472443,-34.879372,-38.89991,-43.690384,-49.34832,-25.430992,-29.222992,-34.479858,-38.333015,-12.262458,-23.613771,-24.606193,-24.51742,-57.917804,-86.392574,-105.984344,-123.987194,-54.181713,-86.003528,-107.309384,-127.049589,-44.203229,-71.266496,-91.285053,-109.324294,-29.044121,-44.819498,-55.57353,-65.07125,31.698761,55.000866,76.928993,93.502545,44.260231,51.7668,61.957077,74.18232,32.934883,37.997853,49.091137,61.105374,21.583649,23.564781,32.782883,44.197952,11.88073,14.499195,22.030426,29.908287,-3.722914,-11.464723,-8.854416,-5.500344,-49.865125,-77.396632,-94.33193,-108.348761,-47.334747,-77.919263,-95.615215,-111.051811,-37.288486,-62.687944,-78.039195,-91.223235,-21.252707,-36.170384,-42.339472,-47.527588,132.181372,44.26229,-125.835634,49.068862
50,-2.402115,-6.965989,0.023953,-5.230278,-35.900139,-61.55944,-83.413101,-103.702331,-56.008163,-64.089638,-72.114807,-81.253555,-45.504661,-50.351944,-55.144317,-60.518165,-34.26329,-38.236976,-43.321747,-49.03022,-24.771309,-28.463104,-34.231682,-38.451851,-10.453913,-21.289313,-21.791746,-20.992609,-57.334375,-86.342495,-105.427269,-123.101756,-53.478451,-85.805786,-106.843441,-126.511243,-43.062292,-70.284752,-89.602646,-106.940994,-27.107178,-42.584492,-52.379263,-60.808317,31.164951,54.186824,76.146251,92.722286,43.851093,51.475078,61.790336,74.390716,32.300342,36.963134,47.88319,59.950515,20.791385,22.261825,31.088813,42.408256,11.102726,13.191913,20.103641,27.627308,-2.414163,-10.021573,-7.008166,-2.872969,-49.318671,-77.31637,-94.469133,-108.417638,-46.759487,-77.531391,-95.337431,-110.538622,-36.376168,-61.750029,-77.235575,-90.298937,-20.041807,-35.020999,-41.548172,-47.112644,130.0238,36.953633,-125.567138,43.495916
51,-1.949959,-5.507847,-1.236695,-5.08222,-35.47499,-60.897766,-82.521377,-101.782722,-54.910057,-63.068618,-70.895713,-79.987541,-44.207107,-48.630363,-52.91233,-57.760299,-32.920051,-36.083107,-40.831993,-46.268554,-23.615455,-26.358261,-32.321342,-37.040863,-9.031072,-19.444013,-19.981161,-19.075857,-57.150247,-86.121249,-104.730045,-122.11194,-53.082414,-85.66153,-106.655472,-126.447906,-42.425571,-69.703698,-88.727142,-105.907681,-26.0189,-41.276834,-50.314643,-57.783312,30.656994,53.4707,75.222565,91.794262,43.093598,50.237847,59.891774,71.89246,31.107102,34.748268,44.942036,55.925629,19.429756,20.337834,28.589207,39.172257,9.809429,11.152485,17.214672,24.110138,-2.046983,-9.655004,-6.613852,-2.057425,-49.429871,-78.036595,-95.363477,-109.533671,-46.777604,-77.419276,-95.551803,-110.95766,-36.055911,-61.005399,-76.657986,-89.698111,-19.37074,-34.218447,-41.420774,-47.546489,128.31455,30.762842,-126.563124,37.730752
52,-0.185485,-5.322249,-2.980465,-6.513026,-34.601143,-59.477463,-81.129273,-99.264153,-52.286774,-59.80307,-67.182473,-76.185128,-41.572289,-44.942803,-49.004059,-53.812203,-30.465065,-32.253319,-36.728783,-42.276879,-21.473076,-22.50792,-28.236306,-33.460144,-8.398822,-18.27908,-18.798326,-18.614712,-57.313917,-86.082489,-104.852286,-122.478596,-52.59897,-85.515219,-106.662469,-126.820533,-41.285999,-68.356712,-87.350775,-104.716967,-24.227305,-39.02347,-47.445516,-54.248639,30.332234,52.902729,74.542317,91.162926,41.746972,48.039071,56.992482,68.134072,29.423882,31.819439,41.245697,50.846421,17.645485,17.958664,25.410656,34.848187,8.350766,8.963322,13.99173,20.036797,-2.530124,-10.132291,-6.862916,-2.0934,-50.346487,-79.53755,-97.393107,-112.139915,-47.256194,-77.773236,-96.444016,-112.274487,-35.821204,-60.475778,-76.956747,-90.765251,-18.388334,-32.909227,-41.028424,-48.053855,128.336993,24.19501,-129.335661,29.972143
53,2.567459,-6.111964,-4.655971,-8.121716,-33.5644,-57.62986,-79.410164,-96.556046,-49.020424,-55.926682,-62.326721,-70.574204,-38.022904,-40.181168,-43.482308,-47.766793,-26.997917,-27.404755,-31.262947,-36.46502,-18.54039,-17.500534,-21.955628,-27.028359,-8.884464,-18.332993,-18.407532,-18.790249,-57.08234,-85.894384,-105.323342,-123.267117,-51.751377,-84.617824,-105.85791,-126.126692,-39.8344,-66.446246,-85.571374,-103.011067,-22.311875,-36.285381,-44.590942,-51.486159,29.964706,52.363975,73.802101,90.431179,39.829891,45.111397,53.32695,63.487816,27.229168,28.326977,36.825977,44.94667,15.404262,14.938682,21.291584,29.279205,6.527778,6.258613,10.064232,15.070335,-3.677379,-11.528685,-7.974696,-2.753809,-52.19679,-81.850085,-100.454243,-115.972455,-48.590164,-78.970706,-98.17837,-114.533757,-36.3771,-61.043203,-78.056424,-92.469421,-18.314617,-32.606651,-41.391406,-49.146042,130.965283,15.991337,-133.930801,19.758718
54,4.668342,-6.943043,-5.747864,-9.422693,-32.232536,-54.989044,-76.674408,-92.852188,-45.363098,-51.066238,-55.917068,-62.80886,-34.124656,-34.755478,-36.704567,-39.990989,-23.110061,-21.88623,-24.660736,-29.147644,-15.063972,-12.012611,-14.718567,-19.082679,-9.658462,-19.02285,-19.046779,-20.518909,-57.437714,-85.84039,-105.85536,-123.842223,-51.600589,-83.893887,-105.043805,-124.943351,-39.332018,-65.167353,-84.37643,-101.773583,-21.656561,-35.070683,-43.625758,-51.084158,29.047749,50.656071,71.559528,88.02451,36.706776,40.686115,47.837425,56.854134,24.027226,23.423,30.842377,37.321358,12.327324,11.109158,16.535603,22.89703,4.166977,2.81123,5.137093,8.796089,-5.774491,-14.04189,-10.312084,-4.719448,-54.453366,-84.540736,-103.963809,-120.219432,-50.348038,-80.365241,-99.950674,-116.538947,-37.592799,-62.150364,-79.552692,-94.08659,-19.24966,-33.134746,-42.686732,-51.196921,135.560148,6.731283,-139.752142,8.019014
55,6.296608,-7.333071,-7.440559,-11.131204,-30.428901,-51.399925,-72.918068,-88.364204,-41.065452,-45.328697,-48.544395,-53.939003,-30.203109,-29.208206,-29.482658,-31.62442,-19.646827,-17.10347,-18.41542,-22.116874,-12.296127,-7.50254,-8.08873,-11.54171,-11.21863,-20.370442,-20.297497,-22.939988,-57.759051,-85.88897,-106.612747,-124.521126,-51.681403,-83.246694,-104.242822,-123.559994,-39.513509,-64.407298,-83.733781,-101.149559,-22.495947,-35.232402,-44.459297,-52.903789,27.483593,48.342075,68.687782,85.109287,32.764251,35.740036,41.780937,49.579719,20.615764,18.611469,24.796177,29.696811,9.611229,8.250263,12.885177,17.776657,2.487648,0.714912,1.502723,3.408359,-7.434521,-15.8008,-12.129763,-6.283098,-54.708913,-84.662538,-104.966524,-121.808544,-51.338749,-79.977058,-99.64538,-116.172989,-39.525592,-63.48976,-81.082959,-95.660749,-22.441723,-35.869023,-46.248144,-55.541679,141.688757,-2.819085,-147.3607,-5.329487
56,15.079422,-8.52425,-13.127884,-9.954089,-29.595199,-50.672699,-72.100044,-88.035988,-38.279731,-42.336776,-45.127144,-49.741264,-27.01149,-24.585685,-24.171158,-25.264503,-16.717094,-12.748237,-13.198082,-15.988151,-9.573623,-4.066749,-3.811821,-6.327141,-11.533877,-21.580188,-21.553623,-24.242433,-60.438648,-89.489512,-109.643796,-127.090758,-54.652794,-86.467619,-106.698147,-124.987366,-42.217126,-66.923003,-85.657201,-102.626387,-25.082893,-36.622767,-44.925295,-52.92193,27.090414,48.060247,68.263521,85.021259,30.580633,33.456459,39.345056,46.931396,18.336136,15.368019,20.654903,24.72797,7.838659,5.943409,10.034941,14.016701,1.629227,-0.469746,-0.18647,0.851068,-9.12982,-18.352358,-15.006387,-9.012121,-57.308634,-87.090336,-107.919316,-124.84488,-54.378848,-83.02741,-102.512141,-118.475615,-43.0835,-66.967346,-84.161057,-98.132041,-26.720799,-39.23356,-48.560274,-56.941355,156.231594,-13.075385,-161.025169,-17.015626
57,16.238777,-7.685419,-18.472824,-8.325796,-29.10102,-49.875022,-71.24723,-87.042114,-35.412872,-39.012405,-41.510604,-45.943794,-23.280555,-19.194786,-17.6166,-17.589431,-12.797447,-7.522613,-6.581245,-8.071495,-6.075599,0.921914,2.612847,1.147271,-12.151499,-23.091344,-23.572454,-25.997757,-63.287028,-92.751891,-112.577673,-129.934457,-57.522305,-89.49975,-109.574957,-127.657451,-44.715783,-69.362144,-88.019266,-104.959392,-27.158689,-37.673315,-45.327661,-52.934423,27.724462,49.564424,69.929929,87.518657,30.520609,34.114242,40.367609,48.276901,17.509918,13.943207,18.452327,22.185379,7.188314,4.444152,8.124349,11.710636,1.336681,-1.161061,-0.49934,0.541299,-10.604592,-21.418951,-19.070435,-13.374565,-61.970734,-91.764712,-112.480655,-128.941906,-59.375191,-89.471976,-108.512981,-123.575341,-48.440607,-72.805446,-88.791201,-101.21485,-32.515216,-43.956002,-50.480711,-56.131918,171.598136,-21.526953,-180.370228,-26.107571
58,21.58191,-7.43323,-19.068844,-8.710747,-28.746437,-50.244942,-71.320359,-87.771538,-33.930497,-37.817666,-40.576767,-44.953789,-21.133873,-16.071625,-14.092667,-13.674866,-10.818695,-4.492676,-2.88263,-3.879868,-4.095589,2.84436,4.414054,3.36827,-11.544802,-23.725262,-25.13319,-27.087331,-66.76914,-96.785348,-115.59215,-132.27583,-62.053984,-94.827811,-113.973906,-130.752654,-49.71212,-75.047437,-92.498789,-108.519078,-32.528907,-42.9407,-49.042622,-55.276573,28.211191,51.009058,72.159811,90.17609,30.185056,34.342804,40.800138,49.05518,16.600662,11.726326,15.239548,18.328182,6.260176,1.849857,4.903444,8.091545,0.530044,-3.17355,-2.693012,-1.619757,-11.342486,-22.686706,-20.845235,-15.843069,-64.824425,-94.382448,-114.737424,-130.877161,-62.439124,-93.028594,-112.093518,-127.120254,-51.551798,-75.724426,-91.844945,-104.329909,-35.664476,-46.491568,-52.311186,-57.338596,192.354996,-28.451968,-200.264122,-34.310103
59,21.50148,-5.532386,-19.90646,-6.703008,-28.823525,-50.666313,-71.506668,-88.436302,-31.716797,-35.886498,-38.948433,-43.575165,-18.204735,-11.478997,-8.470551,-7.086434,-7.881432,-0.01426,2.928085,3.119705,-1.258049,6.592277,8.795265,8.428688,-11.394347,-24.795891,-27.386253,-28.622916,-69.832066,-99.900564,-117.674219,-134.235609,-65.443106,-98.532891,-117.601681,-134.810002,-53.145702,-78.817868,-95.86972,-111.998705,-36.067268,-46.053729,-51.220275,-56.4756,28.419165,52.417929,74.256918,92.554745,29.872141,34.574146,41.27199,49.791836,15.154129,9.668369,11.899578,14.059147,4.561804,-1.008041,1.199255,3.98267,-1.291454,-5.767685,-5.382614,-4.185396,-10.854373,-23.033533,-22.353784,-18.472061,-66.583971,-96.255924,-116.259808,-132.357089,-64.33157,-95.614583,-114.994891,-130.175923,-53.605622,-78.073386,-94.220773,-106.714697,-38.01732,-48.478547,-52.886273,-56.530393,213.265023,-32.488327,-220.762035,-39.517084
60,23.065933,-4.360753,-20.620994,-3.444357,-29.129013,-51.722145,-72.809349,-90.218514,-29.687943,-33.681931,-36.896851,-41.930649,-14.959671,-6.761902,-2.822388,-0.358154,-4.360199,5.049499,9.268089,11.055244,2.319374,11.007065,13.79805,14.383552,-10.69293,-25.043114,-28.951341,-30.133188,-72.050276,-102.636805,-119.643723,-136.342563,-67.630471,-101.196729,-120.23105,-137.847516,-54.694909,-80.665619,-97.321817,-113.408102,-36.807945,-45.79405,-49.530666,-53.649017,28.986963,54.009332,76.494432,95.255584,30.03198,34.864986,41.669351,50.275749,13.767414,7.403434,8.18851,9.149253,2.597425,-4.614121,-3.629317,-1.656716,-3.709042,-9.866524,-10.360749,-9.552378,-10.595003,-23.873512,-24.37056,-21.260809,-69.600974,-99.655439,-119.025141,-134.8614,-66.241609,-98.707816,-118.434016,-133.692739,-54.480163,-79.519316,-95.621649,-108.08915,-38.032184,-47.954873,-51.153217,-54.018189,235.815291,-34.991615,-241.898694,-41.103976
61,16.438225,-0.80872,-16.621663,-2.252461,-28.048233,-49.471985,-70.690453,-87.658287,-25.392494,-27.732605,-29.699662,-33.91523,-10.329071,-0.309059,5.57817,9.451423,0.155433,10.838356,16.706955,19.780586,6.18782,16.294189,20.74974,22.117675,-11.374142,-25.774505,-30.775195,-33.371065,-71.695026,-101.902173,-119.37824,-136.570595,-66.642088,-99.688871,-118.736656,-136.758709,-53.485651,-78.724285,-94.893211,-110.615588,-35.732049,-44.000954,-47.786316,-52.239608,28.533051,53.583241,76.15511,94.721283,27.874203,31.967148,38.249268,46.425877,10.911221,3.186116,2.440899,1.996926,-0.29108,-9.014545,-9.515281,-8.795791,-6.374874,-13.92794,-16.132393,-16.479778,-10.213203,-23.739285,-24.909165,-22.607431,-69.461315,-99.592367,-118.683884,-134.505501,-64.908007,-97.198773,-117.45062,-133.077856,-52.281387,-77.405642,-94.180425,-107.420612,-35.507938,-45.235616,-49.033816,-52.906413,252.148012,-33.839161,-258.625861,-41.395263
62,16.904365,0.977657,-12.150901,-0.258777,-26.827423,-47.596893,-68.462723,-85.789947,-21.112747,-22.763099,-23.794281,-26.770294,-6.079284,5.036865,12.366028,17.638321,3.796601,15.25779,22.262696,26.381813,9.246804,19.050934,24.184502,26.125626,-11.276897,-26.013831,-31.771513,-35.557493,-70.715158,-101.171165,-118.682859,-135.638575,-65.772834,-97.90408,-116.119606,-133.2436,-52.930662,-76.942847,-91.781447,-106.209813,-35.925087,-43.454191,-46.922903,-51.372891,26.758678,50.90974,73.175537,91.251743,23.413295,26.033123,31.245082,38.474464,6.734561,-2.731202,-5.235146,-7.604073,-3.758011,-13.640282,-16.079396,-17.233246,-8.77184,-17.389561,-21.988598,-24.154816,-9.419433,-22.298025,-23.735716,-22.18851,-66.037706,-95.968032,-115.112713,-131.344541,-60.503758,-91.21702,-111.872425,-127.891825,-47.391891,-71.940712,-89.408292,-103.586202,-30.940446,-40.486151,-45.849422,-51.697334,269.15768,-31.279412,-270.671459,-40.071948
63,11.642006,3.649579,-10.988011,3.293347,-25.708786,-44.807762,-65.243591,-82.200668,-15.338425,-15.223892,-15.424805,-17.98043,-0.473053,12.497452,21.489578,28.474686,8.806549,21.516426,30.028153,35.808678,13.085495,24.078461,30.492188,33.377815,-11.729553,-26.106487,-32.564987,-37.258747,-68.778486,-98.864701,-116.436348,-133.457281,-62.649066,-93.57295,-111.796024,-129.419842,-49.340796,-71.997177,-86.626942,-100.914959,-32.395507,-38.771713,-42.424237,-47.236009,25.365532,48.08701,69.001717,87.090065,18.835087,19.973087,24.146965,30.352982,2.057842,-8.579738,-12.806133,-16.643692,-7.740932,-17.870579,-22.605514,-25.786983,-11.585575,-19.876407,-26.237079,-30.205994,-8.518834,-21.012307,-22.96554,-21.891065,-62.616239,-92.876343,-112.011521,-128.304003,-56.245209,-86.48859,-106.691516,-121.792576,-42.804145,-66.537668,-82.580765,-95.459561,-26.853556,-34.98167,-38.569209,-43.246185,280.974352,-26.462117,-281.484804,-35.610885
64,11.226975,4.960392,-8.952003,5.224789,-24.237511,-42.628052,-62.419419,-79.380158,-11.017411,-9.404961,-8.847473,-10.523896,3.960868,17.686752,27.365707,35.359588,12.732811,26.771461,36.161934,43.049881,16.403961,27.586555,34.504371,38.617263,-11.181042,-25.129676,-32.0403,-37.187654,-66.447618,-96.94903,-114.933677,-131.76017,-59.980627,-90.493815,-108.201366,-125.205463,-46.749835,-68.861546,-82.948124,-96.613453,-30.187041,-35.735501,-38.685528,-42.975446,24.611034,45.87569,65.336918,83.704696,14.71067,14.114078,17.262634,22.287689,-1.847615,-14.233784,-19.681286,-24.557946,-10.912503,-22.467007,-29.264351,-34.303837,-13.791104,-23.025456,-31.120743,-36.706627,-7.994876,-19.751049,-22.167095,-21.610422,-59.757029,-89.951949,-109.118536,-125.320532,-52.761615,-82.144227,-101.859194,-116.547533,-39.060007,-61.887887,-77.546915,-90.429039,-23.458056,-30.534887,-33.564239,-38.314229,292.171927,-21.079726,-290.466207,-29.964097
65,8.539604,6.984108,-6.301014,7.935557,-23.239472,-40.75779,-59.557388,-77.020706,-8.107544,-5.283188,-4.052925,-4.695328,7.086296,21.86499,31.799217,40.418266,15.814773,31.565918,41.724335,49.49572,19.525726,31.570152,39.090637,44.516716,-10.704311,-25.027689,-32.43517,-37.402478,-65.283567,-95.79368,-113.962516,-130.523933,-58.630874,-88.935846,-106.673649,-123.382492,-45.441085,-67.378394,-81.19093,-94.328627,-28.888937,-34.411177,-37.287876,-41.418676,23.895149,43.703121,61.899833,80.722973,11.357197,9.181057,11.264797,15.184948,-5.120259,-18.895638,-25.120354,-30.492417,-13.867047,-27.045456,-35.265633,-41.245892,-16.323304,-26.683823,-35.254875,-41.091145,-8.445999,-20.611058,-23.956912,-23.863527,-58.88192,-89.158943,-108.506076,-124.752643,-51.426163,-80.547749,-100.04626,-114.676563,-37.372886,-59.815462,-75.298761,-88.310635,-21.359794,-28.152895,-31.14172,-35.915287,300.632229,-14.056162,-296.846523,-21.989084
66,5.36634,7.651339,-2.728192,8.011604,-22.641082,-39.230392,-57.030349,-74.831405,-5.95935,-2.377761,-0.881813,-1.009391,9.540047,25.057641,34.85479,43.690659,18.457238,35.736672,46.56308,55.257866,22.451134,36.026917,44.376732,51.271157,-10.53162,-25.619672,-34.035821,-38.948183,-64.660363,-95.397594,-114.021494,-130.565979,-58.159119,-88.552277,-106.923642,-123.733043,-44.998007,-67.354102,-81.72814,-95.094462,-28.227645,-33.839807,-36.771691,-40.608461,22.976292,41.491185,58.805226,78.288449,8.343499,5.058987,6.287636,9.358475,-8.037105,-22.67213,-29.601574,-35.597339,-16.629467,-30.902607,-39.951896,-46.454601,-19.032657,-30.927543,-39.518131,-45.32286,-8.86245,-22.087079,-26.650916,-26.632002,-59.295438,-89.841422,-109.298804,-125.621089,-51.972506,-80.967468,-100.297705,-115.062158,-37.821596,-60.096557,-75.330075,-88.292752,-21.224734,-27.835172,-30.684428,-35.108703,305.796346,-6.654962,-299.776938,-14.227619
67,2.266022,6.685254,-0.084663,6.018047,-22.148529,-37.757561,-54.792183,-73.438064,-5.119011,-0.683441,1.13855,1.205475,10.755936,26.766655,36.34504,45.263489,20.212258,38.664345,50.07811,59.79007,24.798432,40.235962,49.702515,58.414055,-10.975228,-26.969771,-36.243762,-40.984125,-64.984819,-95.913272,-115.0857,-131.808055,-58.51671,-89.395362,-108.852003,-126.408318,-45.11303,-68.493421,-84.049017,-98.247036,-27.610258,-33.374276,-36.410452,-40.023937,22.481518,39.938793,56.742908,76.828663,6.281502,2.096878,2.454334,4.744972,-10.229954,-25.512898,-32.910141,-39.008091,-19.087841,-34.446716,-43.824818,-50.349083,-21.971958,-35.493347,-44.072033,-49.84774,-9.518771,-23.903245,-29.829012,-30.178229,-60.415924,-91.288086,-110.796634,-127.194944,-53.382404,-82.338123,-101.601874,-116.823857,-39.274621,-61.437467,-76.814277,-90.29349,-22.173968,-29.042398,-32.430267,-37.316879,307.954216,-0.292799,-299.969753,-8.532663
68,0.351242,5.239775,1.43375,4.221795,-22.007698,-37.014976,-53.620262,-73.025345,-5.355926,-0.357078,1.941719,2.498932,10.816613,26.989563,36.413452,45.289147,20.808289,39.886666,51.732079,62.066094,26.124893,43.066429,53.657753,63.845192,-11.496691,-28.655803,-38.836618,-44.001299,-66.292371,-97.298926,-117.066721,-134.118455,-60.132162,-91.253277,-111.705569,-129.802787,-46.612187,-70.658847,-87.309339,-102.216395,-28.477382,-34.709443,-38.207567,-41.95084,21.852219,38.809639,55.596691,76.016407,5.103562,0.416359,0.20359,1.923969,-11.333668,-26.839977,-34.062893,-39.977085,-20.348545,-36.604179,-45.283859,-51.132797,-23.729839,-38.996715,-47.230385,-52.592892,-10.749129,-26.932745,-34.413122,-35.248179,-62.843338,-93.872612,-113.66239,-130.310443,-56.152305,-85.217686,-105.007323,-121.132541,-42.172407,-64.972629,-81.455487,-96.057916,-24.606193,-32.647813,-37.90578,-44.211516,308.111068,4.632902,-298.730393,-4.624942
69,-1.020218,3.598271,1.869232,2.31816,-22.176864,-36.61441,-53.010589,-73.216484,-6.097435,-0.666618,1.782235,2.404839,10.037087,26.581536,35.855805,44.645165,20.346611,39.248841,51.09343,61.759667,26.074425,44.250733,55.627785,66.530411,-12.474108,-30.938611,-41.909535,-47.599194,-68.142586,-99.266986,-119.453986,-136.830237,-62.194527,-93.58078,-114.949053,-133.461795,-48.469856,-72.98275,-90.482088,-105.912349,-29.729631,-36.358359,-40.545944,-44.812855,21.42342,38.179734,55.259812,75.807106,4.670265,0.104691,-0.24575,1.387047,-11.718487,-26.910919,-33.90216,-39.636646,-20.959121,-37.222927,-45.046371,-50.037655,-24.787674,-41.008323,-48.627823,-53.495258,-11.906677,-29.991662,-38.659302,-39.367888,-65.615086,-97.048559,-116.934075,-133.705549,-59.290177,-89.028712,-109.19962,-125.783625,-45.28706,-68.751272,-85.390446,-100.130207,-26.98656,-35.850214,-42.15361,-49.06797,306.979694,8.009134,-296.972317,-2.528821
70,-1.806564,1.615527,2.217167,-0.418365,-22.220352,-36.556686,-52.757744,-73.122253,-6.34243,-1.01461,1.333374,1.752159,9.771927,26.180603,35.354713,44.082619,20.168472,38.712685,50.376114,61.125481,25.914139,44.792885,56.374832,67.314652,-13.506199,-32.818943,-44.212727,-50.145812,-69.526148,-100.768349,-121.166424,-138.758024,-63.816347,-95.368646,-117.205333,-136.053152,-50.151808,-74.963352,-93.042502,-108.991133,-31.251952,-37.937595,-42.232565,-46.48316,21.193829,37.996056,55.213841,75.452351,4.324219,-0.161041,-0.467708,1.37376,-11.953296,-27.077831,-34.022106,-39.722385,-21.181389,-37.180263,-44.37458,-48.832786,-25.119049,-41.512928,-48.657211,-53.172443,-12.398625,-31.378095,-40.614296,-41.402262,-67.08934,-98.844502,-118.662068,-135.46764,-61.143597,-91.158712,-111.435071,-128.305179,-47.186232,-70.908307,-87.56716,-102.385468,-28.673785,-37.787695,-44.23928,-51.271114,305.085051,9.550541,-294.843229,-3.021306
71,-1.244064,0.327913,1.495915,-0.874997,-22.42051,-37.041504,-53.161309,-73.673058,-7.037773,-1.692742,0.60878,0.853409,9.092102,25.403274,34.546577,43.295219,19.567405,37.784546,49.307144,60.096794,25.371002,44.437637,55.995735,66.904953,-14.136837,-33.767534,-45.18642,-51.033035,-70.652846,-101.900098,-122.262586,-139.855767,-64.903833,-96.506236,-118.419266,-137.391302,-51.143538,-76.076205,-94.244504,-110.238725,-32.031619,-38.839774,-43.197168,-47.492958,21.233482,38.228199,55.554313,75.533683,4.345161,-0.171147,-0.51392,1.308071,-11.931176,-27.035122,-33.894265,-39.434555,-21.186985,-37.189076,-44.141934,-48.324395,-25.167813,-41.539833,-48.530697,-52.819359,-12.817305,-32.109115,-41.58513,-42.596676,-67.866093,-99.785992,-119.563124,-136.489437,-62.007584,-92.114016,-112.322826,-129.177669,-48.066644,-71.851563,-88.489131,-103.398101,-29.5015,-38.839923,-45.385528,-52.669631,303.739592,9.874709,-293.448709,-3.900048
72,-0.832375,0.397302,1.101162,0.047467,-22.410942,-37.47821,-53.588653,-73.682327,-7.279312,-2.12384,0.066307,0.258866,8.893822,25.025963,34.012962,42.645081,19.253815,37.469399,48.779869,59.41198,24.991928,44.163712,55.569992,66.337601,-14.266198,-33.91755,-45.449384,-51.399703,-71.172809,-102.464626,-122.687306,-140.225485,-65.39029,-97.163261,-119.012304,-137.90425,-51.629118,-76.564694,-94.625158,-110.591511,-32.556639,-39.410558,-43.761548,-48.046835,21.252136,38.517757,55.752708,75.337337,4.268646,-0.206543,-0.527859,1.229049,-12.029114,-26.956891,-33.701626,-39.23029,-21.310696,-37.306847,-44.167534,-48.232842,-25.287415,-41.761048,-48.655827,-52.71848,-13.098596,-32.662676,-42.191981,-43.035609,-68.538103,-100.597936,-120.400589,-137.385317,-62.680169,-92.904538,-113.21922,-129.943923,-48.688421,-72.723411,-89.570843,-104.497573,-29.9515,-39.45889,-46.099578,-53.393253,302.797983,10.359904,-292.456781,-3.764688
73,-0.724296,0.723499,0.436191,0.748051,-22.344384,-37.616524,-53.613259,-73.464959,-7.271187,-2.12439,0.06459,0.314231,8.935112,24.987304,33.855903,42.419128,19.217422,37.635246,48.859954,59.474556,24.875587,44.194953,55.523529,66.208282,-14.524463,-34.188851,-45.763163,-51.720003,-71.444752,-102.733611,-122.926292,-140.44841,-65.558443,-97.349303,-119.162741,-138.091385,-51.756553,-76.5951,-94.446854,-110.337007,-32.725601,-39.484122,-43.828417,-48.132273,21.375092,38.845253,56.071083,75.463829,4.52734,0.062359,-0.251518,1.507988,-11.85133,-26.690964,-33.423672,-38.989757,-21.22903,-37.21122,-44.001297,-47.97028,-25.224186,-41.821529,-48.690307,-52.606064,-13.017456,-32.733035,-42.295482,-43.025353,-69.050231,-101.227562,-121.015209,-138.080183,-63.153264,-93.370087,-113.662329,-130.275394,-49.089614,-73.185532,-90.060432,-104.950401,-30.162069,-39.4462,-45.95998,-53.15347,301.959006,11.167575,-292.135271,-2.932465
74,-0.524987,0.958465,0.180828,1.196538,-22.162971,-37.489769,-53.526054,-73.246879,-6.965492,-1.916748,0.29821,0.620362,9.262139,25.217491,34.076111,42.645859,19.463723,38.082573,49.326805,59.934288,25.019051,44.414131,55.67363,66.264427,-14.760856,-34.338175,-45.880575,-51.867154,-71.50875,-102.730789,-122.905013,-140.440827,-65.546315,-97.306312,-119.086046,-138.001291,-51.732748,-76.4911,-94.232426,-110.061211,-32.764145,-39.381381,-43.565249,-47.749612,21.49839,39.1638,56.485646,75.904232,4.906254,0.484875,0.132386,1.825482,-11.493816,-26.325039,-33.086426,-38.757133,-20.87669,-36.966888,-43.797798,-47.802738,-24.835224,-41.445705,-48.180633,-51.826034,-12.944035,-32.684203,-42.214607,-43.047194,-69.399911,-101.680489,-121.488737,-138.629113,-63.417649,-93.629069,-113.894554,-130.511991,-49.188662,-73.277257,-90.230116,-105.193581,-30.014708,-39.23704,-45.765552,-53.000564,301.296867,12.181661,-292.091595,-1.680306
75,-0.052482,0.791467,0.122509,1.210863,-22.180161,-37.581551,-53.627472,-73.135346,-6.87497,-1.784478,0.463417,0.791153,9.284706,25.296684,34.15979,42.725395,19.403206,38.102852,49.375648,59.990867,24.897789,44.29422,55.477935,65.958664,-14.772316,-34.213779,-45.811852,-52.027328,-71.403119,-102.606732,-122.759183,-140.278312,-65.33461,-97.054289,-118.718625,-137.597368,-51.445108,-76.121962,-93.782746,-109.598404,-32.435626,-38.9267,-42.97447,-47.026829,21.490666,39.205685,56.595394,76.004597,5.172879,0.839012,0.493481,2.195183,-11.284813,-26.069172,-32.748733,-38.36111,-20.716942,-36.85477,-43.694252,-47.717033,-24.695354,-41.313869,-47.98748,-51.514034,-12.925966,-32.606767,-42.251651,-43.329856,-69.7442,-102.011606,-121.778259,-138.958971,-63.685787,-93.830461,-113.933474,-130.44144,-49.363872,-73.320172,-90.243268,-105.216767,-30.073092,-39.148161,-45.6169,-52.790779,301.094313,12.960365,-292.119158,-0.482206
76,-0.070061,0.6508,0.10072,0.819941,-22.160339,-37.549141,-53.616875,-73.019966,-6.671013,-1.603432,0.64753,0.971901,9.4468,25.442688,34.272537,42.813744,19.526093,38.226562,49.470062,60.053833,25.022644,44.328117,55.429161,65.835503,-14.7737,-34.191265,-45.854065,-52.186187,-71.280192,-102.446644,-122.628013,-140.183488,-65.110172,-96.809943,-118.467492,-137.382032,-51.180557,-75.845258,-93.515238,-109.385087,-32.180579,-38.620795,-42.570907,-46.556637,21.480938,39.156944,56.551746,75.878299,5.33781,1.137073,0.851726,2.607834,-11.087368,-25.848164,-32.493302,-38.08841,-20.484364,-36.591591,-43.386212,-47.346875,-24.420548,-41.02993,-47.642647,-51.067532,-12.88071,-32.378396,-42.14142,-43.507772,-69.926617,-102.106517,-121.786824,-138.996793,-63.79432,-93.864165,-113.884247,-130.427121,-49.355246,-73.126326,-89.988153,-105.02063,-29.963085,-38.87165,-45.269165,-52.431509,300.862129,13.555203,-292.180561,0.281773
77,-0.003204,0.262884,0.111065,0.380407,-22.196251,-37.529869,-53.579705,-73.019165,-6.620774,-1.479653,0.791771,1.100303,9.46495,25.519226,34.302795,42.781128,19.564155,38.21553,49.421745,59.962829,25.104103,44.337684,55.368713,65.682106,-14.823051,-34.313395,-45.930901,-52.19046,-71.212304,-102.399269,-122.582657,-140.189317,-64.92844,-96.631732,-118.25333,-137.219394,-50.914048,-75.643464,-93.344171,-109.297673,-31.823563,-38.296476,-42.196397,-46.173346,21.42398,38.989025,56.360241,75.651901,5.483093,1.43534,1.241867,3.095237,-10.907479,-25.627625,-32.247963,-37.826386,-20.280636,-36.318203,-43.01587,-46.86747,-24.210091,-40.779488,-47.371857,-50.747006,-12.838281,-32.152105,-41.993614,-43.540944,-70.013068,-102.09379,-121.659433,-138.863431,-63.829332,-93.819611,-113.729951,-130.341059,-49.285597,-72.902894,-89.625789,-104.710729,-29.810752,-38.616262,-44.952762,-52.172003,300.670378,13.703438,-292.258043,0.547531
78,0.180908,0.031826,0.225597,0.204567,-22.240379,-37.600983,-53.711243,-73.269905,-6.75277,-1.635498,0.568245,0.778244,9.381431,25.396087,34.12722,42.540596,19.521149,38.092438,49.238663,59.68499,25.115913,44.238579,55.176132,65.37133,-14.777818,-34.430017,-46.023416,-52.204712,-71.241376,-102.509704,-122.708739,-140.334431,-64.898862,-96.654777,-118.263271,-137.212015,-50.812858,-75.626094,-93.394102,-109.400407,-31.627838,-38.208271,-42.099134,-46.060608,21.363064,38.766712,56.1255,75.40892,5.502708,1.601234,1.42654,3.276398,-10.805614,-25.491188,-32.129688,-37.693394,-20.111961,-36.087135,-42.756168,-46.515575,-24.020576,-40.586746,-47.14016,-50.419304,-12.85194,-32.035385,-41.864056,-43.556777,-70.09209,-102.075154,-121.585851,-138.781766,-63.882221,-93.777362,-113.600578,-130.194427,-49.30164,-72.816802,-89.504289,-104.581788,-29.785052,-38.56593,-44.909488,-52.122047,300.639908,13.609497,-292.243824,0.626331
79,0.265549,-0.216028,0.330608,0.078954,-22.321518,-37.774338,-53.869652,-73.481598,-6.951851,-1.813546,0.331169,0.459228,9.205741,25.177001,33.821044,42.146507,19.364662,37.808418,48.86103,59.232994,24.998222,44.037483,54.897239,64.995414,-14.765783,-34.558124,-46.165268,-52.243479,-71.363932,-102.688372,-122.828732,-140.451367,-64.966095,-96.740721,-118.318377,-137.32395,-50.802459,-75.612527,-93.353025,-109.405458,-31.504294,-38.185102,-42.15729,-46.227068,21.318604,38.588562,55.936741,75.315491,5.405995,1.52678,1.358208,3.274647,-10.842579,-25.526104,-32.164604,-37.645248,-20.080799,-35.999027,-42.643077,-46.300151,-23.951385,-40.470749,-46.952064,-50.119754,-12.860888,-31.872376,-41.686159,-43.582552,-70.177898,-102.000905,-121.450099,-138.630521,-63.9252,-93.587739,-113.288578,-129.826141,-49.302498,-72.62495,-89.250291,-104.30409,-29.725839,-38.380894,-44.685371,-51.905513,300.661875,13.270098,-292.156798,0.581914
80,0.207023,-0.335811,0.206921,0.030492,-22.340309,-37.858223,-53.909363,-73.590111,-7.234405,-2.1511,-0.037102,0.057724,9.010346,24.902619,33.5075,41.789589,19.249123,37.553536,48.564995,58.925057,24.956108,43.917984,54.735375,64.79171,-14.805038,-34.724955,-46.362234,-52.330911,-71.533307,-102.898274,-122.964003,-140.588675,-65.143961,-96.944546,-118.457167,-137.464518,-50.972075,-75.767298,-93.402771,-109.428281,-31.626177,-38.382006,-42.351816,-46.459071,21.354492,38.64846,56.019768,75.497692,5.517517,1.72308,1.544334,3.459892,-10.693428,-25.331726,-31.991844,-37.451294,-19.893757,-35.669083,-42.283287,-45.837261,-23.765556,-40.191422,-46.63084,-49.701004,-12.76008,-31.774841,-41.508676,-43.372841,-70.143713,-101.908427,-121.326956,-138.493484,-63.907236,-93.429429,-113.046257,-129.541786,-49.292649,-72.538344,-89.117688,-104.11033,-29.712908,-38.252743,-44.498297,-51.694765,300.587849,12.823806,-292.230926,0.501925
81,0.142502,-0.443053,0.161499,0.140557,-22.352875,-37.942039,-54.016319,-73.746803,-7.440834,-2.428619,-0.407982,-0.408875,8.870407,24.649132,33.215836,41.449196,19.140175,37.34198,48.301323,58.626343,24.865173,43.839684,54.632423,64.634216,-14.86241,-34.879485,-46.495831,-52.404166,-71.705455,-103.087335,-123.04334,-140.599198,-65.342674,-97.115743,-118.543025,-137.484025,-51.164718,-75.851452,-93.371915,-109.335279,-31.763992,-38.530645,-42.532269,-46.695359,21.442005,38.741638,56.090664,75.632744,5.776245,2.025272,1.829979,3.763824,-10.469444,-25.044159,-31.67981,-37.053841,-19.678654,-35.422039,-42.063869,-45.596466,-23.571625,-39.876297,-46.269424,-49.297966,-12.67673,-31.733772,-41.454058,-43.359306,-70.177571,-101.943552,-121.361253,-138.507459,-63.938094,-93.41829,-112.954583,-129.394697,-49.324624,-72.508544,-89.065818,-104.029264,-29.720665,-38.155135,-44.364695,-51.579613,300.448849,12.292552,-292.350929,0.554281
82,0.041496,-0.42567,0.151691,0.259512,-22.418266,-38.096008,-54.162689,-73.893059,-7.647857,-2.71138,-0.795135,-0.91317,8.717011,24.40931,32.964936,41.177605,19.012596,37.128456,48.049095,58.364296,24.755379,43.738243,54.543068,64.560036,-14.810521,-34.916202,-46.589475,-52.588182,-71.931968,-103.310428,-123.190201,-140.672823,-65.623731,-97.329561,-118.672047,-137.519013,-51.437914,-76.028552,-93.490395,-109.412202,-31.970603,-38.747192,-42.881684,-47.197075,21.578888,38.882596,56.214901,75.771744,6.012703,2.308171,2.097657,4.025769,-10.200874,-24.691875,-31.328659,-36.656662,-19.371883,-35.104362,-41.78619,-45.324073,-23.255767,-39.575191,-45.958683,-48.972793,-12.678453,-31.745127,-41.471379,-43.531157,-70.25621,-102.040388,-121.476862,-138.645199,-63.985085,-93.448936,-112.935576,-129.327068,-49.380255,-72.480855,-89.033695,-103.954768,-29.762068,-38.086308,-44.263776,-51.475038,300.227268,11.828958,-292.462315,0.775869
83,0.089196,-0.333607,0.02401,0.242883,-22.477524,-38.299782,-54.326317,-73.899216,-7.880311,-3.067017,-1.237427,-1.457657,8.46746,24.037971,32.542282,40.703567,18.745307,36.724868,47.541069,57.779823,24.499603,43.498374,54.314758,64.349258,-14.827021,-34.910793,-46.618652,-52.705755,-72.121739,-103.49356,-123.29496,-140.70778,-65.864304,-97.536554,-118.805057,-137.630571,-51.748197,-76.234119,-93.571381,-109.429837,-32.340432,-39.127407,-43.331838,-47.746054,21.72773,39.096188,56.438828,75.974247,6.357124,2.6964,2.561726,4.588898,-9.85952,-24.301357,-30.852424,-36.079525,-19.016888,-34.733562,-41.391838,-44.921402,-22.912502,-39.219555,-45.600712,-48.635124,-12.719992,-31.734877,-41.485397,-43.681433,-70.405566,-102.205528,-121.632041,-138.784656,-64.111723,-93.572209,-112.9959,-129.326414,-49.472374,-72.502283,-88.991779,-103.828007,-29.812877,-38.03629,-44.192708,-51.427892,300.098134,11.471133,-292.656635,0.994534
84,-0.085076,-0.167306,-0.001076,0.194001,-22.540993,-38.405571,-54.342796,-73.773376,-8.165977,-3.412559,-1.667908,-1.998184,8.185639,23.702683,32.149338,40.227654,18.488846,36.420799,47.183991,57.375664,24.273422,43.327492,54.144653,64.185517,-14.925365,-34.996657,-46.695094,-52.898947,-72.337008,-103.736117,-123.520053,-140.915576,-66.109787,-97.729185,-118.954907,-137.767232,-52.03848,-76.479423,-93.810145,-109.693024,-32.674082,-39.558845,-43.865498,-48.359656,21.877625,39.246506,56.591767,76.048096,6.766125,3.173562,3.089379,5.192574,-9.442703,-23.869537,-30.395015,-35.574108,-18.600769,-34.375396,-41.038135,-44.573478,-22.522842,-38.827823,-45.189502,-48.194377,-12.833446,-31.865689,-41.652481,-44.025049,-70.581974,-102.504467,-121.956996,-139.142697,-64.284247,-93.844923,-113.223592,-129.532301,-49.644095,-72.648538,-89.090172,-103.878537,-29.980035,-38.173851,-44.357149,-51.608043,299.83493,11.289677,-292.835839,1.174385
85,0.120094,-0.075533,0.025544,0.070544,-22.702949,-38.681053,-54.633682,-74.121826,-8.673385,-4.043106,-2.400878,-2.874778,7.685143,23.110978,31.484986,39.464859,18.010506,35.822869,46.443078,56.495156,23.799408,42.876984,53.747979,63.854187,-15.025308,-35.095044,-46.776759,-53.0316,-72.569307,-104.031172,-123.883201,-141.30156,-66.379285,-98.053146,-119.300685,-138.095719,-52.337519,-76.752391,-94.045334,-109.870532,-33.042016,-40.045044,-44.480884,-49.09976,22.077003,39.50307,56.887172,76.320144,7.197361,3.546203,3.530925,5.780593,-9.04152,-23.411911,-29.877102,-34.939465,-18.24923,-34.037041,-40.593235,-44.057843,-22.229348,-38.410492,-44.608166,-47.483712,-13.006434,-31.962773,-41.782546,-44.254192,-70.802294,-102.810873,-122.244327,-139.460163,-64.496089,-94.116532,-113.415839,-129.752275,-49.828168,-72.727808,-89.059606,-103.826143,-30.112193,-38.256418,-44.481755,-51.826281,299.792295,11.203152,-292.973024,1.233937
86,-0.164909,-0.094651,-0.006947,0.083925,-22.837852,-38.920578,-54.897056,-74.428665,-9.057335,-4.481804,-2.960609,-3.607384,7.290093,22.656418,30.900513,38.732025,17.593071,35.35817,45.931,55.935677,23.330452,42.451286,53.357872,63.493332,-15.130395,-35.206362,-46.845295,-53.167809,-72.711981,-104.315799,-124.231029,-141.661725,-66.544072,-98.320896,-119.622892,-138.430931,-52.536899,-76.995175,-94.314665,-110.21376,-33.316009,-40.411149,-44.876544,-49.550667,22.330845,39.938175,57.456013,76.904697,7.72427,4.104504,4.191341,6.552509,-8.498371,-22.788025,-29.216469,-34.229279,-17.762546,-33.451046,-39.852768,-43.216495,-21.850788,-37.937038,-43.998264,-46.757561,-13.162977,-32.078339,-41.930722,-44.482638,-71.042219,-103.110678,-122.507538,-139.761245,-64.824663,-94.480959,-113.728729,-130.115831,-50.208377,-73.086368,-89.296579,-103.9882,-30.511756,-38.651331,-44.93265,-52.332956,299.488649,11.095571,-293.118708,1.304932
87,-0.270927,0.15813,0.145065,0.090717,-22.933503,-39.118149,-55.109848,-74.560593,-9.413567,-5.047211,-3.639382,-4.394532,6.881309,22.046402,30.158523,37.884063,17.141876,34.822883,45.292373,55.210304,22.827232,41.991897,52.918602,63.09391,-15.394353,-35.391699,-46.982325,-53.390005,-72.880349,-104.576156,-124.541534,-141.996054,-66.698373,-98.558783,-119.913254,-138.797099,-52.748678,-77.115872,-94.337432,-110.186824,-33.685547,-40.850886,-45.294359,-49.959356,22.624936,40.423085,58.051667,77.435532,8.374112,4.661682,4.937199,7.540604,-7.84647,-22.098152,-28.458217,-33.375755,-17.177627,-32.773258,-38.967327,-42.187603,-21.395404,-37.281383,-43.070812,-45.590744,-13.395906,-32.302344,-42.235151,-44.951657,-71.228421,-103.377031,-122.781722,-140.095561,-65.05706,-94.798763,-114.012891,-130.46945,-50.467401,-73.317425,-89.366246,-103.929358,-30.810133,-38.994187,-45.365193,-52.782782,299.092198,11.24676,-293.099167,1.388708
88,-0.487839,0.406658,0.552338,0.257574,-23.075203,-39.393219,-55.380867,-74.843079,-9.906487,-5.794922,-4.519478,-5.382317,6.399559,21.323524,29.262543,36.846657,16.710113,34.172447,44.554115,54.418785,22.422867,41.517036,52.400917,62.557434,-15.626387,-35.727134,-47.39706,-54.002181,-73.138337,-104.912178,-124.858352,-142.302275,-66.94235,-98.83201,-120.137261,-139.003673,-52.984015,-77.291694,-94.450775,-110.291084,-33.972465,-41.300343,-45.784566,-50.521483,22.984646,40.969597,58.698795,78.043682,9.044151,5.25444,5.649364,8.443142,-7.167915,-21.273731,-27.635777,-32.449905,-16.599335,-31.952179,-37.930218,-40.902283,-20.979343,-36.551479,-41.929871,-44.033295,-13.730044,-32.65615,-42.640234,-45.574089,-71.47236,-103.687711,-123.092858,-140.485862,-65.324526,-95.11939,-114.265939,-130.842102,-50.781446,-73.592869,-89.42318,-103.793372,-31.160061,-39.539962,-46.01353,-53.376322,298.440851,11.655403,-292.710337,1.648267
89,-1.003693,0.739053,1.088493,0.683879,-23.063827,-39.54467,-55.573059,-75.110641,-10.248756,-6.595688,-5.559952,-6.535949,6.071228,20.522713,28.164917,35.515915,16.458435,33.390152,43.490845,53.096741,22.24395,41.09214,51.812416,61.762894,-15.811446,-36.286925,-48.347232,-55.247587,-73.385171,-105.20096,-125.033747,-142.45586,-67.200065,-99.104743,-120.281688,-139.068047,-53.288673,-77.46654,-94.498316,-110.292812,-34.371255,-41.849458,-46.406107,-51.307948,23.425576,41.554013,59.404667,78.712819,9.932133,6.034024,6.570832,9.5075,-6.17585,-20.012363,-26.330143,-31.01033,-15.696384,-30.636749,-36.311554,-38.939758,-20.266456,-35.582164,-40.634216,-42.396904,-14.118589,-33.125909,-43.312097,-46.580491,-71.747668,-103.887016,-123.230919,-140.715116,-65.603569,-95.430006,-114.507728,-131.193406,-51.120307,-73.971775,-89.528631,-103.595035,-31.531643,-40.216326,-46.864048,-54.22889,297.234941,12.403435,-291.824061,2.341125
90,-2.142242,1.63654,2.049122,1.127797,-22.862045,-39.305351,-55.228089,-74.732918,-10.157845,-7.21138,-6.557648,-7.69336,6.019066,19.693428,26.776451,33.672569,16.413002,32.626213,42.259323,51.471748,22.304535,40.762985,51.119041,60.71466,-16.280885,-37.441868,-50.104654,-57.380755,-73.665672,-105.433573,-125.018957,-142.289541,-67.622024,-99.350849,-120.299633,-138.976446,-53.996628,-78.003577,-94.966514,-110.903962,-35.382424,-43.203996,-47.875137,-53.033489,24.083096,42.445427,60.431236,79.828949,10.812115,6.91325,7.63353,10.73124,-5.213241,-18.514183,-24.599258,-29.019974,-14.887356,-29.166424,-34.454727,-36.592678,-19.797775,-34.483177,-38.605316,-39.500438,-14.735741,-33.947289,-44.171286,-47.905043,-71.914628,-103.822919,-123.11132,-140.601495,-65.822332,-95.603716,-114.485226,-131.178746,-51.588696,-74.461376,-89.814609,-103.547154,-32.248621,-41.083456,-47.286458,-53.733189,294.925484,14.042543,-289.942154,3.47149
91,-3.544098,2.866973,3.505738,1.804187,-22.582443,-38.978828,-54.434143,-73.498741,-10.28904,-8.030457,-7.900612,-9.361679,5.65995,18.319473,24.56813,30.60862,16.020126,31.017494,39.706398,47.871574,22.024498,39.659042,49.382469,58.197967,-16.760648,-38.898356,-52.426878,-60.495582,-74.099481,-105.62939,-124.608984,-141.467409,-68.221836,-99.210348,-119.161845,-137.139433,-54.914141,-78.41707,-95.219376,-111.267802,-36.63868,-44.807951,-49.815953,-55.51241,24.66917,43.263565,61.289646,80.518833,11.620513,7.790897,8.789154,12.175174,-4.178124,-16.866887,-22.480923,-26.399231,-13.963028,-27.384259,-31.706097,-32.802281,-19.216725,-32.969742,-35.824917,-35.567872,-15.422425,-34.877059,-45.254407,-49.83136,-72.054617,-103.589978,-122.803013,-140.195134,-66.000582,-95.665344,-114.412077,-130.977391,-52.061081,-74.924183,-90.052367,-103.214924,-33.060034,-42.436378,-48.451757,-54.065234,291.219687,16.916812,-286.598115,5.282973
92,-4.659645,4.393104,5.258228,2.766079,-22.756668,-39.413658,-54.414597,-72.830544,-11.598404,-10.24292,-10.87825,-12.900467,3.675659,14.520927,19.37297,23.934013,13.978248,27.006225,33.91198,40.049629,20.44146,36.354423,44.480026,51.483879,-17.256523,-40.55194,-55.077045,-64.393892,-73.755409,-104.952544,-122.879424,-139.015331,-68.083899,-98.26616,-116.635333,-133.074571,-55.194914,-78.284116,-94.46483,-110.004883,-37.472102,-46.357801,-51.77714,-57.817689,25.054962,43.894947,61.919769,81.097194,12.559044,9.06221,10.358093,14.037197,-3.054669,-14.894245,-19.601521,-22.579674,-12.965378,-25.182255,-27.999745,-27.636189,-18.593044,-30.165356,-30.727604,-28.823239,-16.155668,-36.121422,-46.706962,-52.444082,-72.21155,-103.340729,-122.353119,-139.370316,-66.158323,-95.505577,-113.854656,-129.842147,-52.450615,-75.376122,-90.349764,-102.672546,-33.720301,-43.735069,-48.998853,-53.05659,286.408236,21.354312,-281.491693,8.093448
93,-6.147148,5.925304,7.007892,4.018636,-23.610031,-40.686264,-55.095383,-72.666962,-14.071747,-13.734421,-15.917816,-19.142189,0.37532,8.649261,10.092567,11.54734,10.512497,20.962875,24.055504,26.876129,17.434044,30.773323,35.737472,39.900146,-17.720535,-41.709322,-56.850536,-67.507656,-71.804139,-102.235032,-118.863899,-133.634765,-66.087545,-95.340704,-111.745466,-125.842246,-53.793038,-76.672906,-91.446896,-105.165287,-37.011092,-47.020518,-52.64419,-58.570939,25.345494,44.257164,62.308732,81.471634,13.979393,10.771248,12.650242,17.019207,-1.01239,-11.762146,-14.877319,-16.287826,-10.870845,-21.826892,-22.89656,-21.018848,-16.769714,-26.490577,-25.474594,-22.475738,-16.926084,-37.543132,-48.4533,-55.425638,-72.019042,-102.409581,-121.13598,-137.538187,-65.844347,-94.871863,-112.728032,-127.920943,-52.472258,-75.395122,-90.216728,-101.965824,-34.215804,-45.054768,-50.577391,-54.489292,280.051335,27.374115,-274.693554,12.206583
94,-7.87928,7.189427,9.176812,5.079392,-24.86229,-42.458428,-56.638985,-73.904915,-17.286484,-18.800423,-23.555237,-28.897866,-4.000466,0.494018,-2.182663,-4.004242,5.534431,12.588363,11.247345,10.617874,12.083358,21.83242,23.047027,24.104141,-17.926675,-42.07941,-57.28619,-68.975093,-68.561519,-97.260727,-111.951107,-124.27103,-62.740993,-90.218784,-102.802617,-113.098849,-51.20262,-73.096729,-84.456742,-94.911285,-35.728535,-46.372169,-51.490538,-56.741434,25.684101,44.374637,61.893184,80.89048,15.231582,12.298198,14.874366,20.270519,0.700115,-8.896752,-10.034409,-9.338402,-9.131516,-18.869156,-17.911606,-14.099888,-15.262539,-23.249749,-20.708817,-16.466904,-17.220826,-38.222023,-49.419096,-57.833355,-70.983501,-100.659446,-118.936444,-134.428517,-64.46409,-93.042218,-110.158759,-124.0872,-51.0957,-73.923141,-88.274326,-99.046661,-33.043066,-44.589862,-50.150789,-53.750819,271.77364,34.746123,-265.915157,17.468556
95,-10.550126,9.978249,10.309101,6.018127,-25.898494,-44.913929,-59.903869,-76.701438,-22.056255,-28.387527,-35.580196,-41.505397,-10.393135,-13.096687,-19.42369,-22.912365,-1.881122,-1.894363,-6.955078,-9.366451,4.008648,7.314812,5.20015,4.388238,-19.194356,-42.776983,-56.50259,-67.061308,-66.235202,-91.500392,-101.763907,-110.243439,-59.492712,-83.171617,-90.53921,-96.472986,-47.82318,-66.969794,-73.952503,-80.591886,-32.835982,-42.836693,-46.67884,-50.640432,26.190113,44.869194,61.585624,79.971016,16.816509,14.118175,18.185142,25.53828,2.834495,-5.825798,-3.858284,-0.11182,-6.784985,-15.46827,-11.731625,-5.690483,-12.673027,-19.063225,-15.387577,-10.414192,-17.019025,-38.031406,-49.61976,-59.65645,-68.629223,-97.801729,-115.236211,-129.198887,-61.578264,-89.869401,-105.555105,-117.062109,-48.010865,-70.59514,-83.72387,-92.676402,-30.172239,-41.559133,-47.141018,-50.771263,260.890239,44.719219,-255.939331,23.48153
96,-12.528625,12.456429,11.880409,6.56552,-26.733547,-47.911182,-64.919586,-81.517891,-28.14687,-42.598183,-52.028973,-56.816151,-18.594864,-32.000656,-41.41262,-44.695599,-11.489925,-22.101769,-30.011124,-32.116665,-6.495609,-12.252823,-17.13414,-18.190224,-21.797988,-44.091625,-54.78402,-61.616744,-64.764993,-84.976307,-88.605289,-92.067218,-56.400936,-74.683368,-76.064488,-77.612848,-43.892575,-58.745751,-60.351728,-62.59466,-28.759578,-37.054366,-38.739954,-40.686864,26.419247,44.87067,60.522949,78.43166,18.601318,17.416454,23.426308,32.536022,4.886948,-1.464191,3.889709,10.342987,-4.85273,-11.522152,-5.261765,2.191727,-10.740875,-15.298782,-10.545982,-5.052498,-15.955634,-36.167581,-47.791108,-58.572792,-64.480355,-92.900803,-108.526213,-120.259829,-57.506689,-85.181328,-97.073111,-104.790443,-44.616235,-66.553878,-75.921422,-81.781956,-28.160917,-39.145834,-43.42339,-46.024768,248.584053,57.271719,-243.836483,30.143121
97,-12.175278,13.785397,12.738773,6.829842,-24.003284,-45.87878,-63.450645,-80.031738,-34.850567,-56.240249,-69.129009,-76.136295,-27.372162,-50.478607,-64.449623,-70.813213,-21.285289,-41.381309,-53.76844,-58.426792,-16.978397,-30.618805,-39.134056,-42.717224,-24.739401,-46.635736,-56.826675,-62.287656,-61.84476,-76.498334,-75.801551,-75.053004,-51.49604,-63.906255,-60.956632,-58.635051,-37.875023,-48.010349,-45.488589,-44.031752,-22.496635,-27.958154,-27.390531,-27.753902,25.350094,42.913033,56.802029,72.907517,18.560257,20.688881,29.188099,39.765805,6.622685,5.067479,14.169422,23.279789,-1.33834,-3.247512,5.557537,14.326825,-5.386917,-6.192215,0.326535,7.388123,-16.941126,-36.548969,-48.469133,-59.138647,-59.847486,-85.663314,-98.362848,-107.333176,-52.263893,-77.77775,-86.751758,-91.731941,-39.300407,-59.935122,-67.037365,-71.349025,-23.608108,-33.956792,-39.05674,-43.208986,236.80129,71.389395,-230.705195,37.305242
98,-17.634865,16.334058,13.251383,9.850667,-23.502513,-47.329639,-67.114494,-84.362228,-40.810283,-70.344039,-85.730518,-92.6506,-34.833824,-67.278442,-83.637679,-89.785823,-29.421695,-58.629112,-73.256011,-77.990947,-25.387035,-46.345481,-56.886154,-60.966064,-26.376768,-46.029809,-53.696416,-56.912264,-57.348688,-65.849901,-60.440574,-56.23693,-45.622797,-51.54778,-44.099553,-38.891215,-31.17488,-35.60542,-29.387762,-25.661936,-15.391577,-16.807313,-14.17724,-13.543903,24.668392,42.017847,55.150732,69.677788,19.485724,26.570326,37.315281,48.262104,8.715969,13.485255,25.703127,36.160315,2.019636,6.206766,17.516756,27.064385,-0.655163,3.224585,11.791449,19.997309,-18.742044,-37.198251,-48.397179,-57.534539,-55.582639,-78.336878,-86.964001,-92.487226,-46.950518,-69.171132,-74.310461,-76.094128,-33.410329,-51.455257,-55.496303,-57.577057,-17.652813,-26.015785,-29.87024,-33.27219,219.779474,88.033987,-216.840763,47.466443
99,-16.738884,18.560359,13.069817,12.78215,-23.287731,-49.594562,-71.683273,-89.110931,-47.016437,-81.534896,-98.584316,-106.749446,-42.408004,-81.147628,-99.917793,-108.229099,-37.651805,-73.608924,-90.561378,-97.5928,-33.603572,-59.940238,-72.478477,-78.861877,-28.438282,-46.522313,-52.072993,-52.906836,-53.808778,-57.143477,-48.486337,-42.352061,-40.40666,-40.772031,-31.504094,-25.233636,-24.555774,-24.414282,-16.989261,-12.357595,-7.796678,-5.876003,-1.555067,0.358436,24.233826,42.30998,56.255304,69.564022,21.934313,35.677557,48.566116,58.86771,12.202938,24.991384,39.974287,50.593443,6.398512,18.158689,31.883337,41.336334,4.673114,14.140714,24.54503,32.945543,-21.825773,-38.906051,-48.370206,-54.285991,-52.215976,-71.197574,-74.687111,-76.074269,-42.188542,-60.117188,-60.59801,-58.971962,-27.947258,-42.066372,-42.512927,-42.295016,-11.738272,-17.103787,-18.810864,-20.62699,204.083982,107.023134,-202.727554,60.677381
100,-20.355972,19.411063,12.518486,16.449643,-22.541084,-50.377533,-73.64534,-91.286087,-53.034141,-91.107216,-108.543434,-116.585953,-49.72554,-92.854591,-112.198814,-120.628074,-45.08741,-85.374618,-103.288307,-111.163879,-40.185379,-70.079406,-83.746467,-91.108131,-28.307828,-44.047014,-48.198488,-48.500972,-46.173624,-45.097462,-35.472308,-28.93021,-30.842337,-26.835655,-17.643526,-11.643071,-14.126062,-10.286143,-3.040381,1.46911,2.578592,7.35369,11.758223,13.373527,22.742763,42.513216,58.129034,71.188019,25.96372,47.621103,62.094074,70.944534,17.693458,39.473642,56.584093,66.938844,12.680528,32.879854,48.401235,57.767635,11.196098,26.295873,38.428476,47.379587,-24.195852,-40.461081,-48.591903,-52.638589,-49.360402,-63.366016,-62.250486,-60.389899,-37.820448,-50.089403,-47.044765,-43.830983,-22.573225,-31.818737,-29.421302,-28.128705,-5.715168,-8.395503,-8.399653,-9.318508,184.750683,127.08789,-189.186395,77.780717
101,-16.772575,19.547722,11.413055,18.744368,-24.703674,-53.511749,-77.006081,-95.336929,-58.485695,-95.175522,-114.02845,-125.902748,-55.163956,-97.030815,-118.721031,-132.005699,-49.827896,-89.097176,-110.103539,-122.860474,-43.654701,-73.139031,-89.302666,-100.749458,-26.821526,-40.755129,-45.278143,-47.679444,-37.090131,-34.118726,-26.001857,-19.736876,-21.009293,-15.762737,-7.408308,-0.97812,-4.417717,0.60245,7.395841,12.176706,11.70602,17.93316,22.723621,24.639891,22.033585,43.824263,61.523569,74.361431,29.301436,55.99518,71.879482,81.571163,22.354923,50.675165,70.048388,81.951296,18.155989,44.939146,62.537413,73.696072,16.932575,37.053423,51.346819,62.09471,-26.479907,-42.544854,-50.398824,-54.333576,-46.875053,-55.376686,-51.463386,-47.786603,-33.296131,-39.45282,-35.641587,-32.174005,-16.521066,-21.094543,-18.815131,-17.755142,1.884339,1.76827,2.103735,1.239183,168.311113,147.132836,-177.440335,97.022309
102,-22.597664,20.323407,11.595783,23.018183,-28.636848,-59.110336,-83.90696,-102.413498,-62.296257,-99.68486,-117.580719,-127.728058,-58.582077,-99.988449,-120.719788,-132.397385,-52.699883,-91.324791,-111.618485,-123.64056,-45.469208,-74.800117,-90.827774,-102.065964,-23.95388,-34.311561,-35.792842,-36.456684,-28.122891,-21.89974,-13.446393,-7.729367,-11.426605,-3.315688,4.667652,10.107221,4.860536,12.275321,18.998885,23.463527,20.044838,27.951917,32.547506,34.388113,22.507199,47.377963,68.393824,82.262719,37.746764,70.684073,85.200634,91.337471,31.355256,67.141554,84.660616,92.93521,26.505164,60.079932,76.063551,84.110928,23.71748,48.453627,60.759036,67.870932,-26.954565,-41.675329,-48.500512,-53.147882,-43.300631,-47.042066,-41.000761,-36.120327,-27.913916,-28.797848,-23.732515,-19.7939,-9.906542,-9.43793,-6.29045,-4.659171,9.642796,12.274317,13.320678,13.485104,145.780907,167.679261,-165.777094,120.26351
103,-16.317009,19.034849,10.47206,21.720898,-30.634026,-61.327492,-86.551735,-104.89389,-64.670769,-100.218727,-117.001533,-127.533394,-60.999916,-100.834671,-121.402966,-134.478561,-55.369469,-92.629303,-113.085503,-126.788635,-48.364998,-76.87484,-93.006821,-105.717659,-22.917091,-32.246961,-32.849157,-31.799777,-22.344906,-15.583384,-8.352707,-3.528104,-4.24607,4.751929,11.89592,16.641513,12.633887,20.928993,27.113371,31.166729,27.55869,35.768963,40.460068,42.541625,23.694923,50.887973,73.966163,88.857971,45.034504,79.09346,94.050544,101.529407,38.410286,75.396824,94.064975,104.470836,32.378826,67.520885,84.735626,94.763248,27.652095,54.055561,66.831859,74.961158,-26.022049,-39.712943,-46.438131,-52.19887,-37.773733,-38.2785,-31.539597,-25.681977,-21.49659,-18.937857,-12.731471,-7.619933,-3.188982,0.74873,5.358318,8.441084,16.565771,21.161274,23.51967,25.204654,129.502218,186.915296,-155.266714,142.185594
104,-15.83503,17.643043,9.915161,19.841667,-32.272979,-62.281791,-86.38433,-104.065864,-66.576347,-101.255928,-117.389488,-126.943714,-62.767433,-101.371925,-121.142669,-133.388694,-56.851753,-93.112815,-113.036064,-125.848056,-49.364547,-77.23867,-92.836166,-104.790298,-20.96009,-28.09887,-27.503831,-25.007286,-14.275176,-6.100557,0.48074,4.315996,4.311859,14.567849,21.34156,25.411518,20.643694,30.384525,36.659923,40.342471,34.111928,43.092402,47.842935,49.813477,25.263267,53.80497,76.884785,93.040764,51.484703,83.662399,99.145408,109.157821,44.205631,79.012871,98.109649,111.012417,36.428181,69.658058,87.108284,98.903389,29.093113,53.900448,66.647026,75.744495,-22.33981,-34.791701,-41.967241,-50.857596,-29.560027,-26.423581,-20.195459,-14.464719,-14.050392,-7.95394,-1.695283,3.596048,2.873883,9.463054,14.664414,18.413825,20.537409,26.820996,29.731737,32.047995,113.579778,204.560349,-145.438963,162.029271
105,-14.503784,18.191412,12.169498,21.64683,-32.833397,-63.326156,-88.083423,-105.720508,-67.228363,-103.592285,-118.369755,-126.098041,-64.030746,-103.511638,-121.494701,-131.632793,-59.390716,-96.170837,-114.768425,-125.684028,-53.372543,-81.736931,-96.43967,-106.890587,-10.015855,-12.868316,-11.351281,-8.201875,-2.870159,1.170109,4.770368,7.096506,8.079375,13.288146,18.071666,20.989879,17.048622,21.98763,26.151497,28.497853,23.57863,28.092473,31.47174,32.943956,27.19495,55.950051,78.948715,94.874874,59.082344,92.936577,105.963845,113.595909,52.046402,88.430969,103.69471,112.595227,43.729054,78.105114,92.441517,100.662552,35.093399,61.204983,72.615555,79.291054,-21.568184,-32.438671,-39.620355,-49.565623,-20.537804,-12.878148,-6.921215,-2.188849,-3.69835,6.877353,12.771109,17.046473,12.98952,23.329182,28.808098,32.329761,29.366507,38.788052,42.304219,44.596579,99.062061,222.739942,-133.283398,183.664282
106,-13.526893,15.848898,9.020394,20.907306,-32.464348,-63.412514,-88.231213,-104.462998,-65.491219,-105.553826,-116.936715,-119.651562,-62.461808,-105.802025,-120.491787,-124.939888,-58.663857,-98.323861,-114.103283,-120.658013,-54.101647,-83.966206,-97.228672,-105.24614,-8.243828,-8.602783,-3.920632,3.226015,1.378183,3.625194,3.23461,2.764245,12.469236,15.478643,16.409888,16.154192,21.036859,24.189069,24.896828,24.33401,26.180322,29.395728,30.548917,30.304472,29.898239,59.341999,82.713546,98.779667,66.268604,102.058662,114.874717,120.695961,59.095607,97.177665,111.11491,117.364311,50.427303,86.142677,99.48706,105.137088,41.033603,68.557708,79.226108,84.011707,-20.422294,-29.728834,-35.700099,-44.98507,-12.281552,-0.849747,5.802205,10.484528,5.475224,19.398509,26.054845,29.912542,22.042921,35.535954,41.700708,44.908395,37.121445,49.402281,53.480303,55.662723,85.742649,238.610715,-124.055523,204.593463
107,-6.746636,14.419771,6.90818,18.349715,-33.681175,-65.207153,-89.977501,-104.62223,-63.772796,-103.424526,-113.900665,-115.787418,-61.005775,-104.419029,-119.239002,-123.714145,-58.105247,-98.386448,-114.900844,-121.89236,-54.745582,-84.829387,-98.765602,-107.501175,-7.922232,-8.502142,-4.069241,2.623911,6.766141,4.422663,-0.91992,-4.234448,18.009755,17.058551,13.724857,10.374143,25.688085,26.759504,24.121736,20.507176,29.092027,32.181376,32.814836,31.88217,32.614094,62.149933,85.257282,102.135349,68.94286,101.739555,116.703403,126.497612,60.852894,95.166607,111.708652,121.963325,51.450577,83.13137,98.942642,108.285095,41.30088,65.7579,77.869171,85.536472,-18.477353,-26.599644,-31.74664,-39.957197,-3.675779,9.411801,16.318819,21.542879,13.772442,29.325283,36.632173,41.011524,29.016235,44.394693,51.859528,55.80428,42.003248,56.847936,62.961511,66.25161,79.44457,252.980931,-116.698786,222.893623
108,-5.935386,11.446563,9.546924,20.093424,-34.116669,-65.809319,-89.016472,-102.32127,-66.063447,-102.964417,-110.972237,-110.327672,-62.40445,-102.476418,-113.126278,-113.280842,-58.810524,-96.749966,-108.546536,-110.180398,-55.130379,-83.20197,-94.156151,-99.006707,-1.270157,2.116137,7.561523,14.319439,15.393427,14.375718,9.772781,6.764239,22.049096,22.033856,18.696481,15.054281,25.41521,27.136391,24.331157,20.235635,24.664646,28.030476,28.746039,27.945359,32.904797,62.082459,84.638878,101.315369,72.068631,106.920582,119.931931,126.250454,63.796784,100.318257,113.239735,118.11842,53.804432,86.672619,99.132363,103.781216,42.807782,67.868042,78.086884,82.443249,-19.031428,-25.584147,-29.422651,-37.574731,3.380069,19.883336,25.581244,28.645621,21.802638,39.985108,44.507795,45.820732,36.533137,53.812026,58.56829,59.849833,47.597156,64.380992,68.378059,69.232586,73.942824,264.298578,-106.718222,242.858131
109,-5.621018,11.050989,6.165894,17.340405,-32.200676,-63.920837,-87.039299,-100.17968,-68.674622,-102.424141,-103.640625,-96.53627,-65.590599,-100.934669,-102.76783,-95.173519,-62.408501,-95.327305,-98.629818,-92.716633,-58.936638,-83.334148,-88.068535,-86.309006,9.51091,16.503934,22.874144,30.154332,22.364789,23.062606,20.538138,19.029983,23.016096,25.015179,23.864435,21.566085,21.204314,25.073891,24.021022,20.869874,16.215325,21.711174,23.718161,23.738044,32.942551,62.657261,86.203846,102.66988,73.29903,110.528172,123.04105,127.927471,65.508099,104.91766,117.606983,120.979008,56.319546,91.536209,103.953724,107.642979,46.150291,73.453812,84.121994,88.403732,-18.839557,-24.214708,-27.069071,-34.548331,9.30454,27.116755,33.170679,36.020262,28.986125,48.415707,52.919881,53.647708,44.044926,63.027731,67.655357,68.161549,54.612138,72.774132,76.720194,76.941655,68.815676,275.210607,-100.058458,260.059576
110,-0.968445,6.735958,2.911011,11.854893,-31.600708,-62.429397,-84.427585,-97.410873,-71.713062,-96.080188,-92.058414,-82.280662,-68.083854,-92.578251,-88.287014,-77.250824,-63.698021,-86.459072,-83.094921,-73.253998,-58.706222,-75.575626,-75.032375,-69.770691,11.172662,18.89449,25.95497,34.768458,23.865731,31.38104,32.750702,32.887071,25.482567,35.151397,37.777395,37.522736,24.760556,36.172489,38.982059,38.110069,21.127113,33.434476,38.986752,41.399785,33.567318,63.422012,87.309047,104.502537,71.497455,105.66354,120.669994,129.127224,62.709274,99.708973,115.87009,123.939571,53.008461,86.107521,101.413387,109.20615,42.862369,68.724197,80.782676,88.052971,-16.317447,-20.56427,-22.315771,-29.233398,13.619091,30.821903,37.32395,41.211781,31.993197,50.460955,55.715878,57.939634,45.809111,64.14124,68.931355,70.139774,55.126359,72.381153,75.938508,76.360473,68.393137,281.798935,-96.601541,271.766839
111,-2.553039,6.363725,4.97089,10.325348,-29.139107,-58.47036,-79.904698,-93.905514,-75.971146,-89.620972,-81.108971,-69.941735,-72.682595,-84.302307,-73.815617,-59.725239,-67.457337,-78.416645,-68.024208,-54.57248,-60.802323,-70.442711,-65.075901,-56.391426,21.53989,31.692201,37.713274,45.09913,32.310595,44.868517,50.258994,52.280727,27.987485,43.003555,49.727805,51.880733,21.998362,38.133103,44.953584,47.004142,14.344621,29.969118,38.464653,43.387569,32.731876,61.916588,85.566559,103.249214,70.196811,102.465912,117.311462,126.485298,61.011268,96.411255,112.976578,122.765236,50.911743,82.26527,97.752708,107.077926,40.509224,64.802238,76.95908,85.426449,-14.990369,-18.100206,-18.878027,-25.537364,17.607723,33.759074,40.387487,44.802678,35.211456,52.586639,57.526116,60.124067,47.984282,65.674713,70.274427,71.747965,56.298036,72.983455,76.371477,76.8042,66.426756,288.013817,-91.043993,281.943344
112,-4.28096,5.991556,4.536106,8.588408,-24.030716,-50.391724,-70.599816,-85.591748,-76.621582,-82.19228,-67.255669,-52.195061,-74.730229,-76.714302,-57.852848,-37.898301,-69.953236,-71.362679,-51.972542,-32.190262,-63.333916,-66.366486,-54.215538,-39.910538,24.292341,35.138578,41.593608,50.437354,32.771611,51.231403,61.510463,66.264454,26.667225,45.650191,57.094777,62.651067,19.806371,37.562665,47.672418,52.648192,12.238179,28.020868,36.690267,42.173951,31.739021,60.364208,84.035763,101.800472,69.106407,101.403889,115.821293,124.46545,59.644295,95.501163,111.769054,121.142383,49.275753,81.184948,96.400532,105.32777,38.952232,63.420925,75.827511,84.360454,-14.338618,-16.428228,-16.099048,-22.345152,19.697702,35.767778,42.234985,46.226717,37.293285,54.246613,58.890343,61.050274,49.606329,66.782577,70.734467,71.518685,57.265406,73.112488,75.695903,75.478393,62.715695,293.88981,-85.937988,290.416189
