takenoko1/special-research/HandMotion_SimilarSearch_自分用/NewProject/handData/tgt/d4_feature_d2/7.csv
,vel_0x_L,vel_0y_L,vel_0x_R,vel_0y_R,posFromWrist_1x_L,posFromWrist_2x_L,posFromWrist_3x_L,posFromWrist_4x_L,posFromWrist_5x_L,posFromWrist_6x_L,posFromWrist_7x_L,posFromWrist_8x_L,posFromWrist_9x_L,posFromWrist_10x_L,posFromWrist_11x_L,posFromWrist_12x_L,posFromWrist_13x_L,posFromWrist_14x_L,posFromWrist_15x_L,posFromWrist_16x_L,posFromWrist_17x_L,posFromWrist_18x_L,posFromWrist_19x_L,posFromWrist_20x_L,posFromWrist_1y_L,posFromWrist_2y_L,posFromWrist_3y_L,posFromWrist_4y_L,posFromWrist_5y_L,posFromWrist_6y_L,posFromWrist_7y_L,posFromWrist_8y_L,posFromWrist_9y_L,posFromWrist_10y_L,posFromWrist_11y_L,posFromWrist_12y_L,posFromWrist_13y_L,posFromWrist_14y_L,posFromWrist_15y_L,posFromWrist_16y_L,posFromWrist_17y_L,posFromWrist_18y_L,posFromWrist_19y_L,posFromWrist_20y_L,posFromWrist_1x_R,posFromWrist_2x_R,posFromWrist_3x_R,posFromWrist_4x_R,posFromWrist_5x_R,posFromWrist_6x_R,posFromWrist_7x_R,posFromWrist_8x_R,posFromWrist_9x_R,posFromWrist_10x_R,posFromWrist_11x_R,posFromWrist_12x_R,posFromWrist_13x_R,posFromWrist_14x_R,posFromWrist_15x_R,posFromWrist_16x_R,posFromWrist_17x_R,posFromWrist_18x_R,posFromWrist_19x_R,posFromWrist_20x_R,posFromWrist_1y_R,posFromWrist_2y_R,posFromWrist_3y_R,posFromWrist_4y_R,posFromWrist_5y_R,posFromWrist_6y_R,posFromWrist_7y_R,posFromWrist_8y_R,posFromWrist_9y_R,posFromWrist_10y_R,posFromWrist_11y_R,posFromWrist_12y_R,posFromWrist_13y_R,posFromWrist_14y_R,posFromWrist_15y_R,posFromWrist_16y_R,posFromWrist_17y_R,posFromWrist_18y_R,posFromWrist_19y_R,posFromWrist_20y_R,posFromBody_0x_L,posFromBody_0y_L,posFromBody_0x_R,posFromBody_0y_R
6,-0.027054,0.504476,9.917908,1.040408,-28.481621,-56.102875,-81.431488,-101.39946,-64.85677,-92.590954,-106.845246,-118.741391,-57.126824,-87.859612,-105.496559,-119.017273,-47.474739,-75.184914,-92.149441,-105.107586,-36.81308,-59.141991,-72.443859,-83.619633,-14.278634,-16.68154,-12.025201,-9.063898,17.934247,34.669016,42.244754,47.261049,33.871966,51.053117,58.043436,62.512993,45.127436,61.969034,67.896542,71.237696,51.887414,67.071285,71.807319,74.243793,-6.243302,-10.464638,-12.125988,-9.585755,9.713287,-7.778023,-29.656334,-48.401093,16.748634,-5.471558,-32.233773,-54.384247,20.495201,-0.982476,-26.615422,-48.817578,21.879776,21.683212,11.234401,-0.354595,-12.185987,-15.266554,-8.682009,1.4159,0.0268,24.011475,35.46777,41.719678,13.20104,37.3775,44.437449,47.511249,23.208139,43.516862,49.339073,51.767853,30.265211,45.208205,51.416234,54.422837,54.635788,301.49738,-10.847763,311.792372
7,-1.118134,0.473083,-7.335903,-2.373142,-28.058784,-55.257774,-80.338589,-100.181408,-63.740833,-91.371139,-105.68708,-117.595836,-56.091224,-86.671154,-104.427269,-118.149227,-46.421814,-74.146683,-91.131443,-104.194015,-35.741638,-58.231567,-71.420334,-82.599163,-14.634663,-17.14005,-12.312625,-9.383296,16.91119,33.842943,41.636252,46.793252,33.014487,50.150856,57.42156,62.06671,44.454479,61.187026,67.15934,70.608879,51.343034,66.484976,71.226247,73.678541,-5.404164,-7.228375,-4.450654,1.453548,16.723285,-0.071023,-22.599278,-41.928235,25.33945,3.45037,-24.100914,-46.803063,29.671794,8.416282,-18.141415,-40.857663,31.229381,34.016864,25.406021,14.922191,-10.38416,-12.293013,-6.322637,3.511931,1.387655,26.454457,38.539198,44.778916,14.357576,39.018492,46.030683,48.618544,24.463475,44.637137,50.929331,53.781496,31.769784,46.309474,52.616439,55.881159,54.028627,301.794011,-17.672693,309.242778
8,-1.031479,0.378641,8.665065,3.993843,-27.712761,-54.443824,-79.241008,-99.039528,-62.871048,-90.405555,-104.796982,-116.791317,-55.278648,-85.670711,-103.501613,-117.274841,-45.544761,-73.197841,-90.302662,-103.483978,-34.724075,-57.187362,-70.444542,-81.708767,-14.85111,-17.44196,-12.622204,-9.625889,16.22103,33.089946,40.949749,46.226222,32.343211,49.475628,56.909439,61.652488,43.874754,60.634582,66.657865,70.145455,50.90389,66.010029,70.700862,73.083922,-7.243217,-12.627548,-14.849258,-13.766315,6.720246,-11.602398,-33.113857,-50.88002,14.87043,-9.018654,-35.233268,-56.077457,19.453881,-3.258819,-28.311619,-49.414135,21.611847,20.985352,10.154389,-1.356582,-13.4834,-18.495656,-13.902611,-5.999287,-2.973838,19.105874,30.056692,36.598655,11.154916,33.92312,41.329601,45.289716,22.601652,41.708168,48.179574,51.51769,31.363084,45.467891,51.409096,54.958312,53.360235,302.028697,-8.644541,313.092666
9,-0.689621,-0.015512,-5.699283,-4.026793,-27.606834,-53.955162,-78.402889,-98.027755,-62.291153,-89.638572,-104.063266,-116.08572,-54.647804,-84.73328,-102.637298,-116.52729,-44.668213,-72.055343,-89.23352,-102.578682,-33.449478,-55.586197,-68.871116,-80.306945,-14.754557,-17.411776,-12.619623,-9.585207,15.950638,32.787542,40.661004,46.061213,31.895101,49.019206,56.647914,61.641423,43.359522,60.223497,66.584407,70.374462,50.419372,65.646122,70.634234,73.304013,-5.821072,-8.911904,-7.233353,-2.333073,13.453708,-4.551316,-27.005093,-46.083676,22.177768,-0.757199,-27.843762,-49.85661,26.68404,4.415462,-21.744713,-43.912892,28.581241,30.087467,20.732059,9.79684,-11.321457,-13.391862,-7.169063,2.666173,-0.047536,24.794568,36.857894,43.272416,13.509397,38.29779,45.563159,48.602946,24.31909,44.483626,51.213803,54.539754,32.44621,47.150218,53.328829,56.714011,52.903713,301.882292,-14.110725,308.93498
10,-0.606514,-0.043744,0.215961,0.115189,-27.47818,-53.616806,-77.927799,-97.508011,-61.752411,-88.957306,-103.469009,-115.597927,-54.068527,-83.927021,-101.898067,-115.900772,-43.93547,-71.171585,-88.394233,-101.835022,-32.49559,-54.455337,-67.79187,-79.329208,-14.74275,-17.429078,-12.562812,-9.455729,15.656891,32.569786,40.455103,45.897834,31.551077,48.726485,56.496304,61.666555,43.003691,59.983832,66.531734,70.499754,50.086266,65.380892,70.534013,73.381152,-5.48473,-8.411774,-6.132912,-0.560486,13.362213,-4.958118,-27.199253,-46.087131,21.691429,-1.484642,-28.376861,-49.988239,25.985298,3.27618,-22.641723,-44.396965,27.771561,28.019211,17.44265,5.861595,-9.770434,-11.413415,-4.896721,4.765736,0.281532,25.328389,37.763328,44.178653,12.856843,38.019197,45.655834,48.848145,22.880405,43.581378,50.91981,54.711272,30.356206,45.756289,52.293645,56.032929,52.459287,301.729117,-13.732676,308.940738
11,-0.591659,0.166479,-4.918442,-1.194068,-27.191048,-53.207749,-77.48037,-97.06168,-61.430226,-88.51981,-103.093506,-115.244122,-53.758919,-83.50795,-101.559746,-115.603283,-43.547402,-70.70731,-87.978779,-101.466362,-31.960739,-53.849716,-67.254742,-78.8027,-14.876538,-17.595076,-12.788214,-9.704213,15.241114,32.197246,40.143029,45.642916,31.091382,48.273101,56.119232,61.328768,42.56509,59.623827,66.240087,70.265028,49.755568,65.093394,70.258162,73.09973,-5.520401,-7.11819,-2.088226,6.213833,16.947556,-1.724086,-24.253326,-43.532203,26.099511,3.852436,-23.289562,-45.203865,30.986962,8.957199,-17.32085,-39.399456,33.321442,35.229058,25.721661,14.689602,-8.711995,-9.752329,-3.40346,6.616347,0.925614,27.617674,40.494377,46.585487,13.373102,39.902869,47.230766,49.536403,23.28135,44.424976,51.808806,55.474199,30.710827,45.808728,52.443304,56.075339,51.981468,301.813138,-18.537278,307.664212
12,-0.484795,0.010103,-0.507385,0.060343,-26.96434,-52.836639,-77.015133,-96.553951,-61.177311,-88.206825,-102.820541,-114.974384,-53.536606,-83.156994,-101.269203,-115.360908,-43.287964,-70.371437,-87.728016,-101.308376,-31.571731,-53.330932,-66.779388,-78.409092,-14.853803,-17.612255,-12.860882,-9.807509,15.146499,31.977525,39.860409,45.329816,30.882739,48.014897,55.826164,61.029834,42.310814,59.379591,66.04062,70.097215,49.527424,64.913527,70.171809,73.092987,-5.21331,-6.620361,-1.202785,7.266964,17.183716,-1.422901,-23.846924,-43.158668,26.117615,4.05732,-23.071323,-45.142628,30.897789,9.054669,-17.339207,-39.548401,33.300293,35.780525,26.667675,15.838062,-8.568043,-9.410566,-3.009407,6.917367,1.156486,28.038985,40.886714,46.907873,13.324034,40.090059,47.342386,49.501513,22.975093,44.38033,51.699581,55.357206,30.174277,45.364112,51.93238,55.53627,51.580032,301.774999,-18.961304,307.676313
13,-0.45813,-0.080832,-0.876388,-0.064999,-26.783088,-52.543556,-76.609817,-96.105983,-60.967975,-87.902893,-102.570499,-114.830177,-53.292091,-82.842178,-101.028305,-115.236236,-43.003853,-70.009025,-87.467067,-101.161365,-31.185653,-52.833687,-66.419449,-78.25375,-14.762189,-17.518283,-12.865364,-9.908829,15.308557,32.02653,39.853889,45.263151,30.94312,48.008093,55.738022,60.904938,42.303405,59.360301,66.014081,70.093103,49.519274,64.902561,70.251974,73.29643,-4.977425,-6.488583,-0.882214,7.463161,18.122943,-0.803158,-23.54646,-42.712819,27.187843,4.965923,-22.62925,-44.978966,31.97081,9.92712,-16.759049,-38.989907,34.238113,37.557151,29.489204,19.438007,-8.352867,-9.402241,-3.288728,6.143709,0.528003,26.623085,39.407643,45.349293,13.108699,39.809849,47.250316,49.198752,23.217019,44.696097,52.145346,55.529947,30.810875,45.726687,52.062736,55.253491,51.185291,301.64857,-19.774303,307.565717
14,-0.401687,0.35183,-2.21204,-0.438885,-26.670456,-52.221955,-76.2281,-95.793904,-60.718438,-87.778199,-102.477654,-114.768311,-53.047783,-82.774155,-100.990059,-115.20464,-42.873253,-70.055752,-87.5873,-101.255768,-31.261734,-53.134301,-66.824707,-78.687481,-14.981243,-17.848204,-13.290455,-10.333475,15.006498,31.650951,39.490722,44.830589,30.737613,47.771292,55.413276,60.406574,42.182274,59.153041,65.58752,69.44082,49.484236,64.745516,69.942283,72.836377,-5.105793,-6.449616,-1.606614,6.16214,20.097564,1.487125,-21.579678,-40.99696,29.195148,7.801014,-19.982632,-42.996025,33.790203,12.554065,-14.16964,-36.499844,35.856411,41.54227,36.284717,28.381324,-9.896269,-11.909826,-6.9837,1.654207,0.601783,26.569091,38.9798,44.811274,14.090259,40.482496,47.86624,49.591287,24.693459,45.848928,52.949015,55.73365,32.739328,46.751645,52.735013,55.138746,50.846403,301.958391,-21.923544,307.084823
15,-0.424279,0.257573,9.392944,2.367523,-26.500557,-51.811042,-75.732479,-95.323528,-60.45948,-87.655197,-102.339626,-114.578682,-52.780082,-82.706794,-100.904995,-115.029659,-42.693901,-70.04528,-87.649395,-101.276584,-31.233123,-53.297287,-67.059002,-78.929065,-15.117674,-18.049571,-13.591118,-10.575203,14.977081,31.438938,39.246561,44.526098,30.741294,47.704898,55.239189,60.07069,42.209506,59.095453,65.338802,68.99949,49.534859,64.713048,69.783264,72.550929,-7.632065,-13.245277,-13.328327,-10.37796,10.541725,-9.204243,-31.396259,-49.7131,19.582066,-3.716412,-31.067905,-53.40073,24.73859,2.267567,-23.717983,-45.454491,27.611126,31.853336,26.506405,18.858307,-14.122986,-19.012433,-14.851616,-6.891197,-3.751918,20.510499,32.279645,38.423293,12.045382,37.284022,44.76627,47.205412,24.766596,45.284282,52.105369,54.54614,34.510453,47.623968,52.706645,54.45391,50.478286,302.175314,-12.474438,309.411696
16,-0.163719,0.101653,2.337627,0.19402,-26.482704,-51.676758,-75.508713,-95.192333,-60.419758,-87.51036,-102.170608,-114.465534,-52.752846,-82.54351,-100.699642,-114.846794,-42.719375,-69.893429,-87.501926,-101.139107,-31.319481,-53.258331,-67.039844,-78.977966,-15.076684,-18.11452,-13.721472,-10.693714,15.160085,31.456636,39.156665,44.346343,30.87533,47.765204,55.220578,60.026983,42.272678,59.07431,65.280288,68.896158,49.541578,64.629365,69.750771,72.593105,-8.383678,-15.585468,-17.895034,-16.483051,7.803646,-12.663368,-34.943287,-53.377533,16.388787,-6.633258,-33.626049,-56.120773,21.567124,-0.291195,-25.80241,-47.372165,24.793808,31.06469,28.483315,22.646622,-15.850565,-22.32018,-19.749251,-12.645064,-4.522711,19.365905,30.536468,36.234006,12.427147,37.22074,44.560333,46.860609,25.927887,46.054791,52.44749,54.349934,36.403696,48.649074,53.249764,54.345624,50.359028,302.255212,-10.09235,309.583961
17,-0.220138,0.154166,-0.147915,1.308084,-26.427567,-51.520226,-75.319176,-95.091877,-60.319451,-87.351197,-102.015324,-114.374211,-52.636093,-82.435009,-100.563389,-114.691658,-42.653641,-69.775177,-87.370972,-100.969815,-31.355484,-53.250573,-67.087017,-79.046803,-15.119724,-18.197451,-13.889236,-10.866195,15.169705,31.457365,39.145661,44.272477,30.873762,47.810245,55.234447,59.986821,42.256907,59.083252,65.190281,68.720441,49.502157,64.547509,69.617934,72.440644,-7.93959,-14.448394,-17.630458,-16.889923,9.100297,-13.847728,-36.223045,-53.477851,17.873852,-7.812984,-34.428909,-55.498661,22.591702,-0.464653,-25.947223,-46.537479,24.896931,29.28471,25.300404,19.110924,-17.814599,-25.603203,-22.27199,-14.945366,-6.759324,15.163406,25.21688,30.903401,11.864378,34.564423,41.667288,44.625504,26.727036,45.307833,51.302427,53.35921,38.450969,49.679627,53.437362,54.49149,50.175173,302.388905,-10.203982,310.871572
18,-0.080567,0.163935,-4.004344,-3.622106,-26.436996,-51.49823,-75.272014,-95.081131,-60.427654,-87.318145,-101.902164,-114.206703,-52.751312,-82.378681,-100.424812,-114.466438,-42.724228,-69.666984,-87.173961,-100.668571,-31.350494,-53.068954,-66.822395,-78.684276,-15.212004,-18.344343,-14.078748,-11.008357,15.086589,31.387006,39.032658,44.095908,30.786916,47.747099,55.185837,59.948807,42.131664,58.972175,65.130803,68.680797,49.313027,64.348351,69.485232,72.367605,-7.898346,-13.446316,-15.048523,-11.800301,14.300056,-8.314946,-31.24672,-50.182515,23.167442,-1.164002,-28.360085,-50.865292,27.626884,5.82542,-20.420609,-42.294457,29.758186,35.664115,32.362289,26.165325,-18.178605,-25.135123,-21.605531,-12.636135,-4.143478,21.73223,32.841635,37.970476,15.061827,39.42476,45.968031,47.484906,29.852384,49.342123,54.532035,55.425873,41.297144,52.887499,56.655459,57.094097,50.128744,302.535766,-14.174188,307.232392
19,-0.213226,0.156587,1.19926,1.264117,-26.297836,-51.424118,-75.245796,-95.096466,-60.638763,-87.325584,-101.758461,-113.932835,-52.902168,-82.290699,-100.156929,-113.987343,-42.726608,-69.409641,-86.730755,-100.051048,-31.169678,-52.637146,-66.237019,-77.906364,-15.303753,-18.437994,-14.256466,-11.148036,15.046217,31.440865,39.063064,44.067231,30.714729,47.77349,55.272967,60.099873,41.996801,58.911882,65.166223,68.806187,49.080104,64.102424,69.268377,72.171671,-7.023193,-11.814228,-13.088905,-9.956199,14.114147,-10.989143,-33.771789,-51.316967,23.017559,-4.420131,-31.294407,-52.144649,27.095135,3.53302,-22.940059,-44.004398,28.483441,32.308789,26.841809,19.42289,-18.160253,-24.951748,-19.369721,-9.463535,-5.502394,18.906865,29.298743,34.554234,14.019159,37.051952,43.381011,45.457319,29.200955,47.707998,52.95472,54.572606,41.014377,52.391927,55.735774,56.703971,49.944574,302.67246,-12.945872,308.476616
20,-0.184959,0.105186,-4.824554,-1.901085,-26.28859,-51.427483,-75.25375,-95.146832,-60.782444,-87.365868,-101.673031,-113.712948,-52.958611,-82.15416,-99.907597,-113.598679,-42.602646,-69.067086,-86.265244,-99.446721,-30.810883,-52.067872,-65.593083,-77.148697,-15.316276,-18.465683,-14.450597,-11.443796,15.166605,31.468985,39.035041,43.985498,30.784124,47.827695,55.341312,60.218804,41.958948,58.89306,65.238557,68.978273,48.908216,63.914986,69.105899,72.000227,-6.606056,-9.785649,-9.245934,-3.44101,19.184177,-6.43412,-29.72295,-48.266545,27.665554,1.44358,-25.468392,-47.039601,31.163235,8.565983,-18.185372,-39.674801,32.165439,37.243023,32.647121,25.501854,-17.786614,-24.358179,-19.847151,-10.458989,-3.292013,22.491118,33.048116,37.800416,16.232442,39.948984,45.924498,47.021259,31.076302,49.868953,54.638765,55.591475,42.831469,54.33867,57.949711,58.680243,49.783694,302.754434,-17.746347,306.552319
21,-0.134766,0.107384,-4.828045,-0.401958,-26.275223,-51.403633,-75.292465,-95.218002,-60.852425,-87.443504,-101.649994,-113.546013,-52.926453,-82.132805,-99.825886,-113.381973,-42.442955,-68.972088,-86.155872,-99.253452,-30.531349,-51.881378,-65.411087,-76.91954,-15.442247,-18.534312,-14.576926,-11.588947,15.035867,31.404938,39.023852,43.977717,30.689226,47.785025,55.3474,60.212011,41.911956,58.861641,65.210448,68.926971,48.876315,63.851358,69.025697,71.872762,-2.945881,-1.36964,2.840813,11.020454,26.307495,-0.486054,-24.269875,-42.18124,34.579491,6.231308,-20.96061,-41.844635,36.902092,12.935039,-14.58157,-36.087444,36.104576,40.440399,34.216049,25.861713,-14.026458,-17.438823,-8.969878,2.109221,-0.680354,23.90067,34.090513,39.416202,16.744056,39.657633,45.723512,47.582694,30.019197,48.357155,53.882322,56.151354,40.568205,52.615957,56.451251,58.119858,49.666317,302.830418,-22.557003,306.118961
22,-0.129341,0.230168,2.705017,-0.839806,-26.234665,-51.325104,-75.237969,-95.180397,-60.925724,-87.597885,-101.666577,-113.380497,-52.906838,-82.2197,-99.831688,-113.219158,-42.303932,-68.96117,-86.158734,-99.207012,-30.269783,-51.807472,-65.346245,-76.802651,-15.613134,-18.688552,-14.798461,-11.825624,14.862793,31.195036,38.818927,43.777831,30.55608,47.620979,55.19568,60.043421,41.829729,58.7312,65.069583,68.782487,48.843514,63.766958,68.86154,71.604765,-4.637718,-5.500946,-2.439743,5.443222,22.867722,-2.980465,-26.711781,-45.7729,30.575272,4.278934,-23.155323,-45.555954,33.277313,10.168144,-17.056526,-39.275631,33.506561,39.256783,34.74115,27.122154,-14.367221,-18.570819,-12.450575,-2.810385,0.135974,26.523655,37.42007,42.370342,17.417729,41.988848,48.146451,49.172038,30.433654,50.175371,55.685472,57.140287,40.800461,53.373154,57.726632,58.914351,49.550383,303.019253,-19.838579,305.237822
23,0.106338,0.22387,-4.121487,0.066691,-26.179802,-51.219772,-75.150455,-95.147152,-60.890545,-87.739151,-101.821495,-113.4608,-52.82167,-82.352451,-100.023479,-113.328277,-42.18354,-69.067268,-86.370826,-99.411369,-30.159828,-51.978401,-65.562801,-76.96867,-15.782121,-18.80053,-14.918158,-11.948235,14.756879,31.036844,38.690561,43.700297,30.493774,47.506828,55.073674,59.884414,41.812402,58.674871,64.995174,68.662198,48.858581,63.754497,68.757688,71.362531,-1.326851,2.350994,8.776657,18.904507,28.505139,1.374974,-22.650764,-40.892063,36.082455,7.752789,-19.601715,-40.994465,37.913395,13.739342,-14.001709,-35.977535,36.715657,42.043476,36.529873,28.305519,-11.121151,-12.36247,-2.450232,9.192104,2.282406,27.348392,37.698787,43.144506,17.764469,41.340851,47.47626,49.426734,29.373645,48.399837,54.532122,57.264825,38.561823,51.468807,55.902487,58.039397,49.665813,303.188582,-23.950974,305.249972
24,0.302811,0.095269,4.889706,-0.214756,-26.269707,-51.380013,-75.391422,-95.500122,-60.853798,-87.798534,-102.003616,-113.733799,-52.798645,-82.465679,-100.301731,-113.71764,-42.190361,-69.252811,-86.715603,-99.872086,-30.201736,-52.214836,-65.909065,-77.427017,-15.832744,-18.778301,-14.841489,-12.030277,14.701266,30.958853,38.610692,43.634965,30.485981,47.426082,54.927633,59.665508,41.848674,58.691037,64.989023,68.606893,48.938387,63.856743,68.869518,71.484154,-4.187428,-3.804554,0.331512,9.558861,22.494621,-3.920094,-27.379498,-46.500263,29.586479,3.042652,-24.089264,-46.409534,32.077904,8.58181,-18.505142,-40.901287,32.336861,36.359711,29.957245,20.850071,-12.383551,-15.159183,-7.878797,2.152965,1.865356,28.273142,39.153627,44.11668,17.730964,42.561126,48.778169,50.059206,29.697897,50.078337,55.898572,57.523522,39.245635,53.056991,57.761224,59.298834,49.964361,303.214379,-19.065531,304.965744
25,0.559936,0.026589,-1.684204,0.123192,-26.350982,-51.615966,-75.704521,-95.858276,-61.038208,-87.918697,-102.238483,-114.173675,-53.082344,-82.668319,-100.654609,-114.381317,-42.550941,-69.632766,-87.229499,-100.606945,-30.562088,-52.587181,-66.356655,-78.077659,-15.786949,-18.772112,-14.701896,-11.93749,14.562526,30.791016,38.457305,43.582601,30.386007,47.155209,54.638889,59.44811,41.837325,58.502328,64.840798,68.527705,49.042388,63.929856,69.102355,71.902798,-3.617592,-2.548382,2.208298,11.655052,23.618156,-1.511044,-25.100144,-44.279892,31.059883,5.589683,-21.545254,-43.960259,33.804359,11.159958,-15.943462,-38.42815,34.182289,40.061668,35.419968,27.398998,-11.962895,-14.233643,-7.12081,3.076517,2.129241,28.497395,39.405334,44.520689,17.680637,42.442651,48.716481,50.145497,29.416785,49.602896,55.56102,57.310953,38.614953,51.952659,56.586694,58.036705,50.495939,303.150507,-20.778093,304.998475
26,0.319176,-0.237739,6.202583,0.852711,-26.398178,-51.783943,-75.75206,-95.803699,-61.138607,-87.904312,-102.400738,-114.559078,-53.26712,-82.614029,-100.765171,-114.771206,-42.785522,-69.612087,-87.214256,-100.719337,-30.723198,-52.456032,-66.192638,-78.048626,-15.544604,-18.626925,-14.451757,-11.65397,14.621757,30.772627,38.469482,43.790762,30.415104,47.060755,54.582795,59.573315,41.853158,58.480654,64.946614,68.842052,49.118427,64.119973,69.477056,72.485882,-7.55595,-11.017914,-10.327663,-4.534046,16.311905,-7.660892,-30.570408,-49.780529,24.593262,-0.773254,-28.122494,-50.725067,28.63369,5.676636,-21.055984,-43.344303,30.427048,33.992867,27.731873,19.022793,-15.719938,-20.973453,-16.024343,-6.891679,-1.364733,25.228279,36.968589,42.822195,16.391339,41.052564,48.002758,50.14404,29.835774,50.082981,55.889372,57.211708,40.2103,53.643522,58.331453,59.849648,50.772154,302.791629,-14.618471,305.730047
27,0.419312,-0.469661,4.647972,2.44155,-26.461281,-51.959954,-75.804417,-95.745941,-60.919968,-87.644371,-102.445336,-114.942902,-52.994271,-82.197819,-100.700672,-115.12341,-42.504502,-69.150009,-86.961067,-100.753338,-30.446251,-51.960846,-65.791626,-77.863781,-15.373259,-18.418765,-14.034757,-11.098352,14.664056,31.041772,38.945108,44.569015,30.409756,47.222417,54.952161,60.241837,41.776006,58.619456,65.463452,69.726602,48.990035,64.228221,69.867701,73.178857,-7.791252,-12.272117,-13.893516,-11.39677,10.636929,-13.36544,-35.387375,-53.359611,19.237038,-7.701015,-34.379551,-55.622886,24.088944,-0.246895,-26.10046,-47.482258,26.573731,27.887879,20.622712,11.451336,-15.886491,-21.671048,-16.30385,-7.425771,-3.618784,19.960302,31.381127,38.240857,13.783754,36.85556,44.609251,48.598525,27.340662,46.446227,53.070305,55.689399,37.821053,51.379406,56.234421,58.679564,51.130726,302.195741,-10.031239,308.04537
28,0.299698,-0.802805,-1.898014,-0.916957,-26.505364,-52.067459,-75.806054,-95.661862,-60.435025,-87.363602,-102.461861,-115.142922,-52.41996,-81.739346,-100.55167,-115.249993,-41.906731,-68.604081,-86.709893,-100.78941,-29.899315,-51.465477,-65.475197,-77.759194,-15.26727,-18.256682,-13.590228,-10.553738,14.497095,31.225628,39.499417,45.630121,30.280957,47.427454,55.474508,61.176059,41.731793,58.921367,66.115018,70.775383,49.077388,64.627796,70.490763,74.093344,-9.8004,-15.24551,-16.737865,-13.532135,11.12233,-9.756202,-31.505413,-49.881695,20.678021,-3.26057,-29.933075,-52.091171,26.420391,4.193035,-21.104954,-42.875622,29.67017,32.447148,26.470791,17.871815,-16.322819,-22.645617,-19.458394,-11.757624,-4.53737,20.792871,33.615467,40.80986,13.360097,37.98836,46.638493,50.411085,27.279171,47.411275,54.497456,56.760609,37.977726,51.237738,56.873661,59.16638,51.354842,301.253636,-12.004835,306.989113
29,0.548263,-1.344738,-3.970218,-1.026415,-26.727905,-52.079178,-75.47652,-95.10022,-59.606289,-87.031162,-102.378868,-115.143654,-51.527,-81.128094,-100.148186,-115.117699,-40.996879,-67.940586,-86.32624,-100.715515,-29.064216,-50.950447,-65.154281,-77.752476,-15.200087,-18.010014,-12.927239,-9.541476,13.84911,30.864115,39.651162,46.53637,29.811975,47.336593,55.935227,62.372238,41.593978,59.077273,66.874572,72.200631,49.334108,65.248572,71.559428,75.613046,-6.919247,-8.536309,-7.547367,-3.309002,17.221172,-2.633332,-24.191735,-41.758484,26.399162,1.941982,-24.241448,-45.545918,31.025756,8.805988,-15.691967,-36.613964,32.770683,36.572845,31.303047,23.123817,-12.660884,-15.612122,-9.473476,0.538254,-0.941965,24.050983,37.891399,46.652807,14.055382,38.816593,48.603478,54.051642,25.161416,45.599073,53.782509,57.679146,33.035273,46.95363,53.641879,57.488769,51.798723,299.765714,-16.079435,305.819514
30,0.932121,-2.752216,-8.028546,-2.968688,-26.572082,-51.897903,-74.796295,-93.912391,-58.295288,-86.090629,-101.663063,-114.446285,-50.125007,-79.957546,-99.153373,-114.116054,-39.595642,-66.786884,-85.405288,-99.943256,-27.812049,-49.953987,-64.210372,-76.811039,-15.509827,-17.77146,-12.103637,-8.470811,13.028793,30.523278,40.003485,47.561649,29.214922,47.393355,56.837265,64.180834,41.282089,59.213927,67.878609,74.081018,49.347335,65.596635,72.584867,77.338846,-1.348079,3.350979,9.288151,17.126473,28.633507,10.977539,-10.603111,-28.338341,36.152058,12.940682,-13.038322,-34.203094,38.451153,17.178223,-7.373291,-28.14751,37.646198,39.189228,30.784847,20.779209,-2.64913,-0.295365,7.966989,18.66316,5.609926,29.637555,44.15972,53.761971,14.634008,39.225751,50.381025,57.479704,20.586822,41.173582,50.815476,56.651853,23.656027,38.040699,45.940713,51.626333,52.642192,296.904994,-24.196633,302.742322
31,2.207016,-4.575866,-11.259945,-2.447984,-26.176849,-51.623611,-73.899673,-92.385841,-56.894313,-84.999893,-100.752136,-113.47808,-48.577125,-78.588306,-97.702777,-112.619144,-38.06417,-65.344322,-84.034126,-98.638023,-26.531776,-48.665405,-62.775604,-75.191196,-16.390178,-18.307602,-12.057386,-7.949662,12.160916,29.908491,39.993543,48.009945,28.611942,47.224134,57.101705,65.016181,40.916835,58.881759,68.057315,74.78002,49.147523,65.36538,72.712876,77.832763,5.797795,17.916539,29.273564,42.875656,41.466282,29.342469,9.150147,-8.408752,45.30851,28.831536,5.346405,-15.51749,44.309315,29.069493,6.847023,-13.184658,40.655217,45.518555,40.102078,32.150048,5.790633,11.864119,20.57068,31.026013,10.565113,33.785256,47.976032,56.702032,14.180661,38.105722,49.31236,55.946553,15.560215,35.399881,45.695614,51.888501,14.744838,27.560222,35.780189,41.678379,54.768081,292.281413,-35.537705,300.246623
32,2.883934,-6.997656,-13.184269,-3.781274,-25.153976,-50.392272,-71.785331,-90.118824,-53.557422,-82.171875,-98.441333,-111.482208,-45.395072,-75.879627,-95.244678,-110.531753,-35.487121,-62.756378,-81.764728,-96.721801,-24.976272,-46.947464,-61.06446,-73.337562,-17.190302,-19.289334,-12.932426,-8.70372,9.149398,27.469016,38.019395,46.025151,26.401142,45.547005,55.685398,63.61961,39.561204,57.297022,66.377037,73.093296,48.561549,64.532503,71.653783,76.737484,12.804749,32.818646,51.172749,70.934544,57.08424,51.962895,33.23806,16.028984,58.741436,50.13176,28.793896,8.187619,55.006028,47.324948,26.411431,6.585663,48.206452,56.645314,52.50483,45.308018,14.831436,25.118845,33.388979,42.874114,17.509971,38.665588,51.039185,57.972188,14.566181,35.407204,45.24838,50.18104,10.051065,27.434806,37.134154,42.470254,4.455712,13.970697,21.433753,26.625592,57.61762,285.263179,-48.756369,296.444771
33,5.517975,-12.274228,1.035004,-10.137158,-23.763347,-48.463016,-68.486995,-85.476408,-54.379245,-83.148931,-99.282806,-111.56702,-46.726822,-76.950124,-95.126947,-109.12342,-37.144981,-63.7225,-81.160806,-94.505367,-26.816894,-47.745311,-60.760173,-71.723934,-18.234304,-21.35315,-15.787456,-11.783739,6.410181,23.6227,33.591625,40.722723,24.189297,43.194185,53.126275,60.495106,37.792635,55.092149,63.972223,70.267146,47.198835,62.862815,69.822191,74.533655,16.200314,38.146843,57.771229,76.403126,58.123821,59.133511,43.60984,27.949768,57.323902,55.887772,37.500927,18.777111,52.760101,51.748844,33.624287,15.483078,45.836975,54.957241,50.614632,43.599278,23.436319,36.194029,43.673745,51.904877,24.025208,39.775466,48.620966,53.434818,14.202064,30.290084,37.744001,41.153525,4.070118,18.19219,25.675772,29.444338,-6.471727,1.095477,7.027,11.021547,63.197862,272.996407,-47.659098,286.315069
34,7.910637,-17.311123,-8.625126,-14.259288,-21.718815,-45.722179,-64.08554,-78.686445,-59.451656,-88.028623,-103.484138,-113.909992,-52.604484,-81.960451,-97.648504,-108.573601,-43.087852,-68.37133,-82.496309,-92.191635,-32.200973,-51.307674,-62.189712,-70.486919,-19.605669,-24.696157,-20.912999,-17.63475,4.288338,18.84002,27.219489,32.623095,22.255411,40.51849,49.639452,55.660642,35.764382,52.602768,60.899263,66.110281,45.098333,60.436777,66.996332,70.781935,20.573519,46.540529,69.840969,90.290005,66.615589,76.990734,65.322338,51.180691,64.694103,74.161125,59.609928,42.481316,59.858082,68.403397,53.333176,36.578407,52.493334,64.440514,61.755707,55.96423,30.16412,43.919709,49.013451,54.510146,26.103215,35.874693,40.513143,42.211736,11.846428,22.223381,26.453105,27.199513,-1.445447,8.151839,12.934551,14.444132,-14.328182,-10.298394,-6.533094,-4.580373,71.229303,255.821209,-56.16342,272.191706
35,10.440171,-22.373026,-6.575432,-15.486114,-19.996388,-42.384121,-59.394619,-72.537077,-64.727337,-91.931265,-104.76891,-112.413529,-59.324959,-86.681529,-98.169806,-105.491169,-50.269204,-73.25433,-82.895136,-88.621754,-39.037972,-56.6601,-64.625931,-69.358738,-22.119862,-29.855021,-28.311601,-25.225643,0.000142,13.003284,19.738315,23.546216,18.429873,34.706553,41.111152,45.102,32.349386,46.721288,52.193949,55.502474,42.338966,55.364647,59.170134,60.782863,22.822478,50.683611,74.891178,94.911312,71.883076,90.947651,84.814236,73.998379,69.652829,89.019242,80.238888,66.38308,65.163151,82.767746,72.797848,59.11179,57.683356,73.823067,75.167885,72.070736,27.981168,39.0786,42.314124,46.32687,21.454298,24.254525,24.140391,22.795023,7.320975,10.781153,10.749913,8.418792,-5.434659,-1.146476,-0.14457,-1.63486,-17.157092,-16.62807,-15.881304,-16.724543,81.813715,233.706991,-62.594611,256.9644
36,11.452789,-27.247104,-8.44226,-20.481401,-17.888008,-38.178555,-53.790585,-65.330847,-69.703148,-95.99639,-105.482929,-109.487709,-66.457169,-92.436487,-99.417555,-102.447292,-58.438374,-79.705433,-84.698141,-86.20546,-47.298615,-63.791039,-68.713074,-69.809979,-24.483628,-35.013978,-35.984454,-33.291274,-7.067489,3.922874,9.596715,12.253474,11.69638,25.855086,30.648042,33.11447,26.278527,38.365074,41.947703,43.875634,37.315842,48.089578,49.884342,49.930877,24.096674,52.627264,77.815132,95.827297,74.772079,101.542339,100.213153,92.212383,73.121967,99.485664,95.713382,85.658798,69.525684,92.668556,87.080429,76.658283,63.149179,81.684757,83.865898,81.19606,18.703008,26.528199,27.742348,29.763767,20.232862,20.826253,16.987483,13.324189,10.803352,11.997105,7.98673,3.113752,1.244759,3.893518,0.999653,-3.095628,-8.187327,-7.72313,-9.704287,-12.927214,93.459303,207.602637,-70.844072,237.625749
37,12.797767,-31.622732,-9.720086,-26.84472,-15.757781,-33.998027,-48.191493,-57.275911,-76.499771,-101.82847,-106.816417,-105.846336,-75.902504,-100.460466,-101.938058,-99.47953,-68.987583,-88.734409,-88.233209,-84.712783,-57.632743,-72.945465,-74.181198,-71.306591,-27.174433,-40.463686,-43.724843,-41.03598,-14.754439,-6.855006,-1.655315,0.565677,3.742705,15.154054,19.139846,20.764938,18.645108,28.342278,31.048818,32.174913,30.519728,38.891484,39.662771,38.799513,25.666804,54.942542,80.304017,97.632855,79.177563,112.52013,114.981274,108.772282,76.259411,109.130723,109.805615,103.044068,71.893387,99.628853,98.446873,91.214058,65.447131,85.996067,89.856171,88.45213,8.999191,13.996386,15.335061,17.545756,17.839009,19.625109,15.110839,10.858594,15.400152,17.257833,11.223465,4.749891,11.164605,13.672758,7.770611,1.723967,5.29348,7.39263,3.520268,-1.548576,106.50385,177.572019,-80.317378,212.373143
38,11.561303,-32.211815,-12.704647,-21.328382,-13.41362,-29.257908,-42.188473,-50.154339,-77.914067,-102.714135,-104.557778,-100.146241,-79.707276,-103.936879,-102.19495,-96.347615,-74.274227,-93.757645,-90.572857,-84.3792,-63.547978,-79.044892,-78.439934,-73.363392,-29.213379,-44.807683,-49.975513,-47.603482,-23.104046,-17.925397,-13.108757,-10.824026,-4.959194,2.996074,5.905819,7.106639,10.355451,16.796584,18.180306,18.63398,23.414002,28.81825,28.126979,26.438278,29.260809,60.879656,86.773465,104.840424,85.665814,124.081375,130.262284,126.359711,81.173767,118.52583,123.94384,120.471188,75.033051,106.157719,108.674652,104.098927,67.104979,89.971253,96.067967,96.173504,-3.468724,-2.779713,-2.475944,-1.592401,11.730967,14.896534,10.506629,6.322112,17.735564,19.844582,12.80509,5.848147,19.766424,21.44196,13.823188,6.954017,18.7186,20.733559,15.039807,8.80987,118.268956,147.506213,-92.818222,193.19077
39,10.324836,-32.800899,-5.772686,-21.423188,-10.855522,-23.958194,-35.78152,-43.966129,-73.946033,-98.653381,-98.707008,-92.38742,-77.871483,-102.865722,-100.188228,-93.051544,-74.298305,-94.775138,-91.717083,-85.204708,-65.044315,-82.089317,-81.48928,-75.980381,-30.600466,-48.045967,-54.736464,-52.99378,-32.116309,-29.2883,-24.76361,-21.915635,-14.409317,-10.618854,-9.05404,-7.860426,1.409558,3.727993,3.34217,3.252836,15.998667,17.869878,15.276966,12.847173,30.395314,62.320095,87.822132,105.908799,86.310459,127.449738,136.831032,135.835877,80.592934,120.699074,130.426987,130.642228,73.061348,106.617577,113.714928,112.821694,64.322399,89.522095,98.056012,100.243046,-13.952283,-16.738912,-17.388749,-18.921493,8.614282,14.438877,11.221742,7.936633,21.794104,25.255869,18.56767,11.983878,29.061597,31.228826,23.498749,16.828099,31.718198,33.91839,27.612302,21.383267,128.93672,117.130336,-98.24798,174.192604
40,9.943383,-27.760373,0.091748,-19.654236,-7.729889,-20.247631,-32.138935,-40.402211,-64.630429,-93.215081,-96.310639,-92.366684,-70.019783,-99.827019,-101.291508,-97.340836,-68.935993,-93.731598,-94.92516,-92.032093,-62.87859,-82.702813,-84.82956,-82.644665,-30.775535,-50.082514,-58.600582,-58.903042,-38.907088,-40.585748,-37.480144,-35.468294,-21.269337,-22.470216,-21.675509,-21.096547,-4.835817,-6.817916,-8.424606,-9.478234,10.597933,9.305509,5.896189,2.812787,29.562412,60.158477,84.584289,101.728672,81.051452,122.392398,134.113987,136.148655,74.556701,115.310566,128.162784,132.016101,66.414241,100.935321,111.747562,114.306598,57.857139,84.408359,94.164436,97.771705,-23.153119,-28.609182,-29.550672,-33.163935,7.890783,17.409337,16.447303,14.796937,27.494118,33.757351,28.761113,23.328361,39.411058,43.432295,36.746454,30.665026,45.165678,48.362991,42.374041,36.488189,139.429671,91.981404,-97.606664,157.149809
41,9.019592,-21.199837,3.416816,-14.967274,-5.767857,-17.343487,-29.669998,-39.03772,-54.528488,-86.409016,-93.802116,-94.150566,-60.703697,-94.635681,-101.770477,-102.805641,-61.822472,-90.851852,-97.633896,-99.224041,-58.794079,-81.926274,-87.919739,-89.859215,-30.567574,-51.321838,-61.958106,-64.613272,-42.810659,-48.425691,-47.554405,-46.756331,-25.440743,-31.268503,-32.54017,-33.129895,-8.754297,-14.828154,-18.308407,-20.626428,7.134377,2.665661,-1.830374,-5.931411,28.722519,58.687214,82.814198,100.395413,78.884102,118.404728,131.694638,136.319859,72.071892,112.766499,127.646313,134.06892,63.518509,98.712788,111.727215,116.828007,54.630398,81.884743,93.496273,99.153225,-23.431367,-29.02228,-30.042589,-34.837805,6.482823,16.06109,17.224839,17.302434,26.734513,32.771579,29.84482,25.863091,39.614624,43.35171,38.237627,33.211687,46.380061,48.87311,43.700834,38.38568,149.219702,72.704808,-93.419409,144.105776
42,6.571335,-13.397011,3.985428,-7.837943,-4.505162,-15.14558,-28.165398,-39.31691,-44.345352,-79.102444,-91.877449,-97.760445,-50.769928,-88.224129,-101.716599,-108.419609,-53.550591,-86.433243,-99.27118,-105.708081,-53.020031,-79.416081,-89.637154,-95.725868,-30.4841,-52.309388,-64.653228,-69.838851,-43.381634,-52.38293,-54.044738,-54.66667,-25.787336,-36.026546,-39.89838,-41.987226,-9.01029,-19.145113,-25.08076,-29.070525,6.881682,-0.901531,-6.939616,-12.323579,28.239063,58.169483,82.492962,100.23959,77.159603,114.646054,129.728611,137.29945,70.687042,110.470997,127.1945,136.012562,62.246521,97.554554,112.529125,120.085133,53.465321,81.427117,94.404865,101.789108,-23.106578,-28.94931,-29.996362,-35.924266,6.015138,15.741421,18.440087,19.840673,26.229123,32.733714,31.573621,29.123081,39.462941,44.256292,40.980642,37.177632,46.764334,49.323666,45.307728,40.880434,156.605427,60.723969,-88.619591,137.684005
43,4.637329,-5.666813,4.100807,-0.912745,-3.298119,-13.860947,-28.04615,-40.556214,-36.026573,-72.886551,-90.045548,-101.006996,-42.600014,-82.402863,-101.15268,-113.206535,-46.793221,-82.255165,-99.854462,-110.73951,-48.481613,-76.85566,-90.576233,-100.445686,-30.507575,-52.840847,-66.114252,-73.025476,-42.615899,-53.510326,-57.121114,-59.311592,-24.635494,-37.655939,-43.358071,-46.912147,-7.813953,-20.717758,-28.436226,-33.866699,7.759723,-2.311553,-9.194742,-15.366492,28.088128,57.868504,82.413426,100.649907,76.29934,111.516827,127.709622,137.508282,70.00541,108.553128,126.754818,137.638882,61.512062,96.051945,113.0873,123.438893,52.589802,80.404862,94.673596,104.087162,-22.575056,-28.091924,-28.699807,-34.869637,6.523924,16.156174,20.21777,22.935702,26.354723,33.434038,34.002635,33.074132,39.622096,45.777846,44.620137,42.243104,47.262845,50.261976,47.599138,44.220266,162.364037,55.836785,-83.397503,137.550889
44,2.563156,1.504388,3.666962,4.106118,-2.622208,-13.545021,-29.070465,-42.882179,-28.676399,-67.602676,-88.564018,-104.422279,-35.266686,-77.115761,-100.28334,-117.407181,-40.645752,-78.084526,-99.691612,-114.809761,-44.377235,-74.068268,-90.518051,-103.585693,-30.370168,-52.612333,-66.14049,-73.778738,-40.002924,-51.610797,-56.472956,-60.028922,-21.316471,-35.907593,-42.967586,-47.908298,-4.336343,-19.073474,-27.98554,-34.483697,10.489135,-1.302378,-8.547313,-15.093629,28.506054,58.298309,82.970776,101.508968,75.299194,108.854908,125.426937,136.043301,68.639809,106.07301,124.640591,136.434712,60.041897,93.711124,110.770924,121.9174,51.124695,78.143177,92.34795,102.220539,-22.095712,-27.010958,-26.865665,-32.065865,8.053273,18.021024,22.902246,26.263593,27.699487,35.9065,37.331156,37.121353,41.003404,48.495742,48.216346,46.325943,48.938233,53.107448,51.084788,47.826071,166.139008,57.810035,-78.518726,142.125869
45,-0.354973,3.257933,3.984982,5.759381,-2.455994,-12.572273,-28.173111,-43.237038,-26.263985,-64.707939,-86.848732,-104.205047,-33.045868,-74.383255,-98.797417,-117.114029,-38.795517,-76.205978,-99.153602,-115.127151,-42.964119,-73.034592,-90.459984,-103.904205,-29.792462,-51.470833,-64.6671,-71.841109,-37.376722,-48.501836,-53.637328,-57.160597,-18.544056,-32.520113,-40.220834,-45.838504,-1.844824,-16.078782,-25.06837,-31.85847,12.361747,0.67826,-6.408075,-12.84387,28.365074,57.839092,82.305381,101.11647,74.386516,107.082779,123.67456,134.31031,67.220672,103.794456,122.325256,134.277717,58.252281,91.039856,107.932525,119.130249,49.19308,75.572776,89.71717,99.687446,-21.412197,-25.427567,-24.42716,-28.820801,10.072035,20.845753,25.976471,29.478214,29.167288,38.212427,39.908809,39.908118,42.136097,50.428572,50.513566,48.839302,50.082437,55.123592,53.371152,50.229328,166.83958,61.209624,-73.478199,148.026906
46,-1.369606,3.193781,2.546344,3.669752,-1.675781,-11.880318,-27.716125,-43.06176,-25.40348,-63.211624,-85.698212,-103.547287,-32.512779,-73.21962,-97.704597,-116.188454,-38.406464,-75.383926,-98.438484,-114.854736,-42.670944,-72.602188,-90.031814,-103.489357,-29.678051,-50.828611,-63.205555,-70.155347,-35.361664,-46.280032,-51.567454,-55.115127,-16.05394,-29.775814,-37.821399,-43.76232,0.392924,-13.451883,-22.675474,-29.868557,13.981145,2.453214,-4.807647,-11.244207,28.124989,57.401928,81.70332,100.767002,73.113728,105.587368,121.865948,132.458966,65.859032,102.188656,120.465351,132.188931,56.732415,89.441861,106.311573,117.347248,47.363961,73.719143,87.782971,97.565129,-20.768559,-24.246577,-22.696851,-26.633712,11.291841,22.686633,28.105873,31.736155,30.43148,40.089751,42.2791,42.499956,43.38374,52.129118,52.527791,51.041952,51.180916,56.488289,54.8748,51.967109,166.306343,64.235017,-70.095486,151.52827
47,-1.067894,0.427461,1.711407,0.255301,-1.218109,-12.115036,-28.130356,-43.179336,-25.092087,-61.959114,-84.315422,-102.290954,-32.315712,-72.129684,-96.420181,-115.142715,-38.272636,-74.565719,-97.643921,-114.533615,-42.689461,-72.33577,-89.817467,-103.465507,-29.260032,-49.797033,-61.600062,-68.790682,-34.298303,-44.991276,-50.742358,-54.620253,-15.156238,-28.483242,-37.074139,-43.327603,0.97909,-12.192039,-21.699966,-29.33546,14.154232,3.307389,-4.106699,-10.73153,27.252388,56.34177,80.734406,100.10685,71.87962,104.609596,120.494751,130.784111,64.7337,101.107498,119.178955,130.649735,55.507221,88.185173,105.172463,116.095551,45.903362,72.359001,86.354988,95.945732,-20.981678,-24.037904,-22.073209,-25.909145,12.165363,23.391439,28.50173,31.845342,31.353402,40.494426,42.637931,42.748489,44.060932,52.304822,52.682105,51.237812,51.459941,56.312992,54.579115,51.802717,165.929146,64.55716,-67.693382,151.678253
48,-0.773552,-2.984762,1.051071,-4.028473,-1.650718,-13.132416,-28.94593,-43.362098,-23.764526,-59.767891,-82.155853,-100.30561,-31.093574,-70.258095,-94.364616,-113.029403,-37.401146,-73.338753,-96.66925,-113.921768,-42.432495,-72.13575,-89.535095,-103.138756,-28.90291,-49.1958,-61.067977,-69.156423,-34.465696,-45.45801,-51.586936,-55.548441,-15.546031,-29.02462,-38.284193,-44.782257,0.52444,-12.479876,-22.379658,-30.43411,13.582824,2.732993,-5.102078,-12.101988,25.857319,54.763207,79.271256,98.835251,70.29443,103.630875,119.141762,129.077454,63.314965,100.087784,117.882088,129.024239,53.994015,87.124764,104.153069,114.72052,44.182068,71.197151,85.175171,94.440949,-21.755868,-24.896537,-22.81335,-27.125443,12.095979,23.20247,27.784524,30.640838,31.453029,39.833165,41.684579,41.524694,44.062822,51.500473,51.590617,49.979474,51.164255,55.586955,53.519304,50.701608,165.625511,61.442481,-66.172394,147.519863
49,-0.53334,-5.063132,-0.426521,-6.711368,-1.806656,-13.946686,-29.48909,-43.036537,-22.32042,-56.647202,-78.882935,-97.053383,-30.071343,-67.782761,-91.76017,-110.387146,-37.014336,-72.009362,-95.18248,-112.538933,-42.802986,-72.223183,-89.443703,-102.905663,-29.064808,-49.46657,-61.9749,-71.46813,-36.167754,-47.42691,-54.004502,-58.269301,-17.65892,-31.086881,-41.024195,-47.984337,-1.649947,-14.256312,-24.829989,-33.584327,11.533278,0.569147,-7.977264,-15.686735,24.750698,53.372269,77.917786,97.290481,69.611011,103.191101,118.490341,128.443909,63.199688,99.762703,117.325928,128.315208,54.05611,87.009293,104.115166,114.576851,44.113872,71.19405,85.042648,94.137222,-22.767538,-26.429529,-24.479833,-29.185474,10.253051,20.796081,24.948154,27.491999,29.786571,37.13035,38.861695,38.564849,42.512441,48.872265,48.875056,47.049207,49.762211,53.445525,51.216779,48.252327,165.355963,55.759665,-66.335123,140.188811
50,-0.104508,-5.702305,-0.697094,-6.69238,-1.373611,-13.833091,-29.410446,-41.975212,-21.60601,-54.561264,-76.388809,-94.389473,-29.747154,-66.259987,-89.657501,-107.954338,-37.112846,-71.171722,-93.6912,-110.711746,-43.399063,-72.279213,-89.193283,-102.621551,-29.414346,-50.255437,-63.253028,-74.485731,-37.902341,-49.489491,-56.529866,-61.226923,-19.636446,-33.342271,-43.773533,-51.108951,-3.673612,-16.302134,-27.41609,-36.843062,9.623832,-1.868524,-10.863608,-19.074857,23.919159,52.315453,76.903141,96.148487,69.147171,102.757198,117.989216,127.83411,63.059463,99.601925,117.035007,127.702618,54.101669,87.212574,104.109295,114.114841,44.257542,71.606232,85.268612,93.978275,-23.492679,-27.81359,-26.409206,-31.487665,8.386972,18.095779,21.923971,24.354838,28.107225,34.500566,35.781443,35.376286,41.083864,46.605969,46.13963,44.191799,48.590133,51.699402,49.083334,45.943202,165.51139,49.323997,-66.772282,132.763068
51,-0.230209,-3.645782,-0.918011,-4.58495,-0.756661,-12.750183,-28.082954,-40.463036,-21.004898,-54.01783,-75.711914,-93.423912,-28.981407,-65.575493,-88.739662,-106.598305,-36.240761,-70.26812,-92.550797,-108.986183,-42.596489,-71.401588,-88.244202,-101.402069,-28.95964,-50.272041,-63.746907,-75.451439,-38.46133,-50.354811,-57.523571,-62.424812,-20.582739,-34.667545,-44.932693,-52.324446,-4.50003,-17.705955,-28.7724,-38.160846,9.090557,-3.030382,-11.946012,-20.041213,23.910382,52.44999,76.998482,96.023438,69.398987,102.328675,117.676438,127.590523,63.326088,99.223274,116.641159,127.268555,54.489636,86.974983,103.699677,113.591561,44.786877,71.522999,85.010811,93.602646,-23.742138,-28.138347,-27.047903,-32.419707,7.873622,16.808154,20.290383,22.433604,27.473574,33.205012,33.78433,33.01266,40.489634,45.630146,44.642127,42.211853,48.200211,51.234255,48.405654,44.88425,165.548607,44.87453,-67.422867,127.374433
52,-1.088608,1.819433,-0.849357,-0.595558,0.331856,-10.510551,-25.438248,-37.194626,-20.394859,-53.42308,-74.71328,-91.996101,-28.185814,-64.586197,-87.382118,-104.712799,-35.097153,-68.927902,-90.748581,-106.601784,-41.089004,-69.437256,-86.355079,-99.486076,-28.783009,-50.520068,-64.347856,-76.094884,-38.618745,-50.551783,-57.688729,-62.767657,-21.24003,-35.49121,-45.130776,-52.284673,-5.580551,-19.166963,-29.506959,-38.412523,7.66146,-4.389244,-12.577639,-20.188976,24.643627,53.245548,77.699295,96.472549,69.898922,101.872146,117.43016,127.666145,63.661789,98.701423,116.084999,126.935714,54.942238,86.759491,103.243583,113.407058,45.418682,71.410949,84.692642,93.429153,-23.306093,-27.60181,-26.742146,-32.129554,7.625102,16.467526,20.025301,22.197174,26.910583,32.904633,33.197837,32.26958,40.044932,45.61046,44.315183,41.598202,48.158319,51.499288,48.813306,45.259471,164.738651,45.882563,-67.993572,125.967475
53,-1.239876,5.075378,-0.852528,3.672507,1.988961,-8.045333,-22.907982,-35.012832,-20.645141,-53.118896,-73.826637,-90.706718,-28.314537,-63.824203,-86.327797,-103.639068,-34.473861,-67.449348,-88.568916,-104.185569,-39.511917,-66.993003,-83.48426,-96.472503,-27.845904,-48.8704,-61.971825,-72.342843,-36.462291,-47.196174,-53.893568,-59.066505,-20.279595,-32.980216,-41.571847,-48.24364,-5.932257,-18.403716,-27.319315,-35.063298,5.932566,-4.570148,-11.429915,-18.072339,25.977322,54.625362,78.815586,97.308025,70.539974,101.331837,117.14645,127.618984,64.018192,97.907696,115.404385,126.467548,55.321564,85.92136,102.220402,112.780552,45.899769,70.591496,83.668797,92.719311,-22.274355,-25.964072,-24.908325,-29.678792,8.742747,17.484864,21.284392,23.641923,27.594703,34.342961,34.574735,33.607983,40.606676,47.106425,45.762144,42.943435,48.809848,52.683723,50.37921,46.905947,163.655571,50.252168,-68.689304,128.934209
54,-0.80619,12.350391,-0.380962,7.17215,2.912819,-6.198784,-20.797394,-34.119919,-22.790039,-57.035431,-76.50396,-91.13356,-30.912048,-68.411339,-89.31015,-103.905052,-36.789757,-71.001846,-90.577309,-104.092186,-40.944992,-69.570259,-84.857369,-96.181137,-28.095005,-49.088478,-61.821938,-70.84597,-35.920493,-46.858498,-53.120366,-57.915211,-19.399707,-32.66879,-40.844816,-46.631546,-5.308368,-18.624838,-27.145389,-33.526991,5.984306,-4.42924,-11.599655,-17.587709,27.043796,55.741539,79.848953,98.547638,70.325306,100.60865,116.637909,127.16835,63.333744,97.029052,114.726997,125.759262,54.576988,85.036789,101.305893,112.013374,45.3796,69.731861,82.860054,92.03936,-21.279087,-24.010413,-22.265828,-26.109544,10.817487,19.938603,23.98013,26.483949,29.403484,36.837789,36.733109,35.57151,42.155228,49.505392,47.755657,44.753475,50.098146,54.410387,52.12188,48.792866,162.954397,62.492921,-68.96525,135.996721
55,0.448608,13.309752,-0.948796,7.9851,2.902016,-5.61367,-19.950897,-33.849701,-23.86306,-59.157943,-78.372848,-92.710533,-31.749366,-70.425132,-91.284393,-105.818619,-37.2724,-72.246963,-91.763809,-105.25019,-40.819862,-70.153564,-85.197715,-96.332748,-27.632328,-48.128778,-60.457556,-68.320415,-33.818089,-45.422788,-51.67947,-56.42066,-17.293426,-31.535596,-39.511119,-44.791508,-3.51279,-17.893658,-26.161328,-31.800759,7.213565,-3.475017,-10.340971,-15.881774,28.234532,57.200798,81.300076,100.103794,70.273911,100.243801,116.300778,126.979351,62.770581,96.101773,113.744374,124.861279,53.787381,83.775868,100.207569,111.395954,44.488209,68.187733,81.389065,90.831745,-20.346958,-21.950666,-19.419547,-22.374904,13.534844,23.081026,27.079921,29.329266,31.838432,39.927427,39.742905,38.259487,44.060506,52.021419,50.355145,47.092612,51.37136,56.150879,54.027245,50.625254,163.466097,75.977068,-69.850954,144.156216
56,1.21241,11.394605,-1.022792,7.013519,2.660294,-6.081413,-20.468948,-34.462257,-24.43444,-59.644729,-78.613495,-92.887871,-32.620376,-71.169571,-91.894432,-106.50975,-38.291404,-73.239532,-92.694168,-106.402817,-41.72081,-71.158882,-86.023956,-97.110809,-27.597284,-47.47355,-59.276573,-66.363544,-31.941567,-43.928959,-50.332569,-55.160395,-15.05969,-29.9051,-38.594143,-44.245454,-1.524673,-16.298125,-25.256863,-31.161326,8.637031,-2.026877,-9.38174,-15.173712,28.655834,57.739654,81.943885,100.988548,70.062423,100.203071,116.081291,126.811386,62.21054,95.627906,113.147918,124.297554,52.847911,82.846664,99.348632,110.768234,43.208862,66.960044,80.311912,90.033462,-19.716943,-20.545498,-17.086394,-19.332751,15.658052,25.332489,29.131461,31.36937,33.761643,41.929395,41.842944,40.342187,45.451391,53.41276,52.048163,49.006856,52.181976,56.841637,54.913555,51.806904,164.689945,87.900532,-70.862308,151.698594
57,2.407814,7.731498,-1.157799,4.712718,2.215714,-7.17707,-21.81736,-36.525764,-24.988678,-60.421051,-79.617279,-94.086044,-33.509514,-72.50782,-93.560302,-108.618461,-39.599327,-74.989242,-94.882393,-109.088264,-43.442505,-73.640373,-88.247612,-99.147812,-27.243856,-46.556871,-57.951305,-64.415208,-29.843554,-42.676834,-49.688019,-54.879401,-12.388812,-28.393957,-38.37932,-44.837635,1.299858,-14.289502,-24.715041,-31.346776,11.252351,-0.150566,-8.746588,-15.268561,28.450104,57.715576,82.173591,101.502662,69.859806,100.293503,115.96083,126.647667,61.726135,95.39685,112.79116,123.767738,51.905994,81.927521,98.392982,109.566993,41.817123,65.5933,78.993313,88.50991,-19.375464,-19.755316,-15.585236,-17.428764,17.192735,26.781697,30.24813,32.343976,35.321717,43.399646,43.480107,42.054191,46.612002,54.263409,53.269585,50.382321,52.897292,57.411778,55.411374,52.275441,167.107132,96.328726,-72.010734,157.108008
58,2.594399,6.083428,-0.551857,1.9112,1.655525,-8.143227,-22.995964,-37.955979,-25.384461,-61.905464,-81.600472,-96.383057,-34.204628,-74.509415,-95.979332,-111.31659,-40.924874,-77.349015,-97.845864,-112.409065,-45.41835,-76.830918,-91.605446,-102.484955,-27.941845,-47.654516,-59.407181,-66.458973,-30.110452,-44.638323,-52.534873,-58.088199,-11.222137,-29.637789,-41.236629,-48.682209,3.559059,-13.932338,-26.319631,-34.196544,14.277054,1.009348,-9.33925,-17.026268,27.666057,57.036461,81.778312,101.493026,69.452923,100.412521,115.811371,126.393837,61.080883,95.411384,112.567657,123.267471,50.784187,81.621254,98.084038,108.875129,40.294624,64.938137,78.557934,87.856888,-19.416763,-19.528136,-14.792546,-16.581789,17.997416,27.659948,30.720755,32.617333,36.267832,43.847176,43.857563,42.372749,47.424032,54.394789,53.548524,50.714934,53.518304,57.762348,55.526872,52.237971,169.656613,103.182589,-72.607509,159.789643
59,2.416626,-0.572068,-0.713288,-0.57933,1.467727,-8.85878,-24.181938,-38.777275,-24.342865,-60.107254,-80.9832,-97.885208,-32.734291,-71.841294,-94.863556,-113.003838,-39.507958,-75.150055,-97.10566,-113.91005,-44.484833,-75.24424,-90.935028,-103.435272,-27.121849,-46.40893,-57.887232,-65.329596,-28.430198,-43.190727,-51.749834,-57.905572,-9.51115,-28.397076,-40.898644,-49.581073,5.383364,-12.361383,-25.547831,-34.751446,16.204339,2.475389,-7.763886,-16.040522,27.146176,56.732071,81.592369,101.306694,69.664582,100.595673,115.723069,126.390473,61.289154,95.409691,112.244683,123.016549,50.703782,81.200432,97.573037,108.318283,39.790432,64.238137,77.849854,87.142685,-19.372179,-19.374205,-14.491698,-16.687765,18.345096,27.843075,30.71169,32.499933,36.633345,43.929206,44.356555,43.115471,47.737316,54.296285,54.088334,51.520134,53.811556,57.882588,55.802834,52.499619,171.953161,103.267233,-73.440875,159.867025
60,0.772842,-1.108185,-0.636257,-1.43981,1.619202,-8.97805,-24.435676,-38.952324,-24.104805,-59.541939,-80.612137,-97.861084,-32.567024,-70.927185,-94.224037,-112.816818,-39.433502,-74.680069,-96.891838,-114.132019,-44.613968,-75.128128,-90.944801,-103.685486,-27.107912,-46.217979,-57.657027,-65.112092,-28.40401,-42.97767,-51.66268,-58.057534,-9.395035,-28.197258,-41.296107,-50.692951,5.56733,-11.997531,-25.754751,-35.581168,16.469934,2.877248,-7.75177,-16.326933,26.950619,56.703106,81.755322,101.596882,69.974591,100.605686,115.591061,126.411267,61.596668,95.417118,112.228878,123.298199,50.843228,80.998684,97.359501,108.264027,39.636177,63.926983,77.512734,86.935513,-19.221866,-19.376328,-14.512977,-16.999481,18.136442,27.730887,30.744295,32.686197,36.443327,43.817154,44.758526,43.872531,47.722237,54.277562,54.557032,52.287865,54.102982,58.084982,56.232185,53.114926,172.545559,102.657118,-74.257576,158.925285
61,-0.042526,-0.442553,-0.222244,-0.982671,1.707619,-8.916733,-24.315949,-38.945938,-24.230942,-59.164307,-80.467095,-98.065956,-32.684372,-70.471459,-94.003395,-112.978821,-39.555176,-74.32235,-96.651169,-114.216889,-44.780205,-75.079033,-91.067825,-104.047943,-27.257249,-46.334502,-57.866534,-65.782597,-28.943696,-43.366734,-52.331208,-58.987266,-10.150483,-28.583463,-41.763792,-51.350476,4.793104,-12.361895,-26.024168,-35.888568,15.830119,2.524493,-8.105192,-16.826321,26.866779,56.550796,81.697346,101.715534,70.139477,100.439449,115.578632,126.495586,61.705456,95.312588,112.370922,123.773861,50.838169,80.931942,97.328327,108.327473,39.534233,63.841816,77.487968,86.915531,-19.297424,-19.682969,-15.037313,-17.308826,17.854822,27.676991,30.95059,32.973028,36.032686,43.772458,45.106168,44.510067,47.453845,54.343944,54.865945,52.731924,54.10802,58.595027,56.814541,53.526702,172.271313,102.513668,-74.71154,158.241717
62,-0.471016,-0.202591,0.090214,-0.51164,1.808807,-8.85054,-24.266396,-39.127029,-24.503426,-59.19397,-80.588264,-98.319878,-32.976677,-70.398926,-93.821732,-112.690384,-39.846725,-74.279251,-96.40377,-113.893982,-44.950287,-75.008446,-91.031937,-104.232559,-27.274002,-46.428461,-58.037236,-66.147807,-29.534209,-43.633391,-52.548755,-59.033159,-10.741818,-28.667085,-41.895413,-51.46317,4.297897,-12.530103,-26.019703,-35.681858,15.603977,2.425396,-8.12,-16.734257,26.700691,56.29739,81.410248,101.567024,70.07119,100.211334,115.453468,126.381065,61.635521,95.209167,112.424331,124.016624,50.740162,80.949486,97.447654,108.586738,39.452671,64.052891,77.90514,87.555954,-19.457987,-19.987472,-15.37789,-17.303972,17.609909,27.669495,31.101275,33.145374,35.631124,43.53162,44.965835,44.42363,47.119628,54.194768,54.804541,52.729813,53.935083,58.712749,57.000731,53.626084,171.525204,102.437301,-74.896419,157.856301
63,-0.408005,0.780303,-0.425492,0.227032,1.796517,-8.784965,-24.146576,-39.216362,-24.547233,-58.92604,-80.287056,-97.995987,-33.112564,-70.15155,-93.489898,-112.183777,-40.078125,-74.211273,-96.263534,-113.609436,-45.185554,-75.048134,-91.173363,-104.442169,-27.038406,-46.42036,-58.283602,-66.390536,-29.664243,-43.662308,-52.525938,-58.931333,-10.981841,-28.943573,-42.377653,-52.116421,4.061812,-12.973169,-26.605776,-36.35206,15.663146,2.261294,-8.394697,-17.084696,26.647236,56.204213,81.438263,101.667687,69.949814,99.97506,115.356492,126.486603,61.628586,95.25412,112.721054,124.636277,50.859856,81.150193,97.811829,109.148095,39.668576,64.306572,78.230473,87.91095,-19.570855,-20.466767,-16.178089,-18.120659,17.182929,27.146259,30.590018,32.625423,35.119633,42.958823,44.429162,43.994513,46.673851,53.68876,54.241895,52.135391,53.684808,58.499018,56.703872,53.219,170.76547,103.291266,-75.67364,158.156995
64,-0.709808,1.826515,-0.354183,0.947264,1.71524,-9.002083,-24.390221,-39.483078,-24.802254,-59.108643,-80.563477,-98.392021,-33.438286,-70.198403,-93.56543,-112.229965,-40.48542,-74.358948,-96.407639,-113.66732,-45.614662,-75.216683,-91.409203,-104.72921,-27.171922,-46.831043,-58.875658,-67.096046,-29.840614,-43.82586,-52.828471,-59.389341,-11.207878,-28.999518,-42.587017,-52.488628,3.80398,-13.197168,-26.822464,-36.53699,15.455042,2.131464,-8.553061,-17.324448,26.333187,55.897465,81.321179,101.785984,69.681816,99.908306,115.483418,126.642048,61.406147,95.571247,113.320645,125.286061,50.700497,81.62566,98.411579,109.696049,39.646294,64.792591,78.786038,88.343823,-19.858365,-21.194767,-17.231243,-19.060228,16.667942,26.41606,29.653066,31.587855,34.591518,42.163601,43.395052,42.903395,46.209525,52.998736,53.266473,51.102232,53.324234,58.007398,55.956815,52.385875,169.718468,105.134383,-76.365017,159.120861
65,-1.025757,2.621762,-0.477127,1.414714,1.562279,-9.448036,-24.990852,-40.272125,-25.453217,-59.751801,-81.384956,-99.466164,-34.105591,-70.682945,-94.138252,-112.82856,-41.139748,-74.796661,-96.888771,-114.066376,-46.173248,-75.534622,-91.78466,-105.118034,-27.459982,-47.471469,-59.728876,-68.040376,-30.202132,-44.181598,-53.213701,-59.768236,-11.567488,-29.063862,-42.606234,-52.489783,3.445834,-13.253775,-26.744702,-36.33895,15.130031,2.063261,-8.629527,-17.510737,26.312645,55.787087,81.144699,101.45216,69.455887,100.076328,115.835186,127.036892,61.312409,95.864651,113.70615,125.515354,50.77993,82.243023,99.111294,110.252232,39.942822,65.6292,79.734593,89.211971,-20.164461,-22.064312,-18.626234,-20.64441,15.835127,25.323683,28.539422,30.575914,33.817786,41.10389,42.101258,41.587334,45.484637,52.159412,52.21022,50.034,52.611425,57.390857,55.208635,51.560248,168.315748,107.76709,-77.219107,160.54652
66,-1.763535,2.750191,-0.696968,1.786674,1.254548,-10.063568,-25.694778,-41.140823,-25.827621,-60.476531,-82.339851,-100.55104,-34.368255,-71.207221,-94.856208,-113.542808,-41.328826,-75.200889,-97.50325,-114.584289,-46.285835,-75.720542,-91.999671,-105.33181,-27.554318,-47.849233,-60.250785,-68.632403,-30.240968,-44.08486,-52.964292,-59.335415,-11.482026,-28.739883,-42.085499,-51.784032,3.530598,-12.987334,-26.380826,-35.896515,15.141645,2.23316,-8.442307,-17.327382,26.090836,55.534962,80.98447,101.316708,69.137375,100.281269,116.274548,127.524548,61.053486,96.259243,114.320492,126.120152,50.684338,82.787991,99.927372,111.14011,40.078926,66.27602,80.559403,90.102665,-20.614325,-23.117959,-20.167104,-22.435296,14.582829,24.004954,27.211653,29.297569,32.714924,39.886975,40.745676,40.214758,44.50782,51.373181,51.351568,49.164381,51.712895,56.806032,54.680261,51.062614,166.198328,110.561482,-78.26996,162.377395
67,-2.246223,3.53455,-0.973812,2.428866,0.893417,-11.006309,-26.925156,-42.483742,-26.814629,-61.584114,-83.585907,-101.927513,-35.044807,-71.843948,-95.606117,-114.421623,-41.619324,-75.494339,-97.97834,-115.036308,-46.277847,-75.604706,-91.874977,-105.104439,-27.524987,-48.10462,-60.675516,-69.275879,-30.209407,-43.577408,-52.079377,-58.173167,-11.562604,-28.231541,-41.0016,-50.354188,3.448051,-12.547492,-25.439836,-34.662192,15.172595,2.82857,-7.604878,-16.374956,25.942051,55.354683,80.914364,101.308594,68.856583,100.583107,116.896248,128.252083,60.874283,96.783119,115.140335,126.966866,50.756527,83.712891,101.051582,112.212982,40.533417,67.395367,81.794769,91.35656,-21.182614,-24.315633,-21.756745,-24.156119,12.94674,22.230284,25.434599,27.560963,31.325515,38.364135,39.089456,38.555364,43.378293,50.445233,50.283558,48.018454,50.801273,56.365751,54.293296,50.646206,163.588377,114.140088,-79.6075,164.850317
68,-3.020508,4.203771,-1.377068,3.038441,0.356758,-12.470787,-29.02462,-45.135818,-28.33239,-63.330757,-85.788414,-104.479362,-35.974502,-73.136947,-97.163795,-116.215851,-41.947128,-76.180504,-98.865463,-115.824852,-46.178993,-75.473785,-91.877266,-105.149391,-27.665229,-48.491049,-60.848665,-69.356099,-29.98308,-42.626205,-50.609687,-56.087165,-11.257045,-26.624975,-38.446326,-47.009323,3.797261,-10.766876,-22.767069,-31.376712,15.568748,4.467358,-5.379579,-13.700472,26.121025,55.574124,81.126572,101.553681,68.807522,101.140847,117.807335,129.313958,60.942639,97.219826,115.807984,127.772759,51.105206,84.482781,102.014122,113.315758,41.210473,68.350926,82.833527,92.707077,-21.591908,-25.329809,-22.981033,-25.113942,10.735223,20.277008,23.8272,26.15619,29.386601,36.681202,37.597949,37.076504,41.857295,49.422041,49.472121,47.179032,49.699634,56.060705,54.322159,50.714984,160.190906,118.306664,-81.361531,167.851563
69,-3.945762,5.454167,-1.164733,4.082777,-0.722672,-14.725617,-32.231896,-49.214035,-30.084481,-65.097542,-87.902138,-106.853257,-36.703698,-74.349129,-98.635552,-117.863526,-41.720169,-76.450264,-99.45401,-116.419259,-45.25058,-74.75203,-91.533738,-104.990868,-28.098741,-49.011543,-60.853673,-68.64287,-29.81079,-41.276026,-48.333857,-52.708917,-10.982632,-24.651327,-35.16318,-42.469513,4.176118,-8.433859,-19.198982,-26.880436,16.12854,6.625498,-2.369135,-9.903044,26.263675,55.5359,81.136734,101.787231,68.685768,101.430404,118.274047,129.794494,61.083423,97.517303,116.323333,128.415092,51.583316,85.365875,103.101104,114.536705,42.05017,69.536464,84.213981,94.589859,-21.844925,-26.15803,-23.862693,-25.626804,8.071483,18.205627,22.225418,24.882946,27.004196,34.93826,36.447143,36.311107,40.11718,48.431033,49.017354,47.059347,48.663215,56.094716,54.944664,51.592679,155.837231,123.422442,-82.934177,171.595951
70,-4.893425,6.556405,-0.960228,5.778035,-2.535027,-18.138474,-36.861672,-54.45559,-32.136612,-67.141114,-90.276741,-109.216233,-37.416138,-75.547371,-100.377388,-119.77771,-41.176163,-76.500595,-99.811432,-116.559174,-43.695649,-73.41259,-90.262711,-103.620072,-28.519218,-48.693954,-59.452426,-66.49364,-29.019587,-38.235145,-43.935165,-47.071153,-10.176227,-21.431796,-30.298642,-35.998613,5.061681,-5.453518,-14.773175,-21.327654,17.188431,9.087141,1.199205,-5.087061,26.133888,55.216186,80.907623,102.011352,68.314121,101.677276,118.704689,130.131797,61.138492,98.202919,117.477951,129.770118,52.070732,86.595245,104.601059,116.064514,42.909553,70.868248,85.76398,96.479919,-22.216439,-27.010297,-24.47643,-25.417173,5.15369,15.734475,20.025918,22.918901,24.393241,32.908956,34.95413,35.166823,38.162508,47.068795,48.041796,46.344932,47.369878,55.630181,55.029041,51.997454,150.559136,129.096257,-84.279075,176.491396
71,-5.54052,8.452582,-1.234841,7.235346,-5.235306,-22.809494,-42.618279,-60.637756,-34.759209,-69.230736,-92.504082,-111.510841,-38.443474,-76.009003,-101.060097,-120.686165,-40.590866,-75.441055,-98.728981,-115.362854,-41.692818,-70.504257,-87.02346,-100.133034,-28.834059,-47.771095,-57.033125,-63.06682,-28.440178,-34.44288,-38.254214,-39.85132,-10.029897,-17.8377,-24.373209,-28.04274,5.063848,-2.357501,-9.267496,-14.081064,17.12894,11.53037,5.480336,0.739245,26.608315,55.499359,80.748047,101.122925,68.200607,101.790367,118.947327,130.353356,61.625874,98.885834,118.417626,130.909195,53.084187,87.859589,106.058327,117.520546,44.196854,72.409928,87.33284,98.29699,-22.308349,-27.309775,-24.401923,-24.58216,2.781967,13.673257,18.20717,21.275573,22.250538,31.323439,33.735719,34.301958,36.59527,45.911468,47.208177,45.875505,46.40394,55.146316,55.033449,52.433892,144.571026,135.896096,-85.961506,182.073999
72,-6.282372,9.880276,-1.32122,8.553716,-8.923668,-28.258484,-48.697311,-67.13974,-37.815651,-70.890312,-94.15464,-113.234481,-39.736564,-75.722213,-100.7555,-120.740821,-40.030105,-73.484207,-96.52407,-113.039589,-39.292625,-66.340232,-82.477111,-95.5307,-28.451861,-45.239408,-52.713295,-57.879625,-26.835192,-29.511745,-31.296085,-31.087121,-9.472217,-13.343338,-17.291919,-18.497361,4.840831,0.647712,-3.757686,-6.436271,16.208365,12.932753,9.120159,6.5373,27.393848,56.225452,80.871906,100.149879,68.281402,102.090774,119.392845,130.849411,62.111366,99.483719,119.272018,132.015609,53.919342,88.946571,107.483688,119.225143,45.166031,73.663501,88.762459,100.194557,-22.237225,-27.206194,-24.021318,-23.342335,0.837348,12.486662,17.422163,20.651586,20.458937,30.466455,33.380037,34.276925,35.344948,45.326717,47.077094,46.175056,45.731083,55.037191,55.391762,53.194473,137.759599,143.531127,-87.811781,188.38247
73,-7.154914,11.198949,-1.310498,9.690554,-13.231751,-34.118432,-54.415055,-72.676735,-40.501351,-71.108872,-93.649704,-112.100167,-40.625954,-73.323418,-97.906838,-117.834527,-39.19471,-69.884652,-92.372155,-108.495507,-36.83043,-61.123787,-76.491005,-89.214661,-26.981515,-41.010486,-46.508965,-50.544601,-25.331278,-24.906645,-24.306604,-22.466393,-9.464102,-9.496719,-10.638762,-9.294338,3.880038,2.647537,0.757159,0.469513,14.404223,12.866687,11.272131,11.061105,28.589619,57.58445,81.516209,99.545529,68.62698,101.706563,119.096409,130.948872,62.749169,99.188748,119.14143,132.451642,54.889172,89.239598,107.991086,120.10056,46.188939,74.35706,89.52673,101.310345,-22.000165,-26.994538,-23.728287,-21.828412,0.457039,12.373597,17.443985,20.70747,19.351048,30.640591,33.955526,35.381813,34.06995,44.858056,47.030275,46.764834,44.510586,54.273166,55.007366,53.186568,130.200188,152.13591,-89.526776,195.478858
74,-6.869957,14.33547,-1.195587,11.07054,-18.022133,-41.360733,-62.391312,-80.1503,-46.986878,-78.46447,-100.244236,-117.138852,-45.067063,-78.069352,-102.370205,-121.167607,-41.372384,-72.030098,-94.689744,-110.673363,-36.734871,-60.911042,-76.39238,-89.302323,-25.454564,-36.751548,-39.697377,-42.125057,-21.051611,-15.927506,-13.086209,-10.619355,-4.953285,-0.108916,1.447837,4.026645,8.624816,11.804394,13.098608,14.698129,19.112135,21.537395,22.614618,23.981834,29.930958,58.840451,81.600769,99.169636,68.37204,101.058529,119.290387,132.380757,62.91037,98.525997,119.154339,133.719555,55.305691,88.887955,108.221249,121.389668,46.341832,73.346958,88.856198,101.39938,-20.465544,-24.362254,-20.511363,-17.957662,0.885501,11.76044,16.425449,19.608744,17.741004,27.248073,29.405682,30.17918,30.944354,39.944192,41.173445,40.448459,40.6541,49.893061,50.931517,49.56072,123.039179,163.954834,-91.013415,204.032852
75,-5.497101,16.020403,-0.607818,10.841569,-22.50959,-47.519142,-69.194481,-87.438103,-52.943573,-83.9702,-104.664379,-120.743294,-49.440857,-81.526818,-104.948788,-123.118161,-44.148262,-73.80098,-95.921242,-111.814774,-37.881066,-60.859383,-76.175995,-89.330727,-24.015316,-33.194731,-33.880049,-34.584238,-16.128108,-6.988022,-2.301413,0.812784,-0.011127,9.102122,13.182824,16.969236,13.472322,20.950186,25.065468,28.290828,23.486893,29.701158,32.94771,35.462274,30.418087,58.649345,80.011116,97.337551,66.090282,98.18811,117.712131,132.540653,61.646118,96.239753,117.882923,133.916141,55.153701,87.746818,108.008159,122.621418,46.895965,72.726619,88.705993,102.168262,-17.182003,-18.518529,-13.580496,-10.034244,4.944738,14.820519,18.206356,20.19793,18.236045,26.339478,26.806681,26.634768,28.080234,35.579414,35.819981,34.878954,34.856984,43.077112,44.209503,43.331833,117.311257,177.827046,-91.852054,212.72623
76,-7.539368,17.933382,0.051315,11.668469,-25.552666,-52.111381,-74.381447,-92.622929,-57.537369,-89.572735,-109.310097,-123.895203,-52.674019,-85.474171,-107.982971,-124.860168,-46.1101,-75.887398,-97.57354,-113.179367,-38.749283,-61.882919,-77.21347,-90.317276,-22.255207,-29.330161,-27.984472,-27.22777,-9.972025,1.794603,7.543776,10.593765,6.658361,19.345539,24.870336,28.764219,20.190902,31.300555,37.080591,41.103569,29.866686,39.354674,43.900578,47.090308,31.024853,59.3615,80.456829,97.975262,62.383198,93.912712,114.099621,130.020527,58.432137,92.227112,114.942204,132.21722,53.258938,85.379848,106.645832,122.34914,46.562325,72.076721,88.96685,103.496967,-17.050474,-18.507982,-13.734551,-9.348469,4.86487,12.533123,14.346523,15.150439,18.364869,24.900594,23.595981,21.942428,28.525195,35.400412,34.847326,33.24846,35.77683,44.669458,46.317169,45.525738,109.637901,194.210153,-91.934727,222.844424
77,-6.686737,17.967159,0.269394,11.209651,-28.26725,-56.232765,-79.624626,-98.29763,-61.465279,-94.265236,-113.255276,-127.093872,-55.351456,-89.23233,-111.553791,-127.700535,-47.768189,-78.084091,-99.821995,-115.476173,-39.596512,-63.337692,-78.878311,-92.013107,-20.738332,-26.414937,-22.826509,-20.283343,-4.065165,10.3458,17.510824,21.257147,13.595391,28.993597,35.912644,40.30463,27.501262,41.906213,49.197924,53.795724,37.038762,49.214905,54.556328,57.9187,31.697891,60.070587,81.440266,100.410244,58.820698,89.713085,110.719837,127.724087,55.096435,87.989216,111.735821,130.032589,50.737461,81.791725,103.788219,120.497806,45.202022,69.978149,87.51527,102.876377,-16.187438,-17.472316,-13.498899,-10.063156,6.88112,12.366113,12.191001,11.453355,20.136995,25.882648,23.478779,20.8852,29.928313,37.062758,36.494197,34.818612,36.640323,46.359134,48.67128,48.04224,102.983768,211.179891,-91.632729,233.056654
78,-5.897369,17.39666,0.262276,11.131487,-30.44513,-59.640038,-84.368889,-103.638977,-66.01767,-100.004471,-118.808396,-132.704075,-59.008049,-94.6386,-117.117268,-133.004551,-50.49495,-81.925393,-104.078453,-120.383503,-41.404564,-66.4124,-82.579537,-96.490883,-19.803259,-24.282103,-18.878151,-15.076574,2.275465,19.296917,27.57514,32.157329,21.368532,39.288304,47.348276,52.061167,35.875075,53.530925,62.390763,67.391991,45.369855,60.524258,66.536501,69.663912,31.8777,59.871391,81.590938,101.978702,54.940601,85.846012,107.522998,124.766933,51.362468,84.377277,109.008442,127.755397,47.707557,78.244617,100.975513,118.449451,43.437297,67.951789,86.028282,101.954509,-15.364651,-16.044621,-12.503952,-10.327904,9.076558,13.5082,11.575338,9.421323,22.622597,27.875532,24.707081,21.406559,32.113623,40.211782,40.024012,38.515042,38.12321,49.007548,52.268167,52.262178,97.150641,227.990324,-91.306211,243.601914
79,-5.76812,14.47216,-0.189904,10.388507,-31.555001,-60.757645,-85.528565,-105.334568,-66.933655,-98.900757,-117.797837,-132.992317,-59.703598,-93.234627,-115.715401,-132.417263,-51.080773,-80.690163,-102.449959,-119.062271,-41.772858,-65.172936,-80.862877,-94.846424,-18.415801,-21.825474,-15.660634,-11.700172,6.473826,23.749467,32.742649,38.690597,24.949945,43.465324,52.232462,58.058836,38.552461,57.121527,66.343506,71.843306,47.069016,62.480894,68.361546,71.741319,31.73394,59.803013,82.049057,102.248097,54.182385,84.059796,102.799221,116.982067,50.158596,81.923813,103.662106,119.107155,46.424561,75.741818,96.299961,111.463017,42.5392,66.767006,83.705269,98.154889,-15.169532,-16.349298,-13.953123,-12.630145,9.939877,15.450756,14.087875,11.909827,24.570526,32.572688,31.436764,28.898365,34.835816,46.021693,48.348942,48.043982,41.1309,53.205797,57.809945,58.535525,91.493323,242.09447,-91.385313,253.622407
80,-7.02903,12.688635,0.194996,11.317714,-32.243889,-61.66246,-86.29961,-105.565521,-68.18026,-99.354584,-118.147419,-133.543602,-60.612854,-93.287327,-115.603615,-132.059784,-51.456871,-79.937874,-101.495133,-118.105557,-41.41246,-63.946152,-79.312832,-93.091576,-16.976374,-19.489085,-12.887608,-8.833508,9.510625,26.312097,35.809842,42.637338,27.562938,46.398642,55.515275,61.81704,40.557102,59.922933,69.436733,75.266947,48.521386,64.2691,70.122409,73.542863,30.792343,58.754517,81.722958,101.308251,55.690945,81.913021,94.174462,102.070313,51.966122,79.627224,94.219792,102.309059,48.085911,73.737385,88.064999,97.063877,44.143971,67.658032,82.825024,94.849228,-17.358522,-21.049591,-20.29925,-20.200128,6.033658,12.214306,12.736714,11.564617,23.947181,33.755752,35.632421,34.228871,37.514462,50.771337,55.608099,56.093235,46.859127,59.808337,65.681876,66.723642,84.61191,254.579282,-91.0427,264.736298
81,-5.308228,9.193241,1.716351,9.556284,-32.862945,-62.261283,-87.040123,-106.45063,-70.157215,-99.570728,-118.002513,-133.789547,-62.663131,-93.759739,-115.911209,-132.720531,-53.161445,-80.312324,-101.484752,-118.131672,-42.321121,-63.579162,-78.645458,-92.599971,-15.779194,-17.992749,-11.423481,-7.569156,11.386133,27.906443,37.716237,45.226755,28.82177,47.17619,56.59855,63.736354,41.214917,60.618378,70.277526,76.51533,48.717555,64.116255,70.168573,73.933694,26.993442,53.438038,75.915207,95.574852,58.498615,78.449329,82.352142,83.040584,55.768272,76.554966,81.410728,80.895572,51.485664,71.161423,76.684227,78.260765,46.411434,67.862915,80.39019,89.481731,-15.873326,-20.001341,-20.065858,-20.701109,5.93477,16.643008,20.554526,21.047653,23.174436,36.513945,41.625545,41.72526,36.230103,51.516529,58.3162,59.682218,45.157397,57.723631,64.59145,66.701338,79.442327,263.717713,-89.187704,274.237772
82,-6.319793,7.916835,3.460007,8.506589,-32.161789,-61.658066,-86.483116,-105.677971,-71.740883,-100.809243,-118.802159,-134.091477,-64.677601,-95.372727,-116.867947,-133.157502,-55.235413,-82.121636,-102.558541,-118.771626,-44.115349,-65.023007,-79.627911,-93.300877,-15.508172,-17.910843,-11.876432,-8.39471,11.901058,27.389308,36.445636,43.224102,28.956336,46.454958,55.251378,61.93323,41.049907,59.771348,68.698889,74.530425,48.432564,63.485055,69.27008,72.906772,21.835407,46.407005,67.618228,85.486473,59.691432,71.08604,66.312732,59.952163,58.405254,70.395778,65.383083,56.919387,54.194377,66.920562,63.526359,57.789516,48.337371,68.29874,78.716777,85.512279,-15.670254,-20.609596,-20.190607,-19.409044,3.54414,17.571512,24.379717,26.687404,20.44897,36.171538,43.422494,44.699666,33.791418,50.032246,57.601463,59.256177,43.395015,55.75641,63.50027,66.398612,73.241701,271.614733,-85.60853,282.724546
83,-6.635468,6.272792,6.615943,7.130517,-31.115753,-60.441101,-85.453445,-104.431778,-71.979549,-101.548313,-118.967319,-133.470405,-65.313606,-96.543903,-117.061638,-132.567604,-55.99015,-83.248031,-102.64888,-118.099239,-44.763473,-65.725033,-79.669807,-92.514049,-15.753593,-18.836074,-13.43873,-10.201613,11.674483,26.062082,34.040124,39.717828,28.528147,44.975208,52.74798,58.545071,40.443247,58.102753,65.879723,70.854016,47.831091,62.435508,67.813919,71.044034,15.955925,37.500721,56.345158,71.759926,58.01706,59.884701,46.340058,33.447613,58.627831,60.576771,45.995831,30.206189,54.976181,60.485951,49.238331,37.564557,48.761342,67.07238,75.729195,81.061261,-16.40438,-22.756941,-22.206263,-19.597333,0.332465,15.946735,25.076423,28.742631,17.172234,34.004445,42.756998,44.707052,31.180587,47.080058,54.848803,56.138028,41.903015,53.528839,61.389926,63.93986,66.710495,277.851916,-78.888325,289.819454
84,-6.729652,4.449561,11.451897,5.386538,-29.982811,-58.967892,-84.128208,-102.966236,-71.257885,-101.22052,-117.753491,-131.052738,-64.753636,-96.769615,-116.278794,-130.927529,-55.486611,-83.424259,-101.913151,-116.620331,-44.371651,-65.903607,-79.461411,-91.533417,-16.174396,-19.603582,-14.485905,-11.390061,11.35453,24.993986,32.101273,36.717956,28.248171,44.10543,51.06648,55.880851,40.235371,57.187724,63.774999,67.697459,47.728771,61.944346,66.642465,68.972728,9.360455,25.443558,40.319756,52.490879,49.00771,40.64613,21.148911,4.29958,52.153919,44.35017,23.54147,3.653172,50.593689,48.406483,31.991146,16.822025,45.851235,62.084347,70.28096,75.588604,-17.550788,-25.584986,-24.606341,-19.926043,-1.45395,15.351338,24.959344,28.919385,15.662338,33.941472,42.35278,44.718117,30.233866,46.771541,53.467694,54.583672,41.453435,53.340339,60.426471,62.390134,60.02615,282.22126,-67.391121,295.125775
85,-5.81781,3.169884,13.574913,5.58062,-28.763169,-57.360684,-82.462624,-101.291542,-70.36567,-100.313038,-116.329514,-128.901398,-64.055249,-96.148224,-114.867451,-128.948983,-54.938336,-83.082459,-100.915558,-115.096024,-44.12455,-65.945011,-79.31099,-90.995842,-16.313249,-20.001885,-14.923037,-11.966057,11.372462,24.776068,31.181142,35.049077,28.302894,43.703138,50.004174,54.110811,40.29118,56.362837,61.959215,65.077623,47.797227,61.722031,65.96058,67.717725,2.920944,12.921295,22.716087,30.641007,36.496639,20.605099,-0.6255,-16.909412,41.241863,25.780769,2.339367,-17.62484,41.568798,32.589398,13.307694,-2.626259,38.765854,53.143856,60.630215,65.908161,-18.199934,-28.183049,-27.317407,-22.217663,-4.990471,12.543077,22.182489,27.249098,11.9655,31.518126,39.450498,42.19166,26.539586,43.596778,49.837596,51.221608,38.025409,50.009361,56.177091,57.64848,54.235388,285.320845,-53.78916,300.636096
86,-4.482354,2.720797,14.599308,1.88398,-27.869773,-56.011013,-81.017555,-99.754348,-69.168354,-99.10968,-114.692848,-126.840557,-62.736282,-94.962158,-113.043239,-126.517501,-53.627529,-82.14656,-99.558528,-113.292835,-43.069198,-65.474899,-78.771755,-90.089046,-16.627608,-20.326,-15.11797,-12.162373,11.384269,24.866681,30.921161,34.417136,28.441079,43.633397,49.425129,52.757774,40.521028,55.996891,60.738767,62.95662,48.021492,61.721575,65.392982,66.389461,-1.956344,1.653797,6.683979,11.822411,23.100929,1.933067,-19.384037,-35.10585,28.56197,8.778076,-14.822239,-34.421356,30.396584,16.432537,-3.936104,-19.864151,29.825123,43.913166,52.239922,58.339829,-19.045112,-29.307005,-28.789438,-23.473407,-4.918729,13.00807,21.327728,25.380432,12.463567,32.814403,39.188787,41.003385,26.874928,44.589231,49.345223,49.839733,38.070574,50.41558,54.474756,54.008627,49.821086,287.943212,-39.1218,302.421646
87,-3.045867,1.81545,7.398548,0.940854,-27.452134,-55.070229,-79.886239,-98.590725,-67.691826,-97.471905,-112.757618,-124.72427,-61.24038,-93.225792,-110.800347,-123.890225,-52.131352,-80.502903,-97.606224,-111.039391,-41.747864,-64.229954,-77.476571,-88.626183,-16.504922,-20.005899,-14.769649,-11.805666,12.020051,25.527978,31.357131,34.574401,29.090075,44.228819,49.703289,52.466348,41.16238,56.468529,60.875174,62.623501,48.527253,62.288999,65.766523,66.314978,-4.039192,-4.904754,-2.195114,2.471363,15.541626,-7.227092,-28.95956,-45.237602,22.04924,1.085037,-23.381733,-44.199371,25.661957,9.166924,-12.320045,-28.911712,27.335713,40.919277,48.970997,54.251805,-18.386148,-28.154335,-27.701593,-21.947035,-4.15731,15.032631,23.272112,27.013162,13.05458,34.001518,39.599885,40.834078,26.549268,44.502102,48.748714,49.011907,36.773321,48.552472,51.714191,50.477763,46.897929,289.615317,-31.600542,303.219155
88,-1.677681,1.386408,11.425553,2.922807,-27.125199,-54.568806,-79.317101,-98.162522,-66.94645,-96.468728,-111.62637,-123.500233,-60.49387,-92.131646,-109.547493,-122.369522,-51.309586,-79.521458,-96.574242,-109.785897,-40.931076,-63.375859,-76.71793,-87.814751,-16.430031,-19.576264,-14.229605,-11.490134,12.596454,26.098256,31.71185,34.717946,29.478831,44.405215,49.639649,52.016114,41.392869,56.471912,60.610524,62.088594,48.565649,62.232781,65.563549,65.933767,-7.168465,-13.46275,-15.219727,-14.217465,4.334175,-20.781636,-42.651101,-58.427525,11.422359,-12.196324,-36.892994,-57.447808,16.485969,-3.568715,-26.170121,-43.361733,19.972618,31.990047,39.193943,43.48946,-18.213815,-29.038044,-28.902058,-23.95438,-6.971436,12.74452,20.575089,24.6551,10.371624,31.868042,36.904109,38.13845,23.888086,42.043707,46.009121,46.717373,34.286089,45.615561,47.885506,46.541323,45.425703,290.859563,-19.969534,305.9998
89,-0.592415,1.104468,5.001331,0.310395,-26.763909,-54.315216,-79.193619,-98.25927,-66.711079,-95.828854,-110.875603,-122.701538,-60.282772,-91.332779,-108.601971,-121.196835,-50.992424,-78.783715,-95.711186,-108.664913,-40.494416,-62.447685,-75.661366,-86.617699,-16.276075,-19.375736,-14.138461,-11.552663,12.687486,26.383666,31.962408,34.955648,29.391368,44.208762,49.298527,51.481676,41.186388,56.042537,60.16807,61.590639,48.224972,61.743249,65.233197,65.80072,-8.606117,-17.14579,-20.339047,-18.862713,0.859463,-24.444328,-46.283993,-62.402527,7.738609,-15.453495,-40.744732,-62.563225,13.01738,-8.225922,-32.754238,-51.778393,17.455833,30.498207,37.908737,41.395752,-18.649872,-29.257407,-29.710643,-25.119672,-7.944104,13.293172,21.223135,24.723581,10.357693,32.301221,36.945506,36.970219,24.026567,42.259092,45.53652,44.980556,34.41758,45.371387,46.595107,44.022313,45.101486,291.861967,-14.700005,306.208131
90,-0.240578,0.815327,2.169136,-2.674497,-26.391334,-53.976253,-79.106781,-98.550018,-65.939278,-95.242813,-110.307804,-122.086418,-59.670181,-90.926388,-108.224693,-120.79818,-50.469795,-78.56916,-95.583458,-108.541511,-40.11747,-62.325108,-75.588398,-86.512562,-16.461536,-19.59054,-14.611234,-12.414389,12.369089,26.003655,31.378843,34.137419,29.053693,43.514565,48.342286,50.221104,40.863385,55.427207,59.425102,60.688898,47.839551,61.155534,64.633218,65.237285,-9.051579,-18.262218,-21.546272,-18.649063,0.893349,-25.115158,-48.071537,-66.057747,7.170284,-15.445873,-41.351864,-64.521561,11.894737,-9.45908,-34.882347,-54.932545,16.140335,30.091507,38.235123,41.747017,-18.38127,-27.762355,-28.137761,-22.693857,-5.779011,17.874237,25.923737,28.219272,13.235201,36.398484,40.153169,38.918481,27.103034,46.402693,48.428502,46.4948,37.322073,48.873969,49.610047,46.364729,45.182831,292.594567,-12.208946,303.450907
91,-0.019501,0.505057,-0.246323,0.205024,-26.135902,-53.775135,-79.047592,-98.718143,-65.426204,-94.784946,-110.000152,-121.805259,-59.301738,-90.566929,-107.994026,-120.625168,-50.2187,-78.344982,-95.472061,-108.492279,-40.009117,-62.151432,-75.403667,-86.266491,-16.600104,-19.884732,-15.1464,-13.238078,12.020088,25.436674,30.633762,33.203345,28.657959,42.817093,47.484918,49.261897,40.450781,54.779062,58.776067,60.067923,47.390848,60.523604,64.041266,64.762622,-8.281929,-17.300937,-20.813884,-18.024273,1.672108,-24.609993,-47.87083,-66.101875,7.515381,-14.959293,-41.132515,-64.580932,11.816643,-9.301963,-34.833332,-54.98545,15.659638,29.879242,38.004868,41.382889,-18.869073,-28.287506,-28.313688,-22.202534,-6.632476,17.412517,25.460572,27.764319,12.722598,35.918992,39.541889,38.312833,26.944051,46.057422,47.868092,45.808901,37.418588,48.891444,49.767275,46.635875,45.529426,293.051348,-12.089173,303.607655
92,0.000367,0.197342,6.746842,0.586345,-25.898598,-53.536549,-78.77274,-98.560193,-64.982071,-94.238366,-109.630841,-121.521183,-58.857777,-90.113606,-107.757512,-120.474999,-49.753727,-77.939118,-95.255826,-108.387669,-39.52842,-61.644883,-74.95625,-85.836789,-16.720493,-20.047407,-15.356797,-13.565874,11.661145,25.098788,30.30236,32.848922,28.338857,42.530534,47.246191,49.025369,40.208101,54.641136,58.686048,59.940952,47.20178,60.309701,63.831549,64.517954,-9.641579,-20.195183,-25.953289,-24.804852,-3.076046,-31.157112,-54.28505,-71.823315,1.791412,-22.202339,-47.649044,-70.101586,5.411041,-17.073223,-42.177841,-61.787853,8.924034,22.67823,31.233833,35.341827,-20.4218,-30.545978,-31.025927,-25.383223,-7.960135,16.230737,23.826162,25.723628,12.402372,35.819845,38.952925,37.239549,27.470794,46.789263,47.789422,44.933008,38.75299,50.711303,50.502352,46.450796,45.894711,293.2535,-4.977413,304.19881
93,-0.184365,0.163787,0.973068,-1.677672,-25.7238,-53.164512,-78.306816,-98.127857,-64.364456,-93.525238,-108.930908,-120.855537,-58.198025,-89.538826,-107.260574,-120.055675,-49.114963,-77.489811,-94.895828,-108.087204,-38.947449,-61.282356,-74.626522,-85.50626,-16.765558,-20.138502,-15.450694,-13.478856,11.521268,25.090761,30.346857,32.898779,28.191508,42.461967,47.25328,49.082895,40.098754,54.59775,58.666065,59.920179,47.166879,60.214506,63.685287,64.32843,-9.404972,-19.382011,-24.624355,-21.510715,-2.021702,-30.290543,-53.140617,-71.074734,1.797123,-21.174934,-46.523231,-69.858341,4.607506,-17.631947,-43.369171,-63.807438,7.882118,22.263268,31.379173,35.404083,-20.99414,-30.036537,-30.679766,-24.936694,-6.153133,19.229238,26.892069,28.004985,14.91055,38.613063,41.259698,38.67143,29.883827,49.627669,49.574527,45.447969,40.79946,53.231979,52.422456,47.519486,46.062292,293.429606,-3.652399,302.533457
94,-0.218742,0.086413,2.527817,0.668843,-25.509407,-52.756588,-77.79158,-97.621388,-63.732582,-92.877697,-108.363545,-120.363144,-57.62843,-89.130627,-107.006207,-119.954796,-48.606983,-77.199051,-94.714382,-107.994015,-38.506073,-61.132198,-74.562779,-85.523506,-16.810475,-20.222086,-15.546852,-13.566454,11.36336,24.809043,30.05027,32.591411,28.039072,42.174321,47.014084,48.935942,40.00125,54.501927,58.620889,59.912288,47.185108,60.203787,63.630169,64.221886,-9.551182,-19.886296,-26.039646,-23.63403,-3.697712,-32.83976,-55.35783,-72.93417,-0.577332,-24.219635,-49.109963,-71.947964,1.872253,-21.051384,-46.834854,-66.883106,5.02858,18.80793,27.758995,31.82531,-21.390355,-30.278561,-30.962398,-25.549418,-6.438098,18.460125,25.764569,26.741955,14.592067,37.86928,40.253636,37.747298,29.455552,48.97566,48.58536,44.524258,40.294268,52.959216,52.060278,47.263642,46.176132,293.532581,-0.792,303.218862
95,-0.09977,0.063146,1.498764,0.626841,-25.332344,-52.511535,-77.469314,-97.293377,-63.334488,-92.38084,-107.897815,-119.990959,-57.197719,-88.765629,-106.76532,-119.836944,-48.158569,-76.870697,-94.476757,-107.846706,-38.052978,-60.822624,-74.300686,-85.309055,-16.80719,-20.21685,-15.555731,-13.436272,11.280825,24.684505,29.924423,32.490362,27.929909,42.067011,46.966413,48.961383,39.921456,54.529331,58.699411,60.022105,47.212117,60.245493,63.628242,64.173881,-9.103764,-19.909184,-26.919171,-24.928345,-5.161434,-34.348904,-56.578262,-74.077068,-2.48822,-25.870377,-50.174915,-72.753101,-0.012154,-22.724854,-48.204266,-67.888172,3.35614,16.960121,25.994705,30.171043,-22.138807,-31.000881,-31.845515,-26.329042,-6.583014,17.952289,25.098541,25.921094,14.380831,37.14864,39.598526,37.228175,28.971379,48.034521,47.528254,43.419481,39.587744,52.296485,51.285174,46.33,46.359815,293.600423,0.990217,303.850399
96,0.112747,-0.075965,0.950924,0.093453,-25.203002,-52.313049,-77.265998,-97.158405,-62.94057,-92.002109,-107.59703,-119.815212,-56.832424,-88.524627,-106.661567,-119.852314,-47.813095,-76.666614,-94.392059,-107.817329,-37.736343,-60.683647,-74.265941,-85.344257,-16.798508,-20.180924,-15.455116,-13.131867,11.330089,24.643317,29.855484,32.450446,27.989856,42.051598,47.020061,49.079981,39.97876,54.625662,58.857269,60.181457,47.28744,60.317889,63.671208,64.153738,-9.117451,-20.228119,-27.549797,-25.975834,-6.403931,-35.362999,-57.327152,-75.025944,-3.688969,-27.039345,-51.23267,-73.983479,-0.865837,-23.577439,-48.9795,-68.584934,3.006672,15.739414,24.307354,27.925037,-22.157987,-30.716841,-31.214278,-25.550555,-6.615939,17.168405,24.455349,25.445974,14.199791,36.286728,39.047762,36.946111,28.58413,47.184107,46.949962,42.943719,39.082441,51.680883,51.056772,46.24061,46.694097,293.524137,2.162676,303.943531
97,0.168526,-0.006595,0.357639,0.007929,-25.112274,-52.22287,-77.231758,-97.182907,-62.792278,-91.914951,-107.505901,-119.826267,-56.680824,-88.475464,-106.694378,-119.965141,-47.632679,-76.674705,-94.460186,-107.893444,-37.544494,-60.831711,-74.557731,-85.737739,-16.868212,-20.226953,-15.447236,-12.952655,11.121113,24.469255,29.700071,32.328317,27.810953,41.841017,46.928695,49.123564,39.869499,54.488798,58.799594,60.221731,47.333852,60.365535,63.692079,64.179364,-6.716,-16.052891,-23.110622,-21.540001,-5.068016,-35.013119,-56.819275,-74.505638,-4.043106,-27.5671,-51.544086,-74.306442,-2.321205,-24.83044,-50.049992,-69.525501,0.925427,13.630692,22.224838,25.831558,-22.1652,-30.013232,-29.746495,-24.156379,-6.614013,16.433303,23.40201,24.221957,14.186638,35.55044,38.232088,36.108183,28.633554,46.414808,46.098152,42.127662,39.10283,51.581514,50.978731,46.032894,47.04796,293.506025,2.705652,303.939943
98,0.345772,-0.026158,-1.651451,-0.537587,-24.988998,-52.252865,-77.330406,-97.324322,-62.837414,-91.910179,-107.617962,-120.023586,-56.739956,-88.403881,-106.781422,-120.150639,-47.6483,-76.600674,-94.462795,-107.935799,-37.515701,-60.761856,-74.52364,-85.727554,-16.932135,-20.245391,-15.420942,-12.886125,11.018361,24.465415,29.767071,32.462377,27.753723,41.858147,47.066115,49.348336,39.861287,54.578571,59.011473,60.49452,47.35917,60.506487,63.914579,64.428046,-6.034161,-15.057415,-22.255085,-20.922043,-3.133598,-32.719391,-54.584255,-72.687492,-2.283234,-25.097763,-49.429836,-72.779743,-0.809681,-22.620426,-47.998444,-67.871212,2.190021,15.616814,24.51162,28.237289,-22.232001,-29.862042,-29.310389,-23.516657,-6.303457,17.004445,24.153711,24.994702,14.555548,36.00648,38.927064,36.811026,29.099919,46.575137,46.65829,42.851254,39.63791,51.863578,51.470463,46.52712,47.527611,293.476453,1.18808,303.398942
99,0.271316,-0.084375,-1.251812,-0.646873,-24.977165,-52.34135,-77.462677,-97.400505,-62.838935,-91.791973,-107.533962,-120.016079,-56.736705,-88.25679,-106.716613,-120.208351,-47.623661,-76.464431,-94.349235,-107.90158,-37.483406,-60.641693,-74.415412,-85.702411,-16.944696,-20.196127,-15.237063,-12.536371,10.995155,24.592447,29.956248,32.676725,27.754735,41.922441,47.297234,49.714614,39.869474,54.647447,59.222239,60.807903,47.369445,60.59658,64.077859,64.67291,-5.8736,-14.718075,-22.062046,-21.305237,-1.681446,-30.832832,-53.027527,-71.54187,-0.569424,-23.103001,-48.028324,-71.982525,0.909634,-20.55677,-46.062836,-66.309345,3.777603,17.617825,26.548611,30.214474,-22.020444,-29.504001,-28.521453,-22.229802,-6.117008,17.670646,25.046881,25.962936,14.821878,36.544586,39.664439,37.453539,29.534605,46.965486,47.354292,43.520974,40.299221,52.151323,52.024216,47.082491,47.888368,293.385807,0.025709,302.745798
100,0.164246,-0.21131,-0.869614,-0.49467,-24.958946,-52.385147,-77.44384,-97.304008,-63.022934,-91.747112,-107.544056,-120.131653,-56.970177,-88.15868,-106.727714,-120.352512,-47.797508,-76.369732,-94.218098,-107.813747,-37.438637,-60.362663,-74.171688,-85.626137,-16.759037,-19.989918,-14.961483,-12.198967,11.101464,24.731558,30.165978,32.944968,27.743138,41.846352,47.361553,49.976177,39.793447,54.573421,59.31726,61.064747,47.333296,60.642189,64.309497,65.105003,-5.592041,-13.984096,-21.286903,-20.650428,-0.418361,-29.54861,-51.840294,-70.599929,0.540242,-21.961979,-47.161171,-71.458923,1.781296,-19.604152,-45.194606,-65.731704,4.450219,18.599659,27.619984,31.298619,-21.788608,-28.874703,-27.384134,-20.806641,-5.721472,18.331573,25.735485,26.75796,15.240545,37.300497,40.303531,37.909578,29.930277,47.454018,47.843194,44.037405,40.665796,52.460791,52.453888,47.552918,48.120203,293.162029,-0.776316,302.23866
101,-0.14891,-0.169369,-0.42802,-0.294179,-24.876046,-52.285847,-77.193215,-96.89304,-63.114808,-91.693383,-107.495808,-120.111626,-57.047207,-87.988621,-106.566731,-120.246884,-47.77351,-76.146733,-93.91919,-107.512597,-37.191422,-59.893513,-73.675141,-85.218052,-16.622458,-19.872864,-14.849949,-12.023719,11.117099,24.757864,30.226085,33.005249,27.667099,41.785676,47.437444,50.236467,39.674886,54.432457,59.310258,61.20171,47.263432,60.626727,64.386413,65.282486,-5.432865,-13.549461,-21.153488,-20.895344,0.376602,-28.991833,-51.372093,-70.293091,1.05748,-21.497772,-46.779282,-71.200195,1.999054,-19.296204,-44.919708,-65.536389,4.459705,18.953979,28.077026,31.865707,-21.721708,-28.362495,-26.407403,-19.641583,-5.506198,18.885425,26.303243,27.337105,15.477914,37.833625,40.704711,38.149578,30.193691,47.752174,47.969671,44.140504,40.969435,52.680413,52.567027,47.595624,48.024033,292.963165,-1.151596,301.914986
102,-0.176926,-0.069815,-1.241799,-0.169258,-24.807289,-52.1609,-76.963085,-96.554112,-63.069935,-91.531357,-107.381069,-119.991074,-57.014156,-87.792103,-106.420143,-120.138474,-47.722389,-75.91206,-93.667946,-107.258492,-37.031273,-59.535656,-73.271107,-84.842297,-16.585185,-19.944556,-14.999064,-12.121977,11.150543,24.779032,30.29322,33.117042,27.616711,41.720245,47.440062,50.328586,39.554942,54.299372,59.247667,61.197437,47.121616,60.464867,64.304532,65.303357,-7.223716,-16.9491,-25.470668,-25.857765,-0.351974,-28.605022,-50.920463,-70.096927,1.82753,-20.039039,-45.62939,-70.38771,3.899655,-16.949684,-42.905147,-63.856395,7.108063,21.811181,30.871903,34.421929,-21.717718,-28.570075,-26.699396,-19.413205,-5.506568,19.379688,27.233735,28.61955,15.495649,38.392738,41.516161,39.182131,30.16804,48.2351,48.730264,45.058646,40.948254,52.529371,52.674324,48.035979,47.88085,292.847359,-2.359652,301.699737
103,-0.328262,-0.062356,-0.167552,-0.037075,-24.747849,-51.949585,-76.616444,-96.091622,-62.841557,-91.280011,-107.134095,-119.717309,-56.707501,-87.490975,-106.167893,-119.876107,-47.30896,-75.465317,-93.209931,-106.754345,-36.450966,-58.8918,-72.563427,-84.083039,-16.549752,-20.024176,-15.097556,-12.132548,11.090325,24.694521,30.276462,33.129948,27.611746,41.717788,47.49717,50.428709,39.594673,54.326494,59.339664,61.30718,47.213525,60.513564,64.326874,65.27499,-7.693268,-17.760933,-26.297768,-26.788125,-1.457291,-29.442524,-51.65783,-70.762494,1.292793,-20.424992,-45.927098,-70.526951,3.971008,-16.669213,-42.567925,-63.436764,7.70898,22.107479,31.038242,34.392551,-21.427158,-28.205069,-26.011607,-18.307885,-5.833956,18.898615,27.053658,28.802023,15.161567,38.087667,41.342111,39.180958,29.891658,48.062322,48.622373,45.047852,40.742539,52.152015,52.396089,47.882579,47.566985,292.714227,-2.512807,301.591886
104,-0.2249,0.128527,-1.785691,-0.220202,-24.694153,-51.807392,-76.388855,-95.823326,-62.870842,-91.27161,-107.143055,-119.722503,-56.731945,-87.43032,-106.079464,-119.729599,-47.254669,-75.305786,-92.975933,-106.454166,-36.236572,-58.558044,-72.169372,-83.683571,-16.615381,-20.237116,-15.366701,-12.36153,10.985213,24.523633,30.110304,33.011869,27.449219,41.482309,47.28544,50.293117,39.408706,54.074812,59.129182,61.155188,47.066671,60.292992,64.182662,65.233346,-7.338798,-17.030617,-24.431968,-23.982422,-0.86737,-28.46553,-50.604252,-69.802002,2.173691,-19.303161,-44.724495,-69.29195,5.185787,-15.181366,-41.108906,-61.986934,9.21658,23.318859,31.84718,34.602848,-20.590502,-26.857465,-24.187068,-16.457485,-5.342201,18.880633,27.391841,29.561281,15.250611,37.794155,41.216412,39.42113,29.628589,47.506704,48.351758,45.249084,40.129555,51.518789,52.2037,48.145512,47.353563,292.761969,-4.28702,301.290899
105,-0.112243,-0.204677,-2.484157,-0.267824,-24.688385,-51.742447,-76.227826,-95.607377,-62.748803,-91.150372,-107.062169,-119.657582,-56.530095,-87.190144,-105.909348,-119.611348,-46.947785,-74.935982,-92.652169,-106.152295,-35.816918,-58.041527,-71.656575,-83.153641,-16.544739,-20.116185,-15.216945,-12.187951,11.077678,24.61385,30.219391,33.152178,27.535187,41.619271,47.504184,50.602363,39.470888,54.209945,59.358163,61.470867,47.10246,60.382899,64.337013,65.435738,-6.761788,-16.106266,-22.271382,-20.866425,0.676345,-26.09919,-48.584839,-68.073773,4.095794,-16.819783,-42.636956,-67.487904,7.328258,-12.424244,-38.524464,-59.493451,11.338073,25.486885,33.734024,36.106819,-19.671137,-25.632954,-22.596217,-14.606738,-4.861745,19.187286,28.043332,30.317897,15.239595,37.39852,41.116401,39.613026,29.356294,46.843443,48.074351,45.375759,39.685274,50.812241,51.895664,48.169027,47.246058,292.450381,-6.766439,300.916164
106,0.065116,-0.003471,0.217163,2.396633,-24.759017,-51.779251,-76.212478,-95.550098,-62.791591,-91.106941,-107.032287,-119.699764,-56.543472,-87.174442,-105.932682,-119.67826,-46.946353,-74.932514,-92.687908,-106.23896,-35.773544,-58.013866,-71.679725,-83.253215,-16.637487,-20.27224,-15.31698,-12.245489,11.01536,24.548802,30.170473,33.161762,27.427866,41.472614,47.392194,50.578812,39.353748,54.108848,59.252497,61.419331,47.037228,60.350777,64.322687,65.492289,-6.244595,-15.868973,-23.169983,-24.129181,-0.050434,-27.455693,-49.565998,-67.8135,3.963947,-20.074024,-45.461289,-68.446221,7.251262,-14.617184,-39.99519,-59.899601,10.811439,22.419273,28.927185,30.492325,-19.645548,-26.28289,-23.113735,-16.110646,-5.620016,15.192849,22.973944,25.934568,13.764932,33.347396,36.707162,36.001651,27.616179,43.329893,44.572435,42.679871,38.021396,48.933385,50.707141,48.259071,47.301441,292.329945,-6.559009,303.195832
107,-0.002677,-0.043225,-4.556008,-0.326117,-24.798638,-51.752472,-76.097512,-95.372658,-62.705864,-91.003727,-106.904938,-119.548783,-56.414475,-87.057038,-105.811467,-119.584248,-46.782967,-74.771931,-92.524292,-106.10875,-35.596436,-57.81086,-71.461373,-83.072812,-16.689568,-20.296373,-15.264492,-12.193348,10.912335,24.445382,30.071685,33.057354,27.358619,41.383669,47.344387,50.591767,39.322378,54.073144,59.264241,61.486058,47.04586,60.39583,64.41966,65.631351,-4.725666,-13.203769,-18.387874,-17.756263,3.865723,-22.314422,-44.936416,-63.723117,8.182286,-14.966972,-40.921291,-64.497116,11.489663,-9.612156,-35.184551,-55.346271,14.804695,26.828728,33.195511,34.462212,-18.48543,-24.751479,-21.32343,-14.161407,-4.619264,16.047599,24.159861,27.286828,14.035276,33.273444,36.871171,36.424852,27.328893,42.687048,44.369944,42.982894,37.321542,47.882443,50.272987,48.367122,47.270531,292.163735,-11.14325,302.74673
108,0.138313,-0.304294,0.587403,3.009703,-24.898544,-51.943131,-76.150177,-95.344036,-62.895458,-90.958157,-106.846172,-119.612972,-56.542339,-86.903011,-105.666584,-119.572174,-46.779122,-74.550007,-92.337387,-106.098553,-35.323197,-57.323868,-71.085617,-82.961655,-16.604031,-20.132351,-15.014971,-11.961129,11.15746,24.641354,30.229173,33.223858,27.424025,41.394241,47.444101,50.90063,39.253243,54.052606,59.363487,61.776866,46.974255,60.426298,64.641566,66.099716,-4.632317,-13.031525,-18.756523,-20.427658,1.979885,-24.153042,-47.175808,-65.423504,6.861843,-17.882447,-43.230686,-65.074906,10.498558,-11.197083,-35.551678,-54.197056,13.649883,24.30661,30.34362,32.516464,-18.173035,-26.25383,-23.80035,-18.055289,-6.768882,10.740892,18.206232,22.010725,11.402152,28.577177,32.131457,32.529006,24.893814,38.795363,40.695177,40.296862,35.305477,45.31554,47.811578,46.699601,47.364,291.737645,-10.600691,305.634637
109,0.317619,-0.091143,-0.522343,-0.281681,-25.008865,-52.078537,-76.223923,-95.360927,-62.721485,-90.899563,-106.8712,-119.727333,-56.274158,-86.765865,-105.688762,-119.691742,-46.496967,-74.434776,-92.389194,-106.27977,-35.107544,-57.280769,-71.163402,-83.110142,-16.674699,-20.221396,-15.042129,-11.817621,11.079073,24.56971,30.171226,33.137555,27.427371,41.422559,47.48682,50.950042,39.328565,54.144169,59.453889,61.883941,47.09389,60.605843,64.764424,66.187389,-4.411961,-12.082912,-16.975685,-18.320045,2.88319,-23.12764,-46.178867,-64.428783,7.56522,-17.14785,-42.80936,-64.883812,11.221619,-10.617165,-35.255585,-54.065987,14.385864,25.021442,30.512844,32.071278,-16.437774,-23.367084,-20.344253,-14.571627,-5.390032,11.954016,19.20444,22.73071,11.540992,28.746447,31.973907,32.290229,24.081105,38.149479,40.047798,39.950282,33.591311,44.157992,47.161334,46.700059,47.615238,291.520873,-11.189415,305.227327
110,0.133484,0.23291,1.513596,-0.134393,-25.110855,-52.030907,-76.166485,-95.249393,-62.328781,-90.857506,-106.898792,-119.737312,-55.857845,-86.743492,-105.7164,-119.657444,-46.17429,-74.509346,-92.548233,-106.438579,-35.070076,-57.664352,-71.592922,-83.483734,-17.010818,-20.701381,-15.487152,-11.951904,10.679758,24.242878,29.864352,32.800065,27.251519,41.272678,47.289194,50.673623,39.333641,54.073292,59.246482,61.547562,47.17829,60.630531,64.614668,65.855468,-5.81987,-13.867253,-18.817303,-20.428551,0.676208,-25.478611,-48.052254,-65.860829,5.846546,-19.306034,-44.946431,-66.938942,10.247612,-12.240864,-37.122712,-56.081326,14.180351,24.006809,28.728275,29.353145,-15.358414,-21.73948,-18.859799,-13.835106,-4.623315,11.925746,19.155793,22.928064,11.613721,28.509029,31.685915,32.210349,23.522337,37.606371,39.826089,40.144079,32.392352,43.13738,46.699589,46.96866,47.642223,291.644507,-9.782318,304.983658
111,0.177704,0.072519,-1.465222,-2.746609,-25.193802,-52.054962,-76.192223,-95.269192,-62.00639,-90.810711,-106.92342,-119.733147,-55.51149,-86.630928,-105.691074,-119.643437,-45.850205,-74.399746,-92.491184,-106.366745,-34.911781,-57.729378,-71.660648,-83.464371,-17.148447,-20.900093,-15.675687,-11.94884,10.467844,24.105731,29.783348,32.73771,27.173454,41.279509,47.313055,50.651714,39.354094,54.102414,59.298551,61.575029,47.21644,60.659394,64.630822,65.817752,-6.731964,-14.385692,-16.794983,-15.115448,1.093163,-23.434147,-46.229713,-64.895038,6.44664,-15.206245,-41.610992,-65.589992,11.656758,-8.667698,-34.523609,-54.771526,16.661396,28.533692,34.110054,34.362374,-13.388638,-18.424829,-15.656088,-10.225078,-2.52984,16.320671,24.770918,28.161757,13.26363,32.197962,35.922277,36.117742,24.487546,40.124183,43.114039,43.447701,32.362563,43.275714,47.115935,47.165953,47.703049,291.624107,-11.364418,302.14413
112,0.259872,-0.157673,3.400028,-0.321078,-25.341064,-52.234314,-76.307304,-95.336563,-61.926235,-90.820083,-107.005748,-119.844017,-55.347358,-86.464084,-105.578235,-119.510124,-45.583706,-74.121688,-92.234962,-106.092384,-34.590591,-57.365696,-71.265289,-82.966117,-17.131195,-20.897167,-15.62215,-11.780114,10.48438,24.168469,29.900006,32.922924,27.235661,41.465933,47.579866,50.96816,39.431491,54.270646,59.587987,61.921831,47.269681,60.818117,64.821606,65.968311,-8.698471,-17.230785,-20.150459,-19.021465,-3.127189,-27.874374,-50.165599,-68.17416,2.827572,-19.391944,-45.648754,-69.200203,9.015725,-12.077247,-38.00941,-58.142337,15.009568,25.877118,30.581875,29.911915,-11.869676,-16.046412,-12.992323,-7.757284,-1.686119,16.519421,24.908289,28.421986,13.279785,32.001089,35.715648,36.117335,23.763918,39.456525,42.786737,43.506809,30.876948,42.136802,46.453872,47.17282,47.845544,291.380335,-8.081767,301.736953
