takenoko1/special-research/HandMotion_SimilarSearch_自分用/NewProject/handData/tgt/d4_feature_d2/79.csv
,vel_0x_L,vel_0y_L,vel_0x_R,vel_0y_R,posFromWrist_1x_L,posFromWrist_2x_L,posFromWrist_3x_L,posFromWrist_4x_L,posFromWrist_5x_L,posFromWrist_6x_L,posFromWrist_7x_L,posFromWrist_8x_L,posFromWrist_9x_L,posFromWrist_10x_L,posFromWrist_11x_L,posFromWrist_12x_L,posFromWrist_13x_L,posFromWrist_14x_L,posFromWrist_15x_L,posFromWrist_16x_L,posFromWrist_17x_L,posFromWrist_18x_L,posFromWrist_19x_L,posFromWrist_20x_L,posFromWrist_1y_L,posFromWrist_2y_L,posFromWrist_3y_L,posFromWrist_4y_L,posFromWrist_5y_L,posFromWrist_6y_L,posFromWrist_7y_L,posFromWrist_8y_L,posFromWrist_9y_L,posFromWrist_10y_L,posFromWrist_11y_L,posFromWrist_12y_L,posFromWrist_13y_L,posFromWrist_14y_L,posFromWrist_15y_L,posFromWrist_16y_L,posFromWrist_17y_L,posFromWrist_18y_L,posFromWrist_19y_L,posFromWrist_20y_L,posFromWrist_1x_R,posFromWrist_2x_R,posFromWrist_3x_R,posFromWrist_4x_R,posFromWrist_5x_R,posFromWrist_6x_R,posFromWrist_7x_R,posFromWrist_8x_R,posFromWrist_9x_R,posFromWrist_10x_R,posFromWrist_11x_R,posFromWrist_12x_R,posFromWrist_13x_R,posFromWrist_14x_R,posFromWrist_15x_R,posFromWrist_16x_R,posFromWrist_17x_R,posFromWrist_18x_R,posFromWrist_19x_R,posFromWrist_20x_R,posFromWrist_1y_R,posFromWrist_2y_R,posFromWrist_3y_R,posFromWrist_4y_R,posFromWrist_5y_R,posFromWrist_6y_R,posFromWrist_7y_R,posFromWrist_8y_R,posFromWrist_9y_R,posFromWrist_10y_R,posFromWrist_11y_R,posFromWrist_12y_R,posFromWrist_13y_R,posFromWrist_14y_R,posFromWrist_15y_R,posFromWrist_16y_R,posFromWrist_17y_R,posFromWrist_18y_R,posFromWrist_19y_R,posFromWrist_20y_R,posFromBody_0x_L,posFromBody_0y_L,posFromBody_0x_R,posFromBody_0y_R
6,-0.889,0.601437,0.118961,0.348667,-17.058106,-39.097504,-56.334835,-71.20903,-64.202145,-62.304005,-43.401146,-27.69619,-63.503243,-59.415127,-37.569626,-16.525543,-58.623139,-55.406983,-34.268143,-14.909134,-50.881485,-53.302139,-45.20731,-36.00309,21.763241,34.629458,43.948558,52.776484,29.038995,45.120458,53.165042,58.172074,24.985612,41.298898,50.598942,55.274041,19.759131,34.849388,43.300451,48.247153,13.688436,25.219757,31.564501,36.885089,25.021443,48.54467,68.428059,84.858891,47.192013,79.391384,96.478169,108.617123,37.215477,72.953259,93.40099,107.310757,27.785431,61.380181,81.149632,94.925549,19.473118,45.868504,62.052063,75.561825,-13.567109,-10.978235,-0.181472,7.143399,14.270249,32.12543,39.90082,44.776583,31.334185,48.056616,55.526107,59.317508,43.472735,61.019905,66.517655,67.672265,50.840597,67.136901,71.220703,71.189827,50.140194,308.274285,-69.542702,301.332797
7,-1.946068,3.889028,0.085224,0.170765,-15.961716,-36.687904,-53.918919,-68.820385,-60.926044,-57.867439,-38.931976,-23.655853,-60.461998,-55.523678,-34.107445,-13.666878,-55.942245,-52.521858,-32.237846,-13.852386,-48.688499,-51.260582,-43.753818,-35.402069,15.282758,23.693028,29.876949,35.703879,23.834511,38.5607,45.694144,50.26675,23.254958,37.677002,45.951063,50.260834,21.038551,34.09801,41.556015,46.176267,17.674327,28.00911,33.161775,37.611052,24.863079,48.365467,68.238213,84.756386,46.88229,79.249489,96.476647,108.726654,36.903054,72.785981,93.315926,107.242173,27.545689,61.250851,81.086724,94.875412,19.367432,45.80444,61.99561,75.458863,-13.703528,-11.128746,-0.354423,6.947514,14.228443,32.012476,39.76603,44.638298,31.328355,47.990876,55.428763,59.186695,43.473303,60.959426,66.364786,67.45757,50.786552,67.051635,71.067586,70.934057,48.199636,312.049035,-69.451968,301.389284
8,1.374962,-2.239045,0.004418,0.134715,-18.303017,-41.344002,-60.851337,-79.029442,-66.752575,-63.753468,-42.632904,-26.097107,-65.851765,-59.895882,-36.948097,-15.155891,-60.729481,-57.159702,-35.049179,-14.887528,-52.97802,-58.988308,-54.743477,-48.131607,20.910715,31.588201,39.65877,47.316945,26.603597,42.971173,50.579627,55.412399,23.840797,39.591511,48.038968,52.202242,19.742051,34.534782,42.54412,47.424168,14.949725,26.496843,33.190513,39.288539,24.730614,48.202411,68.067306,84.635101,46.75304,79.156814,96.500244,108.867485,36.807506,72.710907,93.295463,107.275543,27.521816,61.217079,81.071914,94.864105,19.438305,45.774891,61.886249,75.291252,-13.844504,-11.284159,-0.416717,6.875501,14.234989,31.887888,39.639084,44.520911,31.35061,47.834425,55.249279,59.015387,43.527717,60.793293,66.162442,67.244753,50.862678,67.041409,71.02089,70.865081,49.583496,309.721436,-69.438652,301.435445
9,0.062027,0.821034,0.090511,0.103765,-17.327271,-39.954117,-58.503651,-75.505165,-64.97747,-61.407108,-41.518089,-25.944695,-64.408562,-58.352909,-36.376396,-15.175804,-59.669701,-55.759747,-34.762665,-15.354973,-52.110741,-55.464855,-49.270443,-41.422005,19.903825,30.623449,38.910391,46.939205,25.587431,42.593841,49.989601,54.327036,22.75494,39.202175,47.543235,51.564335,18.708114,33.913017,41.792333,46.55897,13.900079,25.878399,32.631449,38.656918,24.572296,47.926895,67.742832,84.382588,46.718033,79.089764,96.464184,108.858433,36.796909,72.648136,93.193531,107.172672,27.520523,61.128136,80.911617,94.655422,19.439186,45.628601,61.623322,74.965725,-13.948158,-11.396854,-0.500573,6.705403,14.217946,31.781801,39.559673,44.480625,31.329467,47.70286,55.111341,58.902076,43.528816,60.641992,66.017711,67.119722,50.903347,67.030295,71.019297,70.887843,49.653677,310.473878,-69.339987,301.470618
10,-0.056397,-0.176236,0.030693,0.019908,-16.094101,-37.712631,-55.292152,-71.04245,-62.379627,-59.250869,-40.239257,-24.887054,-62.285545,-56.915725,-35.502204,-14.527565,-58.252887,-54.458873,-33.979408,-14.961547,-51.467445,-54.325367,-47.003986,-38.221321,19.047705,29.765465,38.257986,46.150541,25.800137,42.778055,50.013165,53.874419,23.20436,39.556141,47.857125,51.535103,19.30886,34.245111,41.81791,46.117356,14.585719,26.372996,32.840931,38.441768,24.446949,47.692486,67.441532,84.217701,46.677235,78.995121,96.376705,108.815037,36.790306,72.598721,93.134113,107.180248,27.526188,61.046265,80.787586,94.545834,19.423027,45.458061,61.342735,74.642842,-13.972525,-11.411019,-0.484234,6.614532,14.262468,31.729758,39.509149,44.430113,31.368036,47.622276,55.017296,58.80619,43.571042,60.562656,65.952886,67.073977,50.964764,67.05665,71.088816,70.981543,49.601675,310.239658,-69.304899,301.432542
11,-0.246002,0.552777,0.03915,0.115955,-16.104904,-37.008545,-54.185028,-68.858814,-59.53173,-57.035053,-38.925911,-23.838043,-59.533264,-55.302967,-34.551796,-13.988731,-55.81279,-53.09499,-33.632011,-15.487564,-49.418106,-53.037929,-46.369365,-38.350021,13.3032,21.401717,28.412909,34.584628,23.311423,39.490858,46.349403,49.8291,23.661585,38.889236,46.773788,50.226118,22.517807,36.179949,43.254484,47.223974,20.313317,31.699068,37.512882,42.313371,24.336525,47.517666,67.213326,84.05761,46.794262,78.998085,96.311692,108.704682,36.908455,72.579621,93.036324,107.106331,27.58651,60.911396,80.576821,94.342324,19.372387,45.201989,60.974144,74.265084,-14.080415,-11.530592,-0.569153,6.405025,14.244153,31.661437,39.420179,44.304748,31.352969,47.490451,54.817978,58.582246,43.548688,60.410675,65.794966,66.93536,50.95297,67.000161,71.075564,71.037267,49.358734,310.741025,-69.262688,301.497087
12,2.481171,-3.978184,0.139195,0.053167,-19.288857,-42.611458,-61.191399,-77.91544,-66.364391,-65.381344,-45.283676,-28.543305,-65.905151,-62.035584,-39.560646,-17.315781,-61.471596,-59.415424,-37.955498,-17.471306,-54.349903,-61.055294,-56.77985,-49.642742,20.679509,33.021083,43.405118,53.008407,28.172798,45.706013,53.329805,57.437529,25.407504,41.962653,50.716565,54.54225,21.657438,36.925796,45.082704,49.595338,17.384013,29.772035,37.148962,43.582638,24.101326,47.224983,66.879398,83.760555,46.941307,79.005604,96.259998,108.587253,37.076122,72.603092,92.961353,107.005108,27.676815,60.841267,80.392399,94.099262,19.317146,45.015026,60.666984,73.906689,-14.139325,-11.576843,-0.617738,6.207078,14.2475,31.573332,39.341842,44.204922,31.350079,47.368655,54.673976,58.430636,43.53908,60.291732,65.699364,66.871918,50.947956,66.984933,71.119024,71.175501,51.837937,306.723136,-69.125461,301.510549
13,-0.697907,0.775227,-0.043739,0.148461,-18.492553,-41.662628,-59.477096,-75.403919,-65.387317,-63.866512,-44.772216,-28.781616,-64.629673,-60.531978,-38.721885,-17.22219,-59.898273,-57.647586,-36.573257,-16.660789,-52.298732,-57.673141,-52.946891,-45.88441,21.95925,34.357757,44.14742,53.47251,28.68734,46.228211,53.977258,58.163948,24.479123,41.389857,50.280422,54.682818,19.448515,35.002974,43.758948,49.183833,13.830598,25.99433,33.305876,39.726177,23.920875,47.071952,66.750583,83.642887,47.171596,79.180698,96.389774,108.664363,37.278007,72.773769,93.067508,107.113735,27.749393,60.882042,80.346096,93.981388,19.215591,44.926197,60.507087,73.708522,-14.047058,-11.581154,-0.758604,6.020183,14.147933,31.436715,39.21907,44.070404,31.257033,47.202855,54.46821,58.263971,43.411416,60.088066,65.514322,66.747934,50.843424,66.86053,71.032203,71.193062,51.147874,307.455214,-69.161356,301.615861
14,-0.735214,0.651344,-0.158822,0.119833,-17.77034,-40.616707,-58.315521,-73.904526,-64.30664,-62.498588,-43.607391,-27.6614,-63.677513,-59.328243,-37.768364,-16.569786,-59.084598,-56.548794,-35.719322,-16.230171,-51.726826,-57.243164,-52.447929,-45.457088,22.089431,34.550368,43.987832,53.004577,29.134499,46.237202,53.77752,57.803881,24.482297,41.04309,49.704265,53.937095,18.964848,34.130799,42.61055,47.786976,12.801317,24.45898,31.622238,37.879086,23.943387,47.15276,66.868138,83.742932,47.484421,79.518002,96.714215,108.978024,37.54802,73.062436,93.291333,107.344128,27.904141,61.005375,80.383015,93.959439,19.228009,44.965268,60.504147,73.681653,-14.02011,-11.614141,-0.856479,5.941143,14.012712,31.244844,38.986789,43.813856,31.176399,47.009897,54.23735,58.069358,43.324459,59.865382,65.302184,66.610503,50.752379,66.708735,70.875085,71.081072,50.423687,308.065102,-69.309151,301.694238
15,-2.257576,1.065676,-0.186664,0.065356,-16.002205,-36.737755,-52.801185,-66.764122,-62.401302,-59.315323,-40.313301,-24.715278,-62.01519,-56.340786,-34.802078,-13.933273,-57.522137,-53.837345,-33.292625,-14.238373,-50.282215,-54.960869,-50.332855,-43.809254,18.6064,29.844604,38.888557,47.420908,27.226757,43.905247,50.831087,54.66449,24.335973,40.074264,48.439456,52.931749,20.463642,34.621542,42.821787,48.149797,15.806759,26.747969,33.414432,39.554646,23.996784,47.265987,67.039925,83.831657,47.842564,79.946869,97.129417,109.376541,37.853393,73.365875,93.516815,107.516853,28.069084,61.176842,80.433769,93.874008,19.239429,45.028793,60.526405,73.647056,-13.943564,-11.598901,-0.952154,5.91816,13.899277,31.148304,38.874762,43.701347,31.094593,46.910022,54.149739,58.03799,43.224437,59.685009,65.118761,66.467847,50.634844,66.546925,70.697331,70.928141,48.185406,309.092326,-69.47652,301.721142
16,0.724549,-1.532645,-0.301323,0.054452,-17.584443,-39.951394,-57.699624,-74.420689,-67.345917,-64.447175,-43.306641,-26.470253,-67.00367,-60.305134,-37.132554,-14.968575,-62.392411,-58.60286,-36.116799,-14.982056,-55.099091,-62.941224,-61.363221,-56.511521,23.597636,37.025658,48.287834,59.078138,28.743977,46.786793,54.037724,58.189871,24.317534,40.911006,49.515729,54.238696,19.193497,34.444725,43.026378,48.669155,13.765081,25.351508,33.183411,41.151845,24.099037,47.415882,67.279884,84.018219,48.165962,80.448532,97.687958,109.978958,38.146385,73.777428,93.935715,107.925751,28.279083,61.505974,80.698448,94.015892,19.36837,45.278217,60.790077,73.884178,-13.838527,-11.586786,-1.080003,5.87255,13.712037,30.97455,38.702021,43.562853,30.961348,46.795104,54.09362,58.06474,43.112038,59.532386,64.985429,66.384842,50.540156,66.439306,70.574644,70.803393,48.935704,307.525401,-69.752094,301.741314
17,-1.563378,1.521567,-0.385414,0.051203,-15.835235,-37.507828,-54.743912,-70.968304,-66.040958,-60.880817,-40.407165,-24.302925,-66.202114,-57.668243,-35.028786,-13.440582,-61.758716,-56.444755,-34.318588,-13.798851,-54.432026,-60.453049,-58.710319,-54.333309,22.262851,35.208912,46.527651,57.376988,26.499584,45.236586,52.709213,56.783295,22.703589,39.884295,48.255143,53.207477,18.307342,34.173271,42.383186,48.093209,13.468012,25.261921,32.65836,40.442605,24.292591,47.642361,67.630462,84.399124,48.494499,80.964043,98.257416,110.607284,38.450294,74.205665,94.360725,108.317024,28.514465,61.872562,80.975052,94.136467,19.537113,45.56163,61.048473,74.053573,-13.666799,-11.554737,-1.220447,5.802439,13.536357,30.803551,38.521797,43.425471,30.817087,46.682719,54.050432,58.117969,42.978225,59.346839,64.824335,66.278002,50.447308,66.281349,70.380588,70.596035,47.402201,309.02065,-70.107633,301.766199
18,-2.430244,1.690924,-0.238403,-0.146361,-14.345192,-34.804734,-51.661206,-67.355942,-63.785374,-57.151646,-37.087555,-21.371361,-64.216748,-53.93747,-31.681,-10.230172,-59.828923,-52.022747,-30.586693,-10.799767,-52.667301,-55.345459,-50.293854,-43.495114,21.809467,34.938482,45.557515,56.083539,26.717551,44.612931,51.532534,55.260666,22.183045,38.426404,46.740715,51.356187,16.80351,31.590004,39.688521,45.036008,11.067106,21.8943,28.943715,36.223113,24.506515,47.803585,67.838447,84.60585,48.744071,81.240943,98.551528,110.951225,38.751033,74.452148,94.604141,108.536567,28.823925,62.136405,81.160423,94.216484,19.813053,45.834251,61.297611,74.247688,-13.564935,-11.506497,-1.230167,5.823497,13.568579,30.781432,38.494083,43.441267,30.879195,46.730366,54.161645,58.280558,43.090574,59.406626,64.925174,66.402528,50.628262,66.403257,70.476203,70.630739,44.99548,310.695966,-70.322513,301.60423
19,-5.127594,3.29105,-0.139699,-0.155203,-11.741204,-29.326973,-44.641491,-58.99054,-59.188454,-50.025124,-29.725319,-14.491082,-60.531372,-47.357048,-24.950295,-4.024269,-56.744751,-46.540158,-25.256127,-5.932206,-50.080284,-51.23663,-46.729248,-40.85178,14.03509,23.586224,33.085142,42.71402,20.439683,37.897512,44.338846,48.167729,20.291679,34.880078,42.445195,47.137424,18.873569,32.210015,39.299864,44.34801,16.868829,27.253668,33.426387,40.192046,24.613095,47.865029,67.955624,84.737195,48.819878,81.368512,98.680264,111.086964,38.871392,74.583584,94.76627,108.674252,28.973088,62.307084,81.308476,94.276555,19.983628,45.969487,61.411252,74.326115,-13.452105,-11.484095,-1.274689,5.8448,13.740158,30.87528,38.565466,43.559025,31.031138,46.87764,54.329075,58.501488,43.216285,59.556136,65.102891,66.604204,50.75732,66.539922,70.629467,70.789598,39.890328,313.972678,-70.43977,301.434689
20,2.75164,-1.60472,-0.117027,-0.13327,-15.206886,-35.933762,-54.325207,-72.356495,-64.194042,-56.927032,-34.981247,-18.484016,-65.389023,-53.263882,-29.662102,-7.568504,-61.466022,-53.212852,-30.636475,-9.556412,-54.858833,-60.750378,-60.311646,-56.998455,16.684924,26.900393,37.292815,47.871253,20.549462,38.95379,46.052074,50.226117,20.266621,35.353716,43.052263,47.629253,18.955141,33.075336,40.401985,45.429629,17.460954,28.364594,35.457975,43.542068,24.744141,47.998329,68.090641,84.896038,48.939549,81.442005,98.733113,111.148556,38.97321,74.705258,94.884922,108.805538,29.080937,62.402001,81.394261,94.363438,20.104729,46.021752,61.438774,74.342503,-13.423428,-11.523528,-1.309775,5.854606,13.759844,30.856879,38.515634,43.482911,31.08906,46.926003,54.362914,58.522619,43.303502,59.667707,65.245411,66.775167,50.866433,66.698411,70.815533,70.98326,42.659145,312.358331,-70.53962,301.291792
21,-0.05864,0.378468,0.034584,-0.17547,-15.056877,-35.606208,-53.316879,-70.723125,-64.120937,-56.696949,-35.463249,-19.537284,-64.821853,-52.835277,-29.834289,-8.303329,-60.339683,-51.824192,-29.581741,-9.153282,-52.960498,-57.242134,-55.65081,-51.703514,18.752353,29.390998,39.254206,49.420806,21.464628,39.877922,47.432159,51.882721,19.435448,35.049077,43.252063,48.415324,16.56351,31.350017,39.44021,45.252468,13.440236,24.621136,31.971535,40.029778,24.872475,48.105492,68.185307,85.020802,49.040703,81.415821,98.583447,110.911206,39.055641,74.737301,94.843151,108.714466,29.14468,62.418091,81.367527,94.302784,20.142769,45.984123,61.334278,74.184918,-13.429973,-11.584562,-1.310689,5.892015,13.813839,30.944404,38.5854,43.572165,31.150909,47.010428,54.437842,58.629559,43.359818,59.752972,65.349486,66.935767,50.918711,66.74523,70.884768,71.103228,42.61235,312.736163,-70.493191,301.115686
22,0.089013,0.086117,0.139309,0.003495,-14.490235,-35.198433,-52.715859,-69.541878,-62.621785,-56.594811,-36.443253,-21.035958,-63.045548,-52.351193,-29.977616,-8.830056,-58.523266,-50.19048,-28.555458,-8.769516,-51.236905,-54.157448,-49.664727,-43.310784,21.369656,32.928629,41.719776,51.087203,24.663139,41.814551,48.867572,53.209737,19.735172,34.816549,43.384123,48.709256,13.855681,28.092498,36.803455,42.936457,7.778946,18.4313,26.268638,34.315186,24.928322,48.138519,68.162636,84.975174,49.095921,81.376991,98.395775,110.598084,39.093727,74.750794,94.809563,108.634781,29.163838,62.416088,81.363465,94.291718,20.133694,45.931915,61.286419,74.159683,-13.570369,-11.77384,-1.41585,5.842898,13.75325,30.925459,38.524897,43.523123,31.121269,46.953704,54.331434,58.53986,43.337551,59.710092,65.286723,66.899791,50.903582,66.697929,70.835022,71.093398,42.714283,312.825775,-70.340962,301.122676
23,0.023346,-1.105629,0.246105,0.033938,-13.942749,-34.489747,-51.950673,-68.336792,-61.606419,-56.257485,-36.443779,-21.061295,-62.295147,-52.586644,-30.26651,-9.17949,-58.215992,-50.735173,-29.073006,-9.376305,-51.485447,-54.917313,-50.223427,-43.588143,21.791819,33.836225,42.654122,51.866567,25.478986,42.6827,49.836053,54.137451,20.446599,35.80936,44.44276,49.629016,14.333506,28.869182,37.598974,43.491124,7.868238,19.053139,27.003937,34.800013,24.930634,48.097241,68.046994,84.835637,48.993576,81.289273,98.228772,110.351841,38.976117,74.703656,94.719784,108.497624,29.06781,62.360939,81.306027,94.188115,20.088627,45.821732,61.178605,74.043423,-13.65041,-11.88231,-1.47907,5.831981,13.662946,30.76723,38.291789,43.247988,31.052306,46.83959,54.120482,58.273185,43.263327,59.602634,65.088479,66.666622,50.801397,66.572625,70.67515,70.910024,42.745074,311.73182,-70.087412,301.168288
24,5.493965,-4.708407,0.230816,0.12402,-17.70694,-40.991272,-60.758755,-79.759449,-67.318291,-65.194039,-44.086693,-27.481934,-67.933354,-61.267262,-37.986443,-15.646363,-63.971798,-60.154919,-37.361779,-15.863205,-57.559983,-65.849476,-64.136856,-59.038662,25.504217,39.647828,50.594274,61.413563,28.240662,46.716978,54.706814,59.115757,22.960804,39.594549,48.819493,53.759551,16.901471,32.472257,41.692458,47.424045,10.766802,22.67816,31.277288,39.853815,24.894482,48.042652,67.910683,84.697357,48.95977,81.205879,98.084954,110.185501,38.930844,74.661484,94.621033,108.374588,29.016346,62.323139,81.247788,94.115319,20.022995,45.741417,61.103176,73.973625,-13.779345,-12.043726,-1.572339,5.755323,13.408163,30.504148,37.981209,42.898048,30.846393,46.562021,53.7503,57.854319,43.095514,59.338293,64.74233,66.308654,50.667337,66.38725,70.436175,70.650573,48.228808,307.03885,-69.866827,301.307745
25,-0.988198,0.49325,0.223309,0.147373,-17.855003,-41.043434,-60.163089,-78.307949,-67.341362,-63.652484,-43.260337,-27.115882,-66.96944,-59.434032,-36.665222,-14.829139,-61.988308,-56.990524,-34.175102,-13.308723,-54.475387,-61.023994,-57.930393,-51.921283,27.408686,42.150646,52.571164,62.848939,30.106228,47.849616,55.844084,60.606177,22.809503,39.640949,48.948514,54.284849,14.619595,30.503543,39.827398,46.0571,6.220724,18.335389,26.884166,35.085633,24.739277,47.824161,67.715893,84.515384,48.46503,80.957393,97.948002,110.101215,38.517517,74.545566,94.630245,108.36224,28.741299,62.345661,81.367046,94.211483,19.918339,45.771137,61.178306,74.041134,-13.83182,-12.227816,-1.790626,5.579484,13.087259,30.192049,37.660601,42.626717,30.55324,46.323566,53.526937,57.668747,42.841547,59.03605,64.381511,65.950095,50.452619,66.097691,70.107441,70.300621,47.220708,307.559369,-69.66342,301.482387
26,-1.071945,0.535746,0.140648,0.162342,-17.182937,-39.909828,-58.642284,-76.164974,-66.071411,-61.37075,-41.319305,-25.545753,-65.548805,-57.136596,-34.818008,-13.377571,-60.495483,-54.93322,-32.490944,-11.961273,-53.13343,-60.006271,-57.796394,-52.705604,27.061797,41.849169,52.176246,62.451835,30.678124,47.769008,55.274066,59.86926,23.164717,39.592562,48.287612,53.333486,14.723621,30.246711,38.870329,44.762047,6.07445,17.760802,26.105753,34.221548,24.55529,47.675022,67.622806,84.484829,47.98946,80.754993,97.933078,110.194599,38.08984,74.453716,94.695614,108.456287,28.441269,62.38948,81.547748,94.419193,19.802925,45.83044,61.314811,74.177845,-13.834056,-12.343314,-2.037689,5.326665,12.786362,29.878419,37.333978,42.275073,30.271929,46.083715,53.304981,57.432823,42.615664,58.790307,64.082775,65.618668,50.279149,65.891432,69.851239,69.999563,46.115186,308.123536,-69.556349,301.67315
27,-1.868339,1.466042,0.110355,0.149041,-15.370949,-35.40667,-52.483967,-68.201283,-62.965439,-56.736969,-36.421051,-20.607262,-63.396859,-53.812294,-31.517327,-10.209847,-59.082665,-52.974106,-30.871628,-10.610756,-52.294499,-58.286934,-56.099121,-51.365708,19.734443,31.549594,41.286782,51.101751,25.919389,42.527299,49.569822,53.934452,23.036028,38.312104,46.241746,50.850871,18.978347,33.42987,40.896643,46.014134,14.336939,25.646304,32.795075,39.973573,24.398735,47.605957,67.63369,84.540436,47.693047,80.624428,97.951195,110.323746,37.85107,74.405754,94.748016,108.558174,28.291969,62.427715,81.692986,94.616844,19.765801,45.875553,61.396408,74.286072,-13.874737,-12.479116,-2.228449,5.12894,12.580436,29.524045,36.893376,41.7446,30.094323,45.81699,52.977235,57.035892,42.47018,58.565103,63.798673,65.289983,50.147151,65.735981,69.666877,69.791155,44.166653,309.614723,-69.526188,301.847336
28,2.488311,-1.148805,0.062851,0.097084,-17.171081,-37.788162,-55.816417,-72.85073,-65.491001,-60.284866,-38.350936,-21.693214,-66.761421,-58.030952,-34.41053,-12.268409,-63.171775,-59.310745,-36.245452,-14.680893,-56.900116,-67.01271,-68.39011,-66.196575,14.385438,24.203123,35.401338,46.125458,21.288356,38.990791,46.41897,51.028515,23.473542,38.528132,46.126767,50.5025,24.415162,38.407176,45.054719,49.622508,24.616456,35.955017,42.527768,49.929938,24.263306,47.570183,67.719429,84.81617,47.381058,80.535828,98.015305,110.506439,37.522442,74.306397,94.750282,108.605988,28.032063,62.368687,81.756043,94.811554,19.624283,45.832901,61.405014,74.399735,-13.962003,-12.589896,-2.402659,4.863956,12.447562,29.342215,36.606645,41.366947,30.034845,45.80359,52.977025,56.995186,42.442948,58.623964,63.871637,65.360798,50.082313,65.71133,69.666926,69.835505,46.515495,308.485097,-69.602806,301.963599
29,-0.250854,-0.081523,-0.228779,0.141643,-17.148949,-38.54512,-56.535324,-73.268108,-67.298149,-60.074226,-38.728958,-22.490639,-67.426964,-57.280449,-33.915459,-11.889519,-62.542088,-56.744808,-33.587105,-12.626381,-54.757519,-61.921166,-60.170071,-55.721237,18.886981,30.292505,40.694843,50.762569,25.470514,42.815439,49.970743,54.661094,23.892161,39.555079,47.603961,52.631334,21.124001,35.958549,43.362906,48.798819,17.706227,29.481672,36.255865,43.650341,24.254219,47.783867,68.075855,85.354923,46.979519,80.352596,98.028225,110.638928,37.160523,74.205929,94.84235,108.788738,27.860584,62.268288,81.768643,94.902249,19.697788,45.916043,61.487286,74.495991,-14.073919,-12.787979,-2.631975,4.531579,12.334472,29.013332,36.253259,41.01019,30.05048,45.98116,53.280343,57.367096,42.458274,58.769769,64.032954,65.484262,50.021848,65.626399,69.70384,69.996167,46.076145,308.420497,-70.020081,302.122165
30,-0.131767,0.225155,-0.449432,-0.302009,-15.958695,-36.445748,-53.685963,-69.629288,-65.651745,-58.100396,-37.013718,-21.279602,-66.691315,-56.443463,-33.649292,-12.01014,-62.488175,-57.251026,-35.273163,-14.975739,-55.280365,-62.882218,-62.285706,-59.311238,15.47196,26.43524,37.462344,47.989567,22.856149,41.302615,48.350177,52.370129,23.531093,39.766697,47.611395,52.087114,23.080772,38.137573,45.331632,50.17878,21.77895,33.376727,39.979069,47.255688,24.276581,48.003628,68.431652,85.83546,46.804493,79.981258,97.642742,110.34573,37.029739,73.947338,94.599483,108.701832,27.882603,61.965946,81.465969,94.818683,19.928982,45.982681,61.46727,74.400204,-14.277053,-12.984876,-2.823229,4.281218,12.269251,28.756636,36.094894,40.949428,30.228655,46.511398,54.103105,58.380927,42.704152,59.438242,64.913454,66.567463,50.190599,65.871079,70.078764,70.522355,45.701334,308.652494,-70.712557,301.826998
31,0.447235,-0.228428,-1.104653,-1.269625,-16.076386,-36.01458,-53.190903,-69.014557,-59.945458,-56.913437,-42.034161,-31.324585,-60.943943,-56.535599,-41.067662,-26.233097,-57.49831,-57.623738,-43.199249,-29.524853,-51.251473,-60.277897,-61.465657,-60.802323,7.145462,14.818877,23.937671,31.936116,19.760515,36.48764,42.032876,44.658244,24.490856,39.305805,45.330249,48.215475,27.369994,41.53439,47.388329,50.821022,28.489022,40.327737,46.43405,52.619379,24.423329,48.155285,68.310357,85.750454,45.832684,79.054333,96.837445,109.670346,36.049496,73.009129,93.698582,107.858723,27.178151,60.894825,80.287045,93.625225,19.710411,45.123917,60.132843,72.273022,-14.639912,-13.192432,-3.059733,3.938503,11.7565,28.185728,35.55312,40.46176,30.087048,47.251254,54.889459,59.058699,42.826232,60.392804,65.900657,67.459077,50.360029,66.406874,70.595257,70.701887,45.851172,308.397072,-72.114607,300.530379
32,2.89611,-3.894141,-0.757301,-1.780648,-19.683494,-43.444702,-64.216804,-82.633735,-59.649032,-66.809944,-58.406547,-51.127315,-59.937561,-67.939258,-58.679512,-47.110908,-56.803425,-67.901218,-59.200733,-48.710106,-51.606914,-68.858665,-74.11084,-75.464527,14.432244,25.496547,35.775719,43.570263,26.710091,42.590704,46.64946,48.160937,26.137937,39.11092,43.306181,44.724205,23.442852,34.620838,39.202286,41.83415,18.926168,27.978889,33.947943,40.279016,23.450787,46.69503,66.160309,83.511967,42.111408,75.461529,93.426602,105.630375,33.488136,69.917347,89.330784,101.001125,25.973259,57.80143,74.170063,83.718315,19.839592,43.310131,55.629147,63.930702,-16.275049,-15.669241,-5.665588,2.308873,9.235306,25.142656,32.63019,37.775642,28.214776,46.294531,55.491242,60.928107,41.532093,59.966764,67.253708,70.443006,49.636871,65.912131,70.953002,71.570914,48.460956,304.47992,-73.158234,298.72672
33,0.770897,-1.424236,7.583084,0.153845,-21.949859,-46.792969,-67.9212,-85.423897,-58.597641,-71.88842,-71.134586,-69.325847,-56.279651,-71.741627,-71.424625,-67.321953,-51.174488,-67.850761,-67.628025,-64.580875,-44.477829,-62.790275,-69.666584,-73.497322,10.308366,18.596457,25.457472,30.535838,26.015065,41.674661,46.473804,48.608812,26.44123,40.828248,45.940194,48.196073,24.559312,37.10886,42.458447,45.634135,20.49469,30.727042,37.012863,42.735039,17.750416,35.985752,51.666001,64.953575,34.175984,59.204807,72.614273,80.969319,28.033299,56.273918,69.130165,75.311508,22.702824,47.150185,57.092354,61.342369,18.237683,35.83659,43.342999,47.015866,-13.595032,-12.989755,-3.552291,4.930351,5.68814,20.484193,29.714373,36.343712,22.416524,40.619014,51.87215,58.814057,35.04368,53.349615,62.679064,67.437131,43.468067,59.03374,65.367677,67.446394,48.988752,303.013792,-65.818251,298.838673
34,1.503708,-1.389558,-5.535839,-13.116405,-23.052589,-47.369934,-68.454277,-85.323658,-54.612865,-76.067734,-82.83308,-86.563534,-51.245098,-75.878494,-84.315227,-87.68177,-45.834183,-70.313827,-78.875954,-82.852455,-39.322025,-61.690109,-73.093517,-81.313431,0.218807,5.293974,13.155135,18.657776,21.806911,36.991498,42.070692,44.578253,27.955733,42.086167,46.809036,48.858878,30.921964,43.168022,47.978008,50.553297,30.778579,41.217091,47.239078,52.131724,15.363476,33.349114,48.396423,58.925102,37.383042,60.028599,68.065384,71.754135,31.687569,54.830395,60.437359,62.129608,25.936501,44.958584,48.641178,48.983173,20.384583,34.552197,37.50539,37.719154,-14.523622,-16.438737,-8.664311,1.230056,3.985014,18.004926,24.117637,28.551464,20.151963,35.179519,42.507786,48.064718,32.782022,47.246179,53.141046,57.199098,41.732534,54.461221,57.782677,58.829865,50.21434,301.572527,-71.63221,285.670561
35,2.084015,-1.677054,-7.780552,-17.05907,-25.231567,-50.17836,-72.320217,-89.516476,-53.456142,-82.449955,-96.362091,-105.352192,-48.394157,-81.433731,-97.586884,-107.86282,-42.058044,-73.031193,-88.818077,-99.034367,-35.059341,-59.740871,-72.232304,-81.577663,-5.728166,-2.958228,4.837428,10.146099,20.930129,34.938667,40.135186,43.311171,30.092161,43.336081,48.100854,50.723752,35.175665,46.864759,51.619837,54.392739,36.480093,47.376398,52.837938,56.65357,11.457253,27.548195,40.868431,49.770378,35.534718,55.268429,60.12719,60.553185,31.852616,51.053627,52.327549,50.59631,27.111569,42.330975,40.95282,37.46949,21.784928,33.434235,32.754719,29.898514,-15.242669,-19.949396,-15.209793,-7.081413,-2.855178,7.157775,11.226732,14.589486,11.851214,21.870724,26.949461,31.685792,24.203173,33.584456,37.630986,41.382101,33.81996,42.417359,44.22136,45.038614,51.927143,299.819005,-79.783974,268.535023
36,2.134735,-2.0513,-7.923271,-21.768341,-27.270035,-53.284973,-76.42614,-94.1525,-57.733784,-89.823269,-104.768749,-114.16777,-51.497795,-87.593948,-104.257095,-114.677765,-43.732727,-76.78957,-92.787552,-102.958488,-35.411087,-61.503422,-73.826866,-82.814907,-5.9385,-2.244195,7.978055,15.594462,21.189728,36.755229,43.727764,48.704045,31.109401,45.651734,52.4673,56.917961,36.728454,49.171668,55.333742,59.370737,38.565874,49.801893,55.250786,59.09533,4.697342,15.758801,25.78624,32.107327,26.790676,41.527325,42.993359,40.573242,27.572205,42.194572,39.106705,33.914475,26.244083,38.038731,31.911118,24.6618,23.36293,33.126057,28.826729,22.710308,-16.247028,-25.200603,-25.029443,-19.700666,-13.494096,-9.580577,-6.964335,-3.747732,0.11672,4.384896,8.249978,12.671184,12.917087,17.513577,20.627441,24.155563,23.920343,28.949025,29.951135,30.867166,53.688452,297.705389,-88.080671,246.704366
37,1.103554,-0.107964,-10.638393,-26.487148,-28.130356,-53.0579,-74.945423,-92.126392,-60.48048,-90.284706,-105.491181,-116.703793,-52.539322,-85.181809,-103.229988,-117.167782,-42.778839,-72.756146,-90.113594,-103.10566,-32.234619,-55.675598,-68.886406,-80.242893,-15.624818,-15.278522,-4.504977,4.126743,15.13142,32.227231,41.429142,48.17241,32.032211,49.539503,58.540255,64.915751,44.284802,60.910557,68.79417,74.009413,52.306094,67.533264,73.558116,77.366881,5.323425,13.422397,20.190731,22.612518,21.901199,29.455513,27.660587,23.686672,21.927612,28.858451,23.855781,19.183044,20.367015,27.912689,21.755046,16.367717,17.898307,25.279918,20.905323,16.35728,-15.637094,-28.129079,-32.827896,-31.885313,-24.626101,-26.07103,-26.128112,-24.454713,-13.421452,-15.197808,-15.529228,-13.568054,-1.054722,-1.2388,-1.046583,0.531054,10.85513,12.40241,11.890981,12.280477,54.437101,297.584628,-99.073969,220.204421
38,0.428009,0.222857,-20.647328,-33.834175,-27.653709,-51.980805,-73.595581,-90.947411,-60.007622,-89.940994,-105.495186,-117.211247,-52.234337,-85.175102,-103.207535,-117.246563,-42.584427,-72.85342,-90.017967,-102.823631,-32.097702,-55.77388,-69.093224,-80.327419,-15.663757,-13.934388,-0.105457,10.595914,15.777836,32.311175,40.981538,47.672763,32.851429,49.381014,57.781454,64.12269,44.942382,61.022375,68.463077,73.662993,52.498459,67.418063,73.112216,76.801495,3.476486,10.270672,16.440033,19.645478,16.857937,25.244969,24.749439,22.565586,20.045254,28.094307,25.888527,24.256737,21.328354,30.555966,26.841648,23.89428,21.496868,30.574768,27.385529,24.008366,-19.477846,-36.48922,-46.310771,-50.770274,-37.304998,-44.866274,-49.170327,-49.580443,-26.965923,-36.523571,-41.357406,-41.171574,-14.557455,-20.95113,-24.150153,-24.065098,-1.824854,-3.720783,-5.581965,-6.3473,54.478048,297.89739,-120.108359,186.460151
39,0.348404,0.112497,-10.330398,-25.459312,-27.965836,-52.40641,-74.115372,-91.429882,-60.384384,-90.250054,-105.84605,-117.69191,-52.611557,-85.425659,-103.27628,-117.467388,-42.923447,-73.290585,-90.181297,-102.942192,-32.332924,-56.182182,-69.421086,-80.710453,-15.745367,-13.85988,-0.236763,10.090079,15.208213,31.703477,40.368369,47.015418,32.300974,48.590671,56.980613,63.526959,44.570225,60.41191,67.761173,73.153503,52.344182,67.162675,72.813443,76.618837,-3.116112,-1.274186,4.747593,10.685165,-1.123124,4.475761,6.141941,6.027454,7.602882,16.515976,17.791614,17.834266,15.206955,25.276428,22.492138,19.539779,21.730922,29.182685,26.157486,22.973087,-22.2392,-43.647191,-58.191161,-66.747724,-49.85249,-67.331753,-67.494262,-64.2871,-40.944456,-60.40429,-63.538815,-61.413748,-29.571994,-41.96004,-40.702357,-37.924595,-17.571332,-25.577304,-23.867571,-21.92541,54.393711,298.128757,-130.871498,161.119709
40,0.032318,-0.337491,-9.350018,-23.33335,-27.923584,-52.391029,-74.154682,-91.648911,-60.320526,-90.212357,-105.776653,-117.571289,-52.523964,-85.359169,-103.137188,-117.27388,-42.813973,-73.247383,-90.139172,-102.951428,-32.154213,-56.017616,-69.311062,-80.756664,-15.928864,-14.061112,-0.474304,9.639623,15.192689,31.546001,40.288143,47.100955,32.216512,48.373359,56.806168,63.484413,44.454406,60.226375,67.629533,73.203669,52.234958,66.95859,72.808417,76.990883,-8.020077,-10.402576,-6.533226,-1.369526,-12.171753,-9.051372,-7.169048,-6.053192,0.075714,7.43462,9.89011,10.992462,11.795357,19.784363,17.181473,14.462265,22.581802,27.442085,23.758747,20.283234,-25.080547,-49.466841,-68.000029,-80.053734,-56.538356,-80.697871,-81.25415,-76.944113,-49.104354,-75.924614,-83.267053,-84.550115,-39.242819,-57.683548,-54.517889,-49.801238,-28.964389,-42.346141,-39.103924,-35.168588,53.81357,297.927181,-140.833975,137.922274
41,-0.067978,-0.291906,-9.173389,-23.425994,-27.96199,-52.383247,-74.112465,-91.572796,-60.433731,-90.243153,-105.674801,-117.309952,-52.546211,-85.344807,-103.005192,-116.985512,-42.755287,-73.120445,-89.942093,-102.703091,-32.009285,-55.835815,-69.144482,-80.630917,-16.079276,-14.393651,-0.853502,9.429782,15.146252,31.381708,40.118316,46.974909,32.157478,48.252809,56.706218,63.438236,44.372376,60.110469,67.531819,73.166717,52.16124,66.877302,72.814221,77.119262,-10.262879,-14.189965,-10.330937,-4.072598,-16.936856,-13.830643,-11.501347,-9.942273,-3.401116,3.361221,6.898246,9.370124,10.390056,16.765789,14.21751,12.104507,23.499389,25.847809,21.999653,19.404888,-26.576785,-53.433959,-74.329261,-87.488546,-58.408573,-88.268318,-86.667735,-80.771954,-52.377941,-88.478677,-99.237568,-102.315314,-44.701772,-70.979666,-65.887233,-58.837627,-36.960172,-57.235278,-52.44707,-46.207327,52.844393,297.801239,-150.908563,114.662244
42,0.144447,-0.366452,-6.814785,-20.585507,-28.047546,-52.468643,-74.163643,-91.576675,-60.638122,-90.242076,-105.642356,-117.264988,-52.815582,-85.354889,-102.98022,-116.931335,-43.067871,-73.181133,-89.969078,-102.688865,-32.295021,-55.938102,-69.216625,-80.776737,-16.149313,-14.580729,-1.125697,9.192661,15.040931,31.201298,39.994643,46.955927,31.987578,48.054591,56.615359,63.453538,44.212468,59.953512,67.510775,73.294936,52.075876,66.769387,72.903759,77.436709,-18.843453,-26.126473,-22.639298,-14.392205,-22.839352,-17.577233,-15.116078,-13.815983,-3.934113,5.760646,9.120998,11.10062,14.280578,20.547866,16.195942,12.63842,30.631988,31.603786,26.364853,22.974094,-28.35732,-56.863564,-79.963233,-94.244874,-58.494652,-93.441804,-89.414053,-80.791194,-52.920924,-96.347871,-109.997904,-115.433237,-46.680903,-79.881098,-72.834993,-63.317514,-41.347334,-68.206862,-62.367971,-54.071001,51.755499,297.625815,-158.956689,94.267765
43,0.110344,-0.247854,-5.566372,-17.460577,-28.067459,-52.351661,-73.968452,-91.625198,-60.60997,-90.101017,-105.47327,-117.032695,-52.884178,-85.344989,-102.882431,-116.751228,-43.22438,-73.235527,-89.968002,-102.619251,-32.477348,-56.09301,-69.334087,-80.873794,-16.189266,-14.630611,-1.084831,9.199861,15.083329,31.090703,39.884419,46.923805,31.971709,47.961212,56.586954,63.55944,44.146679,59.936309,67.563547,73.485683,52.002233,66.810624,73.136176,77.849745,-20.273541,-27.906647,-24.282761,-14.964775,-24.231285,-16.659428,-13.847306,-12.925759,-5.175957,6.028278,9.934284,11.911297,13.575084,19.206482,14.045116,9.896541,30.670074,30.101063,24.290085,21.155159,-29.527658,-59.576736,-84.237868,-98.364714,-55.619473,-94.280788,-87.864297,-77.185903,-49.420127,-97.772811,-114.801543,-123.85211,-43.894218,-81.598026,-72.285353,-60.659807,-40.621817,-73.115439,-66.812285,-56.751864,50.291519,297.567146,-166.097385,76.996373
44,0.20327,-0.137876,-2.450775,-14.49531,-27.945625,-52.101928,-73.744709,-91.637489,-60.362526,-89.951545,-105.352524,-116.871608,-52.715904,-85.370544,-102.877819,-116.62556,-43.114471,-73.201172,-89.952221,-102.544109,-32.459861,-56.173988,-69.442577,-80.906788,-16.175545,-14.578593,-0.878622,9.46104,15.172422,31.137485,39.896003,46.925447,32.017292,47.986678,56.591276,63.558822,44.139158,60.031799,67.648873,73.546742,51.924724,66.852923,73.195629,77.88293,-20.553292,-29.906159,-29.898972,-22.84813,-23.770638,-16.085209,-13.169598,-12.279293,-4.949032,4.865924,9.022316,11.173061,13.308506,17.098125,12.53786,9.059131,29.988533,28.648212,23.051479,20.198124,-27.73923,-56.745436,-82.163104,-97.993174,-54.358425,-93.203114,-87.929024,-77.191035,-48.593876,-96.611916,-117.14223,-130.531442,-43.286829,-82.205773,-73.183791,-61.413712,-40.610696,-73.802771,-67.925867,-57.739068,48.469888,297.607876,-170.573061,62.679669
45,0.350235,0.059812,-1.239373,-13.286744,-27.85833,-51.946609,-73.639618,-91.51886,-60.230552,-89.936668,-105.392395,-116.917751,-52.671821,-85.428589,-103.009426,-116.724014,-43.132576,-73.275181,-90.092411,-102.633075,-32.520355,-56.238418,-69.525306,-80.947311,-16.14656,-14.65199,-1.016968,9.442811,14.906981,30.929188,39.64616,46.659735,31.754544,47.803056,56.389797,63.327394,43.9451,59.855168,67.465054,73.333801,51.801926,66.763038,73.09106,77.712004,-20.805874,-31.136341,-31.578815,-23.688823,-25.138893,-17.024883,-14.023773,-13.827701,-5.934814,3.732502,7.584195,9.357777,12.71315,16.19331,11.732392,8.41174,29.725811,27.670853,22.245312,19.906357,-25.743067,-54.891195,-80.383716,-95.3286,-53.205025,-92.383229,-84.884271,-72.877472,-46.984215,-96.022668,-116.27195,-129.365637,-41.369775,-80.783278,-71.280378,-59.125612,-38.625728,-72.137949,-66.130918,-55.810399,46.766985,297.855752,-173.865572,49.580989
46,0.583054,0.098677,-0.690033,-7.700079,-27.780075,-51.812554,-73.574627,-91.437229,-60.030464,-89.864617,-105.434441,-117.032387,-52.609291,-85.483154,-103.179566,-116.943363,-43.170479,-73.422306,-90.342419,-102.897961,-32.650543,-56.409462,-69.722283,-81.132752,-16.130752,-14.59019,-0.891195,9.539142,14.702155,30.740553,39.450868,46.443399,31.553361,47.642962,56.253896,63.188159,43.783771,59.751106,67.360844,73.20021,51.664853,66.682615,73.01365,77.57146,-20.765934,-31.738449,-33.023746,-25.425922,-25.206859,-17.046192,-14.122181,-14.357242,-5.837127,3.293461,6.965435,8.280682,12.7328,15.130268,10.781525,7.527535,29.670708,26.808735,21.49656,19.440422,-24.23598,-52.8184,-78.407536,-93.786556,-52.301845,-91.208693,-84.365493,-72.318643,-46.194396,-94.565525,-115.856314,-130.266495,-40.526128,-79.460837,-70.031055,-57.705142,-37.798662,-71.097664,-65.375111,-55.055531,45.353497,298.172322,-176.552147,42.098803
47,0.713173,0.149275,-0.699554,-4.890805,-27.717682,-51.754738,-73.594803,-91.552449,-59.879975,-89.912293,-105.540768,-117.134857,-52.465782,-85.589928,-103.332402,-117.10064,-43.017105,-73.523484,-90.499043,-103.061646,-32.529671,-56.475426,-69.815884,-81.190029,-16.261884,-14.744479,-0.972581,9.522581,14.532626,30.617942,39.319365,46.339004,31.430503,47.45723,56.016627,62.969007,43.70404,59.582318,67.146978,72.989024,51.594804,66.550296,72.825188,77.362016,-20.916,-32.582085,-33.843521,-25.469318,-25.412968,-17.530781,-14.664848,-15.090111,-5.902107,2.776428,6.339237,7.730965,12.803066,14.763073,10.520096,7.598648,29.9156,26.646686,21.32444,19.440617,-22.60719,-51.167731,-76.792041,-91.961943,-50.650319,-89.934424,-82.485342,-70.1824,-44.881546,-94.224904,-115.372889,-129.690309,-39.471604,-78.759643,-69.077345,-56.741429,-37.0238,-70.237864,-64.402845,-54.119308,44.209053,298.459717,-179.109318,37.346118
48,0.760093,0.112509,-0.257492,-1.414381,-27.658058,-51.733749,-73.642684,-91.659462,-59.810005,-89.95166,-105.675018,-117.364997,-52.396339,-85.638038,-103.468231,-117.33205,-42.94654,-73.623104,-90.676311,-103.293617,-32.473457,-56.53585,-69.907196,-81.258625,-16.416297,-14.911205,-1.129378,9.321855,14.330295,30.516498,39.217255,46.204388,31.289959,47.335026,55.837107,62.737332,43.605486,59.404193,66.969125,72.820273,51.504772,66.368553,72.627179,77.18168,-21.447487,-33.953156,-35.019505,-25.864197,-25.966175,-18.218811,-15.594647,-16.25734,-6.127247,2.039932,5.128097,6.578899,12.756557,14.071918,9.686531,7.210361,29.980453,25.942268,20.34082,18.679687,-21.617553,-50.200121,-75.713026,-90.36743,-49.499846,-89.435456,-81.112612,-68.522925,-43.821322,-94.325168,-114.983923,-128.747849,-38.714235,-78.683814,-69.001411,-56.750055,-36.628103,-69.928871,-64.053869,-53.981722,43.439186,298.628558,-180.89677,35.988069
49,0.671128,0.139569,-0.582424,2.286019,-27.683052,-51.824547,-73.836834,-91.953381,-59.873223,-90.051853,-105.851784,-117.640663,-52.471733,-85.715103,-103.619637,-117.548344,-43.023949,-73.722622,-90.795971,-103.464878,-32.537865,-56.592339,-69.917919,-81.22982,-16.42624,-14.987097,-1.292844,9.092242,14.081638,30.315982,38.979392,45.931278,31.019232,47.17051,55.69897,62.608891,43.355433,59.257325,66.88817,72.805884,51.293671,66.205605,72.497552,77.113037,-21.706261,-34.956459,-36.055424,-26.422749,-26.720673,-19.099148,-16.458046,-17.145813,-6.867749,0.984295,3.860458,5.512195,12.174877,13.762687,9.356758,7.098816,29.702705,25.843116,20.114364,18.426819,-20.902014,-49.628294,-75.173624,-89.901789,-48.838321,-89.461187,-80.213143,-67.291752,-43.293115,-95.109732,-115.361873,-128.632345,-38.427034,-79.094633,-69.062649,-56.764567,-36.565926,-70.20852,-63.960015,-53.788437,43.174364,298.808867,-182.415144,38.314828
50,0.484543,-0.001754,-0.733452,5.789719,-27.761444,-51.874329,-73.92492,-92.195092,-59.905472,-90.071125,-105.884308,-117.746476,-52.477387,-85.694104,-103.589333,-117.567261,-43.009941,-73.702504,-90.759385,-103.503605,-32.504883,-56.586846,-69.904988,-81.220276,-16.356202,-14.819654,-1.120696,9.147558,14.099706,30.366543,38.949171,45.814928,30.98858,47.235731,55.736688,62.613707,43.273454,59.348049,66.995319,72.934461,51.177865,66.263453,72.572505,77.170293,-22.098713,-35.954796,-36.923515,-27.072281,-28.180241,-20.511612,-17.925053,-18.515362,-8.469212,-0.448815,2.135422,4.010353,10.782875,12.976375,8.673786,6.591453,28.658684,25.283924,19.630989,17.873325,-20.436293,-49.365293,-75.269214,-89.820668,-48.132625,-89.314401,-79.099716,-66.066167,-42.854638,-96.014179,-115.768061,-128.514359,-38.306918,-79.380445,-69.008766,-56.983015,-36.656206,-70.697603,-63.990884,-53.844723,43.0675,298.817808,-183.740003,44.115242
51,0.349708,0.087142,-0.429863,8.27487,-27.813835,-51.953842,-74.030811,-92.444263,-59.90538,-90.10461,-105.939022,-117.848785,-52.42765,-85.680233,-103.573105,-117.587986,-42.9478,-73.677566,-90.702804,-103.452942,-32.442261,-56.559082,-69.856132,-81.133667,-16.413062,-14.874834,-1.188189,9.067073,14.020048,30.373879,38.918654,45.758315,30.907279,47.225406,55.645384,62.470224,43.175789,59.319768,66.950155,72.894497,51.067196,66.218166,72.499232,77.099008,-22.984211,-37.618698,-39.156235,-29.996086,-29.66272,-23.217751,-20.425644,-20.326,-10.11985,-2.813816,-0.710014,1.17643,9.116615,11.448051,7.536941,5.723877,27.0023,23.950115,18.406002,16.650089,-19.792168,-47.835562,-73.273657,-87.883965,-46.434989,-87.752492,-77.176876,-64.306916,-41.804807,-95.506096,-115.131581,-127.599743,-37.799169,-78.985774,-68.57479,-56.878712,-36.451553,-70.435429,-63.701979,-53.895828,43.10436,298.827432,-184.482714,52.312594
52,0.115036,-0.034654,-0.706158,9.547743,-27.914703,-51.999298,-74.028099,-92.505501,-59.767364,-90.050457,-105.90778,-117.825725,-52.206779,-85.576721,-103.509739,-117.516517,-42.668815,-73.514568,-90.566528,-103.326862,-32.133568,-56.35849,-69.669113,-80.923336,-16.296625,-14.612704,-0.914351,9.269255,14.075204,30.560699,39.06068,45.809247,30.912812,47.419117,55.840885,62.622426,43.149842,59.472069,67.1194,73.048514,51.021957,66.316151,72.612186,77.204663,-23.94873,-39.434189,-41.550522,-33.03154,-30.922073,-26.793869,-23.391311,-22.15963,-11.389423,-5.554149,-3.990452,-2.187172,7.692112,9.910172,6.291847,4.523758,25.365509,22.806347,17.334343,15.533375,-18.142641,-44.46678,-68.695876,-83.412481,-42.310616,-82.48783,-72.297938,-60.043754,-38.163366,-91.077498,-110.626456,-122.444546,-34.863078,-75.474811,-65.186797,-53.735295,-34.011478,-67.331791,-60.510099,-50.881648,43.356777,298.715639,-185.051491,61.783198
53,0.049324,0.038754,-1.51664,17.986111,-27.949447,-51.995178,-74.017536,-92.500454,-59.639351,-90.032387,-105.896095,-117.792389,-52.03846,-85.489094,-103.440307,-117.347397,-42.490402,-73.360874,-90.427322,-103.147121,-31.968475,-56.201225,-69.506538,-80.657856,-16.246125,-14.550916,-0.842325,9.464671,14.182897,30.689227,39.187911,45.909011,31.015787,47.64873,56.038092,62.757969,43.229056,59.785663,67.427597,73.337272,51.037865,66.501736,72.72456,77.226338,-24.274417,-40.536129,-43.579421,-36.086814,-32.153354,-28.624134,-24.765895,-23.365962,-12.884067,-7.798782,-6.541934,-5.219684,6.172703,8.575905,5.814457,4.421483,23.842656,21.963444,17.112534,15.453644,-17.267064,-42.72185,-66.462382,-81.501034,-39.944977,-80.397573,-70.107145,-57.902478,-36.053318,-89.453567,-108.796409,-120.79741,-33.199109,-74.138737,-63.335082,-51.82178,-32.758075,-65.996222,-58.731787,-49.065883,43.693943,298.646598,-186.280289,79.661514
54,-0.027672,0.13553,-1.402656,22.680506,-27.994148,-51.941185,-73.851013,-92.09571,-59.502296,-89.90625,-105.703834,-117.534473,-51.86483,-85.380272,-103.300174,-117.147686,-42.333572,-73.255874,-90.302753,-102.957149,-31.853073,-56.089233,-69.383102,-80.522987,-16.372183,-14.797276,-1.129304,9.335773,14.106968,30.675542,39.246179,45.952174,31.019023,47.705046,56.112859,62.768664,43.257658,59.801051,67.465438,73.363096,51.064862,66.461598,72.584485,77.018782,-24.76981,-41.830982,-45.308109,-38.419865,-33.36755,-30.899815,-26.892025,-25.502861,-14.228668,-9.941265,-9.141094,-8.610924,4.815033,6.633808,4.728905,3.938404,22.510426,20.353958,16.093151,14.971722,-16.195064,-41.130603,-64.613896,-79.949802,-36.744298,-77.399498,-67.266292,-55.316,-33.215485,-86.315244,-103.494289,-114.628148,-31.042562,-72.309041,-61.096228,-49.82918,-31.361898,-64.327176,-56.697709,-47.20094,44.063867,298.665108,-187.285349,102.225
55,0.026047,0.212928,-0.655895,27.062748,-27.968124,-51.957321,-73.858314,-91.887405,-59.292023,-89.774242,-105.541969,-117.331364,-51.587219,-85.282974,-103.207031,-117.032982,-42.079742,-73.16019,-90.234752,-102.893394,-31.720047,-56.093193,-69.380699,-80.525722,-16.560954,-15.128258,-1.462558,9.123241,13.83849,30.535826,39.190689,45.867193,30.861942,47.646816,56.089863,62.718733,43.159759,59.734113,67.382704,73.219526,51.009768,66.337381,72.377942,76.765358,-25.180252,-43.345448,-47.924366,-42.240452,-33.947148,-33.01894,-28.691426,-27.099552,-15.04509,-12.570271,-12.243359,-12.42881,3.602382,4.142154,3.279407,3.277759,20.900459,18.261955,14.789634,14.308799,-14.853876,-38.66444,-61.395785,-77.078229,-33.567326,-73.872771,-64.122356,-52.282555,-30.665637,-82.832348,-99.309748,-110.90022,-29.342851,-70.457325,-58.628058,-47.270959,-30.628124,-62.628639,-54.561268,-45.141725,44.512573,298.722796,-187.518585,129.132508
56,-0.177772,0.082573,-0.156807,30.529237,-27.874764,-51.849198,-73.729775,-91.649071,-59.092827,-89.641697,-105.374977,-117.094197,-51.359803,-85.163853,-103.059895,-116.792519,-41.838066,-72.979351,-90.05563,-102.69492,-31.500824,-55.922516,-69.191174,-80.315987,-16.627027,-15.253513,-1.607709,9.02602,13.701119,30.488574,39.172905,45.786646,30.768205,47.720508,56.214919,62.80149,43.095489,59.783377,67.452457,73.240064,50.974582,66.332218,72.344473,76.659308,-25.183914,-44.071518,-49.271118,-44.67041,-35.226643,-34.893711,-30.265824,-28.926899,-16.389725,-15.498081,-15.109177,-15.714638,2.126404,1.4893,1.427971,1.7257,19.196926,15.804943,13.07642,12.945499,-13.984789,-37.398773,-59.907452,-75.795216,-31.137071,-71.853255,-62.480444,-50.683231,-28.240273,-80.15322,-95.141787,-106.576049,-27.456283,-69.053639,-56.763986,-45.374876,-29.75522,-61.681282,-52.909235,-43.190344,44.74712,298.643234,-187.263073,159.49961
57,-0.071343,0.135529,-0.612156,30.799784,-27.71402,-51.696739,-73.608742,-91.419559,-59.019173,-89.559711,-105.2547,-116.988682,-51.33538,-85.115421,-102.965126,-116.669689,-41.875877,-72.972198,-90.022556,-102.632377,-31.603935,-56.009949,-69.257915,-80.364029,-16.758271,-15.55688,-1.945039,8.837188,13.555031,30.311771,38.980652,45.560751,30.645532,47.595501,56.057111,62.571483,42.970643,59.641759,67.284954,73.009217,50.869162,66.214486,72.117887,76.297142,-24.057209,-42.603916,-48.419449,-46.084843,-35.836098,-35.556988,-31.910488,-31.276829,-17.288304,-16.848427,-16.418301,-17.222649,1.214195,-0.174992,0.1073,0.549167,18.175701,14.313183,12.066295,12.014866,-13.52849,-36.527295,-59.047627,-75.066166,-28.497438,-68.409323,-63.63945,-55.341985,-25.835977,-76.852871,-92.571105,-104.861166,-25.523545,-67.709777,-57.351522,-46.593329,-28.506621,-61.125942,-53.622464,-44.16826,44.81666,298.582122,-187.734346,190.102753
58,0.096268,0.035136,0.50243,21.924496,-27.652886,-51.701019,-73.624661,-91.357819,-58.998322,-89.505158,-105.171261,-116.926689,-51.291847,-85.067379,-102.898785,-116.671372,-41.785561,-72.890419,-89.91798,-102.548138,-31.476311,-55.962525,-69.226616,-80.431549,-16.761186,-15.592226,-2.024981,8.758432,13.41324,30.280439,38.87848,45.349515,30.485697,47.501073,55.959558,62.451588,42.801805,59.492719,67.147275,72.84643,50.739771,66.104928,72.065881,76.254362,-23.762089,-42.31794,-49.188503,-49.300907,-37.037716,-37.760594,-33.900078,-32.57642,-18.507797,-18.774868,-17.991051,-18.361176,-0.135498,-2.154637,-1.771374,-1.657963,16.461719,12.441398,10.333442,10.126098,-12.287727,-33.873571,-55.371452,-71.180385,-24.026159,-62.062727,-61.34552,-55.728777,-21.659019,-70.484427,-85.90482,-97.260875,-21.866957,-63.482795,-55.005377,-45.008547,-25.362043,-57.66761,-51.232637,-42.152708,44.92297,298.41919,-187.221874,211.829181
59,0.145225,0.02927,1.023445,16.544183,-27.569961,-51.673942,-73.638027,-91.403434,-58.948242,-89.50312,-105.148166,-116.875751,-51.191505,-85.047168,-102.850513,-116.586559,-41.662651,-72.852562,-89.876495,-102.51361,-31.386589,-55.947715,-69.226272,-80.426902,-16.799434,-15.595128,-2.019337,8.752281,13.417698,30.316081,38.868093,45.257433,30.486438,47.511496,55.899252,62.332336,42.788997,59.508316,67.088167,72.700119,50.707697,66.154353,72.121357,76.25094,-23.333302,-41.956078,-50.111561,-53.2267,-39.164108,-39.895981,-35.484158,-33.446388,-20.766151,-21.64024,-19.929394,-19.558674,-2.454506,-4.435478,-3.71196,-3.962586,14.118828,10.071636,8.301659,7.818729,-11.925511,-32.371011,-53.191706,-68.27543,-21.089001,-58.354942,-61.170489,-57.687013,-18.846893,-66.089935,-80.645921,-89.735526,-19.354345,-60.149878,-53.740976,-44.463372,-23.155095,-55.384315,-50.328463,-41.815502,44.95467,298.260757,-186.311954,228.185661
60,0.109818,-0.015277,1.027222,9.761209,-27.510155,-51.583717,-73.492184,-91.257214,-58.94561,-89.490692,-105.171433,-116.88818,-51.205467,-85.009506,-102.821652,-116.505982,-41.634659,-72.825302,-89.85157,-102.434429,-31.254959,-55.774201,-69.040684,-80.203743,-16.74029,-15.519113,-1.998527,8.716182,13.574581,30.439767,38.981763,45.394902,30.592673,47.557154,55.96094,62.416168,42.853675,59.496954,67.105914,72.743356,50.719874,66.19512,72.225666,76.379146,-23.298867,-41.94413,-51.026963,-56.606736,-41.981427,-42.813195,-38.144337,-35.481926,-23.552124,-24.595517,-22.239991,-20.957966,-5.064068,-6.891621,-6.060128,-6.666699,11.727813,7.193424,5.332557,4.506099,-11.452059,-31.598378,-52.3386,-67.365587,-19.438536,-55.765365,-62.462703,-61.461112,-17.096145,-63.047566,-78.448563,-87.186024,-17.468364,-57.950909,-53.89907,-45.644867,-21.085074,-53.775458,-50.408047,-42.640179,44.949514,298.122918,-185.399706,237.824308
61,0.219841,0.071865,-3.252491,1.575981,-27.51535,-51.535904,-73.399922,-91.043347,-58.956894,-89.38797,-105.085819,-116.834301,-51.29583,-84.9352,-102.807472,-116.569359,-41.785492,-72.859795,-89.896145,-102.482082,-31.393158,-55.77768,-69.028771,-80.198204,-16.643292,-15.455819,-1.996996,8.541935,13.719596,30.454575,38.983159,45.457171,30.657561,47.401481,55.813184,62.372227,42.857417,59.348099,66.983686,72.732204,50.681923,66.132518,72.202188,76.449653,-22.335503,-40.050408,-49.063362,-55.587777,-40.763031,-41.156777,-36.660942,-33.848465,-22.233948,-22.218167,-19.733986,-18.462685,-3.881779,-4.835038,-4.502507,-5.737439,12.478717,8.994861,7.003429,5.790012,-10.83732,-29.937612,-49.952489,-64.489932,-17.379097,-52.394286,-61.285382,-61.471003,-14.914132,-59.836976,-76.539413,-85.48669,-15.052614,-54.916,-52.336524,-44.504188,-18.303377,-50.802879,-48.690434,-41.239419,45.133141,298.11925,-188.688411,239.324756
62,0.026894,0.022873,-1.807526,-0.581343,-27.504754,-51.447648,-73.200898,-90.773301,-58.774659,-89.077469,-104.814332,-116.587018,-51.173836,-84.699669,-102.6545,-116.497445,-41.728753,-72.705689,-89.77509,-102.427472,-31.35981,-55.573517,-68.801812,-80.030961,-16.506219,-15.26243,-1.840027,8.41316,13.82709,30.544619,39.085923,45.550561,30.718742,47.377546,55.810133,62.393554,42.899024,59.33933,67.036864,72.877972,50.698533,66.139038,72.323614,76.740546,-22.444817,-40.08609,-49.102352,-55.535522,-41.176106,-40.894695,-36.16357,-33.360008,-22.592342,-22.069736,-19.648041,-18.246094,-4.190598,-4.310772,-4.181385,-5.594055,12.241253,9.050617,6.829559,5.436745,-11.021534,-30.333716,-50.129898,-64.67312,-17.811017,-52.514773,-61.245639,-61.116815,-15.138434,-59.847449,-76.81629,-85.898108,-15.198233,-54.946702,-52.942222,-45.601419,-18.264796,-50.719923,-49.303035,-42.400154,45.19451,298.099611,-190.461462,238.700901
63,-0.256646,0.035111,-2.015717,-1.284544,-27.463463,-51.267082,-72.905948,-90.298404,-58.605331,-88.746563,-104.473285,-116.214706,-51.038772,-84.391079,-102.363281,-116.197288,-41.645118,-72.437198,-89.5028,-102.167679,-31.302337,-55.28302,-68.480507,-79.712574,-16.463413,-15.253797,-1.938383,8.246138,13.861448,30.574284,39.154047,45.651561,30.722695,47.309238,55.775294,62.38402,42.904038,59.246112,67.01603,72.950504,50.69195,66.070903,72.305805,76.843448,-21.900753,-39.104335,-47.707511,-53.654869,-40.871143,-40.828228,-36.470775,-33.688465,-22.316299,-21.802928,-19.666053,-18.264896,-3.950809,-3.540699,-3.812347,-5.475036,12.595883,9.443367,6.981354,5.396313,-11.576461,-31.430058,-51.501844,-66.254438,-18.992957,-52.880793,-62.721684,-63.497393,-16.176262,-60.337328,-78.644386,-88.771898,-16.023948,-55.749569,-54.758166,-47.915788,-18.815153,-51.45878,-51.192882,-44.826884,45.045673,298.117629,-192.36937,237.399264
64,-0.3376,0.061973,-2.138248,-2.561395,-27.465523,-51.166764,-72.683213,-89.992276,-58.415177,-88.405358,-104.15981,-115.933388,-50.884415,-84.040421,-102.044701,-115.920411,-41.521752,-72.121457,-89.165554,-101.814503,-31.17421,-55.025437,-68.175476,-79.384919,-16.447507,-15.202211,-1.840126,8.277865,13.807725,30.527366,39.132384,45.711199,30.61909,47.170522,55.704441,62.412746,42.792961,59.103085,66.940077,72.976896,50.583319,65.918095,72.209239,76.860342,-21.192215,-38.131474,-46.363564,-51.631668,-39.800308,-40.256676,-35.919651,-32.8965,-20.908859,-20.336575,-18.750847,-17.315632,-2.428711,-1.931637,-2.751171,-4.778343,13.889534,11.011185,8.225773,6.314941,-11.37986,-31.364146,-51.31232,-66.416359,-19.723538,-52.380256,-62.622538,-63.585436,-16.673809,-61.144295,-83.12181,-96.599294,-16.101346,-56.288576,-55.411102,-48.386795,-18.415282,-51.501498,-51.73636,-45.296891,44.854981,298.175089,-194.36071,234.833356
65,-0.391274,0.028899,-2.25103,-2.863465,-27.522148,-51.081024,-72.441181,-89.674393,-58.227287,-88.017334,-103.783768,-115.627384,-50.727219,-83.668339,-101.68333,-115.648796,-41.412804,-71.719093,-88.713112,-101.370266,-31.12191,-54.826195,-67.960281,-79.159996,-16.468069,-15.185662,-1.735162,8.358955,13.78205,30.433727,39.034547,45.619475,30.602862,47.073512,55.600639,62.337349,42.802199,59.115608,66.950723,72.997125,50.604228,65.939288,72.215353,76.831048,-20.169136,-36.363625,-44.233257,-49.279255,-37.790096,-38.280292,-33.591614,-30.382942,-18.711925,-17.954521,-16.417625,-15.205364,-0.265079,0.479439,-0.507282,-2.919502,15.870735,13.677258,10.961655,8.992241,-11.759662,-31.493019,-50.886279,-65.788852,-19.986633,-52.637336,-61.876667,-61.92419,-16.447383,-61.428087,-83.475973,-96.95783,-15.410273,-55.992952,-54.894375,-47.517029,-17.344604,-50.779711,-51.162847,-44.494803,44.630974,298.201502,-196.444473,231.967405
66,-0.282532,0.09097,1.357498,-0.431846,-27.524025,-51.04866,-72.334259,-89.543014,-58.167801,-87.836105,-103.576458,-115.426677,-50.62397,-83.458774,-101.461452,-115.446109,-41.249199,-71.420482,-88.393329,-101.084736,-30.91658,-54.644806,-67.798507,-79.020046,-16.663262,-15.417447,-1.976531,8.245039,13.609408,30.334396,38.939971,45.482353,30.488624,46.986791,55.508928,62.19667,42.741511,59.075471,66.902583,72.883295,50.567289,65.85127,72.097435,76.655492,-20.444664,-36.950271,-45.003422,-50.12764,-38.836853,-39.5644,-34.553432,-30.980861,-19.485363,-19.059265,-17.656219,-16.130115,-0.673736,-0.286983,-1.155075,-3.404972,15.881092,12.935051,10.159401,8.32029,-12.242488,-32.68742,-52.49321,-67.600275,-21.159445,-53.942257,-62.989335,-62.911245,-17.415765,-62.695823,-84.748612,-97.985183,-16.189253,-57.250474,-56.47479,-49.203691,-17.906915,-51.871037,-52.632185,-46.191963,44.476616,298.291002,-194.958801,231.534089
67,-0.179443,0.080054,0.978264,-0.293203,-27.532219,-51.00602,-72.274269,-89.47522,-58.224312,-87.854885,-103.582947,-115.391991,-50.660774,-83.452503,-101.426422,-115.358608,-41.224068,-71.341347,-88.294693,-100.932953,-30.822533,-54.640388,-67.828022,-78.999138,-16.854244,-15.606713,-2.161895,8.176372,13.485586,30.169374,38.780605,45.338325,30.408965,46.872366,55.40946,62.110083,42.684157,59.019228,66.807622,72.714568,50.513837,65.78837,71.996324,76.454617,-20.613441,-37.258621,-45.598125,-51.277302,-39.331959,-40.002834,-33.850227,-29.579727,-19.799801,-19.383465,-17.558292,-15.98196,-0.915665,-0.624779,-1.059528,-3.272942,15.675888,12.869076,10.367775,8.654835,-12.556316,-33.234245,-53.355727,-68.486122,-22.30788,-56.673095,-63.938612,-61.901009,-18.328732,-64.747666,-86.168575,-98.861335,-16.714577,-58.333391,-56.516546,-48.521819,-18.133231,-52.364942,-52.448688,-45.528258,44.395815,298.369133,-193.881895,231.238963
68,0.006912,0.067098,0.819912,-0.096256,-27.546684,-51.042915,-72.294845,-89.564506,-58.326301,-87.962127,-103.716282,-115.540123,-50.791443,-83.575435,-101.565662,-115.50428,-41.344345,-71.481056,-88.419754,-101.011802,-30.892044,-54.797951,-67.997143,-79.127975,-16.938459,-15.617297,-2.093994,8.22529,13.455995,30.067671,38.676568,45.258198,30.396566,46.771219,55.294764,61.974405,42.673573,58.955588,66.698917,72.534281,50.509935,65.712862,71.874552,76.243172,-20.724667,-37.63401,-46.106529,-52.091286,-39.920334,-39.999184,-33.02417,-28.515369,-20.253571,-19.358173,-17.204464,-15.62162,-1.173935,-0.718987,-0.719616,-2.697281,15.627125,13.071854,10.766212,9.170929,-12.240241,-33.227403,-53.695405,-68.649625,-23.159048,-58.945375,-64.342398,-60.533732,-18.997823,-66.527943,-87.31386,-99.557893,-17.094058,-59.115004,-56.666402,-48.297937,-18.274282,-52.731802,-52.599668,-45.52028,44.484249,298.438491,-192.980461,231.144967
69,0.027237,-0.085018,0.924385,-0.082104,-27.501549,-50.979378,-72.232841,-89.557079,-58.430717,-88.169563,-103.946503,-115.761165,-50.889473,-83.764995,-101.76202,-115.685428,-41.367966,-71.607261,-88.566765,-101.171493,-30.797767,-54.811111,-68.078121,-79.233856,-16.906818,-15.537133,-2.036838,8.221499,13.618362,30.163199,38.734205,45.297508,30.557055,46.838712,55.313438,61.945876,42.803385,59.039643,66.749836,72.538666,50.62132,65.808278,71.92541,76.211741,-21.12862,-38.032242,-46.513779,-52.460621,-40.138035,-40.286488,-33.111648,-28.533485,-20.473148,-19.662197,-17.481628,-15.938599,-1.465393,-1.210991,-1.125378,-2.864868,15.251415,12.578762,10.346592,8.959053,-12.119247,-33.213694,-53.911963,-68.96943,-23.522177,-59.908866,-64.906574,-60.786698,-19.597259,-67.259166,-87.843752,-99.963036,-17.900728,-59.873483,-57.281374,-48.817331,-19.235327,-53.612597,-53.29578,-46.0386,44.570589,298.347977,-191.996973,231.057367
70,0.19455,-0.058725,0.92181,0.035828,-27.499237,-51.019821,-72.334168,-89.648861,-58.596817,-88.490353,-104.289139,-116.07779,-51.060517,-84.014511,-102.007839,-115.900246,-41.486389,-71.861767,-88.854367,-101.476925,-30.79612,-54.851532,-68.170269,-79.369904,-16.886786,-15.538503,-2.068725,8.251164,13.680866,30.202423,38.752854,45.322407,30.619226,46.861128,55.320416,61.93985,42.846277,59.007002,66.755085,72.597403,50.668226,65.766671,71.867328,76.164403,-21.721802,-38.710361,-47.06179,-52.75922,-40.760834,-40.982734,-33.855926,-29.372223,-21.066135,-20.124492,-17.885216,-16.255497,-2.039371,-1.949352,-2.113048,-3.67527,14.679486,11.950871,9.46035,8.021954,-11.730479,-33.020947,-54.065697,-69.435819,-23.580605,-59.996145,-65.502404,-61.73905,-20.11416,-67.638956,-88.614176,-100.905607,-18.752192,-60.626098,-58.102272,-49.47921,-20.261261,-54.478869,-54.205809,-46.833933,44.804941,298.282237,-191.035361,231.08618
71,0.130668,-0.098356,0.800961,0.010547,-27.53659,-51.067382,-72.391868,-89.636009,-58.702537,-88.708385,-104.549308,-116.339927,-51.195762,-84.194149,-102.171878,-116.00259,-41.662559,-72.104049,-89.100689,-101.690231,-30.976387,-54.971008,-68.28519,-79.464443,-16.791617,-15.512654,-2.105318,8.25729,13.744345,30.179217,38.758165,45.418774,30.668095,46.84758,55.29637,61.950656,42.888872,58.949166,66.719678,72.636516,50.748329,65.746343,71.820262,76.13091,-21.878243,-38.846077,-47.289643,-53.080754,-41.2649,-41.668041,-34.452404,-29.845013,-21.91697,-21.017716,-18.540184,-16.672806,-3.057095,-2.969044,-3.067108,-4.28785,13.734936,11.070808,8.476352,7.068935,-11.659639,-33.221845,-54.54036,-70.07543,-24.047142,-60.169404,-66.435922,-63.287825,-20.98589,-68.040037,-89.114206,-101.455557,-19.855759,-61.378341,-59.154536,-50.591162,-21.303139,-55.14008,-55.084616,-47.786038,44.978553,298.176808,-190.191456,231.089654
72,0.133324,-0.103555,0.486477,-0.165998,-27.531395,-51.116432,-72.51947,-89.851044,-58.884613,-88.943962,-104.809124,-116.635437,-51.364769,-84.367481,-102.334053,-116.095756,-41.827423,-72.266121,-89.286095,-101.849842,-31.15908,-55.130356,-68.42696,-79.551006,-16.764558,-15.469108,-2.064749,8.359375,13.81369,30.210005,38.809281,45.530246,30.734476,46.971513,55.417722,62.065882,42.944892,59.08761,66.855615,72.754014,50.786391,65.798262,71.876158,76.177358,-21.984124,-39.040032,-47.484249,-53.126164,-41.485543,-41.555134,-34.240837,-29.704377,-22.278065,-21.168846,-18.537449,-16.640007,-3.49046,-3.384041,-3.289616,-4.26455,13.282081,10.607448,8.098034,6.83155,-11.572632,-33.478196,-55.123481,-70.798317,-24.926616,-61.193238,-66.995418,-63.557587,-21.915344,-69.056918,-89.613037,-101.730271,-20.715843,-62.046233,-59.668855,-51.219546,-21.999066,-55.704009,-55.423699,-48.045686,45.158077,298.06847,-189.658779,230.918873
73,0.144859,-0.16517,0.732216,0.065715,-27.576439,-51.217849,-72.703891,-90.188163,-59.034622,-89.158882,-105.012966,-116.864467,-51.482734,-84.513404,-102.426807,-116.206638,-41.908104,-72.40797,-89.442867,-102.070736,-31.200485,-55.212318,-68.511875,-79.667106,-16.794433,-15.565698,-2.180877,8.277556,13.954259,30.243202,38.799747,45.522181,30.878441,47.060569,55.463874,62.09882,43.048213,59.179804,66.906596,72.793361,50.817118,65.901287,72.028484,76.39756,-22.520462,-39.535115,-47.980992,-53.69188,-41.706814,-41.885891,-34.343674,-29.666359,-22.653912,-21.531819,-18.652268,-16.608433,-3.974453,-3.885853,-3.62938,-4.470292,12.734104,10.185756,7.757514,6.513633,-11.765862,-33.907843,-55.817087,-71.770318,-25.313692,-61.807642,-67.956588,-64.699056,-22.436469,-69.672743,-90.275953,-102.310306,-21.376832,-62.875986,-60.670768,-52.250951,-22.669045,-56.404432,-56.051775,-48.604737,45.349027,297.890688,-188.880472,230.971976
74,0.119568,-0.079214,0.787719,0.127428,-27.629219,-51.351356,-72.903259,-90.439773,-59.226288,-89.325256,-105.146393,-116.961319,-51.693855,-84.660118,-102.512707,-116.258091,-42.144264,-72.592254,-89.625572,-102.268444,-31.453377,-55.379745,-68.631603,-79.787292,-16.847661,-15.685741,-2.363843,8.144336,13.935636,30.16478,38.734033,45.500211,30.833278,47.006995,55.418167,62.061782,42.974866,59.098491,66.86053,72.780839,50.686813,65.805438,72.068733,76.597212,-23.000393,-40.084179,-48.518177,-54.418327,-42.231262,-42.225734,-34.384231,-29.623363,-23.314213,-21.973388,-18.828392,-16.656933,-4.658249,-4.526996,-3.897182,-4.486942,12.152642,9.737183,7.38398,6.171936,-11.720611,-34.173295,-56.44778,-72.585719,-25.998689,-62.978529,-68.665618,-65.032051,-23.090307,-70.547968,-90.747479,-102.423272,-21.948998,-63.5503,-61.37902,-53.036045,-23.103472,-56.737056,-56.376693,-49.001706,45.524105,297.79737,-188.037243,231.0853
75,0.016663,-0.056316,0.935646,0.239098,-27.633728,-51.409218,-73.045292,-90.701924,-59.401222,-89.464199,-105.237969,-116.986794,-51.879547,-84.801556,-102.606606,-116.300114,-42.348221,-72.707932,-89.734646,-102.356507,-31.698326,-55.547402,-68.749684,-79.873295,-16.92464,-15.763621,-2.463064,8.088056,14.019554,30.141055,38.684151,45.477523,30.858496,46.982788,55.3835,62.031018,42.915215,59.076199,66.816329,72.692881,50.498746,65.753259,72.164619,76.811547,-23.4058,-40.546623,-49.161827,-55.559028,-42.766239,-42.542541,-34.450744,-29.469761,-24.030864,-22.656131,-19.22446,-16.83427,-5.384914,-5.147575,-4.099422,-4.459865,11.559151,9.311211,7.069462,5.87621,-11.929809,-34.791096,-57.345941,-73.479335,-26.650119,-64.088307,-69.827959,-66.165863,-23.608591,-71.264953,-90.927395,-102.148532,-22.36201,-64.232939,-62.35832,-54.245526,-23.318574,-57.125306,-56.972486,-49.768659,45.60157,297.722523,-187.040795,231.305867
76,-0.149529,-0.160341,1.142521,0.368477,-27.564377,-51.329498,-73.00328,-90.76569,-59.454849,-89.583572,-105.306186,-116.961044,-51.895408,-84.899334,-102.614868,-116.219661,-42.320594,-72.718128,-89.702671,-102.271293,-31.674453,-55.549667,-68.69664,-79.762859,-17.002433,-15.74249,-2.369771,8.209248,14.089147,30.247883,38.765933,45.518612,30.917702,47.115132,55.538666,62.153704,42.943484,59.222165,66.969927,72.791287,50.443714,65.896174,72.444953,77.176813,-24.127659,-41.235523,-49.827118,-56.620823,-43.273075,-43.051838,-34.816623,-29.706287,-24.579139,-23.504711,-20.071815,-17.56905,-6.000904,-6.004738,-4.805248,-5.021667,10.953999,8.506245,6.349743,5.237263,-12.229743,-35.431633,-58.316978,-74.475739,-27.097489,-65.0764,-71.011331,-67.444405,-24.067248,-72.019098,-91.125688,-101.68901,-22.895892,-65.155478,-63.23998,-55.007144,-23.898583,-57.951107,-57.590768,-50.282212,45.510698,297.54311,-185.839617,231.655272
77,-0.1203,-0.134678,1.337551,0.482246,-27.536865,-51.304642,-72.99519,-90.696041,-59.390076,-89.618843,-105.35257,-116.970245,-51.855354,-84.921547,-102.594486,-116.191338,-42.295189,-72.730373,-89.682335,-102.244492,-31.662643,-55.493797,-68.590919,-79.64621,-16.959071,-15.741687,-2.367894,8.255314,14.165754,30.311314,38.807997,45.535198,30.971796,47.162272,55.607296,62.259124,42.952352,59.226883,67.018797,72.904031,50.388225,65.943821,72.579458,77.39872,-24.857368,-42.077854,-50.812259,-58.074142,-44.161651,-44.447673,-36.155674,-30.816272,-25.554977,-24.88829,-21.357433,-18.652324,-7.040153,-7.275604,-5.966262,-6.06649,10.008477,7.308495,5.257553,4.233708,-12.394605,-35.870432,-58.93668,-75.180089,-27.418023,-65.286327,-72.127297,-69.299351,-24.560757,-72.235027,-91.750281,-102.598347,-23.535626,-65.896977,-63.871193,-55.452327,-24.60071,-58.842017,-58.366588,-50.89958,45.449209,297.3892,-184.443255,232.118286
78,-0.133438,-0.094552,0.935006,0.102073,-27.465248,-51.22197,-72.940189,-90.508106,-59.23819,-89.562275,-105.345852,-116.929207,-51.725739,-84.885864,-102.56028,-116.070992,-42.21048,-72.679344,-89.644993,-102.144791,-31.676193,-55.436806,-68.496803,-79.495205,-16.892258,-15.68768,-2.330609,8.362969,14.168088,30.378671,38.939587,45.712805,30.963398,47.242362,55.763858,62.495826,42.947164,59.285953,67.132121,73.069312,50.392177,65.975881,72.624906,77.464768,-25.097867,-42.433171,-51.340668,-58.857789,-44.879288,-45.338814,-37.133149,-31.75422,-26.378289,-25.917572,-22.366185,-19.613205,-7.957512,-8.41277,-6.972142,-6.925358,9.148155,6.034275,4.098632,3.317493,-12.348896,-36.083581,-59.361869,-75.718639,-28.116024,-65.975671,-72.759213,-70.016149,-25.371194,-73.065928,-92.444096,-103.428667,-24.30343,-66.626175,-63.968573,-55.287935,-25.299946,-59.677981,-58.732138,-50.927355,45.38118,297.286256,-183.44284,232.211967
79,-0.068985,-0.137444,0.639289,0.098628,-27.437485,-51.210869,-72.941837,-90.426384,-59.177536,-89.527496,-105.348118,-116.9389,-51.658882,-84.856041,-102.569836,-116.072743,-42.13385,-72.622547,-89.607262,-102.081505,-31.607231,-55.356148,-68.421867,-79.404224,-16.882847,-15.719197,-2.374267,8.384693,14.202236,30.466085,39.052553,45.839023,31.028878,47.300951,55.854915,62.638136,43.045471,59.35126,67.226179,73.205891,50.536809,66.065703,72.678345,77.504498,-25.315029,-42.611446,-51.672077,-59.511783,-45.278892,-46.065445,-37.814609,-32.238968,-26.928531,-26.691776,-22.996502,-20.132881,-8.636066,-9.225036,-7.67197,-7.564533,8.496323,5.188237,3.403565,2.780365,-12.613608,-36.59238,-59.951635,-76.41984,-28.641088,-66.255327,-73.420128,-71.100832,-26.001703,-73.633846,-93.296956,-104.716633,-24.924059,-67.23123,-64.273398,-55.480658,-25.834421,-60.308688,-59.170159,-51.222695,45.382015,297.143659,-182.733731,232.305442
80,-0.060837,-0.092058,0.320206,-0.072507,-27.359184,-51.140694,-72.901714,-90.409904,-59.075226,-89.471386,-105.313969,-116.905964,-51.546547,-84.854347,-102.592163,-116.081783,-42.007782,-72.623852,-89.62231,-102.087272,-31.486061,-55.341659,-68.414314,-79.397163,-16.854095,-15.756544,-2.454665,8.269517,14.087789,30.45355,39.082342,45.903355,30.935672,47.243968,55.830721,62.642767,43.020611,59.282162,67.192995,73.238792,50.642069,66.0712,72.64484,77.490012,-25.64542,-42.849255,-51.857838,-59.635746,-45.465214,-46.646793,-38.471809,-32.781795,-27.205559,-27.054371,-23.469475,-20.646526,-9.088165,-9.900719,-8.50581,-8.334297,7.998196,4.265579,2.360607,1.887497,-12.732861,-36.826106,-60.321965,-77.045952,-29.238549,-66.660225,-73.849553,-71.715521,-26.795826,-74.234505,-94.067799,-105.879443,-25.800335,-67.939705,-64.553572,-55.597638,-26.772892,-61.18463,-59.700187,-51.55658,45.398437,297.054855,-182.336266,232.236189
81,0.141724,0.022749,0.078449,-0.426745,-27.339478,-51.166512,-73.015824,-90.631726,-59.123039,-89.455799,-105.367745,-117.031025,-51.635124,-84.910275,-102.701512,-116.193215,-42.121788,-72.705757,-89.744236,-102.217667,-31.639321,-55.518013,-68.638973,-79.642079,-16.864272,-15.815429,-2.502707,8.233133,14.093111,30.385871,39.003129,45.84915,30.943428,47.201039,55.774479,62.612398,43.022537,59.279556,67.175445,73.241312,50.644218,66.034841,72.584954,77.419554,-25.78141,-42.944458,-51.947422,-59.550441,-45.949688,-47.118656,-38.699535,-32.878624,-27.742229,-27.18275,-23.320598,-20.374706,-9.616161,-10.229267,-8.907818,-8.754844,7.621342,4.005398,1.915959,1.43882,-12.668776,-36.981593,-60.605769,-77.524938,-29.761167,-66.969668,-73.783665,-71.486501,-27.347467,-74.65095,-95.260125,-107.93441,-26.242122,-68.261153,-64.982947,-56.056258,-27.060698,-61.38254,-60.454431,-52.574696,45.647003,297.086045,-182.150975,231.817885
82,0.240349,-0.010053,-0.106739,-0.762803,-27.347054,-51.279122,-73.205933,-90.91729,-59.201432,-89.499802,-105.423443,-117.093705,-51.702851,-84.978859,-102.788258,-116.281472,-42.181733,-72.785054,-89.856263,-102.331307,-31.73552,-55.649323,-68.790047,-79.826134,-16.946338,-15.890011,-2.569089,8.14588,13.985727,30.401222,39.04628,45.910727,30.81306,47.148761,55.74863,62.598863,42.89217,59.175309,67.095799,73.186428,50.542539,65.927852,72.544767,77.478489,-26.079529,-42.930713,-51.665886,-59.061584,-45.784309,-46.604335,-38.332821,-32.503612,-27.493561,-26.765121,-23.12693,-20.190136,-9.32666,-9.819442,-8.914913,-8.945972,7.969036,4.228752,1.808338,1.210373,-13.046553,-37.562763,-61.279886,-78.156434,-30.348413,-67.563089,-74.226626,-71.818236,-27.826786,-75.11041,-95.687796,-108.260612,-26.652354,-68.850734,-65.809106,-56.888728,-27.401115,-61.671075,-60.933516,-53.204575,46.014445,297.101282,-182.130621,231.080372
83,0.315742,-0.111793,-0.074592,-1.229191,-27.461655,-51.400406,-73.349808,-91.106426,-59.235329,-89.441345,-105.397442,-117.164635,-51.744759,-84.942467,-102.819042,-116.426399,-42.260376,-72.784286,-89.864181,-102.42271,-31.872551,-55.795349,-68.946442,-80.067135,-16.825357,-15.776304,-2.494383,8.132591,13.939674,30.507458,39.153825,45.948309,30.715236,47.193876,55.813184,62.636568,42.790702,59.19639,67.197922,73.337815,50.460387,65.900509,72.589437,77.580106,-26.377636,-42.800652,-51.300419,-58.458241,-45.396515,-46.1945,-38.073029,-32.269512,-27.176159,-26.077034,-22.298012,-19.354363,-9.142502,-9.316109,-8.470482,-8.642464,8.079975,4.62474,2.322361,1.727543,-13.743839,-38.221702,-61.731023,-78.701431,-30.926496,-67.675537,-74.582605,-72.478521,-28.271957,-75.194971,-96.022866,-108.809784,-27.008148,-68.947904,-65.830793,-56.831683,-27.696147,-61.976036,-61.167056,-53.305438,46.455563,297.031961,-182.079837,229.893653
84,0.468842,0.031283,-0.406575,-1.477156,-27.526772,-51.504525,-73.530991,-91.356503,-59.213723,-89.379753,-105.408532,-117.316086,-51.698273,-84.904679,-102.854771,-116.565571,-42.2444,-72.779297,-89.901341,-102.534474,-31.957535,-55.963852,-69.172486,-80.355309,-16.772276,-15.727571,-2.461199,8.066296,13.770984,30.555055,39.251464,46.009404,30.544113,47.240177,55.917122,62.735245,42.649305,59.227315,67.292585,73.445915,50.339986,65.842797,72.547052,77.513761,-26.54092,-42.387828,-50.422897,-56.98384,-44.360767,-44.900264,-36.88425,-31.078147,-26.071243,-24.472904,-20.586914,-17.587829,-8.135753,-7.783996,-7.287426,-7.764667,9.002003,5.86163,3.461689,2.805348,-14.705231,-39.171856,-62.489515,-79.693291,-31.789841,-68.218311,-75.453903,-73.617125,-28.975418,-75.578405,-96.650683,-109.527978,-27.616193,-69.327793,-66.192898,-57.018429,-28.265511,-62.563036,-61.766776,-53.818831,47.051308,297.142732,-182.359509,228.495985
85,0.258407,-0.168319,-2.207817,-4.678039,-27.603447,-51.559593,-73.587135,-91.346534,-58.907936,-89.156055,-105.316864,-117.355293,-51.299377,-84.719318,-102.854702,-116.691318,-41.857727,-72.565716,-89.863518,-102.640114,-31.705444,-55.85614,-69.20446,-80.524704,-16.618419,-15.541739,-2.352444,8.105914,13.726733,30.757028,39.571035,46.265335,30.535652,47.458328,56.173942,62.888126,42.703621,59.474687,67.541983,73.583137,50.417371,66.034038,72.69787,77.591973,-25.206482,-40.689777,-47.374065,-51.514972,-41.7541,-40.322628,-32.930202,-28.28556,-23.242721,-20.016025,-15.902298,-13.083366,-5.094394,-3.655449,-3.535171,-4.583049,11.983807,10.108704,7.708901,6.62772,-15.299517,-39.542061,-62.441881,-78.587662,-31.367591,-67.562175,-72.334222,-68.919091,-27.548057,-74.518693,-94.661146,-107.194343,-25.555198,-67.033678,-63.141315,-53.845013,-26.147446,-60.077717,-58.387546,-50.096071,47.420843,297.073199,-184.456198,223.916732
86,0.26564,-0.210841,-1.195827,-4.548053,-27.681129,-51.625488,-73.670711,-91.290195,-58.551155,-88.856494,-105.074306,-117.261669,-50.855918,-84.392337,-102.722877,-116.773601,-41.419166,-72.227897,-89.706722,-102.660552,-31.355506,-55.584068,-69.038887,-80.50304,-16.338875,-15.367504,-2.472005,7.924035,13.717632,31.008155,39.882442,46.463566,30.504876,47.617237,56.368036,62.972304,42.714316,59.600065,67.710574,73.697215,50.459152,66.147288,72.813838,77.721687,-23.829575,-38.840286,-44.133442,-46.298218,-39.344227,-36.539417,-29.774334,-26.024712,-20.497833,-15.727696,-11.464405,-8.827297,-2.139118,0.874798,0.575981,-1.45483,14.7155,14.11005,11.847233,10.290344,-15.971337,-39.892878,-62.421936,-77.914731,-31.012515,-67.095689,-70.223989,-65.675281,-25.95108,-73.194505,-93.124994,-105.457916,-23.171188,-64.650039,-60.090154,-50.67124,-23.444236,-57.517693,-54.964104,-46.264496,47.777938,296.99409,-185.56057,219.500411
87,0.272576,-0.000247,-0.600128,-3.777211,-27.700585,-51.598984,-73.676457,-91.283638,-58.238503,-88.623104,-104.901501,-117.221615,-50.448578,-84.150948,-102.661583,-116.865326,-41.002991,-71.90165,-89.559242,-102.684918,-31.000008,-55.359558,-68.949623,-80.51928,-16.170852,-15.416176,-2.798059,7.571514,13.644025,30.942526,39.872575,46.392405,30.489958,47.596106,56.334061,62.826672,42.782081,59.700558,67.809424,73.705823,50.553457,66.219623,72.813863,77.63473,-22.394772,-36.747311,-40.25037,-40.385319,-36.861889,-32.352619,-26.20887,-23.42997,-17.651345,-10.93832,-6.346962,-3.593594,0.930462,5.31451,4.499965,1.722152,17.679943,18.052231,15.772579,13.916816,-16.698016,-40.907512,-63.385662,-78.176454,-30.937747,-66.902212,-68.206665,-62.477659,-24.582037,-72.040748,-91.940609,-104.176755,-20.925227,-62.341327,-57.381015,-48.030385,-20.796489,-54.942948,-52.052041,-43.377652,48.122795,297.146005,-186.088417,215.875362
88,0.011604,0.165071,-0.063412,-3.37781,-27.605095,-51.481453,-73.611706,-91.249901,-57.914177,-88.467808,-104.807625,-117.202286,-50.020592,-84.071766,-102.778988,-117.086014,-40.535614,-71.72763,-89.596561,-102.850502,-30.621139,-55.236236,-69.006729,-80.662193,-16.28157,-15.669513,-3.296583,7.083143,13.434482,30.741356,39.689028,46.123865,30.379634,47.386352,56.072783,62.429654,42.766162,59.614984,67.625877,73.367246,50.578589,66.20153,72.699341,77.446885,-21.103191,-34.785942,-35.992413,-33.526371,-34.04409,-26.985352,-21.665474,-20.097668,-14.425644,-5.283314,-0.489922,2.446404,4.482697,10.742088,9.083645,5.313812,21.192112,22.763878,20.166904,17.701447,-17.670646,-42.497868,-64.890013,-78.564407,-31.262381,-67.161156,-65.940597,-58.545578,-23.375396,-71.168029,-90.75006,-102.686625,-18.620071,-60.077013,-54.693957,-45.427999,-17.869951,-52.071566,-48.691719,-39.986924,48.202486,297.491449,-186.083742,212.677925
89,-0.229614,0.025528,0.953041,-2.977382,-27.520134,-51.313843,-73.390068,-90.95406,-57.715988,-88.297371,-104.599251,-116.981186,-49.851448,-83.984436,-102.854015,-117.27935,-40.402313,-71.609928,-89.597569,-102.951428,-30.536133,-55.116554,-68.930718,-80.624989,-16.317571,-15.847861,-3.803047,6.480397,13.369236,30.537999,39.418795,45.72944,30.307374,47.167496,55.769366,61.988336,42.708746,59.476959,67.390361,73.006289,50.509564,66.108892,72.563391,77.282024,-19.4534,-32.127766,-31.035072,-25.528965,-30.945728,-21.680511,-17.47752,-17.62405,-11.176014,0.646454,5.59354,8.364864,7.994476,16.0028,13.544872,8.955254,24.52668,27.607624,24.425114,21.057655,-18.428213,-43.600793,-65.655249,-77.67115,-30.869488,-66.816095,-62.589304,-53.712287,-21.409621,-69.344046,-86.813941,-96.88925,-15.776835,-57.195838,-51.748797,-43.084745,-14.633601,-48.273941,-44.323013,-35.770977,48.042458,297.748282,-185.061115,209.931848
90,-0.081345,0.128873,4.577168,-0.320003,-27.433822,-51.266784,-73.389026,-90.955936,-57.801773,-88.343834,-104.551666,-116.926872,-50.032791,-84.083679,-102.958648,-117.428959,-40.652824,-71.786338,-89.724552,-103.096161,-30.826332,-55.299064,-69.07695,-80.725925,-16.513345,-16.213114,-4.385218,5.823014,13.164472,30.13267,38.854001,45.012753,30.084208,46.719559,55.186701,61.299436,42.481641,59.102628,66.944264,72.525291,50.282916,65.797423,72.25086,77.007197,-19.16058,-30.674046,-27.778119,-20.715821,-28.923214,-18.688694,-15.503529,-16.402142,-9.161236,4.767608,9.068481,11.329273,9.899139,18.859108,15.313179,10.209869,25.988399,29.421089,25.340206,21.437324,-18.923118,-44.331609,-66.083982,-77.33303,-30.119653,-66.362044,-61.768147,-53.015841,-19.782832,-67.116424,-83.039385,-91.077968,-13.851729,-55.517239,-50.979127,-42.786305,-12.505965,-45.99603,-42.614392,-34.512911,48.103363,298.175502,-180.341697,209.910192
91,-0.243416,-0.076336,6.669674,0.519284,-27.337371,-51.252136,-73.350208,-90.922336,-57.824455,-88.409339,-104.570194,-116.903869,-50.163986,-84.244159,-103.165328,-117.660919,-40.829933,-71.961421,-89.878841,-103.282836,-31.010765,-55.391166,-69.164611,-80.814331,-16.697126,-16.458152,-4.761747,5.287317,12.832748,29.695316,38.319564,44.33834,29.763019,46.303744,54.643532,60.589084,42.180323,58.740783,66.558793,72.038167,49.998629,65.444149,71.85173,76.496089,-18.849793,-30.130246,-26.971608,-18.3685,-25.416699,-14.490956,-12.361428,-13.363575,-6.454022,6.521404,8.036247,9.07164,11.595233,19.349327,14.245754,9.508392,26.878898,29.725479,24.458942,20.570743,-18.228734,-43.405168,-64.589523,-75.060961,-32.296404,-66.369664,-62.30997,-54.29547,-22.718878,-63.733934,-73.315857,-77.392168,-16.518446,-52.73253,-46.701639,-38.710099,-13.963831,-43.073197,-38.312055,-30.227123,48.090705,298.415096,-173.441265,210.745406
92,-0.410751,-0.536142,7.552677,0.596533,-27.396904,-51.325584,-73.316563,-90.758262,-57.792732,-88.394531,-104.50898,-116.763038,-50.231758,-84.253727,-103.190929,-117.740524,-40.936066,-72.127567,-90.012932,-103.468288,-31.081009,-55.406364,-69.178619,-80.897941,-16.768163,-16.466019,-4.841368,5.082603,12.574607,29.369126,37.8646,43.769915,29.481747,45.825636,54.046048,59.879313,41.921812,58.232195,65.981995,71.403175,49.82584,65.131037,71.508743,76.124957,-17.957589,-29.043,-25.693062,-15.680168,-20.106778,-10.451043,-10.231808,-12.417115,-2.45374,8.634819,8.289161,8.176231,13.899273,19.187999,12.660587,7.938423,27.600963,30.075851,24.403999,20.451187,-16.774968,-41.000124,-60.914113,-70.067649,-34.408663,-65.379323,-62.016692,-54.683102,-25.713896,-59.965615,-65.121737,-66.328482,-18.958488,-47.968226,-40.874857,-33.108953,-14.68941,-38.721645,-34.126019,-27.274057,48.111986,298.165269,-165.456556,211.628254
93,-0.35685,-0.657889,7.985595,1.243271,-27.376304,-51.347694,-73.239955,-90.682628,-57.835075,-88.354064,-104.419567,-116.642246,-50.371147,-84.217746,-103.1445,-117.744255,-41.122238,-72.200397,-90.079719,-103.630851,-31.1903,-55.363243,-69.123893,-80.90522,-16.871262,-16.603129,-4.984839,4.757437,12.383564,28.994104,37.31659,43.113755,29.262669,45.361112,53.391099,59.106791,41.697238,57.752357,65.414768,70.804208,49.656038,64.800895,71.171327,75.806375,-16.963657,-27.121112,-23.205837,-12.140705,-14.2985,-6.911007,-8.161422,-10.607689,1.451992,9.371132,6.82473,5.902245,15.900055,18.152756,11.084473,7.499623,27.823849,31.29142,27.64127,25.689034,-14.883035,-37.477116,-55.781173,-63.103882,-36.250296,-62.307092,-58.244236,-51.046089,-29.213688,-55.170523,-53.563666,-49.925159,-23.069053,-44.221669,-35.534472,-27.116187,-18.202429,-38.876713,-37.01584,-33.508281,48.311101,297.733804,-156.914996,213.097949
94,-0.42279,-0.750625,7.266232,3.685357,-27.202789,-51.313408,-73.285469,-90.902298,-57.680489,-88.458664,-104.595966,-116.8125,-50.192665,-84.298657,-103.184818,-117.710678,-40.918144,-72.27618,-90.243542,-103.887714,-30.974899,-55.34729,-69.238495,-81.133999,-16.997517,-16.664905,-4.932401,4.758795,12.174649,28.686574,36.904825,42.675055,29.085654,44.949891,52.757996,58.34731,41.547381,57.344446,64.874032,70.191063,49.559374,64.54526,70.880618,75.536895,-15.247971,-23.161045,-17.672962,-5.611221,-7.008219,1.149096,-0.36426,-2.242687,7.599695,15.502355,11.901947,10.676062,20.340837,22.42246,14.216818,10.702572,30.459749,35.408787,32.449774,31.392963,-14.186929,-35.306588,-51.870834,-57.36751,-34.987919,-57.71719,-55.769168,-49.944098,-28.6216,-49.075955,-45.740729,-40.920096,-22.593185,-38.964115,-30.491112,-21.846203,-17.094231,-35.641794,-36.227596,-34.7125,48.57708,297.027435,-148.959995,216.827562
95,-0.491364,-0.790356,5.489948,6.93078,-27.082077,-51.248748,-73.183284,-90.771389,-57.632057,-88.544082,-104.742187,-116.994323,-50.190742,-84.311382,-103.192051,-117.705494,-40.936248,-72.324245,-90.33229,-104.02597,-30.99131,-55.336349,-69.235485,-81.167438,-16.943794,-16.593558,-4.915728,4.670319,12.070155,28.425975,36.573052,42.355176,29.024101,44.642843,52.277158,57.790667,41.504909,57.039127,64.438803,69.684191,49.498809,64.302001,70.568568,75.173951,-12.270607,-16.155453,-8.361259,4.755764,2.29925,13.60227,13.366522,12.683144,16.330851,27.032519,24.215653,23.474802,27.552961,32.555083,22.975085,18.495827,35.873194,43.499646,39.979792,38.423195,-15.490233,-35.408625,-49.991645,-53.702228,-31.822939,-52.80639,-55.432357,-52.507493,-25.162601,-43.01882,-41.909276,-38.608606,-18.806267,-33.202579,-26.772984,-18.778307,-12.582301,-29.654425,-32.076128,-31.300457,48.841129,295.988324,-142.714634,223.509587
96,-0.419632,-0.522915,3.097481,6.826162,-27.065071,-51.28997,-73.303642,-90.919933,-57.795753,-88.711967,-104.940296,-117.187625,-50.368949,-84.444706,-103.231796,-117.684757,-41.155883,-72.602943,-90.609649,-104.301406,-31.248046,-55.660789,-69.570293,-81.495506,-17.140543,-16.861061,-5.169337,4.452353,11.955608,28.007542,36.120508,42.014091,29.035822,44.183951,51.612168,57.124713,41.569871,56.616174,63.742629,68.906902,49.587186,64.040241,70.177268,74.787455,-7.891457,-6.139137,5.989139,20.387535,11.758512,26.510737,29.208029,30.27372,24.996397,41.536016,42.228481,42.441748,34.940077,45.441244,36.930342,31.212421,41.771307,53.357151,50.814543,48.565006,-17.486525,-35.745646,-47.693777,-49.018681,-24.088502,-43.06877,-49.346841,-50.325357,-15.676651,-34.293227,-39.566255,-40.399157,-9.209734,-24.697065,-23.36073,-17.903772,-3.854535,-21.388404,-27.846225,-29.586895,49.241094,295.001926,-138.797556,229.872266
97,-0.404548,-0.242556,2.817432,7.948365,-26.830033,-51.118836,-73.251023,-90.831333,-58.031731,-88.9594,-105.219418,-117.503655,-50.693024,-84.71529,-103.3984,-117.754555,-41.561165,-72.983803,-90.912129,-104.490578,-31.721306,-56.14698,-70.013626,-81.823986,-17.343418,-17.179026,-5.430133,4.280823,11.700518,27.521653,35.507463,41.371566,28.92787,43.782401,50.996665,56.455315,41.556398,56.306904,63.222283,68.323966,49.644516,63.849099,69.88535,74.458635,-2.940593,4.648247,20.748871,37.173077,20.389223,40.771883,48.248148,52.685234,32.440207,55.764101,60.430733,62.30765,41.350107,59.017142,53.720599,48.702622,47.306483,63.317917,62.518073,60.760117,-19.59067,-35.590838,-44.633945,-44.795151,-15.1722,-32.618723,-41.803806,-46.533907,-4.916556,-24.200308,-33.725383,-38.140006,1.249007,-16.302195,-20.199307,-18.626265,5.038204,-13.111268,-22.426021,-26.382864,49.565232,294.195073,-135.251438,237.256334
98,-0.572685,-0.209198,3.386353,9.219398,-26.554688,-50.669541,-72.536019,-89.373677,-58.081467,-89.006459,-105.222268,-117.381318,-51.037812,-84.880532,-103.408951,-117.555188,-42.112359,-73.390995,-91.148804,-104.556485,-32.353798,-56.690438,-70.438992,-82.145348,-17.291152,-17.45936,-6.16789,3.493777,11.262139,26.75533,34.878029,41.000286,28.580178,43.379492,50.584913,56.065422,41.380532,56.035004,62.855016,67.805757,49.67318,63.624488,69.591294,73.994939,2.807007,15.906074,35.283222,53.214191,29.128435,55.521418,67.779837,75.077694,40.120554,70.664572,79.912617,83.519731,47.861429,72.61754,71.243105,67.382538,52.860323,71.537373,71.510084,69.719433,-21.466882,-35.201687,-41.270239,-40.590207,-5.419006,-23.232401,-36.744138,-45.481148,7.336777,-14.152836,-29.995831,-39.96084,14.179358,-5.813171,-15.576263,-19.24898,17.345604,1.032467,-8.579318,-13.256652,49.750346,293.425048,-131.107286,245.914905
99,-0.455155,0.179089,4.690189,8.074305,-26.44574,-49.647789,-70.028492,-84.77774,-57.979156,-88.337665,-104.56002,-116.829323,-51.404571,-84.620029,-103.309467,-117.634735,-42.787536,-73.692352,-91.455723,-104.914696,-33.140419,-57.289627,-70.975536,-82.683552,-16.880784,-18.492038,-10.609462,-4.34424,11.118236,26.190919,34.143112,39.881368,28.262447,42.716502,49.878043,55.009762,40.897557,55.3279,62.044344,66.600413,49.254265,62.996054,69.019819,73.371988,8.226277,25.348984,46.803372,65.717983,36.037251,65.892597,82.048142,91.94355,44.906742,79.516674,92.626248,98.17701,50.914547,80.256443,84.356495,83.426617,54.870838,75.839882,78.961556,79.115547,-21.824041,-32.951082,-36.068984,-34.205776,1.476576,-14.244326,-29.174192,-40.064038,16.079091,-4.21291,-22.439001,-35.2892,23.674194,4.894782,-8.194564,-15.921171,26.635447,13.298544,3.209366,-3.22352,50.023458,293.155607,-125.68883,253.54068
100,-0.808502,0.014622,6.021481,6.884862,-26.364578,-48.818024,-68.398396,-82.694778,-57.710953,-87.269646,-103.370052,-115.554909,-51.607544,-84.04834,-102.864819,-117.360981,-43.21962,-73.576756,-91.271301,-104.828121,-33.541191,-57.537277,-71.25301,-83.072273,-16.17473,-19.191521,-13.992828,-10.002517,10.858712,25.210816,32.668945,37.812668,27.664074,41.937657,48.924654,53.721994,40.195134,54.699207,61.25226,65.467985,48.826607,62.578819,68.607079,72.723634,12.657635,32.267097,54.594818,73.906036,41.335728,72.225654,90.710438,102.326591,46.848392,82.117458,97.751003,104.570022,50.443165,81.4361,91.685531,94.47258,53.094795,75.513759,83.338692,86.392593,-20.681275,-28.999871,-29.322961,-26.651898,5.326912,-6.070498,-19.787944,-30.845109,20.869231,5.278191,-11.559356,-24.667313,29.084395,15.720815,2.086102,-8.275333,32.112339,23.676059,13.378881,4.517685,49.871658,292.9381,-119.010647,260.193413
101,-0.688248,-0.425583,6.630318,7.62294,-26.728134,-48.878837,-67.510929,-81.350097,-56.889084,-85.383522,-101.482578,-113.921791,-51.241127,-82.475658,-101.849876,-117.016639,-43.207672,-72.530983,-90.671276,-104.941875,-33.6259,-57.154815,-71.168895,-83.594661,-15.123788,-19.01667,-15.804104,-13.342313,10.298141,23.791865,30.330431,34.493817,26.758318,40.553088,47.398912,51.83206,39.398862,53.724291,60.420419,64.452832,48.494908,62.066216,68.512502,72.739651,15.894458,37.610046,60.511573,80.236782,45.353713,77.617927,96.659957,108.633281,47.884712,84.209163,102.090465,110.659778,49.178375,81.24464,95.847599,102.330951,50.177192,73.686859,84.739265,90.302982,-20.0387,-26.263389,-24.163245,-20.476906,7.515309,-1.392719,-13.041353,-22.064385,24.065988,11.752783,-2.912223,-14.940438,33.115326,23.546544,10.991178,0.187302,36.588997,31.706107,22.297617,12.857696,49.704586,292.466976,-111.859153,267.770812
102,-1.075767,0.001198,6.753879,7.042968,-27.005905,-49.369469,-66.956681,-79.079121,-56.185776,-81.654785,-94.873101,-105.113114,-51.139,-80.394276,-99.572525,-114.85025,-43.537903,-71.826954,-89.94167,-104.64275,-33.905709,-57.062027,-71.444939,-84.755299,-14.397282,-18.954104,-17.319447,-15.618297,10.148791,21.448054,25.438502,26.834209,26.301822,38.522179,44.612634,47.793806,39.102127,52.528086,59.232452,62.580461,48.641725,61.725329,68.510698,72.63465,18.409412,41.412003,64.528038,84.185612,47.370049,80.610397,99.872864,112.004883,47.714699,84.978161,104.445053,114.590904,47.376995,80.584477,98.248295,107.53862,47.213127,71.918049,85.2934,92.81662,-19.666901,-24.409431,-20.515018,-15.479074,9.061478,2.717154,-6.729202,-13.470383,26.449789,17.294734,5.193062,-4.879999,36.439314,30.441953,19.919164,10.246654,40.714542,39.147551,31.361071,22.66702,49.042019,292.55988,-104.692074,274.905486
103,-1.113968,0.865172,6.729904,5.680001,-27.314324,-49.949547,-66.795651,-77.901798,-54.695984,-77.504219,-89.744167,-99.728542,-50.050095,-77.459988,-96.705128,-112.273361,-43.020401,-70.24474,-88.638394,-103.871842,-33.833153,-56.674667,-71.546688,-85.686447,-14.142635,-18.754538,-17.928145,-16.385237,9.847301,18.904667,21.082986,20.536557,25.731261,36.395409,41.389103,43.219879,38.383958,50.723691,56.705799,59.074853,47.832931,60.30859,66.976695,70.777199,20.003632,43.82975,66.969784,86.703919,48.659889,83.099613,102.38118,114.782524,46.80407,85.297863,105.660095,116.941406,44.631569,79.212387,98.256432,109.152649,43.055889,69.032101,83.409474,92.020363,-19.447601,-22.727968,-17.365958,-11.714782,10.138602,7.043968,-0.062702,-4.559404,28.133487,23.066681,13.938117,6.557758,38.988321,37.072946,29.193236,21.744592,43.920412,45.712817,39.96105,33.005706,48.189926,293.562119,-97.700295,280.722554
104,-1.670197,0.764285,6.39465,4.687017,-25.154731,-48.518142,-66.067554,-78.455543,-55.322902,-71.98534,-76.956459,-81.054725,-51.487632,-71.460056,-82.004596,-90.363796,-45.026252,-65.699352,-75.606548,-84.114566,-36.311027,-57.001922,-70.156871,-82.794387,-5.665217,-5.719842,-1.756342,3.48712,14.189775,22.285835,23.08118,21.604839,24.358525,34.252299,37.798008,38.377708,32.088392,43.372909,48.272495,49.918638,37.30398,47.907254,54.624464,58.960331,20.806251,45.005596,68.074367,87.740959,49.549209,84.845936,103.819027,116.229984,45.878643,85.05471,105.896221,117.863239,42.118515,77.563087,97.127437,108.866329,39.092605,65.864399,80.524212,89.711666,-19.281789,-21.548819,-14.992346,-9.569264,10.5548,10.736074,6.1063,3.710359,28.70143,27.620823,21.448252,16.430277,40.101952,42.064751,36.768801,31.239842,45.54551,50.710401,47.065262,41.66772,46.662574,294.474695,-91.1628,285.557862
105,-2.863266,3.982902,5.802978,3.423689,-21.300064,-43.192428,-60.253441,-72.739265,-53.92535,-62.746799,-60.058124,-58.384277,-51.632389,-62.621269,-64.456249,-65.417049,-46.306537,-59.101867,-60.846428,-62.73904,-38.590896,-56.001766,-67.282287,-78.25193,-6.902326,-7.367825,-3.097092,2.920992,11.142664,18.226498,18.352259,16.660508,21.150133,29.208389,31.532909,31.40947,28.728391,37.659699,41.1041,42.215237,33.841263,43.1368,49.790629,54.675309,21.500736,45.771343,68.63459,87.998051,49.810833,85.447163,104.592373,117.445668,44.878979,84.385311,105.869602,119.08897,39.920506,75.868012,95.899212,108.821469,35.65297,62.981484,77.970829,88.369847,-19.161844,-20.575768,-13.040254,-7.998234,10.569683,13.83229,11.747547,10.976309,28.707322,31.04439,27.808113,24.90882,40.41005,45.321493,42.402514,38.519537,46.271634,53.569273,51.663421,47.556611,43.893831,298.611553,-85.265299,289.135507
106,-7.219299,0.01172,5.360951,2.018671,-17.277924,-37.34729,-53.253445,-65.038959,-50.181358,-50.485393,-40.057903,-32.722549,-49.281876,-49.969173,-43.216015,-37.025619,-45.454147,-49.418941,-43.246159,-38.68,-39.363739,-53.993431,-62.493359,-70.276966,-3.065883,0.742116,8.765076,17.873459,14.372705,22.284155,22.084911,19.760465,21.785125,30.231273,31.790755,30.272176,26.777078,36.178912,38.210698,37.942034,29.699441,39.248228,45.705382,50.639018,22.003143,45.915458,68.407287,87.655357,49.813316,85.412338,104.6315,117.858375,43.994419,83.183578,104.98352,119.128463,38.187011,74.184471,94.505859,108.278892,33.009979,60.57534,75.980735,87.62178,-18.679883,-19.564173,-11.676188,-7.532785,10.740693,16.981882,17.242827,17.822404,28.721759,34.025057,33.310185,32.128171,40.685679,48.136879,47.239374,44.637471,47.079934,56.196493,55.793214,52.808297,36.770313,298.770467,-79.808567,291.301372
107,-7.863419,0.905446,4.477775,0.94793,-12.087684,-27.332336,-40.735942,-52.623058,-44.531238,-37.642707,-22.632522,-12.337062,-45.801601,-37.136215,-23.287147,-11.074619,-44.022445,-39.885463,-27.695835,-18.423694,-39.980037,-52.154136,-59.072822,-64.902282,-4.106896,-0.614861,7.334368,16.458263,14.236496,24.352819,25.820836,25.216806,21.985012,31.864707,32.926283,30.880578,26.473859,36.80411,36.96518,35.630037,28.8317,38.662686,44.492543,49.232245,22.54826,46.562714,69.019604,87.935646,50.814034,85.814461,104.553658,117.814865,44.004616,82.284966,103.654633,117.966843,36.963192,72.394432,92.297837,106.270775,30.376568,57.794461,73.100006,85.294327,-18.049793,-18.503918,-10.559184,-7.223736,10.935393,19.740915,22.099201,23.981958,28.692626,36.574868,38.168794,38.536135,40.801103,50.509515,51.584948,50.273728,47.610013,58.400539,59.238109,57.138929,29.042913,299.825433,-75.194773,292.398822
108,-9.941642,2.013113,3.474175,0.280829,-6.068047,-15.287041,-23.177628,-32.013737,-36.510704,-20.41491,1.314262,16.591804,-40.467533,-21.117485,1.147384,19.593338,-40.535672,-27.413784,-7.089272,8.233818,-37.858383,-47.186074,-51.466519,-54.739701,-5.395146,-2.300376,5.830005,14.559883,12.247033,24.039559,26.984572,27.946384,20.491306,30.766686,32.314732,30.545965,25.266379,35.38595,35.395855,34.027898,28.219222,37.969698,43.453753,47.900918,23.210415,47.226002,69.773666,88.608902,51.626438,85.501716,103.667129,116.664963,44.309761,81.227302,102.250969,116.559929,36.422756,70.802192,90.334121,104.224914,28.732555,55.730175,70.857673,83.194587,-17.220226,-17.632287,-9.891465,-7.048081,11.093795,22.001659,26.094452,29.019198,28.612016,38.59292,42.063948,43.61092,40.765621,52.096155,54.693698,54.392122,48.026543,59.902185,61.564642,60.076605,19.274506,302.022117,-71.547363,292.863222
109,-9.583649,2.300993,2.36372,-0.089267,-2.671875,-5.77874,-7.567909,-12.529072,-25.618687,-4.239601,17.540955,32.280464,-31.779282,-7.751221,13.884155,31.019279,-33.912048,-17.315014,1.889328,15.843246,-32.772457,-40.435032,-43.934486,-46.292324,-15.407357,-16.210496,-8.731545,-0.369625,5.101054,17.059144,21.189284,23.246919,19.559591,29.592551,31.899102,30.754064,29.755548,39.70102,39.741936,38.329037,37.553242,48.242226,53.077048,56.348931,23.717056,47.928737,70.61063,89.475666,52.135631,85.296924,103.103702,115.865101,44.410995,80.592533,101.347492,115.562908,35.909099,69.670704,88.985882,102.779033,27.558883,54.274692,69.322872,81.720829,-16.64964,-16.894307,-9.33045,-6.750048,11.246146,23.637638,28.805098,32.442531,28.641941,40.077352,44.772013,47.180773,40.758076,53.275872,56.950775,57.497303,48.201742,60.61707,62.885299,62.013086,9.900221,304.49871,-68.974279,292.949555
110,-8.312141,-1.227647,1.442619,-0.428165,-1.576378,-0.543457,3.528305,2.58142,-16.880276,7.685669,28.888847,43.09568,-24.051968,3.190223,24.686851,40.426231,-27.299321,-8.374569,10.406799,23.353088,-26.985672,-33.403828,-35.699719,-36.852402,-15.016725,-14.411731,-5.528329,4.68861,6.511531,18.814276,23.683654,26.084275,21.258925,32.053749,35.08157,34.226512,31.638144,42.629755,43.398449,41.920984,39.57122,50.879696,55.405125,57.76131,24.259918,48.784653,71.654377,90.735249,52.681652,85.189899,102.654614,115.19109,44.660156,80.312656,100.818295,114.803547,35.710316,69.141438,88.342312,101.918301,26.949383,53.514668,68.565525,80.818371,-16.057256,-16.062961,-8.516098,-5.895262,11.700197,25.27337,31.200927,35.479416,28.9707,41.445506,46.897783,49.887738,41.063098,54.432223,58.70261,59.776894,48.598575,61.465582,64.089222,63.627798,1.790554,303.462724,-67.329186,292.713051
111,-5.831864,3.107614,0.54855,-0.424077,1.37677,7.408402,15.916603,17.936394,-8.99263,17.896774,38.619873,52.546211,-17.544971,11.579544,33.482598,48.732536,-21.546421,-1.244304,17.79728,30.576119,-21.551582,-25.142578,-26.357185,-26.840206,-18.789601,-21.569172,-15.324094,-5.980009,1.005494,12.518303,18.703903,22.851728,18.415455,28.44156,32.519397,33.169357,31.211462,41.278434,42.822589,42.415913,41.236715,51.942866,55.874477,57.857876,24.798271,49.610424,72.598892,91.861656,53.449562,85.583954,102.760963,115.029716,45.234775,80.585586,100.784706,114.574859,35.983875,69.118309,88.143905,101.555191,26.961639,53.413044,68.463066,80.701744,-15.608651,-15.424252,-7.749158,-4.831945,12.156866,26.398054,32.754951,37.42674,29.310784,42.362438,48.26495,51.667015,41.269171,55.148651,59.810054,61.260102,48.679431,61.856005,64.717408,64.518399,-3.85001,306.755746,-66.589336,292.474382
112,0.340805,0.730878,0.119075,-0.503698,1.704003,7.761772,16.639984,19.258713,-8.983795,19.042855,39.317116,52.518494,-17.30991,12.71196,34.216233,48.820885,-21.140796,-0.199585,18.414185,30.696717,-20.953468,-24.764202,-26.268299,-27.166237,-19.111703,-22.213266,-16.267788,-7.115871,0.187622,11.907875,17.901543,21.777518,18.131205,27.82886,31.861162,32.526634,31.299888,40.719654,42.123204,41.562597,41.60313,52.025623,55.804588,57.664622,25.125344,50.16734,73.183079,92.491574,53.737828,86.002476,103.070607,115.15234,45.37595,80.959866,101.027058,114.612248,36.004807,69.282429,88.281956,101.514256,26.983979,53.402321,68.548657,80.774289,-15.312435,-14.968732,-7.057813,-3.617314,12.508324,27.156485,33.687616,38.555401,29.681175,43.15745,49.296651,52.969985,41.564252,55.856681,60.652774,62.250541,48.78127,62.205636,65.229776,65.175041,-3.343191,307.638845,-66.304247,292.122905
