takenoko1/special-research/HandMotion_SimilarSearch_自分用/NewProject/handData/tgt/d4_feature_d2/90.csv
,vel_0x_L,vel_0y_L,vel_0x_R,vel_0y_R,posFromWrist_1x_L,posFromWrist_2x_L,posFromWrist_3x_L,posFromWrist_4x_L,posFromWrist_5x_L,posFromWrist_6x_L,posFromWrist_7x_L,posFromWrist_8x_L,posFromWrist_9x_L,posFromWrist_10x_L,posFromWrist_11x_L,posFromWrist_12x_L,posFromWrist_13x_L,posFromWrist_14x_L,posFromWrist_15x_L,posFromWrist_16x_L,posFromWrist_17x_L,posFromWrist_18x_L,posFromWrist_19x_L,posFromWrist_20x_L,posFromWrist_1y_L,posFromWrist_2y_L,posFromWrist_3y_L,posFromWrist_4y_L,posFromWrist_5y_L,posFromWrist_6y_L,posFromWrist_7y_L,posFromWrist_8y_L,posFromWrist_9y_L,posFromWrist_10y_L,posFromWrist_11y_L,posFromWrist_12y_L,posFromWrist_13y_L,posFromWrist_14y_L,posFromWrist_15y_L,posFromWrist_16y_L,posFromWrist_17y_L,posFromWrist_18y_L,posFromWrist_19y_L,posFromWrist_20y_L,posFromWrist_1x_R,posFromWrist_2x_R,posFromWrist_3x_R,posFromWrist_4x_R,posFromWrist_5x_R,posFromWrist_6x_R,posFromWrist_7x_R,posFromWrist_8x_R,posFromWrist_9x_R,posFromWrist_10x_R,posFromWrist_11x_R,posFromWrist_12x_R,posFromWrist_13x_R,posFromWrist_14x_R,posFromWrist_15x_R,posFromWrist_16x_R,posFromWrist_17x_R,posFromWrist_18x_R,posFromWrist_19x_R,posFromWrist_20x_R,posFromWrist_1y_R,posFromWrist_2y_R,posFromWrist_3y_R,posFromWrist_4y_R,posFromWrist_5y_R,posFromWrist_6y_R,posFromWrist_7y_R,posFromWrist_8y_R,posFromWrist_9y_R,posFromWrist_10y_R,posFromWrist_11y_R,posFromWrist_12y_R,posFromWrist_13y_R,posFromWrist_14y_R,posFromWrist_15y_R,posFromWrist_16y_R,posFromWrist_17y_R,posFromWrist_18y_R,posFromWrist_19y_R,posFromWrist_20y_R,posFromBody_0x_L,posFromBody_0y_L,posFromBody_0x_R,posFromBody_0y_R
6,-3.21643,4.223765,-0.044918,-0.681243,2.700965,2.12178,-1.616204,-6.266053,-18.468773,1.766784,19.798736,30.674354,-27.77369,-3.320309,19.038597,36.43666,-32.433506,-11.502045,9.132614,24.434234,-34.774189,-26.619862,-13.658822,-2.419705,-16.280533,-23.176127,-19.616871,-11.346663,-7.635636,7.521732,14.41267,18.509736,8.810265,23.734327,30.110823,32.259305,21.54383,33.320436,35.808471,36.08494,31.397652,41.158688,39.862151,36.925018,27.302422,52.380146,74.077172,92.675926,47.485714,80.678719,98.842964,112.409775,36.654728,73.936547,94.654656,108.847344,28.046173,61.353104,80.815247,94.476197,21.911591,46.662987,61.711727,73.10598,-13.530615,-12.942183,-5.547904,2.404252,20.362223,37.810876,43.83989,47.638232,37.220863,54.931487,59.198835,60.230166,47.741553,65.518224,69.020115,68.37943,52.581908,68.330573,70.720104,68.879163,-3.920076,308.471376,-74.583979,284.360323
7,-3.724869,-3.152049,-0.399215,-0.462684,5.869285,7.866485,5.919559,1.974586,-13.366253,7.221702,25.304466,35.880569,-23.238304,0.624538,22.345848,39.160057,-29.321984,-8.333748,12.577675,27.709076,-33.561985,-23.163689,-8.974995,2.741649,-17.955094,-25.969433,-24.241039,-17.898024,-8.427795,8.833668,15.548321,18.972641,9.650959,26.350864,32.334751,33.817168,23.722557,36.895327,38.960903,38.987617,34.560557,45.828624,44.273316,40.856653,27.512546,52.809768,74.507537,92.702865,48.080646,80.832618,98.916297,112.410736,37.239669,74.256614,94.889007,108.992019,28.566021,61.758899,81.097297,94.636825,22.290515,46.965591,61.965854,73.274047,-13.103659,-12.47893,-5.020654,3.033428,20.580894,38.246501,44.172762,47.80975,37.469619,55.30383,59.625111,60.668792,48.043031,65.874648,69.322433,68.719304,53.009642,68.738225,70.927487,68.984337,-8.447742,305.24472,-75.785991,283.823032
8,-10.734329,-0.441541,-0.249081,-0.109928,10.617599,17.063964,19.19292,17.606208,-1.439129,22.220787,39.075782,48.198761,-11.5085,14.525779,34.803566,50.073234,-18.836277,4.791744,24.534599,38.322303,-24.646946,-10.665196,3.674766,14.792907,-19.160658,-27.702482,-27.448391,-23.016132,-9.246531,8.259451,14.617459,17.760889,8.852638,26.822885,32.193207,33.006707,23.20599,37.474275,39.244709,39.034881,34.32393,46.457454,44.858661,41.159997,27.743156,53.063667,74.780926,92.960506,48.255341,81.08955,99.149288,112.482799,37.486221,74.640781,95.213894,109.239613,28.86739,62.256832,81.540424,94.988354,22.624237,47.47253,62.465801,73.686436,-12.962078,-12.343018,-4.909442,3.17102,20.750843,38.333903,44.175492,47.724288,37.676619,55.528564,59.753787,60.651564,48.268247,66.111424,69.438623,68.676758,53.253951,68.938197,71.002291,68.940976,-19.618841,304.757009,-76.471842,283.666934
9,-4.098393,-3.993596,-0.364369,-0.118005,13.306755,22.746975,26.844418,25.584126,3.446125,27.914143,45.022465,54.332394,-7.441875,18.645458,38.735539,53.893192,-16.179462,7.96106,27.957562,41.769573,-23.575413,-7.783001,7.25417,18.733372,-19.979593,-28.221779,-28.352492,-25.531844,-8.59977,11.011864,17.38689,20.042183,10.835752,30.437679,35.596457,35.429953,26.081842,41.463092,43.330387,42.998084,37.997115,51.240788,49.535736,45.475004,27.821194,53.221447,75.01664,93.225266,48.450703,81.277474,99.306633,112.559716,37.706807,74.996888,95.520882,109.582673,29.109753,62.640919,81.906922,95.383622,22.881775,47.782746,62.758152,73.971131,-12.897697,-12.282675,-4.899401,3.143442,20.973404,38.428208,44.133983,47.535369,37.950544,55.668948,59.724653,60.457223,48.542295,66.254685,69.45259,68.586714,53.510993,69.11095,71.087074,68.992266,-23.930649,300.749071,-77.049626,283.534587
10,-5.398384,0.061948,-0.231159,0.034605,15.062256,26.797176,32.352322,31.622051,10.062229,35.3577,51.570019,60.335575,-0.576496,25.860363,44.953434,59.299679,-9.963535,14.966011,34.289875,47.669346,-18.236137,-1.477684,13.452953,24.868023,-20.823264,-29.360975,-30.018815,-27.925562,-9.324362,10.576054,16.865618,19.469793,10.049398,30.196359,35.17527,34.955722,25.473354,41.397056,43.165118,42.775091,37.710099,51.316692,49.648986,45.600715,27.773152,53.264981,75.190922,93.426258,48.645504,81.421589,99.322712,112.460507,38.027149,75.398884,95.839588,109.965123,29.470207,63.122772,82.334828,95.89468,23.20007,48.271179,63.250019,74.506588,-12.931339,-12.428159,-5.053036,2.983805,20.972293,38.273968,43.819426,47.043699,38.024879,55.584942,59.495707,60.048336,48.66119,66.214325,69.329188,68.376812,53.65749,69.144481,71.085605,69.015521,-29.492878,300.813366,-77.44463,283.571539
11,-3.019764,-2.854981,-0.021446,0.008299,17.774906,31.229691,37.477821,36.948486,14.781212,41.29335,57.517822,65.74015,3.567719,30.582161,48.758217,62.51461,-7.169609,18.542736,37.595512,50.543106,-17.237572,1.113075,15.998932,26.99437,-21.873565,-30.815852,-33.339431,-33.136272,-8.785775,13.692808,19.320802,20.800651,11.49001,33.977979,38.013306,36.615536,27.539634,45.292112,46.385872,45.644496,40.236704,55.572999,53.462296,48.806327,27.76054,53.241566,75.216145,93.484371,48.655197,81.577572,99.469013,112.533909,38.019585,75.621357,96.057232,110.19025,29.436504,63.355923,82.593555,96.196003,23.134243,48.397717,63.417114,74.686352,-12.999264,-12.547745,-5.155776,2.875816,21.078516,38.186085,43.552517,46.584289,38.259247,55.577384,59.28441,59.645291,48.908278,66.248461,69.228066,68.155758,53.837307,69.191955,71.100598,69.042506,-32.608543,297.987216,-77.561977,283.608669
12,0.701706,0.200145,0.121491,0.101679,17.879036,30.95723,36.982819,36.408371,14.422806,40.975525,57.163811,65.417061,2.959488,30.140831,48.317116,62.184586,-7.863522,18.048786,37.268463,50.439949,-17.959499,0.5984,15.634678,26.834724,-21.939205,-30.956939,-33.519544,-33.130924,-8.995553,13.466061,19.030563,20.459283,11.234561,33.940163,37.911505,36.366646,27.326855,45.161609,46.244402,45.5196,40.041944,55.412301,53.281887,48.572763,27.564434,52.961769,74.970005,93.302364,48.530365,81.52676,99.397441,112.41093,37.922847,75.723712,96.100238,110.245067,29.412666,63.568508,82.778492,96.44157,23.204658,48.685627,63.714992,75.013034,-13.143415,-12.822004,-5.451203,2.579141,21.121111,37.940614,43.159116,45.999228,38.44073,55.481695,58.915858,58.986821,49.122329,66.22061,68.996341,67.719281,54.025633,69.229226,71.038958,68.919733,-31.95623,298.233155,-77.489879,283.756142
13,1.545376,-0.167553,-0.051327,0.354138,17.435177,29.891773,35.365757,34.625713,13.039753,39.24535,55.39056,63.777523,1.430992,28.2644,46.739353,60.933941,-9.393894,16.102981,35.748768,49.295002,-19.446179,-1.279141,14.220829,25.898746,-21.699033,-30.597675,-32.993258,-32.346953,-9.291264,13.400407,19.33498,20.906812,10.909223,33.899531,38.225617,36.836294,27.201266,45.325852,46.719373,46.053593,40.205718,55.946984,53.958955,49.193836,27.315307,52.816532,75.005173,93.297592,48.599842,81.522583,99.431328,112.465988,38.083305,75.942215,96.326042,110.454757,29.659549,63.934547,83.150139,96.750206,23.542579,49.185814,64.275043,75.578338,-13.402939,-13.244092,-5.898794,2.172133,20.930278,37.549327,42.659507,45.332398,38.365803,55.185825,58.4686,58.412333,49.119007,65.983613,68.549429,67.082968,54.095559,69.154262,70.801504,68.571103,-30.425308,298.1144,-77.55566,284.159078
14,3.987316,0.233774,0.049129,0.315125,16.601086,27.422974,31.463104,30.162964,9.718025,35.02121,51.217415,59.690781,-2.268173,23.764389,42.539772,57.150032,-13.150955,11.392742,31.352394,45.210869,-23.163895,-6.048409,9.775486,21.81411,-21.47168,-30.372434,-32.570304,-31.745689,-9.528607,13.283848,19.458481,21.029819,10.577624,33.716516,38.327814,37.198473,26.993822,45.217061,46.815618,46.311154,40.164938,56.185144,54.22174,49.427994,27.082604,52.625531,74.915898,93.151943,48.569321,81.636029,99.5873,112.568218,38.123932,76.120274,96.513119,110.522427,29.777321,64.222378,83.456143,96.951245,23.751354,49.581036,64.724396,76.018742,-13.646681,-13.640221,-6.361824,1.768396,20.77516,37.359567,42.382371,44.903035,38.303126,55.058137,58.203221,57.987231,49.068199,65.803623,68.261808,66.676675,54.029956,68.986029,70.56227,68.302279,-26.425295,298.386626,-77.493834,284.512655
15,2.984562,2.885078,-0.14875,0.216793,14.491012,23.925876,28.229496,27.602314,5.317669,29.807384,46.320042,55.200519,-6.434647,19.236797,38.798023,53.764286,-16.158692,7.485008,27.614628,41.681637,-24.683979,-8.965943,6.648525,18.726734,-21.790485,-30.926397,-31.373988,-28.870182,-11.026437,9.186819,15.680468,18.103332,9.187807,29.892029,35.019659,34.447715,25.70251,41.526202,43.160821,42.607451,38.850297,52.462718,50.253276,45.513228,26.873726,52.509579,74.958195,93.150158,48.499649,81.749187,99.860744,112.889019,38.10236,76.377056,96.855297,110.797565,29.875957,64.603512,83.93288,97.360508,24.029331,50.044739,65.285191,76.584309,-13.841478,-13.931535,-6.76451,1.430053,20.787498,37.288382,42.195848,44.57167,38.386316,55.009194,57.983032,57.63781,49.156008,65.747035,68.036925,66.336047,54.1087,68.992068,70.417503,68.056809,-23.411396,301.307171,-77.613247,284.764915
16,7.010799,-0.12765,-0.297295,0.213286,12.378628,19.071694,20.699364,18.492668,-1.422397,21.198738,38.268791,47.847611,-13.694526,10.624031,30.885704,46.626961,-23.247265,-1.011852,19.727715,34.328659,-31.305851,-17.333381,-1.420234,11.172478,-21.041243,-30.060521,-30.360924,-27.806433,-10.352716,10.140109,16.836978,19.127239,9.745104,30.344535,35.7453,35.426631,26.146112,41.701263,43.608376,43.153436,39.19416,52.754291,50.677711,46.049456,26.645039,52.397324,75.023129,93.235348,48.541306,81.84557,100.039021,113.108013,38.262898,76.702092,97.231602,111.173207,30.161408,65.067067,84.467732,97.881535,24.455418,50.621281,65.951306,77.298008,-13.949578,-14.163593,-7.159355,1.030306,20.85488,37.237907,42.039224,44.309194,38.448437,55.001043,57.835831,57.424252,49.203889,65.712553,67.849673,66.069681,54.185369,69.002146,70.269758,67.821688,-16.341425,301.205866,-77.85137,285.004546
17,2.566635,2.914286,-0.283722,0.08818,10.659737,15.968377,17.658921,16.773514,-5.673442,16.050797,33.313157,43.384552,-17.546608,6.473694,27.815369,44.515068,-25.909252,-4.051162,17.044808,32.170281,-32.386551,-19.512931,-3.57352,9.255387,-20.992386,-30.782556,-29.986544,-25.788429,-11.763503,6.183439,13.263976,16.443023,8.036384,26.568572,32.53087,33.096936,24.255092,38.22553,40.339667,39.968386,37.084037,49.017662,47.057358,42.704411,26.541539,52.42368,75.202687,93.430722,48.680489,82.11208,100.375203,113.445637,38.503556,77.069584,97.584767,111.460682,30.471531,65.479855,84.868412,98.201672,24.823048,51.062508,66.43356,77.802807,-13.947553,-14.22795,-7.309236,0.931838,20.939071,37.281848,41.996159,44.168872,38.514139,54.997078,57.768214,57.352128,49.245249,65.699746,67.793258,66.016291,54.232756,69.059042,70.242304,67.754478,-13.698407,304.142892,-78.058709,285.115466
18,-1.890667,4.212564,-0.446422,-0.223018,10.158875,15.681576,18.408795,19.226017,-4.970432,17.364888,34.495549,44.471615,-15.833461,9.257733,30.237912,46.351971,-23.156089,0.055676,20.196911,34.20036,-28.384174,-15.253383,-0.353622,11.204785,-20.855016,-31.915824,-31.718309,-27.376761,-12.600802,3.767973,10.51097,13.784347,6.71511,23.63781,29.017976,30.101473,22.263246,34.939964,36.448279,35.932429,34.274097,44.551329,42.465005,38.440607,26.627323,52.606293,75.405762,93.734962,48.885349,82.490433,100.721123,113.804008,38.745769,77.379547,97.846962,111.737251,30.728657,65.72961,85.092338,98.507744,25.069004,51.19479,66.519504,77.978782,-13.848283,-14.020456,-7.044351,1.15204,20.990978,37.406547,42.079065,44.282987,38.538111,54.936983,57.64669,57.239162,49.234851,65.656039,67.855626,66.24436,54.156717,69.044346,70.365755,68.05529,-15.487942,308.367031,-78.403999,284.904023
19,2.041466,-1.084955,-0.159451,-0.086858,8.921448,13.505459,15.527905,15.760861,-8.124801,13.526493,31.344921,41.825352,-18.865013,5.84364,27.517834,44.142231,-25.806759,-3.093281,17.61858,32.036167,-30.490871,-18.007999,-2.97789,8.808712,-19.871974,-30.388168,-29.650448,-24.626213,-11.575547,4.832266,11.895266,15.315769,7.765732,24.345396,30.15937,31.430861,23.138114,35.60877,37.411944,37.042602,34.891477,45.138971,43.34196,39.494872,26.655693,52.568184,75.359928,93.810093,48.949597,82.615872,100.840222,113.902829,38.954785,77.647648,98.110073,111.973835,31.029831,66.115734,85.402119,98.75021,25.401055,51.556893,66.82029,78.2421,-13.663217,-13.876763,-6.844675,1.364017,20.957966,37.363075,42.057921,44.315356,38.492428,54.927992,57.646949,57.20368,49.203531,65.685827,67.887563,66.255944,54.174698,69.081779,70.418404,68.093686,-13.325564,307.288628,-78.442538,284.823717
20,0.684014,-0.787429,-0.197273,-0.202776,8.001251,11.713245,12.644451,12.296505,-9.619355,11.748195,29.359851,40.044307,-19.928364,4.591083,26.560237,43.612369,-26.590519,-3.717854,17.16679,31.936374,-30.965962,-18.4819,-3.284649,8.884998,-18.238663,-27.805754,-26.572635,-21.168733,-10.017782,6.497255,13.68625,17.290202,8.246829,25.217917,31.341088,33.154475,22.827596,36.247887,38.448622,38.424503,34.037445,45.218703,43.960921,40.563117,26.775616,52.671055,75.372974,93.881184,49.203747,82.928478,101.067707,114.093098,39.235909,77.82098,98.175762,111.989422,31.281063,66.242592,85.413265,98.720455,25.566364,51.538284,66.696911,78.135143,-13.543792,-13.630379,-6.465503,1.677573,20.905133,37.382057,42.123661,44.472498,38.412362,54.807047,57.54758,57.137743,49.109003,65.615012,67.947288,66.444802,54.068377,69.018633,70.500544,68.327041,-12.496702,306.503372,-78.494963,284.623114
21,-4.6153,-0.054489,-0.103283,-0.070655,9.221958,14.477623,16.835404,17.250527,-5.749672,16.590226,34.236718,44.756928,-15.695045,9.40551,31.557221,48.678978,-22.551658,0.833416,21.771561,36.630982,-27.378856,-14.094486,1.26463,13.423668,-18.231105,-27.520812,-25.977286,-20.213688,-10.631506,5.781901,13.218899,17.084697,7.720432,24.653914,31.034411,33.04866,22.451376,36.006999,38.34445,38.57904,33.803176,45.15221,44.002974,40.686235,26.87447,52.746964,75.414391,94.00351,49.312615,83.078041,101.204636,114.188713,39.420559,77.996475,98.318985,112.055855,31.516445,66.448082,85.501579,98.633263,25.799893,51.679516,66.710793,77.995514,-13.417957,-13.483598,-6.231629,1.944916,20.77027,37.324283,42.133442,44.540498,38.300656,54.792511,57.614925,57.225243,49.021466,65.600982,67.98771,66.49272,54.015716,68.968887,70.457245,68.239973,-16.950686,306.44022,-78.43693,284.543796
22,-0.093818,-1.3633,-0.081814,-0.143891,7.974003,13.366172,15.891655,15.312011,-6.091267,16.445915,34.342575,45.258613,-15.835774,9.23394,31.078422,47.671394,-22.467625,0.146129,20.825019,35.367164,-27.054394,-14.844853,0.008743,12.038726,-17.597411,-25.565091,-23.401529,-17.895801,-8.657013,8.020773,15.497414,19.232054,9.52831,26.200057,32.719357,34.598718,23.940795,37.032117,39.512841,39.801166,35.221397,46.361826,45.141045,41.905521,26.952439,52.810925,75.468396,94.145565,49.424229,83.264088,101.388783,114.384442,39.534165,78.150227,98.448773,112.117161,31.635556,66.577252,85.568516,98.604756,25.926785,51.736302,66.704716,77.92471,-13.360986,-13.346203,-6.01528,2.096637,20.764453,37.393308,42.240876,44.708324,38.338583,54.739517,57.577011,57.183846,49.091924,65.592572,67.999887,66.513147,54.084049,68.981534,70.492579,68.288151,-16.850212,305.061467,-78.324452,284.384452
23,1.576309,-3.936268,0.049599,0.066468,8.477188,13.703796,15.128288,12.592209,-6.645722,15.391502,33.489143,44.575058,-17.390053,6.62265,28.747856,46.006325,-25.082096,-3.8745,17.511726,33.095627,-30.943142,-19.124703,-3.605473,9.473396,-17.745648,-24.484965,-21.678989,-16.243693,-7.642812,10.458902,17.991896,21.424565,11.024079,28.937886,35.850029,37.252122,25.926812,39.959581,42.771361,43.292263,37.795451,50.34579,49.115475,45.624032,26.913048,52.735851,75.43404,94.15099,49.469833,83.325314,101.433712,114.39703,39.606262,78.281879,98.531101,112.130367,31.726112,66.670876,85.585888,98.514668,26.042496,51.811466,66.708527,77.812122,-13.348981,-13.401407,-6.112858,1.947361,20.829686,37.318318,42.106421,44.517885,38.452241,54.672457,57.461241,57.020738,49.215462,65.57774,67.931974,66.389758,54.200622,68.984757,70.40745,68.105407,-15.044466,301.097047,-78.045416,284.422768
24,-4.510265,1.157376,-0.038189,-0.023934,10.230388,17.223712,19.952831,17.95428,-1.110386,22.208736,39.383846,49.688175,-11.948491,12.949756,33.93465,50.160907,-20.159615,1.911746,22.268383,37.033939,-26.805977,-14.167134,0.766742,13.287654,-18.759998,-26.02975,-23.791187,-18.893107,-8.732349,9.333883,16.298687,19.3951,9.950881,28.116284,34.382592,35.414948,24.922589,39.100521,41.364143,41.593793,36.933983,49.542392,47.861719,44.060042,26.889381,52.774098,75.494957,94.201447,49.626091,83.500649,101.568306,114.522583,39.637859,78.359734,98.502525,112.004997,31.642948,66.569172,85.417236,98.264397,25.88055,51.581955,66.458942,77.503143,-13.390206,-13.417525,-6.126654,1.877521,20.878926,37.308697,42.045769,44.430249,38.562762,54.528047,57.259626,56.854716,49.3482,65.509938,67.850476,66.345025,54.302398,68.981694,70.350528,68.034121,-19.310749,302.218188,-77.839623,284.362599
25,-1.100796,-2.425853,0.134766,0.33717,12.43753,20.59861,23.225303,20.575859,2.172088,25.671066,43.09021,53.180191,-9.444649,15.137558,35.603004,51.612076,-19.054631,2.656688,23.038238,37.63385,-27.383549,-14.664265,0.270183,12.546661,-19.227596,-26.703484,-26.25488,-23.053689,-8.277235,12.260285,19.114791,21.350687,11.09046,31.060803,36.946185,37.388553,26.516034,41.94577,44.060463,44.440833,38.888594,53.059659,51.356027,47.387538,26.914913,52.810993,75.575432,94.279014,49.547481,83.47277,101.540565,114.383079,39.507717,78.391021,98.51651,111.871399,31.492481,66.569252,85.395996,98.085434,25.77705,51.66077,66.578727,77.519714,-13.509731,-13.736553,-6.502875,1.566756,20.733972,37.176279,41.921416,44.313268,38.528799,54.481943,57.136841,56.72951,49.377605,65.459166,67.61864,65.98933,54.358702,68.932108,70.104032,67.633398,-20.152439,299.748152,-77.445751,284.655586
26,-1.677326,0.14641,0.159439,0.117572,12.961498,22.178615,25.731823,23.515743,4.293491,27.93893,44.927867,55.072162,-7.25948,17.051525,37.097385,52.967731,-16.974495,4.626583,24.692768,39.182613,-25.359307,-12.726334,1.845268,14.031406,-19.405215,-27.138528,-27.029995,-24.043461,-8.272246,11.970947,18.781573,21.115492,10.945891,30.736972,36.507844,37.027251,26.232773,41.467897,43.503808,43.958772,38.570357,52.527519,50.805547,46.931845,26.956375,52.865661,75.59919,94.241066,49.638576,83.589958,101.602157,114.355247,39.437874,78.322815,98.367668,111.581474,31.263061,66.341789,85.135391,97.745041,25.447632,51.377449,66.354286,77.30262,-13.642605,-13.882937,-6.617483,1.425928,20.762699,37.205797,41.933433,44.30665,38.603888,54.375524,56.943785,56.526982,49.43969,65.361268,67.473144,65.830929,54.345809,68.855328,70.00785,67.55873,-21.559724,299.859537,-77.016271,284.738133
27,-1.868615,-1.368018,0.104587,0.306641,15.464322,25.787877,28.952031,26.208378,8.28899,31.803578,48.535023,58.31242,-3.763904,19.717633,39.450772,55.674099,-14.902565,6.733899,26.930272,41.673466,-25.07872,-11.53965,3.360226,15.661778,-19.870258,-28.219173,-29.783941,-28.039096,-8.784132,13.392688,20.021842,21.938476,10.822056,32.297367,37.686214,38.039488,26.446342,43.086794,45.009035,45.817163,38.949418,54.312636,52.706866,48.795978,26.979412,52.938732,75.693844,94.323979,49.580876,83.518902,101.494091,114.138279,39.306279,78.270344,98.29723,111.429142,31.095326,66.26389,85.03085,97.563984,25.29625,51.343621,66.3624,77.26482,-13.794042,-14.119973,-6.823409,1.282951,20.555279,36.962586,41.728495,44.139243,38.494515,54.270535,56.807205,56.415188,49.377457,65.244608,67.252843,65.554249,54.292888,68.719044,69.752561,67.218756,-23.170458,298.456019,-76.653803,285.009274
28,-0.738521,0.215459,0.164315,0.157784,15.296802,26.008461,29.751846,27.403244,9.102848,32.529465,49.243171,59.069206,-2.735893,20.487991,40.093117,56.197815,-13.784729,7.604393,27.614754,42.19709,-23.842324,-10.645169,3.945282,16.043999,-20.061004,-28.571916,-30.266532,-28.660145,-8.894307,13.125309,19.803826,21.926312,10.755255,31.931064,37.311217,37.791215,26.347987,42.63057,44.551774,45.489985,38.82036,53.760279,52.17769,48.439765,27.044941,53.00093,75.703891,94.307544,49.596382,83.544925,101.476902,113.999759,39.167759,78.16444,98.167682,111.158054,30.832363,66.08765,84.841587,97.258518,24.941574,51.13068,66.224269,77.080249,-13.932078,-14.247425,-6.877254,1.233218,20.339536,36.896723,41.731978,44.189694,38.376189,54.290147,56.821198,56.438889,49.326711,65.266654,67.232787,65.494105,54.270918,68.693283,69.686118,67.119351,-23.682409,298.648133,-76.262918,285.143713
29,-1.516731,0.113361,0.124031,0.143434,15.301151,26.721336,31.25196,29.335464,10.765628,34.398101,50.825477,60.509674,-0.77385,22.483314,41.722274,57.436958,-11.6964,9.669181,29.245719,43.409362,-21.668221,-8.349587,5.852359,17.501815,-20.250874,-28.806097,-30.444842,-28.947185,-8.890305,12.943949,19.554923,21.699453,10.760059,31.701328,36.963377,37.435965,26.333081,42.410146,44.227832,45.138712,38.79466,53.401312,51.791541,48.140943,27.192981,53.134369,75.79581,94.358562,49.639126,83.517002,101.37537,113.733226,39.12054,78.021938,97.998607,110.876552,30.702552,65.939586,84.609729,96.876789,24.735088,50.972385,66.063869,76.82674,-14.053406,-14.317191,-6.921801,1.138517,20.107478,36.846323,41.796038,44.345144,38.206882,54.326963,56.872105,56.494291,49.22791,65.302271,67.237331,65.455671,54.239549,68.683847,69.621243,66.996381,-24.983997,298.744352,-75.923744,285.270005
30,-3.129273,0.667041,0.101829,-0.131788,16.259136,28.926521,34.584709,33.142227,14.04221,38.454712,54.588112,64.085472,2.496334,26.405045,45.187019,60.303726,-8.583618,13.374184,32.476959,46.184715,-18.794231,-4.88047,9.096943,20.491242,-21.050617,-30.09247,-32.237408,-31.284982,-10.20202,11.81147,18.412873,20.541225,9.668892,30.851098,36.00417,36.288482,25.527497,41.648121,43.434881,44.145258,38.367976,52.755699,50.969531,47.131656,27.282097,53.23621,75.902172,94.441921,49.645272,83.500569,101.367108,113.77779,39.025772,77.845608,97.862652,110.830822,30.53603,65.72588,84.353131,96.611286,24.464264,50.65456,65.702442,76.388615,-14.004672,-14.202125,-6.840068,1.195513,20.094511,36.854153,41.84366,44.400288,38.183466,54.452687,57.108794,56.757311,49.192873,65.376038,67.412122,65.617013,54.21911,68.695629,69.710287,67.065097,-27.928665,299.403313,-75.63731,285.130137
31,-1.489735,0.166417,0.094666,-0.149806,16.946549,30.045674,35.676442,33.910458,15.646923,41.041707,56.823521,65.473515,4.06881,29.387982,47.127652,60.577572,-6.852001,16.398995,34.371357,46.473942,-16.905361,-1.855979,11.393315,21.396275,-21.431308,-30.387069,-32.654569,-32.601883,-10.077926,12.671852,18.696605,20.044567,9.817192,31.816233,36.271216,35.877582,25.677032,42.638067,43.823872,43.783463,38.49438,53.241069,51.051672,46.814136,27.318855,53.316433,75.976925,94.50777,49.554382,83.274891,101.187572,113.642841,38.839004,77.622905,97.716259,110.640598,30.330723,65.554722,84.166912,96.319965,24.290565,50.55249,65.57603,76.156528,-14.026866,-14.141894,-6.856087,1.128748,19.980408,36.996672,42.198996,44.909173,38.109637,54.79182,57.470738,57.051391,49.197986,65.686568,67.602091,65.655162,54.318725,68.860342,69.750141,66.968704,-29.281191,299.553073,-75.405435,284.963674
32,0.439431,-1.30202,-0.032078,-0.530868,17.19461,29.914776,35.038227,32.458294,13.964012,40.185161,56.648723,65.340992,2.257393,29.192653,47.413044,61.091594,-8.433472,16.132187,34.390995,46.60017,-18.166787,-2.308113,11.088741,21.138713,-20.573434,-28.690686,-30.521339,-30.670577,-8.338948,15.438962,21.637369,23.022221,11.530877,34.236837,38.849123,38.450895,27.136454,44.812348,46.142712,46.123359,39.564416,54.889015,52.903591,48.678603,27.576668,53.515789,75.898132,94.512245,49.623699,83.167053,101.170853,113.799202,38.727013,77.232399,97.59613,110.792198,30.082226,65.023075,83.819801,96.202652,23.916195,49.895908,64.929943,75.731071,-14.061137,-13.915024,-6.329134,1.644475,19.695281,37.394839,43.290583,46.597737,37.782026,55.50952,59.132058,59.401488,48.914082,66.368107,68.90432,67.309789,54.174525,69.368115,70.797489,68.300611,-28.729929,298.216948,-75.325682,284.398701
33,2.166858,-0.923885,-0.173046,-1.357596,17.472725,29.55954,34.258438,31.394783,10.751667,37.066063,54.462777,63.437119,-1.657299,26.394928,45.292603,59.103539,-12.073917,13.316712,32.296326,44.65654,-21.143978,-4.608787,9.092663,19.177208,-20.065796,-27.626072,-28.902885,-28.543399,-6.489462,17.813957,24.435478,26.535054,13.143353,36.519429,41.694076,41.818503,28.421961,46.81894,48.865411,49.379866,40.433664,56.206806,54.925535,51.229278,28.0322,53.801788,76.052776,94.911106,49.7738,82.763386,100.528255,113.247631,38.847702,76.385593,96.746647,110.270725,30.045799,63.947914,82.682087,95.277683,23.517448,48.760448,63.547359,74.666324,-14.032423,-13.660574,-5.784618,1.873878,19.547081,37.844098,44.710608,48.912267,37.41497,56.477977,61.886226,63.653078,48.421141,67.11162,71.388874,71.301361,53.864625,70.129733,72.958594,71.749953,-26.492518,297.25521,-75.428175,283.003252
34,13.234303,-0.070222,0.094402,-4.063584,8.311008,12.779171,12.303017,6.480961,-4.31852,14.491424,29.393921,37.649025,-13.090084,7.486301,23.824058,35.721062,-19.607826,-1.162148,14.827503,25.354866,-24.624172,-13.035244,-1.717003,6.658733,-16.599808,-20.561541,-19.488171,-17.750057,-1.152559,17.960194,22.755533,24.188599,16.086439,34.9823,38.302471,37.353046,29.346821,45.021892,45.628392,44.962204,39.337346,53.140404,51.799296,48.253254,28.420292,54.135018,75.604569,93.868836,50.034474,81.796555,98.841728,111.242798,39.038109,74.383484,93.803009,107.333405,29.445007,60.639324,78.159016,90.401619,21.623394,43.751255,56.524647,66.228722,-13.800797,-12.852632,-4.626724,2.714461,18.564989,38.040588,46.3084,51.926588,35.569274,56.54605,64.27504,68.2418,46.45129,67.269503,74.078449,76.283952,52.264252,70.168796,74.935705,75.082511,-13.259542,297.120515,-75.3351,278.875195
35,8.248329,-1.445664,4.722576,-5.25501,1.495045,1.372833,-2.226379,-8.48941,-14.531548,-3.650413,7.837898,14.379616,-20.769424,-8.743492,2.823223,12.201794,-24.54126,-14.572826,-3.525135,4.066349,-27.154106,-21.446423,-14.499733,-9.243656,-17.773053,-22.723472,-22.993309,-22.254428,-0.664323,14.954159,17.963961,18.69637,17.375232,33.443628,35.540265,34.12891,30.851667,45.253469,44.803222,42.923613,40.224342,53.498964,52.851906,49.569551,25.049103,47.51223,65.402985,80.229058,47.801583,71.798527,83.494526,91.330845,38.424946,64.730896,77.42014,85.774407,29.21624,51.603173,62.441471,70.249741,20.690987,36.001419,43.905453,50.331093,-6.810984,-2.261819,7.593844,16.054292,20.995177,41.197553,50.652258,56.865448,33.488904,55.466554,64.607369,69.151409,41.712996,63.233768,71.399272,74.343408,46.111873,64.205065,70.16272,71.449265,-5.002928,295.539972,-70.604239,273.485306
36,14.769665,-1.859317,-2.29866,-15.75621,-6.462433,-14.066471,-22.882782,-31.701737,-29.047806,-29.864228,-24.407421,-20.766587,-31.725437,-32.481182,-27.522125,-21.722019,-31.87571,-33.700333,-29.12273,-25.261494,-31.114346,-34.144707,-32.147988,-30.235737,-18.124833,-22.022494,-20.017347,-16.301998,1.035246,14.265197,17.659889,19.328916,18.68791,32.481458,35.120843,34.601473,31.820778,44.617908,45.446611,44.691255,40.564056,52.831257,53.646399,51.870803,24.864269,47.355595,65.622803,78.965973,47.339481,72.515797,80.173428,83.70425,39.858158,66.451492,74.632519,78.403908,32.128372,55.132919,61.416355,64.430454,24.438457,40.793198,45.446045,47.856205,2.102972,9.401821,17.485531,22.999953,21.994595,39.890309,48.451744,53.926931,26.779474,46.813938,56.201779,60.90863,29.232731,48.735796,57.859098,61.64283,29.762241,45.454293,52.775508,55.426836,9.733515,293.538515,-72.936121,257.586956
37,14.381058,-0.960812,-5.041363,-23.784715,-14.330086,-28.71452,-42.57343,-53.469246,-40.687569,-53.221619,-54.814808,-55.379975,-39.791989,-53.639798,-56.684556,-57.042172,-36.328709,-50.152153,-53.436871,-55.285069,-32.074173,-43.93388,-47.789532,-50.703061,-18.801358,-22.068251,-17.807509,-11.826908,1.809732,12.240698,15.416114,17.516579,19.134378,30.400593,32.845477,32.978215,32.208904,43.469413,44.722773,44.323532,40.910019,51.948078,53.66553,53.134958,25.29578,48.372128,66.352055,77.362118,51.64579,74.410263,76.078446,74.843811,46.058018,69.020863,70.401661,68.795918,38.945721,58.986981,59.001515,56.805748,30.787239,46.068032,46.100315,43.845303,10.606992,18.473414,22.328677,23.916256,20.35837,33.801163,41.167345,45.541756,17.269676,33.240271,41.987588,46.001019,13.829783,29.179428,38.620202,42.725048,10.11016,21.923545,29.903464,33.494856,24.166935,292.698638,-77.925122,233.923176
38,13.680976,-1.857193,-7.307029,-31.727127,-22.673492,-43.790897,-62.8885,-76.649974,-51.562076,-75.44403,-84.431728,-89.482463,-46.547332,-73.112629,-84.210891,-90.473865,-39.567638,-64.994155,-76.396373,-83.846717,-32.191257,-52.681961,-62.44178,-70.016315,-19.082446,-21.20351,-14.77938,-7.364971,3.456615,11.343934,13.999819,15.914415,20.494999,28.954274,30.734823,31.030286,33.272234,42.783452,43.997873,43.629581,41.515185,51.477614,53.655674,53.917397,21.60783,43.337242,61.604942,72.058765,44.493175,70.145565,68.171619,62.06726,41.263217,67.172801,63.805011,56.864501,36.795822,60.007598,55.476974,48.56686,31.477489,49.083126,45.848819,39.433856,7.146641,9.880041,9.812844,11.093165,7.501736,14.37683,21.224055,24.909974,5.450635,14.911915,22.324046,25.199238,4.175353,12.928381,20.732003,23.988386,2.926994,8.977176,15.027296,17.795888,37.832124,291.13928,-85.247938,202.493884
39,3.356896,-2.873679,-10.433087,-36.995012,-21.7901,-42.922749,-62.534992,-76.340275,-51.72995,-79.553375,-92.100872,-100.283833,-46.900063,-77.979893,-93.381077,-102.990029,-40.009907,-69.527092,-84.897995,-95.611015,-32.808827,-56.64077,-69.448483,-79.720711,-22.290021,-26.459286,-19.79833,-11.899773,1.465955,12.454836,17.112559,20.548327,20.479006,31.046366,34.920785,37.324036,34.759826,45.640619,49.221884,50.874473,44.272304,55.369483,58.874066,60.406834,16.78149,36.352341,55.577786,66.469116,36.195191,64.319058,60.075863,50.308994,35.85355,64.914139,58.076683,46.614361,35.123772,62.209889,53.838215,42.902104,33.587402,55.290218,49.803143,40.82412,2.68079,-0.876331,-5.069431,-4.146077,-8.770176,-10.491327,-3.858147,-0.852958,-9.734563,-8.81053,-2.178949,-0.031035,-9.279111,-8.081288,-1.607807,0.699274,-8.386366,-8.655907,-3.849137,-1.193141,41.342377,288.58343,-95.527668,165.816701
40,8.548302,-1.688478,-14.774288,-42.87257,-23.59433,-47.943787,-70.379197,-87.019742,-56.766541,-87.870987,-103.288559,-113.993145,-51.065873,-85.350724,-103.182473,-115.889569,-43.174553,-75.088028,-92.793801,-106.040349,-34.585328,-60.613232,-74.805428,-86.787209,-20.642261,-22.134374,-11.197808,-0.069272,5.031226,17.270133,23.477642,28.150037,22.773576,33.717108,38.641814,42.279519,36.148555,47.000992,52.129846,55.587869,45.259631,56.153997,60.064823,62.675593,18.479427,37.65628,57.462032,69.009579,30.79327,64.206711,63.626713,56.116161,29.736191,65.225704,62.67778,53.672974,29.802578,63.932808,59.487946,50.09396,30.18029,58.067448,55.609692,47.529465,-8.512819,-21.525483,-32.241285,-35.422123,-31.496816,-41.326413,-35.138985,-31.391217,-29.338948,-36.415595,-29.475219,-25.313994,-25.614392,-30.961138,-23.877705,-19.38451,-21.188344,-26.509847,-21.540921,-17.615416,49.974856,287.134127,-110.217779,123.183306
41,1.627647,-1.02728,-7.819737,-40.836646,-24.422127,-48.774033,-71.429821,-88.14568,-57.056809,-88.483532,-104.018372,-115.335663,-51.446594,-86.065899,-103.816635,-117.362377,-43.673355,-75.932373,-93.738968,-107.543667,-35.014732,-61.473896,-75.970619,-88.306286,-20.021151,-21.328173,-10.041605,0.853267,6.266246,17.891428,24.061838,29.115776,24.088761,34.131577,39.017035,43.079162,37.33914,47.701267,52.655243,56.132211,46.361431,57.066421,60.909408,63.609161,18.252903,33.342076,47.960633,56.697796,25.098942,51.748993,52.478898,46.82214,21.400773,50.548039,49.489838,42.862404,19.14671,47.827389,45.350693,38.684132,17.774106,41.550339,40.483315,34.678849,-20.366533,-41.266757,-55.053024,-59.212841,-51.474551,-66.488435,-59.250885,-53.276064,-44.566866,-57.036732,-49.036978,-42.279087,-35.872661,-45.414279,-37.892875,-31.28019,-26.795863,-34.630817,-29.893906,-24.896846,51.350716,286.941555,-118.289303,83.181368
42,0.481155,-0.906805,-6.546764,-33.758055,-25.021934,-49.510254,-72.332931,-89.221618,-57.829399,-89.135399,-104.662445,-116.112705,-52.24118,-86.746456,-104.345123,-117.921055,-44.593574,-76.795784,-94.453846,-108.279213,-36.084343,-62.44939,-76.962959,-89.328346,-20.080938,-21.30861,-10.17632,0.735287,7.091331,18.339453,24.430192,29.479091,24.946524,34.599522,39.445113,43.488852,38.07134,48.190676,53.131821,56.629611,46.814037,57.460154,61.206292,63.851136,14.895344,25.358814,36.601055,44.461418,14.03421,35.723087,39.094528,36.141003,9.573074,33.867016,35.689362,32.147541,7.170227,30.967587,31.256722,27.781815,6.212448,25.047215,25.584641,22.315601,-33.859054,-60.963298,-76.499838,-82.115241,-66.539175,-86.120255,-81.53948,-76.497596,-53.952829,-72.592327,-67.551758,-61.437671,-40.189614,-55.390015,-51.556259,-46.062603,-26.612087,-38.485247,-37.368355,-34.057143,50.885439,286.834477,-125.782499,50.22304
43,0.061089,-0.609835,-3.594406,-31.680682,-25.385834,-50.003838,-72.981251,-89.985054,-58.478668,-89.62983,-104.997677,-116.402973,-52.87841,-87.322323,-104.664871,-118.0135,-45.293862,-77.429592,-94.902386,-108.588444,-36.892914,-63.266842,-77.788777,-90.154598,-20.044616,-21.381932,-10.214543,0.844635,7.161776,18.281605,24.379211,29.480487,25.167937,34.774498,39.598811,43.652676,38.389281,48.477989,53.269957,56.679888,47.188393,57.79042,61.374957,63.90339,15.109829,22.884596,29.856119,34.625393,13.208067,27.050932,31.114952,30.586275,7.475452,23.36039,26.206009,25.124382,3.268032,19.156586,20.603359,19.183588,0.012045,12.664919,13.891903,12.19297,-34.307046,-61.634373,-78.497898,-87.3669,-70.891192,-93.067658,-89.873828,-84.818298,-61.347962,-84.004209,-79.721018,-72.797329,-50.19569,-68.825746,-65.482924,-59.390549,-38.515402,-52.85558,-51.817293,-48.186578,49.895159,287.069326,-130.428274,19.387042
44,-0.099884,-0.535314,-0.184914,-30.3675,-25.629524,-50.240341,-73.381806,-90.522011,-58.878044,-90.085201,-105.311508,-116.552651,-53.254349,-87.700916,-104.833912,-117.867199,-45.642334,-77.807453,-95.103298,-108.528946,-37.250931,-63.546833,-77.905644,-90.047745,-19.935985,-21.284095,-10.066293,1.076124,7.176435,18.254064,24.407443,29.562911,25.213706,34.924403,39.750988,43.81004,38.443522,48.65846,53.380415,56.78663,47.215649,57.84681,61.433793,64.059791,16.201973,21.926714,24.464934,25.730976,12.372454,21.545248,25.457772,26.077967,4.933594,15.80309,19.244889,19.576584,-1.246776,10.079041,13.026513,12.89744,-6.527223,2.337576,5.230694,4.896618,-32.867478,-59.3781,-76.636068,-87.165038,-71.460383,-94.981007,-91.75101,-85.625343,-64.323814,-89.562101,-84.793182,-76.375469,-55.112567,-77.024799,-72.866638,-65.133726,-44.806343,-61.48683,-59.901768,-55.44324,48.140871,287.371758,-132.267592,-10.142712
45,-0.000481,-0.420557,-1.647491,-24.151568,-25.650055,-50.230179,-73.495205,-90.754703,-59.114548,-90.394214,-105.567707,-116.753666,-53.423904,-87.925884,-104.94302,-117.760563,-45.719055,-78.005035,-95.221493,-108.438835,-37.269356,-63.624229,-77.845333,-89.806549,-19.896576,-21.272548,-10.028094,1.127834,7.041856,18.147025,24.364909,29.581226,25.110669,34.883474,39.761794,43.847473,38.387514,48.615432,53.339857,56.82678,47.199841,57.787628,61.368053,64.061371,12.366177,16.956728,19.519712,21.495128,7.149347,17.928858,20.836658,20.059759,1.983524,13.693531,15.917828,14.9198,-1.922299,9.518051,11.614288,10.458017,-5.077074,2.976019,4.619533,3.527367,-31.906543,-57.447634,-74.30189,-84.188171,-69.197447,-93.494072,-89.696184,-83.677234,-62.735717,-89.561941,-85.012485,-77.566248,-54.648234,-79.206487,-75.450627,-68.804183,-45.77651,-65.074822,-64.022546,-60.239024,46.111381,287.933304,-135.944092,-33.312177
46,0.183586,-0.396759,-0.540219,-17.371922,-25.721306,-50.301315,-73.540706,-91.021499,-59.300491,-90.55989,-105.672615,-116.855255,-53.539146,-87.887649,-104.811973,-117.581909,-45.731895,-77.95602,-95.101352,-108.226318,-37.196548,-63.41954,-77.502056,-89.361374,-19.846274,-21.162224,-9.81382,1.139048,6.934806,18.30197,24.564437,29.760105,24.96048,34.939766,39.840588,43.948484,38.25317,48.559511,53.337832,56.966039,47.075142,57.627213,61.25405,64.073722,7.908578,11.421851,15.407507,19.098622,-0.107065,15.353171,18.376122,16.389491,-1.453411,14.773877,16.588338,13.748807,-1.101276,13.843781,15.298989,12.285685,-0.057031,10.180476,11.054524,8.354291,-32.489714,-57.203522,-73.280807,-81.605553,-68.559565,-93.409561,-88.689628,-82.989718,-61.532532,-89.376035,-84.071156,-77.451816,-53.545409,-80.187671,-75.56426,-69.54445,-45.219645,-66.547233,-64.719582,-60.735337,44.117122,287.878364,-138.662156,-50.34228
47,0.300682,-0.314804,1.813569,-17.465474,-25.833915,-50.28582,-73.425201,-91.074749,-59.17971,-90.571678,-105.717201,-116.974102,-53.401817,-87.787994,-104.765304,-117.682033,-45.564972,-77.878624,-95.083637,-108.329898,-36.971672,-63.19947,-77.287788,-89.247196,-19.727873,-21.067351,-9.642252,1.012942,6.751902,18.327943,24.597869,29.667763,24.75684,34.856095,39.729141,43.784229,38.079738,48.378768,53.156126,56.79304,46.952507,57.476123,61.142405,63.998362,4.712311,7.448736,12.369844,16.943458,-7.155814,14.615484,17.829197,13.782789,-6.04382,16.922973,18.617202,13.550754,-2.466236,18.738945,19.821853,14.408987,2.032762,17.160089,17.926632,13.570793,-30.324961,-54.075117,-68.521456,-73.311343,-69.486013,-94.029446,-84.534264,-76.059565,-62.65756,-89.465228,-79.360421,-70.278663,-54.776926,-80.615348,-71.062001,-62.419963,-46.512606,-67.561456,-61.456879,-54.464003,42.423791,287.705821,-138.8426,-67.665493
48,0.314232,-0.057403,1.307533,-11.43815,-25.753235,-50.06044,-73.141845,-90.865185,-58.897567,-90.400303,-105.63652,-116.974457,-53.168678,-87.665325,-104.755096,-117.852985,-45.379394,-77.830169,-95.092163,-108.433433,-36.795707,-63.093086,-77.211696,-89.258697,-19.758217,-21.165411,-9.725628,0.794049,6.487313,18.153275,24.392895,29.335645,24.483866,34.610279,39.465257,43.443984,37.833675,48.012304,52.789279,56.417992,46.769453,57.185105,60.890192,63.749137,0.984203,2.863781,8.91267,15.132339,-12.917484,13.442963,16.927986,11.450272,-9.168114,18.389637,20.13501,13.631767,-2.449001,22.800499,23.7644,16.895714,5.38488,23.771999,24.275253,18.755184,-29.247909,-52.105417,-65.469265,-68.163025,-69.776298,-93.785426,-81.875164,-72.15372,-62.972715,-88.665696,-76.27648,-66.654429,-55.232455,-80.417215,-68.343694,-58.916274,-47.193073,-67.945793,-59.538228,-51.103764,40.562908,287.529879,-139.710182,-79.222182
49,0.425698,0.117412,1.123787,-4.52741,-25.515519,-49.730942,-72.853775,-90.607247,-58.542664,-90.19035,-105.590023,-117.059063,-52.983742,-87.656811,-104.958893,-118.300278,-45.32087,-77.901707,-95.32021,-108.820954,-36.796601,-63.252377,-77.488415,-89.662938,-19.854758,-21.389416,-9.990648,0.593175,6.136213,17.733978,23.893816,28.771308,24.136063,34.192191,39.024359,42.965579,37.518007,47.549275,52.326114,55.933771,46.553661,56.850159,60.585985,63.424787,-1.413757,0.094906,7.503296,15.303085,-17.079334,11.568752,15.337669,9.000469,-11.109078,18.889458,20.819698,13.369079,-1.744137,25.51609,26.496952,18.746212,9.033863,29.55534,29.583458,23.069893,-28.903886,-51.208641,-64.38575,-66.971536,-69.438332,-92.582127,-80.499983,-71.269235,-63.028624,-87.617301,-75.132955,-66.846371,-55.977684,-80.277234,-67.925466,-59.578283,-48.79813,-68.773521,-59.672514,-51.20535,39.026986,287.549024,-140.548015,-83.847859
50,0.400383,0.267417,3.030647,-3.617494,-25.424859,-49.523095,-72.660302,-90.142262,-58.311104,-90.113903,-105.600975,-117.05341,-52.867928,-87.730305,-105.2058,-118.673275,-45.311463,-78.01513,-95.47823,-109.008786,-36.880257,-63.409722,-77.692887,-89.885857,-19.976938,-21.607408,-10.302056,0.479603,5.771947,17.345098,23.400022,28.11453,23.828953,33.814649,38.616447,42.503006,37.266089,47.174153,51.89885,55.456279,46.372632,56.526574,60.238638,63.043144,-2.549423,-0.650036,7.582581,15.904461,-17.427166,10.80455,14.20047,7.701943,-10.79623,18.995487,20.767719,13.209034,-0.968262,26.213894,26.927101,18.967472,10.035851,30.732559,30.499878,23.481308,-28.101735,-50.165602,-63.172144,-66.069062,-68.469659,-91.39889,-79.273977,-69.997871,-62.302043,-86.395038,-73.601659,-65.428068,-55.549028,-79.113803,-66.426641,-58.088235,-48.653881,-67.319305,-57.537795,-48.865077,37.716843,287.683354,-139.227894,-87.59844
51,0.382003,0.292684,1.920616,-1.796924,-25.328361,-49.393821,-72.580021,-89.847232,-58.133079,-90.061168,-105.671413,-117.154609,-52.759781,-87.814693,-105.434955,-118.994876,-45.266418,-78.183151,-95.707683,-109.281543,-36.891174,-63.557968,-77.905769,-90.12704,-20.115962,-21.760092,-10.461569,0.453137,5.509619,17.100826,23.15223,27.787896,23.662301,33.566153,38.340535,42.165145,37.175416,46.899117,51.546144,55.01448,46.358393,56.353772,60.015967,62.734973,-4.394851,-1.835804,7.706944,17.061974,-17.231243,10.858017,13.754757,7.018307,-9.803169,19.688278,21.083325,13.576813,0.562214,27.464916,27.571873,19.552506,11.88699,32.417153,31.504589,24.209851,-26.651256,-49.029525,-61.992736,-64.653842,-66.96855,-90.049487,-77.679607,-68.351828,-60.645812,-84.964803,-72.219311,-64.22184,-53.717906,-77.328457,-64.650196,-56.559737,-46.582828,-64.921074,-55.161937,-46.962251,36.723741,287.837961,-138.682383,-89.533441
52,0.197113,0.237789,1.057171,-0.108811,-25.08554,-49.11985,-72.328525,-89.237812,-57.919052,-90.130313,-105.847309,-117.289009,-52.589904,-87.951702,-105.646865,-119.119834,-45.137901,-78.293735,-95.840755,-109.341785,-36.809784,-63.579082,-77.960414,-90.140991,-20.147962,-21.72566,-10.395089,0.774646,5.422995,17.008385,23.068114,27.785672,23.590584,33.511751,38.297951,42.155993,37.093201,46.814074,51.451098,54.948011,46.254455,56.142845,59.733298,62.44792,-5.198273,-2.57864,7.182392,16.863281,-16.675758,11.626007,14.419041,7.756325,-9.171558,20.867466,22.186924,14.868439,1.338226,28.986832,28.865181,20.954682,12.797047,34.163098,32.899887,25.297245,-25.734194,-48.078969,-61.104076,-64.173405,-66.051007,-88.667132,-76.456748,-67.262908,-59.608416,-83.471551,-70.801895,-63.05459,-52.414271,-75.416124,-62.698673,-55.011852,-44.965337,-62.196043,-52.309811,-44.687241,35.78841,287.769468,-138.757656,-89.948534
53,0.24321,0.22881,1.030151,0.492373,-24.921798,-48.892982,-72.161487,-88.576229,-57.786072,-90.29179,-106.070995,-117.427803,-52.42202,-88.185894,-105.997764,-119.391906,-44.883934,-78.384865,-95.974067,-109.335743,-36.562935,-63.509342,-77.902771,-89.958709,-19.954028,-21.495294,-10.285878,1.298339,5.591302,17.268157,23.314609,28.069662,23.698338,33.598177,38.416166,42.385483,37.156878,46.828363,51.425422,54.961275,46.262186,56.063927,59.544934,62.216664,-5.486778,-2.901844,6.777901,16.082268,-16.767997,11.443108,13.971818,7.250851,-9.207229,21.129559,22.249341,14.814766,1.367558,29.464703,29.032883,20.965016,12.920208,34.801987,33.259404,25.363129,-24.520508,-47.00968,-60.239694,-63.438307,-65.073047,-87.484809,-75.151841,-66.236653,-58.741885,-82.40866,-69.592106,-62.048478,-51.54485,-74.093667,-61.262342,-53.892607,-44.110878,-60.627604,-50.437211,-43.107252,35.303049,287.772666,-138.456076,-89.681773
54,0.123184,0.254202,0.830624,0.139519,-24.884925,-48.730133,-71.937561,-87.901794,-57.73542,-90.385517,-106.174221,-117.41669,-52.303825,-88.376781,-106.187713,-119.421283,-44.726394,-78.4873,-95.950126,-109.040954,-36.522216,-63.591751,-77.919216,-89.778305,-19.721501,-21.205067,-10.112075,1.804692,5.961446,17.73557,23.681221,28.285307,24.040151,33.958688,38.721349,42.6188,37.452106,47.142623,51.630198,55.08133,46.459527,56.270791,59.581564,62.117172,-6.556206,-4.147854,5.825718,15.427437,-17.748768,10.514614,12.778565,5.903,-9.785454,20.54829,21.440643,13.899456,1.045143,29.170109,28.364262,20.184322,12.750115,34.458744,32.628616,24.6152,-23.659689,-46.367198,-59.766383,-62.647519,-64.050485,-86.58836,-74.108698,-65.385177,-57.4651,-81.226615,-68.410592,-60.929304,-50.022573,-72.668283,-59.912577,-52.657839,-42.464109,-59.011559,-48.747371,-41.507645,35.13767,287.793668,-137.914015,-89.775454
55,0.104096,0.175309,0.318524,0.062239,-24.944183,-48.77211,-71.846993,-87.668312,-57.859131,-90.380528,-106.185436,-117.468773,-52.412796,-88.401798,-106.14402,-119.274811,-44.857521,-78.531887,-95.867294,-108.76046,-36.734047,-63.642128,-77.908276,-89.633091,-19.451367,-20.766219,-9.556741,2.422518,6.518015,18.452209,24.424177,29.014468,24.536452,34.662161,39.358119,43.144049,37.860017,47.759757,52.199118,55.564256,46.739776,56.690089,59.934962,62.356072,-6.757473,-5.110543,3.970802,13.105316,-18.957253,9.509513,11.705669,4.719875,-11.255734,19.536758,20.335899,12.759384,-0.565304,28.06921,27.276409,19.132907,11.102726,33.480777,31.736183,23.680835,-22.628303,-45.102557,-58.353272,-60.960659,-63.244939,-86.008846,-73.335043,-64.730373,-56.566129,-80.597182,-67.563145,-60.047549,-49.001262,-71.871675,-58.946119,-51.754475,-41.454213,-58.214485,-47.552279,-40.225935,35.256695,287.786884,-137.580562,-89.895308
56,0.107139,0.24158,1.101207,0.171734,-25.036125,-48.847412,-71.794807,-87.355957,-57.873321,-90.327644,-106.124267,-117.404285,-52.393295,-88.328109,-106.038047,-119.128063,-44.861709,-78.413417,-95.673419,-108.440586,-36.80651,-63.506469,-77.706836,-89.353935,-19.022807,-20.193175,-8.908781,3.112147,7.216919,19.290557,25.171604,29.626699,25.101419,35.375465,39.994396,43.715858,38.278562,48.42308,52.834468,56.170805,47.005426,57.137915,60.393101,62.789091,-6.332702,-5.654239,1.828366,9.820748,-20.459633,7.99609,10.638417,3.803124,-13.296226,17.702511,18.993244,11.673111,-2.946682,25.843701,25.728081,17.94476,8.465378,31.113156,30.093807,22.514946,-22.316081,-44.438944,-57.719404,-60.978912,-62.410574,-85.528344,-73.07039,-64.511795,-55.672739,-80.037093,-67.041685,-59.441935,-48.182161,-71.468479,-58.600255,-51.268947,-40.783319,-58.338174,-47.81466,-40.236791,35.656328,287.967189,-136.186861,-89.784849
57,0.002083,0.445875,4.459866,0.639391,-25.235572,-49.100944,-71.91093,-87.311325,-58.078262,-90.182224,-105.822223,-117.079822,-52.574661,-88.191513,-105.797241,-118.953071,-45.040786,-78.307663,-95.508522,-108.365249,-36.98513,-63.350052,-77.544971,-89.338886,-18.680352,-19.789673,-8.534525,3.486008,7.871189,20.104872,25.912387,30.153714,25.669708,35.897577,40.335048,43.840199,38.738936,48.865979,53.134649,56.260776,47.368469,57.660855,60.9801,63.334952,-6.247837,-6.468445,-0.219858,6.854345,-20.68762,6.605959,9.207577,2.452841,-13.642555,15.869654,17.165764,10.1677,-3.596535,23.632904,23.691618,16.321098,7.420172,29.153374,28.693563,21.856317,-22.285352,-44.404826,-58.14379,-62.397597,-62.248128,-86.10802,-74.248695,-65.80777,-55.634428,-80.740419,-68.11244,-60.407826,-48.385522,-72.473953,-59.826927,-52.130548,-41.225562,-60.184154,-50.3282,-42.651281,36.634803,288.68351,-130.750603,-88.875012
58,-0.170883,0.439441,7.614589,1.524136,-25.451408,-49.375442,-72.105915,-87.500324,-58.183571,-89.965061,-105.522674,-116.790916,-52.643555,-87.962036,-105.474197,-118.639068,-45.124924,-78.04557,-95.213699,-108.158329,-37.073067,-63.140785,-77.353855,-89.275143,-18.403377,-19.291669,-7.942795,4.068339,8.503587,20.74037,26.417184,30.416141,26.290707,36.506806,40.764077,43.99597,39.257639,49.501872,53.69265,56.593042,47.728276,58.272418,61.667333,63.921593,-6.19178,-7.292976,-2.254343,4.003367,-19.101144,6.005843,8.020627,1.270358,-12.252193,14.643958,15.397923,8.861372,-2.811412,21.835992,21.455847,14.58157,7.364485,27.684174,27.389117,21.283671,-22.714947,-45.07354,-59.792055,-65.779861,-63.135196,-87.615412,-76.916654,-68.764048,-56.877106,-82.56964,-70.635995,-62.801529,-49.912162,-74.443365,-62.181718,-54.003526,-42.878631,-62.971921,-54.173829,-46.607914,38.407551,289.421384,-121.192383,-87.052443
59,-0.077453,0.51133,10.619534,2.479505,-25.671021,-49.825402,-72.552464,-88.208439,-58.420464,-89.864525,-105.388676,-116.777905,-52.861634,-87.84375,-105.278195,-118.515896,-45.369874,-77.999028,-95.189724,-108.27435,-37.261826,-63.055802,-77.361935,-89.453568,-18.338946,-19.032267,-7.625027,4.190926,8.953118,21.031252,26.686354,30.63349,26.761925,36.870307,40.956171,43.966219,39.675183,49.90772,54.053989,56.807724,48.064891,58.727495,62.215837,64.453709,-6.730682,-9.213318,-6.07465,-1.078514,-15.772144,6.257297,7.046906,0.246025,-8.967087,14.236095,13.841709,7.89323,-0.291687,20.693734,19.36116,13.125011,8.770134,27.041496,26.651916,21.426876,-23.310052,-45.985328,-62.035891,-70.115796,-65.048051,-90.060052,-80.942805,-73.271465,-59.431267,-85.434412,-74.47808,-66.629989,-52.783465,-77.385561,-65.577135,-56.887151,-45.760785,-66.8324,-59.439431,-52.2706,40.977253,290.322035,-107.925694,-84.183617
60,-0.132615,0.427054,13.565712,3.327915,-25.839134,-50.165199,-72.952205,-88.719417,-58.532295,-89.878646,-105.305511,-116.648895,-52.886398,-87.744701,-105.170219,-118.501785,-45.302055,-77.809742,-95.060108,-108.304195,-37.051643,-62.772674,-77.173244,-89.421764,-18.250693,-18.84656,-7.461476,4.41792,9.371242,21.458675,27.042296,30.904846,27.178357,37.132832,41.12791,44.029488,40.032409,50.194131,54.36731,57.069076,48.325403,59.051202,62.621673,64.847812,-7.635994,-11.480637,-10.107479,-6.232471,-10.663643,7.233467,6.176415,-0.735226,-3.552437,14.63665,12.509575,7.131462,4.306984,20.30201,17.340393,11.721363,12.003708,27.257729,26.383705,22.067947,-24.259473,-47.532318,-65.308955,-75.537962,-67.963111,-93.397663,-86.298465,-79.331846,-63.309538,-89.526432,-79.836835,-72.069791,-57.115411,-81.624628,-70.31611,-61.045866,-50.053979,-72.032638,-66.389098,-59.911145,43.69444,291.242237,-91.51018,-80.362554
61,-0.256691,0.452951,16.040497,3.991284,-25.979965,-50.361259,-73.243126,-89.347011,-58.670402,-89.951145,-105.317585,-116.578273,-53.006103,-87.791748,-105.19606,-118.502426,-45.361839,-77.773441,-95.036911,-108.356426,-37.006713,-62.719276,-77.215244,-89.566646,-18.26876,-18.949645,-7.648813,4.32143,9.410368,21.460948,27.034738,30.897893,27.25762,37.179479,41.115746,43.878645,40.121651,50.278569,54.46127,57.050465,48.409112,59.248631,62.852694,65.034682,-9.434166,-14.622803,-14.614477,-11.338892,-3.859034,8.981752,4.985275,-2.352648,3.999653,16.065931,10.981064,5.936937,11.043606,21.043053,15.131979,9.859886,17.159128,28.768043,26.413507,22.645712,-24.947244,-49.270623,-69.33564,-81.65416,-71.935062,-97.695744,-92.779678,-86.872301,-68.57834,-94.654135,-86.401215,-78.972301,-62.875636,-86.50494,-75.765479,-66.173301,-55.718246,-77.569803,-73.732871,-68.471667,46.415239,292.243368,-72.492193,-75.82309
62,-0.314048,0.324918,16.040497,3.991284,-26.107338,-50.459221,-73.438671,-89.873486,-58.653031,-90.012726,-105.440804,-116.642018,-52.937943,-87.797551,-105.295922,-118.590306,-45.224579,-77.688504,-94.98341,-108.218182,-36.817154,-62.622986,-77.133877,-89.40493,-18.268007,-18.904654,-7.52572,4.397729,9.450086,21.616362,27.169293,31.009192,27.319754,37.365521,41.347224,44.121127,40.181623,50.439466,54.668863,57.265307,48.408507,59.366884,62.977467,65.103966,-11.232338,-17.764969,-19.121476,-16.445313,2.945575,10.730037,3.794136,-3.97007,11.551742,17.495212,9.452552,4.742412,17.780227,21.784095,12.923565,7.998409,22.314548,30.278358,26.443309,23.223476,-25.635015,-51.008928,-73.362325,-87.770358,-75.907013,-101.993824,-99.26089,-94.412757,-73.847143,-99.781837,-92.965595,-85.874811,-68.635861,-91.385253,-81.214847,-71.300736,-61.382513,-83.106967,-81.076644,-77.032188,48.841645,293.106392,-53.711242,-71.2937
63,-0.247467,0.356226,13.521126,1.852228,-26.207566,-50.56263,-73.531998,-90.373124,-58.772713,-90.165459,-105.56971,-116.727768,-53.048539,-87.908959,-105.423684,-118.769177,-45.307068,-77.801491,-95.101971,-108.313797,-36.829857,-62.638127,-77.186497,-89.459038,-18.352642,-19.023387,-7.565957,4.086309,9.428942,21.585252,27.136824,30.996459,27.30066,37.314885,41.262922,44.053065,40.160097,50.408554,54.680212,57.344384,48.386265,59.330414,62.95557,65.133199,-13.604245,-21.255776,-23.168404,-20.775811,6.391216,9.527984,0.149002,-7.803601,16.453971,16.761554,6.041095,1.004585,23.300903,22.213027,11.001812,5.920532,27.910068,32.880294,28.155452,25.166393,-26.582342,-52.220687,-75.40458,-91.087449,-77.788287,-102.336265,-99.820161,-94.364546,-76.403491,-100.06193,-93.325799,-85.662277,-71.601977,-92.33816,-82.491594,-72.11286,-64.34149,-85.447599,-85.517256,-83.038919,50.486018,293.941637,-38.298276,-68.962453
64,-0.241631,0.352323,9.870306,2.941663,-26.120132,-50.57991,-73.644367,-90.689106,-58.748268,-90.465065,-105.930485,-117.010712,-53.004639,-88.140633,-105.786587,-119.136726,-45.220688,-77.923222,-95.366764,-108.633076,-36.717522,-62.680172,-77.303799,-89.62318,-18.476649,-19.242922,-7.647677,3.962673,9.390978,21.683201,27.271675,31.226035,27.23639,37.310427,41.242322,44.115174,40.05501,50.37984,54.665047,57.4049,48.232173,59.223548,62.81189,65.005487,-12.987133,-20.95689,-23.586251,-21.950827,9.35535,9.761403,-0.450423,-8.066884,19.412618,16.736938,5.146739,0.34057,26.022714,22.468454,10.733951,6.049501,30.2616,33.74909,29.110828,26.660545,-26.646047,-52.059132,-75.488321,-92.140567,-79.402037,-102.503812,-99.839287,-94.071996,-79.035747,-100.50887,-93.311282,-85.12888,-74.801403,-93.63781,-83.701323,-73.155386,-67.623601,-87.684628,-88.719654,-87.171959,51.348169,294.774239,-27.324188,-65.540511
65,-0.178757,0.435859,6.219486,4.031098,-26.049728,-50.545692,-73.677051,-90.879833,-58.927665,-90.848076,-106.372821,-117.387245,-53.172386,-88.609703,-106.321678,-119.610042,-45.338195,-78.328823,-95.855793,-109.076225,-36.810585,-63.048854,-77.73159,-90.038726,-18.65386,-19.555565,-7.973768,3.548204,9.164527,21.261939,26.876769,30.927731,27.071579,37.012987,40.930693,43.869259,39.937808,50.173705,54.387096,57.104917,48.162395,59.069864,62.54619,64.702885,-9.381005,-16.868313,-20.375016,-19.970362,11.837978,11.430295,1.995863,-4.759918,20.427683,17.421363,6.769485,2.750368,25.945661,22.550375,12.119983,8.385317,29.369144,32.884744,29.309437,27.705932,-25.826129,-50.524264,-73.613549,-90.929711,-80.748262,-102.496467,-99.318267,-93.535106,-81.743912,-101.122658,-92.922042,-84.27462,-78.234139,-95.284203,-84.844034,-74.428314,-71.228848,-89.818054,-90.683838,-89.431308,51.972759,295.608984,-20.301355,-61.110527
66,-0.045112,0.372689,2.91118,4.284327,-25.975365,-50.532303,-73.710697,-90.889263,-59.209511,-91.196686,-106.75597,-117.805058,-53.458191,-89.010739,-106.762139,-120.051567,-45.609261,-78.775818,-96.343746,-109.492115,-37.098885,-63.466965,-78.139241,-90.396263,-18.78161,-19.720031,-8.260513,3.166191,9.076693,21.028633,26.659518,30.772342,27.013916,36.771111,40.697017,43.693245,39.926532,49.990108,54.143119,56.851715,48.206077,58.910301,62.275142,64.378349,-5.360776,-12.038626,-16.124385,-16.863084,13.13271,13.035746,5.020193,-0.744537,20.03785,17.986214,8.884005,5.573575,24.521781,22.439854,13.87936,10.989696,27.320423,31.454561,29.183405,28.27738,-25.025106,-48.905371,-71.201992,-88.721591,-81.214434,-101.639958,-97.741411,-91.894989,-83.126674,-100.564286,-91.40347,-82.445171,-80.084347,-95.61403,-84.871399,-74.843719,-73.132872,-90.26875,-90.756105,-89.66861,52.537554,296.182443,-16.780268,-56.62543
67,0.129547,0.415531,-0.397125,4.537555,-25.838036,-50.490761,-73.771454,-91.156082,-59.372406,-91.60659,-107.261376,-118.349167,-53.645714,-89.487888,-107.269535,-120.502773,-45.828484,-79.223751,-96.833302,-109.894055,-37.394371,-63.966431,-78.658837,-90.829949,-18.989067,-19.984545,-8.584197,2.774841,8.9062,20.645694,26.32856,30.577482,26.873223,36.49206,40.373555,43.386049,39.818666,49.816984,53.922831,56.626671,48.153169,58.709599,61.993783,64.101287,-0.926449,-6.467831,-10.83436,-12.628996,13.239544,14.577753,8.622566,3.979259,18.243118,18.431488,11.490297,8.81019,21.751072,22.13689,16.012079,13.862638,24.115436,29.458538,28.732731,28.374886,-24.242977,-47.202452,-68.253649,-85.516204,-80.800552,-99.934284,-95.108717,-89.151645,-83.184033,-98.833752,-88.755562,-79.640532,-80.352024,-94.627291,-83.783418,-74.4016,-73.335671,-89.036715,-88.936454,-87.883864,52.964499,296.509022,-16.879995,-52.176827
68,0.32595,0.38715,-1.18606,6.92984,-25.642776,-50.42736,-73.853897,-91.247303,-59.570343,-92.051502,-107.899131,-119.089118,-53.934104,-90.006763,-107.864833,-121.036857,-46.208908,-79.847225,-97.513332,-110.48727,-37.907386,-64.6986,-79.353767,-91.369674,-19.089041,-20.230744,-9.144063,2.254113,8.743068,20.209403,25.922206,30.286848,26.698001,36.205922,40.072214,43.076507,39.671132,49.605489,53.630517,56.294319,48.055048,58.477146,61.633593,63.682768,4.495712,0.192714,-4.96501,-8.044018,15.51745,19.006657,15.256979,11.62758,17.69335,20.920126,16.47131,15.003517,18.849482,21.953596,18.231481,17.220545,19.314085,25.805056,26.275076,26.633299,-23.220186,-45.942054,-66.752952,-84.112659,-81.597294,-101.335088,-97.342129,-92.893739,-84.628443,-100.778669,-91.182497,-82.975747,-81.83128,-96.251392,-85.752711,-77.417268,-74.542539,-89.318483,-88.128048,-86.630861,53.479013,296.572057,-17.877491,-45.571102
69,0.308671,0.316767,-0.843546,6.093635,-25.640809,-50.352105,-73.717736,-91.028481,-59.829415,-92.274571,-108.1222,-119.291188,-54.240418,-90.240784,-108.050309,-121.215855,-46.571618,-80.1782,-97.712769,-110.521821,-38.326722,-65.053277,-79.566308,-91.416848,-18.895934,-20.000711,-9.094526,2.127846,8.748786,20.041541,25.700497,29.98195,26.653788,36.011643,39.876268,42.881117,39.623412,49.418497,53.377798,56.018616,48.009711,58.242816,61.359977,63.391812,7.342955,3.804677,-1.685346,-5.487709,17.088966,21.936646,19.423727,16.41407,17.682266,22.580147,19.426994,18.536441,17.399928,21.751366,19.170335,18.640169,16.600456,23.318876,24.249547,24.866537,-23.099914,-45.970945,-66.673985,-83.975823,-81.781508,-102.061623,-99.05985,-95.776948,-84.671544,-101.384578,-92.854822,-85.656638,-81.494698,-96.212185,-86.673678,-79.345012,-73.725049,-88.021123,-86.665939,-85.229504,53.851222,296.353068,-18.657499,-40.013223
70,0.410797,0.538773,-0.501032,5.257428,-25.587159,-50.33265,-73.741883,-90.951496,-59.808998,-92.411236,-108.374955,-119.593129,-54.264794,-90.362297,-108.203671,-121.34832,-46.72506,-80.445237,-97.915192,-110.561154,-38.652214,-65.391495,-79.798474,-91.468197,-18.823378,-19.943827,-9.168862,2.011519,8.652072,19.93943,25.599238,29.863487,26.493891,35.876396,39.771822,42.797457,39.445249,49.200641,53.099315,55.751804,47.843527,57.952144,60.9997,63.036426,7.61528,4.368057,-0.995369,-4.960069,17.954092,23.36772,21.122809,18.338728,18.209868,23.411551,20.357352,19.408961,17.402411,21.530199,18.82864,18.12151,15.97455,21.999998,22.656145,23.074599,-23.882157,-47.289124,-68.016746,-85.105694,-81.353194,-102.113888,-100.26188,-97.801267,-83.313334,-100.651479,-93.772534,-87.683203,-79.342276,-94.509669,-86.546316,-80.184829,-70.8832,-85.144635,-84.550126,-83.67979,54.270728,296.252332,-19.149822,-35.395304
71,0.532219,0.732409,-0.501032,5.257428,-25.474411,-50.270234,-73.753487,-90.850399,-59.803551,-92.575047,-108.670201,-119.910977,-54.342225,-90.570179,-108.452431,-121.590741,-46.969162,-80.751263,-98.178452,-110.690529,-39.104599,-65.85711,-80.185627,-91.687134,-18.813152,-20.012666,-9.318927,1.936826,8.609218,19.797429,25.370688,29.536963,26.375466,35.670101,39.497243,42.463819,39.240942,48.872487,52.637793,55.210735,47.580903,57.593411,60.577846,62.582845,7.887605,4.931438,-0.305392,-4.43243,18.819218,24.798794,22.821891,20.263386,18.737469,24.242955,21.287709,20.281481,17.404894,21.309033,18.486945,17.602851,15.348645,20.681121,21.062743,21.282661,-24.664401,-48.607303,-69.359507,-86.235565,-80.924879,-102.166152,-101.46391,-99.825587,-81.955124,-99.918379,-94.690246,-89.709767,-77.189853,-92.807154,-86.418953,-81.024647,-68.041352,-82.268147,-82.434313,-82.130075,54.740851,296.387824,-19.71295,-30.734793
72,0.578476,0.478862,-0.501032,5.257429,-25.499566,-50.270897,-73.769967,-90.712224,-59.760087,-92.559334,-108.702908,-119.979676,-54.341584,-90.555336,-108.468304,-121.657826,-47.082139,-80.891499,-98.235638,-110.623456,-39.383606,-66.089058,-80.25824,-91.518265,-18.633891,-19.74362,-9.053722,2.275503,8.796914,20.055954,25.514554,29.49054,26.475156,35.822316,39.616039,42.477318,39.26668,48.886986,52.571189,55.059323,47.538703,57.501762,60.413046,62.308895,8.15993,5.494818,0.384586,-3.90479,19.684344,26.229868,24.520973,22.188044,19.26507,25.074358,22.218066,21.154,17.407376,21.087866,18.14525,17.084192,14.722739,19.362244,19.469341,19.490723,-25.446645,-49.925483,-70.702268,-87.365437,-80.496565,-102.218418,-102.66594,-101.849908,-80.596915,-99.185281,-95.607959,-91.736332,-75.037432,-91.104639,-86.291592,-81.864465,-65.199504,-79.39166,-80.3185,-80.580362,55.223374,296.348588,-20.309935,-25.995462
73,0.413749,0.358017,-0.501031,5.257428,-25.685188,-50.494652,-73.946262,-90.877636,-59.657821,-92.382831,-108.507007,-119.793045,-54.195167,-90.391411,-108.364116,-121.666923,-46.945335,-80.724129,-98.083214,-110.534157,-39.292488,-65.937549,-80.116115,-91.405185,-18.562026,-19.445119,-8.447247,2.952102,9.197106,20.729304,26.144247,29.995793,26.893477,36.361495,40.074053,42.781809,39.615174,49.25387,52.871048,55.221269,47.749889,57.733597,60.656861,62.502976,8.432254,6.058197,1.074562,-3.377152,20.549469,27.660942,26.220054,24.112701,19.792671,25.905761,23.148422,22.026519,17.409858,20.866699,17.803554,16.565532,14.096832,18.043365,17.875938,17.698783,-26.228889,-51.243662,-72.045029,-88.495308,-80.06825,-102.270682,-103.86797,-103.874227,-79.238705,-98.452181,-96.525671,-93.762896,-72.88501,-89.402123,-86.16423,-82.704282,-62.357655,-76.515172,-78.202687,-79.030647,55.468139,296.386574,-20.97995,-21.058065
74,0.49997,0.462016,-0.501032,5.257428,-25.846436,-50.719254,-74.15601,-90.857724,-59.720467,-92.338074,-108.499558,-119.900311,-54.178139,-90.279682,-108.346768,-121.839054,-46.875115,-80.580929,-97.997544,-110.615685,-39.184456,-65.700154,-79.828205,-91.138367,-18.563223,-19.498977,-8.507564,3.037837,9.382926,21.06929,26.486061,30.287305,27.106628,36.726935,40.477111,43.18257,39.807292,49.51526,53.157595,55.488772,47.895435,58.00851,60.925489,62.719449,8.704579,6.621577,1.764539,-2.849512,21.414594,29.092016,27.919136,26.037359,20.320272,26.737165,24.078779,22.899039,17.412341,20.645532,17.461859,16.046873,13.470926,16.724488,16.282536,15.906845,-27.011132,-52.561841,-73.38779,-89.625179,-79.639935,-102.322947,-105.07,-105.898547,-77.880495,-97.719081,-97.443383,-95.78946,-70.732587,-87.699607,-86.036867,-83.544099,-59.515807,-73.638684,-76.086874,-77.480933,55.821236,296.59056,-21.627855,-16.058667
75,0.382324,0.26449,-0.501032,5.257429,-25.912216,-50.814537,-74.259636,-90.960754,-59.612755,-92.073612,-108.231079,-119.755108,-54.072029,-90.078175,-108.274761,-122.037174,-46.774796,-80.403648,-97.947933,-110.80624,-39.056786,-65.492832,-79.695191,-91.177471,-18.458137,-19.239181,-8.101333,3.405868,9.783377,21.578545,26.889352,30.510409,27.508709,37.05825,40.705476,43.276887,40.157318,49.756185,53.377253,55.640134,48.156886,58.33365,61.33409,63.121221,8.976904,7.184957,2.454516,-2.321873,22.27972,30.52309,29.618219,27.962017,20.847874,27.568569,25.009136,23.771559,17.414824,20.424366,17.120164,15.528215,12.84502,15.40561,14.689134,14.114907,-27.793377,-53.88002,-74.730551,-90.755051,-79.211621,-102.375212,-106.27203,-107.922868,-76.522286,-96.985983,-98.361096,-97.816025,-68.580166,-85.997092,-85.909506,-84.383918,-56.673959,-70.762197,-73.971062,-75.931219,56.0665,296.569704,-22.265947,-11.086584
76,0.253555,0.262834,-0.501032,5.257428,-25.952865,-50.890777,-74.306705,-90.920551,-59.555694,-91.912056,-108.065723,-119.716369,-53.924995,-89.803299,-108.133518,-122.134735,-46.519615,-80.108253,-97.828697,-110.986301,-38.614837,-65.054008,-79.328796,-91.011886,-18.430843,-19.21453,-8.104025,3.404177,9.890749,21.803293,27.203823,30.892966,27.68581,37.2179,40.928284,43.569522,40.404097,49.946895,53.654982,56.020171,48.438863,58.695533,61.790216,63.67805,9.249229,7.748337,3.144493,-1.794233,23.144846,31.954164,31.317301,29.886675,21.375475,28.399973,25.939493,24.644079,17.417307,20.203199,16.778469,15.009556,12.219114,14.086733,13.095732,12.322969,-28.575621,-55.198199,-76.073312,-91.884922,-78.783306,-102.427477,-107.47406,-109.947187,-75.164076,-96.252883,-99.278808,-99.842589,-66.427743,-84.294576,-85.782144,-85.223735,-53.83211,-67.885709,-71.855249,-74.381505,56.234133,296.527862,-22.852901,-6.133832
77,0.107414,0.428709,-0.501032,5.257428,-25.933754,-50.918495,-74.31451,-90.819694,-59.348167,-91.671237,-107.883876,-119.614036,-53.677825,-89.576969,-108.035511,-122.222076,-46.235115,-79.890632,-97.841102,-111.322826,-38.213447,-64.751678,-79.255897,-91.304031,-18.49168,-19.391976,-8.393438,3.157286,9.958723,21.848555,27.278442,30.962434,27.879026,37.176823,40.834127,43.423877,40.629054,49.932519,53.638754,55.995915,48.668179,58.936211,62.138612,64.128111,9.521554,8.311717,3.83447,-1.266594,24.009972,33.385239,33.016383,31.811333,21.903076,29.231377,26.86985,25.516599,17.41979,19.982033,16.436774,14.490897,11.593208,12.767855,11.50233,10.531031,-29.357864,-56.516378,-77.416072,-93.014793,-78.354991,-102.479741,-108.67609,-111.971507,-73.805866,-95.519784,-100.19652,-101.869153,-64.275321,-82.592061,-85.654782,-86.063552,-50.990262,-65.009221,-69.739436,-72.831791,56.328758,296.669629,-23.366722,-1.163346
78,0.117348,0.661902,-0.501032,5.257429,-25.718765,-50.687919,-74.110462,-90.448219,-59.209854,-91.62997,-107.880226,-119.677803,-53.568947,-89.547581,-108.046589,-122.328083,-46.166176,-79.912033,-97.978844,-111.613895,-38.079712,-64.671959,-79.229347,-91.378177,-18.571473,-19.719376,-9.050202,2.556937,9.702954,21.457725,26.90521,30.615978,27.583563,36.709694,40.369987,43.055487,40.35986,49.467675,53.20602,55.693808,48.526265,58.734497,62.001502,64.133212,9.793879,8.875097,4.524447,-0.738954,24.875098,34.816313,34.715465,33.735991,22.430678,30.062781,27.800207,26.389119,17.422273,19.760866,16.095079,13.972238,10.967303,11.448978,9.908928,8.739093,-30.140109,-57.834558,-78.758834,-94.144665,-77.926677,-102.532007,-109.878121,-113.995828,-72.447656,-94.786685,-101.114233,-103.895718,-62.122899,-80.889546,-85.52742,-86.90337,-48.148414,-62.132734,-67.623624,-71.282077,56.469841,297.071991,-23.844019,3.834543
79,-0.19281,0.426943,-0.501032,5.257428,-25.509041,-50.395866,-73.877346,-90.330128,-58.856644,-91.336498,-107.610157,-119.409656,-53.315414,-89.433082,-107.920326,-122.109569,-46.000305,-79.881225,-97.947086,-111.484749,-37.996628,-64.840851,-79.501327,-91.667576,-18.635694,-19.727466,-9.061972,2.662863,9.65375,21.388774,26.850326,30.540889,27.57372,36.63621,40.244472,42.802471,40.383991,49.408394,53.12094,55.538221,48.604626,58.783539,62.083814,64.234643,10.066204,9.438477,5.214424,-0.211315,25.740223,36.247387,36.414547,35.660649,22.958279,30.894184,28.730564,27.261639,17.424755,19.5397,15.753384,13.453579,10.341397,10.130101,8.315525,6.947155,-30.922352,-59.152737,-80.101595,-95.274535,-77.498362,-102.584271,-111.08015,-116.020147,-71.089446,-94.053586,-102.031945,-105.922283,-59.970477,-79.18703,-85.400058,-87.743188,-45.306565,-59.256246,-65.507811,-69.732363,56.325668,297.294392,-24.296414,8.887429
80,-0.231766,0.428547,-0.501032,5.257429,-25.398422,-50.190994,-73.652,-90.118892,-58.741127,-91.338306,-107.633342,-119.408992,-53.212417,-89.438289,-107.850528,-121.882599,-45.87696,-79.836559,-97.839203,-111.263008,-37.880813,-64.819793,-79.43843,-91.492332,-18.660628,-19.861254,-9.411602,2.377515,9.531399,21.223679,26.755614,30.524625,27.465756,36.604904,40.25334,42.814006,40.317314,49.45919,53.243009,55.712494,48.598945,58.844475,62.131042,64.290108,10.338529,10.001857,5.904402,0.316325,26.605349,37.678462,38.11363,37.585307,23.48588,31.725588,29.660922,28.134159,17.427238,19.318533,15.411689,12.93492,9.715491,8.811223,6.722123,5.155217,-31.704597,-60.470916,-81.444356,-96.404407,-77.070048,-102.636537,-112.282181,-118.044468,-69.731237,-93.320487,-102.949658,-107.948848,-57.818055,-77.484515,-85.272697,-88.583006,-42.464718,-56.379759,-63.391999,-68.182649,56.15348,297.597913,-24.737868,14.019832
81,-0.179168,0.329266,-0.501031,5.257428,-25.419663,-50.112236,-73.601601,-90.28703,-58.485672,-91.246353,-107.591034,-119.34985,-52.976761,-89.510445,-107.873062,-121.769326,-45.678315,-79.867344,-97.813477,-111.057633,-37.816498,-64.941239,-79.601097,-91.543305,-18.642511,-19.742941,-9.287324,2.503053,9.79958,21.409362,26.83085,30.467394,27.731838,36.954954,40.521744,42.946275,40.515334,49.828754,53.587662,55.987184,48.699376,59.051536,62.277884,64.313943,10.610853,10.565236,6.594378,0.843963,27.470474,39.109535,39.812711,39.509964,24.013481,32.556991,30.591278,29.006678,17.42972,19.097366,15.069993,12.416261,9.089584,7.492345,5.12872,3.363278,-32.48684,-61.789095,-82.787117,-97.534278,-76.641733,-102.688801,-113.484211,-120.068788,-68.373027,-92.587388,-103.86737,-109.975412,-55.665633,-75.781999,-85.145334,-89.422823,-39.622869,-53.503271,-61.276186,-66.632935,56.033181,297.860368,-25.18003,19.210449
82,-0.108673,0.504575,-0.501032,5.257428,-25.505539,-50.161698,-73.685086,-90.449639,-58.621331,-91.480191,-107.760006,-119.45747,-53.113106,-89.83936,-108.106991,-121.871693,-45.799141,-80.083752,-97.888733,-110.949017,-37.956093,-65.115326,-79.703305,-91.484539,-18.700569,-19.846138,-9.478219,2.392483,9.814277,21.289838,26.724442,30.415857,27.725453,37.025893,40.657484,43.17595,40.523337,50.001124,53.845285,56.362479,48.716308,59.175333,62.369793,64.384697,10.883178,11.128616,7.284355,1.371603,28.3356,40.540609,41.511793,41.434622,24.541082,33.388395,31.521635,29.879198,17.432203,18.876199,14.728298,11.897602,8.463678,6.173467,3.535318,1.57134,-33.269084,-63.107274,-84.129878,-98.664149,-76.213418,-102.741066,-114.686241,-122.093107,-67.014817,-91.854288,-104.785082,-112.001976,-53.51321,-74.079484,-85.017972,-90.26264,-36.78102,-50.626783,-59.160373,-65.08322,55.983342,298.32755,-25.622228,24.430484
83,-0.008103,0.216793,-0.501032,5.257429,-25.703613,-50.338783,-73.909962,-90.716835,-58.742706,-91.613159,-107.85276,-119.480415,-53.162613,-89.927009,-108.123173,-121.787842,-45.758056,-80.02858,-97.739719,-110.664081,-37.90638,-65.105965,-79.705776,-91.44223,-18.676251,-19.739038,-9.292016,2.598544,10.048101,21.47115,26.872322,30.560353,28.030155,37.330533,41.036422,43.599768,40.843291,50.503439,54.443115,57.006326,48.983391,59.589938,62.831884,64.813764,11.155503,11.691996,7.974332,1.899242,29.200725,41.971683,43.210875,43.359279,25.068683,34.219799,32.451992,30.751718,17.434686,18.655033,14.386603,11.378943,7.837772,4.85459,1.941916,-0.220598,-34.051328,-64.425454,-85.472639,-99.794021,-75.785104,-102.793331,-115.888271,-124.117428,-65.656608,-91.12119,-105.702795,-114.028541,-51.360789,-72.376969,-84.890611,-91.102459,-33.939173,-47.750295,-57.044561,-63.533507,56.057705,298.471774,-26.040794,29.615344
84,0.132363,0.213657,-1.185043,5.084558,-25.916749,-50.549904,-74.143502,-91.008797,-58.886033,-91.838334,-108.123368,-119.820866,-53.131554,-89.99302,-108.224614,-121.920582,-45.586327,-79.862618,-97.676995,-110.736786,-37.645455,-64.834763,-79.492997,-91.305268,-18.657196,-19.792403,-9.526397,2.329781,10.222953,21.599454,26.958785,30.687299,28.226422,37.552537,41.295884,43.965058,41.060924,50.989587,55.01254,57.694212,49.156835,60.006704,63.27766,65.285228,10.694762,11.754138,8.803112,2.976184,29.810726,43.162227,44.080699,43.692317,25.735301,34.860454,32.699878,30.198986,18.041744,19.537204,15.060749,11.565334,8.228336,4.973297,1.82022,-0.59446,-35.25457,-65.698439,-86.653954,-100.794841,-74.650478,-101.602913,-115.790672,-124.715242,-63.78673,-89.682752,-105.536372,-114.57988,-49.082825,-70.821029,-84.772937,-91.954821,-31.230335,-45.690506,-55.995745,-63.247285,56.332169,298.629667,-27.083736,34.644138
85,0.06546,0.175408,0.988454,-3.153798,-26.206238,-50.81044,-74.346314,-91.239292,-59.133156,-91.882164,-108.134777,-119.967053,-53.258354,-89.77517,-107.920899,-121.625714,-45.629883,-79.463723,-97.248837,-110.411305,-37.576996,-64.349282,-78.928265,-90.813813,-18.692467,-19.909753,-9.574068,2.174578,10.170676,21.625883,27.042271,30.79766,28.277267,37.822238,41.649109,44.390432,41.210805,51.521765,55.691696,58.46587,49.358821,60.595519,64.105832,66.257686,9.355126,10.17907,7.633648,1.998648,25.625868,36.141169,36.800871,36.425268,21.643851,27.750224,25.878176,23.586672,14.791338,15.126314,11.458531,8.346344,6.455824,3.034655,-0.024339,-2.630205,-33.880346,-61.590452,-80.441763,-93.540584,-64.769126,-85.387072,-98.506773,-107.320983,-52.831775,-73.214641,-88.469391,-97.055248,-38.511057,-56.106675,-69.856649,-77.10617,-22.034981,-33.71809,-43.855814,-51.238519,56.721777,298.744183,-25.771134,31.429448
86,0.146209,0.165219,-0.439197,1.097154,-26.45343,-51.001648,-74.440429,-91.391704,-59.385498,-91.872402,-108.130851,-120.177967,-53.381927,-89.328014,-107.404747,-121.178215,-45.602211,-78.792514,-96.543674,-109.863018,-37.325546,-63.536384,-77.946544,-89.870098,-18.6856,-20.064092,-9.752884,1.848536,9.842917,21.446486,26.994489,30.871934,28.056337,37.909035,41.97199,44.933466,41.139533,51.88119,56.365011,59.373194,49.40091,61.017892,64.907513,67.366007,9.048348,10.264841,8.69172,3.840929,22.525476,30.834272,31.473896,31.036585,18.494577,22.796392,21.518774,19.383029,12.451488,13.05924,10.52537,7.725367,5.554323,3.308129,0.953949,-1.611763,-32.510473,-57.85324,-74.685887,-86.519883,-57.851564,-74.071943,-85.835529,-94.01736,-45.407091,-61.907651,-75.612666,-83.026097,-31.614698,-46.129202,-58.628588,-65.133592,-16.347786,-26.053022,-35.529238,-42.460672,57.232618,298.854685,-25.845699,32.471885
87,0.13369,-0.060688,-1.86685,5.348106,-26.515136,-51.010643,-74.346588,-91.373966,-59.333564,-91.551052,-107.892254,-120.219452,-53.211662,-88.608158,-106.705501,-120.593101,-45.299125,-77.908035,-95.748573,-109.311493,-36.821319,-62.580963,-76.922916,-88.957168,-18.615872,-20.068254,-9.756738,1.585392,9.65322,21.450549,27.096921,31.063903,27.913916,38.091087,42.417173,45.598838,41.116993,52.291447,57.076116,60.277751,49.484236,61.439585,65.651136,68.325411,9.774433,12.011455,11.977329,8.503029,20.509552,27.241539,28.099777,27.526268,16.287483,19.998962,19.621673,17.588058,11.022194,13.335983,12.261268,9.702404,5.523834,5.79372,4.755089,2.460869,-31.144951,-54.486804,-69.386326,-79.732738,-53.897791,-67.657524,-77.776941,-84.804373,-41.512678,-55.761783,-66.966198,-72.492427,-28.393747,-40.88861,-51.088753,-56.037085,-14.16875,-22.695302,-31.016016,-36.913742,57.746984,298.715809,-27.331873,37.741803
88,-0.008079,0.114115,-3.294502,9.599058,-26.468971,-50.836899,-74.056401,-91.170731,-59.123543,-91.117298,-107.57412,-120.15794,-52.943161,-87.951966,-106.171944,-120.146816,-44.929939,-77.099087,-95.073704,-108.85207,-36.267517,-61.687226,-76.01881,-88.143368,-18.648686,-20.342216,-10.214729,0.970519,9.176803,21.14607,26.949547,31.043179,27.555948,38.075242,42.613255,45.921941,40.94755,52.499978,57.507207,60.834851,49.466168,61.738346,66.176829,68.986288,11.533378,15.418911,17.490474,15.984947,19.578094,25.362968,26.678512,25.894317,15.022567,19.357933,20.186874,18.201759,10.503456,15.956543,16.666225,14.277454,6.364357,10.491428,11.379078,9.587688,-29.78378,-51.491143,-64.54308,-73.179147,-52.907809,-66.143818,-74.331009,-79.682022,-41.148536,-54.777037,-62.529986,-65.454239,-28.848205,-40.384899,-47.237145,-49.816651,-15.497871,-23.644931,-30.316149,-34.597731,58.082777,298.625573,-30.282503,47.13651
89,-0.015564,0.261192,-2.91358,13.057156,-26.380806,-50.60408,-73.665344,-90.713093,-58.855385,-90.583592,-107.080902,-119.854008,-52.753487,-87.364346,-105.615921,-119.654091,-44.743515,-76.533096,-94.538956,-108.435574,-35.959603,-61.108704,-75.424324,-87.664261,-18.737113,-20.771888,-10.799431,0.305714,8.595027,20.550883,26.445873,30.588968,27.10412,37.651264,42.309641,45.64772,40.682233,52.19708,57.356092,60.730221,49.414692,61.646745,66.281645,69.20192,11.912584,17.38314,21.558591,22.512153,19.38343,24.602926,26.745832,26.27437,15.528047,21.503122,23.485491,21.927721,12.12129,20.432562,22.321397,20.098056,9.268575,16.587129,18.424301,16.579033,-27.829664,-47.866045,-58.770591,-65.306767,-51.426926,-63.868942,-69.382689,-72.427537,-39.996178,-51.976705,-55.776999,-55.80127,-27.982743,-37.15384,-40.207824,-40.064758,-15.156605,-21.300716,-25.474407,-27.638886,58.353636,298.566815,-32.90966,59.873716
90,0.026344,0.412814,-5.390168,24.580739,-26.064789,-50.209442,-73.305015,-90.284271,-58.319,-90.136928,-106.77523,-119.64434,-52.279655,-87.013378,-105.445061,-119.557823,-44.286552,-76.217136,-94.419433,-108.464538,-35.479683,-60.891701,-75.400143,-87.770519,-18.971765,-21.382081,-11.713621,-0.439083,8.05523,19.866194,25.717749,29.886977,26.684551,37.056002,41.711057,45.044183,40.382842,51.694974,56.847824,60.211999,49.233146,61.281294,65.883836,68.768099,11.057883,19.04012,26.318728,30.688431,24.465294,32.932486,35.622134,34.674895,22.70101,33.99467,35.904643,33.400275,20.337737,33.160441,34.518992,31.274643,17.416037,27.575758,29.085331,26.514863,-28.281065,-48.947288,-59.300915,-64.241621,-57.495559,-74.615638,-78.818652,-79.606485,-46.629011,-61.685123,-62.523657,-60.134265,-33.965623,-44.500422,-44.809094,-42.494963,-19.764476,-26.391981,-28.648903,-29.023243,58.433693,298.493245,-38.246115,83.968071
91,-0.078071,0.373095,-5.066725,25.238575,-25.729958,-49.865548,-73.019978,-90.069924,-57.919236,-89.739167,-106.385113,-119.243947,-51.999825,-86.848961,-105.380597,-119.524521,-44.094384,-76.186398,-94.515484,-108.67899,-35.31736,-60.966958,-75.666195,-88.199158,-19.321358,-22.025569,-12.501815,-1.207825,7.593362,19.362015,25.1113,29.179725,26.323337,36.510808,41.000817,44.186397,40.13846,51.182496,56.192394,59.456928,49.132691,60.897195,65.363355,68.162958,10.558709,21.196515,31.153601,37.781106,32.309655,43.200158,45.120042,43.211701,32.204701,46.655698,47.383126,43.77937,30.094906,45.180615,45.139065,40.787383,26.340791,37.76077,37.975741,34.329928,-28.527632,-49.198295,-59.494486,-64.350041,-58.612202,-75.106177,-77.698073,-77.233687,-47.223157,-60.97034,-59.859363,-56.482575,-33.557497,-42.588807,-41.359116,-38.370413,-18.2192,-23.750498,-24.883182,-24.578014,58.21847,298.197747,-43.449992,108.538053
92,0.049255,0.288659,-4.743282,25.89641,-25.480042,-49.601624,-72.799622,-89.906639,-57.709465,-89.564804,-106.260338,-119.166401,-51.893921,-86.818771,-105.461197,-119.702293,-44.073555,-76.293755,-94.758373,-109.047295,-35.371742,-61.26503,-76.153278,-88.835358,-19.614475,-22.654485,-13.311635,-2.027451,7.15397,18.806582,24.441937,28.363878,26.01866,35.991882,40.346114,43.364202,39.9456,50.680601,55.556401,58.698571,49.070175,60.522666,64.857285,67.580577,10.415062,23.852326,36.063212,43.790177,42.916512,55.405941,55.239556,51.884789,44.03912,59.486206,57.920941,53.065007,41.3928,56.493084,54.181618,48.636275,36.042836,47.142163,45.09553,40.024229,-28.569365,-48.619063,-59.351303,-65.632024,-54.776854,-65.340559,-66.02095,-65.309141,-41.778615,-49.832354,-47.784117,-44.8462,-26.758364,-31.418992,-29.85789,-27.691105,-10.520776,-13.376266,-14.177243,-14.303198,58.016813,297.596221,-48.444186,133.544278
93,0.0867,0.134566,-3.493435,24.571625,-25.286979,-49.373977,-72.58937,-89.905712,-57.528968,-89.37902,-106.054515,-119.037449,-51.850959,-86.793262,-105.420742,-119.782127,-44.198822,-76.488189,-94.927345,-109.258987,-35.638321,-61.637832,-76.597721,-89.38639,-19.762774,-22.988999,-13.749247,-2.662863,6.938536,18.442218,23.875575,27.57503,25.845351,35.577611,39.776664,42.650479,39.812245,50.226242,54.989879,58.056219,49.024258,60.212988,64.462207,67.168492,9.592227,25.125,38.811362,47.361363,53.078522,65.470253,62.906124,58.227769,54.946175,69.33173,64.827267,58.573735,51.305203,64.41219,59.317635,52.5189,43.949009,53.29243,48.399662,41.631873,-27.673669,-45.596831,-55.533411,-62.276093,-44.25375,-45.519504,-44.58519,-44.48474,-29.225528,-28.809796,-26.646396,-25.054519,-13.164808,-11.579913,-10.588859,-10.187561,3.05044,4.368215,3.4885,2.169626,57.811798,296.847868,-52.229336,157.232984
94,0.206795,0.180163,-3.36815,24.212565,-25.559418,-49.416,-72.527241,-90.172462,-56.99865,-89.248592,-106.001667,-119.1175,-51.587105,-86.750267,-105.438801,-120.047928,-44.267097,-76.654941,-95.214031,-109.702606,-36.030464,-62.016197,-77.02026,-89.893375,-18.757058,-21.508644,-12.862067,-2.800961,6.999916,18.014683,23.281771,26.926638,25.506749,35.205985,39.364258,42.177928,39.311758,49.752517,54.512424,57.458191,48.479903,59.647391,63.967944,66.637982,11.235866,28.619842,42.931812,51.71989,63.398483,74.229257,69.413274,63.698622,63.958631,75.753198,68.51346,61.027216,58.001524,68.32295,60.950117,53.08267,47.850157,55.588108,48.818046,40.924444,-26.016844,-41.177005,-49.587816,-55.963645,-31.203891,-22.547576,-20.805464,-22.409762,-14.394052,-5.584713,-4.057366,-4.693022,2.102302,9.610779,9.591726,7.745231,17.44891,22.698451,21.225815,18.230198,57.698988,296.186261,-55.917091,180.603779
95,-0.180908,0.800693,-4.308621,23.563698,-25.707893,-49.102249,-71.25333,-88.519661,-56.250275,-87.538136,-104.355698,-118.090256,-51.473534,-85.393387,-104.26704,-119.687622,-44.696343,-76.068398,-94.512966,-109.465622,-36.724709,-61.658135,-76.332813,-89.391884,-17.848302,-21.164595,-14.45219,-6.427538,6.799943,16.924911,21.791671,25.181114,24.491041,33.861135,38.049233,40.826433,37.840369,48.121343,52.859131,55.573074,46.934266,57.999272,62.522021,65.272903,14.932949,34.469032,50.126381,59.473126,64.196228,78.641974,77.157137,75.035151,61.741179,76.906775,74.135176,71.150442,54.087668,67.612398,64.893763,61.496103,43.470869,54.312905,51.209324,47.107195,-24.441097,-37.328195,-44.750375,-50.467587,-21.260099,-5.858626,-2.178101,-2.963557,-3.297429,11.267752,13.964121,13.774408,13.215518,25.261099,26.283745,24.774451,27.581294,35.863318,35.200613,32.367498,57.334465,296.25503,-60.409327,203.435553
96,-0.818871,0.605401,-5.117998,20.320875,-24.679641,-48.049781,-69.840568,-86.903125,-53.901443,-83.706035,-101.139095,-115.929519,-50.056823,-82.561718,-101.846878,-118.251583,-44.09246,-74.433815,-92.729919,-107.829448,-36.789024,-61.049011,-75.228458,-87.983024,-7.997555,-7.582518,-1.674695,5.019444,13.650052,22.581842,26.761431,29.857547,24.064828,31.924222,34.734508,36.172305,30.721238,38.454106,41.488571,42.799989,33.968988,42.231823,45.602877,47.326158,18.757364,39.363419,55.68845,66.47311,62.808049,79.492092,82.037785,83.927056,58.244099,75.916981,78.19471,80.063667,50.159809,66.004349,68.354828,69.706055,40.19371,53.082178,54.011507,53.932331,-22.321792,-32.091374,-37.481104,-41.570445,-10.871852,7.283307,12.274253,12.707759,6.555943,24.323129,28.254506,29.053649,21.449315,36.153526,38.727926,38.286392,33.268559,43.315753,43.783234,41.729916,56.449968,296.291975,-65.592951,223.187972
97,-1.426002,0.993873,-4.184234,20.009591,-23.818337,-46.76857,-67.793266,-84.193279,-50.18486,-78.391812,-95.727619,-110.453808,-47.60138,-78.894184,-98.353386,-114.755871,-43.092842,-72.549065,-90.945912,-105.969441,-37.236763,-60.493195,-74.773522,-87.806431,-7.447779,-7.347595,-3.893771,0.628471,14.557487,20.693193,22.690251,23.929977,23.751901,29.705295,30.224517,29.605828,29.325864,36.306056,37.67389,37.285924,31.674022,40.178264,43.511687,44.910766,22.113779,44.265644,61.788414,73.7467,60.241447,80.642086,86.664608,89.996246,53.847839,76.275432,82.599563,85.315818,45.503791,65.995536,71.986335,74.203216,35.744339,52.380346,56.688394,58.133331,-21.210321,-28.32618,-30.510792,-30.686293,-1.322323,17.150875,20.809049,20.607984,16.555076,34.794122,36.498322,35.434122,30.607037,46.536031,47.879028,46.301287,40.666753,52.780671,52.835586,50.050006,54.941998,296.935739,-69.859153,242.847454
98,-3.235691,1.563984,-5.526135,15.377866,-21.5812,-43.452038,-63.504433,-78.937243,-48.872463,-71.668087,-85.194512,-96.825463,-48.411787,-73.841624,-88.74313,-101.089005,-45.450216,-69.717951,-83.826863,-95.258852,-40.903725,-60.415575,-71.466952,-81.71164,-7.256137,-7.917379,-6.175924,-2.907642,14.189287,19.687563,21.285367,21.946967,22.952924,28.573175,28.767331,27.469164,28.276526,34.954203,35.828898,34.701749,30.643111,39.151502,42.034376,42.893868,24.54839,48.216751,67.207935,81.215057,55.270134,80.506897,91.408653,98.774048,47.186119,75.395439,87.73114,95.058083,38.918713,64.577133,76.262421,82.851334,30.403645,50.771404,59.66724,65.053173,-19.174528,-23.688829,-23.480434,-21.73722,5.179266,23.780491,28.854201,30.854075,22.907587,41.797248,45.200326,45.883631,36.124176,53.704531,56.967435,56.888938,44.79649,59.061132,61.009135,59.614206,51.563736,298.275124,-75.527859,258.000721
99,-5.144371,1.855254,-5.175053,12.923385,-17.50914,-37.861691,-56.891728,-71.16548,-50.315724,-63.48365,-69.380184,-74.818405,-52.706034,-67.393153,-72.897423,-76.987793,-51.241076,-65.898302,-71.12891,-75.260107,-47.694123,-60.689764,-65.165377,-69.486512,-8.461023,-10.784919,-9.472482,-5.886482,12.538044,19.920856,22.836797,24.063462,22.064929,28.795897,30.501826,29.857436,28.122274,34.763531,36.240675,35.429787,31.473567,39.668168,41.58986,41.752029,26.218667,51.058869,72.078965,88.112812,49.822564,80.408352,96.447453,107.830388,40.92722,75.273594,94.276806,106.537938,33.404103,64.641747,82.303952,93.614857,26.780777,51.035202,64.575417,74.3237,-17.731322,-20.898463,-19.448119,-17.697272,8.613862,25.466957,32.131988,36.828341,25.883698,43.997391,49.291341,52.261437,38.310067,56.302062,61.523628,63.477732,46.117987,61.265079,64.996051,65.621175,46.214361,299.947152,-80.907916,270.74088
100,-11.085595,2.405339,-3.221351,10.257398,-10.834739,-26.993053,-43.482776,-55.860483,-45.31969,-48.642551,-47.050838,-46.25695,-50.389612,-54.196466,-50.64109,-46.645797,-50.629835,-55.414346,-52.114219,-48.885755,-48.480457,-54.739843,-53.171132,-51.629001,-9.690251,-12.612966,-10.59114,-6.016491,9.834414,19.803382,24.379371,26.513336,20.403003,28.975702,32.190873,32.328218,27.216791,34.700545,36.809865,36.485212,31.293442,39.453178,40.726354,40.193004,27.768276,53.007328,74.591537,91.442745,53.112579,83.683445,99.591923,110.597706,43.887062,77.875751,96.902538,108.725773,35.840469,66.777683,84.269634,95.070179,28.536861,52.651783,66.47541,76.432731,-16.55137,-18.489481,-15.707588,-14.393527,13.908355,31.297394,37.724846,41.844957,31.02589,49.494005,54.053545,55.852198,42.751466,61.167699,65.766264,66.69767,49.613344,65.419634,68.860145,69.136367,34.810054,302.236268,-84.447979,280.882055
101,-19.658466,7.442962,-0.388436,8.291401,-3.711307,-11.707466,-21.839344,-29.01824,-30.804622,-24.219188,-15.586944,-8.822662,-37.993829,-30.887071,-19.536644,-8.457905,-40.747072,-34.786131,-24.757473,-15.787348,-41.212314,-39.121862,-32.563711,-26.586914,-20.056218,-29.428011,-29.934951,-26.85003,-3.40727,7.637242,13.788966,16.923016,14.044082,25.093058,30.239646,31.949034,27.754402,38.134671,41.732967,42.427097,38.276203,48.645271,50.416711,49.96182,27.466164,53.284539,76.01603,93.591465,54.294526,86.503293,102.683934,113.425702,44.677094,80.37196,99.586796,110.650967,35.873532,68.586056,86.093274,96.162518,27.801259,53.46658,67.707001,77.60495,-15.872202,-17.772534,-14.514101,-13.442496,16.521113,34.775708,40.839994,44.16119,34.51622,53.09172,56.801129,57.132408,46.762019,65.679764,69.13444,68.445528,54.070649,70.89755,73.798449,73.103176,14.860616,309.567338,-85.127387,289.061564
102,-8.831566,1.639548,0.461541,3.158793,1.797673,-2.157371,-9.628772,-14.951334,-28.105556,-12.526256,3.585389,15.463623,-37.294653,-19.947069,0.354493,18.300511,-41.592092,-25.743684,-6.827053,8.625246,-43.348709,-34.317163,-20.733209,-8.877617,-20.396143,-31.072165,-31.265722,-27.461989,-7.148777,8.551765,17.335465,22.150484,11.956658,26.873965,35.067787,38.580262,27.567422,39.535837,44.661504,46.718787,40.328601,51.105888,51.630674,50.146565,26.187915,51.290107,74.364624,93.448894,52.525005,85.100155,103.151012,116.579075,42.79438,79.230182,100.374492,114.664249,33.975814,67.420269,86.812328,99.912197,26.614368,52.629043,68.32917,80.616611,-14.4421,-16.142756,-13.035215,-13.065461,17.450259,35.789946,43.751192,48.722668,34.887476,53.569606,59.961354,62.33651,46.681953,65.690014,70.905269,71.390479,53.642768,70.31554,74.45714,74.676268,5.839456,311.123986,-84.85544,292.137457
103,-10.203415,3.433984,1.905246,3.351405,6.37072,6.957184,3.063309,0.320275,-20.855827,0.450806,19.742386,33.423043,-31.233203,-7.183971,16.6875,36.832009,-36.343391,-14.174171,8.093766,25.590569,-38.573787,-24.985405,-8.739578,5.153206,-21.234102,-32.596079,-32.42629,-28.70899,-10.378627,6.954664,16.600882,22.114601,9.297932,25.526669,34.056463,37.753498,25.492373,38.080935,42.727283,44.566433,38.833265,49.187241,48.737624,46.471347,25.431828,50.105759,73.447598,92.965027,52.360657,85.186867,103.746346,117.208168,42.89803,79.895691,101.301499,115.228157,34.279564,68.639489,88.111084,100.887154,27.215561,53.962178,69.943829,82.20868,-14.729227,-16.731225,-13.771972,-13.811357,18.215927,35.610462,42.895245,47.087394,35.626246,53.22079,58.40822,59.517332,47.129557,65.034484,68.815647,68.090944,53.757513,69.369042,72.34188,71.61031,-4.4278,314.509298,-83.014035,295.44019
104,0.129799,0.271948,1.465073,1.394127,7.120949,8.624726,5.216744,2.829026,-18.327106,2.390465,21.458199,34.50515,-29.252712,-5.895584,17.453041,36.670418,-35.37054,-14.122581,7.95472,25.088013,-38.520446,-25.702583,-9.626083,4.086434,-19.904022,-31.244535,-31.590572,-28.20413,-10.886597,6.60091,15.656385,20.19325,8.86526,25.117178,32.955146,35.753415,25.174643,37.810976,41.681714,42.518012,38.592427,49.348225,48.608554,45.677756,25.342678,50.132893,73.465485,93.166031,52.246925,85.648705,104.231758,117.503563,42.683327,80.429741,101.511612,114.786919,34.09623,69.360031,88.692169,100.825241,27.197903,54.656273,70.805294,82.566216,-15.112771,-17.110212,-14.10435,-13.370817,18.167057,35.309639,41.972298,45.384144,35.85855,52.777237,56.65152,56.288798,47.366197,64.743738,67.232514,65.129901,53.766466,68.952029,70.931413,68.949991,-4.256848,314.758584,-81.507809,296.811655
105,-0.734665,1.328758,0.87989,0.405082,7.247979,9.39608,7.073845,5.497971,-16.32003,4.442322,23.245034,35.378746,-27.364826,-3.875633,18.571816,36.503106,-33.868972,-12.714523,8.16092,23.63649,-37.456409,-24.671573,-9.682502,2.562401,-19.71309,-30.941081,-31.633513,-28.849607,-10.349171,6.261751,13.750656,17.064319,9.129008,24.459696,30.338472,31.849973,25.034704,36.913445,38.938155,38.61031,37.890115,48.123936,46.153086,42.422583,25.375523,50.4669,73.915879,93.909234,52.075173,85.701691,104.289666,117.41478,42.459275,80.866196,101.777802,114.639199,33.95604,69.954701,89.175751,100.84845,27.309838,55.2155,71.267453,82.33754,-15.214968,-17.027873,-13.877318,-12.63879,18.16339,35.134577,41.270666,43.972753,36.089226,52.740681,55.62382,54.059967,47.566553,64.672652,66.141521,62.925498,53.71146,68.618787,69.859575,66.987107,-4.903656,316.110813,-80.540062,297.240208
106,4.064484,-0.124612,-0.020542,-0.428782,6.226959,6.487473,3.764946,1.618034,-20.265289,0.302628,18.973023,30.664352,-31.308472,-8.141945,13.785233,31.244179,-37.356731,-17.484432,2.557503,17.352905,-40.169506,-29.343533,-15.683418,-4.543751,-19.600816,-30.643358,-31.098039,-28.084051,-9.186313,7.604341,14.328454,17.067246,10.55317,25.297316,30.246685,31.163728,26.231402,37.130745,37.804491,36.836171,38.785989,47.927014,44.640608,40.255489,25.780529,51.309803,74.789097,94.851849,52.284897,85.891583,104.349392,117.310604,42.36097,81.06181,101.817387,114.519986,33.797551,70.06057,89.13461,100.584446,27.297524,55.200154,71.095482,81.809956,-15.351498,-16.75453,-13.005403,-10.992685,18.450838,35.596173,41.611688,44.097673,36.582414,53.087582,55.458391,53.450662,48.068966,64.989851,65.964495,62.411215,54.021335,68.807718,69.684525,66.491781,-0.733652,316.05835,-80.455084,296.883575
107,-4.969334,0.361857,-0.648994,-0.926652,7.961895,9.919819,8.544171,6.82742,-14.894382,6.646283,24.311909,35.01479,-26.123794,-2.387889,18.405041,35.198147,-32.65718,-12.184421,7.017826,21.370915,-36.077179,-24.765632,-11.799556,-0.971397,-20.180751,-31.040722,-31.556103,-28.737295,-10.385765,6.413139,12.96172,15.61605,9.416074,24.534637,28.921769,29.376437,25.129244,36.185334,36.508054,35.254064,37.467643,46.584647,43.276492,38.659611,26.193603,52.201149,75.869694,96.086941,52.689789,86.189907,104.481846,117.375561,42.534862,81.108547,101.663395,114.345325,33.917461,69.96357,88.915363,100.35918,27.440563,55.208176,70.905739,81.407101,-15.197406,-16.073064,-11.740828,-9.149039,19.242861,36.38895,42.313383,44.691552,37.307994,53.790797,55.980824,53.824673,48.607492,65.514866,66.372048,62.79371,54.289357,69.016991,69.736482,66.505515,-5.566103,316.526572,-80.967195,296.063288
108,-1.79758,-0.19008,-0.511448,-0.559631,6.862713,9.432586,10.626594,10.169311,-13.072312,7.918556,25.146721,35.887573,-23.850849,-1.00969,19.391784,36.196449,-30.499249,-11.478218,7.170112,21.470833,-34.350758,-24.953614,-12.759247,-2.101239,-20.802726,-31.723076,-31.440976,-27.739199,-11.910839,3.94332,11.02004,14.298691,8.793395,23.570034,28.804962,29.549338,25.23827,35.291559,36.047507,34.795863,38.15574,46.131782,42.736966,37.941454,26.634293,52.926796,76.800018,97.148758,53.182159,86.501129,104.572632,117.349846,42.967586,81.254539,101.602936,114.296951,34.316551,69.971889,88.756554,100.237267,27.77623,55.213062,70.726021,81.151566,-14.969794,-15.755396,-11.113209,-8.20064,19.588972,36.727873,42.604573,44.927216,37.593391,54.112355,56.316487,54.138747,48.804067,65.769487,66.787677,63.305003,54.394925,69.200488,70.029215,66.863395,-7.244499,316.465146,-81.359459,295.632311
109,-14.911309,0.858331,-0.092159,-0.403057,11.608029,19.544129,25.401741,27.382874,1.564202,26.698471,42.531121,51.496514,-9.039859,17.10965,35.68879,50.503327,-16.695591,5.949566,23.205758,35.775101,-22.266792,-9.452968,2.250092,11.935948,-22.565231,-33.859789,-34.023057,-30.932795,-14.214957,1.539709,8.317509,11.735554,6.700228,22.557574,27.103417,27.147432,23.284722,34.298414,34.629544,33.207754,36.306365,45.039503,41.516852,36.379279,26.863002,53.293796,77.211513,97.600925,53.557617,86.722469,104.719082,117.477024,43.395538,81.572239,101.944393,114.857837,34.646942,70.088688,88.852604,100.533657,27.832523,54.955398,70.321003,80.774082,-14.793361,-15.519917,-10.706336,-7.599587,20.090978,36.993967,42.79942,45.053668,37.902489,54.361703,56.778775,54.742444,48.945043,65.87934,67.215397,63.931078,54.456786,69.363175,70.454589,67.461188,-22.053898,317.47848,-81.349708,295.384257
110,-8.213905,-1.136986,0.035579,-0.348458,14.583309,25.686882,33.54792,36.088097,11.303169,38.746674,52.993057,60.510819,0.480537,28.034111,45.071297,58.289681,-8.568844,15.896267,32.377922,44.181748,-16.259582,-1.502827,10.366539,19.943241,-22.953715,-34.800111,-35.528779,-32.704401,-16.483297,-0.021143,7.067656,10.434091,5.142179,22.708294,27.541882,26.878645,22.711629,34.86227,35.631643,33.921712,36.761465,46.888125,43.650502,38.119184,27.081814,53.667675,77.591904,98.030068,54.09486,87.069008,104.939507,117.608323,43.800568,81.706604,101.921746,114.819443,34.822071,69.929718,88.530671,100.179062,27.688363,54.469975,69.767956,80.245812,-14.482497,-15.110252,-10.166748,-6.833152,20.591181,37.434261,43.18026,45.354047,38.231718,54.70732,57.359921,55.547015,49.12743,66.148832,67.771645,64.673911,54.547004,69.615994,70.905256,67.98808,-30.16614,316.492798,-81.212466,295.187103
111,-1.276565,-5.012898,0.04525,-0.396981,16.178581,28.349006,35.655326,36.891197,12.765872,41.269271,55.390388,62.332145,1.369079,29.62928,47.06504,60.274795,-8.629269,17.188488,35.151031,47.560066,-17.677987,-1.089203,12.639358,23.526695,-22.724819,-33.517,-33.341505,-29.686177,-14.947515,2.764146,10.066256,13.099584,7.3214,26.501758,31.977463,30.769514,25.628421,39.293479,41.238357,39.777787,40.377162,52.945865,50.516283,44.942357,27.329121,54.080635,78.027443,98.55114,54.589085,87.462891,105.191117,117.735352,44.178292,81.851853,101.914811,114.712601,34.984989,69.845021,88.279061,99.811844,27.528603,54.062611,69.238884,79.643212,-14.197433,-14.708183,-9.66515,-6.234606,20.907467,37.714113,43.433894,45.583314,38.412795,54.946233,57.843365,56.202817,49.194812,66.323166,68.268403,65.37563,54.560577,69.782733,71.348155,68.616465,-31.323463,311.616875,-81.047974,294.927097
112,-2.005967,0.07394,0.13678,-0.367699,16.838917,30.041634,37.920639,39.266419,14.925648,44.34565,58.038025,64.527672,3.450371,32.437821,49.380501,61.70826,-6.819671,19.601727,37.016693,48.505646,-16.269664,0.90366,14.318573,24.58326,-22.377436,-33.261514,-32.994764,-29.553797,-14.841218,2.724119,9.960996,12.903267,7.34589,26.676153,31.992728,30.407372,25.526718,39.578358,41.325191,39.556116,40.248202,53.269178,50.817674,45.141193,27.51804,54.332543,78.254379,98.862579,54.929913,87.624275,105.277268,117.769158,44.460274,81.91951,101.953835,114.753639,35.089737,69.774731,88.104469,99.539978,27.337326,53.668099,68.775169,79.115936,-13.943774,-14.334889,-9.153647,-5.579175,21.187949,38.114923,43.846152,45.90512,38.535579,55.147119,58.295501,56.801487,49.226934,66.431797,68.625345,65.850368,54.595318,70.00307,71.784533,69.133946,-33.158421,311.804822,-80.740185,294.673405
113,-0.448196,-1.393448,0.118492,-0.426127,19.333351,32.959122,38.755875,38.452766,17.233818,47.361145,61.146011,67.235504,5.207783,33.998703,50.877159,63.073219,-6.218811,20.822685,39.055138,50.963974,-17.164959,1.672348,16.214298,27.098946,-21.314291,-32.554335,-34.100356,-32.053898,-14.137831,4.80932,11.636236,13.873218,7.475394,28.258495,33.299046,31.388253,25.366514,41.08292,43.156425,41.912512,40.16337,55.383883,53.281788,47.650422,27.698158,54.562718,78.441994,99.057656,55.151047,87.67614,105.280152,117.756844,44.632279,81.938828,101.979813,114.848168,35.098538,69.637539,87.89946,99.286057,27.068367,53.217282,68.290203,78.620133,-13.742925,-14.063965,-8.802485,-5.157308,21.396233,38.3619,44.089942,46.100622,38.597132,55.168633,58.552395,57.257575,49.23075,66.411876,68.820908,66.176014,54.637295,70.183752,72.129174,69.540152,-33.379366,310.514506,-80.394442,294.35041
