takenoko1/special-research/HandMotion_SimilarSearch_自分用/NewProject/handData/tgt/d4_feature_d2/93.csv
,vel_0x_L,vel_0y_L,vel_0x_R,vel_0y_R,posFromWrist_1x_L,posFromWrist_2x_L,posFromWrist_3x_L,posFromWrist_4x_L,posFromWrist_5x_L,posFromWrist_6x_L,posFromWrist_7x_L,posFromWrist_8x_L,posFromWrist_9x_L,posFromWrist_10x_L,posFromWrist_11x_L,posFromWrist_12x_L,posFromWrist_13x_L,posFromWrist_14x_L,posFromWrist_15x_L,posFromWrist_16x_L,posFromWrist_17x_L,posFromWrist_18x_L,posFromWrist_19x_L,posFromWrist_20x_L,posFromWrist_1y_L,posFromWrist_2y_L,posFromWrist_3y_L,posFromWrist_4y_L,posFromWrist_5y_L,posFromWrist_6y_L,posFromWrist_7y_L,posFromWrist_8y_L,posFromWrist_9y_L,posFromWrist_10y_L,posFromWrist_11y_L,posFromWrist_12y_L,posFromWrist_13y_L,posFromWrist_14y_L,posFromWrist_15y_L,posFromWrist_16y_L,posFromWrist_17y_L,posFromWrist_18y_L,posFromWrist_19y_L,posFromWrist_20y_L,posFromWrist_1x_R,posFromWrist_2x_R,posFromWrist_3x_R,posFromWrist_4x_R,posFromWrist_5x_R,posFromWrist_6x_R,posFromWrist_7x_R,posFromWrist_8x_R,posFromWrist_9x_R,posFromWrist_10x_R,posFromWrist_11x_R,posFromWrist_12x_R,posFromWrist_13x_R,posFromWrist_14x_R,posFromWrist_15x_R,posFromWrist_16x_R,posFromWrist_17x_R,posFromWrist_18x_R,posFromWrist_19x_R,posFromWrist_20x_R,posFromWrist_1y_R,posFromWrist_2y_R,posFromWrist_3y_R,posFromWrist_4y_R,posFromWrist_5y_R,posFromWrist_6y_R,posFromWrist_7y_R,posFromWrist_8y_R,posFromWrist_9y_R,posFromWrist_10y_R,posFromWrist_11y_R,posFromWrist_12y_R,posFromWrist_13y_R,posFromWrist_14y_R,posFromWrist_15y_R,posFromWrist_16y_R,posFromWrist_17y_R,posFromWrist_18y_R,posFromWrist_19y_R,posFromWrist_20y_R,posFromBody_0x_L,posFromBody_0y_L,posFromBody_0x_R,posFromBody_0y_R
6,6.561642,0.221721,0.28751,0.139926,11.50161,21.447658,28.897259,30.525478,11.267589,39.85786,55.65382,62.231518,2.063438,33.74097,51.280117,64.051357,-6.882328,19.511707,36.456127,46.184704,-13.74226,-11.088295,-10.822506,-10.961941,-22.566305,-30.636232,-31.45482,-29.846567,-4.287701,13.474879,18.377923,20.416798,16.915575,34.400006,37.026844,35.844139,31.380572,45.017953,46.046307,45.419293,42.067185,53.928117,57.247449,58.673797,25.80701,50.861263,74.368171,94.927093,50.819549,83.438049,100.663879,113.39431,41.408924,77.828132,98.089393,111.498001,32.120235,65.708404,84.253097,96.444442,23.69696,48.476875,63.764122,76.241867,-14.292565,-15.902583,-10.278356,-7.334664,14.171189,28.571879,35.255447,39.475532,31.914256,45.068489,50.749688,52.705348,44.458161,58.780193,62.825932,62.275377,52.006494,66.894172,69.97758,68.070061,-25.069542,315.00402,-69.76379,301.198221
7,4.163646,1.960243,0.296356,0.089267,9.466897,18.37349,25.863579,28.081009,6.352925,34.69661,51.83693,60.406861,-2.698665,28.592148,48.038544,62.786751,-10.336498,14.688859,32.626557,44.400834,-15.397991,-13.454738,-12.128288,-10.309227,-20.468829,-26.612329,-25.721455,-22.975377,-4.065586,11.711459,17.600435,21.17986,15.332182,30.607122,34.611859,34.837557,29.120419,41.527497,43.888179,44.522936,39.713431,51.575203,55.584546,58.219795,25.472545,50.385006,73.803383,94.243149,50.690758,83.116928,100.28112,112.977264,41.300514,77.623604,97.909172,111.320732,31.904297,65.496094,84.022499,96.156555,23.296291,48.102207,63.362274,75.728668,-14.421512,-16.062987,-10.317296,-7.348336,14.147365,28.439794,35.034615,39.210116,31.877909,44.843779,50.485099,52.491345,44.400312,58.583653,62.549018,62.039861,51.953351,66.721765,69.707175,67.782106,-21.111523,317.022414,-69.673061,301.345639
8,2.279583,0.286645,0.215114,0.11719,8.68142,16.238743,22.066899,22.793301,4.13863,32.190342,49.47012,58.057606,-4.662574,26.338246,45.833737,60.595036,-12.094665,12.615361,30.632367,42.537953,-17.028774,-15.379028,-13.941593,-11.951751,-20.065895,-26.237046,-25.245199,-22.755904,-3.660725,11.990522,17.483221,20.69139,15.524078,30.51388,34.238319,34.387829,29.19084,41.291846,43.280098,43.908075,39.674985,51.577649,55.367025,57.800349,25.202065,50.029084,73.376988,93.700116,50.52261,82.834454,99.976879,112.648968,41.172593,77.430943,97.726284,111.181424,31.731766,65.33614,83.869526,96.057759,23.022778,47.81044,63.038418,75.39687,-14.537702,-16.272395,-10.467609,-7.458585,14.103991,28.294854,34.785575,38.887853,31.800993,44.652278,50.200788,52.189546,44.292274,58.34169,62.225482,61.745459,51.818179,66.533265,69.439635,67.509329,-18.990447,317.356955,-69.616454,301.510725
9,0.029377,-0.682762,0.23964,0.016611,8.536057,16.021317,21.581658,21.694542,3.891118,31.964631,49.352303,58.007996,-4.988903,26.093766,45.616265,60.409447,-12.414688,12.302376,30.318123,42.348244,-17.231678,-15.448127,-13.926223,-11.787506,-19.533915,-25.464561,-24.38194,-22.055111,-3.085051,13.050715,18.453518,21.444066,15.982056,31.333357,34.898826,34.817562,29.565727,41.892961,43.737162,44.25967,39.91601,51.965664,55.700428,58.059096,25.019954,49.752662,73.023067,93.268192,50.25333,82.593395,99.738407,112.388179,40.896812,77.208332,97.565609,111.02425,31.468311,65.142208,83.737987,95.961994,22.788723,47.605476,62.851055,75.186229,-14.558043,-16.318251,-10.466325,-7.38714,14.0909,28.274673,34.696284,38.73302,31.812083,44.667358,50.101456,51.995415,44.289309,58.322794,62.116987,61.587724,51.744437,66.429771,69.280146,67.30617,-19.100281,316.712855,-69.516025,301.565998
10,-6.237876,-0.173222,0.226524,-0.014339,10.592079,20.471328,27.952606,29.131599,10.406124,39.188781,56.481514,65.05783,1.379207,32.950286,52.444313,67.080116,-6.944722,18.404914,36.19638,48.115356,-12.804177,-9.533833,-7.526928,-4.968178,-19.837962,-25.577601,-24.226157,-21.928288,-4.169722,12.289283,18.010236,21.279056,14.934423,30.680087,34.525754,34.690529,28.822313,41.63398,43.777794,44.617229,39.509309,51.914868,55.4978,57.406122,24.816616,49.464031,72.638683,92.78809,50.071163,82.334896,99.455441,112.063763,40.706017,76.998837,97.367924,110.816906,31.267113,64.969105,83.551014,95.768955,22.592949,47.423069,62.665249,75.000286,-14.590597,-16.383631,-10.496977,-7.283782,14.073425,28.310514,34.696865,38.688683,31.821235,44.757217,50.140952,51.992612,44.290335,58.357388,62.099339,61.560591,51.709437,66.407134,69.240058,67.270109,-25.44247,316.562969,-69.393814,301.574995
11,-4.07285,-0.348581,0.211933,-0.161687,13.179589,23.982411,30.242649,30.387921,15.934525,45.313786,61.479504,68.396038,6.877693,38.959889,56.639752,70.050282,-2.779186,23.818096,40.258976,50.558911,-10.401134,-7.006508,-7.574547,-7.921303,-21.318601,-28.68135,-29.374437,-28.866194,-5.591006,11.780262,16.675735,18.749969,14.701624,32.172038,34.79858,33.956329,29.091076,43.200946,44.11111,44.468768,39.949614,52.856981,56.766906,58.86048,24.602944,49.198757,72.292809,92.346817,49.949604,82.093071,99.207047,111.805206,40.604004,76.784844,97.16462,110.637497,31.150051,64.778549,83.336609,95.573433,22.458046,47.095974,62.262039,74.587349,-14.574518,-16.299701,-10.377799,-7.064074,14.211956,28.468632,34.774152,38.683237,31.900003,44.871542,50.185004,51.964775,44.302265,58.442109,62.160052,61.618797,51.642079,66.50796,69.391099,67.430363,-29.591698,316.234034,-69.258259,301.432954
12,0.082009,-1.963466,0.092102,-0.052426,13.502288,23.299404,27.65134,25.739696,15.953098,44.812717,60.379177,65.909031,7.280376,38.475711,54.911739,67.486827,-3.15699,23.442913,39.381878,48.562442,-12.04644,-9.984524,-12.222222,-14.682576,-23.055121,-32.359093,-34.776189,-36.030822,-4.627316,14.254935,17.926799,18.215285,17.062923,36.093684,37.139403,34.90794,31.72856,46.571235,45.923917,45.353183,42.323226,54.939354,58.651221,60.272873,24.478398,49.07983,72.204598,92.276917,49.868534,81.865906,98.961868,111.548744,40.581528,76.691368,97.020081,110.421616,31.193321,64.765274,83.224137,95.368241,22.563114,47.042622,62.087128,74.345307,-14.55393,-16.308346,-10.445428,-7.088071,14.175758,28.429507,34.755268,38.669195,31.816628,44.83711,50.204122,52.016274,44.178468,58.317459,62.043899,61.523133,51.477539,66.394438,69.301857,67.369168,-29.57765,314.28846,-69.234118,301.39842
13,5.480392,0.057947,-0.14542,-0.330278,11.994873,19.897282,22.540112,19.59145,9.693947,37.501293,53.667538,60.072498,0.638901,30.961681,48.235943,61.946423,-9.144768,16.360668,33.144756,43.413448,-17.13303,-16.295471,-18.479839,-20.500465,-22.743937,-31.959099,-34.316236,-35.522888,-4.486785,14.471592,18.20107,18.463089,17.155116,35.797702,36.862995,34.76216,31.706058,46.197261,45.648831,45.065648,42.263365,54.553426,58.218844,59.809386,24.519825,49.166805,72.256405,92.36491,49.631115,81.675648,98.84911,111.526051,40.281899,76.498821,96.997158,110.49654,30.979626,64.649975,83.220875,95.417851,22.520416,47.097954,62.194439,74.47974,-14.455685,-16.042029,-10.147804,-6.746554,14.193887,28.700887,35.041864,38.978218,31.892926,45.155408,50.542304,52.396459,44.305476,58.663397,62.413327,61.916891,51.618021,66.670437,69.591553,67.601522,-24.142679,314.360866,-69.424959,301.082601
14,1.993401,2.098637,-0.166878,-0.356893,10.339599,17.872501,22.684353,22.380535,6.47501,34.797123,52.357372,60.36993,-2.605225,28.213222,47.054638,61.628963,-11.438061,14.054111,31.964298,43.366092,-17.93937,-17.026028,-17.957772,-18.825703,-22.640517,-31.768895,-33.36066,-33.789381,-5.335273,12.807949,17.781266,19.460556,15.717048,33.027516,35.371463,34.333822,30.169473,43.523889,44.064143,43.845176,40.804153,52.411181,56.229135,57.817442,24.616299,49.330147,72.38403,92.472943,49.406777,81.614743,98.956044,111.782307,40.021077,76.385136,97.03426,110.617619,30.824547,64.60191,83.331311,95.691342,22.517956,47.231404,62.415882,74.836934,-14.414115,-15.86026,-9.866839,-6.348869,14.232581,28.919212,35.294856,39.307435,31.898311,45.35448,50.802743,52.723638,44.297238,58.821923,62.663762,62.250356,51.593371,66.762878,69.735296,67.828925,-22.18761,316.47301,-69.630169,300.739215
15,3.588398,1.267069,-0.202549,-0.281767,7.629226,14.057373,20.001915,20.759948,0.827705,29.810188,48.258934,57.4617,-7.752102,24.025337,44.195961,59.45375,-14.799008,10.713134,29.593826,42.218788,-18.956601,-18.07473,-17.838879,-17.257634,-21.18438,-29.507879,-30.415771,-30.293381,-4.636863,12.35748,17.803286,20.524911,15.395786,30.802748,33.732953,33.197837,29.258407,41.168592,42.644699,42.945473,39.59676,50.432117,54.370484,56.626746,24.819924,49.584572,72.629769,92.735756,49.238903,81.621827,99.129044,112.076592,39.834046,76.341545,97.182381,110.885239,30.749405,64.634354,83.556908,96.046372,22.598431,47.430279,62.700005,75.178986,-14.322169,-15.684037,-9.679563,-6.146093,14.184724,29.023459,35.423395,39.489289,31.793212,45.478141,50.949672,52.889907,44.209034,58.98776,62.880679,62.473596,51.539092,66.872633,69.882472,68.004061,-18.637035,317.757817,-69.870541,300.475186
16,4.509327,0.777475,-0.123218,-0.311457,6.411323,11.036396,15.555736,15.397716,-4.09869,24.81776,43.283786,52.352748,-12.680729,19.11787,38.994381,54.084034,-19.081845,6.107059,24.651363,37.050945,-22.34586,-22.639183,-23.078076,-23.014035,-21.251306,-29.877665,-31.111822,-31.301222,-4.537643,12.305387,17.326745,19.621514,15.567316,30.563181,32.932655,32.052329,29.292012,40.76898,41.713465,41.709525,39.422636,49.653407,53.326309,55.633181,24.995041,49.760868,72.780224,92.946407,49.073982,81.620235,99.211086,112.225056,39.617706,76.268795,97.254238,111.002483,30.653126,64.64677,83.721874,96.295154,22.702732,47.720077,63.09312,75.604053,-14.208967,-15.503627,-9.444417,-5.921284,14.173127,29.192174,35.651637,39.794818,31.826533,45.757352,51.238652,53.173403,44.293385,59.280815,63.186764,62.739777,51.63362,66.992886,69.994611,68.106641,-14.176443,318.562222,-70.042494,300.190659
17,7.638416,-1.256683,-0.195431,-0.449469,0.064876,0.185932,1.708603,-1.288273,-14.875649,13.505264,32.90554,43.538841,-21.716526,10.267959,31.377617,46.592148,-25.13467,-0.172531,19.565048,32.877411,-25.157341,-24.353817,-22.082153,-19.404705,-14.587115,-18.29703,-15.744749,-13.017481,1.435549,16.992441,22.142636,25.084524,17.440737,30.585238,33.66283,33.282768,27.858933,37.71294,39.631674,40.114933,35.385592,44.797256,47.811454,49.465032,25.226189,50.049076,73.023331,93.282532,48.85191,81.683945,99.458679,112.62925,39.337544,76.156677,97.398239,111.355545,30.475124,64.58828,83.957932,96.804497,22.734078,47.899109,63.446388,76.111633,-14.108067,-15.197159,-9.118584,-5.511619,14.418573,29.59433,36.014372,40.118292,32.078919,46.278933,51.652133,53.440054,44.550872,59.877065,63.788299,63.259036,51.847708,67.419717,70.432063,68.483566,-6.592214,317.327732,-70.292112,299.763383
18,1.800796,0.32871,-0.064407,-0.173086,-0.067623,-0.543422,0.380654,-2.849109,-16.449176,11.757386,31.295082,42.037789,-23.398773,8.317543,29.532853,44.695588,-26.662193,-2.044841,17.690026,30.872567,-26.453441,-26.073932,-23.806663,-21.196323,-14.492772,-18.522888,-16.294464,-13.519833,1.341849,16.785553,21.859572,24.736844,17.468994,30.192926,33.299935,32.849502,27.860909,37.181244,39.153231,39.588683,35.287384,44.429236,47.4792,49.234974,25.377743,50.251339,73.248893,93.523361,49.032795,81.877578,99.678657,112.84687,39.525055,76.309089,97.509475,111.421875,30.641041,64.693107,84.102356,96.99559,22.853885,47.976768,63.586784,76.308838,-14.066547,-15.163444,-9.145706,-5.520956,14.473938,29.629305,36.086644,40.185204,32.041856,46.315427,51.676894,53.382132,44.477821,59.928997,63.873514,63.290022,51.769643,67.448172,70.479252,68.532521,-4.855265,317.680055,-70.420366,299.61391
19,1.113305,0.583146,-0.033978,-0.179299,-0.255284,-1.225628,-0.763848,-3.940648,-17.664128,10.203506,29.660499,40.219917,-24.462159,6.799781,27.599945,42.623634,-27.491845,-3.034642,16.607208,29.859947,-26.996453,-26.930455,-25.090107,-22.894146,-14.278264,-18.664173,-16.852959,-14.156035,1.018252,16.569439,21.619252,24.489596,16.971187,30.152603,33.090551,32.677108,27.12477,36.827254,38.715804,39.186923,34.259178,43.458767,46.644779,48.570663,25.443775,50.380921,73.427868,93.747265,49.235813,81.954151,99.7122,112.839604,39.701855,76.374745,97.550846,111.436444,30.751671,64.73576,84.078038,96.851475,22.892052,47.930947,63.498379,76.096401,-13.963744,-15.051354,-9.119115,-5.628439,14.533083,29.639926,36.11027,40.164741,32.144103,46.462665,51.841237,53.528579,44.623664,60.135268,64.037055,63.372707,51.962861,67.668843,70.668456,68.641709,-3.799346,318.284897,-70.51173,299.456307
20,0.754566,-1.390002,0.070256,-0.221424,1.178936,-0.413773,-2.595463,-7.762093,-16.980126,10.635166,29.33028,38.506611,-24.365685,6.883907,26.314419,40.534435,-28.491108,-3.119545,15.794162,27.696499,-29.216503,-29.736603,-29.438393,-29.11504,-15.58263,-20.819238,-19.985471,-18.072036,1.413233,17.830111,21.850729,23.181982,18.385358,33.24557,35.113977,33.651492,28.785474,39.554486,40.138941,39.600342,35.818821,45.40372,48.521004,49.914069,25.344554,50.338245,73.510002,93.889091,49.491554,82.077804,99.779319,112.893035,40.019817,76.490798,97.535339,111.382415,31.006176,64.795211,84.035865,96.781425,23.016517,47.900539,63.400383,75.974693,-13.875071,-14.921246,-9.05476,-5.637628,14.840859,29.752213,36.204143,40.219982,32.353016,46.500937,51.870691,53.531679,44.744447,60.153991,64.082984,63.406768,52.027081,67.731766,70.767515,68.781635,-3.096943,316.914597,-70.493637,299.254585
21,0.263649,0.336836,0.055973,-0.135308,0.235279,-0.577835,-0.411862,-3.763848,-18.283711,8.813633,28.512645,39.328205,-25.635727,5.398075,26.65916,41.87392,-28.843689,-4.057183,16.50159,30.125324,-28.484848,-27.178688,-23.339733,-19.375775,-14.933719,-19.732035,-18.010384,-14.800721,1.190622,16.373517,21.610804,24.609256,17.723764,30.927941,34.313618,33.617233,28.178455,37.404584,39.403099,39.359256,35.503066,44.558789,47.123456,47.781728,25.345893,50.380989,73.667804,94.068821,49.771637,82.229312,99.891094,112.97826,40.332275,76.668148,97.599666,111.376087,31.241878,64.949512,84.047527,96.663425,23.119079,47.914226,63.363613,75.875896,-13.768847,-14.882899,-9.141444,-5.762869,14.980181,29.767959,36.219531,40.218476,32.440987,46.445857,51.829826,53.501039,44.821055,60.153522,64.083602,63.393072,52.15935,67.886415,70.891671,68.855007,-2.880506,317.266957,-70.484876,299.134801
22,-3.706604,2.52416,0.205719,-0.01566,4.975284,8.614322,13.70763,15.459789,-11.728009,15.530719,35.087276,45.644725,-20.817822,9.876743,31.113041,46.966564,-25.697285,-1.832932,18.25906,32.267337,-26.699318,-27.334866,-26.00092,-24.205719,-20.64173,-29.586006,-30.479016,-29.299521,-5.104326,10.592406,16.734398,20.48849,14.578383,28.252172,32.035224,31.909056,28.093313,37.934389,40.16332,40.33774,38.159074,47.17151,50.733286,52.777237,25.377662,50.373413,73.740772,94.123386,50.152519,82.472271,100.013202,112.965992,40.684547,76.870479,97.574375,111.143383,31.44857,65.041294,83.924091,96.342304,23.116355,47.829254,63.188404,75.613895,-13.718261,-14.951133,-9.224672,-5.948948,14.805081,29.574631,36.134192,40.237248,32.251475,46.195903,51.725739,53.545795,44.656367,59.90678,63.913838,63.316662,52.077185,67.785082,70.843321,68.896528,-6.633493,319.814539,-70.32554,299.142563
23,-3.13694,1.226696,0.171215,-0.030233,4.912365,10.493557,18.9948,23.45898,-9.23608,19.387905,39.531566,50.696926,-17.787358,14.024814,36.059383,52.343662,-22.04583,2.539638,22.920467,37.796665,-22.178788,-21.110493,-18.740513,-15.881459,-20.042059,-27.963291,-27.60462,-25.673116,-5.537406,9.099356,16.217054,21.491836,13.208389,25.929258,30.650422,31.523351,26.508081,35.893168,38.953951,39.851506,36.769419,45.422492,48.967262,51.306479,25.331165,50.325107,73.74646,94.173065,50.367027,82.592994,100.049949,112.939705,40.895256,76.980766,97.550422,110.985672,31.618709,65.155838,83.855484,96.076583,23.225944,47.856125,63.078552,75.34172,-13.682174,-14.978377,-9.27338,-6.052553,14.689435,29.421935,36.060845,40.265011,32.225725,46.105278,51.742844,53.674854,44.685377,59.84146,63.843208,63.281649,52.154003,67.799285,70.85372,68.919968,-9.823082,321.080313,-70.206974,299.151408
24,0.369312,-3.084396,0.291446,-0.143915,6.106132,11.551163,17.333725,18.404388,-8.920441,19.884178,38.912064,48.867485,-17.805725,14.29953,35.401474,51.192879,-22.752754,2.275978,21.760162,35.433357,-23.688091,-22.941216,-21.675694,-19.760433,-20.023485,-27.842791,-28.039232,-27.065218,-3.732108,11.644312,17.414802,21.031277,15.803067,29.146874,32.715541,32.32087,29.183257,39.139708,41.216165,41.599215,39.401407,48.466454,51.869087,54.207636,25.279553,50.171688,73.594609,94.026409,50.556107,82.700901,100.098347,112.933125,41.111985,77.077618,97.501499,110.824231,31.804859,65.210965,83.776394,95.913723,23.349369,47.885182,63.023495,75.229374,-13.671924,-14.951097,-9.162662,-5.947775,14.799215,29.454996,36.148049,40.441765,32.297503,46.063115,51.747685,53.731516,44.732085,59.821625,63.87696,63.393071,52.199512,67.860072,70.952347,69.07837,-9.518148,318.048238,-69.979906,299.059814
25,0.310478,-1.296808,0.039643,0.016796,3.342865,8.520344,15.163857,16.3927,-9.909588,18.696121,38.070214,49.179016,-18.214256,13.353012,35.429558,51.523956,-22.188114,1.485787,21.692848,36.370812,-22.172367,-20.641262,-16.828937,-12.091186,-17.3954,-22.634021,-19.842729,-16.142126,-1.497336,12.706642,19.413119,24.453534,16.807042,28.376179,33.271851,34.01519,29.591576,38.422836,41.556051,42.618961,39.738292,48.710417,51.646625,53.404708,25.509029,50.24319,73.541027,93.962139,50.614357,82.737522,100.099605,112.905155,41.171081,77.128841,97.467395,110.770237,31.891571,65.259487,83.757259,95.885547,23.436699,48.041565,63.183002,75.407718,-13.764192,-15.078154,-9.239159,-5.987876,14.657658,29.334397,36.048137,40.394699,32.205557,45.961214,51.718502,53.807876,44.672174,59.723911,63.829079,63.478188,52.191596,67.714057,70.827685,69.034947,-9.280026,316.806518,-70.012619,299.131698
26,-1.37178,-1.311517,0.002575,-0.101407,4.549598,9.442966,14.358215,14.093925,-7.896412,21.42469,40.28009,50.32109,-16.54192,15.808136,36.723884,52.505035,-21.409847,3.139183,22.216255,35.583,-22.415852,-22.603306,-21.991619,-20.4967,-18.019301,-23.16579,-20.966302,-18.033528,-0.740535,14.900622,20.752128,24.368294,17.891503,31.294047,35.002752,34.962318,30.607246,41.198257,43.222201,43.881177,40.302567,50.221252,54.064647,56.75163,25.661544,50.275726,73.54161,94.015914,50.652385,82.775825,100.239646,113.159957,41.243431,77.165519,97.51371,110.909225,31.959228,65.308044,83.849075,96.104278,23.43917,48.126663,63.285873,75.596878,-13.769699,-15.032434,-9.168775,-5.908168,14.675406,29.334546,36.021239,40.377372,32.146635,45.838307,51.61922,53.774482,44.564902,59.615404,63.783458,63.550153,52.061204,67.609291,70.826451,69.183322,-10.736355,315.543225,-70.094593,299.078515
27,-1.112881,-1.723491,-0.092961,-0.128564,5.076588,9.235108,11.888203,9.212483,-6.985966,23.026714,41.296864,50.330692,-15.810036,17.419567,37.02689,51.868801,-21.330173,4.338352,22.387768,34.003201,-23.294517,-23.32521,-23.192047,-22.393925,-19.048569,-24.599919,-23.42865,-20.855028,0.217325,16.889257,21.788855,23.788507,19.727355,34.379307,37.006269,35.666137,32.618272,44.014731,44.713128,44.403029,41.942473,52.551305,55.985492,57.958332,25.670048,50.233692,73.499279,93.999539,50.652077,82.765675,100.299214,113.304829,41.342217,77.265484,97.665974,111.203877,32.105999,65.441654,84.025486,96.417332,23.556187,48.303292,63.490162,75.898602,-13.768428,-14.998162,-9.141506,-5.884246,14.861644,29.359628,35.921993,40.206027,32.258415,45.710187,51.423261,53.579202,44.609164,59.505241,63.659611,63.458959,52.071319,67.52368,70.763218,69.176356,-11.957451,313.865667,-70.295769,298.995884
28,0.133461,-3.904503,-0.058594,-0.139618,2.533321,5.024036,5.558315,0.40369,-8.22353,21.655392,39.577114,48.690273,-16.033367,17.397068,36.854725,50.773693,-20.691605,5.44305,24.01569,34.988033,-22.083366,-20.965691,-18.990486,-16.907661,-16.732917,-19.851609,-16.053465,-11.092758,4.539322,20.537495,24.955725,26.401858,23.724533,37.417242,40.003041,38.335545,35.909384,46.632948,46.977416,46.259815,44.361039,55.095595,57.941325,58.73262,25.722897,50.168084,73.445103,93.984593,50.660523,82.744297,100.356572,113.389767,41.446679,77.336186,97.779225,111.424016,32.230248,65.550946,84.154507,96.620327,23.628262,48.407547,63.603047,76.06802,-13.738268,-14.96357,-9.141642,-5.985566,14.968387,29.377635,35.826984,40.015156,32.250573,45.576176,51.204973,53.313071,44.559443,59.415518,63.567505,63.383427,52.051077,67.481283,70.789512,69.283839,-11.933807,310.007177,-70.46418,298.902279
29,0.400131,0.311395,-0.088165,0.006249,2.137768,4.57893,5.467266,0.683728,-8.217212,21.453564,39.281788,48.387738,-16.085701,17.441517,36.734585,50.519177,-20.692188,5.290203,23.854191,34.898289,-22.198494,-20.875499,-18.739528,-16.385627,-16.870386,-19.809619,-15.970447,-10.668816,4.116863,20.294668,24.696176,26.330968,23.248573,37.144281,39.635193,38.153492,35.643326,46.317811,46.397111,45.701542,44.260806,54.914493,57.525646,58.308432,25.740498,50.14317,73.446545,94.033619,50.687084,82.840748,100.538944,113.620434,41.523159,77.486012,97.984875,111.743511,32.279949,65.709629,84.365421,96.942936,23.578823,48.444843,63.691899,76.286946,-13.766402,-15.073016,-9.374638,-6.240076,14.900733,29.27713,35.606128,39.668453,32.111351,45.347922,50.890083,52.94142,44.384319,59.228612,63.343721,63.132918,51.894614,67.340788,70.712768,69.264363,-11.657393,310.360788,-70.676062,298.950744
30,-0.430618,1.388964,0.197399,-0.23622,3.906681,7.857056,10.962833,8.182903,-7.521812,21.668438,39.955158,49.379437,-15.897755,17.288487,36.875416,50.880512,-20.791695,4.95789,23.669827,35.007832,-22.447071,-20.693962,-18.192547,-15.509399,-18.9709,-23.926901,-21.809924,-17.913708,2.150594,18.551442,22.965584,24.610862,22.103696,36.226485,38.456119,36.640892,35.209184,45.690081,45.644904,44.708126,44.258484,54.318837,56.632501,57.253414,25.538578,49.98864,73.366425,93.966477,50.673809,82.887497,100.677315,113.796593,41.458248,77.497696,98.109398,111.865448,32.127079,65.698403,84.431397,97.012619,23.3554,48.253281,63.542977,76.154961,-13.698575,-14.978278,-9.312975,-6.246103,14.933411,29.366014,35.66316,39.670342,32.147425,45.444265,50.917463,52.860774,44.432238,59.418877,63.502049,63.199781,51.940001,67.609254,71.03019,69.539671,-12.235125,311.795311,-70.625777,298.760083
31,1.340126,-0.786651,0.194893,-0.234108,1.879612,6.240074,11.192082,9.631702,-9.997261,19.283283,38.301281,49.068981,-17.606163,15.338551,36.429417,51.368877,-21.226822,3.955845,23.892666,36.929478,-21.274372,-18.744816,-14.661678,-9.774971,-16.523224,-19.648091,-15.31814,-9.582515,3.420319,19.311343,24.80461,27.888462,22.207116,35.113619,38.836119,38.25296,34.735175,44.417973,46.1766,46.216182,43.771422,53.97711,56.695462,57.772821,25.335995,49.863133,73.379975,94.008248,50.555809,82.774178,100.591438,113.733765,41.415264,77.446152,98.092873,111.869339,32.149864,65.728638,84.478432,97.040085,23.412609,48.295475,63.569664,76.180367,-13.65367,-14.910452,-9.269935,-6.268815,14.84722,29.262187,35.641091,39.686619,32.096148,45.556601,51.103814,53.045914,44.440179,59.58443,63.733774,63.410115,52.028464,67.909497,71.35249,69.813917,-11.039377,311.052287,-70.575262,298.569602
32,5.321514,-0.369144,0.436054,-0.449642,0.909279,3.83907,6.95755,4.190026,-14.589775,12.433708,31.945404,43.653259,-22.46434,8.291153,30.299378,46.269699,-25.866531,-2.584453,18.521622,33.0065,-25.708259,-24.027992,-19.270054,-13.361011,-15.522386,-18.380788,-13.412399,-7.124145,3.887337,20.157076,26.102813,29.719066,22.442731,34.965949,39.508346,39.895188,34.734373,43.968233,46.340202,47.017777,43.851364,53.911482,56.821322,58.230812,25.139512,49.717381,73.292714,93.77805,50.47522,82.463597,100.268338,113.460331,41.380669,77.101239,97.789387,111.651295,32.047463,65.346737,84.092526,96.649533,23.17669,47.815751,62.964947,75.511746,-13.521389,-14.784456,-9.229352,-6.359465,14.686768,29.321776,36.040937,40.328737,31.838266,45.893252,51.949202,54.209872,44.153694,59.760184,64.276412,64.220219,51.804125,68.043002,71.765638,70.490208,-5.832802,310.723448,-70.254147,298.160265
33,-0.975654,1.125093,0.44323,-0.90636,3.89772,8.893364,14.60495,14.394332,-12.907746,13.72174,33.673004,45.680397,-22.269265,8.043182,30.638946,47.568443,-26.777218,-4.504589,16.433441,31.471756,-27.230587,-27.145432,-24.120507,-19.576092,-17.787799,-22.290676,-19.15504,-14.703107,0.722875,19.709818,27.092721,31.478915,19.568125,34.948547,40.496105,41.623162,32.460895,43.928379,47.579964,49.197257,42.422372,53.501878,57.828903,61.135514,25.365807,50.108952,73.611797,93.796223,50.248444,81.634197,99.167439,112.289738,41.064388,76.154125,96.682217,110.606678,31.618572,64.361057,83.166172,95.946293,22.605549,46.994728,61.965832,74.318447,-13.544743,-14.637923,-9.084992,-6.419721,13.740072,29.006058,36.459284,41.466415,30.881776,46.319824,53.551563,56.859989,43.325966,59.889329,65.41914,66.370776,51.22708,67.841843,72.146699,71.607025,-6.926216,311.874497,-69.928677,297.279861
34,2.991119,-0.271294,0.298702,-2.603533,-0.067062,2.22797,6.632606,5.525448,-18.881561,4.252888,24.226295,37.40094,-25.880058,0.979271,23.662308,40.196091,-27.757107,-7.83942,13.301331,28.468758,-25.34967,-23.473778,-17.450741,-10.843929,-8.769769,-8.91881,-3.696627,2.039813,4.263421,21.840132,30.553486,35.926315,16.97588,32.140373,39.744738,41.776142,25.167405,37.28065,42.805966,44.944481,31.439246,42.618467,47.50805,51.044014,25.903714,51.301312,74.507264,94.082016,50.682644,80.901375,97.662529,110.254372,41.078339,74.557869,94.306893,108.023987,31.091092,62.245617,80.465287,93.093613,21.415547,45.059269,59.435921,71.280762,-13.508656,-14.05469,-8.000124,-5.582361,11.557405,28.067958,36.798565,42.981572,28.302153,45.663108,54.557353,59.281507,40.889567,58.798829,65.963951,68.459532,49.367898,66.536625,71.871243,72.514682,-4.080786,311.623272,-69.775664,294.696397
35,15.277313,-6.608097,0.636612,-6.028557,-7.764084,-12.601581,-14.986679,-19.605366,-28.548397,-15.418064,-1.719841,8.078705,-31.360096,-15.880073,-0.18267,12.484944,-30.404732,-19.61356,-5.001022,6.054611,-26.410618,-28.723858,-26.802109,-23.81464,-5.655992,-3.933835,1.230747,6.511939,11.326569,31.870808,39.7984,43.453901,22.325985,41.891368,48.802709,50.058428,29.144132,45.712508,50.819527,52.103219,33.885069,48.229764,54.263705,58.269553,26.775307,52.395596,74.258995,92.02993,50.270966,78.666252,93.705643,104.309098,40.36821,72.121765,89.468148,100.496018,30.198281,59.959751,75.936745,85.948059,20.524349,43.578461,56.340855,65.643139,-11.904232,-10.251569,-1.988931,2.392927,10.04179,28.876246,39.548558,46.963547,26.074457,46.412487,57.678034,64.230432,38.890743,58.800348,67.523705,71.446264,48.16295,65.719,71.950296,73.919788,11.05085,305.033395,-69.284729,288.68606
36,14.964844,-9.307911,-2.098789,-12.677292,-13.726296,-24.150387,-31.159355,-37.01469,-36.005219,-33.182293,-24.579689,-17.510742,-34.529091,-29.776131,-19.478645,-10.033596,-30.260056,-27.997433,-18.529907,-10.757744,-24.112885,-29.57436,-29.622986,-28.729981,-2.864923,1.408181,7.735041,14.142906,15.929222,40.090491,49.314422,52.361521,25.549208,50.69321,57.853812,57.819282,31.671279,53.284307,58.330402,58.262637,35.66747,53.33057,59.649601,62.488897,26.868233,52.120159,72.342201,87.892439,50.77232,77.239872,89.588562,97.183251,41.015545,70.484928,84.690537,92.485365,30.682457,58.38117,71.682123,78.944378,20.674976,42.292597,53.386597,60.537197,-8.439496,-5.219885,3.242366,7.686284,6.951374,24.8646,36.068601,43.890341,19.531162,39.097484,51.121728,58.581492,30.176142,48.604373,57.68734,62.526399,38.295945,53.110356,58.910937,61.469751,25.902386,295.691966,-71.496826,275.97525
37,17.182205,-20.986668,-5.059479,-19.223187,-20.251236,-35.093433,-43.055626,-48.262539,-42.526119,-47.286724,-43.458114,-38.933258,-35.942448,-39.220344,-33.562042,-27.504787,-27.468246,-31.883766,-27.21746,-22.379471,-17.8545,-24.896644,-25.44199,-24.753479,0.165009,8.670548,19.023103,28.277687,18.145902,44.928068,56.915404,61.855264,25.83368,56.527994,65.647727,65.69262,31.519114,58.651665,65.68437,65.349633,35.44891,56.970954,64.256095,66.446148,26.255665,50.594776,69.08709,82.23987,52.125424,76.670002,85.447861,89.105645,43.105442,69.839527,80.131554,84.132449,32.872856,58.015154,68.184431,72.519299,22.423897,41.987028,51.392063,56.771988,-3.078066,1.143111,7.799806,10.451578,2.310435,15.781139,25.981412,33.288079,8.808721,23.512704,34.378276,41.579825,15.02984,28.273927,36.330466,41.346921,20.17699,29.123199,32.920905,35.029595,42.918417,274.695229,-76.722479,256.741994
38,24.907974,-30.377226,-6.500885,-27.597877,-27.069191,-48.357364,-61.637168,-69.379062,-51.746658,-66.328342,-66.721366,-63.909668,-40.094318,-53.559654,-52.172058,-48.870449,-27.707393,-40.459785,-39.799118,-37.717529,-15.528923,-25.912902,-27.441856,-27.288963,1.893996,11.421813,23.024147,34.207517,17.054648,45.192076,57.102186,61.297621,22.591017,56.972486,65.78795,64.888135,27.676213,58.672672,65.180486,63.133053,31.609134,55.974488,63.198669,63.935302,26.943535,50.863198,67.155613,76.234572,50.224102,70.160088,76.517109,77.647694,40.226738,63.106819,71.276058,72.741469,29.458992,51.959605,60.023581,61.451363,18.880921,36.663168,44.843273,48.038842,-1.774972,-0.104049,3.768862,5.171844,-10.711233,-6.201859,-0.464295,3.373598,-7.836627,-1.13057,7.705562,13.661173,-3.218431,4.404157,12.887916,18.478755,1.876682,6.552342,10.689497,13.591334,67.460472,244.48167,-83.589283,229.307784
39,21.900834,-38.154061,-7.514694,-36.959486,-30.529564,-53.399781,-66.61821,-71.888855,-52.683793,-70.687912,-75.252205,-75.59301,-38.445351,-57.885407,-60.096909,-58.44096,-24.820542,-43.195656,-46.378693,-45.986664,-12.60672,-26.95205,-31.432641,-32.752762,-3.456726,0.828475,9.113737,18.362794,3.802473,25.343302,32.915909,34.096966,11.065588,42.969914,52.395571,52.387216,19.375371,48.872592,56.414713,55.350544,27.242207,50.730958,58.745921,59.765457,27.919041,50.497112,63.229305,67.136724,45.624081,61.087898,65.546665,64.967377,34.536278,54.72805,61.209801,60.449289,23.870281,44.636599,51.075514,50.308537,14.335716,30.547857,37.978306,39.542015,-0.86873,-3.62504,-5.13346,-6.616514,-24.096462,-30.745697,-30.778783,-30.73938,-24.328582,-24.769369,-16.908825,-10.979409,-21.178626,-19.389389,-11.497816,-5.266588,-16.639662,-16.997332,-13.480233,-9.83129,89.061001,207.410556,-91.404282,193.431245
40,7.415016,-43.949936,-5.442409,-42.82995,-28.565621,-48.570626,-57.001374,-57.775772,-45.205719,-58.877541,-61.748223,-61.514168,-29.818543,-46.387345,-47.222031,-44.979721,-15.445404,-31.774338,-33.90429,-32.972168,-2.490441,-16.479996,-20.469246,-21.254723,-4.552703,-5.229932,-0.729364,6.611771,-16.113276,-5.363387,-1.078193,-1.573067,-10.918985,15.281949,28.20439,31.104399,-2.367245,22.791349,33.343587,35.130847,7.074498,26.969839,36.105837,38.652479,26.275062,46.801425,56.651023,56.638063,38.698425,49.661155,52.671409,51.901027,26.421512,42.940818,48.967266,48.307073,15.121994,32.84012,39.060991,38.580276,5.103229,18.997999,26.565216,28.478439,-2.551379,-11.984292,-20.271524,-26.386606,-39.654855,-57.880255,-64.698834,-69.290384,-42.023786,-48.289687,-40.021893,-34.038501,-39.661919,-42.272961,-33.652116,-26.916715,-34.999313,-39.126031,-34.984289,-30.761487,96.603642,165.008259,-96.719066,152.148934
41,7.919082,-49.684764,-2.829758,-43.940717,-26.867637,-45.554145,-50.991211,-49.030014,-39.110138,-48.324119,-50.302734,-49.996399,-23.437614,-37.431106,-38.841201,-37.064621,-9.340644,-23.733375,-26.199257,-25.467796,3.400727,-9.376648,-13.554588,-13.932747,-7.277564,-15.615487,-17.990322,-16.067568,-35.161444,-38.362721,-40.6984,-44.927259,-31.10535,-14.260337,1.458823,7.468879,-22.62193,-5.131471,8.137445,12.687122,-12.47057,0.552685,11.096135,15.601013,25.470211,44.023739,50.510822,46.656143,30.784641,37.42527,39.947594,39.715931,16.569546,30.732983,37.189281,37.238022,4.413883,20.657043,27.350956,27.575168,-5.929173,7.207638,15.252594,17.489639,-6.185822,-22.175437,-35.44276,-43.983682,-53.617314,-79.944047,-92.608074,-101.809201,-55.398023,-63.427966,-52.987231,-45.541299,-51.808836,-55.210333,-44.585433,-36.312385,-45.514907,-50.061966,-43.821994,-37.910961,105.130474,117.438304,-98.941074,110.323026
42,0.451653,-45.788962,-1.204594,-39.729968,-24.744164,-41.520653,-44.488014,-39.672135,-31.071671,-36.540161,-37.672485,-37.1082,-15.430161,-28.172653,-29.809502,-27.657784,-1.664063,-15.077042,-17.66629,-16.608421,10.816887,-1.432228,-5.958962,-5.973381,-8.904131,-24.654716,-35.076988,-39.11247,-50.107538,-66.53689,-76.971653,-86.948538,-47.752884,-41.502254,-24.516136,-16.132523,-40.319727,-31.912835,-17.030096,-10.016447,-30.573055,-24.898389,-13.432591,-7.081926,26.644547,44.087231,48.076664,41.722664,22.827656,25.830769,29.036968,30.852436,6.438961,19.098358,27.764019,29.705269,-6.542999,8.90593,17.246498,18.790432,-16.734398,-3.571827,5.45953,7.896973,-14.659053,-36.925418,-53.265658,-63.190579,-68.262085,-97.324713,-114.030657,-126.676524,-66.716386,-75.262581,-61.691057,-51.249408,-59.52597,-62.547375,-48.809983,-37.853212,-49.563159,-53.783824,-44.162789,-34.917912,106.205258,75.070735,-99.522537,74.014451
43,-3.080086,-38.57479,3.467732,-38.181298,-24.351929,-38.978485,-39.146187,-32.591766,-24.665153,-26.179596,-27.410339,-27.589027,-8.917374,-19.943825,-23.292641,-21.567673,4.741699,-7.132141,-10.857262,-9.911041,17.379318,5.900597,0.650093,0.654648,-10.727603,-31.559722,-48.370339,-58.842122,-62.554792,-90.184853,-106.538875,-120.289016,-61.491079,-66.422195,-47.799685,-36.462773,-55.137616,-55.92142,-38.58666,-28.160195,-46.195064,-47.909848,-35.487141,-26.904772,24.686863,39.941299,41.58554,34.10701,16.193744,18.566837,21.23751,23.484913,-0.443642,12.66243,21.651752,24.025589,-13.507199,2.149555,10.782474,13.042843,-23.783352,-10.266484,-0.721539,2.359199,-16.34174,-41.292346,-59.68806,-71.239499,-71.261192,-99.578597,-117.190982,-130.828097,-68.996527,-74.95152,-57.689162,-44.503164,-61.199314,-62.986106,-47.951838,-35.956018,-50.666219,-54.81962,-44.464459,-34.412646,103.991352,40.164889,-95.188625,39.502097
44,-4.927963,-33.310216,5.294059,-28.710928,-23.723122,-37.377571,-36.988403,-31.936112,-21.262253,-22.145394,-23.00132,-22.55333,-5.426422,-15.928093,-20.23304,-18.769638,8.686066,-3.272118,-7.723572,-6.787949,22.145737,9.85865,3.862266,3.922874,-13.850649,-36.436325,-55.207308,-68.515182,-65.918343,-93.96283,-110.351213,-124.059085,-64.728277,-74.399058,-55.22461,-42.656166,-59.009046,-63.883562,-45.554379,-34.070729,-50.969587,-55.901574,-43.041903,-33.549549,22.093712,35.480565,36.517697,29.448578,11.476216,13.379208,15.460671,17.80655,-4.931911,8.161812,17.704377,20.729256,-18.184753,-2.295822,6.776059,9.634392,-29.062065,-14.980098,-4.932609,-1.258735,-17.635189,-43.405835,-61.565519,-73.274602,-72.608852,-98.731524,-116.465097,-131.224711,-69.824729,-74.798762,-55.70803,-41.126757,-61.486522,-62.248084,-45.673532,-32.963778,-50.094831,-54.00851,-42.525792,-31.764814,100.010039,9.927654,-88.947916,13.86415
45,-4.82293,-21.915086,3.458027,-19.091721,-22.686172,-36.326522,-37.035072,-34.421218,-20.983749,-21.637138,-22.503021,-22.098884,-5.622985,-15.940155,-20.721656,-19.131568,8.51017,-3.667373,-8.082481,-6.571723,22.364251,9.726769,3.900856,4.863122,-14.85295,-37.376369,-56.484423,-71.567789,-66.493393,-94.419665,-111.125612,-125.0556,-65.377057,-79.193903,-60.252131,-47.138023,-60.436122,-68.375052,-49.361353,-37.371874,-53.190743,-60.599316,-47.329715,-37.39345,21.755848,34.352703,35.003037,27.955593,10.139042,12.158192,13.865593,15.766251,-6.272289,7.553616,17.726704,21.494488,-19.469661,-2.406829,7.175492,10.656453,-30.337555,-15.173126,-4.423439,0.081894,-17.391034,-43.668632,-62.286288,-74.227058,-72.026594,-97.501783,-115.461087,-130.775764,-69.273465,-75.276617,-56.151212,-40.715665,-61.144122,-62.645398,-45.755765,-32.189749,-49.794328,-53.918076,-42.353194,-31.184995,95.677671,-8.937532,-84.999327,-2.177671
46,-5.16996,-10.957425,2.617184,-7.792877,-22.446624,-36.388023,-37.944145,-36.046875,-21.330665,-22.255462,-23.665878,-23.753379,-5.898971,-17.484169,-22.468689,-20.680572,8.571465,-5.038559,-9.49308,-7.755546,22.728539,8.361626,2.590348,4.066704,-14.096298,-36.499662,-55.449227,-70.756555,-65.689391,-93.258955,-110.365755,-124.391315,-64.854729,-79.658717,-61.291885,-47.828529,-60.107499,-68.963138,-49.952934,-37.266923,-52.838272,-60.444187,-47.089234,-36.843285,21.625042,33.746407,34.568058,27.723759,8.89571,10.963932,12.234684,13.935162,-7.466961,7.057446,17.851101,22.220158,-20.470974,-2.633285,7.113934,10.70081,-31.004219,-15.165184,-4.09481,0.665485,-17.718596,-44.019893,-62.413359,-74.492369,-72.264019,-97.790194,-115.942148,-131.365264,-69.458778,-76.510002,-57.432564,-41.611886,-61.061148,-63.210451,-46.192939,-32.460012,-49.196856,-53.88378,-42.252985,-30.882604,90.367029,-17.147401,-82.522825,-7.222992
47,-3.311965,1.495335,1.14917,-1.689887,-22.507027,-36.225815,-37.976899,-36.546731,-21.500977,-22.388009,-23.942849,-24.2631,-5.822732,-17.046914,-22.228547,-20.924286,8.836669,-4.612816,-8.997002,-7.384369,23.051055,8.899131,2.923187,4.080207,-13.709486,-35.865837,-54.340479,-69.224428,-66.205512,-94.45062,-111.600028,-125.605679,-65.197783,-80.158104,-61.395946,-47.725034,-60.121454,-68.944983,-49.786232,-37.036853,-52.485398,-59.931677,-46.588086,-36.486274,19.919849,31.094456,31.336452,23.951797,6.99955,8.205311,9.206303,10.058613,-9.650116,4.39761,14.721176,18.062874,-22.75185,-5.290432,4.200863,6.652084,-33.323021,-17.553955,-6.638031,-2.773281,-15.048174,-40.395483,-58.204117,-68.729332,-68.503937,-95.968939,-114.713932,-130.824701,-65.261516,-72.024674,-52.188428,-37.344834,-56.296257,-58.737412,-41.554977,-29.08248,-43.977445,-48.478575,-36.545826,-26.186781,86.632971,-14.274077,-81.795748,-7.53489
48,2.202117,8.835867,-6.928974,10.532984,-22.05693,-35.872741,-37.634834,-35.109352,-21.62075,-22.547309,-24.166076,-24.767509,-5.740379,-16.813636,-21.6977,-20.419509,8.890503,-4.453147,-8.796341,-7.082656,22.816475,8.723237,2.862397,4.287461,-11.025579,-32.695176,-50.754979,-64.692165,-63.85323,-93.322243,-111.099418,-125.756946,-62.283355,-76.050418,-56.365295,-43.351259,-56.703718,-64.900696,-45.548246,-33.574372,-48.76125,-54.909096,-41.235653,-31.821624,19.846035,30.779045,30.290005,21.470959,6.921581,7.355507,8.513374,9.139194,-10.122071,2.840915,12.932945,15.830074,-23.402252,-7.096894,2.676384,5.000644,-34.188046,-19.356663,-8.373928,-4.906586,-15.168458,-40.046822,-57.54566,-66.761785,-67.694649,-96.672172,-116.181152,-132.912464,-63.735422,-70.943511,-51.135973,-36.776143,-54.032864,-57.340018,-40.793946,-28.939967,-41.205389,-46.57129,-34.957563,-25.015147,88.364593,-4.97452,-89.195217,3.461784
49,10.491532,16.560979,-14.935673,15.378057,-21.216637,-35.840767,-37.639183,-32.726143,-22.207146,-22.90004,-24.062554,-24.692322,-6.607659,-16.71769,-20.498886,-19.311997,7.723366,-4.295357,-7.88443,-6.274109,21.280632,8.774277,3.558471,4.928833,-8.121828,-28.885701,-46.557786,-59.004748,-61.447625,-92.582399,-111.206805,-126.684608,-59.352601,-71.988137,-52.537702,-40.11718,-53.141608,-59.98871,-40.937751,-29.407004,-44.665111,-49.403961,-35.5827,-26.433431,19.903404,29.801353,27.338573,17.291004,6.744026,5.644547,6.545345,6.634838,-10.845852,1.582638,11.250973,13.075424,-24.215378,-8.213814,1.354202,2.639614,-34.949238,-20.267429,-9.475525,-7.117046,-15.895173,-41.291414,-58.565894,-66.040231,-67.508366,-97.53614,-117.658849,-134.864613,-62.598504,-69.292854,-49.507917,-36.575065,-52.158838,-54.940317,-39.108993,-29.060553,-38.930516,-43.17067,-31.733172,-23.262294,98.120945,11.232647,-104.86607,18.486029
50,20.556381,22.927304,-24.861477,17.057329,-21.858353,-36.063492,-36.139481,-28.599129,-24.011673,-23.936485,-24.491043,-24.51194,-8.312164,-15.864487,-18.673714,-17.587257,5.652123,-3.07695,-6.366394,-5.002785,18.438744,9.137993,3.961784,4.362579,-8.274685,-29.601845,-48.286358,-59.933295,-60.190825,-91.826555,-109.914968,-124.580203,-57.76467,-69.177387,-49.913772,-38.436136,-51.181082,-57.384874,-38.815049,-28.340166,-42.462924,-45.996857,-32.547413,-24.626435,18.892937,26.808231,21.583454,10.292507,5.379501,2.542214,2.867787,2.394161,-11.844658,-3.490116,6.414471,9.036884,-24.991745,-13.192943,-2.946384,-0.77679,-35.296429,-24.162414,-13.341522,-10.625839,-17.210624,-42.394739,-58.940793,-64.997737,-68.154418,-98.404802,-118.352279,-135.695715,-62.319115,-68.446577,-48.81953,-37.291031,-51.36285,-53.784164,-38.472897,-30.100232,-37.908529,-41.778989,-30.297056,-23.034719,117.21686,32.860346,-131.188013,34.243753
51,28.560288,22.544112,-29.026943,11.937268,-21.123368,-33.18599,-30.5682,-21.105401,-20.857499,-19.25631,-18.208855,-17.111779,-5.546998,-9.637894,-13.022782,-13.723183,7.651199,2.446907,-1.887543,-2.315484,19.245025,13.513183,7.654861,6.207527,-10.276862,-31.167217,-48.601748,-58.028715,-61.865459,-93.169763,-110.814128,-125.355819,-58.674939,-68.686471,-49.991423,-39.701847,-51.506729,-56.067682,-38.813987,-29.966901,-42.413079,-44.360168,-31.978334,-25.520371,14.189323,18.214439,11.50145,-0.021801,2.90078,-1.285572,-3.200604,-5.864513,-10.780186,-6.921558,-2.190262,-3.638306,-21.308498,-14.95903,-10.043358,-12.111328,-29.649777,-23.759949,-18.037594,-20.125969,-21.083764,-46.459812,-63.469216,-70.246787,-65.332812,-91.435829,-110.03409,-126.746042,-56.689422,-62.853959,-49.15368,-42.490742,-44.069348,-47.374206,-37.291345,-32.979283,-30.318384,-34.600225,-26.679988,-22.806983,143.987978,53.700143,-162.004126,44.476706
52,36.177589,12.897889,-37.962467,2.035998,-18.780624,-27.853409,-22.953117,-12.042,-16.392288,-12.913742,-10.371895,-7.799378,-1.716889,-2.368057,-7.279472,-9.910675,10.719726,8.677277,2.525345,0.091415,21.287773,18.734322,12.016777,8.921814,-12.372134,-33.389893,-50.104334,-59.051888,-63.324628,-93.593247,-110.553677,-124.341247,-59.142482,-67.149726,-49.712781,-41.1103,-51.077144,-53.428334,-37.487811,-30.367729,-41.316392,-41.68406,-30.096181,-24.838961,11.434467,11.962669,2.324581,-10.31583,-0.9608,-6.873734,-10.427239,-13.992462,-13.695683,-14.235558,-9.778782,-9.564377,-23.50787,-21.388207,-16.230332,-16.402897,-31.139511,-29.417473,-23.639042,-23.950608,-23.966774,-49.941683,-66.844704,-73.251581,-68.970696,-95.921522,-114.547305,-131.157634,-59.097559,-65.180542,-52.709997,-47.004902,-45.862148,-48.288958,-39.335951,-35.767852,-31.90608,-35.796146,-28.973022,-26.015486,178.73184,64.726452,-201.40032,44.641124
53,35.994598,6.948959,-38.33202,-9.186695,-10.900566,-15.366325,-8.555008,2.800438,-11.206398,-6.177292,-1.882393,2.256981,-0.163879,2.846649,1.264023,0.214966,9.746338,12.688225,9.974579,8.684784,18.695801,20.830353,17.404244,15.325493,-18.410577,-40.462896,-57.077209,-66.894728,-66.750633,-96.027423,-112.72145,-126.343597,-61.105978,-70.701832,-58.80685,-52.98181,-51.445905,-55.202818,-43.670737,-38.491533,-39.736575,-41.27434,-33.639883,-30.718008,8.910633,5.940445,-6.151657,-18.597668,-4.363415,-11.653404,-16.617691,-21.242649,-16.452198,-21.283527,-16.589974,-14.815968,-25.667725,-27.615189,-22.208279,-20.984585,-32.49868,-34.765217,-28.956162,-27.883415,-25.932765,-51.842633,-68.684508,-75.36008,-72.41322,-100.283994,-118.8981,-135.326158,-61.921794,-68.19324,-56.256491,-51.308973,-48.495538,-50.433173,-41.68745,-38.777697,-34.496812,-38.108495,-31.464015,-29.051649,213.397133,70.262925,-241.061645,34.041943
54,34.862755,-6.581828,-32.726578,-14.811751,-7.803841,-7.779487,2.408821,14.369728,-4.318039,3.259529,9.277199,14.896523,6.97554,14.44867,10.764656,7.443833,16.761933,23.602341,18.607224,15.02298,25.210716,31.053864,26.280968,22.213326,-23.305995,-46.81923,-63.960132,-74.792803,-73.830114,-103.707514,-120.689797,-134.378159,-66.887769,-76.364536,-63.348192,-57.581679,-56.207732,-60.62062,-48.601891,-43.606431,-43.80297,-46.737985,-39.55435,-36.917151,5.612847,-0.352878,-13.258209,-25.766842,-7.143871,-14.939438,-21.004955,-26.693676,-18.368477,-28.53392,-24.180988,-20.749557,-27.306404,-34.84901,-29.181244,-25.937828,-33.957664,-41.41832,-35.82843,-32.775329,-28.811087,-54.478683,-72.41083,-81.771964,-76.635021,-104.773245,-123.788269,-140.929112,-66.120025,-74.963691,-62.445839,-56.823247,-53.228713,-57.621019,-48.249345,-44.532532,-39.605596,-45.115999,-38.472945,-35.256558,247.160951,62.74787,-274.88716,18.296965
55,29.288544,-14.725744,-24.227966,-19.382849,-4.254273,-0.517845,11.502548,23.863563,2.128738,10.842659,18.337898,25.361458,13.29174,24.100227,19.319206,14.031372,22.931053,32.955231,26.735115,21.109588,31.115387,39.848511,34.899399,29.489433,-26.940612,-50.912974,-67.828827,-80.017703,-80.841546,-111.289403,-129.650675,-145.095048,-73.023074,-84.309289,-70.74344,-64.242511,-61.577666,-67.76544,-55.816371,-50.3131,-48.485053,-53.605768,-47.168503,-43.994291,3.443401,-4.525463,-17.087643,-28.526505,-8.628891,-16.358963,-22.745602,-28.927872,-19.654724,-32.064388,-28.227631,-24.458805,-28.387905,-38.415367,-33.093716,-29.3932,-34.992714,-44.829289,-39.899185,-36.260193,-31.83033,-57.862532,-77.249061,-89.490241,-80.899187,-109.293085,-129.340427,-147.932133,-70.627663,-83.374566,-70.439411,-64.065972,-58.221431,-65.605762,-55.767038,-51.287848,-44.877414,-52.527469,-46.146941,-41.74891,276.180456,47.587752,-299.384165,-1.520258
56,22.849228,-18.779702,-19.409924,-20.407745,-2.094452,4.046058,16.666282,28.739044,4.000351,12.658584,20.559059,28.379402,15.329818,28.639297,24.174797,18.490448,25.090484,37.667999,31.43415,25.358482,33.470443,44.356018,39.715851,33.798958,-30.511361,-55.32288,-73.884634,-89.112607,-85.113712,-115.375532,-134.499789,-150.527526,-77.297845,-91.565561,-77.521449,-70.024072,-65.815288,-74.743378,-61.992993,-55.777301,-52.615538,-60.493526,-54.112553,-50.208655,4.877266,-2.74815,-16.047683,-27.588936,-8.690368,-16.506271,-21.214222,-25.930343,-22.510723,-36.989227,-28.231006,-19.410244,-33.589554,-44.926197,-33.527286,-24.218742,-42.214622,-52.759277,-42.894539,-33.378982,-31.183872,-56.965268,-77.062767,-90.179518,-87.19014,-120.066309,-141.730509,-161.497362,-78.94524,-94.516666,-75.701856,-65.253427,-68.114935,-77.049342,-62.042634,-54.187611,-55.177908,-64.24763,-54.600844,-47.006816,299.228073,28.568646,-318.5957,-22.167407
57,14.569084,-16.614801,-7.603958,-14.94071,-1.742249,5.287056,18.618828,30.64135,4.417992,12.956039,20.94564,28.918304,16.146698,31.215706,27.218353,21.217003,26.15007,40.837463,34.620369,28.119072,34.807732,47.45636,43.085426,36.818779,-32.639903,-58.161583,-78.172094,-95.210021,-88.067301,-118.525899,-137.963981,-154.34178,-80.253768,-97.818198,-82.53284,-73.497545,-69.073492,-81.307836,-67.38749,-59.956081,-55.888069,-66.653697,-60.305767,-55.412671,4.890633,-2.48941,-15.516266,-26.923714,-7.731617,-14.440121,-18.3941,-22.871418,-21.782341,-36.953075,-27.894218,-18.775142,-33.073288,-45.224224,-33.461689,-23.978142,-42.043258,-53.025295,-43.118145,-33.727981,-31.341681,-56.765931,-78.175978,-93.914513,-87.733738,-120.852803,-142.707076,-162.426626,-79.933151,-96.598164,-76.788224,-65.751017,-69.571058,-79.277365,-62.947647,-54.404836,-56.868313,-66.561992,-56.019338,-47.699939,313.971651,11.949057,-326.025164,-37.112905
58,9.163673,-15.299406,-1.786823,-6.524141,-6.084251,0.479233,15.173951,28.09726,5.56263,14.712044,22.449646,29.960106,20.440316,37.345711,28.639595,18.422745,32.312027,47.260781,35.720101,25.632225,41.825638,54.858399,46.183571,36.78843,-31.283703,-57.236036,-77.854067,-94.804221,-90.383917,-121.407623,-140.494497,-156.429938,-82.479741,-99.00801,-78.148869,-66.362408,-71.623654,-82.820233,-64.512304,-55.427682,-59.32107,-70.606322,-60.769346,-53.579832,4.943722,-1.98167,-14.361855,-25.640717,-7.145771,-13.349613,-17.114788,-21.208019,-21.025005,-37.171372,-28.134773,-18.755493,-32.286026,-45.279202,-33.122303,-23.462128,-41.355251,-52.432423,-42.52668,-33.226032,-31.261665,-57.352084,-79.594842,-96.643063,-87.369645,-120.291124,-142.000383,-161.608541,-79.391304,-96.397358,-75.642019,-63.876275,-68.90534,-79.050086,-61.660985,-52.611376,-56.374606,-66.059158,-54.92312,-46.392905,323.214781,-3.298955,-327.73253,-43.585652
59,2.459313,-5.509118,0.745262,-1.924186,-6.013573,1.002044,16.088951,29.653084,5.323059,14.198044,21.730774,29.116607,19.83847,36.751121,28.194328,18.050354,31.38034,46.315727,34.682991,24.840889,40.761635,53.841476,45.161613,35.958732,-29.861573,-56.006376,-76.486098,-93.572752,-88.01766,-118.654093,-137.527486,-153.214144,-79.852694,-96.630404,-75.746779,-63.764982,-68.837099,-79.829037,-61.355321,-52.300956,-56.626912,-67.970006,-58.002557,-50.82703,5.204647,-1.305359,-13.681778,-24.589817,-7.431953,-13.28754,-16.700581,-19.892166,-20.862831,-36.825771,-27.109371,-17.25111,-31.548225,-44.119617,-31.298801,-21.550346,-40.04314,-50.547203,-40.503319,-31.582981,-29.296896,-54.780828,-75.737634,-90.513309,-83.833409,-117.442266,-137.917257,-155.847005,-75.177381,-89.757348,-69.524684,-58.120883,-63.615386,-71.370404,-54.158557,-45.163751,-50.730452,-59.168417,-48.329269,-40.352468,325.716414,-8.739934,-326.944948,-45.441699
60,-1.613549,-0.406744,6.182041,9.910972,-6.433021,0.255661,15.454537,29.656495,6.03518,15.396744,22.62259,29.468354,20.362519,36.457352,27.239411,17.334206,31.638291,45.288666,32.947358,23.503853,41.009308,53.014298,43.481781,34.584435,-26.775664,-51.835642,-70.681467,-86.177794,-83.625316,-114.520051,-132.434747,-146.724953,-74.863983,-89.404821,-68.344973,-56.862305,-63.05844,-71.820842,-52.933336,-44.257027,-50.343178,-60.24167,-49.757031,-43.029379,5.600252,-0.690227,-13.590957,-25.203129,-9.065357,-15.251478,-18.896805,-21.736421,-22.319561,-36.428632,-26.238361,-16.537857,-32.605127,-42.882156,-29.675789,-20.310917,-40.560699,-49.166553,-38.579212,-30.136505,-27.75489,-52.754785,-71.983746,-83.969581,-81.208112,-115.669911,-134.998922,-150.95921,-71.667108,-83.112208,-63.678902,-52.81949,-58.88272,-64.010005,-47.492072,-38.78406,-45.372282,-52.240333,-41.830097,-34.779586,324.338699,-9.151698,-320.527073,-35.535747
61,-4.200508,4.352966,11.146717,21.805546,-7.375831,-1.299568,13.905831,27.977166,6.060402,16.234154,23.422669,29.925064,20.373207,35.394356,25.685715,15.894493,31.265213,43.568505,30.891472,21.550965,40.575646,51.238564,41.369591,32.606438,-23.171163,-46.470526,-62.958059,-76.598361,-76.598033,-106.961906,-123.695177,-136.323921,-67.226599,-78.315991,-58.597158,-47.988005,-54.447129,-59.581608,-41.558237,-33.111312,-41.269573,-47.914948,-37.971866,-31.858013,5.931433,-0.623577,-14.487751,-26.866207,-12.056797,-19.109384,-23.645404,-26.973455,-25.487343,-37.192526,-26.673294,-17.136211,-35.362261,-42.757999,-29.579841,-20.464096,-42.486042,-48.789562,-37.683552,-29.455719,-27.390791,-52.33671,-69.61776,-78.665998,-80.509887,-115.579614,-134.386009,-149.459832,-70.219086,-79.422938,-60.923759,-50.710639,-56.420644,-59.399052,-43.966092,-35.87945,-42.282322,-47.432977,-37.560796,-31.483707,320.65444,-5.292171,-308.864107,-14.22364
62,-11.747085,14.475528,15.515499,28.103267,-7.658696,-1.409248,14.139107,28.428554,7.35688,18.594646,26.266182,32.984596,21.366062,35.777309,25.441669,15.686302,31.749813,43.146126,30.004577,20.812237,40.678608,50.380703,40.029556,31.373726,-21.40369,-43.761248,-58.467723,-70.413584,-72.98932,-103.023958,-119.316604,-131.296285,-63.086879,-71.99474,-53.689223,-44.146351,-49.454293,-52.184408,-35.143169,-27.283011,-35.837373,-40.145168,-30.515738,-25.176356,6.529616,-0.098854,-14.678638,-27.626106,-13.821533,-22.418283,-27.889423,-31.921262,-27.498871,-37.888143,-26.83937,-17.209533,-37.284032,-42.944744,-29.563327,-20.546779,-44.053608,-49.531196,-38.090309,-29.802955,-26.160556,-51.063206,-66.638766,-72.909276,-79.024719,-113.738806,-132.325833,-147.445435,-68.394728,-75.826813,-58.564862,-48.998955,-54.186131,-55.515815,-41.406933,-34.042739,-39.833233,-43.587717,-34.473967,-29.153388,309.421818,8.250065,-292.834145,12.946335
63,-17.963104,21.87567,20.372841,28.700869,-7.752354,-1.082909,15.012382,29.689373,9.198326,22.005489,30.547599,38.249679,22.788196,36.940029,25.482295,15.58049,32.810817,43.815261,29.802497,20.339,41.309497,50.741214,39.777809,30.887168,-21.035015,-42.862279,-56.302272,-66.57064,-72.203991,-102.515172,-118.87569,-130.7462,-61.809893,-69.715119,-51.901437,-42.739417,-47.76172,-49.613201,-33.174893,-25.654702,-33.677875,-37.048447,-27.679949,-22.832965,6.875479,-0.095638,-15.375743,-28.803588,-14.600109,-24.420198,-30.525592,-35.361711,-28.360851,-37.297342,-25.715629,-16.074897,-38.22991,-42.188255,-28.642215,-19.574524,-44.978061,-49.400574,-37.529388,-29.133579,-24.881933,-48.776008,-62.574366,-66.520359,-76.457952,-110.365035,-128.793931,-144.066758,-65.829826,-70.719221,-54.256129,-45.869308,-51.682158,-50.868646,-38.053713,-31.852755,-37.371738,-39.383298,-30.803337,-26.415529,292.07547,28.759893,-271.844548,40.281362
64,-20.83928,20.237969,25.695477,27.465509,-6.756603,-0.240028,15.374886,28.697491,10.188332,24.154118,32.824746,40.534058,23.18945,37.149159,25.355908,15.695916,32.612263,44.451714,30.030876,20.312794,40.792798,50.624279,39.307938,30.217278,-21.150532,-41.887283,-53.353251,-61.407008,-71.185418,-100.446774,-117.131003,-129.236335,-60.818743,-65.393337,-48.795904,-40.79139,-46.426757,-45.421238,-30.407876,-24.235079,-31.86542,-33.010433,-24.736925,-21.412817,8.277242,1.893425,-13.781628,-28.118443,-14.442833,-24.945334,-31.654003,-37.522871,-28.677063,-35.986021,-23.904442,-14.207852,-38.935679,-41.165325,-27.377129,-18.123997,-46.087681,-49.451374,-36.889126,-28.138207,-23.728331,-47.808743,-61.227071,-64.837932,-74.370171,-106.99773,-126.310222,-142.441407,-63.773247,-68.490889,-52.470165,-44.063473,-49.966627,-49.617564,-37.282895,-31.166868,-35.593536,-37.982323,-29.136293,-24.590891,271.765525,47.223396,-245.619736,65.972405
65,-25.960922,16.367373,26.671795,18.416968,-7.505527,-1.927162,13.899788,27.151715,9.994972,24.332096,33.227509,40.946686,22.975399,35.581593,23.690151,14.489205,32.325977,42.841232,28.639549,19.527935,40.19759,48.698719,37.172356,28.634171,-21.258027,-42.215129,-53.416224,-59.703117,-70.74318,-99.558451,-116.836016,-130.11416,-60.705469,-64.294723,-48.296541,-41.220932,-46.773103,-45.104452,-31.062202,-25.752892,-32.395683,-32.304107,-24.256655,-21.376489,9.7878,5.036751,-10.134407,-24.810906,-12.707588,-22.264057,-28.185803,-33.829766,-27.234112,-32.70393,-20.510971,-11.49646,-37.786423,-38.133339,-24.4716,-15.91753,-45.279179,-46.565895,-33.811695,-25.644757,-21.808177,-45.955435,-59.204177,-62.655525,-70.433366,-100.651245,-120.070249,-136.837511,-60.300648,-65.639533,-50.414364,-42.105704,-46.913066,-47.65869,-36.022795,-30.035956,-32.605582,-35.523882,-26.904333,-22.389427,246.006529,61.63547,-218.746015,82.434074
66,-27.688545,13.765853,26.421592,7.043252,-7.854778,-3.432793,10.874428,22.944889,9.020645,22.423084,30.65078,37.760307,21.431911,32.468502,20.756321,12.097618,30.519802,40.271095,26.131943,17.359325,38.272282,46.127209,34.184692,25.9338,-23.213855,-45.68512,-58.399008,-65.826597,-74.277255,-103.017024,-121.186444,-136.021786,-64.420016,-67.712967,-51.400117,-45.213745,-51.022093,-49.7987,-36.385557,-32.715091,-36.93416,-36.456243,-28.37513,-26.738926,11.856492,10.097718,-3.317882,-17.66336,-8.800232,-17.440258,-22.131248,-26.986026,-23.383277,-27.898807,-15.923927,-7.953163,-34.090061,-33.634288,-20.308857,-12.796073,-41.793651,-41.956501,-29.827011,-22.83102,-19.175528,-43.026248,-56.392415,-59.505081,-65.502954,-94.088417,-113.517938,-130.702132,-56.12787,-61.462581,-46.191488,-37.958071,-43.110217,-44.468448,-32.986903,-27.173862,-28.906442,-31.972937,-23.569607,-19.347151,218.988321,73.958737,-191.654086,88.03474
67,-27.94027,0.713035,23.142037,0.529781,-10.033607,-8.641502,3.892182,16.092865,5.320885,16.971131,23.87098,29.954979,17.926987,25.582467,14.981118,8.237366,27.377175,33.852883,20.952713,14.194474,35.526604,39.994584,28.706475,22.349465,-21.820286,-45.172421,-59.278611,-66.486916,-73.91391,-103.226701,-121.782736,-137.391555,-64.902048,-69.356241,-52.580093,-46.373195,-52.484183,-52.302377,-38.657827,-35.242436,-38.967129,-38.520241,-29.843697,-28.323772,14.334572,15.000961,5.267944,-6.608826,-5.809971,-10.481426,-12.437325,-15.321877,-19.965649,-18.821777,-6.518635,0.191059,-29.746216,-24.418579,-11.465286,-5.277123,-36.413807,-32.295399,-20.303444,-14.245834,-19.248653,-42.508458,-56.506344,-61.298874,-63.815697,-90.523695,-109.517955,-126.196161,-55.538796,-61.918922,-47.573808,-38.285088,-43.067664,-45.890689,-34.677129,-27.788315,-29.117388,-33.301083,-25.107828,-19.787962,192.310329,74.181388,-167.249771,88.074137
68,-23.427612,-8.418656,24.241642,-8.211217,-13.755638,-16.33271,-7.452782,2.654366,-1.022713,6.508095,10.895668,15.104988,12.810127,14.380623,5.566681,1.413803,23.117272,24.231949,13.19458,8.715317,32.119469,31.943047,21.238609,16.3648,-20.213516,-43.317766,-58.452138,-67.065542,-72.159445,-101.602702,-120.834664,-136.713924,-65.007006,-70.871788,-54.402113,-47.579533,-53.709144,-54.73091,-40.872518,-36.838678,-40.960043,-40.34386,-31.607418,-29.891004,15.895408,19.519581,12.558494,1.92746,-2.782231,-5.793823,-6.279671,-7.91795,-17.469498,-13.450516,-2.084496,2.939232,-27.557785,-19.697251,-7.950142,-3.2677,-34.606213,-27.915516,-16.767437,-11.962589,-17.994855,-41.689186,-56.786186,-62.961826,-63.116529,-89.941655,-109.498912,-126.47126,-56.026921,-64.118633,-49.411853,-38.834588,-44.164642,-48.637725,-36.798034,-28.653655,-30.276456,-35.738533,-27.083799,-20.522472,170.552605,66.660367,-141.338241,80.760555
69,-26.41301,-15.060833,19.587845,-11.31874,-17.335052,-23.535003,-16.71492,-6.215469,-6.415924,-1.564086,1.507073,4.88704,8.434914,6.449135,-1.180915,-3.644439,20.008942,16.723549,7.343789,4.892167,30.089333,25.717873,15.834504,12.724274,-17.296729,-41.105101,-58.108225,-67.626483,-68.870303,-99.819677,-119.835808,-136.674923,-62.663065,-71.989347,-54.220981,-45.808673,-52.65281,-57.275965,-42.115245,-36.380354,-40.879495,-42.123791,-31.979168,-28.547117,17.357803,23.185569,19.352428,10.622669,-0.899643,-1.266495,0.152881,-0.073242,-15.761479,-7.957054,3.825405,7.99879,-25.705593,-14.550007,-2.985741,0.666103,-32.427441,-22.556992,-11.300663,-6.988953,-18.811145,-42.308961,-58.338881,-65.774538,-65.516514,-91.881056,-111.111024,-128.043542,-59.366926,-68.437345,-54.204783,-42.828468,-47.854346,-52.756588,-40.946636,-32.179263,-33.882784,-39.840575,-31.538306,-24.434675,146.02042,53.211679,-119.869571,71.05396
70,-21.618415,-14.002487,16.005649,-14.029872,-19.162537,-27.821869,-24.435265,-16.848038,-11.35817,-9.283219,-7.982186,-5.88041,4.119049,-1.405815,-8.152588,-9.346665,16.630027,9.965126,1.572967,-0.099289,27.866661,20.401062,10.981842,8.489776,-16.362735,-40.112283,-58.152678,-70.122279,-68.12692,-99.261064,-119.730646,-136.586742,-62.757944,-74.505774,-56.775323,-46.55847,-53.54033,-60.17685,-44.407839,-36.986915,-42.416148,-45.474392,-34.850981,-30.099954,18.661743,25.850762,24.322277,17.090412,0.272312,1.275856,3.405865,3.926056,-14.636661,-3.554168,8.886566,12.856499,-24.46035,-10.60334,1.027668,4.293961,-30.948852,-19.077415,-7.657139,-3.351196,-19.737291,-43.4746,-60.440594,-69.140628,-68.997144,-95.762922,-114.895608,-131.528576,-63.583609,-72.274226,-57.285438,-44.57858,-52.366264,-56.648019,-43.674387,-33.6905,-38.267824,-44.294114,-35.559605,-27.447725,126.316321,41.19394,-101.949606,59.008836
71,-20.509941,-13.739719,13.248699,-13.930795,-20.954087,-31.832245,-30.055504,-23.435738,-14.934426,-14.579682,-14.507515,-13.313828,1.414947,-7.496087,-13.533646,-13.087555,15.067176,4.391349,-2.753792,-2.884324,27.119957,16.207786,7.545867,6.557441,-13.517277,-36.958987,-55.245809,-67.023404,-66.768572,-99.123948,-119.785191,-136.601502,-62.293408,-76.841095,-58.096381,-45.740321,-53.996549,-62.957466,-45.556762,-35.686817,-43.419766,-49.304728,-37.481759,-30.430875,19.295426,26.734074,26.515343,20.163723,0.410981,2.981816,5.376881,6.153695,-14.997722,-0.013652,13.058213,17.189702,-24.983814,-7.482101,4.270638,7.461022,-31.495697,-16.845748,-4.789524,-0.065666,-19.854461,-44.03943,-61.759193,-72.192524,-71.724208,-98.977228,-118.317642,-134.909824,-66.707976,-75.152283,-59.643728,-45.53413,-55.73284,-59.416061,-45.360253,-34.115731,-41.561985,-47.853123,-38.487716,-29.214311,106.972636,29.605149,-87.534651,47.228969
72,-14.259705,-8.495733,12.214177,-13.48918,-21.568108,-33.2864,-32.639992,-27.715256,-17.686478,-18.174294,-18.64531,-18.092972,-0.640411,-11.14785,-16.792511,-15.985176,13.82975,1.444633,-4.920708,-4.93,26.66803,14.375313,6.01078,5.062065,-12.421577,-36.159683,-54.761217,-67.86584,-67.319145,-100.128478,-121.378172,-138.585987,-63.525971,-77.967676,-58.544417,-45.048161,-55.649224,-64.323064,-45.952347,-34.901345,-45.463327,-51.598404,-39.013194,-30.977984,19.143333,27.374141,26.433643,18.382118,0.622535,1.825023,2.953903,2.945308,-15.810952,-0.847161,11.603805,15.745697,-26.9973,-8.926896,2.46714,5.849796,-34.908646,-19.505425,-7.211552,-2.119744,-18.498947,-43.943025,-62.0649,-71.646786,-72.83918,-101.635929,-121.735398,-138.939661,-67.832784,-74.608545,-56.974406,-42.355941,-56.777009,-58.692889,-43.453085,-31.930267,-42.26878,-46.984795,-37.042139,-28.113881,93.310272,23.08186,-74.723133,35.712233
73,-12.152298,-6.644363,5.784095,-7.490071,-20.810326,-32.811928,-32.139404,-27.194023,-18.431305,-17.887093,-18.196724,-17.849648,-1.44635,-11.571281,-17.000679,-16.174324,13.316757,0.710838,-5.00528,-4.789879,26.599503,13.509659,5.776772,5.253342,-10.55966,-34.836668,-53.469225,-66.472534,-67.026238,-100.734355,-121.940644,-139.651978,-63.286806,-76.43905,-56.261041,-42.465684,-55.727265,-62.622698,-43.494841,-31.748036,-45.942554,-51.18559,-37.673747,-28.856066,19.118569,27.465969,26.954144,18.723793,-0.52684,1.628598,2.769459,2.791546,-16.852638,0.25351,13.434494,18.247845,-27.821605,-7.67411,4.161576,8.020237,-35.545051,-18.847366,-5.764377,0.196587,-18.737551,-44.651507,-63.044028,-72.124593,-73.060667,-101.500888,-121.230607,-137.971422,-67.885266,-74.466706,-57.082192,-42.222054,-56.69122,-58.292964,-43.230235,-31.224368,-42.063164,-46.866371,-37.515278,-28.432138,81.346939,17.581096,-68.750073,29.365761
74,-5.002831,0.299063,3.762406,-5.021328,-21.321258,-33.717063,-33.939697,-29.9328,-19.386589,-18.942947,-19.57299,-19.666397,-2.011322,-13.836708,-19.240173,-18.174453,12.963364,-1.456466,-6.763938,-6.304115,26.369088,11.740838,4.04741,3.521279,-10.864336,-35.583236,-54.477047,-68.531502,-69.656589,-103.801584,-124.718869,-142.288918,-66.341302,-78.83509,-58.644693,-44.766226,-58.917031,-64.339106,-44.93638,-32.767936,-49.168444,-53.479605,-39.545198,-30.280061,18.901611,27.596969,26.794681,17.722137,-0.651913,0.778816,1.314091,0.964668,-17.41642,0.871513,13.291878,17.655922,-28.710205,-7.375122,3.80595,7.348869,-36.948773,-19.425259,-6.508198,-0.764626,-17.0561,-43.469776,-61.738636,-69.771636,-71.856941,-101.77459,-122.129291,-139.052708,-66.712996,-72.402747,-53.829594,-38.984702,-55.502851,-56.505992,-41.024349,-29.04811,-40.940208,-45.007751,-35.407278,-26.466158,76.384214,18.877054,-64.947561,25.341328
75,-2.707077,0.994423,1.522911,-1.942106,-21.452796,-34.142372,-34.193092,-29.438758,-19.643096,-18.665977,-19.119255,-19.195564,-2.232078,-14.085113,-19.327835,-18.045089,12.741875,-2.16188,-6.996482,-5.975509,26.228348,10.939064,3.662545,3.557396,-10.275738,-35.652551,-54.979615,-69.380472,-70.843667,-106.095415,-127.125839,-145.098648,-67.579633,-79.012024,-58.0145,-44.129457,-60.224115,-64.083917,-43.931367,-31.55246,-50.551814,-53.681764,-38.955785,-29.402595,18.701225,27.780441,26.705452,16.462063,-0.577149,0.218971,0.343929,-0.588192,-18.023873,1.3824,12.981628,16.858875,-29.713005,-6.9669,3.553173,6.822716,-38.380039,-19.849514,-7.064976,-1.417488,-15.582247,-42.219362,-60.55443,-67.543459,-70.915513,-102.4132,-123.468479,-140.707378,-65.616426,-70.158051,-50.748248,-36.220173,-54.279723,-54.295853,-38.831833,-27.285667,-39.788606,-42.685355,-32.815867,-24.219857,73.741304,20.788323,-63.360483,24.316068
76,-0.457763,1.837427,-0.154575,0.64155,-21.633614,-34.447037,-34.472924,-29.315163,-19.716706,-18.1287,-18.144997,-17.959259,-2.271218,-13.878639,-19.259972,-18.255593,12.673874,-2.401154,-7.030655,-5.835823,26.223358,10.552345,3.441856,3.260834,-10.073821,-35.701156,-55.327783,-70.177096,-71.81505,-107.723168,-128.89216,-147.172703,-68.566571,-79.226594,-57.980124,-44.136706,-61.17091,-63.60432,-43.243258,-30.811851,-51.454791,-53.181363,-38.126514,-28.496364,18.472858,27.749267,26.39138,15.497921,-0.689633,-0.299241,-0.186722,-1.297429,-18.265194,1.457679,12.645481,16.282299,-30.120747,-6.905663,3.307868,6.480159,-39.100045,-20.163128,-7.359284,-1.66269,-15.414731,-42.204702,-60.544445,-66.555835,-70.914439,-102.920665,-123.996087,-141.1458,-65.541961,-69.325526,-49.519928,-35.277047,-54.224253,-53.594609,-38.183281,-26.800766,-39.843601,-41.731997,-31.76674,-23.41943,73.32161,23.369858,-63.476989,25.701726
77,0.583145,1.873297,-0.412571,1.445466,-21.684036,-34.556717,-34.995873,-30.1707,-19.337151,-17.665215,-17.656242,-17.439903,-1.991844,-13.898758,-19.415909,-18.361611,12.764076,-2.72374,-7.292633,-5.824928,26.11615,10.141823,3.054771,2.93193,-10.576604,-35.741231,-55.223517,-70.408604,-72.552875,-108.822016,-129.934667,-148.366708,-69.269438,-79.944288,-58.808752,-45.064987,-61.949001,-63.981602,-43.701291,-31.18883,-52.258305,-53.673409,-38.618306,-28.818967,18.254161,27.409458,25.884075,14.883682,-1.109654,-0.925747,-0.77401,-1.893048,-18.735775,1.16439,12.211727,15.722408,-30.644406,-7.380433,2.742256,5.877914,-39.652623,-20.547066,-7.729763,-1.997956,-15.481193,-42.359504,-60.402518,-65.806154,-71.404935,-103.463248,-124.256865,-141.148697,-65.903874,-69.268309,-49.254734,-35.078365,-54.490984,-53.46581,-38.040613,-26.735631,-40.076468,-41.473083,-31.355698,-23.012872,73.882982,25.630672,-63.911333,27.534709
78,1.16114,1.176734,-0.677468,1.530521,-22.110717,-35.043136,-35.38536,-30.6931,-19.744835,-17.949234,-17.827102,-17.540107,-2.382225,-14.310539,-19.7994,-18.621139,12.327919,-3.339431,-7.774521,-6.086563,25.630852,9.437348,2.481995,2.607857,-11.030741,-35.996254,-55.59873,-71.031381,-73.148358,-109.465196,-130.667305,-149.136513,-69.909135,-80.61549,-59.475168,-45.713891,-62.72295,-64.489765,-44.182969,-31.829151,-53.111887,-54.305992,-39.081317,-29.34327,18.826985,27.955284,25.761395,14.25824,-0.629951,-0.698284,-0.656925,-2.179699,-18.717293,1.921578,12.629505,15.733876,-30.833015,-6.980095,2.878899,5.700588,-40.018307,-20.25317,-7.340091,-1.657951,-16.417582,-43.536696,-61.346824,-66.22171,-73.772056,-106.563161,-127.410496,-144.386394,-68.139604,-70.281707,-49.603735,-35.105807,-56.512773,-54.349255,-38.576322,-27.189435,-41.743569,-42.088204,-31.593462,-23.351845,74.923902,27.060913,-64.709021,29.318737
79,0.90429,0.315168,-0.082145,-0.338275,-22.334999,-35.144097,-35.186509,-30.861649,-19.788277,-18.015427,-17.821312,-17.546585,-2.414681,-14.314888,-19.821671,-18.661927,12.262184,-3.612099,-7.893677,-6.06942,25.53479,9.093109,2.359405,2.708633,-11.375364,-36.170013,-55.750075,-71.339448,-73.522621,-109.771435,-131.049787,-149.528987,-70.362013,-81.158393,-60.168323,-46.27377,-63.34506,-64.6748,-44.304055,-32.0048,-53.843784,-54.465858,-39.127457,-29.508231,18.794803,27.843349,25.547252,14.323459,-0.722088,-0.693432,-0.760437,-2.301705,-18.813092,1.691997,12.516391,15.784332,-30.965767,-7.033608,2.889083,5.800884,-40.124657,-20.207257,-7.387196,-1.792958,-16.306425,-43.476773,-61.318931,-66.27915,-73.697011,-106.11854,-126.928892,-143.97069,-68.158184,-70.275038,-49.356419,-34.594131,-56.570281,-54.181769,-38.150763,-26.617608,-41.799866,-41.972934,-31.288508,-22.861003,75.705986,27.471637,-64.913372,29.076018
80,0.809349,-0.386588,0.231056,-0.999202,-22.413437,-35.182595,-35.281334,-31.04274,-19.626046,-18.085076,-17.928589,-17.672722,-2.31926,-14.443039,-19.976281,-18.744736,12.263946,-3.898522,-8.149979,-6.234879,25.455848,8.897781,2.311775,2.837471,-11.639533,-36.299461,-55.795598,-71.129589,-73.780522,-109.864048,-131.263042,-149.709311,-70.550364,-81.629333,-60.686743,-46.680255,-63.56643,-64.961952,-44.673725,-32.540479,-54.037884,-54.639871,-39.32972,-29.874152,18.528225,27.241424,24.927692,14.572368,-1.193745,-0.970539,-1.157822,-2.60043,-18.925347,0.828392,12.015186,15.813698,-30.972725,-7.788826,2.489662,5.852222,-40.111119,-20.835366,-7.987816,-2.238865,-16.12239,-43.108271,-60.603596,-65.959715,-72.646519,-104.416945,-125.07717,-142.138945,-67.182027,-69.86864,-49.117321,-34.182113,-55.751545,-53.896031,-37.826215,-26.052653,-41.083012,-41.892511,-31.427174,-22.869907,76.421368,27.139843,-64.776283,28.13161
81,-0.242592,-1.642796,-0.106785,-1.412868,-21.477928,-34.104561,-34.381668,-30.506355,-18.114075,-17.071083,-17.054009,-16.935768,-0.961876,-12.956406,-18.804497,-17.822205,13.53772,-2.703827,-7.382675,-5.601357,26.494262,10.010101,3.422195,4.218155,-11.311891,-35.961081,-55.437506,-70.559207,-72.329869,-107.68934,-129.138223,-147.522191,-69.14251,-81.069176,-60.556745,-46.27779,-62.162756,-64.13591,-44.054627,-31.837351,-52.65189,-53.786084,-38.670658,-29.195872,18.545952,27.227692,25.059036,15.046577,-1.07555,-1.033356,-1.442494,-2.880501,-18.817085,0.684082,12.010425,16.005627,-30.808308,-7.890884,2.55558,6.045662,-39.935909,-20.901695,-8.075295,-2.473194,-15.513099,-42.303348,-59.632583,-65.229776,-71.540143,-103.245836,-124.064803,-141.215356,-66.051915,-69.199444,-48.503621,-33.519655,-54.570926,-53.072349,-36.975887,-25.257234,-39.841563,-41.116999,-30.728981,-22.194333,76.096293,25.524097,-64.965551,26.745792
82,-0.074112,-1.596402,-0.224007,-1.440026,-20.495728,-32.913483,-33.396309,-30.014717,-16.905373,-16.457749,-16.526322,-16.439621,0.001213,-11.674782,-17.604927,-16.821579,14.476593,-1.627487,-6.551102,-4.93911,27.405601,11.118255,4.509155,5.429008,-10.767759,-35.406982,-54.973403,-70.005485,-70.462259,-104.878203,-126.293839,-144.565582,-67.465752,-80.121351,-60.089116,-45.599419,-60.597019,-63.193989,-43.369223,-31.113532,-51.225734,-52.872061,-38.023304,-28.561412,18.351128,26.980259,24.94146,15.320744,-1.352176,-1.227024,-1.727955,-3.029079,-18.766124,0.025154,11.806309,16.281269,-30.614891,-8.279171,2.485691,6.302124,-39.616218,-20.993602,-8.20047,-2.613842,-14.86254,-41.509423,-58.830037,-64.724756,-69.993067,-101.235725,-122.317791,-139.886684,-64.530829,-68.95285,-48.589497,-33.422472,-53.089459,-52.619199,-36.589601,-24.671926,-38.425311,-40.711182,-30.644037,-21.87801,75.960262,23.944914,-65.251477,25.322985
83,-0.08178,-1.749852,-0.125896,-1.339607,-19.834671,-32.316215,-32.981369,-29.782035,-16.078971,-15.92324,-16.121269,-16.14125,0.790421,-10.738586,-16.760376,-16.177139,15.334511,-0.602325,-5.70639,-4.384277,28.244225,12.107186,5.418183,6.395874,-9.722053,-34.409633,-54.068192,-68.946244,-68.767433,-102.772156,-124.304488,-142.552889,-65.761645,-78.854702,-58.65668,-43.943736,-58.812173,-62.080938,-42.197916,-29.969501,-49.347509,-51.622023,-36.73374,-27.270168,17.9897,26.452961,24.516586,15.35622,-2.047096,-1.918602,-2.479008,-3.539761,-19.160763,-0.726139,11.382923,16.176063,-30.825863,-8.615353,2.282089,6.239628,-39.62574,-21.091026,-8.436093,-3.041016,-14.103164,-40.392605,-57.531,-63.796413,-68.180217,-98.91021,-120.221926,-138.123161,-62.753887,-68.255688,-48.141294,-32.875283,-51.366012,-51.755218,-35.787433,-23.797639,-36.828594,-39.971239,-30.188646,-21.199484,75.837627,22.204368,-65.418228,23.992684
84,-0.253212,-1.192988,-0.433903,0.436606,-18.905983,-31.532753,-32.605476,-29.525459,-14.902404,-15.229408,-15.524849,-15.57772,1.937119,-9.915275,-15.883598,-15.312469,16.470887,0.330094,-4.882118,-3.733039,29.22638,13.149285,6.256531,7.148621,-8.9345,-33.347945,-52.951373,-67.708079,-67.112416,-100.707067,-122.414541,-140.632765,-64.266704,-77.157707,-56.92203,-42.001105,-57.282621,-60.673515,-41.004521,-28.690976,-47.696765,-50.343085,-35.741459,-26.285291,18.074055,26.513455,24.327656,14.997986,-2.285831,-2.243374,-2.733696,-3.693638,-19.290539,-1.357922,10.830162,15.704968,-30.939228,-9.164772,1.781101,5.835743,-39.774444,-21.48167,-8.77129,-3.272392,-14.41953,-40.807062,-57.834244,-64.106758,-68.521048,-99.127806,-120.43281,-138.393837,-62.97118,-68.608394,-48.658194,-33.334163,-51.549466,-52.009679,-36.171915,-24.134117,-36.980043,-40.15339,-30.564329,-21.631033,75.551496,21.016922,-65.88505,24.434832
85,-0.52391,-0.168683,-0.556354,1.004599,-17.951248,-30.709602,-32.126175,-29.143845,-13.857399,-14.53672,-14.835526,-14.938774,2.837448,-8.47641,-14.292572,-14.026245,17.407036,1.757332,-3.592941,-2.916664,30.117348,14.665123,7.680931,8.270714,-8.139649,-32.38422,-52.093494,-66.804609,-65.285234,-98.486492,-120.329539,-138.546102,-62.699917,-75.813309,-55.826924,-40.434343,-55.775942,-59.222116,-39.789502,-27.210029,-46.235424,-49.042245,-34.709536,-25.171265,18.467559,27.016639,24.65166,14.986793,-2.013829,-2.021851,-2.469349,-3.456013,-19.177014,-1.381875,10.775024,15.678863,-30.865723,-9.075154,1.825012,5.891967,-39.654957,-21.188496,-8.375302,-2.741444,-14.834431,-41.3435,-58.486038,-64.778936,-69.247875,-99.98103,-121.567585,-139.64177,-63.623993,-69.079296,-49.22494,-33.72298,-52.061278,-52.409205,-36.647646,-24.524627,-37.330458,-40.328169,-30.803853,-21.924953,74.992109,20.845467,-66.476881,25.436659
86,0.411484,1.928743,-0.176697,2.157819,-18.06189,-31.053292,-32.781487,-29.977616,-14.29628,-15.152481,-15.467789,-15.481499,2.191452,-8.804787,-14.370415,-14.002236,16.682304,1.561065,-3.654992,-3.137833,29.428207,14.417976,7.621147,8.17266,-7.725588,-31.850029,-51.525785,-66.220611,-64.978013,-98.052368,-119.864416,-137.960572,-62.475757,-75.496677,-55.267039,-39.679685,-55.639906,-59.210179,-39.850295,-27.378601,-46.207148,-48.953497,-34.630168,-25.152684,18.65395,27.243702,24.661972,14.489914,-2.026348,-1.925183,-2.123371,-3.13868,-19.218247,-0.989479,11.091923,15.905182,-30.985462,-8.739784,2.091465,6.179741,-39.792675,-20.921654,-8.10553,-2.221836,-15.155373,-41.990663,-59.3856,-65.580858,-70.012253,-100.726352,-122.148039,-140.151619,-64.540925,-69.333282,-49.517773,-33.900933,-52.998013,-52.993086,-37.396136,-25.082363,-38.358405,-41.002743,-31.516194,-22.479614,75.38288,22.709344,-66.674291,27.529612
87,0.026596,3.10888,-0.204209,2.599587,-18.401367,-31.717301,-33.587082,-30.279671,-14.665169,-15.415581,-15.86879,-15.812256,1.776855,-9.50203,-14.940399,-14.190514,16.216873,1.36116,-3.812508,-3.238701,28.983398,14.291496,7.35363,7.720756,-7.41607,-31.493062,-50.849099,-65.265536,-65.131123,-98.547174,-120.369831,-138.537358,-62.420552,-75.080912,-54.250763,-38.807651,-55.464195,-59.407459,-39.645265,-27.027871,-45.86752,-49.175305,-34.702151,-25.037161,18.829239,27.394261,25.052559,15.536316,-1.591472,-1.28009,-1.327777,-2.388816,-19.04132,-0.585125,11.146122,15.724366,-30.845604,-8.081085,2.538426,6.515053,-39.526176,-20.285236,-7.490753,-1.513057,-14.924741,-41.451631,-58.848074,-65.695824,-70.292327,-100.93889,-122.296505,-140.193553,-65.080018,-68.812349,-49.000699,-33.47031,-53.583141,-52.513927,-36.891696,-24.63805,-38.89948,-40.544165,-30.888531,-22.013182,75.40396,25.649667,-66.884016,29.960642
88,0.221466,5.898504,-0.228767,4.189624,-18.628556,-32.164902,-34.57235,-31.479836,-15.11689,-16.371163,-17.15696,-17.437248,1.027244,-9.850434,-15.625008,-15.402443,15.186195,0.872841,-4.805374,-4.90242,27.680099,13.41806,6.265022,6.016731,-7.627404,-31.09366,-49.908269,-64.133156,-64.523264,-96.858985,-118.368438,-136.098297,-62.045788,-74.990916,-55.248204,-39.86459,-55.203392,-59.455525,-40.52803,-27.78343,-45.694255,-49.140916,-35.310163,-25.485747,18.899437,27.506596,25.566525,16.779865,-1.08506,-0.518063,-0.240829,-1.17627,-18.759396,0.003296,11.567345,15.903591,-30.546123,-7.357956,3.24226,7.136765,-38.997036,-19.499233,-6.676918,-0.609123,-14.595673,-40.953756,-58.543417,-66.058183,-70.44387,-100.838398,-122.136214,-139.949355,-65.545086,-68.051992,-48.373636,-33.219937,-54.148955,-52.059556,-36.517273,-24.501069,-39.536146,-40.002405,-30.153628,-21.48613,75.476876,31.367773,-67.261333,33.969868
89,-0.339958,8.45856,-0.462307,6.152731,-19.376427,-33.142342,-35.858895,-32.947518,-15.363625,-17.062935,-18.576188,-19.68306,0.578041,-11.031144,-17.421341,-17.882355,14.301635,-0.392647,-6.659066,-7.607438,26.190239,11.91204,4.354339,3.174682,-8.103439,-31.365696,-49.587508,-63.145694,-64.08283,-95.270426,-116.222371,-133.383317,-61.587922,-73.807415,-54.887879,-39.460224,-54.491114,-58.387442,-40.119805,-27.06176,-44.653082,-47.768853,-34.48813,-24.402596,18.728268,27.427609,26.304565,18.326649,-0.294697,0.388126,1.391956,1.027691,-17.861938,1.194305,12.442795,16.305141,-29.415997,-6.067932,4.47876,8.000507,-37.601864,-18.34877,-5.757786,0.057529,-14.181266,-39.948454,-57.419541,-65.44205,-70.532544,-101.466135,-122.205869,-139.592068,-65.645702,-67.098665,-47.577939,-33.164665,-54.089384,-51.30633,-35.831998,-24.123305,-39.445731,-39.605177,-29.725525,-21.291586,74.879912,39.625907,-67.980646,39.922173
90,-0.132225,11.478833,-0.821526,8.243371,-20.654847,-34.87967,-38.479386,-36.391663,-16.757126,-19.377778,-22.343537,-24.846497,-1.116394,-14.655945,-21.660233,-22.360955,11.980957,-3.83368,-10.584137,-11.903138,23.148948,8.302803,0.154724,-1.730141,-8.666417,-31.426402,-48.475228,-60.643894,-63.403403,-93.002938,-111.89857,-127.191523,-60.793058,-70.716634,-52.623497,-38.229143,-53.049174,-55.722652,-38.504408,-25.996003,-42.376226,-44.448681,-32.0867,-22.39023,18.84232,27.952813,28.131615,21.246907,0.490082,1.577752,4.067894,5.071724,-16.635749,3.1363,14.491608,17.924206,-27.619297,-3.595699,6.883255,9.718644,-35.168563,-15.761821,-3.728771,1.242085,-13.835118,-38.821743,-55.821971,-63.824929,-70.218252,-101.341825,-120.844284,-137.190223,-65.150569,-65.820585,-46.62781,-33.161083,-53.237778,-49.424097,-34.002432,-22.834864,-38.498319,-37.668147,-27.915009,-19.949477,74.255894,50.612095,-69.293965,47.672899
91,0.260009,11.75366,-1.752594,8.408473,-21.421852,-36.65728,-42.065323,-41.33567,-19.67308,-25.11541,-30.613769,-34.400825,-4.110878,-19.952476,-28.368118,-29.768188,8.495476,-8.113037,-15.966224,-17.707031,18.939972,4.303208,-4.376289,-6.941002,-9.85129,-31.189293,-45.785973,-54.798063,-60.907488,-87.272246,-99.001237,-107.8683,-57.188903,-65.439734,-47.850518,-34.060799,-47.784365,-49.398879,-33.105514,-21.095861,-35.718322,-35.65399,-24.364903,-15.372456,19.346341,29.614575,31.725312,26.155919,2.202439,4.86525,9.152791,11.758999,-14.367942,6.141953,17.53077,20.215611,-24.524482,-0.033966,10.279896,12.271271,-30.948715,-11.528263,-0.671253,2.914776,-13.03582,-35.969429,-51.65911,-59.605258,-68.003629,-97.633323,-114.996063,-129.226408,-62.298564,-61.6664,-43.053202,-30.645809,-49.418607,-43.886437,-29.114739,-18.978581,-33.994312,-31.324823,-22.471895,-15.412964,73.48308,61.568075,-72.079382,55.283692
92,1.290539,15.543128,-4.30121,13.091619,-22.73077,-40.018638,-48.387794,-50.478498,-25.127174,-35.146534,-43.049629,-47.813192,-10.348263,-28.916141,-37.991581,-39.770302,1.489437,-16.789822,-25.121898,-26.915382,11.094589,-4.053051,-12.644417,-15.352329,-11.720728,-30.234823,-40.841244,-45.548728,-55.800009,-75.634516,-80.227537,-82.929077,-50.708336,-54.569496,-37.991289,-24.90751,-39.86087,-37.803874,-23.027003,-12.113167,-26.683548,-22.900897,-12.857013,-5.034517,20.289906,32.499035,37.369846,33.331032,6.589508,13.283632,19.589888,23.024048,-8.86928,15.20101,25.757704,26.741696,-17.891046,9.183575,18.199694,18.406992,-23.178154,-1.78042,7.207174,8.730509,-13.990986,-35.468949,-49.441814,-55.648196,-66.73229,-93.92724,-106.762288,-117.010677,-59.614305,-57.484885,-39.901965,-29.100178,-45.459802,-38.332547,-24.772568,-16.325266,-29.165384,-24.836652,-17.096821,-11.414101,73.632631,75.427662,-77.52158,66.69177
93,1.75882,18.126877,-6.8214,16.585759,-24.528889,-44.814881,-56.781372,-62.039675,-32.911766,-48.785946,-58.789238,-63.660296,-19.444462,-42.20612,-50.652226,-51.234215,-8.400181,-29.667859,-37.283261,-37.693543,0.689598,-15.761364,-23.763634,-25.762196,-14.27664,-29.023682,-34.031964,-33.063499,-48.867408,-59.911997,-57.42545,-54.780529,-41.690806,-37.961013,-21.520843,-9.760801,-29.437913,-21.612836,-7.563601,1.945184,-15.195396,-7.205912,1.991411,8.431667,21.549958,36.294995,44.841935,43.554463,13.530705,27.123728,35.614306,39.141724,-0.221803,29.408518,38.208327,36.806614,-7.782915,23.649365,30.25458,27.994234,-11.827743,13.292273,19.74087,18.65288,-16.454351,-36.611776,-48.167538,-51.510888,-65.929949,-89.419287,-95.544653,-100.251158,-56.631043,-53.316584,-37.19613,-28.144047,-40.899428,-32.172814,-20.104823,-13.674524,-23.356615,-17.643229,-11.222832,-7.356784,74.433707,91.364993,-85.300724,81.087983
94,2.43354,18.101034,-6.498367,15.38656,-24.650173,-47.704513,-62.761299,-70.668314,-41.866287,-62.452114,-74.766151,-81.195642,-29.910702,-54.918285,-64.198734,-66.128117,-18.958958,-42.042103,-50.734096,-52.344772,-9.38649,-26.406727,-34.828766,-37.996822,-15.918213,-26.731803,-27.496659,-22.824916,-39.150919,-40.744188,-31.103003,-22.398242,-30.196646,-20.644679,-4.0677,7.724933,-17.351912,-5.722028,8.084274,17.463575,-3.374657,7.988518,17.323816,23.74178,22.012264,40.696918,54.461437,56.881611,20.708542,41.899767,51.320166,54.035969,8.458185,43.934126,52.273058,49.757321,2.183893,38.299976,44.528727,41.419561,-0.70927,27.510847,34.175154,32.894457,-19.103055,-36.64312,-44.542005,-45.681315,-61.617102,-78.52305,-78.186031,-77.851986,-50.334502,-45.141175,-29.696573,-21.246933,-33.131356,-22.614387,-11.004121,-5.71455,-14.410345,-6.469072,-0.312275,2.872882,76.03367,106.890155,-92.632668,93.898671
95,-0.39814,22.004037,-5.401302,19.439944,-26.06242,-51.661514,-69.366051,-79.152998,-51.878448,-76.786892,-89.575355,-95.257215,-41.035252,-68.077572,-77.662079,-79.208359,-30.026676,-54.401791,-63.697517,-65.424293,-19.724533,-37.592205,-46.034729,-49.419239,-16.768596,-23.205478,-19.801841,-11.628301,-25.597463,-17.786181,-3.723877,7.795468,-14.517185,0.755254,16.142993,26.20291,-1.271142,14.178037,27.29371,35.625224,12.013367,26.253394,35.414562,41.284207,22.382881,44.479602,62.281242,68.941818,29.619518,58.012006,68.371198,69.582699,19.449617,59.61022,67.324648,63.581451,14.117872,53.332912,58.981172,55.199381,11.621235,41.963945,47.463564,45.054571,-21.694195,-36.807235,-41.44135,-40.076879,-55.770314,-65.547461,-59.369718,-54.566641,-42.242704,-34.255757,-19.179342,-11.025901,-23.94505,-11.104049,0.441713,5.486635,-4.727238,4.993089,10.820744,13.344369,75.070553,126.335804,-98.598947,110.780227
96,1.145165,24.953304,-4.337952,21.001636,-28.181729,-55.07737,-73.933205,-84.552802,-59.405182,-86.865887,-99.640778,-105.587054,-50.591252,-79.414525,-90.045788,-93.378617,-40.264584,-66.664502,-77.338154,-81.258866,-29.673089,-48.744816,-57.965012,-62.991063,-17.035401,-20.591521,-15.309109,-6.815634,-14.849378,-3.100321,8.344599,17.344842,-2.038983,17.453263,31.352596,40.218204,11.076267,29.744748,42.190917,49.980731,23.395221,38.851757,48.324789,54.582369,24.106236,49.307911,70.36314,80.983841,36.551342,70.3123,82.192892,84.522434,26.85066,69.470701,79.431776,78.411667,21.118944,61.942886,70.259348,69.736078,18.036736,49.851248,57.371401,57.615263,-23.21491,-36.508326,-38.868025,-36.22763,-49.102257,-51.969224,-41.290475,-33.419391,-34.159007,-24.144708,-9.151525,-0.844276,-15.80947,-2.153833,9.399536,14.292417,3.336526,13.528299,19.863067,22.238978,76.344029,148.855688,-102.808588,129.348443
97,0.34132,23.646969,-1.267198,18.36745,-29.759423,-57.183037,-76.261849,-86.658097,-64.251984,-91.536621,-104.94476,-112.929669,-56.648987,-85.240609,-98.109536,-105.02369,-46.716317,-73.450974,-86.125534,-93.107609,-36.133255,-55.403412,-66.056923,-73.530075,-16.62449,-18.883067,-13.677914,-6.204423,-4.674704,8.999844,18.681895,25.878412,9.224492,28.921237,40.913575,48.53875,22.035449,40.348781,51.483874,58.466759,33.163441,48.427143,58.116881,65.04072,26.211547,53.403625,76.532592,89.797679,42.124317,76.533679,89.064582,92.991474,32.281391,72.65253,85.150268,87.642551,24.920883,63.162906,74.107212,76.762493,19.798095,48.433032,57.568107,59.946441,-22.555505,-32.687142,-33.277983,-31.265086,-39.080632,-36.459493,-23.96628,-14.596686,-23.960296,-11.983112,2.969478,11.986057,-7.034076,6.829188,18.870975,24.532167,9.936957,21.148312,28.309878,31.129364,77.037712,170.92335,-103.723423,146.136586
98,-3.352982,23.27034,1.959863,18.815258,-28.795509,-55.39056,-74.200584,-84.547142,-65.655029,-91.551476,-104.615622,-113.41238,-59.830324,-87.763916,-101.888506,-110.678844,-50.977999,-77.347893,-91.141331,-99.973686,-41.025421,-60.238895,-71.351835,-79.953758,-10.698901,-10.878367,-6.447892,-0.671474,6.232605,18.224022,25.38297,30.428269,17.676901,33.293265,42.777456,48.773575,27.140269,41.235109,50.239838,56.029131,34.20191,46.545805,55.652386,62.710557,27.682531,56.289574,80.382998,94.967474,46.683615,80.103613,92.268683,97.02701,36.747986,74.060543,88.063826,92.518175,27.957825,62.889319,75.814682,80.446432,20.803963,45.752026,56.253559,60.01347,-20.484792,-27.291774,-26.515732,-25.943744,-26.973093,-18.574481,-6.073339,3.036718,-11.819807,3.708273,19.30681,28.954391,4.054909,19.815182,32.834349,39.524234,19.196159,32.292866,40.596586,44.31543,74.046902,192.977506,-101.401388,163.73566
99,-6.21611,25.014067,2.663395,23.460982,-27.421143,-53.108448,-72.734963,-84.631073,-65.83889,-91.629685,-102.781821,-108.89494,-62.852537,-91.127678,-103.095183,-108.725395,-56.429449,-82.665848,-94.220249,-100.37003,-48.242272,-68.085011,-77.091814,-82.782784,-0.308345,3.717096,9.58953,15.835571,17.761777,26.709084,30.309492,31.624362,23.848855,34.500844,40.432891,42.451506,27.317727,36.377118,41.897481,44.103879,28.246947,35.881237,42.809374,47.774256,29.734171,58.342358,81.331026,96.15489,52.089632,85.291884,97.184195,101.833391,42.561745,78.350567,90.802134,93.805109,32.892403,65.897455,77.038742,80.27286,24.004978,47.924813,56.414806,58.08165,-18.414979,-23.568452,-22.708158,-22.731877,-16.713774,-2.935658,9.741659,18.574771,-1.099306,19.188718,34.982078,44.055504,14.2099,33.717664,46.870107,53.606255,28.158503,43.899263,52.532521,56.059618,68.168444,217.025593,-98.400341,186.230662
100,-1.798577,18.705336,0.431557,18.947237,-25.310073,-51.110195,-71.739406,-84.915172,-63.133552,-89.210529,-101.351698,-108.601913,-62.343687,-90.864761,-102.651483,-108.638076,-58.18202,-85.020321,-95.007087,-99.765357,-52.099342,-72.614467,-80.205236,-84.225414,8.203196,15.376426,21.860856,28.657933,24.340023,29.376282,30.960119,30.91049,25.400556,30.465442,34.034141,34.260153,23.542085,27.446909,30.317834,30.501782,19.374167,22.967596,28.287283,32.080858,32.373018,61.547184,84.440981,99.409384,55.151018,87.424959,100.321752,107.646394,44.318859,78.504398,92.958246,99.137255,33.379211,65.109644,78.481361,84.497743,23.206673,46.276531,56.633102,60.656788,-15.639335,-19.030501,-17.924131,-19.401109,-7.468879,9.502462,21.62392,30.102326,8.188278,30.047726,44.725688,53.002139,22.693147,42.87714,54.745198,60.332826,35.171016,52.181908,60.538746,63.612916,66.685249,234.915663,-97.653402,204.362633
101,-2.556106,16.465994,0.557762,18.928934,-25.292931,-52.276898,-73.811451,-87.167793,-60.286766,-87.490093,-98.699118,-105.045971,-59.87174,-89.752945,-101.890898,-107.798962,-56.628874,-85.035691,-95.928589,-101.213768,-51.806282,-73.420246,-81.881979,-86.759823,7.643849,14.166736,20.845309,28.532432,25.854428,28.544702,27.362034,24.975991,27.662783,29.173575,29.252881,26.321681,25.919105,27.70762,28.075553,25.763093,21.18149,24.591558,29.113207,31.912909,32.975435,62.018658,85.063951,101.236982,59.242613,90.705248,103.665991,111.133158,49.064999,82.617748,96.592798,102.967661,38.206867,69.041605,81.851589,87.743517,27.466152,49.823433,59.771484,63.703091,-14.374477,-16.499549,-15.056516,-17.308622,-0.018667,18.237589,29.810851,38.198719,16.123366,38.568801,52.086127,59.913245,30.052055,50.821898,62.169562,67.802626,40.859945,58.887645,67.095948,70.445167,64.279764,250.770291,-96.945019,222.680201
102,-2.924378,12.681052,0.708652,18.178679,-25.287963,-52.587124,-74.324638,-88.295379,-56.794395,-84.964405,-97.149072,-103.72237,-56.375227,-87.953544,-100.256887,-105.508735,-54.04688,-84.4216,-95.585964,-100.532375,-50.834037,-74.551151,-82.941724,-87.172153,11.92419,21.560508,29.772665,38.443571,33.316867,34.779926,31.9235,28.033168,31.864503,31.468665,28.842698,23.347917,26.109877,25.561484,23.232209,18.825089,16.867965,17.403452,19.383047,20.051001,32.834662,62.132824,85.402342,102.829874,61.845492,94.269682,108.034212,115.95896,52.294007,87.578717,101.717703,108.4802,42.382061,74.579173,87.837674,94.487006,32.258389,56.746537,67.341271,72.469323,-13.707214,-15.575775,-13.703046,-16.079813,5.356435,24.478135,35.837062,44.192609,22.336162,45.119767,57.93809,65.364893,36.75915,58.544739,69.329596,74.794193,47.689269,66.304042,74.240409,77.861107,61.358505,262.958933,-96.233248,240.36647
103,0.963776,10.168274,0.970854,13.909398,-26.703529,-53.598633,-74.363068,-87.530857,-54.81102,-82.355678,-94.277813,-99.973652,-54.093304,-85.139625,-96.690021,-100.767277,-52.387951,-82.834991,-93.162002,-96.767853,-50.359589,-74.528274,-82.332458,-85.528484,10.042086,19.436485,26.277221,32.998321,35.645326,35.615649,32.35524,28.145801,34.443441,32.485904,28.50462,22.314981,27.944136,25.932888,21.851001,16.800793,17.608611,16.709217,16.492386,15.78543,32.871598,62.106194,85.532902,104.240536,62.771427,94.861141,110.067593,119.717846,53.120304,88.829258,105.032604,114.545986,43.548329,76.056221,91.494129,101.02113,33.758629,59.209854,71.454655,79.253495,-12.675569,-14.331492,-12.283738,-15.00062,9.366179,27.774187,38.480881,46.818767,26.629371,47.995421,59.829505,67.280717,40.947303,61.968626,71.939292,77.342922,51.476626,69.614846,77.012187,80.840737,62.269478,272.760416,-95.315197,253.909077
104,2.287262,4.972131,1.415692,9.386297,-27.311851,-54.009407,-73.081833,-84.582973,-55.397987,-78.586544,-87.241619,-90.44228,-53.292046,-78.844048,-86.506371,-88.106838,-50.791283,-76.135185,-82.706177,-83.538563,-48.394936,-68.223587,-73.582409,-75.196827,5.46191,12.448302,17.558198,23.517767,31.919899,34.49273,34.246025,32.494931,33.778438,36.192768,35.163228,31.785086,30.896831,33.541428,32.303863,29.585239,24.261811,27.438845,28.361198,28.720981,33.094402,61.934497,85.634857,105.487518,62.030628,92.632988,109.87857,122.522987,51.745365,86.410102,106.461021,120.981308,41.923759,73.737476,92.931953,107.178108,32.230865,57.595974,72.357227,84.171913,-11.786943,-13.361937,-11.052175,-13.992322,11.768036,27.740373,37.192632,45.248282,28.811248,46.942664,57.432675,65.06331,42.408726,60.708152,69.648994,75.026529,51.966517,68.692888,75.379914,79.252961,64.510998,277.517455,-93.945247,263.080282
105,-0.523659,5.156344,3.847389,8.259797,-26.103103,-50.901008,-68.307346,-78.818035,-55.122986,-72.622902,-75.33736,-73.663341,-52.773056,-72.355362,-74.200996,-71.447525,-49.881729,-69.365513,-71.557342,-69.693603,-46.953529,-62.410492,-64.987198,-64.946594,-1.968714,1.458298,5.218614,9.104975,25.859467,31.416214,33.10305,32.855875,32.220278,38.023916,39.858631,39.244338,34.179261,39.871352,41.089959,40.428909,32.015193,37.930537,39.984541,41.297725,32.011288,59.960564,83.736557,104.121483,61.660641,91.724373,108.967438,121.754471,51.868057,86.235237,106.44088,121.25608,42.330677,73.751781,93.046669,107.838386,32.677414,58.121315,73.24728,86.06686,-11.947099,-13.534418,-10.808248,-13.829696,13.336027,27.858884,36.693305,44.419739,30.262988,46.875108,56.961631,64.586843,43.426311,60.597421,69.466941,75.254388,52.693627,68.68528,75.395895,79.731873,63.92823,282.582924,-90.156967,271.249204
106,-21.450039,4.690228,4.199787,6.240781,-15.576896,-30.589885,-41.564827,-50.074207,-38.661632,-43.009403,-41.320839,-38.28495,-38.569679,-43.869587,-39.418865,-33.357284,-38.579429,-44.323642,-39.160629,-33.110675,-38.314602,-45.761512,-43.93198,-40.515838,-3.388344,-0.463708,2.383319,4.935698,24.0825,34.908286,39.470999,41.292451,30.194507,40.708193,43.982324,44.661961,31.56502,39.737045,40.955788,41.007782,29.387379,35.710498,36.275243,36.33803,30.881916,58.035999,81.832615,102.114979,60.579952,91.10313,108.327175,120.954884,51.309563,85.99371,106.357761,121.188549,42.117165,74.0308,93.319668,107.993374,32.68301,58.411011,73.667942,86.772892,-12.524429,-14.288761,-11.057535,-13.83434,14.365554,28.403411,36.658737,43.746585,31.210115,46.716953,55.954617,62.792006,44.098896,60.249865,68.371143,73.429588,53.264337,68.51039,74.534884,78.15352,42.446325,287.209422,-85.989046,277.426255
107,-9.894149,5.667502,3.684906,4.725685,-8.857659,-19.081799,-27.940854,-35.923565,-34.768479,-29.619702,-19.961495,-11.849076,-37.506821,-30.664044,-18.507969,-6.954632,-39.281594,-33.380505,-20.694111,-9.831448,-39.570362,-40.079396,-33.847104,-27.318673,-9.048201,-9.936617,-8.736226,-6.943167,15.405271,28.909567,34.362376,36.933848,25.080856,38.265113,42.94451,44.906197,30.093174,40.953775,42.951166,43.856909,32.101767,41.269777,41.888454,41.649468,29.854877,56.413342,80.163631,100.215626,59.993694,90.886379,107.917477,120.178883,50.890675,85.860775,106.082989,120.514492,41.641434,73.914471,93.063641,107.275921,32.329319,58.216484,73.474537,86.376308,-13.231594,-15.050453,-11.459382,-13.66922,14.847504,29.212922,37.034155,43.256608,31.791014,46.771232,55.009391,60.705607,44.4219,59.985153,67.125872,71.064041,53.207428,67.729581,72.830017,75.382989,32.549069,292.829148,-82.307247,282.104164
108,-16.520234,7.024875,2.805325,3.560294,-0.992065,-5.708736,-9.583705,-13.320774,-23.372291,-9.278881,5.46262,16.324551,-27.938484,-11.536548,6.101727,21.083416,-30.956325,-16.018901,1.49207,15.114956,-31.855499,-26.423664,-17.279972,-9.090545,-13.216379,-18.048682,-18.569559,-17.088772,4.804084,19.888783,26.73657,30.863326,17.538513,33.368737,40.140745,43.599768,26.652244,40.125714,44.4147,46.428418,32.98996,44.403351,46.354516,46.219801,29.007167,55.150451,79.032234,98.88375,59.540359,91.03862,107.906776,119.879722,50.776657,86.123931,106.080413,120.069397,41.543323,74.327018,93.244812,106.853942,32.438804,58.630817,73.852741,86.523124,-14.391131,-16.42908,-12.373214,-13.838428,14.756533,29.122939,36.52364,41.995912,31.803747,46.199892,53.523158,58.075583,44.205576,59.011028,65.279201,68.136751,52.640645,66.577899,70.92167,72.485227,16.017894,299.807213,-79.512863,285.617648
109,-6.760414,3.636235,1.949192,2.270859,2.028557,-0.006374,-3.681438,-8.174984,-19.180389,-1.035038,15.733326,26.093869,-25.89236,-4.40237,13.992085,28.283604,-30.536453,-11.584888,6.823941,19.69479,-32.552662,-26.92749,-18.654396,-11.875213,-18.693529,-25.731434,-26.308133,-25.065418,1.309381,16.407616,20.968909,23.28114,17.223227,31.814072,36.115284,37.486415,28.583451,40.93231,42.613293,42.836755,36.963723,48.012156,48.265172,46.473348,28.167125,54.025955,77.953548,97.8334,59.116504,91.033207,107.804958,119.580402,50.730171,86.376033,106.140598,119.777309,41.617298,74.777492,93.563472,106.676273,32.737506,59.082035,74.258457,86.711917,-15.421177,-17.541316,-13.088123,-13.90844,14.5811,29.017729,36.211985,41.361784,31.671762,45.56763,52.101317,55.857731,43.878015,57.983476,63.451216,65.465057,52.007938,65.311398,68.926069,69.693306,9.240657,303.393794,-77.580494,287.838853
110,-9.974693,4.587068,1.093505,1.302156,6.039757,7.658443,6.572491,3.768162,-11.817833,11.116184,28.444737,38.088581,-20.11805,6.657475,25.245083,38.972111,-25.777657,-2.640873,15.790112,28.237072,-28.717964,-21.856007,-14.956078,-9.467949,-21.401075,-30.385501,-32.363391,-32.07966,-2.011199,11.641978,15.347768,17.378715,15.319277,28.828945,31.315597,31.379423,27.317011,38.860633,38.96593,38.20661,36.115593,46.414055,45.255753,42.126859,27.75808,53.597672,77.519772,97.398091,58.733906,90.707898,107.492718,119.261364,50.462998,86.19611,105.790295,119.271229,41.31633,74.698918,93.329899,106.131215,32.560891,59.062066,74.194211,86.444355,-15.727052,-17.777438,-13.143958,-13.38413,14.69719,29.592785,36.636136,41.411876,31.747146,45.523737,51.528113,54.700651,43.822242,57.67444,62.37004,63.50642,51.730061,64.703996,67.646502,67.653257,-0.731564,307.943235,-76.484517,289.103382
111,8.46603,1.172603,0.429005,0.589494,3.157242,1.393547,-2.944107,-7.827873,-20.068325,1.562622,19.054299,28.693703,-28.366608,-1.938972,16.848999,30.830086,-33.209839,-10.966095,7.313965,19.831558,-35.29446,-29.343761,-22.35442,-16.936283,-20.701529,-29.217924,-30.448424,-29.551821,-1.435969,12.112529,15.561091,16.990873,15.356932,27.968157,30.19915,29.764687,27.140837,37.888386,37.338054,35.888364,35.76779,45.862821,44.150594,40.489943,27.640892,53.488873,77.278862,97.224838,58.838905,90.66243,107.367371,119.173004,50.328495,86.024071,105.338951,118.688919,40.883892,74.286255,92.641251,105.213867,31.974438,58.633679,73.703156,85.706497,-15.747998,-17.531473,-12.525812,-12.261113,14.701637,29.997127,37.068859,41.677934,31.856543,45.865723,51.753193,54.61982,43.944335,57.958356,62.393616,63.115775,51.720762,64.649013,67.255041,66.869731,7.71528,309.090502,-76.074698,289.66754
112,-5.210083,2.569855,0.259209,0.214224,3.839699,4.00557,4.212227,3.055893,-13.863029,8.218781,24.974487,34.865593,-21.835304,3.537529,22.113739,35.921036,-26.428047,-5.364372,12.263558,24.714615,-28.277206,-22.447426,-15.602108,-10.066326,-20.255531,-29.430889,-31.469925,-31.254391,-4.065759,7.568501,11.773543,14.303692,12.841739,24.132098,27.275885,27.350369,24.987316,34.289003,34.782673,33.838744,34.067739,42.583664,41.146942,37.810555,27.502407,53.252643,77.000221,97.01635,58.621593,90.408691,107.059662,118.963898,50.279606,86.020592,105.258613,118.690933,40.934543,74.518799,92.861595,105.55133,32.01654,58.985332,74.130363,86.176941,-15.716344,-17.514627,-12.244427,-11.478314,14.57395,29.877283,36.903393,41.402639,31.791422,45.643991,51.504142,54.2312,43.978755,57.856876,62.218172,62.77022,51.889217,64.701576,67.227106,66.701783,2.479757,311.623964,-75.840929,289.845371
113,2.54242,-4.064548,0.24432,-0.146175,3.372207,2.665374,-0.246003,-5.356064,-17.812306,4.117012,21.637756,30.989845,-26.070969,0.507293,19.138526,32.444915,-30.952469,-8.71756,9.366989,21.476829,-33.104016,-27.366738,-21.009442,-16.337105,-19.110604,-26.172134,-25.472329,-23.110117,0.111768,13.668898,16.993824,18.395534,16.54359,28.7338,30.971277,30.251477,27.800998,37.965338,37.273326,35.752056,36.316108,45.982765,44.221791,40.935929,27.415317,53.124057,76.780552,96.78503,58.093998,89.738308,106.476505,118.575313,49.807045,85.486438,104.818302,118.392437,40.56245,74.235843,92.701664,105.590549,31.665619,58.839523,74.04697,86.101261,-15.481458,-17.052167,-11.500459,-10.380726,14.825915,30.417734,37.370151,41.721814,32.076893,46.026694,51.809892,54.427146,44.307625,58.287288,62.577855,63.04123,52.220965,65.006721,67.422261,66.783083,5.010212,307.529763,-75.608574,289.669543
