takenoko1/special-research/HandMotion_SimilarSearch_自分用/NewProject/handData/tgt/d4_feature_d2/96.csv
,vel_0x_L,vel_0y_L,vel_0x_R,vel_0y_R,posFromWrist_1x_L,posFromWrist_2x_L,posFromWrist_3x_L,posFromWrist_4x_L,posFromWrist_5x_L,posFromWrist_6x_L,posFromWrist_7x_L,posFromWrist_8x_L,posFromWrist_9x_L,posFromWrist_10x_L,posFromWrist_11x_L,posFromWrist_12x_L,posFromWrist_13x_L,posFromWrist_14x_L,posFromWrist_15x_L,posFromWrist_16x_L,posFromWrist_17x_L,posFromWrist_18x_L,posFromWrist_19x_L,posFromWrist_20x_L,posFromWrist_1y_L,posFromWrist_2y_L,posFromWrist_3y_L,posFromWrist_4y_L,posFromWrist_5y_L,posFromWrist_6y_L,posFromWrist_7y_L,posFromWrist_8y_L,posFromWrist_9y_L,posFromWrist_10y_L,posFromWrist_11y_L,posFromWrist_12y_L,posFromWrist_13y_L,posFromWrist_14y_L,posFromWrist_15y_L,posFromWrist_16y_L,posFromWrist_17y_L,posFromWrist_18y_L,posFromWrist_19y_L,posFromWrist_20y_L,posFromWrist_1x_R,posFromWrist_2x_R,posFromWrist_3x_R,posFromWrist_4x_R,posFromWrist_5x_R,posFromWrist_6x_R,posFromWrist_7x_R,posFromWrist_8x_R,posFromWrist_9x_R,posFromWrist_10x_R,posFromWrist_11x_R,posFromWrist_12x_R,posFromWrist_13x_R,posFromWrist_14x_R,posFromWrist_15x_R,posFromWrist_16x_R,posFromWrist_17x_R,posFromWrist_18x_R,posFromWrist_19x_R,posFromWrist_20x_R,posFromWrist_1y_R,posFromWrist_2y_R,posFromWrist_3y_R,posFromWrist_4y_R,posFromWrist_5y_R,posFromWrist_6y_R,posFromWrist_7y_R,posFromWrist_8y_R,posFromWrist_9y_R,posFromWrist_10y_R,posFromWrist_11y_R,posFromWrist_12y_R,posFromWrist_13y_R,posFromWrist_14y_R,posFromWrist_15y_R,posFromWrist_16y_R,posFromWrist_17y_R,posFromWrist_18y_R,posFromWrist_19y_R,posFromWrist_20y_R,posFromBody_0x_L,posFromBody_0y_L,posFromBody_0x_R,posFromBody_0y_R
6,-2.222694,0.69316,0.676002,0.604759,-8.980476,-21.184135,-34.516983,-44.991909,-44.596024,-39.104496,-19.677406,-5.098984,-50.095768,-42.06181,-20.982925,-2.282043,-51.560497,-48.497944,-29.944794,-13.52877,-50.65947,-59.247402,-57.239777,-53.659927,-6.531575,-9.378467,-5.228926,-0.082103,3.155422,16.460894,21.370632,23.355698,15.662684,27.078927,31.801055,32.996271,25.131171,33.777105,37.078282,37.954496,32.429032,40.085601,42.282977,43.281877,27.160939,52.496956,75.017521,94.557164,44.864811,78.262059,95.917546,108.354229,34.217377,73.688221,93.964131,107.358502,26.409725,62.622494,82.584721,96.228527,21.354367,49.325135,65.170155,76.322491,-12.739061,-11.147283,-2.556232,4.90628,23.093925,39.021468,43.606078,46.273042,40.275866,55.058248,56.951775,56.25507,50.987414,64.911082,65.668685,63.472779,55.833475,67.39288,67.386915,64.662672,24.117954,312.104968,-80.203034,296.059976
7,-5.479614,1.391077,0.562912,0.696557,-7.879372,-18.300705,-30.260674,-40.099343,-41.99643,-33.949734,-13.75438,0.812713,-47.918335,-36.525536,-14.309922,4.638931,-49.587868,-43.476609,-23.498246,-6.567375,-48.910572,-56.418927,-54.031071,-50.250309,-7.188835,-10.518417,-6.469986,-0.994034,3.363544,16.391745,20.70243,22.413287,15.858098,27.166846,31.348955,32.466971,24.929839,33.604808,36.201784,37.022237,31.793298,39.476569,41.223722,42.019092,26.782723,52.056267,74.591801,94.168888,44.436756,78.021939,95.840779,108.322918,33.797676,73.409146,93.734585,107.07185,25.977917,62.31704,82.474102,96.24194,20.942505,49.170376,65.081383,76.279919,-13.114775,-11.724378,-3.323012,4.045949,22.194778,38.028349,42.694914,45.377883,39.302211,54.156433,56.07687,55.376522,50.114584,64.034448,64.741812,62.487317,55.102869,66.829482,66.915896,64.280141,18.744982,313.316228,-79.53348,296.576716
8,-1.5672,0.644217,0.398644,0.239011,-5.721817,-14.608109,-25.746002,-34.859745,-38.957462,-30.221466,-10.154137,4.044914,-46.025677,-34.085266,-11.981941,6.484932,-48.677685,-42.319393,-22.616158,-6.178802,-48.889595,-56.678799,-54.34259,-50.527725,-11.034478,-15.97088,-12.786868,-8.009387,1.376824,14.984762,19.195424,20.815002,15.613678,26.861824,30.735477,31.96967,25.932604,34.140642,36.480019,37.48702,33.752071,41.226292,42.628866,43.340379,26.512951,51.748443,74.314625,93.92474,43.948711,77.567653,95.531078,108.191402,33.33435,72.937488,93.396206,106.810512,25.560596,61.871658,82.144878,96.012554,20.633686,48.805904,64.723137,75.941356,-13.221838,-11.762651,-3.451008,3.759859,21.943009,37.572236,42.200207,44.844434,39.027236,53.79066,55.652312,54.890188,49.822344,63.713346,64.302581,61.950002,54.753819,66.610552,66.668499,63.958335,17.273787,313.870493,-79.038831,296.725775
9,-5.889587,1.463781,0.263294,0.203357,-4.756783,-11.466454,-19.89869,-27.377186,-35.49725,-24.004601,-3.550805,10.277664,-42.834732,-27.813389,-5.180947,13.10202,-45.6171,-36.269864,-16.271645,-0.045456,-45.897789,-51.524849,-47.508488,-42.302411,-11.589861,-17.254238,-14.634724,-9.617577,1.247494,14.3978,17.996775,19.285926,15.613814,26.632372,29.959447,30.714877,25.786935,33.918118,35.362584,35.814757,33.367132,40.825408,41.221735,40.987824,26.230785,51.512638,74.134964,93.785912,43.365063,77.065063,95.214821,108.007942,32.836796,72.554901,93.223663,106.655411,25.240276,61.634628,82.111885,96.006752,20.556038,48.773952,64.765148,75.988312,-13.342449,-11.812854,-3.518045,3.664615,21.744296,37.38833,42.067147,44.722241,38.783247,53.728304,55.532219,54.629762,49.573057,63.593921,64.015293,61.466582,54.512498,66.535414,66.552605,63.767958,11.46436,315.311673,-78.695377,296.906531
10,3.23545,-4.392937,0.143028,0.123686,-5.444915,-12.940681,-22.538818,-31.195827,-39.356174,-28.238777,-6.789047,7.864632,-47.867477,-32.919468,-8.983154,10.299065,-51.647644,-41.719391,-19.994064,-2.453087,-52.796299,-56.669243,-48.376293,-39.407283,-10.067861,-14.456426,-10.785141,-4.40436,2.891142,18.393225,22.945589,24.261713,17.793962,30.525082,35.242974,36.151779,28.559109,38.231978,40.504405,40.770055,36.864836,45.877864,46.181726,45.474844,26.091145,51.406323,74.047257,93.683121,43.061119,76.77404,95.022629,107.869858,32.604229,72.30954,93.081642,106.583336,25.147259,61.486817,82.075264,96.016983,20.622322,48.752243,64.742043,75.951164,-13.378375,-11.824266,-3.63668,3.510671,21.597478,37.289097,42.016252,44.685883,38.593834,53.744248,55.504432,54.502827,49.365687,63.556735,63.890483,61.215789,54.294136,66.445616,66.4593,63.63659,14.760961,310.920453,-78.491198,297.031934
11,-8.838386,5.558353,0.120781,-0.104741,-1.672257,-5.435257,-11.090447,-16.110352,-31.279324,-17.736843,2.550865,16.200554,-39.869259,-22.826397,0.401207,18.874443,-43.67331,-31.492779,-10.954445,5.33226,-44.764584,-46.306229,-38.991028,-31.348778,-14.280339,-21.242352,-19.04983,-13.402915,-1.398968,11.882076,15.92301,17.552678,14.159283,25.608649,29.408794,30.357465,25.459633,33.810388,35.05871,35.240392,34.048288,41.737202,41.095986,39.680827,25.907913,51.162964,73.709404,93.300133,42.660404,76.38517,94.715836,107.613419,32.278027,72.09565,92.931198,106.471665,24.957218,61.411617,82.076729,96.048477,20.642166,48.837193,64.89727,76.186546,-13.343363,-11.727676,-3.505448,3.693045,21.654733,37.461949,42.195983,44.887103,38.631786,53.849348,55.655251,54.707332,49.412309,63.643086,63.992347,61.363335,54.36006,66.58742,66.604834,63.808096,5.977392,316.513612,-78.3156,296.961999
12,1.767929,-2.802765,0.016388,-0.102185,-1.273796,-5.44352,-12.148956,-18.251106,-33.659329,-20.111195,1.24601,15.621918,-43.517292,-26.02414,-1.476677,18.092033,-48.302067,-35.078053,-12.981835,4.566673,-50.202118,-50.21323,-39.297466,-28.428337,-13.410325,-20.365496,-18.665692,-13.410201,-1.95324,13.727413,19.131673,20.884644,14.547446,28.026486,33.279199,34.220053,26.809262,36.749794,38.997682,39.064867,36.412365,45.517426,44.853931,42.704139,25.903462,51.112415,73.584709,93.181938,42.53009,76.209732,94.492996,107.368561,32.190628,71.928017,92.739647,106.301376,24.958237,61.337071,81.999779,95.997162,20.748024,48.908066,65.007969,76.390091,-13.318971,-11.679732,-3.411463,3.76575,21.69718,37.684288,42.441984,45.189717,38.645964,53.924301,55.784025,54.908392,49.436676,63.730859,64.187404,61.668272,54.388281,66.683801,66.783713,64.093383,7.805294,313.754841,-78.239239,296.903808
13,-11.080158,4.375473,0.074455,-0.189944,1.643314,0.925953,-2.29319,-5.621888,-24.393517,-8.292309,11.780285,24.901897,-33.561207,-13.549485,10.29594,29.017742,-38.040116,-21.825405,-0.509686,15.995853,-39.73296,-35.629544,-24.114693,-13.631218,-15.487929,-23.273483,-21.377943,-15.270345,-5.776108,7.564377,12.883236,15.205657,10.563396,23.197988,28.492085,29.826857,23.03961,32.726397,34.453149,34.423274,32.807167,41.375308,40.278189,37.653623,25.848061,51.081082,73.536026,93.073655,42.452408,76.128594,94.400872,107.284584,32.088982,71.875283,92.662514,106.229943,24.853318,61.33841,81.930107,95.82518,20.63411,48.892445,65.003128,76.359879,-13.151208,-11.456048,-3.14874,4.033104,21.863128,37.81941,42.585566,45.400459,38.815592,54.132189,56.090974,55.313573,49.62452,63.961953,64.51867,62.087902,54.643495,66.890343,67.033332,64.448559,-3.211727,318.176275,-78.101647,296.759825
14,5.560295,-3.813149,0.010346,-0.263539,-1.057492,-4.593075,-10.843861,-16.962948,-30.294171,-16.500767,4.580898,18.689769,-39.525204,-21.358452,3.563152,23.182354,-43.998802,-28.796528,-5.780766,12.099048,-45.708252,-41.262394,-26.798962,-13.947029,-11.47934,-17.425337,-14.271484,-6.881627,-3.989966,10.868183,17.747525,20.579683,11.757501,25.600016,33.01797,35.081706,24.133889,35.106789,38.525081,38.84506,34.06969,43.828318,43.549367,41.226724,25.844856,51.037571,73.466812,92.940491,42.65752,76.281166,94.357704,107.142219,32.207943,71.858436,92.420219,105.934479,24.847732,61.211288,81.590652,95.42205,20.470859,48.635422,64.671306,76.011978,-12.961979,-11.198252,-2.89707,4.179713,22.170905,38.113083,42.894072,45.781842,39.092,54.281922,56.387228,55.791102,49.854195,64.178562,64.935573,62.703604,54.848655,67.101394,67.351953,64.889791,2.420769,314.404082,-78.0191,296.537242
15,-7.81897,5.647754,0.038017,-0.294722,0.457684,-0.519413,-4.00098,-8.160267,-22.058224,-7.292461,12.193234,24.8493,-29.98851,-11.156364,12.059017,30.341846,-33.858238,-18.01442,3.043545,19.438808,-35.423515,-29.428402,-16.402359,-5.080044,-12.968031,-20.395161,-17.962515,-10.8236,-6.938832,5.11906,11.169452,14.257293,8.038508,19.98373,26.488593,28.759761,19.829391,29.51272,32.236519,32.70045,29.140143,37.622069,36.8935,34.633917,25.811829,50.976849,73.343353,92.720833,42.829033,76.486725,94.428978,107.165382,32.245159,71.863403,92.268929,105.683167,24.702885,61.012276,81.235451,94.985184,20.132927,48.22292,64.204445,75.506287,-12.805022,-10.921894,-2.509092,4.620339,22.545137,38.374719,43.096847,46.013394,39.450856,54.531838,56.705613,56.217266,50.152375,64.483436,65.376532,63.305349,55.114392,67.398623,67.74403,65.411742,-5.326864,320.08247,-77.909746,296.273154
16,10.728653,-5.672528,-0.138885,-0.08177,-4.560734,-10.238125,-17.961697,-26.097656,-32.815418,-21.286892,-0.348461,13.851688,-39.968617,-24.224533,0.175655,19.979931,-43.006485,-30.000618,-7.156117,11.157063,-43.838299,-39.364597,-24.617191,-11.562847,-6.947688,-11.60641,-8.128775,-0.466957,-0.843919,12.81258,19.437288,22.301852,12.36531,25.375739,33.023613,35.303044,22.697994,33.654851,37.510435,37.989964,30.958569,40.773858,40.920454,39.25423,25.823238,51.062484,73.489814,92.828544,43.328029,76.96582,94.744697,107.366844,32.609001,72.100433,92.310356,105.595756,24.8241,60.994846,81.04692,94.70288,19.947097,47.925624,63.812839,75.014877,-12.781335,-10.852919,-2.451602,4.67773,22.783296,38.550449,43.249334,46.172253,39.631032,54.587451,56.776095,56.344163,50.248422,64.576346,65.571071,63.61814,55.161458,67.465524,67.896529,65.670094,5.467272,314.420776,-77.983148,296.202218
17,1.650856,2.527666,-0.17545,-0.127972,-5.166721,-11.35397,-18.613003,-25.55888,-32.438644,-22.073444,-2.523869,11.032459,-38.190239,-24.615257,-1.983089,16.992542,-40.010799,-29.191921,-8.303616,8.928761,-39.639587,-35.698631,-22.801586,-11.315426,-7.244361,-11.777483,-8.283941,-1.095279,-1.014781,10.143061,15.968793,19.126832,11.293792,22.261789,29.063659,31.501257,20.925288,30.228124,33.671833,34.302305,28.413625,36.949607,37.169969,35.985843,25.884854,51.157974,73.544987,92.727894,43.571377,77.187115,94.878079,107.455891,32.75639,72.231045,92.369625,105.652783,24.81839,61.004071,80.955883,94.545101,19.745659,47.696182,63.530308,74.664242,-12.66449,-10.69338,-2.295287,4.862339,22.942415,38.638542,43.373984,46.337448,39.786433,54.714138,56.961211,56.577272,50.352373,64.706219,65.787963,63.875664,55.245291,67.531301,68.037259,65.856024,7.173054,316.95483,-78.103672,296.080634
18,12.437725,-4.89992,-0.188782,0.000803,-9.864578,-20.831497,-32.093342,-42.41542,-44.377075,-37.429539,-16.245117,-0.809029,-49.84988,-39.680363,-15.903809,4.601875,-51.083771,-43.531128,-21.279121,-2.335991,-50.131874,-49.102203,-35.809719,-23.367783,-2.114,-4.709395,-1.06696,5.800179,4.876257,17.938162,24.083365,26.852179,15.68379,27.626048,34.874855,36.981581,23.812639,33.887379,38.157346,38.820311,30.226839,39.643814,40.541097,39.901585,26.019585,51.268605,73.614979,92.785023,43.703991,77.280545,94.918934,107.422726,32.857556,72.31271,92.438405,105.706753,24.862507,61.032109,80.955334,94.532078,19.725197,47.626534,63.42936,74.560261,-12.709148,-10.773113,-2.335808,4.839862,22.865313,38.72435,43.485653,46.425788,39.697833,54.746853,57.005486,56.610839,50.234454,64.713185,65.832794,63.920272,55.090618,67.46855,68.046188,65.887307,19.648596,312.050878,-78.254637,296.077405
19,0.124832,2.440463,-0.268947,-0.003285,-8.98764,-19.196731,-29.384994,-38.108837,-42.480114,-35.835766,-16.110054,-1.658272,-47.146648,-38.243751,-16.194122,3.274086,-47.691822,-41.692806,-21.397865,-3.798912,-45.965,-45.575111,-34.391361,-23.670547,-4.374621,-7.282103,-4.128855,1.375145,4.038909,15.606404,20.870194,23.61626,14.700896,25.339776,31.354278,33.356226,22.632181,31.442643,34.92607,35.636187,28.603594,37.067179,37.873306,37.571347,26.122364,51.383274,73.660171,92.764938,44.001217,77.480095,95.058655,107.532898,33.080761,72.463623,92.587257,105.878288,24.95636,61.061508,80.98526,94.60968,19.673984,47.474304,63.280781,74.459404,-12.824585,-10.905147,-2.389667,4.901797,22.66996,38.689424,43.4622,46.36584,39.492587,54.713187,56.99526,56.594426,50.028727,64.733105,65.957431,64.090889,54.885001,67.463029,68.178803,66.095764,19.798662,314.478166,-78.49835,296.060945
20,9.431877,-6.255366,-0.320904,0.105779,-12.835144,-27.132133,-40.876728,-52.308712,-53.625927,-48.767818,-27.140098,-10.829727,-58.521652,-51.010402,-27.093406,-6.061294,-58.702228,-53.861961,-31.478988,-12.153877,-56.30413,-57.627445,-44.953949,-32.719963,-0.125712,-0.234862,4.603641,11.247973,8.984438,23.007215,28.915779,31.348165,19.14758,31.469097,38.497491,40.27189,26.61281,36.7895,41.113301,41.637698,32.430007,42.031591,43.612167,43.707497,26.376663,51.707909,73.980045,93.071583,44.119766,77.555203,95.160885,107.583218,33.164303,72.688648,92.88477,106.157948,25.028881,61.33168,81.249058,94.793667,19.772575,47.692967,63.509915,74.671932,-12.891461,-11.00485,-2.490135,4.872095,22.299889,38.639431,43.525951,46.467679,39.166075,54.572593,56.937053,56.61789,49.776562,64.563736,65.832521,64.006426,54.720251,67.306393,68.002628,65.882799,29.244661,308.209694,-78.805132,296.153618
21,-11.344265,6.39507,-0.227245,0.008682,-9.03733,-19.049034,-29.35786,-37.735942,-41.077285,-33.690261,-14.293384,-0.11214,-45.515224,-36.182991,-14.458133,4.529629,-46.097293,-39.836689,-19.845462,-2.593792,-44.535736,-44.398578,-33.209999,-22.497013,-5.297098,-7.73041,-4.016111,1.935937,3.211466,14.858755,19.998699,22.706096,14.326404,24.914921,31.078637,33.324153,22.706751,31.347177,34.818316,35.689132,29.100648,37.448723,38.288578,38.106723,26.543712,51.879043,74.088959,93.162483,44.118622,77.463157,95.074745,107.481537,33.15731,72.691292,92.974823,106.300071,25.048267,61.401695,81.363693,94.914963,19.852192,47.772663,63.641533,74.872421,-12.936267,-11.044568,-2.487702,4.88652,22.063484,38.598404,43.560432,46.534295,38.9735,54.653523,57.06437,56.735772,49.614949,64.610073,65.888307,64.021431,54.569481,67.248248,67.965405,65.827618,17.911205,314.599311,-79.021568,296.156847
22,-1.580108,-3.156286,-0.263283,0.041014,-9.763298,-20.074356,-30.983013,-40.622761,-42.208134,-34.043278,-13.169255,1.904628,-47.387123,-36.338928,-12.874867,7.033458,-48.69714,-40.427056,-18.379315,0.126995,-48.045971,-46.98349,-33.51677,-21.033085,-3.389801,-4.94974,-0.329574,7.124306,4.331347,18.115521,24.301035,27.014682,15.726138,28.046469,35.633421,38.084777,24.397897,34.63341,38.943021,39.847344,31.280697,40.810131,41.833558,41.445284,26.68515,52.059608,74.313446,93.40535,44.302849,77.61834,95.210426,107.555672,33.32896,72.870552,93.171913,106.482697,25.215488,61.594471,81.55632,95.110268,20.05117,47.98534,63.907059,75.228333,-12.955113,-11.052718,-2.501274,4.884371,21.938403,38.606136,43.57634,46.528294,38.861819,54.606779,56.976846,56.602268,49.523991,64.57868,65.828014,63.9417,54.493825,67.195687,67.888712,65.714665,16.338009,311.443004,-79.277939,296.19784
23,-10.699883,6.01848,-0.395966,0.009695,-4.472488,-10.015434,-16.727314,-22.594929,-31.393535,-19.830528,-0.699085,12.711262,-37.103382,-22.781044,-0.676174,17.799488,-38.901466,-27.691658,-7.186397,9.760975,-38.597763,-34.960773,-22.386417,-10.93832,-9.8011,-14.746024,-11.736691,-5.043824,-2.209998,9.391891,14.97298,17.942545,11.12262,22.174412,28.644015,31.185798,21.539778,30.35728,33.44795,34.249915,29.607902,37.705517,37.577929,36.220161,26.896042,52.330697,74.680779,93.831231,44.57428,77.884072,95.445626,107.762696,33.589051,73.097672,93.41082,106.75216,25.493729,61.84813,81.833062,95.458489,20.355275,48.324498,64.333226,75.796326,-12.913258,-11.01079,-2.514094,4.869156,21.804626,38.616188,43.646463,46.632133,38.748618,54.48849,56.864423,56.45976,49.462648,64.542432,65.849775,63.976774,54.493084,67.227785,67.950104,65.749418,5.645061,317.474127,-79.66697,296.220178
24,-8.162933,-1.038926,-0.233642,-0.208469,-1.532662,-4.145004,-8.54813,-13.650982,-26.524487,-11.708588,8.493748,22.072643,-33.410969,-15.121033,8.285488,27.274349,-36.34845,-21.262608,0.819111,18.294056,-37.358517,-30.922852,-16.418781,-3.782696,-10.952622,-16.985489,-14.519091,-7.672847,-3.475412,9.40928,15.454831,18.320013,11.294125,23.961456,30.70291,32.672637,22.815097,33.171061,36.173119,36.606175,31.880515,41.008633,40.190465,37.733935,27.294079,52.741264,75.054108,94.138344,44.684727,77.809959,95.396507,107.785263,33.801464,73.072609,93.595688,107.305778,25.84742,62.040218,82.108017,95.937355,20.788444,48.819145,64.913704,76.591118,-12.823449,-11.020386,-2.486875,5.015628,21.38129,38.485401,43.788785,46.976799,38.375855,54.471211,57.165036,57.000842,49.236135,64.622547,66.260069,64.607887,54.475571,67.356892,68.399313,66.40748,-2.509592,316.445476,-79.892332,296.021984
25,-9.924008,3.623897,0.38451,-0.566202,2.463227,4.17104,4.994236,4.57576,-16.392974,1.897099,20.830788,33.264222,-23.890228,-2.686466,19.948334,38.219742,-27.360374,-9.587471,11.706116,28.491898,-28.930606,-19.522853,-5.026462,7.461388,-15.498588,-23.861199,-22.000474,-15.476815,-7.976548,4.188863,11.130141,15.223415,8.141483,21.023125,28.559219,31.141263,21.015221,31.488622,35.170811,36.013902,31.143573,39.983441,39.531823,36.841802,27.62542,52.710354,74.799351,93.588856,45.221878,77.531124,94.777988,107.181576,34.436542,72.442142,92.862522,106.820743,26.259842,61.119266,81.013584,95.118336,20.581077,47.758724,63.729961,75.87949,-12.747162,-11.229078,-2.676004,4.823905,20.735529,38.330617,44.47708,48.345237,37.556699,54.635035,58.788096,59.693098,48.411347,65.148216,68.340058,67.824516,53.8564,67.939495,70.226792,69.144394,-12.406432,320.091471,-79.480654,295.47788
26,2.156537,-3.981531,0.555061,-2.141776,0.398174,-0.073838,-0.923161,-3.060391,-21.707886,-3.589119,15.746967,28.90623,-28.599587,-7.249695,16.024326,34.762859,-31.377114,-13.136708,9.020793,26.52911,-32.105347,-22.858372,-7.605778,5.794956,-10.96491,-15.902621,-12.494406,-5.586498,-3.288877,10.469239,18.411354,23.046946,10.456531,24.866903,33.71202,37.043442,21.449783,33.626458,38.684743,40.293329,30.399975,40.08481,40.8714,39.547767,28.206082,53.181027,74.727368,93.129032,45.74865,76.28619,92.924778,105.535618,34.80922,69.963398,89.67239,104.031544,25.997589,57.964886,76.87983,90.983082,19.338444,44.151112,59.176872,71.194702,-12.989236,-11.472597,-3.230102,3.757624,18.380121,36.691082,44.309465,49.681763,34.793788,53.519934,59.94047,62.956471,45.854287,64.358687,69.802604,71.393838,51.948398,67.518296,71.501765,71.666441,-10.212518,316.130642,-78.888216,293.356806
27,7.277641,-4.034797,2.087952,-5.958841,-3.650334,-8.897804,-12.554329,-15.842652,-27.192799,-17.794212,-3.256405,7.853462,-31.477226,-19.595604,-0.618679,15.510544,-32.170143,-22.183354,-4.237324,11.006321,-30.906887,-27.092205,-15.260571,-3.890556,-3.957003,-5.860978,-2.307477,3.13597,2.607041,13.967845,19.864206,22.951295,10.025958,22.387229,29.172723,31.274991,15.504133,25.775314,30.326418,31.403345,19.45979,27.050139,28.558183,27.868048,28.865066,52.979599,71.981975,88.008121,46.17271,73.087818,86.502491,95.519497,34.92992,65.502216,81.071606,91.540409,25.165787,52.81691,67.382778,77.337868,16.969494,38.484432,50.524933,59.347813,-10.964526,-7.35971,2.43556,10.734111,17.902284,37.850767,46.221801,50.875028,32.697152,53.728787,61.313108,64.238522,43.043372,63.729365,69.877544,71.199102,49.308816,66.567895,71.148652,71.24434,-2.883247,312.152911,-76.748634,287.455031
28,14.490852,-13.200311,0.821606,-14.900584,-8.952999,-20.685791,-29.264717,-35.449505,-35.724266,-35.891498,-26.096947,-17.648163,-38.925602,-38.120991,-24.656833,-11.915531,-39.143749,-38.290912,-24.1726,-11.51255,-37.527992,-38.514828,-28.17136,-17.931656,6.554905,9.731531,13.285971,17.308628,15.08008,26.998614,31.605997,33.455854,16.157081,28.805912,34.996836,36.823166,15.596832,26.340243,31.333344,32.602019,13.99168,21.905736,24.809981,25.373726,28.009803,51.191242,68.197723,82.201286,52.58147,75.060195,82.842338,86.723705,43.394668,68.109901,76.565437,80.76741,33.901565,55.42416,62.901523,66.583568,24.404125,41.453601,48.545642,52.944316,-9.058539,-4.562096,5.15033,13.393701,20.427197,41.853503,51.121462,55.475014,33.607662,57.574874,66.212348,69.183531,42.819156,65.754728,73.176881,74.850564,48.479248,67.07799,73.340964,74.562214,11.665689,299.100428,-75.868944,272.702275
29,13.890061,-10.662518,-7.252396,-24.027777,-17.277203,-34.260155,-45.691727,-52.828171,-44.64497,-53.286015,-47.866082,-41.308766,-43.954823,-52.258473,-43.672085,-34.124062,-40.906666,-47.923451,-39.031472,-29.58268,-36.281742,-42.668873,-36.479473,-28.795395,10.25783,17.241518,22.78095,27.351555,20.563394,31.169274,34.025243,34.895541,18.041408,29.399556,33.954526,34.960193,14.417832,24.004201,28.277144,29.181318,10.333672,16.79794,19.793588,20.789943,27.686325,50.851788,67.589321,79.920765,56.572437,78.345337,81.955044,81.675053,49.639835,72.062336,74.668236,73.710743,41.23391,60.306553,61.807732,60.311714,32.065224,48.036816,50.312508,50.027801,-11.347898,-8.982166,-0.42567,8.222425,9.100986,29.982616,39.358626,43.144469,22.176969,46.150171,54.890756,57.643108,33.118376,55.709221,63.126717,64.730487,41.69825,59.75717,65.654359,66.643342,25.483435,288.800042,-83.193655,249.03663
30,27.705288,-25.539723,-8.090618,-34.139098,-24.870633,-49.2235,-66.64452,-78.239056,-58.99403,-79.048417,-79.100911,-75.396058,-55.710446,-76.034443,-74.165474,-68.889164,-50.194394,-67.627888,-64.476712,-58.568173,-43.056164,-57.174534,-55.961472,-51.782238,11.520095,21.440508,28.633332,33.613849,22.177734,32.792605,35.37518,36.071379,18.71135,30.006921,33.900432,35.126968,14.63607,24.659063,28.41744,29.162323,10.255879,17.05103,20.427752,22.020098,26.144073,48.609615,63.876159,74.050335,55.436439,73.981224,75.167347,72.347442,49.856632,68.227009,67.727199,64.01358,42.52613,58.686035,57.240887,52.845463,34.300369,48.028427,47.81345,44.839828,-10.34932,-10.447219,-4.763594,1.478774,-2.14269,12.800267,20.508398,23.120206,8.49953,26.308275,33.112578,35.084182,18.777238,35.73931,41.727421,43.209573,28.309149,42.178989,46.850815,47.583435,52.88031,263.992253,-91.592686,215.629466
31,26.668693,-32.215005,-11.00893,-42.432265,-27.395943,-55.411995,-76.310589,-89.186085,-64.319973,-94.507461,-96.9268,-93.73423,-60.528213,-90.963398,-91.609428,-87.55315,-54.62899,-80.873932,-79.908565,-75.131641,-47.133842,-66.941631,-66.793556,-63.018482,5.673097,12.732972,20.426913,26.820427,12.152358,24.114413,27.839321,27.796182,12.219554,25.702287,29.343339,28.728045,11.985063,24.018428,27.002097,25.646218,11.299325,19.549217,22.283723,22.022074,25.006038,46.30141,59.243831,65.011036,51.911018,67.24538,66.647071,61.937118,45.66885,60.349273,57.867336,52.232895,37.927288,53.391506,51.629928,45.996242,29.912841,44.504825,44.737438,41.165176,-9.933289,-13.552153,-10.843749,-6.069825,-16.900977,-11.101292,-8.585747,-10.682358,-8.69941,-0.465746,0.895887,-1.329215,1.324139,12.804182,18.786266,20.719011,12.337473,22.125555,26.386321,27.78143,79.203958,232.691919,-102.946661,174.111872
32,16.556099,-36.676386,-15.337429,-47.666625,-25.587341,-51.781471,-71.818542,-82.993675,-58.409843,-86.619266,-89.701733,-87.212666,-53.662949,-82.736618,-84.705208,-81.727638,-47.532555,-72.821377,-72.907757,-69.130955,-40.260132,-59.674141,-60.625992,-57.986275,-5.739737,-4.182207,1.995656,8.767237,-4.525619,7.452262,13.40825,15.439073,1.418185,17.455539,22.75696,22.893225,7.558597,23.464922,27.138405,26.044305,13.369848,25.356115,28.506177,28.195424,24.292739,44.420436,54.984764,57.370456,48.146038,61.019382,60.537231,57.191848,40.814289,53.611255,52.689548,49.425201,32.295352,47.844131,47.922214,44.192688,24.011341,38.918747,40.490158,38.517345,-12.45675,-22.940031,-26.832462,-27.66324,-35.667625,-40.546877,-43.270095,-48.795892,-29.268473,-31.811213,-34.945849,-39.125703,-19.43961,-12.993979,-4.363266,0.607334,-7.350633,-1.760622,4.434377,8.492608,95.421164,197.880689,-118.622983,128.310403
33,18.233757,-40.026802,-17.165291,-47.22808,-26.860519,-50.871963,-67.963371,-76.208965,-54.638832,-79.179474,-82.450264,-80.942104,-47.518043,-72.629505,-75.324188,-73.97121,-39.664123,-63.350098,-64.354866,-61.192932,-31.429779,-51.860779,-54.667328,-53.076256,-14.67325,-18.562717,-13.783729,-7.380662,-25.920748,-19.275669,-15.401843,-15.181684,-16.540255,-5.66581,-2.872444,-4.450346,-5.197421,9.217639,15.136737,16.066778,7.138694,18.365443,22.718804,23.73119,25.143596,43.440159,50.529899,48.94059,38.415207,49.613582,51.747024,51.2761,27.921901,39.807506,42.908546,44.063816,17.567917,34.761142,39.601879,40.154434,8.706493,25.470234,30.728519,31.862858,-15.779571,-32.752474,-42.120925,-46.705332,-58.009127,-73.883287,-82.283443,-91.75435,-53.3832,-68.795424,-77.660671,-85.252575,-43.118917,-44.189879,-33.227316,-25.284249,-29.194125,-29.240234,-22.039296,-16.082185,113.309023,159.837239,-136.134172,83.065675
34,18.849106,-46.704127,-13.824463,-41.072088,-26.187698,-48.941116,-63.354035,-68.986565,-48.166924,-70.195702,-74.842896,-74.864891,-40.120812,-63.522446,-68.179047,-68.777779,-32.078339,-55.943024,-57.806603,-54.711891,-24.407181,-45.433273,-48.561081,-47.028717,-17.941515,-28.313429,-28.381336,-24.7771,-45.187291,-45.688457,-43.995526,-45.646232,-36.014174,-32.10491,-30.724461,-32.633654,-23.084441,-10.159623,-0.362414,3.371875,-8.02693,2.886788,10.31133,13.71329,25.470486,41.238418,43.966713,39.347351,33.458713,39.095798,42.007473,43.067573,20.165932,27.296734,32.625423,35.999668,7.363815,20.773979,28.653854,31.684078,-3.936585,8.901512,17.345913,21.617203,-16.844815,-37.013624,-51.253509,-60.903166,-65.713474,-89.984769,-103.470843,-116.330435,-64.448467,-90.108209,-104.563455,-116.399141,-57.580796,-67.061769,-54.273438,-42.917031,-46.686795,-53.257736,-44.698493,-35.487919,131.720907,114.823965,-150.395857,43.68444
35,7.947235,-42.364253,-15.821892,-41.872609,-25.08799,-45.467079,-56.35849,-58.242805,-39.711594,-57.062256,-60.763985,-60.843842,-29.411453,-47.886063,-52.243126,-53.85141,-19.944603,-41.570389,-43.775551,-40.871017,-11.717445,-31.653786,-34.859573,-33.120827,-17.645545,-32.839271,-38.328561,-39.034041,-58.246095,-66.952773,-70.512339,-76.779367,-52.035337,-57.510438,-61.61781,-67.623506,-40.643856,-32.392846,-19.777929,-13.196039,-26.137739,-18.167354,-8.719708,-2.934411,26.081909,39.93504,38.604996,30.088463,30.886173,35.011093,37.780426,39.287727,14.935913,20.189175,25.266506,28.936295,-0.276169,12.041954,20.674255,24.302033,-13.76881,-1.842888,7.858646,13.086582,-20.00877,-42.974613,-60.358357,-72.236685,-74.302721,-102.525703,-120.022411,-136.607161,-73.828113,-104.302476,-123.31548,-139.204803,-66.903296,-77.336463,-61.11442,-47.707738,-55.887902,-64.280459,-53.04093,-41.434786,139.168367,73.761998,-166.717524,3.114117
36,5.439514,-41.521076,-16.54137,-35.357681,-25.411445,-43.424377,-49.109848,-45.990166,-34.830047,-46.903335,-52.31044,-54.691177,-22.30307,-36.433914,-44.203811,-49.304489,-10.780838,-30.258545,-35.680275,-34.686355,-1.042854,-19.442734,-25.637787,-26.092644,-16.297422,-34.147391,-44.867646,-50.415679,-64.547805,-82.67893,-92.66336,-102.764162,-61.983792,-78.983751,-89.258563,-98.162277,-53.260188,-52.520776,-36.874253,-26.005834,-40.858327,-38.079139,-25.973551,-16.695805,26.09404,37.563377,33.993599,25.041309,30.632251,33.585537,35.552456,36.178196,14.927547,19.467968,23.53981,25.868065,-0.483719,8.675205,16.033996,19.062584,-15.315926,-7.281201,1.587913,6.740329,-24.064747,-48.836205,-68.883026,-83.320729,-78.344328,-107.257974,-126.355675,-144.160996,-78.288904,-110.747057,-131.509003,-149.812329,-72.313459,-87.091885,-69.761064,-55.104968,-62.703137,-74.841036,-62.652307,-49.276532,144.071594,33.497027,-183.795181,-30.987459
37,3.522194,-36.718537,-17.132195,-29.861326,-26.453361,-42.924179,-44.198799,-37.635956,-32.858459,-42.407959,-48.102379,-51.710632,-19.2789,-30.615303,-40.105385,-47.49559,-6.277588,-24.042252,-30.528488,-30.102676,4.963211,-11.926964,-18.575455,-19.089867,-13.55826,-32.642144,-47.045372,-56.163342,-67.556238,-92.648848,-107.961088,-122.246302,-68.07014,-95.320662,-111.289627,-123.544676,-61.710468,-68.789248,-50.325752,-36.149049,-51.349574,-54.991687,-41.152851,-29.481388,25.448433,35.025856,31.054527,22.670883,29.652363,31.724568,33.250076,33.499695,15.007164,18.347946,21.3708,22.758099,0.263981,6.683762,13.99427,17.605911,-14.780159,-9.442497,-0.343403,5.621567,-28.084396,-53.568606,-74.691946,-89.593055,-80.944339,-109.883499,-129.712335,-147.562108,-80.526943,-114.742485,-136.929263,-157.45395,-74.594843,-94.977722,-77.715515,-61.985131,-65.470346,-81.782375,-70.071675,-55.427228,146.859856,-2.823637,-201.661308,-60.450912
38,3.345314,-33.429795,-15.965011,-24.656223,-26.876518,-43.433784,-43.177162,-35.133385,-33.858238,-42.907013,-47.538734,-50.023819,-19.674293,-30.31105,-39.583992,-46.86692,-5.839828,-22.045509,-28.705353,-28.133812,6.734116,-8.614448,-15.562454,-16.277824,-13.752107,-34.164947,-50.978535,-62.422414,-68.777359,-95.463945,-111.830531,-127.302488,-70.399388,-100.132286,-117.498521,-131.450119,-65.257901,-76.998652,-57.489211,-41.819522,-56.520699,-63.850362,-49.429529,-36.411282,24.164863,32.076255,27.752185,19.977596,27.682434,28.702732,29.446392,28.99617,13.647205,15.86515,18.184364,18.612705,-0.842686,2.781509,9.969348,13.911071,-16.259148,-14.127182,-4.89362,1.773788,-31.236378,-56.537986,-78.366052,-94.554219,-83.303211,-112.081462,-132.395821,-150.317367,-82.655881,-117.107634,-139.853545,-161.570489,-76.762271,-99.840376,-82.776906,-66.39893,-67.615361,-86.196267,-75.327101,-60.141761,149.44923,-35.740703,-218.382259,-84.594406
39,4.639641,-31.461218,-11.171093,-24.14924,-25.947968,-43.203278,-42.942719,-34.157387,-35.17614,-44.859718,-49.067001,-51.136253,-21.088211,-31.678253,-40.670883,-47.903847,-6.675568,-21.302651,-28.143196,-27.949539,7.216576,-6.740891,-14.273254,-15.645241,-12.972934,-33.317435,-51.173928,-63.348667,-67.161122,-94.03747,-111.149889,-127.22701,-69.660822,-100.567823,-120.022411,-135.831106,-65.194556,-80.814295,-61.1042,-44.221467,-57.459996,-67.75743,-53.364959,-39.408032,22.271266,28.292736,22.876556,14.132938,22.469833,23.104145,23.558647,22.989234,8.220016,10.160362,12.153923,12.68621,-6.209141,-2.920006,5.190044,10.188308,-21.312436,-19.184269,-9.236847,-1.872574,-31.356035,-56.732249,-78.623011,-95.445731,-85.578192,-115.335502,-136.085109,-154.697172,-84.56219,-119.217466,-141.969125,-163.762302,-77.430225,-99.171486,-80.516822,-64.096789,-66.586544,-84.446544,-72.761409,-57.842991,153.542061,-66.308812,-230.100162,-107.850537
40,8.040047,-26.409351,-6.575684,-13.621097,-26.598565,-43.851586,-42.579598,-32.843995,-37.589425,-47.017342,-50.830696,-52.766396,-23.471604,-33.82251,-42.926377,-50.281678,-9.006203,-21.481293,-27.981743,-28.184189,5.709388,-6.190636,-13.912217,-16.172448,-13.348016,-33.949756,-52.62724,-64.942652,-65.819879,-92.888579,-110.798885,-127.309225,-68.849453,-99.528715,-119.531952,-136.129751,-64.889176,-83.438762,-64.789036,-47.894855,-57.594279,-70.699544,-57.378539,-43.233977,21.685501,26.243523,20.685459,12.722774,20.568512,20.78746,20.810154,19.430695,6.862644,9.573921,11.9981,12.457798,-7.191582,-4.002182,4.450436,9.86578,-22.151848,-19.739628,-9.577423,-1.99744,-31.950509,-57.255022,-79.281104,-96.205796,-85.860925,-115.423975,-136.381773,-154.678221,-84.688903,-118.956917,-141.112054,-162.740281,-77.414506,-99.567896,-81.061859,-64.719307,-66.466328,-83.788785,-72.417249,-57.855431,161.271796,-91.753804,-236.986158,-120.507275
41,11.015968,-22.602235,-0.422356,-8.657655,-26.747955,-43.473976,-41.36895,-30.752174,-38.58094,-46.971062,-50.23906,-52.221977,-24.618095,-33.622421,-42.335747,-49.543533,-10.351227,-19.587067,-25.778961,-27.067429,4.849228,-4.493362,-12.150124,-15.430756,-13.940835,-35.011702,-54.711066,-68.450801,-65.233682,-92.811147,-111.413556,-128.257676,-68.218869,-98.478418,-118.049428,-134.476337,-64.497428,-85.067281,-67.807257,-51.106719,-57.57257,-72.340839,-60.422695,-46.227788,21.202229,25.658581,20.179734,13.317387,19.835198,21.759613,22.623814,21.514218,6.67503,12.073448,16.86216,18.915081,-6.96072,-1.080368,7.527958,12.556549,-21.50338,-17.127227,-6.96936,0.089653,-30.432233,-55.2944,-77.232531,-93.781972,-84.459852,-113.312012,-133.687507,-151.014094,-83.367922,-117.316066,-138.099421,-157.326868,-76.140987,-95.972555,-77.517549,-61.833355,-65.169344,-80.276585,-68.745755,-55.338005,172.061268,-113.749045,-237.63501,-128.557936
42,14.260414,-19.672551,8.296755,-1.823456,-26.441528,-42.053352,-38.541298,-26.587326,-38.112213,-44.923187,-47.113563,-48.381638,-23.992699,-31.251388,-39.482277,-46.478302,-9.716583,-15.775543,-22.217834,-24.90097,5.887093,-1.038963,-8.9916,-13.55825,-15.393875,-37.412145,-57.39543,-71.056675,-66.399903,-94.595442,-114.253524,-131.839047,-69.034867,-99.004363,-119.185489,-136.390792,-64.973215,-86.647159,-70.280472,-53.680797,-57.642824,-73.306582,-62.408171,-48.212357,21.199316,26.891087,22.201618,15.874403,21.962929,26.565033,28.916811,28.701931,8.851811,17.174526,23.950041,27.405647,-4.892115,3.71937,11.979481,16.161398,-19.452902,-12.647278,-2.669397,3.632572,-26.770813,-50.674802,-72.440313,-88.778593,-80.701729,-108.878139,-128.681198,-145.4322,-80.375917,-113.320137,-133.263255,-150.902033,-73.668082,-90.89369,-72.208236,-56.87403,-63.124968,-76.26689,-64.321969,-51.751876,186.315416,-133.3752,-229.344521,-130.334996
43,14.763817,-18.116546,15.557202,4.765144,-25.146149,-39.093544,-33.47834,-20.901764,-35.549309,-41.444435,-43.141731,-43.659599,-20.935661,-27.417,-34.632294,-40.469673,-6.383263,-10.435547,-16.707092,-19.899033,9.387932,4.260361,-3.433251,-8.457253,-15.048368,-37.228937,-56.864021,-69.512155,-67.501867,-96.326525,-116.761057,-134.720025,-69.668544,-100.730341,-122.084949,-140.361192,-64.733528,-86.270176,-69.695631,-53.292436,-56.277362,-72.359725,-61.424499,-47.546165,22.147905,30.678783,27.764282,21.590291,27.00983,34.644699,38.957239,40.499359,13.828079,25.0941,33.660055,39.011798,-0.17882,11.288961,18.52985,21.533163,-14.91738,-5.393212,3.844396,9.01181,-21.549971,-44.143252,-65.663141,-81.866012,-74.948478,-102.167278,-121.21925,-137.414319,-75.794586,-107.501334,-126.517457,-142.860181,-70.254532,-85.524183,-66.548067,-51.348835,-61.063339,-72.937855,-60.295058,-47.779738,201.293907,-151.655878,-213.572645,-125.733984
44,12.517158,-10.30992,14.71186,6.689045,-24.542678,-36.647163,-29.318138,-16.412292,-33.491981,-37.922607,-38.792175,-38.661232,-18.52732,-23.841819,-30.545608,-35.800689,-3.830246,-5.827423,-12.135246,-15.816948,12.065117,8.672081,1.017151,-4.345687,-15.651284,-38.277184,-58.004397,-70.572634,-68.657418,-98.264648,-119.477854,-138.049374,-70.352611,-102.051299,-123.844485,-142.686593,-64.911032,-87.046514,-70.060492,-53.563459,-55.848823,-73.213897,-62.310605,-48.42324,23.386683,35.094567,34.235974,29.178721,33.212357,43.747124,49.882696,52.82301,20.234436,34.633141,45.14126,51.902172,5.911657,19.87789,25.389839,26.560221,-9.386736,2.196762,10.139128,13.763054,-16.888083,-37.961594,-59.354017,-75.284186,-69.149088,-95.050475,-113.247423,-128.745422,-71.255631,-101.446576,-119.248196,-134.490167,-67.217647,-81.01338,-62.064051,-47.079602,-59.849618,-70.327337,-57.073576,-44.402855,214.242633,-162.301421,-198.429217,-119.380562
45,6.088097,-4.509215,9.850273,5.824941,-23.206627,-34.421425,-26.921104,-13.920479,-31.403755,-35.418915,-35.981644,-35.373734,-16.165146,-21.865952,-28.013054,-32.687874,-1.073318,-2.269135,-8.618019,-12.561241,15.016731,12.194389,4.612839,-0.591476,-15.111441,-37.423544,-56.873612,-69.112618,-69.733333,-99.598091,-120.678625,-139.211857,-70.744681,-102.945536,-124.153289,-142.151658,-64.702237,-85.643552,-67.879703,-51.450851,-54.99673,-71.703149,-60.250581,-46.700466,24.353995,38.470356,39.194619,34.64546,37.357785,48.990143,56.138758,60.663952,24.395028,39.399639,50.406184,58.329209,9.77722,23.591555,28.409787,29.553549,-6.349382,5.002487,12.545088,16.224404,-14.37553,-34.473804,-54.993135,-71.477764,-65.817123,-91.125791,-109.049775,-124.459601,-68.304406,-97.520534,-113.963291,-127.715347,-65.166437,-80.121544,-62.179827,-46.932939,-58.909002,-70.565437,-57.806862,-44.515836,221.036688,-167.254257,-187.872986,-113.999242
46,-0.420731,2.092891,1.937897,1.660518,-21.980552,-33.293563,-26.653312,-14.610511,-30.738304,-35.344825,-36.956314,-36.876342,-15.675567,-22.859802,-29.972602,-34.938675,-0.539085,-2.515411,-9.164428,-13.019851,15.632103,12.37143,4.579445,-0.599327,-14.784568,-36.031245,-54.060426,-64.666829,-69.914737,-98.746321,-118.928959,-136.746056,-70.751751,-101.366386,-121.019728,-137.278683,-64.478462,-82.222758,-63.580741,-47.341055,-54.36791,-68.89789,-56.712307,-43.757821,24.734613,39.968193,41.362621,36.211882,40.136856,51.177189,57.795851,62.354748,27.121926,40.35894,49.092711,56.051193,12.345343,23.807676,27.327187,28.379053,-4.016172,5.912647,12.295572,15.512043,-13.107016,-33.352181,-53.881094,-71.042458,-64.446473,-90.101127,-108.580073,-124.588727,-67.197622,-96.218332,-113.608466,-128.833479,-64.190512,-80.94539,-64.624674,-49.895455,-58.058366,-71.047146,-59.319661,-45.915987,221.311964,-165.528562,-185.239082,-112.70592
47,-7.27621,10.751957,-7.937731,-3.833694,-22.140816,-34.510357,-29.503945,-19.110638,-32.887665,-39.206257,-42.238942,-43.1582,-18.222943,-27.575547,-35.659607,-41.101216,-3.121651,-6.977715,-13.197476,-16.076191,13.062744,8.497547,0.916431,-3.55465,-13.514587,-33.482815,-50.836968,-61.142762,-68.634817,-96.235928,-115.2475,-132.252168,-69.858598,-99.278174,-117.21669,-131.562181,-64.13576,-79.992219,-61.05499,-44.946973,-54.579101,-67.834639,-55.244489,-42.560196,23.620571,38.308022,39.660645,33.874489,39.624504,49.153633,54.355442,58.001164,26.964134,38.342869,44.435189,49.908818,12.478192,21.322357,23.823315,25.130024,-3.473465,4.282872,9.406369,12.237934,-14.34412,-35.546615,-55.760838,-72.515201,-66.253206,-92.709651,-112.211834,-129.065752,-68.378065,-97.894898,-116.251804,-132.827303,-64.710804,-83.302065,-69.566693,-56.203545,-57.97292,-71.818502,-61.807253,-49.358055,214.627224,-155.343662,-192.585343,-117.106671
48,-13.929428,18.513175,-17.744533,-9.450175,-23.086945,-37.298184,-34.489678,-25.136548,-36.981835,-45.286663,-49.439816,-51.630696,-22.956448,-34.316987,-43.831307,-50.777424,-7.852524,-14.155678,-19.557347,-21.152195,8.627426,1.926944,-5.301968,-8.726487,-12.747518,-31.949639,-49.811217,-61.361173,-66.337711,-92.929262,-110.879029,-127.13853,-68.369363,-96.786009,-113.464667,-126.424452,-63.96908,-78.900789,-60.382346,-44.764872,-56.073115,-68.506545,-55.982311,-43.432631,22.252773,34.958885,35.329754,29.539009,35.5643,42.908294,46.331337,48.444889,23.166858,32.596515,36.405613,40.184738,9.301117,15.44387,17.792953,20.04927,-6.1745,-0.699669,4.073295,7.174885,-17.516878,-39.819975,-59.94905,-76.723272,-70.551621,-98.227881,-118.420906,-135.558131,-71.647969,-102.784113,-121.780853,-139.196965,-66.90097,-87.800468,-75.21826,-62.546094,-59.034311,-73.906391,-64.626888,-52.474083,200.940554,-137.815956,-210.087118,-127.542315
49,-13.272606,17.383016,-20.085606,-10.778676,-24.0149,-40.515827,-39.992066,-31.300198,-41.258171,-51.504444,-56.791867,-60.050183,-27.696064,-41.112168,-51.931526,-60.225437,-12.649865,-21.230713,-25.40395,-25.611157,4.119438,-4.444439,-11.049351,-13.582306,-11.609331,-29.584052,-47.709619,-59.947141,-64.193271,-89.642235,-106.569482,-122.090748,-67.031285,-94.348671,-109.946186,-121.794546,-63.689221,-78.340673,-60.119864,-44.549557,-57.08182,-69.056729,-56.596743,-43.909351,21.520374,31.487057,29.72572,22.611637,30.45298,35.266056,36.845444,37.299511,17.646057,24.230759,25.989487,28.031078,4.039147,7.055512,10.3064,14.079552,-11.077618,-8.16021,-2.788296,1.568653,-20.96877,-44.691012,-65.249496,-82.298711,-75.84947,-105.024832,-126.106766,-143.647296,-75.60827,-108.641468,-128.80627,-147.554948,-69.47876,-92.109323,-79.59592,-66.706519,-60.136241,-76.781259,-68.092013,-55.79117,187.578913,-121.765282,-230.261759,-139.653333
50,-8.76384,12.983771,-17.823887,-10.024275,-24.862152,-42.711536,-43.055008,-35.168827,-44.106926,-55.637592,-61.498592,-65.40881,-30.86974,-44.715248,-55.812744,-64.581699,-16.050705,-25.60746,-29.183201,-28.927654,0.881904,-8.376789,-14.614552,-16.925354,-11.243707,-29.082854,-47.468897,-60.216737,-62.843956,-87.595042,-104.279739,-119.827567,-66.214027,-91.636519,-105.48455,-115.645147,-63.594591,-78.478809,-61.421466,-46.256647,-57.658797,-69.916717,-58.274677,-45.547972,20.176712,27.800926,24.234638,16.547825,26.107441,29.470928,29.58173,28.314892,13.142601,18.007839,18.165962,18.47398,-0.254608,0.996575,4.741677,8.596516,-14.567837,-13.165626,-7.28825,-2.738113,-22.592719,-47.511736,-68.836886,-85.50586,-79.182606,-109.516945,-130.889603,-148.770863,-78.318091,-113.128024,-135.357013,-156.143747,-70.91225,-93.246932,-79.053331,-66.045721,-59.966183,-76.899576,-67.333313,-55.260623,178.453257,-110.076491,-248.447462,-150.972588
51,-2.180306,7.230504,-10.382137,-5.90744,-26.254737,-44.38512,-43.781272,-35.325153,-45.883415,-57.264667,-62.20206,-65.360126,-32.394733,-45.412971,-55.675529,-64.360965,-17.298088,-26.532348,-29.247013,-28.615276,-0.014534,-9.243633,-15.13805,-17.2015,-11.050193,-29.790817,-49.346894,-63.301945,-62.350231,-87.499641,-104.729582,-120.81256,-66.219476,-92.719235,-107.769121,-119.542938,-63.923777,-81.342873,-64.680807,-49.449338,-58.163206,-72.300879,-61.270903,-48.182003,19.256607,25.33247,19.88641,10.971474,22.40395,24.857918,24.504776,22.712929,8.854328,13.304249,13.602219,13.65596,-4.870766,-3.825497,1.140324,5.727928,-19.284622,-17.954613,-11.158367,-5.871094,-23.153409,-48.389722,-69.526082,-85.286646,-80.632857,-111.815137,-132.99959,-150.862044,-79.426603,-115.234682,-137.99968,-158.749461,-71.37535,-92.673987,-76.732414,-62.915454,-59.739111,-76.652348,-66.26001,-53.844139,175.856174,-104.024052,-259.246376,-158.058093
52,5.803471,-1.693882,-3.075508,-1.207952,-26.5513,-44.042999,-42.55703,-33.257332,-45.467926,-55.494072,-59.254188,-61.618172,-31.764679,-43.194443,-52.394943,-60.545975,-16.770012,-24.294548,-26.578079,-26.366409,0.459641,-7.469055,-13.100624,-15.47319,-11.499915,-30.779749,-51.186679,-66.029515,-62.382329,-88.394829,-106.732842,-123.501392,-66.255531,-94.009503,-110.510989,-123.943828,-63.884105,-83.317228,-67.257635,-52.108252,-57.963321,-73.290363,-62.80505,-49.527832,19.666363,25.647251,19.226063,10.256893,21.096004,24.247375,24.676174,23.013611,7.102615,12.668976,15.482254,16.504211,-7.001885,-3.762966,2.801044,7.453365,-21.776711,-18.471543,-10.166794,-4.326565,-22.661481,-47.003963,-68.30549,-84.018663,-79.923564,-110.864391,-131.253826,-148.281266,-78.936129,-115.135983,-136.899692,-155.770618,-70.904707,-90.198873,-71.906965,-57.063108,-59.185127,-74.639591,-62.780736,-49.981657,181.213943,-106.213256,-262.767586,-159.761367
53,13.05336,-10.200788,3.693752,3.416981,-25.748497,-41.883659,-38.659515,-27.89994,-42.268547,-50.350594,-53.038238,-54.607017,-28.054871,-36.98204,-44.997528,-52.203117,-13.0578,-17.929733,-21.038315,-22.389336,4.092705,-1.658386,-7.59034,-11.116013,-12.581687,-32.22901,-52.530755,-66.974781,-64.184731,-91.278261,-110.950081,-128.478344,-67.28562,-95.767461,-113.364767,-128.019516,-63.643316,-83.759216,-67.867337,-52.684433,-56.187605,-71.970816,-61.992925,-48.733336,19.973888,26.391678,20.624359,13.017014,22.548248,28.428303,30.49498,29.689327,8.945995,17.735001,23.867123,26.34565,-4.836422,2.069733,9.609501,13.529102,-19.08062,-13.46418,-4.573391,1.083378,-21.769,-45.212176,-65.952852,-80.148092,-77.420768,-107.31892,-126.704,-142.590634,-76.525288,-111.424271,-131.21336,-147.560248,-68.705256,-84.37342,-65.422459,-50.856787,-57.407558,-70.037549,-57.746679,-45.902972,193.887302,-116.389581,-259.453835,-156.319923
54,15.69738,-11.993171,10.213932,8.044238,-24.866844,-38.88652,-33.286331,-22.226967,-38.549995,-45.088692,-46.814873,-47.336059,-23.675697,-30.836403,-37.493523,-43.270798,-8.577255,-11.128921,-14.880501,-17.267303,8.326424,4.422157,-1.674133,-5.852943,-13.20482,-34.018738,-53.914106,-67.577768,-66.325797,-94.494791,-115.18177,-133.551829,-68.722719,-98.513289,-117.549891,-133.804308,-63.90561,-84.055646,-67.695384,-52.435656,-54.903638,-70.960079,-60.692338,-47.501304,19.7146,27.346951,23.634144,18.375584,25.163944,34.62838,38.87487,39.185806,12.740639,25.894444,35.315277,39.388699,-0.357124,10.660973,18.08765,20.578503,-14.043022,-5.961262,2.555306,6.96936,-20.501989,-41.961334,-61.563206,-74.640335,-73.465823,-101.503423,-119.901171,-134.697374,-73.279757,-106.359234,-124.030633,-137.896546,-66.446966,-78.8873,-59.810603,-45.632653,-56.088723,-65.348837,-52.74032,-41.855198,209.322847,-127.954612,-249.501738,-147.847545
55,13.781342,-9.615972,14.255562,12.112124,-24.034539,-35.940262,-28.363312,-16.670266,-34.229485,-39.714844,-41.155793,-41.341988,-19.130768,-25.317513,-31.472466,-36.3788,-4.097168,-5.807923,-9.808571,-11.942391,12.208831,8.746856,2.626602,-1.149056,-13.366068,-35.068606,-55.164768,-68.793856,-68.245419,-97.457677,-118.710399,-137.203718,-70.425434,-102.999048,-125.049793,-144.162333,-64.794377,-85.544884,-67.199617,-51.252435,-54.920885,-71.729526,-60.211271,-46.851847,20.533161,30.300808,28.762321,24.168949,28.759094,40.951412,47.035149,48.361118,17.015053,33.542152,45.497498,51.06094,3.987751,18.444923,24.879982,26.014332,-9.920071,0.860699,8.504448,11.707581,-18.9281,-38.454393,-57.839807,-70.601703,-69.49069,-96.157559,-114.082439,-128.284196,-70.33308,-102.503374,-118.92086,-131.232962,-65.010963,-75.774267,-57.071413,-42.937105,-56.282564,-63.277746,-50.565813,-39.917778,222.897,-136.838166,-235.453365,-135.003003
56,9.61718,-7.42168,14.645611,12.708667,-23.056252,-33.711274,-24.794449,-12.968926,-31.08323,-36.30922,-37.74836,-37.824326,-15.743958,-21.636498,-27.092194,-30.959107,-0.610199,-2.08445,-6.33973,-8.210267,15.423706,11.851203,5.974708,2.828361,-12.159092,-34.203155,-54.502229,-67.81296,-68.74682,-98.65403,-120.446819,-139.283932,-70.843954,-105.061923,-128.814487,-149.082058,-64.770159,-85.400311,-65.674904,-49.184914,-54.559126,-71.699194,-58.934955,-45.425268,21.533729,33.222072,33.820003,29.834587,32.049362,45.656536,52.734546,54.939892,20.225818,38.112842,51.022224,57.644932,6.804085,22.934944,28.746597,29.021839,-7.355873,5.231701,12.810768,15.465408,-16.948941,-35.728174,-55.52379,-69.23533,-67.318912,-93.184348,-110.743076,-124.896651,-68.789906,-100.039264,-116.152302,-128.412918,-64.183856,-74.726199,-55.652364,-41.153139,-56.207241,-62.427749,-49.295671,-38.420285,232.359816,-143.339625,-220.962118,-121.374115
57,4.482078,-3.57886,11.779598,10.588226,-22.470062,-32.561874,-22.726433,-11.131439,-28.882782,-34.461273,-36.51519,-36.848694,-13.165764,-19.204445,-24.596947,-28.058441,2.370758,0.356552,-4.55397,-6.285072,18.442703,14.380783,8.17337,5.362267,-11.053036,-33.624924,-53.72886,-66.522264,-69.33988,-99.385895,-121.139997,-140.065705,-71.346651,-105.929543,-130.283947,-150.806112,-64.700828,-85.213077,-64.204138,-46.961704,-53.870556,-71.445643,-57.792025,-44.047838,22.35854,35.633366,37.47892,33.51305,34.369274,48.565567,55.916336,58.668743,22.152031,40.057251,52.224644,58.817905,8.423687,24.368912,29.668522,29.675297,-5.882881,7.1502,14.561909,16.991684,-14.717602,-33.822136,-54.021844,-68.633687,-65.679368,-91.693989,-109.188702,-123.862731,-67.638165,-98.307832,-115.365828,-129.209711,-63.44179,-74.955061,-55.107438,-39.890553,-55.931988,-63.249709,-49.505771,-37.732076,236.769367,-145.898884,-209.255047,-109.766288
58,0.263466,-0.305951,9.423546,7.999241,-22.292496,-31.998184,-22.012596,-10.877014,-28.111427,-34.011864,-36.638992,-37.300346,-12.309311,-19.257843,-24.92585,-28.34127,3.420685,0.73645,-4.223763,-5.529236,19.440056,14.742348,8.360001,5.980659,-9.958298,-32.844618,-52.960254,-65.70741,-68.689093,-98.782165,-120.368532,-139.35205,-70.911296,-105.796969,-130.367291,-150.863584,-64.450918,-85.20136,-63.223765,-45.410818,-53.871461,-71.658195,-57.034913,-43.09431,22.949226,37.657162,39.493938,33.714466,35.321159,48.528957,55.406422,58.111576,22.332172,38.331379,48.903671,54.974098,7.714714,22.223259,27.21262,27.056637,-7.299339,5.723602,13.135151,15.401825,-12.392057,-32.106169,-52.993527,-69.024715,-65.099359,-91.559997,-109.604097,-125.448602,-67.491866,-98.499277,-117.4505,-133.541753,-63.367544,-76.7449,-56.042633,-39.854614,-55.831175,-64.799925,-50.451451,-37.686715,237.059361,-145.244981,-199.804973,-100.807193
59,-2.318962,1.569108,5.914055,5.317668,-22.142098,-32.167854,-22.575508,-11.14579,-28.120239,-34.364525,-37.534241,-38.899979,-12.372734,-19.383339,-25.32621,-29.154076,3.499626,0.164612,-4.8536,-5.969834,19.623299,14.24723,7.824989,5.837997,-9.191369,-31.955486,-52.514581,-65.71522,-67.812267,-97.779992,-119.490716,-138.576311,-70.335868,-104.939403,-129.556981,-149.792071,-64.11033,-85.047422,-62.948799,-45.007948,-53.907538,-71.785138,-57.039074,-43.071897,23.475185,39.251175,40.617965,32.974479,35.768783,47.366272,53.336025,55.91613,21.743259,35.101043,43.700248,49.29475,6.189594,19.051494,24.062153,24.428947,-9.508816,3.465442,11.224331,13.95108,-10.729079,-31.86693,-53.561181,-70.466773,-65.644375,-93.059844,-111.625717,-128.413952,-68.09874,-99.963775,-120.771197,-138.654727,-63.590096,-79.396914,-58.504523,-41.771502,-55.797466,-66.803986,-52.161166,-38.518925,234.819792,-142.848158,-193.811525,-94.66181
60,-2.523789,1.384244,2.078544,1.836173,-22.269516,-32.702522,-23.327179,-12.039001,-28.876808,-35.211158,-38.524223,-40.075149,-13.062835,-20.349769,-26.422073,-30.50164,3.025567,-0.197479,-5.091316,-6.438354,19.37716,13.938263,7.62822,5.53521,-8.222444,-30.708644,-51.185306,-64.203466,-66.585043,-96.16253,-117.990423,-137.260066,-69.430394,-103.400861,-128.157378,-148.423049,-63.364454,-84.524257,-62.479971,-44.189876,-53.245485,-70.688142,-55.799133,-41.662879,23.51627,39.750183,40.62933,32.530575,35.98605,46.485958,51.83828,54.407261,21.260811,33.038338,40.5565,45.837376,5.215645,16.767598,22.098187,22.890416,-10.791103,1.635064,9.670269,12.77187,-9.544471,-31.839161,-53.885074,-71.243071,-66.385315,-94.416686,-113.160541,-130.417577,-68.730419,-100.667513,-122.439103,-141.572252,-63.766773,-81.1795,-59.8716,-42.67366,-55.594408,-67.892389,-53.038994,-38.941354,232.417476,-140.898357,-191.611508,-92.26008
61,-1.718216,2.11958,-0.352684,0.107125,-22.376792,-33.111053,-23.9393,-12.571678,-29.468582,-35.987342,-39.494224,-41.237205,-13.493499,-20.870681,-27.07521,-31.363174,2.738526,-0.276924,-5.097335,-6.607063,19.23491,13.952363,7.624924,5.357666,-7.935688,-30.462136,-51.048146,-64.158298,-66.356453,-95.687525,-117.434306,-136.765401,-69.42011,-102.888308,-127.573154,-147.848193,-63.358461,-84.628949,-62.566024,-44.126625,-53.158182,-70.474896,-55.485765,-41.172174,23.433495,40.162251,40.960625,32.916378,35.842758,46.395218,51.65831,54.215905,21.050286,32.64885,40.206414,45.367688,5.0373,16.628804,22.254044,22.957512,-10.921486,1.610104,9.752507,12.789242,-9.150541,-31.793917,-53.817071,-71.163969,-66.487206,-94.706833,-113.440487,-130.753284,-68.720666,-100.837691,-122.698862,-142.117521,-63.625371,-81.2416,-59.582473,-42.329241,-55.362978,-68.018533,-52.861357,-38.710982,230.856302,-138.308042,-191.80715,-91.68222
62,-1.011383,1.557132,-0.301231,-0.022811,-22.264228,-33.184661,-24.070907,-12.402031,-29.584373,-36.179855,-39.686325,-41.507904,-13.591919,-21.060241,-27.274314,-31.580543,2.701767,-0.412078,-5.023727,-6.397842,19.277962,13.688187,7.55951,5.459015,-7.71249,-30.000184,-50.599007,-63.736932,-66.306629,-95.50474,-117.280507,-136.718535,-69.503167,-102.963813,-127.683084,-148.006583,-63.507801,-84.336956,-62.049089,-43.65777,-53.396547,-70.308926,-55.079953,-40.859432,23.359634,40.116131,41.031349,33.112152,35.761722,46.340412,51.667145,54.320583,20.932079,32.471477,40.072529,45.286411,4.867001,16.411652,22.048782,22.719807,-11.13691,1.315292,9.368832,12.29203,-9.03805,-31.707108,-53.604384,-70.909891,-66.532361,-94.661319,-113.369523,-130.623002,-68.702273,-100.882207,-122.739593,-142.224071,-63.524307,-80.959489,-59.309397,-42.116794,-55.216839,-67.642868,-52.42542,-38.337045,230.035869,-136.30593,-191.917431,-91.260051
63,-0.412834,1.268971,0.132191,0.63753,-22.178695,-33.369117,-24.299103,-12.493973,-29.718155,-36.413177,-40.009872,-41.982925,-13.684295,-21.132751,-27.314026,-31.617599,2.683228,-0.794082,-5.288315,-6.429703,19.354454,13.46331,7.405335,5.491608,-7.589092,-29.818317,-50.51431,-63.717795,-66.447445,-95.490923,-117.278701,-136.673439,-69.70145,-103.118819,-127.896678,-148.17556,-63.712843,-84.173722,-61.892632,-43.57679,-53.651092,-70.458659,-55.306299,-41.141536,23.389309,40.005478,40.965831,33.372985,35.689361,46.250599,51.626209,54.328731,20.759147,32.238041,39.949493,45.302581,4.602298,16.318199,22.102466,22.981201,-11.432602,1.172756,9.306118,12.280048,-9.164552,-31.733247,-53.511101,-70.782654,-66.588196,-94.738581,-113.49459,-130.792047,-68.750448,-100.932423,-122.806916,-142.224472,-63.636668,-80.6873,-58.98115,-41.780076,-55.4198,-67.755291,-52.542623,-38.363635,229.823925,-134.707545,-191.58435,-90.293107
64,-0.278183,1.252206,0.243438,1.286298,-22.320877,-33.575134,-24.461128,-12.749244,-29.916801,-36.560486,-40.136215,-42.186355,-13.860809,-21.398826,-27.561355,-31.925468,2.553337,-1.156997,-5.556724,-6.63359,19.263245,13.222504,7.155396,5.220452,-7.546178,-29.610873,-50.097702,-63.26092,-66.574595,-95.646241,-117.520374,-136.921185,-69.697659,-103.277435,-128.133355,-148.419346,-63.671097,-83.947583,-61.697449,-43.410404,-53.583852,-70.340154,-55.270321,-41.122844,23.582474,40.131535,41.13303,33.655266,35.743939,46.311859,51.732628,54.409848,20.756745,32.30317,40.087269,45.512444,4.497815,16.414032,22.290161,23.299942,-11.566669,1.157009,9.373513,12.426327,-9.153998,-31.866022,-53.801482,-70.978529,-66.419114,-94.686498,-113.493086,-130.89404,-68.682862,-100.904378,-122.82738,-142.229066,-63.770932,-80.674449,-58.831677,-41.506061,-55.764627,-68.068566,-52.793428,-38.484938,229.753149,-133.144028,-191.133505,-88.695498
65,-0.440803,2.002075,0.615223,2.073394,-22.318589,-33.870621,-25.081948,-13.157959,-30.336754,-37.224907,-40.905854,-42.99289,-14.276047,-22.048416,-28.396477,-32.8442,2.117134,-2.110909,-6.553871,-7.395859,18.866661,12.548721,6.463623,4.609245,-7.845791,-29.670459,-50.113488,-63.384689,-66.835988,-96.174698,-117.975968,-137.162666,-69.891478,-103.647122,-128.435198,-148.642151,-63.868921,-83.671385,-61.502571,-43.420704,-53.825911,-70.46086,-55.477364,-41.398653,23.736866,40.10289,41.144234,33.805584,35.582062,46.133652,51.616265,54.324269,20.589054,32.166756,40.047947,45.561138,4.362557,16.631653,22.602791,23.752774,-11.630665,1.329872,9.617821,12.708023,-9.542427,-32.305809,-54.215982,-71.086973,-66.463195,-94.958836,-113.858281,-131.479694,-68.654584,-100.916081,-122.908301,-142.268031,-63.805157,-80.651794,-58.860444,-41.495783,-55.895668,-68.39832,-53.270114,-38.898691,229.50206,-130.861621,-190.328568,-86.341772
66,-1.29197,3.448736,1.021591,2.488516,-22.096023,-33.784835,-25.111999,-13.086067,-30.857734,-37.818489,-41.416511,-43.403549,-14.8572,-22.878891,-29.226699,-33.537895,1.559327,-2.859237,-7.25679,-7.9197,18.348793,11.996636,5.978348,4.137635,-8.367956,-29.806739,-49.961962,-63.062183,-67.631481,-96.98449,-118.541612,-137.311267,-70.61448,-104.735881,-129.310331,-149.249477,-64.564431,-83.841029,-61.678819,-43.821656,-54.451983,-70.678055,-55.737648,-41.808256,23.877434,40.213429,41.170762,33.854004,35.690953,46.119404,51.605416,54.232121,20.553223,32.208264,39.978962,45.421257,4.238125,16.914746,22.88593,24.202561,-11.768703,1.300198,9.49577,12.605038,-9.54686,-32.263874,-54.136116,-70.688003,-66.312615,-94.940637,-114.014497,-131.874673,-68.57604,-100.725209,-122.790765,-142.070478,-63.777727,-80.250458,-58.611011,-41.335034,-55.904386,-68.053258,-52.950749,-38.554122,228.396658,-127.202344,-189.120409,-83.642715
67,-1.916908,5.307441,1.522694,4.073076,-22.353401,-34.176521,-25.730873,-14.00251,-32.136406,-39.310707,-42.826561,-44.66803,-16.130905,-24.515854,-30.814682,-35.046455,0.383904,-3.947594,-8.212555,-8.838409,17.266068,11.103081,5.11171,3.038727,-8.829639,-30.079477,-50.173682,-63.406326,-68.209786,-97.683257,-119.052528,-137.495074,-71.230057,-105.691711,-130.034008,-149.677949,-65.185714,-84.399666,-62.161141,-44.296139,-55.009351,-70.97546,-55.966318,-41.855127,23.886692,40.418106,41.560742,33.880898,35.480278,45.804794,51.312801,54.045513,20.236771,32.100964,39.872646,45.32864,3.998737,17.301132,23.55534,24.852551,-11.89714,1.277115,9.729698,13.017838,-9.773089,-32.301529,-53.942739,-69.914054,-66.88398,-95.385914,-114.446667,-132.514158,-69.195517,-101.143488,-123.288538,-142.842853,-64.406118,-80.556688,-58.906481,-41.622729,-56.340131,-68.57281,-53.582293,-39.156029,226.800974,-121.808298,-187.276491,-79.483034
68,-3.060493,7.756877,2.091396,5.394664,-22.68203,-34.754586,-26.745278,-15.151795,-33.63794,-41.209008,-44.775559,-46.642617,-17.554367,-26.445259,-32.627518,-37.059265,-0.888153,-5.458283,-9.704682,-10.555802,16.012413,9.858947,3.860023,1.521492,-9.078144,-29.904477,-49.663544,-62.897744,-68.610744,-98.406512,-119.30555,-137.489222,-71.445359,-106.281897,-129.917535,-149.069957,-65.343455,-83.810466,-61.766862,-44.252475,-55.052484,-70.115598,-55.271589,-41.390467,23.752751,40.534962,42.138977,34.517865,35.447354,45.682206,51.22007,54.037491,20.113564,32.154751,39.859189,45.27911,3.915585,17.518776,24.078129,25.567967,-11.886268,1.096264,9.783944,13.393868,-9.437747,-31.80521,-53.1891,-68.778887,-67.038887,-95.31575,-114.349431,-132.354697,-69.423382,-101.316855,-123.426634,-143.057664,-64.597254,-80.723056,-59.337696,-42.137314,-56.253748,-68.393401,-53.468064,-39.050275,224.131823,-114.120514,-184.793753,-74.157463
69,-4.892395,10.486795,2.986416,7.501866,-22.764473,-35.305481,-28.034088,-16.060913,-35.218964,-42.741944,-46.140702,-47.8862,-19.094193,-28.782601,-35.149498,-39.867234,-2.299324,-7.467865,-11.691857,-12.749428,14.750885,8.049888,2.218368,-0.135018,-9.350433,-29.494983,-48.776138,-61.912501,-68.5971,-98.547483,-118.859793,-136.745489,-71.187308,-105.813567,-128.276357,-146.446927,-65.257971,-81.590668,-59.820388,-42.87722,-55.128934,-68.153387,-53.399049,-40.004267,23.730641,40.849251,42.482998,34.663628,35.425919,45.579209,51.260834,54.263775,19.942532,32.075638,39.869683,45.354607,3.718861,17.591137,24.220951,25.705181,-12.016788,1.237713,9.953728,13.560425,-9.326868,-31.560388,-52.657453,-67.769342,-67.452917,-95.653632,-114.555575,-132.501292,-69.721646,-101.554199,-123.464996,-142.995886,-64.681617,-79.981915,-58.651285,-41.63603,-56.085185,-67.398283,-52.290187,-37.943009,219.598383,-104.250676,-181.448382,-67.272554
70,-7.170937,13.142321,4.117848,9.536265,-22.642662,-35.968529,-30.3918,-18.365845,-36.487266,-43.86541,-47.214615,-48.858375,-20.011688,-30.089905,-36.69706,-41.691879,-3.000183,-8.876221,-13.434723,-14.879448,14.213402,6.536362,0.368248,-2.046753,-9.248581,-27.734354,-45.56477,-58.055733,-67.61885,-97.413778,-117.257977,-134.814058,-69.922612,-103.687846,-124.8461,-141.817431,-64.162052,-77.742277,-56.570991,-40.204069,-54.07047,-64.3414,-49.776902,-36.890545,23.552742,40.367523,42.267345,34.358986,35.009937,45.437187,51.217426,54.315742,19.65477,31.90559,39.528854,45.010185,3.466324,17.53117,23.9095,25.349922,-12.214772,1.419056,9.988151,13.519077,-9.446072,-31.173084,-51.601751,-66.065015,-67.31724,-95.739849,-114.458446,-132.091177,-69.616566,-101.696692,-123.314986,-142.365467,-64.585476,-78.402927,-57.25806,-40.45695,-55.97455,-66.179917,-51.178303,-37.015605,212.806532,-92.189089,-176.951448,-58.817023
71,-9.263283,14.640115,4.042454,13.764531,-22.372169,-35.913208,-32.371627,-22.443947,-36.301437,-43.806793,-47.99311,-50.405433,-19.845016,-30.49514,-37.631103,-42.950958,-3.294777,-10.157295,-16.090873,-18.606239,13.596772,4.565758,-2.447364,-5.301704,-9.565849,-26.754922,-41.888592,-51.716346,-64.852965,-94.573152,-113.788892,-130.853041,-66.264608,-97.965571,-117.130271,-132.074288,-60.390331,-69.600059,-49.49661,-33.775125,-50.316752,-56.789004,-42.795987,-30.071394,23.718372,41.190822,43.63393,35.404449,35.263732,45.712749,51.709476,55.058647,20.056148,32.411487,40.333099,46.069026,4.063831,18.419517,24.860733,26.135204,-11.405251,2.555442,11.197551,14.633319,-9.298544,-30.600114,-50.814112,-65.157639,-67.535181,-95.911527,-114.362486,-131.814239,-69.837601,-102.012107,-123.403475,-142.398479,-64.87582,-78.370131,-57.125349,-40.160214,-56.287625,-66.081944,-50.918377,-36.63019,203.920292,-79.175174,-172.531951,-46.678692
72,-10.179107,21.628879,5.18288,16.190316,-22.92096,-37.061634,-36.303372,-29.101067,-36.451435,-44.65915,-49.923111,-53.395867,-20.309647,-32.417965,-39.791451,-45.044209,-4.704964,-14.236451,-21.008503,-23.82153,11.146305,-0.339959,-7.881478,-10.66539,-9.890836,-25.990567,-38.789642,-46.192285,-63.151115,-92.177968,-110.388686,-126.77351,-63.667806,-90.865441,-105.449681,-116.908085,-57.393448,-61.380824,-42.404758,-27.833625,-46.914345,-49.346274,-36.010241,-24.021871,24.180313,41.738033,44.528286,36.43689,35.407104,45.882912,52.24015,55.82262,20.463821,32.661827,40.928421,47.098194,4.576652,19.304592,25.373337,26.659115,-10.663937,3.952743,12.295429,15.421829,-9.180057,-29.921638,-49.706569,-63.490786,-66.897161,-95.329974,-113.675343,-130.976786,-69.218816,-101.428769,-122.429004,-140.66914,-64.425959,-76.948769,-56.20002,-39.570831,-56.056524,-65.000157,-49.902886,-35.723262,194.27191,-59.842565,-166.818346,-32.784646
73,-10.650605,27.90506,6.489956,17.81902,-24.437668,-39.554523,-42.672649,-39.474998,-37.086742,-46.424903,-52.88974,-57.568382,-21.63375,-35.999256,-43.450698,-48.087535,-7.503318,-21.025932,-27.851886,-29.931781,6.657429,-8.290672,-15.953109,-18.151542,-10.44079,-25.839895,-37.018513,-42.863523,-62.552611,-90.089423,-107.271698,-122.85907,-62.461974,-82.673538,-90.519784,-97.198304,-55.628078,-54.520439,-36.362817,-22.89871,-44.473523,-43.207294,-30.218614,-18.951263,24.284786,41.575447,44.710052,36.558208,34.381519,45.226856,51.726482,55.636116,19.900852,32.558704,41.415996,48.230827,4.365108,20.028625,25.655033,26.703335,-10.322857,5.245376,13.066349,15.763435,-9.782272,-29.752411,-48.47647,-61.398262,-66.691532,-95.141077,-112.812819,-129.569,-68.633064,-100.082434,-119.705147,-136.127397,-63.538192,-73.728424,-53.419559,-37.422467,-54.766218,-62.48363,-47.96031,-34.523359,184.610773,-33.618987,-159.338922,-16.647108
74,-7.036308,25.774659,7.130447,18.328646,-24.253693,-42.136104,-51.049885,-54.011375,-38.856548,-53.901283,-63.960937,-71.099853,-25.366608,-45.760929,-55.893333,-62.116802,-13.733185,-33.748604,-42.679012,-46.005352,-2.139645,-21.691978,-30.752861,-34.129761,-13.636806,-28.744634,-37.136833,-40.361011,-61.501604,-84.563011,-97.128544,-108.097403,-58.792978,-72.598215,-74.635268,-76.585766,-49.544195,-44.788713,-27.410884,-14.729613,-36.352764,-31.862783,-19.36052,-8.634449,24.300076,41.222431,44.888718,37.224415,32.820008,44.769619,51.797871,56.427269,18.873734,32.504849,42.707005,50.905884,4.297096,21.806866,27.115734,28.261482,-9.216362,7.157925,14.383965,16.954949,-10.293664,-29.270615,-46.191093,-56.9415,-65.633482,-92.800248,-109.085468,-124.327051,-67.113485,-96.888351,-113.75534,-127.043961,-61.615358,-68.949751,-49.469268,-34.468716,-51.974902,-57.754444,-44.265672,-31.891568,178.577614,-8.938536,-151.205326,0.58733
75,-10.851768,31.891328,5.194313,16.540064,-23.794373,-43.88181,-57.454823,-66.13678,-40.66586,-62.154145,-75.258454,-83.867363,-30.284775,-57.237019,-69.792939,-76.606968,-21.813515,-47.785881,-59.120579,-63.73518,-13.446225,-36.148156,-46.105019,-50.585221,-16.980666,-32.311987,-37.639834,-37.922203,-59.506257,-77.035226,-84.136811,-90.464993,-53.677975,-60.741123,-57.03152,-54.298882,-41.999018,-34.046414,-18.041556,-6.396821,-27.072943,-19.804095,-8.237851,1.450449,23.552857,41.140274,47.034256,42.64547,32.249268,45.515694,53.928978,59.886738,19.102581,34.408047,46.891262,57.042481,6.275162,26.068131,31.964928,33.827935,-5.314167,12.100537,19.334851,22.18507,-10.992228,-27.051868,-39.46333,-46.353293,-62.122674,-87.572594,-101.822119,-114.786674,-62.013907,-88.62484,-101.098713,-110.601571,-55.174808,-58.290537,-39.244567,-25.307709,-43.849869,-47.02276,-34.309072,-22.823965,168.611596,22.341728,-145.125263,16.51633
76,-9.216774,35.165649,7.367901,21.572506,-24.893509,-49.455906,-68.001469,-80.761368,-48.02377,-77.261422,-91.59446,-99.399308,-40.223534,-74.86163,-88.369583,-94.310086,-33.686303,-67.38279,-78.810185,-82.024464,-27.246861,-54.661927,-64.650879,-68.444664,-19.911451,-33.61329,-36.242163,-34.441635,-55.409117,-64.38687,-64.882038,-66.633452,-46.358087,-44.928732,-36.00748,-30.75395,-32.326038,-22.31105,-8.194026,0.926673,-16.041775,-7.404538,2.57845,9.689659,23.030182,41.31665,49.982723,49.15987,29.71249,45.958901,56.47665,64.319344,17.932423,36.293072,50.490177,61.983399,7.71674,31.76413,39.039482,42.03352,-0.627136,20.017765,28.179646,32.113587,-13.553344,-28.805702,-37.305258,-39.496885,-61.257977,-83.087507,-94.647351,-105.054562,-58.800619,-80.708498,-89.361973,-95.156038,-49.69444,-49.030253,-32.324932,-20.739586,-36.124584,-37.183035,-26.514243,-17.435982,160.102484,57.477425,-137.0497,38.058884
77,-6.933907,30.414851,8.279801,19.804376,-25.961723,-53.928245,-75.748032,-90.605278,-56.505043,-90.88147,-107.35643,-116.266502,-50.740494,-90.072533,-106.29499,-113.469726,-45.271339,-83.164467,-97.095268,-102.232956,-39.756409,-69.435974,-81.118034,-87.100685,-22.404309,-34.222838,-34.003291,-29.815458,-48.135879,-49.450422,-44.191497,-40.995,-36.200827,-29.162485,-17.439082,-10.025556,-20.555076,-9.321163,3.643966,11.85049,-3.6129,6.423037,15.764534,21.793054,20.619255,40.307441,52.450927,56.077732,29.605762,50.917785,61.753051,68.260986,19.913921,43.29277,57.993347,68.213905,12.240028,39.666252,48.691944,52.563388,6.605506,29.020145,37.708225,42.278629,-17.699946,-32.183956,-37.159669,-35.503461,-57.690223,-74.933495,-81.479397,-87.371905,-51.716668,-67.64276,-71.347747,-73.321247,-40.058245,-36.545474,-22.304872,-13.136017,-24.703481,-23.164716,-14.742633,-8.325314,153.550787,88.558048,-128.387689,58.529032
78,-11.157989,28.295928,7.950788,22.292742,-26.294747,-57.43071,-81.618233,-97.887818,-62.789772,-101.748093,-118.992165,-127.408894,-58.390732,-100.921944,-119.100037,-127.317433,-53.196602,-93.339386,-109.395379,-116.089623,-47.533242,-78.606903,-91.505768,-98.537865,-23.170366,-30.827139,-25.896999,-17.826307,-36.36604,-29.404663,-19.09164,-11.565123,-21.630095,-10.414966,0.788108,8.236177,-4.86048,7.594733,18.721916,25.523366,12.017291,23.129617,31.192986,35.775225,20.42557,42.155949,57.550341,65.190548,32.711683,58.519123,69.844666,75.10714,24.202532,51.763784,66.663775,75.316366,18.104994,48.331719,58.948774,63.486208,14.071867,38.135942,47.595875,52.709793,-20.535896,-33.385663,-34.76299,-29.225819,-52.541579,-63.787571,-65.246369,-66.968893,-43.945159,-53.218725,-52.243519,-51.245867,-30.689729,-25.062084,-12.963829,-5.745382,-14.512159,-10.659217,-3.801201,0.798988,142.13082,116.951723,-120.698879,80.919521
79,-12.08574,31.472505,8.181347,24.980302,-28.746025,-60.634758,-84.672226,-99.794426,-67.783447,-106.411285,-122.876037,-131.070659,-63.531761,-104.958183,-123.126846,-131.785984,-57.830566,-96.5755,-113.775192,-122.133338,-51.414665,-80.903228,-94.405677,-102.924224,-22.580223,-27.457734,-20.515889,-10.751006,-25.089686,-13.364654,-1.388859,7.14779,-8.954297,5.813419,17.633386,25.331958,7.451775,21.121173,31.120065,37.094411,22.902876,34.60369,42.18569,46.179818,21.824827,45.826263,64.628706,75.681793,38.319586,67.545021,78.814522,82.577602,30.282789,61.188452,75.396589,81.686731,24.501554,56.56374,68.722612,73.459814,20.70896,46.259714,56.828213,62.336265,-22.292387,-32.429205,-29.991104,-21.697876,-46.724536,-51.514732,-48.051084,-46.244331,-36.173586,-38.355481,-33.427885,-30.463408,-21.939122,-14.581249,-4.233772,1.544489,-5.596486,-0.591041,5.064003,8.399328,129.671602,148.357467,-112.89101,105.833062
80,-6.836105,25.916889,9.26112,25.696896,-31.74836,-64.480385,-87.995521,-101.914329,-73.118408,-109.849731,-126.471977,-136.085071,-68.153709,-107.552444,-125.898765,-136.383968,-61.374779,-98.84182,-116.580048,-126.656994,-53.748413,-82.652046,-96.744987,-106.814049,-21.967036,-24.376543,-16.819941,-6.682617,-14.794404,1.096342,14.197266,23.541381,2.197926,19.71109,32.141843,39.978057,18.365573,33.084426,43.061477,48.618273,32.394946,44.058586,51.865641,56.215056,25.303808,51.663128,72.021028,83.784862,42.300974,73.304741,84.902,89.142688,33.257349,65.808168,80.421427,86.712038,26.223386,58.887005,73.732412,80.711168,21.595796,47.343858,60.04327,67.672153,-22.689769,-32.218524,-29.442957,-20.70147,-41.407307,-39.569528,-31.21408,-25.759076,-29.515786,-26.091892,-17.707254,-12.703791,-14.685967,-7.951187,1.550562,7.009969,1.566797,6.90239,11.914205,14.244307,122.46738,174.086521,-103.998007,131.342123
81,-6.835876,22.424378,10.434528,22.409639,-33.458657,-65.142769,-87.121262,-98.584031,-73.975914,-106.707436,-124.492974,-137.636399,-68.743058,-104.038788,-124.060925,-138.587471,-61.454888,-95.28479,-115.199845,-129.275608,-53.298981,-79.580864,-94.785508,-107.652626,-19.733974,-21.257159,-14.492093,-5.909564,-5.588066,9.655999,21.500777,30.827016,11.012359,27.49778,39.535072,48.244831,26.211296,40.513593,51.017697,57.687692,38.772565,50.515172,59.52389,65.455029,25.39377,52.330719,72.248159,82.299328,54.346052,82.412453,88.645443,86.990513,45.964262,74.841826,82.781725,82.101419,37.59498,64.480236,73.707956,75.330042,30.195551,52.124468,60.382587,63.411678,-22.583015,-29.406281,-24.570412,-14.620142,-28.40117,-15.891389,-2.918306,5.043813,-14.962554,-0.577685,11.690263,18.410135,-0.20775,13.414912,24.279993,30.011175,14.438509,25.357482,32.34221,35.647586,115.379385,196.214849,-93.815598,153.455712
82,-8.483094,20.419688,6.40305,23.77568,-34.97026,-65.919342,-87.294525,-98.506736,-72.756019,-103.187645,-121.13269,-135.781093,-67.005958,-99.980804,-120.517948,-137.510524,-59.394882,-91.08126,-111.413063,-127.119838,-50.781852,-75.30606,-90.624344,-104.259567,-16.604982,-16.53886,-10.530409,-4.038403,4.160447,17.933456,27.545636,34.99365,19.446391,33.350385,42.523013,48.788815,32.763163,45.865761,54.902143,60.282914,42.678019,54.110009,63.009565,69.034268,28.750883,56.693378,76.39924,85.104755,58.755266,86.140159,93.595424,94.172985,49.029985,77.634779,87.017767,88.176,39.250516,66.471084,76.45836,78.865442,30.300665,53.149549,62.215587,65.709033,-19.697393,-24.99083,-18.966135,-8.010976,-21.360486,-3.54543,10.508222,18.959276,-7.682211,11.017827,24.902883,32.653541,7.127465,23.208714,34.432583,40.210022,21.644715,33.782752,40.969139,44.339587,106.625347,216.255679,-87.683492,176.852534
83,-3.83535,15.193862,4.306108,21.038079,-34.644127,-64.31353,-85.085174,-96.875496,-71.425254,-99.320434,-117.425514,-133.274093,-66.884926,-97.910041,-118.573929,-136.967685,-60.631462,-90.704109,-110.874241,-127.410083,-53.446632,-76.517875,-91.658867,-106.023182,-8.265552,-6.018578,-0.910658,4.08705,13.939834,23.359674,29.631096,34.192932,23.528105,32.061357,37.675557,40.452324,31.034683,39.582397,45.428642,48.133779,35.115372,43.166329,49.961159,54.565072,30.145546,58.450001,78.076973,85.666786,60.368523,86.441093,95.402687,99.166306,50.176277,77.900288,89.087631,93.762337,39.881401,66.516838,78.144184,83.31744,30.11554,52.942143,63.166557,68.546482,-18.320594,-23.068176,-16.714281,-4.905132,-14.382573,5.859052,19.971083,29.043688,-0.26097,20.410166,34.760813,43.663123,14.543975,32.112548,43.666655,50.096429,28.788066,42.502808,50.11987,54.078256,102.612802,231.039475,-83.554579,197.480547
84,-5.422027,13.126273,4.172459,19.609893,-34.002571,-62.889015,-83.234482,-95.885628,-69.484658,-95.16996,-112.804081,-128.209008,-65.753174,-94.430763,-114.07909,-131.511097,-60.506996,-89.255493,-108.129936,-123.198441,-54.446869,-77.167282,-91.53122,-104.310276,0.616293,5.998126,11.492999,16.151956,22.073388,28.387936,31.461835,32.566648,25.519432,30.642098,32.80209,31.66361,27.110814,32.253043,34.966479,34.546589,25.435822,30.263778,34.727122,37.350428,31.064666,60.035843,79.739879,86.437008,63.068309,90.859485,99.061718,101.696697,52.772209,82.991512,93.171489,96.271213,42.254173,70.971039,80.749088,83.635791,31.80162,56.550304,65.534443,69.022064,-17.986561,-22.282278,-14.915121,-2.027217,-7.797015,16.212768,28.455454,35.286766,8.230292,31.748492,43.050349,49.276927,24.123947,43.895539,52.851276,57.093257,38.432975,53.802788,59.514084,61.768245,97.103577,243.743338,-79.469318,216.66803
85,-26.86591,11.153643,2.410595,19.41218,-27.503048,-50.537235,-67.395286,-79.87112,-54.585686,-69.558597,-81.446663,-92.7224,-51.123802,-66.436077,-79.38604,-91.5485,-46.860374,-62.83794,-74.44836,-84.113411,-42.194366,-56.199406,-65.11639,-73.00003,10.80757,20.428691,27.166983,31.223849,29.378351,34.485345,35.221015,34.516418,25.313841,30.193926,30.959594,28.841469,19.558146,24.659447,26.63961,26.00731,11.423604,15.16989,18.814412,21.126842,31.062526,59.893901,79.827621,86.429306,66.548744,95.54013,103.542228,105.331009,57.148452,88.774475,98.258331,100.306411,47.142517,77.050735,86.088409,87.663757,36.617992,62.569049,70.87754,73.2453,-17.494595,-21.464542,-13.601689,-0.293919,-2.309737,23.334641,34.079238,39.459489,14.724633,40.083033,49.512073,54.304832,30.715446,52.398016,60.009804,62.848545,44.160178,60.937295,65.990702,67.520161,70.204101,254.4287,-77.092289,235.611929
86,-27.519756,9.666558,-1.458516,14.810911,-20.774082,-37.178833,-50.365208,-63.367161,-37.146298,-39.968147,-46.572064,-54.131115,-33.712807,-33.470009,-40.938858,-49.397049,-30.758961,-31.859116,-36.986252,-42.807461,-28.093781,-31.648773,-35.660614,-39.928036,18.682068,32.401898,41.385077,45.975862,34.094045,40.317041,39.982564,38.051135,23.973696,30.680791,30.214439,26.992204,12.528874,19.231795,19.96828,18.573758,-0.383273,4.089458,6.510902,8.199491,33.019021,62.149933,83.217854,92.597935,62.667687,95.741581,108.944767,116.275074,52.592755,89.303433,105.699154,114.713391,42.660954,77.564862,93.165287,101.176106,32.805027,61.608044,74.726578,82.383969,-16.045116,-19.64871,-12.119383,-0.281347,-0.798964,18.981829,27.503547,32.598055,16.214719,35.350098,42.820181,47.153923,31.79068,48.468898,54.092138,56.258651,44.97895,58.370589,61.123855,61.394248,42.675734,263.556659,-78.559416,249.884241
87,-26.942871,8.514357,0.888451,12.542163,-12.962906,-22.954182,-31.958531,-43.72332,-18.912953,-10.086914,-10.545376,-13.882164,-15.922692,-1.298081,-2.251076,-6.222828,-14.866013,-2.543289,-0.78138,-2.212498,-14.79831,-9.535721,-8.639168,-9.062268,23.438826,40.336344,52.388234,58.96327,35.689231,43.827355,43.484405,41.606427,21.716496,31.727719,31.795842,29.461702,6.600859,15.470787,15.878179,14.751333,-8.993429,-3.947766,-2.621231,-1.276628,32.61153,60.895283,82.474537,93.841999,63.576588,96.765667,110.18375,117.933781,54.321179,91.235539,107.638973,117.177258,44.821198,79.506535,95.342136,103.947041,35.127125,63.270195,76.497093,85.01865,-15.637464,-17.954537,-9.851821,0.890898,3.445599,21.365223,28.804727,33.638599,20.536594,37.999709,44.280591,48.205434,35.299215,51.099837,56.208967,58.261724,47.230865,60.755415,63.388836,63.67784,15.75737,271.522969,-77.646458,261.878357
88,-29.976357,7.395192,1.779076,11.028414,-6.648891,-8.982994,-12.493904,-21.61718,2.549195,24.70166,28.548146,26.767571,6.539658,38.024918,41.000416,38.090355,7.125149,35.356865,40.717106,39.74596,5.758953,23.255722,26.906044,27.291893,22.006587,39.783394,53.89366,60.331252,34.477367,46.208512,46.784421,46.247366,20.979455,36.114111,37.239376,36.940739,6.043871,20.425937,21.935068,22.603269,-9.014646,-0.34269,1.139616,3.326939,32.3787,60.430492,82.371814,95.269764,65.214008,99.352146,112.880321,119.946384,56.376697,94.197406,110.162235,118.378887,46.890907,82.064174,97.154445,104.420276,37.190826,65.552227,78.375927,86.059604,-14.97865,-15.920146,-7.254031,2.61897,7.242743,24.358956,30.764043,34.524766,24.665757,41.316805,46.194544,48.682999,38.766439,53.911259,57.765855,58.529424,49.425165,62.34345,63.924335,63.035092,-14.196602,278.415636,-75.844997,272.404246
89,-25.036297,6.197827,-0.123677,7.269098,-0.870918,2.442261,2.981072,-4.078113,17.667412,50.751561,60.835041,62.738583,21.802975,67.046002,76.510678,77.809834,21.829617,63.13741,75.159428,78.029881,19.436577,45.669972,54.178677,57.464505,19.403276,37.615412,53.071478,59.724492,32.520398,47.632452,49.763113,50.838077,20.605162,39.745233,42.603795,44.373883,7.182561,26.136961,29.159644,31.431688,-5.829807,7.084267,9.768681,13.097546,30.990635,58.14077,80.366227,94.983033,63.240441,95.635254,111.662613,122.333657,55.03656,90.849999,109.437264,121.660218,45.983609,79.420899,97.595833,109.046265,36.924111,63.627697,78.601227,89.612229,-14.140067,-14.504999,-6.458328,2.145925,10.46499,24.179781,30.874588,36.025659,27.338414,40.939794,47.132385,51.499238,40.125368,53.327186,58.505106,60.566113,49.379396,61.557479,64.198754,64.142474,-39.223069,284.198342,-75.958844,279.258223
90,-4.183994,6.158776,1.218121,5.917295,2.487591,9.668392,12.991104,8.872467,24.510716,59.403923,70.303642,71.931381,26.325646,73.607941,82.614945,82.881065,23.849545,65.927925,76.805832,78.321625,19.372604,43.67046,49.354019,50.098732,9.211457,23.021579,37.266658,44.35558,23.990616,39.806983,42.222091,43.199699,19.743929,38.993916,40.799164,41.326439,13.308486,32.154045,33.087427,33.461227,6.62803,20.766478,22.6574,24.856344,28.770813,55.454727,77.762501,93.078266,61.360107,93.688717,110.367771,121.795681,53.644112,89.480839,108.339878,121.09203,44.852669,78.302135,96.451023,108.318501,35.957348,62.638607,77.617298,89.012775,-14.289021,-14.202571,-5.880838,2.225312,11.985273,24.309346,30.361269,35.052399,28.83454,40.799744,45.892733,49.581221,41.044053,53.080654,57.351349,58.888873,49.539119,60.926179,62.821238,62.153543,-43.377279,290.013601,-74.710939,284.832001
91,-0.84137,2.733222,1.318336,3.374437,5.411946,14.262761,18.659432,16.62212,26.318505,60.594475,73.339646,76.467179,26.020993,71.505112,82.499588,84.977211,21.70094,61.33445,73.369286,76.382813,15.908947,36.243451,40.83363,40.975502,1.239491,11.360408,24.288104,32.224304,17.672733,34.203071,36.653105,37.323727,19.471251,38.661821,40.218055,39.863781,18.124178,36.796601,36.897328,35.847892,15.972089,29.928547,31.391167,32.600376,27.331673,53.768898,76.336087,91.594471,59.618912,92.477154,109.193013,120.670247,51.913056,88.167515,106.999455,119.650738,43.098713,76.840497,94.958531,106.806736,34.222664,60.877694,75.789128,86.985753,-14.644555,-14.220317,-5.433715,3.096956,12.604741,24.707748,30.342226,34.397746,29.571396,40.840167,45.245046,48.194468,41.531994,53.00091,56.546483,57.33464,49.52735,60.463892,61.754043,60.41685,-44.151072,292.517914,-73.325026,287.977529
92,-2.496322,1.491803,0.902939,1.566052,9.372516,21.810264,29.220634,30.076195,29.35247,64.138275,77.934906,81.97158,26.403957,71.529877,83.647476,87.552017,20.204006,59.032608,71.674026,75.536476,13.329586,30.305477,32.79443,31.367889,-5.72167,-0.034951,9.910818,17.020056,10.948138,28.438844,31.171102,31.490919,18.839915,38.754991,40.087491,38.582683,22.634947,41.496808,40.820962,38.288096,24.758754,38.69881,39.986714,40.388944,26.517495,52.929589,75.322644,90.005345,58.446682,91.329312,108.160069,119.840481,50.362542,86.645176,105.374188,118.033596,41.148411,74.960278,92.876873,104.707913,31.933606,58.661305,73.511639,84.479771,-14.842773,-14.02847,-4.829438,3.994017,13.585215,25.725728,31.058914,34.594286,30.698934,41.955787,45.919694,48.325935,42.439157,54.005861,56.981033,57.145227,49.931692,60.663074,61.402931,59.430536,-46.555286,293.857425,-72.329979,289.391289
93,2.075832,1.277838,0.493584,0.128911,13.167332,27.136105,35.692566,38.766323,27.575718,60.734379,76.515324,82.73869,21.801235,63.864109,78.506756,85.928089,13.55539,49.18301,64.242932,71.183453,5.769654,16.647801,18.541249,17.440464,-13.113157,-11.832848,-4.623018,2.414232,3.61913,21.874454,25.692803,26.130231,17.459262,37.587575,39.945613,38.077676,26.535005,44.79223,44.688304,41.682677,33.24084,47.202966,49.82269,50.664274,25.840473,52.090954,74.439365,89.014675,57.156464,90.110355,106.934338,118.843632,48.93235,85.445629,104.2393,117.135441,39.621243,73.906963,91.85535,103.880253,30.328594,57.221661,72.10928,83.223988,-14.699031,-13.856163,-4.295581,4.621215,13.672294,26.129612,31.465144,34.888068,30.93351,42.245791,46.278512,48.617013,42.803977,54.529553,57.465242,57.509924,50.249533,60.993944,61.653315,59.522383,-44.371359,295.060295,-71.7283,289.445232
94,-0.485927,1.206492,1.090771,-0.02149,16.684593,33.991069,45.014969,50.476684,30.21294,63.37413,79.013626,84.983162,22.57315,63.682457,77.867912,85.076637,12.593158,47.177581,61.242462,67.549026,3.629459,11.243545,9.908077,6.449615,-19.381194,-21.991841,-17.032505,-10.094401,-2.266413,16.328686,20.100204,20.284665,16.382471,36.534446,38.381846,35.890945,29.519562,47.069585,46.013591,42.062393,39.529341,52.581711,54.887681,55.251169,24.861282,50.937458,73.112594,87.780372,56.16909,89.076805,105.821525,117.732788,47.950905,84.543434,103.307602,116.225303,38.574463,73.102546,90.940887,102.927543,29.2294,56.330749,71.076896,81.96199,-15.018626,-14.295504,-4.60973,4.226483,13.422305,25.859282,31.140054,34.574921,30.776702,42.044325,45.974985,48.236014,42.733472,54.385564,57.235408,57.237359,50.12691,60.508945,60.948522,58.642514,-44.716072,296.197034,-70.496315,289.353989
95,0.984077,-0.732742,1.035186,0.345037,16.58733,33.902538,45.329636,51.170059,28.59359,61.124771,77.718338,84.638054,20.58189,61.016396,76.47345,85.052902,10.721123,44.574577,59.824516,67.360268,2.064697,8.227249,6.758904,3.418842,-19.339822,-22.163878,-17.227563,-9.949363,-2.262647,17.011979,21.146255,21.382562,16.604204,37.33935,39.451103,36.692477,29.80349,47.808157,46.927126,42.764939,39.916886,53.127436,55.623486,55.997583,24.436261,50.359807,72.477448,87.132729,55.35291,88.303551,105.094597,117.074959,47.178395,83.853196,102.84636,115.875184,37.799836,72.526223,90.56646,102.651993,28.479527,55.791413,70.583085,81.39013,-15.454905,-14.837994,-5.004167,3.960375,13.194556,25.690024,30.847875,34.18798,30.571382,41.826407,45.633159,47.838069,42.490496,54.025855,56.689422,56.63628,49.765929,59.955031,60.297474,58.032815,-43.576756,295.452695,-69.30589,289.687429
96,-0.157436,1.400079,1.039742,0.648021,16.475029,34.924324,47.601207,54.383686,29.342136,61.740635,78.467663,85.312305,20.674553,61.381611,76.707653,85.306125,10.511638,44.19263,59.185833,66.820278,1.82127,6.389019,3.670978,-0.265023,-20.581486,-24.156205,-19.508548,-12.522057,-4.231262,15.35771,19.894328,20.256766,15.61968,36.195362,38.435494,35.586145,29.590909,47.275189,46.106118,41.705314,40.262998,53.16729,55.749507,56.093284,24.087273,49.829739,71.832275,86.867546,54.897148,87.61219,104.502617,116.628983,46.680164,83.19326,102.338974,115.521744,37.243835,72.057037,90.258408,102.516541,27.930016,55.501831,70.464684,81.43959,-15.56061,-14.839068,-5.055222,3.58108,13.123087,25.715342,30.840737,34.082856,30.440681,41.686938,45.292038,47.278116,42.32582,53.794749,56.308398,56.15028,49.592361,59.63099,59.804719,57.444371,-43.590431,296.867458,-68.122387,290.350134
97,2.546985,1.311566,0.853317,0.920217,15.256325,33.074673,45.17347,51.924225,27.644955,58.568688,75.630661,82.672692,19.111039,58.806862,74.54226,83.756813,9.120827,41.653656,57.006684,65.321663,0.487233,3.71513,1.025895,-2.573364,-20.943973,-24.458498,-19.270994,-11.458641,-5.210734,15.002461,20.068748,20.60184,14.529008,34.942311,37.79476,35.346541,28.48449,46.167894,45.063697,40.538355,39.307694,51.948732,54.677742,54.985581,23.781956,49.411778,71.33503,86.570275,54.445782,87.07972,104.000016,116.097382,46.217366,82.643051,101.918587,115.164711,36.789162,71.634819,89.986725,102.336022,27.491066,55.258118,70.332642,81.325379,-15.870584,-15.155169,-5.365011,3.293631,13.132399,25.729446,30.714322,33.758419,30.489587,41.614319,44.838642,46.556217,42.309221,53.626614,55.877689,55.582929,49.425561,59.284175,59.234787,56.76934,-40.895434,298.171241,-67.121058,291.262568
98,2.514737,1.033369,0.56583,0.890849,14.101375,31.913372,44.155071,51.206394,25.702686,55.507106,72.701305,79.799114,17.417999,56.092449,72.11333,82.008876,7.824371,39.426258,55.04211,63.852458,-0.418202,0.975654,-2.351807,-6.288243,-21.758412,-25.675303,-20.433224,-11.655835,-6.27504,14.666562,19.900132,20.321085,13.721423,34.288225,37.253147,34.916066,27.835233,45.548178,44.097599,39.147019,38.772627,50.991576,53.739667,53.877667,23.485589,48.973755,70.817494,86.264866,54.139149,86.797268,103.746815,115.804471,45.881001,82.332699,101.735379,115.075367,36.404034,71.303868,89.884495,102.430676,27.062851,54.972268,70.209126,81.335095,-16.24562,-15.545444,-5.667922,3.00391,12.943911,25.640179,30.550683,33.423336,30.336804,41.434761,44.382763,45.868305,42.109433,53.244799,55.268162,54.789819,49.122144,58.755875,58.582788,56.04413,-38.226442,299.16634,-66.400973,292.115147
99,0.486259,0.227921,0.268456,0.534697,13.875847,32.180981,45.267689,53.399151,25.407886,54.63129,72.080303,79.35165,17.059971,55.203655,71.733891,82.376209,7.524559,38.653439,54.877247,64.480396,-0.651398,-0.389008,-4.114403,-8.327705,-21.901464,-25.939632,-20.492875,-11.294694,-6.638837,14.548545,19.998834,20.609335,13.376695,33.983351,37.16057,35.00222,27.486788,45.065006,43.810571,38.885667,38.493514,50.181176,53.256383,53.687327,23.422119,48.830498,70.664349,86.089405,53.836315,86.642406,103.628048,115.727818,45.544212,82.179096,101.680058,115.179348,36.076984,71.086292,89.812351,102.517399,26.746662,54.632572,69.898647,81.087673,-16.365873,-15.786864,-5.92536,2.831157,12.590711,25.429103,30.272534,32.960962,29.962065,41.250065,44.11794,45.475473,41.705536,52.901837,54.870341,54.286034,48.666351,58.335404,58.200133,55.648026,-37.592165,299.349134,-65.984499,292.604717
100,1.810364,0.145162,0.152618,0.2543,13.460403,31.837978,45.226742,53.865429,24.199688,52.902408,70.142772,77.231197,16.153358,53.301738,70.171726,81.380138,6.741794,37.139843,54.154781,64.564441,-1.398136,-2.705944,-7.171166,-11.937722,-22.29858,-26.736359,-21.481955,-12.08952,-6.50979,14.510631,19.917238,20.629776,13.358183,34.056007,37.153272,35.116558,27.314036,44.929217,43.671411,38.651918,38.286306,49.490103,52.878299,53.63505,23.314305,48.664341,70.527111,85.99197,53.502148,86.477337,103.507267,115.657071,45.258168,82.16454,101.764058,115.420567,35.887024,71.008748,89.817501,102.626805,26.660489,54.490494,69.742573,80.938076,-16.323956,-15.813231,-6.031397,2.70326,12.42774,25.174507,29.99525,32.673712,29.824683,41.087971,43.924143,45.297694,41.540021,52.677461,54.632492,54.044912,48.431737,58.047116,57.887331,55.269039,-35.656173,299.446766,-65.706253,292.811487
101,4.185058,0.284571,0.247845,0.16601,12.606594,30.374028,43.823239,52.962376,20.394802,48.233952,65.519978,72.579014,12.652314,48.17371,65.502423,77.461476,3.575581,32.502674,50.186863,61.413586,-4.249889,-7.675987,-12.997787,-18.31414,-22.468579,-27.173158,-22.26006,-13.025632,-5.848801,14.787137,19.895106,20.680225,13.722498,33.774178,36.545339,34.608451,27.413466,44.40771,43.02455,38.263322,38.184553,48.610023,52.208343,53.423542,23.262978,48.580696,70.460541,85.791893,53.088226,86.276985,103.339417,115.442345,44.853848,82.092705,101.780159,115.448891,35.541447,70.920181,89.76107,102.502167,26.398785,54.286286,69.491249,80.555992,-16.342432,-15.90887,-6.06641,2.853598,12.378129,25.104247,29.892992,32.579406,29.835761,41.122489,43.855488,45.211997,41.519841,52.646104,54.478881,53.837949,48.324119,57.849256,57.622545,54.962794,-31.357979,299.680795,-65.345272,292.926955
102,3.895512,0.268898,0.02496,0.132677,11.563568,28.433464,41.596573,50.670158,16.435501,43.619911,60.93615,68.106262,8.607994,43.17318,60.773277,73.31266,-0.155193,27.616379,45.669777,57.568199,-7.537422,-12.8974,-19.007057,-24.674904,-22.617051,-27.430545,-22.624906,-13.843997,-5.395108,14.695042,19.700321,20.711793,14.062274,33.400502,35.88272,33.908881,27.674769,44.048656,42.614231,38.19326,38.356899,48.187354,51.979867,53.589564,23.320324,48.61679,70.473186,85.75526,52.992107,86.275509,103.323955,115.364582,44.768417,82.124759,101.802372,115.415073,35.450706,70.891239,89.69672,102.326419,26.328678,54.173492,69.337452,80.33012,-16.275667,-15.878378,-5.99431,3.024906,12.172612,24.932457,29.732033,32.428809,29.611595,40.984415,43.793516,45.200943,41.305851,52.497211,54.384514,53.7884,48.162567,57.793915,57.657323,55.049294,-27.361816,299.907477,-65.219661,293.017416
103,-0.481327,0.022033,0.061008,0.067332,11.788399,28.992886,42.5201,51.619915,17.191521,44.725033,61.89426,68.857052,9.139618,44.245296,61.702022,73.821613,0.144562,28.009357,46.00304,57.844837,-7.42012,-12.778404,-19.069759,-24.818928,-22.555746,-27.324557,-22.639023,-14.617558,-5.140919,14.453697,19.511784,20.719116,14.318414,33.367181,35.76306,33.645231,27.969293,44.173911,42.816303,38.502395,38.697921,48.58699,52.529915,54.30861,23.34605,48.562523,70.366585,85.600823,52.940323,86.250893,103.285675,115.220833,44.734978,82.129509,101.770065,115.284508,35.426926,70.864563,89.545006,101.95855,26.338726,54.105057,69.165619,80.008896,-16.177162,-15.767782,-5.882887,3.120311,12.172699,24.82789,29.62607,32.323488,29.573557,40.960086,43.831147,45.266844,41.241977,52.495285,54.434841,53.886707,48.107783,57.832114,57.74864,55.157692,-27.754589,299.889919,-65.070099,293.045157
104,0.666126,-0.140853,-0.017532,-0.020772,11.503807,28.006096,40.353356,48.26825,16.894432,44.267601,61.666329,68.682175,8.599972,43.902466,61.389519,73.239304,-0.561367,27.041542,45.006386,56.805908,-8.337032,-13.708385,-19.575897,-24.76094,-22.222182,-26.433005,-21.627229,-14.312609,-4.783187,14.697117,19.874988,21.036958,14.442434,33.318571,35.802099,33.578009,27.994241,44.404623,43.18814,39.036277,38.645977,49.085119,53.203093,55.227432,23.408443,48.599281,70.36853,85.584022,53.094658,86.380829,103.390045,115.2789,44.855999,82.123123,101.684257,115.090828,35.483402,70.79686,89.393875,101.688377,26.342502,54.044014,69.098579,79.96772,-16.07635,-15.600501,-5.699724,3.257507,12.238314,24.805264,29.622808,32.32471,29.593773,40.89095,43.819623,45.256395,41.242433,52.459198,54.460813,53.92987,48.116896,57.907634,57.895926,55.327899,-27.023838,299.724066,-65.023006,292.999385
105,0.029949,-0.469513,0.050857,-0.209334,11.207028,26.434903,36.900708,43.098141,16.885002,44.286999,61.869587,69.087307,8.537487,44.428746,61.640477,73.009907,-0.566871,27.306187,44.702832,55.968487,-8.43267,-12.403736,-17.077423,-21.210971,-20.978998,-23.877921,-18.308589,-11.188582,-3.502174,15.831176,20.879581,21.77469,15.036361,33.379012,36.136872,33.947511,28.095141,44.443353,43.626605,39.822927,38.320268,49.508554,53.7699,55.935376,23.49598,48.627388,70.297348,85.512795,53.316147,86.482498,103.450493,115.251732,45.011444,82.009369,101.484513,114.748009,35.50858,70.602745,89.098114,101.208756,26.263733,53.885239,68.955689,79.84346,-15.946427,-15.399935,-5.45145,3.498494,12.441942,25.055081,29.905922,32.583852,29.715323,41.061825,44.082384,45.536606,41.330353,52.640719,54.713397,54.221147,48.210164,58.158736,58.244717,55.733909,-26.933682,299.242799,-64.911942,292.778297
106,-0.836677,-2.412428,-0.159542,-0.123674,9.290954,21.397602,28.867172,31.631298,15.682926,43.24284,60.950397,68.563831,8.570617,46.225857,63.653492,74.62698,0.80682,30.603023,48.488216,59.750324,-6.008217,-5.121609,-5.901776,-7.050671,-14.037462,-13.204165,-6.445174,0.045152,3.183938,22.309189,27.095439,27.717722,16.899841,35.656195,38.935438,37.009813,25.762309,43.342602,43.700989,40.624398,32.426451,45.688883,50.422484,52.945915,23.509861,48.661572,70.313793,85.449497,53.663887,86.732357,103.694424,115.449726,45.373444,82.083584,101.488735,114.65379,35.789486,70.62711,89.011746,100.984783,26.466545,53.996956,69.073712,80.039417,-15.849429,-15.359946,-5.401506,3.664257,12.430432,25.003804,29.947036,32.677849,29.609681,40.930853,44.10496,45.670901,41.226922,52.550132,54.738319,54.314613,48.184612,58.272616,58.468427,56.016886,-27.723186,296.824409,-65.024311,292.648661
107,-0.057896,-2.13076,0.12331,-0.023502,6.732147,15.110092,19.107388,18.153637,13.678597,41.375702,59.145378,67.084168,8.134152,47.3844,64.886444,75.449867,1.935425,33.592941,51.768265,62.911492,-3.689712,2.016243,5.09689,6.975014,-6.646184,-1.79564,6.446583,12.504656,10.168465,29.018779,33.469514,33.799274,18.662951,37.657427,41.483458,39.987962,22.95563,41.628794,43.154683,40.931026,25.712613,40.925321,46.162064,49.086539,23.371834,48.472561,70.127632,85.302407,53.732838,86.857704,103.823365,115.589241,45.452111,82.101631,101.494355,114.555863,35.858677,70.678048,88.947464,100.738564,26.566109,54.140934,69.222679,80.176781,-15.897372,-15.374161,-5.411312,3.537916,12.518278,25.076039,30.076798,32.928456,29.703628,40.961703,44.215308,45.901403,41.325352,52.592356,54.747804,54.35186,48.279868,58.333724,58.503723,56.057444,-27.751431,294.687647,-64.87135,292.619157
108,2.71455,-0.383927,0.031254,-0.051401,4.029099,8.769322,9.423329,5.696125,10.064369,37.241215,55.18356,63.484142,5.629772,44.875889,62.259236,72.677822,0.43626,32.175327,50.193501,61.202488,-4.586426,2.242047,6.735581,9.859326,-3.780817,3.480896,13.350612,19.631766,13.645606,31.995828,35.851697,35.876459,19.799319,37.873763,41.832842,40.706403,22.081775,40.61726,42.519099,40.90498,23.202841,39.169077,44.720661,48.111315,23.384434,48.514355,70.109791,85.325443,53.823383,86.919193,103.893757,115.713627,45.533066,82.088619,101.473217,114.512638,35.93755,70.679775,88.928089,100.716351,26.656197,54.199631,69.277622,80.230602,-15.96594,-15.322451,-5.287663,3.630603,12.541261,25.086549,30.103499,32.96773,29.744074,41.012042,44.329583,46.08658,41.384163,52.661974,54.883136,54.557551,48.35965,58.430129,58.630583,56.227801,-25.019022,294.300737,-64.822237,292.564773
109,0.177075,-0.303972,0.041451,-0.068049,2.480564,5.330223,4.308528,-0.892205,8.729873,36.074203,54.261497,62.956031,4.88356,44.637107,62.139793,72.663459,0.331604,32.568832,50.596023,61.590339,-4.227757,3.715484,9.116809,12.881961,-2.049817,6.629512,17.704806,24.627966,14.912354,33.23359,36.914063,36.915014,20.1098,37.997857,42.165466,41.092614,21.661007,40.384584,42.481381,40.994048,22.295974,38.73896,44.40897,47.815468,23.32624,48.508758,70.081524,85.26028,53.921413,86.976459,103.926784,115.736835,45.651317,82.093448,101.46104,114.534839,36.041393,70.656726,88.944088,100.80907,26.717571,54.146633,69.247638,80.26942,-16.024034,-15.289192,-5.151182,3.748237,12.780433,25.270627,30.232174,33.072582,29.960238,41.172408,44.52033,46.31087,41.533154,52.777336,55.071685,54.816853,48.434516,58.527436,58.790356,56.436147,-24.839761,293.998497,-64.7786,292.498456
110,-1.218018,-0.117845,0.044139,0.098455,1.547424,3.886047,2.649834,-2.926804,9.061352,36.95874,55.217033,64.057365,5.718945,45.814865,63.350922,73.928627,1.469605,34.156631,52.120193,63.045525,-2.911995,5.49717,11.013416,14.749363,-1.096205,8.208297,19.949274,27.345997,15.515841,33.884489,37.675952,37.868008,20.367954,38.272572,42.655715,41.753406,21.662909,40.338494,42.459337,41.018539,22.149182,38.400729,43.919092,47.144093,23.197735,48.3937,69.987053,85.146653,53.979527,86.953034,103.872551,115.726571,45.774468,82.126374,101.485314,114.681771,36.207562,70.76413,89.087677,101.097771,26.879769,54.279145,69.400956,80.523469,-16.131542,-15.347435,-5.129162,3.794921,12.93287,25.28436,30.195803,33.009251,30.093026,41.208112,44.537151,46.334767,41.626928,52.74525,55.066535,54.830179,48.489338,58.468908,58.775351,56.456462,-26.077778,293.868157,-64.75446,292.584416
111,-0.808033,1.96932,0.127614,0.15571,2.708038,6.888668,6.722855,2.484478,11.724609,39.636784,58.020229,66.690823,7.370293,46.285755,63.5518,74.300503,1.849503,32.963299,50.149853,60.808147,-3.790535,0.84137,3.438309,5.08873,-6.692942,0.304491,12.030264,20.639507,9.497633,28.010901,32.196479,32.610244,18.603621,36.221692,40.501181,39.363689,23.845527,41.640723,42.968332,40.976276,27.69874,42.613305,47.875811,50.858677,23.135593,48.292648,69.845478,85.131671,54.033771,86.997539,103.901653,115.757549,45.809085,82.151149,101.491687,114.735797,36.236858,70.756313,89.10577,101.213207,26.868072,54.221099,69.349971,80.500476,-16.27983,-15.394489,-5.157926,3.608669,13.046454,25.356707,30.22879,33.018846,30.216292,41.250967,44.580055,46.40499,41.696533,52.747745,55.098682,54.921112,48.473542,58.413345,58.746365,56.457537,-26.926003,295.802372,-64.667038,292.705021
112,-3.335587,2.052201,0.011627,-0.025899,5.448693,13.27192,15.474701,13.557976,17.810635,46.249249,64.336407,72.461827,11.988934,50.292012,66.96159,77.384823,4.536999,34.528988,50.766324,60.814168,-2.984081,-1.655101,-2.084449,-2.781692,-13.196817,-9.316903,1.803025,11.393716,3.17633,21.62266,26.126364,26.773817,17.049202,34.126686,38.174314,36.837801,26.595643,43.300982,43.736989,41.094047,34.169368,47.693239,52.566508,55.303854,23.164123,48.335369,69.82996,85.108577,54.106441,86.933269,103.813579,115.677418,45.877487,82.109081,101.419109,114.782421,36.296425,70.644642,89.060932,101.374912,26.85236,54.041347,69.160686,80.380085,-16.223611,-15.264059,-5.024939,3.739828,13.201497,25.440244,30.33699,33.108682,30.319712,41.37101,44.75949,46.623587,41.740759,52.817487,55.309486,55.214267,48.455277,58.452298,58.861592,56.590375,-30.320549,297.798732,-64.71437,292.623281
113,-2.372165,-0.502587,0.160984,0.069717,6.547016,15.54507,18.706569,17.23835,20.449665,49.127655,67.2052,75.515053,14.153526,52.670059,69.656135,80.455765,6.188633,36.363785,52.883812,63.223022,-1.766419,-0.108078,-0.564411,-1.360531,-12.895882,-9.121153,1.974358,11.740334,2.53998,21.290492,26.178186,27.123609,16.80146,34.470698,38.730822,37.335682,26.84141,44.022177,44.599717,41.927011,35.003666,48.692472,53.6051,56.353018,23.180145,48.336708,69.796783,85.051918,54.178493,86.933487,103.772346,115.601669,45.955616,82.092201,101.351486,114.738968,36.373958,70.613296,89.0037,101.344528,26.882801,54.016949,69.128837,80.363296,-16.279274,-15.309879,-5.047985,3.698343,13.251873,25.46587,30.394133,33.178286,30.355354,41.362784,44.785585,46.684447,41.746069,52.799269,55.299037,55.209203,48.411594,58.36844,58.786404,56.517953,-32.75358,297.220609,-64.614252,292.617462
