takenoko1/special-research/HandMotion_SimilarSearch_自分用/NewProject/handData/key/d4_feature_d3/0.csv
,vel_0x_L,vel_0y_L,vel_0x_R,vel_0y_R,posFromWrist_1x_L,posFromWrist_2x_L,posFromWrist_3x_L,posFromWrist_4x_L,posFromWrist_5x_L,posFromWrist_6x_L,posFromWrist_7x_L,posFromWrist_8x_L,posFromWrist_9x_L,posFromWrist_10x_L,posFromWrist_11x_L,posFromWrist_12x_L,posFromWrist_13x_L,posFromWrist_14x_L,posFromWrist_15x_L,posFromWrist_16x_L,posFromWrist_17x_L,posFromWrist_18x_L,posFromWrist_19x_L,posFromWrist_20x_L,posFromWrist_1y_L,posFromWrist_2y_L,posFromWrist_3y_L,posFromWrist_4y_L,posFromWrist_5y_L,posFromWrist_6y_L,posFromWrist_7y_L,posFromWrist_8y_L,posFromWrist_9y_L,posFromWrist_10y_L,posFromWrist_11y_L,posFromWrist_12y_L,posFromWrist_13y_L,posFromWrist_14y_L,posFromWrist_15y_L,posFromWrist_16y_L,posFromWrist_17y_L,posFromWrist_18y_L,posFromWrist_19y_L,posFromWrist_20y_L,posFromWrist_1x_R,posFromWrist_2x_R,posFromWrist_3x_R,posFromWrist_4x_R,posFromWrist_5x_R,posFromWrist_6x_R,posFromWrist_7x_R,posFromWrist_8x_R,posFromWrist_9x_R,posFromWrist_10x_R,posFromWrist_11x_R,posFromWrist_12x_R,posFromWrist_13x_R,posFromWrist_14x_R,posFromWrist_15x_R,posFromWrist_16x_R,posFromWrist_17x_R,posFromWrist_18x_R,posFromWrist_19x_R,posFromWrist_20x_R,posFromWrist_1y_R,posFromWrist_2y_R,posFromWrist_3y_R,posFromWrist_4y_R,posFromWrist_5y_R,posFromWrist_6y_R,posFromWrist_7y_R,posFromWrist_8y_R,posFromWrist_9y_R,posFromWrist_10y_R,posFromWrist_11y_R,posFromWrist_12y_R,posFromWrist_13y_R,posFromWrist_14y_R,posFromWrist_15y_R,posFromWrist_16y_R,posFromWrist_17y_R,posFromWrist_18y_R,posFromWrist_19y_R,posFromWrist_20y_R,posFromBody_0x_L,posFromBody_0y_L,posFromBody_0x_R,posFromBody_0y_R
6,1.175194,-0.862604,-0.050892,-0.979251,4.810284,11.308857,17.979458,22.822689,-9.382187,15.866512,35.746868,47.527325,-19.561729,9.492359,33.252468,50.738674,-24.19986,0.285748,23.246349,38.919354,-25.678894,-14.689098,-0.261887,11.961445,-18.696271,-20.855288,-10.364535,1.7742,-3.496605,13.12111,22.375447,28.37613,17.808732,34.532905,43.982336,46.168461,34.764877,47.56528,51.963651,51.536041,48.014107,58.901766,58.532845,54.852335,29.746548,55.57671,78.387771,98.295135,51.738544,85.866211,102.694977,113.768532,41.57698,80.229401,99.480469,111.380356,33.199699,68.382912,87.076973,99.144333,26.821621,52.65826,68.269386,80.219581,-12.650708,-12.770145,-5.620979,1.620442,22.672195,41.70487,46.854892,49.060456,40.232802,57.942796,61.065217,60.117917,50.763866,69.095006,72.555845,71.478054,55.790806,72.468703,75.650739,74.809068,-15.744032,331.893487,-77.7894,318.385065
7,0.932213,-0.207519,0.644451,0.291129,4.965065,10.884144,16.876957,20.839886,-9.908627,15.228344,35.06908,46.892887,-20.331539,8.530369,32.681522,50.652065,-25.025173,-0.599911,22.668491,38.751125,-26.4482,-15.597359,-0.826447,11.917202,-18.239367,-20.257037,-9.64471,2.388506,-2.13975,14.633181,23.928334,29.904527,18.580465,35.148483,44.266289,46.338819,34.886476,47.59707,52.083052,51.892453,47.70575,58.829148,58.596485,55.041329,29.04356,54.683212,77.601002,97.420086,50.986256,84.484005,101.320896,112.619213,41.105301,79.567692,98.930798,111.091839,32.815315,68.07169,86.707043,98.977283,26.505787,52.190094,67.667141,79.882885,-12.356035,-12.910752,-5.947182,1.361584,22.217502,40.649901,46.256851,48.928136,39.698154,56.876847,60.445786,59.907224,50.388595,68.348147,72.083923,71.293037,55.653794,72.31939,75.659952,74.925826,-14.916407,331.672099,-77.249537,318.662325
8,-2.324478,-0.295834,0.590332,0.367452,5.941154,12.962047,19.874668,24.604557,-6.793671,18.375698,37.764965,49.24506,-17.225968,11.329113,35.19524,53.054821,-22.207775,1.919861,25.043827,40.968807,-24.252583,-13.126374,2.010612,14.911514,-18.29551,-20.93213,-11.521466,-0.392646,-2.443019,14.579656,24.162714,30.238127,18.392484,35.116966,44.743299,46.936056,34.710055,47.299606,52.3695,52.442909,47.56097,58.823517,59.018698,55.522538,28.478394,54.015118,76.916325,96.813618,50.321686,83.71011,100.70351,112.202557,40.555401,79.049526,98.571888,110.840092,32.347034,67.704907,86.486149,98.869137,26.127605,51.888176,67.466778,79.879154,-12.620883,-13.357034,-6.428811,0.917772,21.621326,39.893878,45.691983,48.508444,39.124863,56.153132,59.858429,59.458582,49.996246,67.812129,71.573161,70.836454,55.464504,72.132027,75.524792,74.899742,-17.385177,331.37319,-76.803497,319.026702
9,-0.357022,-2.870739,0.395977,0.305146,5.345101,12.932282,20.023339,23.678238,-6.165001,19.688576,39.645104,51.812256,-16.41394,12.612465,36.544899,54.336983,-21.436042,2.558247,25.504212,41.171357,-23.627323,-13.150222,1.71848,14.500821,-16.559448,-17.027664,-6.413929,5.110587,1.23528,19.284135,29.012418,35.27454,21.238832,38.240474,48.156861,50.986154,36.786449,49.858579,55.220158,55.909045,49.216511,61.08699,61.465261,58.450704,28.06921,53.504196,76.310097,96.199333,50.047714,83.19429,100.272308,111.979683,40.314892,78.637482,98.211502,110.602844,32.063084,67.223488,86.101479,98.608818,25.704014,51.363773,66.967209,79.479309,-12.865365,-13.726833,-6.843576,0.474243,21.386304,39.431787,45.339869,48.290045,38.775158,55.607925,59.472217,59.25677,49.611726,67.325758,71.239474,70.578349,55.130965,71.820397,75.384903,74.914365,-17.91964,328.516372,-76.584961,319.345769
10,-1.539367,-3.702666,0.264793,0.179446,5.686191,14.292412,20.981071,24.137878,-4.85828,20.775055,41.105644,53.38504,-15.338253,13.297325,36.981971,54.722282,-21.234547,2.032287,25.444061,41.099121,-24.598412,-15.334877,-0.647324,11.816036,-16.071693,-15.618025,-4.909145,6.007364,4.03886,23.831275,33.221932,38.823842,24.095208,41.772882,51.462077,54.048802,39.196062,52.912125,58.635412,59.674462,51.179507,64.032658,65.296615,62.959213,27.960183,53.310585,76.071282,96.037949,49.922299,82.955727,100.102982,111.939949,40.193127,78.387017,98.008805,110.486023,31.875355,66.886231,85.829567,98.409623,25.37106,50.943089,66.543274,79.113465,-12.948147,-13.879763,-7.0269,0.275815,21.229076,39.062817,45.067279,48.121553,38.49727,55.134881,59.140161,59.049573,49.276224,66.903558,70.939578,70.320308,54.815854,71.549412,75.288178,74.921924,-19.671221,324.813243,-76.532382,319.524752
11,0.256576,0.056292,0.31271,0.114103,5.739888,14.521431,21.31778,24.278412,-5.313343,19.870446,40.539963,53.143639,-15.955833,12.171376,36.346825,54.587998,-22.014244,0.713105,24.511299,40.67173,-25.390468,-16.435981,-1.691642,10.892269,-15.823889,-15.272026,-4.351441,6.561845,3.5948,23.181747,32.737981,38.476657,23.655051,41.195268,51.048102,53.768319,38.884654,52.577623,58.438404,59.623221,51.028132,63.889471,65.220921,63.117788,27.813526,53.046662,75.732411,95.803013,49.937416,82.811955,99.986378,111.835385,40.267479,78.216191,97.881993,110.398304,31.887417,66.650769,85.633953,98.262875,25.214619,50.629509,66.182316,78.781506,-13.011751,-13.956495,-7.050712,0.226624,21.201065,38.898202,44.932959,47.955975,38.330321,54.827709,58.961862,58.950154,49.042498,66.645972,70.802825,70.181887,54.618672,71.395147,75.287127,75.030196,-19.694899,324.847064,-76.499926,319.616384
12,0.144436,-0.543157,0.229031,0.115485,5.766403,14.142666,20.52927,23.462689,-6.085728,18.624104,39.749279,52.683552,-16.780197,11.343979,36.084995,54.716023,-22.93,-0.33934,23.901135,40.317066,-26.284504,-18.3433,-3.615223,9.100273,-15.509592,-14.280326,-2.431744,9.258239,3.754474,23.621113,33.481061,39.438037,23.537812,41.278594,51.810337,55.028917,38.703133,52.606127,58.944424,60.623232,50.878202,63.875355,65.539541,63.961855,27.815128,52.938606,75.517044,95.624954,49.989464,82.792465,99.925003,111.725555,40.334827,78.114624,97.724304,110.153412,31.895691,66.479668,85.429916,98.011391,25.102947,50.429397,65.932365,78.512535,-13.126742,-14.069127,-7.093121,0.222487,21.037514,38.715348,44.847818,48.001053,38.085123,54.564949,58.844734,58.978955,48.791076,66.407048,70.677447,70.120483,54.419675,71.219085,75.211558,75.047623,-19.85396,324.270284,-76.574392,319.698246
13,0.447281,0.025392,0.175449,0.345432,5.704857,14.429913,21.342144,24.869923,-7.284027,17.081806,38.862454,52.405827,-18.082237,10.051918,35.396885,54.523258,-24.070633,-1.64938,22.931728,39.729641,-26.987171,-20.749077,-7.703579,3.928162,-15.554027,-14.420179,-2.31984,9.195056,3.828785,23.578357,33.225822,38.989123,23.636081,41.09317,51.228537,54.116715,38.816766,52.427545,58.675908,60.27018,51.027996,63.492304,65.734746,64.906586,27.732399,52.750866,75.261509,95.421353,50.04522,82.885655,99.960011,111.653172,40.470452,78.212849,97.757939,110.060475,32.058975,66.587574,85.516835,98.069767,25.22723,50.606896,66.047528,78.605335,-13.372755,-14.426341,-7.338345,0.122748,20.677187,38.259889,44.433831,47.727734,37.739987,54.086371,58.488558,58.770103,48.49082,65.983625,70.317701,69.79948,54.192606,70.904182,74.953959,74.881662,-19.704014,324.26519,-76.696278,320.013192
14,-0.4907,0.965961,-0.00515,0.348384,5.788136,14.506062,22.123112,27.032627,-7.640991,16.337277,38.267544,51.944721,-18.588867,9.020783,34.555928,53.801297,-24.619972,-2.486904,22.53954,39.62994,-27.576576,-21.337463,-8.079426,3.618141,-16.918414,-17.185893,-5.819309,5.127372,2.407155,22.297024,31.772885,37.397297,22.920963,40.352845,50.069976,52.489098,38.520611,51.730432,57.6809,58.829964,50.768287,62.578547,64.727474,63.494788,27.69936,52.719189,75.202504,95.333577,50.175259,83.074917,100.101185,111.792721,40.657139,78.404698,97.88593,110.136944,32.293705,66.864521,85.728093,98.199864,25.439701,50.941922,66.35233,78.891621,-13.638295,-14.781036,-7.57543,-0.0278,20.118235,37.700862,43.999898,47.527859,37.3167,53.545709,58.09927,58.572822,48.21256,65.470479,69.874,69.450577,54.06461,70.614708,74.669104,74.613195,-20.48366,325.198828,-76.990374,320.329253
15,-3.822544,0.610799,0.068058,0.164429,5.39019,16.284599,27.549408,35.31086,-5.358936,20.816277,43.001816,57.759384,-15.710941,14.048596,39.690926,58.665367,-20.981827,3.176342,27.66742,44.790184,-22.995403,-14.139759,-0.770817,11.357334,-16.814675,-17.108903,-6.487647,4.025793,1.876706,21.471001,31.321587,37.739159,22.599687,40.162591,50.171295,53.039911,38.721324,52.524221,58.233639,58.919871,51.304811,63.294691,65.508381,64.483337,27.568245,52.663903,75.17981,95.39161,50.159855,83.129609,100.092659,111.775727,40.728733,78.462731,97.891709,110.052224,32.444596,67.049515,85.834465,98.181313,25.617348,51.274098,66.667832,79.167138,-13.83665,-14.970128,-7.601278,0.052685,19.778212,37.309895,43.68339,47.414807,37.104661,53.280244,57.98502,58.616233,48.107659,65.230356,69.692429,69.31622,54.04869,70.464889,74.531389,74.494672,-24.582401,325.77681,-77.198513,320.460865
16,-0.16642,0.681588,0.070942,0.217324,6.074272,17.34652,29.062844,37.367729,-5.04895,21.373421,43.311905,57.849014,-15.620441,14.54377,39.795319,58.684181,-21.024925,3.572216,27.505417,44.140412,-23.053871,-15.577686,-4.249912,6.393631,-17.594693,-18.533274,-8.546306,1.371773,2.073171,21.606815,30.630255,36.200722,22.819482,40.138509,49.047426,51.202145,38.793264,52.245579,57.255859,57.536576,51.181348,62.754066,65.36685,64.897571,27.460877,52.629582,75.134503,95.289379,50.03492,83.170178,100.12714,111.82053,40.594357,78.529187,97.904835,109.946217,32.388085,67.201092,85.930012,98.18224,25.653042,51.556401,66.978161,79.445698,-14.052418,-15.233629,-7.751653,0.025318,19.381454,36.901688,43.348419,47.29206,36.898897,53.069218,57.885417,58.693112,48.031175,65.073671,69.546982,69.251741,54.007874,70.303758,74.30721,74.268814,-24.982327,326.424061,-77.361077,320.643852
17,1.034638,2.280529,0.0145,0.184041,4.921245,15.854095,27.888656,35.855346,-5.82415,19.936752,41.699707,56.091041,-15.845536,13.431335,38.075615,56.274604,-20.7361,3.166156,26.602684,42.479713,-22.621868,-14.849579,-3.291928,6.993164,-18.818549,-21.222196,-12.337621,-3.120161,0.942336,20.128844,28.771518,33.85643,22.1703,39.005401,47.207968,48.598303,38.248601,50.694013,55.212575,54.855645,50.533808,60.637793,62.596924,61.077901,27.248417,52.446785,74.948799,95.133156,50.006252,83.287033,100.244156,111.940453,40.587112,78.668152,98.022606,109.980171,32.450684,67.416115,86.124344,98.314384,25.802387,51.895832,67.323212,79.753326,-14.301716,-15.521386,-7.929074,-0.067654,19.041444,36.559233,43.056636,47.110884,36.726095,52.854351,57.724211,58.567154,47.970388,64.922395,69.385122,69.09487,53.988138,70.239933,74.203865,74.156193,-24.153528,328.666428,-77.552416,320.789731
18,0.87149,-0.687467,0.066341,-0.130874,3.828266,13.428131,23.93589,30.072682,-6.938232,18.248383,40.024384,54.540367,-16.634811,12.116627,37.011635,55.50238,-21.450725,2.175968,25.745178,41.891876,-23.495407,-16.215042,-4.630726,5.784107,-17.483814,-18.533559,-8.045202,2.437845,2.295559,21.647212,30.325294,35.394546,22.845948,39.641949,48.038375,49.553199,38.517622,51.213655,55.921828,55.624685,50.661977,60.819191,63.153122,62.070921,27.151417,52.358883,74.842839,95.014401,49.888916,83.177662,100.17809,111.917576,40.457497,78.556309,97.924382,109.859562,32.317978,67.30251,85.94814,98.029393,25.707219,51.78637,67.249798,79.673733,-14.214599,-15.302826,-7.672896,0.146015,19.238156,36.794094,43.333265,47.389699,36.933514,53.084977,57.991442,58.839831,48.142993,65.087355,69.564964,69.270612,54.11837,70.377179,74.327341,74.208113,-23.45085,327.919283,-77.654887,320.599179
19,-0.147972,0.502006,0.136048,-0.110409,3.855663,13.149513,23.375816,29.528996,-7.662449,18.14669,40.346054,55.052582,-17.089382,12.517651,37.996422,56.652351,-21.476109,2.891693,26.851776,43.116669,-22.964264,-15.721527,-4.122814,6.461254,-17.515566,-18.62217,-8.002335,2.870283,1.828578,21.09068,29.949259,34.996997,22.42754,39.097212,47.395973,48.481138,38.168547,50.715824,55.418797,54.859103,50.309765,60.569287,62.814582,61.494765,27.134044,52.342403,74.791454,95.036304,49.631286,83.041157,100.0685,111.730304,40.164345,78.401378,97.828022,109.664074,32.035503,67.142933,85.801494,97.790325,25.519867,51.6446,67.152088,79.545696,-14.13651,-15.178054,-7.551878,0.279889,19.316751,36.984001,43.487357,47.446163,37.012357,53.319405,58.18004,58.881524,48.202495,65.340753,69.789191,69.427791,54.1014,70.519563,74.476097,74.323203,-23.724627,328.358297,-77.644644,320.425778
20,0.842331,0.617739,-0.007096,0.037371,3.794437,12.429897,22.16375,28.160877,-7.914219,17.445145,39.686302,54.228516,-17.489204,11.711254,37.453926,56.346954,-21.976353,1.862961,26.08548,42.517342,-23.343819,-17.427979,-6.248749,3.92934,-17.771583,-18.95834,-7.89379,3.364014,1.247679,20.006689,28.903145,34.239924,21.755708,37.796674,46.403199,47.818531,37.426196,49.425054,54.341857,54.155099,49.559213,59.662285,61.758711,60.418369,27.176377,52.383854,74.771473,94.998539,49.506661,83.001126,100.084362,111.699246,39.966649,78.35748,97.790188,109.54533,31.834786,67.056004,85.729718,97.686367,25.379677,51.561139,67.099446,79.469708,-14.065163,-15.092776,-7.489214,0.360906,19.349924,37.109453,43.580341,47.435209,37.039181,53.427951,58.196182,58.792826,48.197975,65.4214,69.796231,69.406376,54.046579,70.548401,74.449248,74.265257,-22.960161,328.907648,-77.729605,320.394761
21,7.013924,-0.670054,-0.074935,0.057749,0.871662,6.140659,12.443264,15.538948,-15.461094,8.358787,31.570724,47.332237,-24.454113,3.51614,30.176765,49.900474,-27.982693,-5.287537,20.034919,37.893425,-28.373692,-22.611672,-10.510632,0.771835,-14.620694,-14.263678,-1.780906,10.704916,2.651242,21.530405,30.884284,37.15011,22.267038,38.210007,47.604998,50.020242,37.383243,49.47054,54.784533,55.163273,49.282312,59.491348,60.997205,59.648996,27.229774,52.507564,74.921527,95.202358,49.538658,83.028476,100.113933,111.688442,39.939445,78.390483,97.849834,109.565059,31.758934,67.030872,85.728137,97.637088,25.30434,51.526199,67.075572,79.399349,-14.080045,-15.063853,-7.444333,0.408911,19.40608,37.265497,43.700235,47.440631,37.05825,53.522268,58.157674,58.579615,48.171719,65.44421,69.72549,69.242058,53.953965,70.510585,74.385448,74.164875,-15.994388,328.188669,-77.852691,320.403585
22,2.392948,1.068134,-0.189343,-0.093305,1.817711,6.013321,10.648475,13.45586,-16.874531,6.412914,28.936123,43.640865,-26.151341,0.676758,26.717502,46.639583,-30.029778,-8.05608,16.818271,34.914745,-30.718392,-25.489037,-14.049385,-2.961148,-14.794793,-15.013118,-2.083928,11.302153,0.903285,19.355395,28.429865,34.554629,20.800318,36.733332,45.883743,48.417461,36.249715,48.305754,53.269067,53.620773,48.177289,58.226143,59.642747,58.300466,27.394398,52.753521,75.195625,95.511749,49.612576,83.092392,100.206848,111.775818,39.993965,78.425491,97.875778,109.600845,31.792122,67.047386,85.734535,97.625359,25.304684,51.508232,67.062607,79.388443,-13.936241,-14.827126,-7.216931,0.543922,19.587972,37.403435,43.761677,47.409484,37.147875,53.619896,58.164862,58.530968,48.194665,65.508554,69.759267,69.268599,53.936663,70.562369,74.443666,74.225737,-13.645752,329.217347,-78.086346,320.270824
23,-4.560173,4.325777,-0.15564,-0.059021,3.447372,9.575775,18.184822,25.046264,-12.153912,12.647518,34.14838,48.267299,-21.077374,6.636326,32.043445,51.421589,-24.452557,-0.881733,23.242756,40.830105,-24.438526,-14.741993,-1.317993,11.063381,-17.150473,-19.889709,-8.993614,3.500829,-3.55507,12.64047,22.171103,29.046455,16.782157,32.248214,41.773931,44.651328,33.033803,44.840346,49.609046,49.651123,45.381144,55.206474,55.61399,52.98546,27.599842,53.031716,75.439774,95.803963,49.504898,83.056183,100.210167,111.760369,39.862999,78.413636,97.897087,109.607552,31.702263,67.076088,85.811028,97.704026,25.285023,51.563874,67.143563,79.443581,-13.823435,-14.690744,-7.07309,0.687406,19.584402,37.405324,43.706904,47.307966,37.159434,53.764034,58.233812,58.540428,48.203594,65.643355,69.834467,69.342205,53.911172,70.596233,74.437207,74.218388,-18.255392,333.520122,-78.291453,320.188801
24,0.367904,2.365263,-0.118629,-0.005805,4.530053,10.458481,18.008446,24.374771,-10.314525,13.153462,33.229672,46.335194,-19.470268,6.624539,30.638295,49.835919,-23.270256,-0.473213,22.517064,39.827191,-23.817752,-13.473404,-0.334602,11.87653,-17.14473,-19.899194,-9.289682,2.946285,-5.908366,8.104976,17.344258,24.399132,13.863598,29.109058,38.949184,42.617294,30.183589,42.540464,47.517535,48.243893,42.931122,52.972739,53.830872,52.054362,27.707771,53.206203,75.637115,95.988007,49.607597,83.127296,100.320579,111.865951,39.926994,78.506767,98.000061,109.702217,31.725311,67.103783,85.879188,97.801414,25.278408,51.505703,67.104858,79.41964,-13.740998,-14.603009,-7.024097,0.74024,19.716376,37.513586,43.761937,47.27288,37.237895,53.868281,58.240642,58.465747,48.219539,65.703822,69.837777,69.307131,53.87763,70.573657,74.410976,74.214078,-17.937172,335.862016,-78.459766,320.159627
25,9.75071,-1.080027,-0.19273,0.009769,2.714985,4.173443,5.763176,7.487251,-19.057194,1.629032,22.070743,34.979221,-28.64431,-5.05933,19.077793,38.948444,-32.544193,-12.374348,11.39867,29.456875,-33.362801,-26.745895,-14.527084,-2.620468,-16.63897,-18.899887,-7.168012,6.308496,-4.389577,10.324718,19.154397,25.171333,15.508171,30.465566,39.785741,42.82128,31.492809,42.819292,47.798326,48.794188,44.019362,53.293026,54.127324,52.483392,27.891254,53.438885,75.921169,96.289135,49.808876,83.475437,100.675518,112.104115,40.099342,78.831631,98.350285,109.965832,31.859001,67.412441,86.203915,98.048664,25.36552,51.647037,67.281979,79.588657,-13.835982,-14.618965,-7.000138,0.72968,19.552898,37.488181,43.731556,47.211685,37.080653,53.780422,58.153438,58.339035,48.100731,65.633822,69.754278,69.23108,53.81026,70.549093,74.4049,74.205001,-8.242556,334.762096,-78.70859,320.149503
26,-9.416164,3.047334,-0.168526,-0.123896,5.789989,11.099395,18.451835,25.061553,-9.973229,13.348457,32.588264,44.546081,-19.657975,6.026298,29.383117,48.452384,-23.71811,-1.061234,21.770027,38.876564,-24.691716,-14.384594,-0.572674,12.231914,-20.487021,-25.282311,-14.785618,-1.580935,-8.88197,4.643668,14.28697,20.624773,12.152073,27.125251,37.147948,39.879922,29.345845,40.649616,45.874442,46.112058,42.545379,51.481639,52.272575,49.497771,28.022209,53.593666,76.100956,96.453587,49.985779,83.773762,100.970089,112.313908,40.265614,79.065731,98.590199,110.180523,31.994042,67.62608,86.384205,98.164753,25.416321,51.687939,67.365223,79.708844,-13.7573,-14.457895,-6.789136,0.922292,19.543734,37.468965,43.716637,47.197063,37.085495,53.77358,58.243322,58.489929,48.114056,65.647086,69.829268,69.331473,53.876827,70.627973,74.512456,74.256439,-17.710813,337.788737,-78.929209,320.004914
27,-2.165291,-0.728557,-0.014991,-0.120215,6.246608,12.03099,19.74955,26.480804,-8.562882,15.167152,34.784797,47.304542,-18.296608,8.085251,32.067306,51.446388,-22.37304,1.012447,24.405075,41.8973,-23.194977,-12.447991,1.770858,15.008068,-19.977974,-23.713776,-12.993595,-0.285101,-8.446517,4.820979,14.962496,21.786435,12.032167,27.32977,37.8924,40.958814,29.149912,41.066556,46.784533,47.387328,42.669226,52.231537,53.508227,51.396437,28.064563,53.655361,76.193859,96.495288,50.030799,83.911296,101.116756,112.418483,40.238353,79.171062,98.69569,110.228153,31.884201,67.66975,86.402812,98.089931,25.205795,51.525924,67.246799,79.575405,-13.659216,-14.362603,-6.690571,1.072802,19.528851,37.633282,43.950855,47.449831,37.103723,53.912222,58.48857,58.79416,48.157219,65.758421,69.977691,69.500446,53.955879,70.713113,74.60807,74.287746,-19.92441,337.04746,-78.992506,319.871979
28,-3.476738,-2.09261,-0.005139,-0.048425,6.412903,14.071186,22.737076,29.351921,-6.262368,19.261573,39.36042,52.708328,-15.840946,12.699829,37.39611,57.414848,-19.856335,4.589698,27.985565,45.684173,-20.378357,-10.219895,2.808391,15.281353,-17.547009,-18.625221,-7.230998,5.333976,-5.705133,8.467266,18.728888,26.019537,13.70485,29.228483,39.627129,42.8701,29.965721,42.750872,48.672082,49.817503,43.06759,54.348761,56.130001,55.030115,28.080711,53.690941,76.266815,96.544785,50.141316,84.108009,101.322533,112.584366,40.251743,79.349465,98.925293,110.44162,31.785118,67.749436,86.516441,98.161377,24.983677,51.322014,67.099892,79.46093,-13.649756,-14.340879,-6.658757,1.135417,19.522998,37.834588,44.167587,47.571937,37.106452,53.954521,58.502353,58.752084,48.170829,65.764596,69.957499,69.439511,53.990719,70.767133,74.676589,74.292736,-23.447553,334.945334,-79.04405,319.814038
29,6.417755,-3.648325,-0.100479,-0.077608,4.381027,10.280788,15.983597,19.899101,-13.258118,11.161903,32.721657,46.99839,-23.30436,4.777988,30.403335,51.121536,-27.432736,-4.558582,20.194748,38.956535,-28.042088,-21.941506,-10.84092,0.406769,-16.516852,-16.94167,-5.159581,7.777489,-2.784956,14.013194,24.223056,31.119552,17.381012,33.108681,43.254076,46.220319,33.463277,45.641359,51.581329,52.914953,46.29516,57.336776,59.303502,58.73199,28.090038,53.675869,76.240929,96.487381,50.182331,84.293633,101.542534,112.770653,40.200451,79.493797,99.141449,110.648552,31.680851,67.847008,86.66613,98.26133,24.821835,51.239216,67.079201,79.436165,-13.671319,-14.346411,-6.653224,1.147891,19.380923,37.899402,44.223508,47.526674,37.058127,54.020409,58.496943,58.616998,48.214919,65.822395,69.960302,69.371895,54.084123,70.890387,74.759396,74.234419,-17.076387,331.291492,-79.191118,319.730913
30,-8.52364,2.355901,-0.104416,-0.178545,6.878334,15.669365,26.255871,34.398869,-5.900139,21.042103,41.952702,55.556797,-15.589725,14.916481,40.354099,60.403027,-19.474171,6.514446,30.804073,48.743031,-19.817482,-8.627231,4.56427,16.646759,-17.779981,-19.974566,-9.196587,3.404239,-4.994089,10.417171,20.685425,27.883115,15.133569,30.877392,40.940499,43.677475,31.496712,44.216333,49.783541,50.326808,44.310639,55.403742,57.044438,55.52623,28.037327,53.597889,76.158577,96.376007,50.232594,84.353577,101.717789,113.085434,40.127976,79.482514,99.250259,110.909317,31.531254,67.691666,86.629349,98.329605,24.615578,50.946751,66.859268,79.27105,-13.51225,-14.189677,-6.513718,1.224523,19.621774,38.104796,44.391507,47.613865,37.321689,54.291654,58.69037,58.728853,48.447644,66.040188,70.14275,69.453072,54.232151,71.036068,74.898692,74.254092,-25.637507,333.64387,-79.333014,319.548845
31,5.264408,-1.809879,-0.016273,-0.18745,6.125771,13.527661,20.815293,26.384102,-10.100189,15.796189,37.377869,51.137123,-20.406383,9.180599,34.810524,55.154686,-24.778415,-0.386398,24.379647,42.520432,-25.59082,-17.098594,-5.138145,6.124729,-16.997221,-18.811942,-9.001506,2.494605,-2.708868,13.458032,22.624153,28.984556,17.673634,33.147077,42.02775,44.366127,33.683651,45.899488,50.821453,51.696815,46.13535,57.380162,58.672907,57.469959,27.938999,53.544319,76.156562,96.395942,50.200779,84.363098,101.815269,113.241989,39.989502,79.46791,99.339523,111.058662,31.322067,67.613868,86.637474,98.370987,24.388641,50.763782,66.719169,79.124611,-13.398382,-14.038499,-6.431478,1.247569,19.91352,38.434284,44.684352,47.754509,37.631714,54.6792,58.901014,58.745341,48.764412,66.372196,70.323,69.49999,54.484278,71.305795,75.097307,74.349077,-20.41008,331.832759,-79.386268,319.360163
32,0.82457,-0.263502,-0.195809,-0.136962,5.452206,12.39307,19.736595,25.484528,-11.409348,15.014374,36.609489,50.302299,-21.540081,8.547123,34.148231,54.33165,-25.629822,-0.711651,24.30059,42.483925,-26.281654,-17.156685,-4.653294,6.848568,-17.471217,-19.932292,-10.054869,2.176529,-2.235748,14.042563,22.897695,28.847928,18.571424,33.740956,42.485099,44.289927,34.660655,46.322516,50.996096,51.263056,46.971427,57.691829,58.564535,56.537887,27.891655,53.550625,76.25235,96.517685,50.371937,84.628166,102.140854,113.58252,40.127804,79.697708,99.674149,111.476761,31.439095,67.782006,86.877228,98.663475,24.50766,50.874195,66.874855,79.299683,-13.380067,-13.956186,-6.397849,1.204442,20.151086,38.520648,44.712275,47.647989,37.881358,54.877887,58.922688,58.548949,49.007869,66.535217,70.378809,69.423926,54.667936,71.528318,75.288733,74.446778,-19.615173,331.568717,-79.61174,319.222661
33,1.856632,0.257018,-0.332451,-0.236677,5.43235,11.932766,19.218167,25.370075,-12.535721,12.952275,34.541966,47.953137,-22.913727,6.218788,31.594151,51.461506,-27.146164,-2.980499,22.322056,40.674214,-27.945728,-19.115948,-6.031231,6.053948,-18.866814,-23.074808,-13.825226,-1.827887,-3.902453,12.308228,21.298359,27.226053,17.853094,33.230823,42.459768,44.469744,34.709227,45.995498,50.741153,50.885773,47.422118,57.259786,57.980339,55.800908,27.913777,53.646847,76.463654,96.762932,50.624977,85.000786,102.595002,114.103524,40.387104,79.987015,100.043175,111.982498,31.693325,68.012192,87.16523,99.044655,24.719158,51.065861,67.091584,79.547127,-13.323763,-13.819952,-6.291428,1.223399,20.42648,38.55445,44.688131,47.557364,38.134399,55.017147,59.012028,58.549332,49.222674,66.687888,70.515068,69.491789,54.833217,71.739949,75.513751,74.609404,-17.78068,331.83015,-79.96633,318.990399
34,-10.452781,0.192253,-0.394466,-0.322979,7.262912,18.174385,30.632183,40.772998,-3.173882,26.101512,46.705341,60.038875,-13.186512,19.398891,43.806118,62.411899,-17.495133,10.180561,33.844127,51.036472,-18.2295,-4.222287,10.054195,22.774234,-18.706484,-22.710924,-14.824483,-4.280625,-3.318467,12.226088,21.290406,27.645252,17.976941,33.757691,43.038012,45.355295,34.759628,47.346338,51.854884,51.430795,47.312203,58.326179,59.405243,57.370839,28.01659,53.913322,76.879406,97.162983,50.830582,85.312626,102.955982,114.562374,40.627029,80.194828,100.279575,112.372845,31.945553,68.155071,87.289204,99.272266,24.946117,51.2421,67.253483,79.747845,-13.159013,-13.576113,-6.088925,1.36151,20.800218,38.560094,44.667222,47.59923,38.4669,55.143476,59.210012,58.851415,49.481889,66.844055,70.724006,69.761725,55.025014,71.931597,75.754923,74.90362,-28.253797,332.026253,-80.381132,318.67127
35,5.133533,-1.556048,-0.120701,-0.349384,6.382015,15.976627,25.448502,32.707649,-6.776413,20.917717,41.499367,54.807838,-17.35643,13.211403,37.154503,55.998322,-22.277344,2.808952,26.476639,43.938538,-23.745392,-13.082623,0.225517,12.737286,-17.988859,-21.376906,-14.233618,-4.593169,-2.017683,14.658695,23.327725,29.075292,19.460482,35.419703,44.381293,46.660822,36.06108,48.302629,52.826712,52.983903,48.487572,59.878213,60.912669,59.214619,28.134888,54.142376,77.165657,97.425751,50.746571,85.284165,102.883186,114.433228,40.657631,80.188522,100.27311,112.444634,32.043892,68.235855,87.344902,99.381615,25.080608,51.368099,67.32296,79.8349,-12.96235,-13.393381,-6.005919,1.478416,21.016901,38.589462,44.722377,47.72467,38.627093,55.26689,59.395362,59.133256,49.646454,67.04341,70.999635,70.139477,55.230186,72.170967,76.054104,75.319941,-23.156376,330.477319,-80.537945,318.329
36,-5.343544,0.284595,-0.099415,-0.347495,7.117413,18.667454,31.969574,41.862854,-2.345135,26.763977,46.988342,60.298302,-12.249126,19.404236,43.532707,61.896927,-16.702824,9.721504,33.041794,50.024117,-17.670467,-4.668697,9.649052,22.595226,-17.992464,-21.278661,-13.401593,-3.432174,-1.939062,14.533515,23.919035,30.185355,19.011581,35.38017,44.962365,47.404396,35.575425,48.359366,53.165895,52.917485,48.007068,59.505019,60.676128,58.607007,28.302326,54.277313,77.270634,97.380467,50.827446,85.369526,102.937008,114.509823,40.767151,80.132687,100.161679,112.45483,32.134049,68.123486,87.213833,99.388607,25.088116,51.260811,67.184315,79.750523,-12.828178,-13.322873,-5.982626,1.493694,20.959856,38.341572,44.488752,47.60595,38.541854,55.110835,59.37459,59.275024,49.578394,67.015845,71.150949,70.44697,55.226358,72.209203,76.165564,75.506169,-28.553015,330.767255,-80.690455,317.986846
37,-3.544498,-1.643833,-0.035694,-0.225228,7.317718,21.292739,36.214519,46.847454,1.232688,31.324962,51.191585,64.796688,-8.89729,23.8801,47.313297,64.948001,-13.807744,13.260841,35.603107,52.103908,-15.153283,-1.360955,12.093177,24.494293,-17.071729,-19.636125,-12.948666,-4.64189,-0.320991,16.708785,26.040507,32.722124,20.473213,37.23866,46.581547,49.638242,36.805283,50.403947,55.182984,55.291764,48.963248,61.5753,63.443337,62.519872,28.562016,54.427139,77.325806,97.331337,51.175106,85.435982,102.947251,114.589874,41.193638,80.043183,99.927544,112.377663,32.501015,67.946869,86.940926,99.223114,25.286842,51.131298,66.92894,79.526573,-12.841344,-13.444399,-6.133249,1.269737,20.540855,37.501062,43.649193,46.912541,38.017864,54.527244,59.088315,59.365796,49.065161,66.563857,70.9779,70.532951,54.832118,71.815371,75.934889,75.514925,-32.159889,329.115845,-80.788525,317.754041
38,6.758525,-1.122351,0.229328,-0.35278,5.021485,15.307331,25.460083,32.163838,-4.957271,23.651207,43.693612,56.977341,-15.046451,16.390892,39.256005,56.688881,-19.998401,5.499916,27.806534,44.102486,-21.756866,-10.860752,1.394337,12.814774,-17.21268,-19.147851,-11.249035,-1.72207,1.404699,18.811806,27.002467,32.512543,22.441545,38.66959,46.71725,49.169112,38.374485,51.288312,55.166608,55.068944,50.046733,61.971022,63.390096,61.973813,28.662094,54.391308,77.216046,97.170948,51.362721,85.390469,102.766835,114.469357,41.448864,79.891514,99.628475,112.167355,32.71431,67.787121,86.672528,99.019032,25.348767,51.059189,66.713711,79.274105,-13.033314,-13.790497,-6.40111,1.002876,19.651982,36.385282,42.643044,46.14943,37.266583,53.731886,58.672685,59.399141,48.544012,66.02748,70.68708,70.511424,54.58382,71.464641,75.62426,75.273295,-25.465714,327.975639,-80.623547,317.383406
39,2.975235,1.894935,0.677571,-0.6899,5.315117,13.220948,21.670807,27.20271,-6.518749,20.804123,40.758477,53.04126,-16.69915,12.986939,36.186631,53.811036,-21.749199,2.424912,25.266152,41.775971,-23.856067,-13.588085,-0.218101,12.001786,-18.423025,-21.395764,-13.420143,-3.245256,-1.515343,14.958087,23.411656,29.07018,19.153484,34.898987,43.187818,45.695354,35.217656,47.251354,51.467734,51.837236,47.152047,58.3656,59.312864,57.20405,28.586357,53.984401,76.709953,96.774009,51.347454,85.007011,102.312721,114.032226,41.593494,79.477226,99.131813,111.779548,32.788227,67.459991,86.256752,98.622001,25.206482,50.761814,66.21698,78.742973,-13.189049,-14.232408,-6.831695,0.501104,18.694616,35.376354,41.767077,45.475016,36.289334,52.897465,58.308641,59.637621,47.772304,65.244917,70.24155,70.429296,54.176514,70.97002,75.345963,75.253732,-22.56958,329.829612,-80.025077,316.652544
40,-4.989578,-1.480491,0.529163,-1.332636,7.10154,17.03888,27.80658,35.16029,-1.383304,26.940079,46.652825,58.767449,-11.287948,19.527191,42.466942,59.873909,-16.797249,8.545647,30.878426,46.730278,-19.301216,-9.304619,2.304428,12.828152,-19.117717,-22.240164,-14.462144,-4.859881,-1.567472,14.8561,23.250809,29.022459,19.010927,35.238453,43.020895,45.413094,34.964059,47.506136,51.52258,52.147223,46.72466,58.107089,59.859985,58.683665,28.623711,53.869709,76.541828,96.497143,51.831196,84.984661,102.22958,114.113445,42.068104,79.114803,98.681362,111.504559,32.925465,66.920345,85.618298,98.03381,24.766491,50.176918,65.433117,77.873989,-13.410102,-14.587559,-7.234456,-0.17836,17.304244,33.924145,40.751023,45.064586,34.756528,51.742053,58.097665,60.561544,46.421613,64.10272,69.85918,70.921176,53.314392,70.159768,74.887306,75.234022,-27.650574,328.269055,-79.58733,315.239842
41,-3.434635,-3.002329,0.759052,-1.932899,9.849312,21.537289,32.421787,39.322678,3.373753,31.506168,50.914616,62.386356,-7.276371,23.166401,44.986279,61.700008,-14.272751,10.607071,32.224812,47.375347,-18.204437,-10.455425,-1.650547,6.491833,-19.505523,-22.206264,-14.307657,-4.767132,-1.912991,15.32891,24.279212,30.904352,18.358039,35.545982,43.925377,47.448189,34.117831,47.683038,52.385159,54.652449,45.923497,58.271937,61.937441,63.295839,28.817551,53.872673,76.294922,96.072762,51.882706,84.448334,101.567139,113.531502,42.210514,78.359482,97.939842,110.995102,32.90419,66.275276,84.963845,97.418358,24.360947,49.757962,64.764359,77.012215,-13.81763,-15.160603,-7.774612,-1.054228,14.895879,31.711986,39.295443,44.561357,32.29964,49.897581,57.639749,61.684129,44.446452,62.298484,69.105491,71.438273,52.247258,68.998268,74.267146,75.355337,-31.223242,325.149663,-78.966311,313.18988
42,4.596073,-3.813743,1.587319,-3.815817,10.859963,20.883362,28.903221,32.925007,0.450348,26.929505,46.632385,57.809075,-11.064514,17.35952,39.05967,56.180969,-18.942455,3.527985,24.990349,39.912804,-23.527519,-20.311878,-14.056229,-7.695534,-19.838592,-23.177745,-15.850293,-7.194306,-1.618145,16.948858,26.788453,34.137085,18.492384,36.303154,45.593479,50.117734,33.880636,47.315031,52.884276,56.773366,45.561344,57.760138,62.509522,65.429551,28.711372,53.708873,75.854164,95.393486,51.704281,83.20919,100.067093,112.03537,41.871151,76.643051,96.18354,109.45317,32.048114,64.379928,82.991661,95.515045,22.727348,48.027054,62.849189,74.915954,-14.118911,-15.286315,-7.660892,-1.193352,12.452971,30.132867,38.876293,45.36163,29.772269,48.576196,57.957689,63.839453,42.465622,61.155977,69.334535,73.292465,51.251656,68.428336,74.417286,76.463336,-26.845762,321.184391,-77.597585,309.222534
43,-6.058422,-4.570876,2.085594,-5.686917,15.158558,29.011173,40.541119,46.745739,9.660404,37.040852,55.875744,66.925266,-3.230049,25.311825,46.672314,63.092159,-12.92276,8.861881,29.911251,44.29002,-19.212467,-14.792084,-7.867458,-1.141399,-17.881537,-22.100102,-17.55174,-11.039887,-2.505795,16.375443,28.334411,37.412277,16.282916,34.676536,46.92951,53.803146,30.999077,45.83738,54.039946,59.835544,42.368229,55.775306,62.759302,67.65443,28.273601,53.15427,74.873955,94.015571,51.46344,81.554878,98.023521,109.796265,41.329731,74.121277,93.254928,106.546097,30.632263,61.010422,79.200302,91.635544,20.127216,44.084701,58.189979,69.526897,-14.378695,-15.046266,-7.101149,-1.16092,10.563754,28.978295,38.955754,46.838293,27.457049,47.637541,58.797273,66.82122,40.335974,60.157881,70.07543,76.025761,49.64107,67.451074,74.227787,77.183532,-33.188696,316.445325,-75.796503,303.367427
44,9.86142,-9.832197,2.144932,-7.3884,9.936355,19.918041,27.833004,30.679332,-0.367619,23.238968,40.788562,51.907642,-11.410939,13.404934,32.724415,48.114155,-19.903839,-1.805889,17.901294,31.363437,-25.26693,-25.179737,-20.427292,-15.231388,-13.594922,-14.821322,-8.518124,-1.170504,3.209057,23.190564,35.543216,45.11122,19.440227,38.441027,52.020794,60.567755,31.77954,47.581335,57.002558,64.372976,41.413222,55.61016,64.175955,71.031918,27.824237,52.498443,73.599781,91.975444,50.83041,79.620906,95.520023,107.236644,40.264686,70.927333,89.609333,103.190838,28.715789,56.471683,74.043857,86.450214,17.12384,37.969574,50.356464,60.107025,-14.744812,-14.542395,-6.432194,-1.188893,8.143546,26.91309,38.320491,47.899708,24.8435,46.065375,58.928233,68.998095,37.985322,58.952328,70.509029,78.331818,47.510508,66.084686,73.807773,77.814337,-23.673528,306.454266,-73.997823,295.820165
45,14.388313,-10.072505,2.099086,-10.675942,0.289146,1.948402,3.751637,2.549171,-17.784576,-1.705353,12.698994,23.250183,-24.554844,-5.641708,11.740665,26.106869,-28.469364,-13.943218,4.481609,17.644787,-29.612698,-28.808109,-22.938744,-16.768192,-3.83333,-0.131381,8.520988,17.24479,10.427199,30.524821,43.977754,54.48014,19.731949,39.330541,54.639839,64.682618,26.647834,43.671669,55.00019,63.457823,31.864373,46.812616,56.879119,65.169174,27.360535,51.646981,71.986542,89.641114,50.013554,77.416352,92.551598,103.818718,39.280209,68.072205,86.02414,99.531189,27.212861,52.365109,68.882813,80.841248,14.839268,32.897816,43.61839,51.878735,-13.662946,-12.099302,-3.953854,0.278507,7.375099,26.50114,38.618881,48.935386,23.378644,45.363248,59.39661,70.710384,36.547846,58.765854,71.621203,80.703812,46.458034,65.977919,74.86305,80.045021,-9.641567,296.249667,-72.255089,285.012129
46,16.923466,-9.999319,1.388329,-15.31091,-10.121956,-17.332741,-21.536934,-26.310574,-34.868065,-28.332814,-18.919544,-10.565197,-37.012482,-27.571438,-15.294503,-3.887581,-36.343792,-29.445763,-15.652428,-4.813248,-33.080303,-34.995209,-30.394146,-24.74239,2.677017,9.761456,18.494125,26.930874,14.81033,32.899842,46.183133,56.805526,20.32274,38.056545,53.616759,64.416622,24.253277,40.128123,51.681427,60.104072,26.872717,40.579172,50.511393,58.771313,27.287516,51.480268,71.159523,87.681393,53.359263,79.359192,92.689281,102.373764,42.528191,68.031635,82.268177,93.086185,29.541183,50.17135,62.687056,71.852554,15.765575,30.065254,37.69091,43.322319,-11.909907,-9.22976,-1.7279,1.496484,9.492477,28.740124,40.745584,50.642143,23.85077,47.71983,61.927475,73.076407,35.936196,60.433313,73.934213,83.12683,45.006992,66.377982,76.098899,81.706515,7.006073,286.167955,-71.142586,269.618826
47,12.45599,-9.44107,0.215424,-18.858316,-18.004155,-31.300679,-39.209782,-46.013123,-45.525982,-49.091057,-45.860207,-41.579258,-43.783127,-44.884896,-39.193749,-32.831292,-39.604569,-40.93261,-33.198029,-26.931176,-33.086998,-37.221554,-34.527649,-31.100991,7.377581,16.708353,26.204479,35.436697,17.101876,31.999052,43.808126,53.42269,19.191102,34.518234,49.009018,59.465153,20.632443,35.46772,46.596738,54.578633,21.415636,33.860172,43.217162,50.856615,27.956296,52.154565,71.053459,85.854961,60.444906,85.572006,96.11301,103.058624,49.76065,71.193454,78.93156,84.545528,35.890617,50.784227,56.567636,60.649658,20.627174,30.589119,33.677181,35.467231,-9.632626,-6.405679,-0.333489,1.732939,13.7908,32.77266,43.739342,52.062649,25.785335,52.267204,65.68111,75.250911,35.937455,63.013912,76.387569,84.495824,43.248253,66.703307,76.799049,81.942673,19.369338,276.717357,-71.019887,250.750982
48,14.704547,-14.888493,2.726245,-19.234834,-26.706424,-46.767677,-58.854515,-68.246646,-59.831806,-72.645795,-74.476289,-73.830047,-53.862842,-64.998487,-66.545459,-65.255704,-45.493514,-54.271539,-53.567293,-52.383922,-34.832702,-42.304161,-43.68029,-44.26605,8.107946,17.592427,26.013849,33.960973,18.985059,31.374884,40.410624,48.342718,19.502947,34.321422,46.44125,55.660722,19.420486,33.778617,43.572585,50.779346,18.662006,30.752224,39.459007,46.73504,27.0651,50.240839,66.258191,78.973938,63.512621,84.258328,88.700318,90.867978,53.098538,68.61026,69.358372,69.330014,39.25113,47.871455,46.874823,45.891564,23.593346,29.289345,28.751759,27.7477,-4.704745,-0.367378,5.269546,6.94828,17.797883,37.78835,48.979606,56.342176,26.156333,54.122186,67.415926,75.658402,33.211496,61.208182,74.59987,81.763715,37.882674,61.739662,72.267347,77.506166,34.121555,261.893242,-68.245972,231.580526
49,6.794129,-17.430721,-3.928813,-26.114632,-28.876751,-50.923737,-63.614639,-72.648823,-61.648796,-80.509443,-85.949118,-88.174862,-54.379543,-73.260492,-81.025932,-84.166449,-44.602066,-60.34564,-65.964632,-69.59935,-32.307289,-42.370949,-47.452801,-52.018999,4.993045,9.966881,12.549505,16.218696,15.459419,24.754783,30.709536,36.474153,16.894437,31.777503,42.061404,50.026577,16.991385,31.741126,41.161404,47.914373,15.60578,28.447019,37.293976,44.694472,29.649461,54.349061,69.964668,81.640834,70.969476,91.634216,91.927631,89.537406,60.548435,75.836505,71.90998,66.634391,46.271221,54.814733,50.459215,45.625488,29.907897,37.351924,36.357135,34.560299,-1.255108,2.741064,7.137224,9.099084,16.430074,37.064821,49.38412,56.517682,21.804237,51.227179,65.463675,73.57934,27.005814,55.942206,70.093782,77.369271,31.173516,54.372022,65.002918,70.413044,41.247803,244.99798,-71.842666,206.001353
50,2.567917,-17.001877,1.348445,-22.259134,-26.75211,-47.457012,-59.334275,-67.457474,-57.128609,-78.871908,-87.540556,-93.334591,-50.660717,-75.247839,-88.63131,-97.11244,-41.877411,-64.341299,-76.521418,-85.402634,-30.549317,-46.114884,-55.888699,-64.65124,-2.117774,-0.526317,0.808097,3.886015,7.206378,16.687475,23.011445,29.352589,12.76347,27.256113,37.786485,46.622006,17.154691,31.44975,40.825161,48.077852,20.157144,32.121008,40.277015,47.379307,28.378321,52.175017,66.277783,77.230317,70.5395,88.13284,85.952683,80.468297,60.831791,72.701638,64.658215,54.671597,47.059479,53.284178,45.56856,37.355851,31.169564,37.42289,35.540074,32.952862,-1.460588,0.465413,3.069354,4.828969,14.425261,32.709885,43.460243,49.424721,18.440507,46.306832,59.049956,66.435138,21.967104,49.112425,62.27287,69.200371,24.490899,46.708339,56.151848,60.63236,44.263602,229.017273,-70.046339,184.763389
51,2.190056,-17.047683,-4.260429,-25.399068,-25.94228,-46.247841,-58.212388,-66.561093,-54.866513,-77.416174,-88.040194,-96.201176,-49.226864,-75.213381,-91.096116,-102.478575,-41.299485,-65.715826,-80.804152,-92.520436,-31.053338,-48.291664,-59.807339,-70.470057,-5.757368,-6.931515,-6.273737,-3.480797,1.933584,11.732387,18.073969,24.483223,8.769651,23.459685,33.792159,42.719799,14.633273,28.99238,38.544595,46.270022,19.503861,31.521313,39.180142,45.933285,28.836147,53.534294,68.17487,79.507793,71.349735,89.293705,86.138248,79.006268,62.046169,75.383022,67.3526,56.345398,49.340138,57.972473,51.103603,42.590767,34.850716,42.772728,41.924149,39.494087,-0.291542,0.141656,1.7876,3.753622,7.043857,21.738022,32.187242,38.121407,8.974978,31.198945,42.92533,50.043658,10.961007,32.389098,44.11936,50.609971,12.717238,29.956916,38.011905,41.959084,46.993819,213.61563,-73.766607,161.010361
52,2.308982,-17.997195,-5.899933,-23.053516,-25.879932,-46.935722,-59.347938,-67.567566,-54.495792,-77.129751,-88.647932,-97.68592,-48.535205,-75.102453,-92.202266,-104.889707,-40.586608,-66.131818,-82.375516,-94.803085,-30.922714,-49.943504,-62.394504,-73.68976,-7.245441,-9.243561,-8.105439,-4.913381,-3.183425,8.493603,16.087495,23.258108,4.02885,20.536742,32.045858,41.930024,11.103274,26.484746,36.958955,45.411383,17.623722,30.124333,37.9541,44.810885,28.61974,54.158341,69.67804,82.915569,67.786137,85.762928,84.261303,78.214703,58.925594,74.766541,70.805168,62.528275,47.746056,60.030785,57.947663,52.727074,35.603028,45.0737,47.07431,47.018772,-1.735026,-2.905912,-1.322453,1.323244,-2.866151,7.9995,18.068955,24.588533,-0.089476,14.989548,25.35798,32.470151,2.670304,17.539766,27.536936,33.735158,5.407706,17.935982,24.302363,27.409063,49.780014,197.815919,-79.189327,140.154329
53,6.122887,-15.536095,-10.71619,-22.738008,-30.188896,-54.189651,-69.184776,-78.77108,-61.165901,-85.261837,-97.497562,-106.034763,-54.090019,-82.390594,-98.755737,-110.245571,-45.13829,-73.165443,-89.593792,-101.351612,-34.644745,-56.174034,-69.682423,-81.360351,-3.620488,-3.442993,0.526435,6.597167,-5.276251,9.990624,20.633369,29.1746,0.724691,19.580846,33.469168,44.44523,8.022058,24.573033,36.804357,46.078763,15.837202,28.505534,36.801616,43.820661,31.336761,58.590431,76.519695,91.539596,67.905086,89.14381,93.877304,92.626007,59.165588,79.95647,82.507416,79.001198,48.284408,66.14059,70.606224,69.953121,36.565647,49.314251,54.880108,57.700435,-3.068841,-6.321983,-6.227307,-4.665732,-11.446057,-7.244633,0.475614,6.062779,-8.751442,-1.161174,7.053095,13.93963,-5.517714,2.844644,10.899861,16.875751,-1.399487,6.121244,10.592956,12.879178,56.397406,184.564204,-89.411012,119.700701
54,6.072945,-10.713091,-5.741295,-16.033155,-32.732987,-59.01915,-76.475075,-87.919499,-67.164986,-93.290234,-107.458695,-117.391754,-59.646492,-89.578778,-105.653218,-117.512581,-50.122147,-79.545365,-96.242272,-108.328652,-39.150124,-62.409439,-76.423886,-88.335938,1.875817,6.536318,15.601488,25.761839,-7.089726,12.205772,26.582638,37.701467,-2.771025,17.533918,33.318349,45.721228,5.16867,22.343003,35.245554,45.146862,15.074856,26.731531,34.436451,40.876327,30.579231,56.645187,74.247482,89.587177,64.201,84.030018,93.10334,96.871399,56.400764,76.519123,83.246132,84.594818,46.593727,64.228832,71.794556,74.912487,35.733055,47.464107,54.26366,58.841892,-2.266073,-6.327225,-6.854296,-7.053478,-15.006536,-15.661504,-11.55026,-7.926382,-13.25409,-12.364662,-7.437485,-2.038258,-10.831794,-8.433099,-3.097642,1.565743,-7.048365,-3.095357,-0.157488,1.318921,62.922661,176.063584,-94.699997,105.880017
55,6.181297,-8.502217,-10.578747,-17.400618,-35.749901,-63.971626,-82.969528,-95.949715,-72.564079,-99.264999,-113.661804,-123.96246,-64.996582,-95.761768,-111.752014,-123.500256,-55.261299,-85.430351,-102.171856,-114.361404,-43.954193,-67.784431,-82.014942,-94.230469,4.862722,10.470202,19.209479,29.640346,-7.269987,12.162114,26.526248,37.576262,-4.090928,16.963444,32.946858,45.342797,3.456961,21.476238,34.504895,44.29835,13.370508,25.472811,33.102272,39.248093,34.307602,61.820755,80.894005,97.010994,67.906986,89.228028,100.958611,108.64793,59.8167,82.282391,92.879265,99.248348,49.729717,69.521416,80.787689,87.881355,38.377567,51.684986,60.244,66.721115,0.492626,-3.776575,-4.526478,-5.386414,-20.057231,-21.812629,-17.925218,-14.715858,-20.143052,-21.948159,-17.503642,-12.758913,-18.197562,-18.509365,-14.069146,-10.321118,-13.400611,-12.535049,-10.291076,-9.172665,69.607115,169.505307,-104.775587,90.423339
56,5.430313,-7.915526,-3.988518,-9.555574,-37.216461,-66.429725,-86.46302,-99.724125,-77.267486,-104.705589,-118.813694,-129.049553,-69.628578,-101.678696,-117.527103,-129.15953,-59.516876,-90.90358,-107.852142,-120.354458,-47.776382,-72.445312,-87.07243,-99.950592,7.580543,14.097101,22.601182,33.574638,-7.894876,13.018963,27.852981,39.039673,-5.521228,17.605994,34.332884,47.153294,2.207862,22.096088,35.899035,46.115159,12.68829,25.655506,33.584604,39.813665,34.624558,61.030243,79.353642,95.255219,64.74828,85.259171,99.982567,111.675946,56.770489,79.358254,93.339135,104.059697,46.609257,66.914933,81.040169,91.576332,35.189679,48.822052,58.924725,67.617428,1.41138,-3.171068,-4.560786,-6.691638,-21.625945,-23.335678,-20.494362,-17.92783,-21.7383,-23.425932,-19.598913,-15.375074,-19.129301,-19.487429,-15.559776,-12.312544,-12.838003,-12.259395,-10.699617,-10.167724,75.542501,162.952032,-108.259032,82.230016
57,4.612427,-6.609937,-0.527206,-7.037657,-38.920395,-69.188164,-90.105583,-103.686688,-81.716057,-109.528233,-123.262184,-133.479641,-73.976509,-106.635338,-122.30864,-133.931248,-63.450668,-95.563316,-112.710423,-125.711735,-51.058022,-76.363541,-91.286648,-104.776955,9.03474,16.277038,24.441591,35.917473,-7.070582,14.398986,29.533283,41.040584,-5.035771,19.111197,36.325396,49.383892,2.741607,23.62367,38.032598,48.625906,13.380154,26.74025,34.829987,41.113795,34.850281,59.948673,77.087036,91.505424,62.050495,81.961521,98.415802,113.064548,54.115231,77.313366,93.993851,108.305546,43.911495,65.416454,81.9291,95.168587,32.130524,46.968201,58.46862,68.660248,3.5006,-1.305632,-3.721487,-7.231702,-23.314986,-24.245879,-21.519512,-19.038306,-25.006972,-25.760926,-21.464919,-17.017784,-22.718563,-23.143295,-18.995452,-15.601847,-15.531377,-16.277007,-15.01644,-14.321773,80.712301,157.283461,-108.228865,76.133725
58,-0.635056,-3.515179,2.641125,-5.37186,-35.991851,-64.856941,-84.782615,-97.673835,-79.055191,-106.335834,-120.514686,-132.524688,-72.103111,-104.067684,-120.985107,-134.843673,-62.153938,-93.031253,-110.824894,-125.333748,-50.412323,-75.105995,-89.694145,-103.396259,7.241051,14.144525,21.778197,32.666141,-7.819726,13.065498,27.546624,39.372149,-5.304422,18.399684,34.816117,48.004103,3.125695,24.026999,37.720857,48.300481,14.267729,27.381837,34.855749,40.785875,33.744312,57.960869,74.415195,87.608768,60.384258,80.07502,97.135219,113.206283,52.967525,76.44944,94.302097,110.848777,43.6119,65.779861,83.53022,98.54013,32.994941,48.879158,61.041469,72.03162,3.176855,-2.092227,-5.114737,-8.69418,-25.851254,-24.694558,-21.71917,-18.889722,-26.948886,-25.558878,-20.934099,-16.653061,-23.541943,-22.551485,-18.475698,-15.459722,-14.781245,-14.83051,-13.618892,-13.060317,80.632879,154.891498,-105.032106,71.885081
59,-2.378242,-2.832775,7.327606,-3.305876,-34.828652,-62.898239,-82.304169,-94.616455,-76.991089,-103.745831,-117.726689,-129.941677,-70.088081,-101.384548,-118.594265,-132.94685,-60.193039,-90.458336,-108.421269,-123.180233,-48.587586,-73.023537,-87.464378,-100.991924,6.136422,12.343413,19.371635,29.835057,-7.241941,12.968463,27.263473,39.208214,-4.596602,18.460359,34.878781,48.388203,3.655945,24.142015,38.148107,49.15639,14.579383,27.407191,35.012125,41.226983,34.572201,59.61906,76.909492,91.458275,61.252293,82.33136,99.440861,115.075584,53.053905,78.452545,96.798511,113.138603,43.238491,67.380043,85.456558,100.325191,32.789406,49.755283,62.294128,73.424309,2.10811,-4.778333,-8.953544,-12.829939,-28.778032,-28.544572,-25.968654,-23.317808,-29.185313,-28.161263,-24.425838,-21.406589,-24.486545,-23.472369,-20.011598,-17.84698,-14.244659,-14.107338,-13.289213,-13.396672,78.670984,152.828077,-97.288153,69.348559
60,-2.501999,-2.435708,5.935844,-1.909292,-33.60585,-60.774582,-79.521332,-91.427261,-75.104416,-101.420849,-115.375408,-127.670803,-68.342606,-99.072578,-116.475071,-131.193764,-58.597023,-88.402691,-106.429665,-121.406811,-47.140114,-71.288338,-85.672531,-99.150421,6.250599,12.065833,18.79002,28.85903,-6.629265,13.19405,27.435597,39.557276,-3.97548,18.671274,35.129562,48.871894,4.049826,24.068581,38.254973,49.500414,14.707342,27.11794,34.691072,40.974263,33.948979,58.665654,75.407605,89.358101,62.650109,85.529801,103.337426,119.353066,54.757759,82.263577,101.582497,118.661019,45.427986,71.66819,90.45298,105.658127,35.644455,54.005482,67.080494,78.461552,2.137188,-4.936235,-9.449721,-13.715495,-28.65986,-29.295575,-27.028816,-24.357913,-28.972212,-28.512654,-25.019445,-22.259455,-24.030376,-23.517632,-20.513067,-18.554943,-13.647242,-14.241207,-13.994699,-14.522635,76.452902,151.018092,-91.068392,68.06499
61,-2.970978,-1.960959,5.919148,-2.005814,-32.640747,-59.294128,-77.678352,-89.347927,-73.540214,-99.426361,-113.497604,-125.840492,-66.605026,-96.91539,-114.571243,-129.642734,-56.80719,-86.482635,-104.673237,-119.886749,-45.419929,-69.701431,-84.217369,-97.79623,5.846665,11.474783,18.278616,28.347749,-6.425772,13.373571,27.677041,40.00624,-3.652302,18.823304,35.260856,49.26354,4.338881,24.107929,38.352156,49.736141,14.90098,26.887945,34.393337,40.734722,34.254169,58.963817,75.524723,89.174686,65.671932,88.796802,106.70898,122.880672,58.308632,85.760639,105.388927,123.027202,49.267307,75.507854,94.579731,110.409061,39.402775,57.879501,71.287605,83.315861,1.866308,-5.288305,-9.740954,-13.572845,-27.484497,-29.663101,-27.925512,-25.320398,-27.736488,-28.847174,-25.883049,-23.130772,-23.302672,-24.008134,-21.434426,-19.239662,-14.118521,-15.737339,-15.722204,-16.083321,73.680055,149.638649,-84.951113,66.640692
62,-2.458053,-1.613785,7.897648,-3.351794,-31.870263,-57.896325,-75.922783,-87.431694,-71.860222,-97.622017,-111.735695,-124.029042,-64.907959,-95.057408,-112.842614,-127.921406,-55.274163,-84.883553,-103.175515,-118.32985,-44.156823,-68.479157,-83.092999,-96.609044,5.416623,10.760639,17.509218,27.468658,-6.557684,13.108106,27.313936,39.445348,-3.632802,18.530533,34.791121,48.647172,4.349859,23.761682,37.894289,49.146684,14.857075,26.514725,33.860888,40.039473,33.992305,58.914837,75.188919,88.832817,66.623657,90.413532,107.651024,122.958549,59.269901,87.157676,106.253563,123.097549,49.995655,76.568264,94.968383,110.217544,39.713699,58.525268,71.789669,83.692566,2.627635,-4.877652,-9.824509,-14.111333,-26.178309,-29.571518,-28.358117,-26.005111,-27.192065,-29.455996,-26.763641,-23.806642,-23.774025,-24.854374,-22.165989,-19.511858,-15.690217,-17.310357,-17.128137,-17.132608,71.349083,148.514582,-76.926384,63.778616
63,-2.048813,-1.511761,4.661384,-2.943376,-31.100235,-56.741776,-74.474808,-85.855442,-70.306023,-96.126595,-110.26157,-122.440304,-63.210457,-93.399067,-111.354653,-126.504627,-53.666909,-83.483506,-101.992951,-117.203991,-42.821343,-67.421082,-82.260418,-95.835572,5.189208,10.235723,16.924664,26.771804,-6.90755,12.722227,27.034935,39.156158,-3.827847,18.145334,34.479997,48.426908,4.268299,23.363762,37.615313,48.997605,14.903412,26.096378,33.339109,39.471061,33.510281,58.343891,74.551003,88.42479,66.701569,91.068924,107.851982,122.460411,59.345375,87.631623,106.180619,122.367783,49.712334,76.30362,93.798386,108.170471,38.871208,57.145661,69.813767,81.175232,3.467761,-4.247385,-9.552388,-14.181371,-25.123019,-29.693025,-28.990225,-27.107184,-26.770391,-30.214131,-27.996692,-25.462548,-24.259662,-25.905941,-23.358989,-20.776482,-17.326894,-19.476969,-19.27851,-19.24359,69.348679,147.193303,-72.216591,61.025722
64,-1.225754,-1.105728,-0.508323,-3.052372,-30.661491,-56.088913,-73.723229,-85.080414,-69.203842,-94.888207,-108.923012,-120.964508,-62.121437,-92.065956,-109.943562,-124.915947,-52.712471,-82.486027,-100.85416,-115.884224,-42.140511,-66.744759,-81.587917,-95.083649,4.805183,9.636004,16.198751,25.935185,-7.346693,12.41145,26.54628,38.380611,-4.258617,17.770311,33.876202,47.45681,3.927734,22.919036,36.990152,48.089764,14.635416,25.616319,32.664535,38.515251,31.321083,54.728118,69.592323,81.763549,64.147018,87.78511,104.692268,119.796569,57.524448,84.682846,103.285148,120.372757,48.46978,74.077789,91.780929,106.653488,37.836536,55.687648,68.297813,79.803451,4.501475,-2.183409,-6.766975,-11.046192,-22.607833,-26.383796,-25.366075,-23.417912,-24.888189,-27.597143,-24.590682,-21.398037,-23.50456,-24.807574,-21.97223,-19.152928,-17.862456,-20.494993,-20.381545,-20.315102,68.154614,146.238036,-72.693225,58.123811
65,-0.747368,-0.799878,-0.818608,-2.568756,-29.984344,-55.26638,-72.769867,-83.973278,-68.364967,-93.996929,-108.012611,-119.854477,-61.244545,-91.072735,-108.961052,-123.73542,-51.901817,-81.839115,-100.143883,-115.039421,-41.572014,-66.429886,-81.311886,-94.793529,4.73785,9.452618,15.912958,25.664225,-7.989762,12.139452,26.229278,37.944233,-4.957372,17.338861,33.310828,46.722462,3.426382,22.548163,36.537521,47.545619,14.362763,25.199701,32.083934,37.777198,29.67508,52.342736,66.777615,78.676609,60.811798,83.452915,99.671047,113.821163,54.54467,80.542866,98.291096,114.287922,45.896622,70.554199,87.436558,101.457035,35.570423,52.7463,64.82634,75.782456,4.415636,-2.216395,-6.794107,-10.572529,-22.253002,-26.222442,-25.116992,-23.254229,-24.939244,-27.665531,-24.547944,-21.491496,-24.193502,-25.515239,-22.310405,-19.474252,-19.388147,-21.827208,-21.336478,-21.035617,67.444696,145.505969,-73.474383,55.622866
66,0.098969,-0.590828,-2.519119,-1.336371,-29.557183,-54.639634,-71.978188,-83.121151,-67.49199,-93.254139,-107.179001,-118.792031,-60.575776,-90.316201,-108.101223,-122.515709,-51.465157,-81.346505,-99.442051,-113.962166,-41.405114,-66.224831,-81.01458,-94.275376,4.633603,9.212557,15.490536,25.051772,-8.163478,11.962031,25.914858,37.374178,-5.207177,17.092379,32.93625,46.023842,3.180357,22.244833,36.199191,47.047466,14.075575,24.799497,31.629426,37.12567,28.469124,51.753456,66.666023,78.984226,56.852188,79.203541,94.506603,107.407986,50.196281,75.939217,92.454449,106.575657,41.463215,65.785652,81.210159,93.289913,31.227619,48.040638,59.311626,68.916378,4.656098,-1.923699,-6.963502,-10.773224,-22.886586,-25.302312,-23.074024,-20.806098,-26.552677,-27.154849,-23.09731,-19.832102,-26.191079,-25.834502,-21.737757,-18.5714,-21.406448,-22.449727,-21.351712,-20.649492,67.556672,144.960071,-75.980495,54.331425
67,0.26802,-0.287003,-5.925831,1.912231,-29.02613,-53.953491,-71.136818,-82.206722,-66.853775,-92.595485,-106.535042,-117.972141,-60.081344,-89.706482,-107.45422,-121.735988,-51.08155,-80.922043,-98.864525,-113.254577,-41.166687,-65.913025,-80.6086,-93.787857,5.056161,9.506661,15.498872,24.856035,-8.302343,11.840752,25.715922,37.098523,-5.597045,16.753628,32.509505,45.544535,2.707064,21.837897,35.794207,46.632491,13.557698,24.308568,31.200816,36.718721,28.0425,51.629242,67.279633,79.780495,54.431294,76.130528,90.85231,102.698731,47.762089,72.864521,88.677521,101.733536,39.36969,63.208615,77.617676,88.293583,29.687599,46.352554,57.115963,65.814766,4.418551,-1.525976,-6.214444,-9.487513,-22.357682,-24.524176,-21.261661,-18.190412,-26.42951,-26.315685,-21.189024,-17.18259,-26.463318,-25.489706,-20.593726,-16.900649,-22.261975,-22.619435,-20.810402,-19.555973,67.824314,144.650973,-81.906704,56.221561
68,0.516152,-0.117869,-4.318554,2.592776,-28.733368,-53.439194,-70.521241,-81.528729,-66.075074,-91.854538,-105.793202,-117.072316,-59.520401,-89.092747,-106.808224,-120.906372,-50.72303,-80.457711,-98.286415,-112.517681,-40.998162,-65.54393,-80.132985,-93.163124,5.253564,9.554826,15.249548,24.301207,-8.102136,11.622119,25.349569,36.609843,-5.564231,16.341382,31.997322,44.935108,2.542326,21.319515,35.235069,46.001932,13.231112,23.813009,30.699192,36.109109,26.743824,49.585648,65.184735,77.171219,51.861752,73.906849,87.912815,98.424145,45.810265,70.999981,86.186497,98.053082,38.279423,62.280316,76.237553,86.353157,29.667126,46.660675,57.560383,66.296997,1.899566,-3.693101,-7.45664,-9.643617,-22.013404,-22.668755,-18.1466,-13.861843,-24.857974,-23.36501,-17.282927,-12.352367,-23.709917,-21.806028,-16.193409,-11.936509,-18.594796,-17.822484,-15.480748,-13.825343,68.300183,144.450674,-86.265541,58.731907
69,0.525467,-0.405589,-2.500122,4.97331,-28.088471,-52.404969,-69.16935,-79.861531,-65.054604,-91.071625,-105.237557,-116.624932,-58.618744,-88.48367,-106.445572,-120.685765,-49.995781,-79.905819,-97.988881,-112.359021,-40.448616,-65.047783,-79.737088,-92.793869,5.148477,9.291572,14.833239,23.696955,-7.884676,11.373759,25.069296,36.244206,-5.232669,16.007374,31.676936,44.654798,2.818041,20.950766,34.862257,45.62791,13.464492,23.598451,30.46706,35.868146,25.376999,47.580906,63.56052,75.742447,49.628117,72.030716,85.691609,95.796375,44.02216,69.322724,84.553471,96.211224,37.039524,61.009014,74.992653,85.395653,29.02581,46.086319,57.061936,65.95641,-1.836784,-7.412772,-10.753871,-12.57302,-21.653393,-20.792333,-15.620328,-10.663209,-22.829732,-19.553836,-12.814359,-6.952312,-20.412531,-17.152399,-10.891926,-5.951424,-14.410286,-12.339535,-9.651286,-7.531969,68.659338,143.993931,-88.931975,63.654063
70,0.301132,-0.401447,-0.422344,6.025105,-28.061321,-52.259606,-69.068184,-79.695687,-64.935003,-91.132974,-105.338302,-116.696284,-58.453733,-88.405463,-106.147145,-120.148757,-49.797701,-79.636186,-97.516813,-111.618529,-40.232748,-64.694936,-79.271739,-92.09953,5.148277,9.172028,14.685202,23.450372,-8.098218,10.178099,23.672012,34.765482,-5.51065,14.604605,30.190084,43.15267,2.397505,19.538001,33.395039,44.108764,12.983906,22.595186,29.462312,34.85274,24.383995,46.294132,62.597351,74.913963,48.12426,71.173988,85.096664,95.668053,42.584198,68.138912,84.133781,96.534943,35.741661,59.77977,74.633938,86.080616,28.018238,45.336216,56.843365,66.410236,-5.635169,-11.024196,-13.459095,-15.066717,-21.537407,-19.020868,-13.243042,-7.749942,-20.468625,-15.508004,-8.294655,-1.755372,-16.219091,-11.826414,-5.311628,0.008892,-8.722276,-5.818265,-3.128689,-0.790528,68.613125,143.597942,-89.701664,69.684626
71,0.303734,-0.264985,3.958105,5.342118,-28.262982,-52.552002,-69.571244,-80.31799,-65.554591,-92.049617,-106.321664,-117.646612,-58.965057,-89.037023,-106.292027,-119.777456,-50.251196,-79.988895,-97.367046,-110.899802,-40.703997,-65.016876,-79.369237,-91.794068,5.401916,9.230553,14.633387,23.211248,-8.777122,7.889396,20.964448,31.96673,-6.432214,11.847999,27.180044,40.072497,1.251248,16.817582,30.482968,41.088452,11.789525,20.67717,27.494695,32.908131,24.174042,45.174654,60.842852,72.399891,50.016232,73.851643,86.450266,95.726641,44.83362,70.993647,85.99272,97.286139,38.123755,62.767719,77.389624,88.477072,30.410545,48.580668,60.096851,69.508513,-8.321915,-13.087357,-14.055672,-15.089633,-19.833534,-15.950644,-10.294393,-5.159494,-16.730024,-10.70783,-3.594309,2.955928,-11.155851,-5.955271,0.44201,5.482606,-2.849834,0.690558,3.324,5.484502,68.437575,143.372894,-86.222843,75.066681
72,0.218444,-0.305921,7.209103,3.73401,-28.78759,-53.450134,-70.989326,-82.068374,-66.98434,-93.927125,-108.247289,-119.501214,-60.227743,-90.368436,-106.815639,-119.459215,-51.395748,-80.946996,-97.456484,-110.029575,-41.817707,-65.908681,-79.87774,-91.681377,5.75013,9.496688,14.99287,23.555565,-9.786721,4.868569,17.376106,28.305598,-7.832324,8.166189,23.151257,35.94053,-0.425782,13.212291,26.635462,37.131276,10.043152,18.061714,24.857869,30.348012,24.986343,45.74576,60.864114,71.553474,55.123466,80.204784,89.985975,96.357816,50.337118,77.227827,89.012071,96.957681,43.434465,68.708931,81.351774,90.236006,35.061115,54.1247,64.858165,72.972147,-9.448229,-12.867859,-12.228366,-12.280835,-17.011985,-10.59156,-5.292528,-1.479904,-12.734716,-4.734638,1.45735,6.796217,-6.377418,0.104334,5.62098,9.592942,2.199047,6.348829,8.660403,10.385923,68.142082,143.15125,-79.527677,78.884968
73,0.009377,-0.193431,6.059669,4.003619,-29.637413,-54.859543,-73.079453,-84.648323,-69.400883,-96.799879,-111.126909,-122.278795,-62.421923,-92.454615,-107.685757,-119.13455,-53.357105,-82.534914,-97.704573,-108.899784,-43.639545,-67.373514,-80.781927,-91.780949,6.427384,10.153116,15.778187,24.42802,-11.242008,1.067057,12.821582,23.700363,-9.925082,3.460894,17.924029,30.560278,-2.869027,8.641146,21.715669,32.082426,7.49,14.638372,21.462148,27.165354,28.200691,50.334269,66.206926,78.304882,58.873867,84.266922,93.995917,100.014616,53.47344,80.978205,92.651202,100.327578,45.914721,71.788365,84.512564,93.406523,36.42564,55.852358,66.666847,74.89234,-8.643893,-11.627818,-10.663629,-10.489906,-17.045287,-10.369932,-4.976064,-1.494743,-13.032699,-4.710167,1.757278,7.095824,-6.844326,-0.177174,5.288059,9.087256,1.671365,5.528827,7.567445,9.08704,67.636154,143.128476,-73.983313,83.059244
74,-0.015144,0.122353,4.939327,2.164031,-30.810414,-56.741867,-75.8527,-88.143483,-72.584925,-100.584197,-114.803567,-125.655713,-65.377994,-95.251508,-108.849392,-118.604551,-56.068068,-84.717193,-98.092533,-107.405463,-46.214419,-69.486537,-82.1419,-92.05473,7.174981,10.819367,16.484627,25.115544,-13.105375,-3.710567,7.099622,17.930405,-12.667758,-2.453051,11.342416,23.788358,-6.118787,2.916503,15.559135,25.776721,4.007054,10.244555,17.064495,22.992287,30.236927,53.457556,69.494048,82.193871,61.71325,87.161957,97.349619,103.799578,56.022372,84.020274,95.945647,104.165984,48.206297,74.667252,87.588461,96.533221,38.466992,58.309153,69.469025,77.837363,-6.297835,-9.344474,-8.540656,-8.352904,-18.373952,-11.513259,-5.864097,-2.160486,-15.042743,-6.825575,-0.251092,5.061678,-9.038071,-2.845792,2.786549,6.84177,-0.338525,2.850013,4.950586,6.660835,67.149834,143.410364,-69.515162,85.38281
75,-0.015145,0.122353,3.615246,0.175235,-31.983413,-58.624191,-78.625946,-91.638641,-75.768966,-104.368515,-118.480224,-129.032631,-68.334064,-98.048401,-110.013027,-118.07455,-58.77903,-86.899471,-98.480491,-105.91114,-48.789291,-71.59956,-83.501873,-92.32851,7.922578,11.485618,17.191068,25.803069,-14.968742,-8.488191,1.377662,12.160447,-15.410433,-8.366995,4.760803,17.016438,-9.368546,-2.808141,9.402602,19.471017,0.524107,5.850739,12.666842,18.81922,31.666477,55.690367,71.574183,84.363877,63.969429,89.358399,100.030913,106.81259,58.208273,86.583349,98.812678,107.471049,50.454672,77.340523,90.485842,99.526366,40.868248,60.793173,72.152321,80.633166,-3.466047,-6.807877,-6.647005,-6.739767,-19.438356,-12.748366,-7.082667,-3.249757,-17.119644,-9.143192,-2.72976,2.378426,-11.598366,-5.736039,-0.180317,3.893639,-3.006105,-0.30689,1.887995,3.583337,66.770532,143.66578,-66.264073,85.691108
76,-0.015144,0.122353,0.374251,-0.32297,-33.156414,-60.506516,-81.399193,-95.133801,-78.953009,-108.152833,-122.156882,-132.409549,-71.290135,-100.845294,-111.176663,-117.544551,-61.489992,-89.08175,-98.868451,-104.416819,-51.364164,-73.712583,-84.861846,-92.602291,8.670175,12.151869,17.897508,26.490593,-16.83211,-13.265815,-4.344298,6.390489,-18.153108,-14.28094,-1.820811,10.244517,-12.618305,-8.532785,3.246068,13.165312,-2.95884,1.456922,8.269189,14.646154,32.311649,56.819446,72.706237,86.018188,63.660644,88.356605,101.048561,110.078178,57.670898,85.764587,100.178466,111.414184,50.020454,76.67482,91.606636,102.676872,40.813385,60.064418,72.336753,82.199707,-1.707942,-6.130519,-6.902485,-7.583617,-22.302118,-16.350397,-10.647598,-6.253563,-20.50008,-13.26442,-6.728016,-1.368716,-14.949595,-9.706954,-3.921991,0.534141,-5.784284,-3.568408,-1.354748,0.330766,66.482378,143.904252,-66.162832,85.484257
77,-0.015144,0.122354,-3.720509,-0.646014,-34.329415,-62.38884,-84.17244,-98.62896,-82.137051,-111.937151,-125.83354,-135.786467,-74.246207,-103.642188,-112.340298,-117.014552,-64.200955,-91.264029,-99.256411,-102.922497,-53.939038,-75.825606,-86.221819,-92.876072,9.417771,12.818119,18.603948,27.178116,-18.695478,-18.04344,-10.066259,0.62053,-20.895784,-20.194886,-8.402425,3.472596,-15.868065,-14.257429,-2.910467,6.859606,-6.441788,-2.936896,3.871534,10.473086,31.266129,55.394062,71.076244,85.106999,60.254826,84.292202,100.655125,113.855335,54.162163,82.03767,100.75819,116.886898,46.778126,73.201252,91.440182,106.405781,38.193329,56.541069,70.345173,82.59763,-1.946089,-8.419699,-10.577685,-12.365526,-26.379628,-21.918309,-16.321517,-11.173286,-24.220006,-18.31164,-11.644886,-5.745369,-18.016207,-13.842324,-7.837053,-2.854913,-7.678491,-6.465429,-4.510892,-2.937918,66.212592,144.098928,-70.137983,84.910565
78,-0.015145,0.122353,-2.945812,-1.514855,-35.502414,-64.271164,-86.945686,-102.124119,-85.321092,-115.721469,-129.510197,-139.163384,-77.202277,-106.43908,-113.503933,-116.484551,-66.911917,-93.446307,-99.64437,-101.428175,-56.51391,-77.938628,-87.581792,-93.149853,10.165368,13.484371,19.310388,27.86564,-20.558845,-22.821064,-15.788219,-5.149429,-23.638459,-26.108831,-14.984038,-3.299324,-19.117825,-19.982073,-9.067001,0.553901,-9.924735,-7.330713,-0.526119,6.300019,29.273689,52.234783,66.958935,80.273689,58.521446,81.966728,99.022201,113.758713,52.635738,79.746048,99.318077,116.972671,45.418533,71.069549,89.765373,105.489738,37.243893,55.024658,68.933578,81.393539,-2.332313,-10.036714,-13.383766,-16.316484,-27.218631,-23.249505,-18.316166,-13.298414,-24.923374,-19.398466,-13.44262,-7.687932,-18.714963,-14.80137,-9.093822,-4.14956,-8.320738,-7.210941,-5.251385,-3.648856,65.907413,144.241884,-73.373829,83.416313
79,-0.015144,0.122353,-2.386002,-1.599348,-36.675415,-66.153488,-89.718933,-105.619278,-88.505135,-119.505787,-133.186855,-142.540302,-80.158348,-109.235973,-114.667568,-115.954552,-69.622879,-95.628586,-100.03233,-99.933853,-59.088783,-80.051651,-88.941765,-93.423634,10.912965,14.150622,20.016829,28.553164,-22.422212,-27.598688,-21.510179,-10.919387,-26.381134,-32.022775,-21.565652,-10.071245,-22.367584,-25.706717,-15.223535,-5.751804,-13.407681,-11.72453,-4.923772,2.126952,28.582043,51.080807,65.533757,78.607476,57.236607,80.364418,97.347748,112.18721,51.3918,77.817971,97.37011,114.958374,44.241966,69.212963,87.895111,103.733574,36.085041,53.431698,67.289738,79.838951,-3.621445,-11.78606,-15.460648,-18.6522,-26.853284,-23.411304,-18.828577,-14.16234,-24.30516,-19.213455,-13.627822,-8.16446,-18.10711,-14.403049,-9.103783,-4.730526,-7.809142,-6.750351,-4.938372,-3.774475,65.640122,144.372937,-76.011978,81.825665
80,-0.015144,0.122354,-1.923122,-0.926732,-37.848416,-68.035813,-92.49218,-109.114438,-91.689177,-123.290105,-136.863513,-145.917221,-83.114419,-112.032867,-115.831204,-115.424552,-72.333842,-97.810865,-100.42029,-98.439532,-61.663657,-82.164674,-90.301738,-93.697415,11.660562,14.816872,20.723268,29.240688,-24.285581,-32.376313,-27.23214,-16.689346,-29.12381,-37.936721,-28.147266,-16.843166,-25.617344,-31.431361,-21.380069,-12.057509,-16.890629,-16.118348,-9.321426,-2.046116,27.224041,48.745033,62.736328,75.54182,56.023807,79.086468,95.717708,110.356281,50.327648,76.313404,95.636272,113.018223,43.038837,67.50016,85.800556,101.580517,34.5252,51.519733,65.140537,77.690311,-6.051423,-14.450683,-18.184353,-21.344171,-26.262462,-23.015558,-18.724892,-14.269044,-23.052348,-18.235983,-13.063102,-7.780267,-16.665917,-13.243487,-8.343351,-4.320546,-6.473555,-5.357163,-3.695996,-2.714356,65.423258,144.495557,-78.13682,80.899199
81,-0.015145,0.122353,-2.073441,-0.12576,-39.021416,-69.918136,-95.265426,-112.609596,-94.873218,-127.074423,-140.540171,-149.294138,-86.07049,-114.829759,-116.994839,-114.894552,-75.044803,-99.993143,-100.808248,-96.945209,-64.238529,-84.277696,-91.661711,-93.971195,12.408159,15.483123,21.429709,29.928212,-26.148948,-37.153936,-32.954101,-22.459304,-31.866485,-43.850666,-34.728879,-23.615087,-28.867103,-37.156005,-27.536603,-18.363214,-20.373576,-20.512164,-13.719079,-6.219182,25.709187,46.307133,59.876564,72.599957,54.334385,77.887471,94.461674,109.032177,48.92862,74.971585,94.385388,111.77377,41.770478,66.281742,84.440975,100.253712,33.229924,50.406807,63.863652,76.287564,-8.681781,-17.177959,-20.758241,-23.802191,-25.36347,-22.288503,-18.208993,-13.854848,-21.35769,-16.952125,-12.221562,-7.016996,-14.606196,-11.614203,-7.37626,-3.826538,-4.274352,-3.556268,-2.323946,-1.612884,65.244989,144.603537,-80.373385,80.759066
82,-0.642181,0.414267,-1.186844,0.816087,-40.406617,-71.850952,-97.407028,-115.22683,-94.898976,-125.60198,-136.395213,-142.489203,-85.712374,-113.722429,-113.965874,-109.592509,-74.571201,-99.324675,-99.37678,-94.173477,-63.808148,-84.110739,-92.001223,-94.440949,12.751812,15.275947,21.043608,29.627842,-28.545193,-42.865716,-40.346531,-31.249636,-33.934229,-48.35994,-40.152646,-29.942262,-30.102183,-39.553664,-30.677564,-22.148656,-20.48853,-19.81865,-12.760494,-5.264229,25.431748,45.712281,59.269238,72.379658,53.185811,76.679867,93.258671,107.893376,47.748276,73.269597,92.684773,110.193776,40.609097,64.623768,82.792981,98.844166,32.096833,49.088974,62.559151,75.128827,-10.27554,-18.502789,-21.801885,-24.766435,-24.742939,-21.847389,-17.936025,-13.547151,-20.308111,-16.221605,-11.750332,-6.599717,-13.410893,-10.72149,-6.843854,-3.606014,-3.014569,-2.413262,-1.404896,-0.802404,64.477684,144.990295,-81.685353,81.547644
83,0.265342,-0.675732,-0.449935,1.083516,-41.675022,-73.655456,-98.951419,-116.972236,-92.080175,-122.736428,-132.994597,-138.204131,-82.372304,-110.880755,-112.393993,-108.838213,-71.20305,-96.910889,-99.567074,-95.969827,-60.514509,-81.510941,-90.939196,-94.703281,12.739033,15.433994,21.519256,30.572398,-27.637911,-40.454464,-37.92439,-29.73864,-31.710689,-42.542251,-33.417367,-23.303698,-26.71689,-32.949118,-23.315635,-14.797516,-16.010247,-13.560564,-6.017099,1.599481,25.269321,45.741519,59.721427,73.346294,51.977165,75.57867,92.237262,106.980915,46.475315,71.830524,91.351902,108.999126,39.346092,63.163364,81.558574,97.856197,30.96429,47.832538,61.377788,74.041454,-12.022503,-19.793737,-22.497707,-25.309561,-24.725304,-21.621728,-17.68877,-13.304787,-19.733833,-15.531983,-11.218401,-6.195234,-12.499389,-9.901808,-6.293658,-3.192743,-1.840663,-1.307726,-0.550382,0.010084,64.752199,144.282104,-82.126115,82.598701
84,1.527382,0.304539,0.585205,1.235397,-41.810077,-73.928169,-98.701492,-116.730819,-88.750108,-119.207488,-129.938573,-135.420937,-79.16463,-108.886262,-113.471191,-112.658929,-68.242841,-95.923506,-102.053237,-101.803552,-57.539644,-79.886893,-90.925435,-96.882228,11.899777,14.798876,20.962594,30.159705,-24.706176,-32.18087,-27.827296,-19.680202,-27.595457,-31.971835,-21.3675,-11.158775,-21.806234,-23.099141,-12.624986,-4.065308,-10.602563,-6.174171,1.443225,8.543498,24.385391,44.495304,58.666328,72.363361,50.402778,74.389377,91.016635,105.642459,45.020771,70.562175,90.049404,107.594112,38.052143,61.850063,80.158069,96.407627,29.927524,46.534778,59.873268,72.356426,-13.704485,-21.016926,-23.132581,-25.71168,-24.891653,-21.584171,-17.527533,-12.959139,-19.242534,-14.88779,-10.660406,-5.682396,-11.494438,-8.969229,-5.626481,-2.630629,-0.488742,0.039916,0.465228,0.899308,66.412595,144.487579,-81.407896,83.735034
85,1.799828,0.660784,0.657657,1.657918,-40.89045,-72.294457,-95.620514,-112.688747,-84.54792,-114.272633,-125.522003,-132.004646,-75.625889,-106.27264,-114.443115,-117.286011,-65.313446,-94.611729,-104.681763,-108.462147,-54.82489,-78.397453,-91.129761,-99.60997,11.075504,14.001943,19.68776,28.556762,-21.071711,-22.541062,-16.313971,-8.166319,-22.320137,-19.798516,-7.6983,2.594734,-15.57819,-11.31835,0.024626,8.67253,-3.973818,2.676763,10.308095,16.863926,24.64579,45.120438,60.027168,74.104088,48.885349,73.135964,89.628662,103.996285,43.55032,69.1371,88.301445,105.405533,36.729744,60.479862,78.338242,94.208931,28.885208,45.391045,58.345047,70.32898,-14.68079,-21.687331,-23.282375,-25.735941,-25.233768,-21.449456,-17.097948,-12.379784,-19.030791,-14.403012,-10.103905,-5.151028,-10.873988,-8.240493,-4.938878,-2.064168,0.374591,0.914314,1.148274,1.524797,68.442576,144.928569,-80.520086,85.173158
86,1.348778,1.511736,0.668804,2.003801,-39.71473,-70.268669,-92.123932,-108.135807,-79.150017,-107.918598,-119.723099,-127.27002,-70.768547,-102.43079,-114.723908,-121.839066,-60.977875,-92.079163,-106.620678,-115.059666,-50.692589,-75.635708,-90.288918,-101.548806,10.103628,12.98505,18.192833,26.761542,-17.297704,-12.305375,-3.84153,4.560046,-16.582634,-6.769784,7.064278,17.870069,-8.734206,1.327356,13.759727,22.800284,3.358099,12.128782,19.768814,25.855602,24.644051,45.370308,60.923733,75.542004,48.104599,72.195134,88.401501,102.49902,42.593022,67.970227,86.717274,103.461537,35.448498,58.827862,76.260762,91.856015,27.299298,43.43628,56.081601,67.818066,-15.543227,-22.081515,-23.420826,-26.066615,-24.853725,-20.686326,-16.298706,-11.733992,-18.250624,-13.154783,-8.843567,-4.143953,-9.986814,-6.89673,-3.491566,-0.795555,1.050523,2.270174,2.662122,3.079432,70.145954,145.989478,-79.496682,86.726132
87,1.609771,2.393138,0.817795,2.94145,-37.492584,-67.07563,-88.025116,-103.210052,-75.709487,-105.59555,-120.605255,-131.502491,-68.221092,-101.653827,-118.834487,-131.053459,-59.08168,-91.964332,-110.367347,-123.222805,-49.043037,-74.772033,-90.219886,-103.278224,8.113609,11.331719,16.741586,25.07147,-12.745489,-0.302744,11.337733,21.393343,-10.683303,6.223861,22.129581,34.201305,-2.720143,12.321282,26.18788,36.123114,8.755084,18.328794,25.816575,31.737316,23.960049,44.572678,60.479279,75.155514,47.292698,71.226277,86.842564,100.343571,41.950699,67.074726,85.144581,101.213459,34.739468,57.873333,74.530918,89.486675,26.420185,42.116924,54.11681,65.390888,-16.390084,-22.662944,-23.776588,-26.276276,-24.348181,-19.753839,-15.332201,-10.882571,-17.16068,-11.635303,-7.18768,-2.511994,-8.609718,-4.855756,-1.174838,1.637177,2.284549,4.604401,5.469006,6.22974,72.20177,147.705405,-78.232842,88.990371
88,-0.184181,4.75325,0.316281,4.563936,-34.167137,-62.267212,-82.186535,-96.299206,-73.64138,-103.563961,-119.680195,-132.09922,-67.374367,-101.929779,-121.126796,-135.581932,-59.071449,-93.054462,-112.43201,-126.973217,-49.463676,-75.784057,-91.173683,-104.895321,5.049739,7.839709,13.329036,21.492935,-10.879459,4.870045,18.514305,29.822979,-7.635229,10.868122,27.220533,39.930323,0.613083,16.636586,30.480707,40.792285,11.752178,21.337608,28.762033,34.732063,23.296428,44.134311,60.673587,75.277061,45.724594,70.036468,85.425109,98.518615,39.86547,65.522071,83.600006,99.422493,32.244266,55.934108,72.499168,87.355339,23.830123,39.916946,51.770095,62.960826,-16.38189,-22.496008,-23.417985,-25.555766,-23.855302,-18.770427,-14.093821,-9.487438,-15.977227,-9.739071,-4.864067,-0.048974,-6.843353,-1.87147,2.313683,5.356398,4.240642,7.848632,9.412356,10.616853,72.51408,151.424024,-77.42007,92.519676
89,-1.207557,5.724844,-3.905434,9.271368,-31.72696,-58.320878,-77.43187,-90.589131,-71.032723,-100.67252,-116.82668,-129.532345,-65.625641,-100.201928,-120.119923,-135.193245,-58.0467,-91.719521,-111.554272,-126.328846,-49.104928,-75.169373,-90.599247,-104.241921,2.845607,5.023803,10.59889,18.719859,-9.973223,4.986247,18.444119,29.792462,-4.997461,12.421206,28.580363,41.864482,4.018482,19.790772,33.492781,44.050903,15.386621,25.348124,33.222969,39.946699,25.178707,48.300728,66.305157,80.806984,51.25106,77.603302,89.834244,98.486229,44.260197,72.27214,85.938057,96.171936,35.588001,60.797813,74.002373,84.324898,26.264671,44.844429,55.335663,63.998588,-15.943667,-21.586889,-22.265032,-24.240705,-24.242033,-16.345859,-8.221796,-2.047033,-16.035613,-5.038877,3.81975,10.351555,-5.95111,4.596027,12.735942,17.603202,5.839736,12.94191,17.232378,19.941653,71.965519,155.703936,-80.666508,100.346112
90,-12.958729,5.763567,-4.708649,12.371985,-27.805647,-51.290308,-69.093859,-81.692808,-60.202366,-85.468741,-100.52195,-112.767243,-54.885395,-84.766835,-103.718479,-118.447878,-48.103157,-77.178847,-95.578228,-109.543425,-40.417506,-62.560032,-76.379465,-88.620392,3.759921,7.910333,15.117174,23.538825,-4.977948,9.329487,22.385272,33.427962,-1.73452,14.300679,29.677514,42.733798,4.762649,18.830967,31.67693,41.842431,13.307924,21.444868,28.441029,34.938432,26.8927,52.349385,71.71653,86.669426,55.126637,83.604332,95.350868,102.202698,46.655697,77.048607,90.509789,99.17189,36.921833,64.342026,77.776291,87.135063,26.986954,47.260678,58.133217,66.749096,-15.672409,-21.539612,-22.213315,-24.012506,-24.783127,-15.199716,-4.985599,2.660492,-16.37545,-2.913255,8.502791,16.47388,-5.583923,7.867502,18.200045,24.330743,7.192447,16.388652,22.308015,25.919661,59.798224,159.820656,-84.583723,111.07125
91,-23.986405,5.307584,-5.521751,14.385888,-21.604608,-39.661153,-54.757055,-66.320451,-41.473903,-57.965887,-70.787796,-82.489151,-36.141162,-56.2336,-72.508323,-86.226225,-30.67781,-50.328832,-65.335853,-77.502897,-25.079069,-39.362949,-49.777593,-59.368434,7.955268,16.55744,26.385809,34.951857,4.669553,18.670101,30.794875,40.972442,2.851498,17.254028,31.037937,42.625031,3.54703,14.823069,25.906625,34.78258,6.033972,10.491296,15.22491,20.412426,28.624809,56.278198,77.145424,92.467895,58.382297,88.384872,100.228294,106.752296,49.077038,81.203487,94.716247,102.775429,38.814503,68.168003,81.738876,90.654236,28.570873,50.802498,61.664486,69.84494,-14.870944,-20.736832,-21.585752,-23.14285,-24.722049,-13.735613,-1.848875,7.240841,-15.586156,0.249719,14.298135,23.923314,-3.708711,12.390776,25.030375,32.739908,10.133471,21.45796,29.223315,34.041094,36.75032,163.410285,-89.166973,123.739183
92,-24.305351,8.502945,-5.770146,16.355789,-15.741182,-28.37071,-40.026415,-50.35092,-24.487243,-32.121397,-41.560123,-51.627754,-18.838096,-27.949425,-40.207443,-51.237345,-14.34993,-23.387964,-33.724491,-42.573984,-10.454607,-16.505962,-22.705759,-28.523872,13.363234,26.032868,37.697706,45.372844,14.430688,27.360805,38.494534,47.846584,7.766609,20.775506,33.13955,43.629686,2.783894,11.982723,21.888181,30.132626,-0.876072,-0.231959,2.64645,6.979204,30.718403,60.89296,83.3802,99.701626,61.923615,92.141041,104.419018,111.427128,51.773369,84.241677,98.203961,106.73029,40.633862,70.888607,84.961991,94.363781,29.43203,53.045243,64.340996,72.769249,-14.059192,-19.42634,-20.359704,-22.047695,-22.471537,-9.476719,4.093268,14.777497,-12.660348,5.299247,20.99924,31.809205,-0.085512,18.003734,32.003917,40.7874,14.388043,27.108363,35.96055,41.780619,13.497602,170.195152,-93.884486,138.376894
93,-23.547054,11.96539,-4.914939,18.663957,-9.184336,-16.138293,-24.229254,-33.274401,-7.895359,-5.233321,-10.497093,-17.96925,-3.110893,-0.121342,-7.003533,-14.014887,-0.688259,1.208181,-3.389637,-7.975909,0.630689,1.884578,0.536894,-0.544338,18.869579,35.144672,48.424864,55.922445,21.322886,32.542195,42.04517,50.153789,10.573399,22.282451,33.403817,42.322306,0.886143,8.864821,17.851309,25.01716,-7.730874,-9.492805,-7.529994,-3.802282,32.51778,64.455081,87.832397,104.975566,66.181983,95.814479,108.060024,115.289417,55.343158,87.038337,100.823741,109.426746,43.477535,73.094261,86.893398,95.773807,31.264709,54.781837,65.849864,73.835872,-13.754497,-18.423995,-19.648382,-22.59476,-18.950158,-3.996956,11.100674,23.283326,-8.998283,10.867776,28.042467,40.3132,3.613665,23.213141,38.228507,48.057147,17.808337,31.649222,41.021947,47.512162,-8.976328,180.486707,-97.726301,155.367016
94,-19.851231,14.509,0.038269,18.904925,-3.642008,-6.547159,-12.202085,-19.380895,5.801914,18.218783,16.552769,11.505249,9.519894,22.76294,19.786022,16.049292,9.77377,20.315558,19.46497,17.991285,8.425467,14.755886,15.779211,17.140412,18.545267,37.012931,53.256575,62.363618,23.376211,34.287386,41.202178,46.547874,12.88841,24.553755,32.495642,37.227205,2.912977,11.274458,17.247304,20.94235,-6.488505,-7.580666,-7.28624,-5.685435,32.40921,63.769432,87.010826,103.950405,65.869915,95.085537,107.730846,115.47005,55.548751,87.156738,101.407413,110.131359,43.734901,73.891502,86.946956,95.124412,30.993221,54.57669,64.992908,71.979389,-13.84133,-18.660486,-20.16099,-23.127758,-12.596349,5.109896,17.271467,26.709499,-1.532447,19.746448,32.802276,41.477937,11.218667,31.098706,42.161391,48.895002,25.134073,41.004929,48.335568,52.579439,-27.863383,193.543677,-96.723856,172.819911
95,-4.066646,15.116692,-0.862416,17.458065,-1.306286,-4.062905,-9.692974,-17.217476,3.80104,19.655685,22.636562,21.834011,5.286254,23.507125,26.579361,29.049041,3.873378,19.340858,24.876674,29.180992,1.559143,10.368988,15.568107,21.446685,20.989731,40.355908,57.268222,66.697015,26.58664,38.066128,43.909187,47.702885,15.406506,28.476314,35.743967,39.016702,4.201745,14.566873,20.341043,23.594437,-6.547186,-5.155048,-4.109292,-2.068676,32.883866,64.020848,87.640904,104.772057,66.707497,94.527924,107.080673,115.701348,56.255287,86.365391,100.443032,109.827828,44.257004,73.350758,86.356911,94.785176,31.163201,54.586453,64.980309,71.90205,-13.273412,-17.096627,-18.300612,-21.649621,-5.951048,13.710542,25.290264,34.14552,6.485571,29.320108,41.816983,49.849032,19.590095,40.575615,51.160488,57.289105,32.711206,50.007434,57.218944,61.338907,-31.119667,207.45292,-96.77591,189.070527
96,9.909896,17.933691,-0.103111,17.671881,-3.1165,-9.08226,-15.916179,-24.172313,-10.980548,3.409928,11.068268,15.470067,-11.166492,6.533753,15.38316,24.748169,-12.552154,2.545601,13.3587,23.543725,-13.855876,-6.816684,1.33437,11.092965,21.719694,39.30699,54.786311,63.933091,25.957403,37.138513,42.646958,45.838516,16.051525,30.002265,38.449795,42.232922,5.672306,18.07915,25.492064,29.863475,-4.488897,-0.324215,3.066822,6.85642,33.270126,64.049171,87.523178,105.067749,66.812187,94.119209,106.677521,115.427307,56.150951,85.623882,99.710815,109.295311,44.10236,72.250969,85.433842,94.131695,30.87442,53.82486,64.577705,72.131653,-13.368372,-16.525991,-17.046053,-20.799108,0.241913,21.271831,32.617592,41.403737,13.300273,37.023632,48.799535,56.548643,26.154695,47.914676,58.065221,63.987654,38.230791,56.518534,63.466443,67.419532,-20.636851,224.328941,-96.306101,205.684738
97,0.691933,15.413619,2.499367,19.492332,0.124649,-3.986481,-8.156639,-12.794849,-12.129352,3.674652,14.707993,22.660263,-15.817428,2.646263,15.262814,28.509545,-19.362179,-3.686119,10.028217,23.248581,-21.453346,-15.21104,-6.63422,4.255612,13.242351,25.575539,38.157173,46.855879,18.452357,31.428947,38.246933,42.172715,15.296948,30.961051,40.896026,45.506595,11.006023,26.436734,35.082459,40.135199,6.161308,16.083846,22.763845,28.619377,33.34156,63.022487,85.71849,102.070816,68.119789,97.376907,107.725227,112.662117,56.815899,88.862903,100.116302,104.836715,44.395191,74.469578,85.074623,89.340488,31.107868,56.492008,65.940365,70.382148,-15.602995,-18.56536,-18.642165,-22.396121,5.346944,28.636729,37.483908,43.17905,20.272191,45.29273,53.430322,57.95538,33.546381,55.97087,62.427296,65.408531,44.836443,63.499567,67.298909,68.434277,-19.588806,238.884356,-93.450622,224.318866
98,14.78207,12.099326,0.25756,15.496859,-3.92395,-13.060123,-20.632724,-27.64983,-29.530254,-16.625072,-2.164444,9.313282,-34.072059,-18.025955,-1.759357,15.434864,-36.278206,-22.494106,-5.279045,11.541653,-36.201004,-31.435524,-21.357513,-8.616554,16.172347,28.022498,39.575358,48.108573,22.133163,36.796342,43.801321,47.237657,18.558296,35.552528,46.149578,50.782106,13.544879,30.3382,39.785544,45.21569,7.914847,20.404893,28.06902,34.40339,33.217095,62.566178,85.378682,101.440247,68.053265,99.35772,109.300988,113.371674,56.911297,91.23135,102.18219,105.746819,44.844864,76.729352,87.382977,91.097821,32.122994,58.966702,68.774609,72.922989,-15.44484,-18.472772,-18.109815,-20.896204,9.474996,33.630114,41.893332,46.408003,26.065442,51.802655,59.255634,62.245897,39.873686,63.218207,69.134539,70.606644,50.808153,70.466816,74.011142,74.071608,-4.570662,250.424001,-92.956988,239.256044
99,10.171406,10.072258,-0.831825,11.972923,-5.290031,-17.66811,-26.97369,-35.40271,-41.828957,-30.367424,-12.379841,2.391152,-47.032677,-31.78672,-10.663284,10.915604,-48.141392,-34.723549,-13.181488,7.349831,-46.021007,-41.81599,-30.016159,-15.257492,19.074184,30.268681,39.26763,46.450451,24.302319,40.972251,50.691815,56.427675,19.360063,37.590934,51.40807,59.336848,13.060175,30.764364,43.427855,52.072974,6.332073,19.283839,28.922498,37.501149,33.303257,62.429638,85.264115,102.475548,65.814972,96.576668,109.2006,116.665901,54.157883,87.738579,102.799553,111.350167,42.237328,73.213268,88.084591,96.532448,30.434796,55.737705,67.625233,75.038098,-14.724966,-17.271899,-16.503847,-19.693836,12.261644,33.779587,42.612033,48.81128,29.405991,52.103355,60.835074,66.077103,42.881042,63.899018,70.898884,73.96578,52.575709,70.220778,74.360143,75.575848,5.700485,260.181378,-93.689072,250.914086
100,11.029083,10.292127,1.276016,11.75466,-9.442611,-25.112972,-36.431614,-46.918132,-52.930767,-43.828239,-23.664356,-6.682594,-56.941097,-44.363834,-21.225036,2.376252,-56.010727,-45.051109,-22.503204,-0.546501,-51.67416,-49.95076,-38.493999,-23.361877,21.506075,32.413594,40.337715,47.694054,25.091415,42.667237,53.852102,60.796553,20.10812,38.461132,53.974775,62.739999,13.752298,31.497699,45.808579,55.219169,7.018737,19.925017,30.703749,40.012068,32.726498,61.120606,83.603074,101.260117,64.448365,95.464142,108.9562,117.286515,52.946114,86.979973,102.700951,111.884377,41.30785,72.074616,87.087719,96.077774,29.914238,54.677159,66.39069,73.841835,-14.320007,-16.762112,-15.778119,-18.741188,15.031335,35.559025,43.848351,49.496698,32.376976,54.126163,62.034131,66.923343,45.335708,65.722137,72.002117,74.804548,53.977703,71.143897,74.956442,75.939089,16.787813,270.218602,-92.354811,262.413843
101,9.099518,8.902359,2.188683,10.419469,-11.223953,-29.549469,-43.082302,-55.087898,-58.532856,-51.214096,-30.77322,-13.046127,-62.0117,-51.813354,-28.706051,-4.970169,-60.372745,-51.893852,-29.454964,-7.489746,-55.072632,-55.453628,-45.395439,-31.233787,21.850408,32.706982,40.52582,48.814689,25.19444,44.492493,56.581655,63.842269,21.293493,41.054909,56.556745,65.123466,16.132789,35.35563,49.911314,59.197921,10.706459,25.628669,37.235288,47.020012,32.335304,60.069923,82.510265,100.114059,63.769341,95.012718,108.737434,117.191734,52.212925,86.81464,102.856819,112.143402,40.600983,71.72937,86.759949,95.780777,29.512985,54.065243,65.657604,72.802162,-13.640432,-15.933385,-14.493069,-16.633091,17.226339,37.720387,45.640137,50.415951,35.080112,56.489079,63.622141,67.585863,47.845256,67.862912,73.250981,75.119573,55.767958,72.342398,75.540094,75.910744,25.928312,279.036499,-90.125147,272.74885
102,19.263886,7.668252,0.456814,6.45971,-17.729645,-42.887696,-62.642441,-80.407185,-75.194813,-72.039036,-51.190922,-33.059212,-76.771695,-70.561604,-46.91042,-22.220009,-72.837239,-68.49535,-45.03772,-22.083733,-65.716725,-71.046902,-63.58968,-51.837971,28.217666,42.529275,52.56489,62.954323,31.219403,51.601782,62.530518,68.055265,24.153551,44.585416,58.658829,65.651705,16.395834,35.619787,49.004127,56.99279,9.162243,22.998521,33.865211,43.394769,31.798851,59.423996,82.549942,101.372761,60.884983,91.577534,107.705189,119.505054,49.488544,83.533562,102.86079,116.424671,38.569816,68.905311,86.865177,99.918628,28.592674,51.37714,64.626537,74.795093,-11.016644,-12.846074,-10.719118,-12.388861,18.473957,37.836441,47.727795,54.414648,35.581736,56.703588,66.710045,72.724399,47.743677,68.149397,76.374206,79.991891,55.048183,72.09063,77.801506,79.884335,45.234736,286.640688,-89.625795,279.144497
103,5.119239,6.817431,2.691833,6.901473,-18.302398,-43.506866,-63.174407,-80.778671,-74.536903,-72.722557,-52.928031,-35.378608,-74.997493,-71.30706,-48.355545,-24.513519,-70.696849,-68.434181,-46.034294,-24.329521,-63.311771,-69.530502,-62.698837,-52.323406,25.212496,38.548189,48.024543,58.968025,29.590007,51.233008,62.806974,68.291263,24.571983,46.056298,60.024957,66.696015,18.953746,38.90891,52.180321,59.618751,13.672492,28.58576,39.538987,48.717988,31.350724,58.330204,81.510315,100.788357,58.874428,89.329205,106.264859,118.817471,47.454964,81.584015,101.773831,116.00227,36.786793,67.310475,85.84631,99.69508,27.374085,50.028546,63.660931,74.597981,-10.932429,-11.9604,-8.682046,-9.708758,19.910309,39.481719,49.096777,55.470692,36.938146,58.256599,67.749292,73.259232,48.68857,69.249666,76.903284,80.177513,55.428405,72.42938,77.911038,79.846988,50.373401,293.388313,-86.914536,285.976164
104,6.086243,4.031215,2.310242,5.510187,-21.229545,-46.667015,-66.280838,-84.777683,-75.060734,-76.697754,-58.907913,-42.231697,-73.633118,-73.500515,-52.436462,-30.230324,-68.153435,-68.54377,-47.450111,-26.996132,-59.966698,-66.377987,-59.336941,-49.390571,22.775417,35.372699,44.116199,53.584068,32.440048,54.051655,65.257305,70.267807,27.951324,49.639539,62.956101,68.775176,22.47962,41.969014,54.483463,60.851672,16.864878,31.428576,41.661805,49.712812,30.553883,57.371029,80.74728,100.15781,57.737778,88.309719,105.346813,118.014095,46.350861,80.725788,100.98904,115.181934,35.835766,66.819283,85.469524,99.412067,26.70282,49.900005,63.851715,75.092365,-11.116741,-11.493481,-7.051403,-7.261725,20.898143,40.617877,49.981809,55.962213,37.944677,59.335292,68.683785,73.779911,49.269419,69.89234,77.353432,80.307164,55.586992,72.423501,77.831825,79.787016,56.464983,297.351804,-84.598955,291.418627
105,0.937775,2.89234,1.962181,3.226274,-20.653794,-44.657685,-63.034424,-79.989601,-68.952507,-71.71558,-58.118214,-44.228165,-66.417492,-67.939453,-50.758232,-31.989853,-60.547657,-62.724873,-45.307526,-28.049904,-52.386086,-58.450997,-53.218929,-45.766205,13.788521,23.471122,30.793436,37.845901,30.197248,51.34464,62.573261,67.843399,29.687659,51.254287,63.60511,69.195005,27.844965,47.272374,58.42703,63.863931,25.056687,39.957469,49.266368,56.202483,30.063011,56.825123,80.256031,99.700459,56.74617,87.244778,104.133762,116.67223,45.472389,79.987301,100.284245,114.485516,34.953472,66.291607,85.101231,99.029446,25.772175,49.32367,63.644337,75.153717,-10.976778,-10.575734,-5.040797,-4.591785,21.919432,41.941645,51.090512,56.81359,38.843812,60.299623,69.570459,74.231726,49.842722,70.673655,78.110677,80.700724,55.947022,73.040079,78.436855,80.133584,57.378914,300.191205,-82.660618,294.591962
106,0.563278,1.727406,1.203713,1.809941,-20.173462,-42.382668,-59.737827,-75.904415,-63.485264,-67.679409,-56.794395,-44.684715,-60.241631,-63.541271,-48.888176,-32.380554,-54.153179,-57.889378,-43.278946,-28.284714,-46.0219,-52.22105,-47.986393,-41.867958,4.453094,10.621652,16.526374,21.244772,25.719763,45.502928,56.703959,62.361692,30.050925,50.518222,62.211231,67.288473,32.570008,51.090883,60.93301,65.176288,33.355411,47.805749,56.072647,61.591948,29.649948,56.459278,79.943264,99.37231,55.972194,86.534832,103.177333,115.416835,44.766723,79.610149,99.865459,113.95943,34.31076,66.071685,84.933322,98.675937,25.206619,49.077003,63.709259,75.409767,-11.039145,-10.146432,-3.931364,-3.165708,22.166558,42.38331,51.344653,56.770711,39.151775,60.709436,69.95908,74.234901,49.984736,71.053384,78.442117,80.667392,55.974724,73.313906,78.712868,80.158334,57.886156,301.871934,-81.512941,296.355226
107,-0.16761,0.393807,0.356655,0.534302,-20.586319,-41.661461,-58.18039,-73.441807,-57.655907,-63.800148,-56.520516,-46.276978,-53.219444,-59.25634,-48.097046,-34.40625,-46.382538,-52.264755,-41.569519,-29.524864,-37.583794,-42.613129,-37.237999,-30.204437,-1.385691,2.252631,6.359156,8.537723,23.855802,41.510628,52.495211,58.575601,30.600874,49.494635,60.978223,66.099914,35.064762,52.411873,62.103995,66.285733,37.183678,51.283088,58.756765,63.007527,29.491413,56.321079,79.682281,99.013824,55.770343,86.282089,102.744941,114.882843,44.777618,79.658546,99.714889,113.735366,34.390937,66.19376,84.968445,98.521888,25.205818,48.952194,63.586532,75.229271,-11.162251,-10.073122,-3.217456,-1.766803,22.180538,42.170332,50.837818,56.020443,39.1466,60.483022,69.791143,73.988825,49.859345,70.835096,78.333683,80.443287,55.840046,73.135076,78.562345,79.833477,57.6253,302.26324,-81.249532,296.887027
108,-0.039265,-0.094509,-0.218399,-0.1215,-21.478134,-42.260078,-59.229744,-74.716375,-55.991833,-62.801508,-56.174766,-46.580875,-51.591391,-57.973589,-48.261658,-35.609459,-44.70278,-51.6255,-42.308819,-30.941311,-35.99604,-43.310783,-41.047359,-36.18623,-4.979954,-2.63455,1.178433,2.166841,22.107123,38.893108,49.23235,55.475465,30.91493,48.534268,59.136042,64.15803,37.228373,53.558109,62.556971,66.740957,40.996383,54.27132,61.219458,65.583013,29.573112,56.43322,79.723777,99.087616,56.227604,86.677528,102.992317,114.908821,45.283664,80.215919,100.05915,114.029297,34.853439,66.625167,85.159332,98.482292,25.51094,49.21939,63.678177,75.228035,-11.241984,-10.234353,-2.976246,-1.106975,21.942997,41.611096,50.128305,55.162915,38.86403,59.760258,69.282048,73.715061,49.515124,70.117519,77.949076,80.33883,55.533788,72.698377,78.351442,79.769281,57.464218,302.213775,-81.589748,296.810571
109,-0.384384,0.302429,-0.11768,-0.292685,-21.853889,-42.896324,-61.190918,-78.126474,-58.425579,-64.314245,-54.675453,-43.895794,-55.278986,-59.925894,-47.978577,-33.814156,-49.135454,-55.607266,-44.255573,-30.904644,-41.143753,-51.555634,-51.5499,-47.98328,-0.369224,3.253846,8.107076,10.789866,22.56005,39.667656,49.315688,55.105963,30.408169,47.188035,57.122422,61.79436,35.899244,51.236935,60.290138,64.804303,39.190171,51.620127,58.547307,63.777567,29.805553,56.599308,79.888813,99.327999,56.159431,86.575024,102.884228,114.812016,45.362663,80.282536,100.108784,114.091427,35.054112,66.956005,85.496189,98.796055,25.757538,49.661922,64.139912,75.739346,-11.289074,-10.319803,-2.898502,-0.685108,21.516845,41.149759,49.629066,54.580658,38.538741,59.277617,68.762246,73.057839,49.429612,69.830367,77.572412,79.768886,55.71799,72.786075,78.335758,79.504273,56.956873,302.578754,-81.830389,296.580436
110,-0.249458,0.782254,-0.119797,0.087192,-21.324463,-42.400452,-60.956955,-78.776785,-60.565979,-65.568427,-52.120972,-39.381375,-58.512652,-61.933794,-47.004525,-30.710495,-53.164187,-59.449906,-45.127911,-29.462254,-45.861763,-59.077687,-61.143666,-59.319111,5.010151,11.042388,17.79758,22.910397,23.542376,41.784349,50.76302,55.435488,29.223068,46.415192,55.838236,60.097792,32.975066,48.324872,57.656792,62.547734,35.052918,46.535895,53.789265,60.176678,29.964913,56.624199,79.925228,99.677182,55.494896,86.084255,102.576886,114.646282,44.806504,80.024563,100.176052,114.295201,34.78719,67.073902,85.901814,99.328183,25.889706,50.154488,64.808064,76.567532,-11.497494,-10.548996,-2.988658,-0.590309,21.146132,40.937201,49.353733,54.198744,38.304978,58.899667,68.126414,72.101806,49.405838,69.61245,77.069232,78.958473,55.851605,72.829634,78.215147,79.158285,56.599789,303.441395,-82.057812,296.748015
111,-0.537232,0.000976,0.122567,0.348779,-20.822387,-41.781097,-59.743927,-77.399637,-62.247322,-66.292608,-50.916046,-37.045383,-60.750658,-63.098436,-46.063682,-28.072243,-55.83922,-60.902092,-44.511715,-27.314449,-48.891815,-61.47147,-62.182857,-59.315357,11.737969,20.82064,29.035538,36.588904,27.91612,47.345776,55.912448,59.528737,30.115373,48.308446,57.844532,61.799621,30.76734,46.718781,56.560957,61.594887,30.257517,42.195644,49.844068,56.603342,29.826679,56.402492,79.738986,99.648822,55.15813,85.821453,102.498973,114.767223,44.600406,79.76572,100.037624,114.242557,34.712848,67.029499,85.894443,99.327014,25.91249,50.277511,64.974128,76.856861,-11.65644,-10.790131,-3.18642,-0.66998,21.161779,40.666746,48.864187,53.512499,38.278092,58.557841,67.475799,71.151072,49.418175,69.372302,76.543279,78.154125,55.911503,72.777726,78.057399,78.86271,55.970426,303.545522,-82.027376,297.199945
112,-0.328697,0.59105,0.165275,0.534128,-20.159958,-40.971062,-58.077576,-75.233625,-65.117477,-68.240965,-50.220177,-34.503536,-64.135546,-65.341341,-45.339409,-25.075539,-59.512636,-63.328514,-44.084644,-24.673679,-52.660011,-64.430065,-63.438526,-59.142117,16.083469,27.017504,36.349318,46.081931,29.655,50.103821,58.864834,62.064901,29.982005,49.119897,59.313228,63.195687,28.997907,45.382971,55.830548,60.800481,27.136577,39.267501,46.868588,53.48801,29.6842,56.174618,79.556912,99.578762,55.093987,85.841641,102.592884,114.935131,44.653828,79.838322,100.145542,114.374279,34.838493,67.183331,86.027309,99.439167,26.046215,50.537487,65.324181,77.411648,-11.850299,-11.147011,-3.541942,-1.010175,20.842259,40.009142,48.080427,52.610808,37.988718,57.869893,66.616826,70.085755,49.235889,68.858539,75.838102,77.224078,55.822966,72.607506,77.861058,78.571064,55.571737,304.25646,-81.932093,297.853961
113,-0.688625,0.929918,0.105789,0.621012,-19.698075,-40.045281,-56.504242,-72.847298,-63.28442,-65.965336,-48.363877,-32.496231,-62.02557,-63.273285,-43.318131,-23.195732,-57.396618,-60.709774,-41.517655,-22.719498,-50.542649,-60.175381,-57.299607,-51.892388,12.783978,22.079996,30.442385,39.113131,28.233536,48.355649,57.264912,60.443218,29.898475,49.127504,59.219621,62.900205,29.984024,46.322627,56.072771,60.325287,28.857907,41.133567,48.072869,53.538694,29.574028,55.888287,79.223637,99.262539,55.001599,85.638096,102.36739,114.674229,44.797062,79.862263,100.166462,114.365422,35.125626,67.412922,86.254635,99.571644,26.394734,50.964592,65.768818,77.802281,-12.045258,-11.496321,-4.038909,-1.503314,20.428765,39.373569,47.354983,51.741102,37.546424,57.109523,65.685111,68.933294,48.873401,68.191548,74.979499,76.154721,55.565095,72.16951,77.303748,77.87542,54.836769,305.305664,-81.872647,298.594259
114,-0.96753,0.442522,0.183678,0.540971,-19.167091,-38.780307,-54.345674,-69.412416,-60.595115,-63.102888,-46.83023,-31.551635,-59.005285,-60.630998,-41.668293,-22.320156,-54.288866,-57.30059,-39.178482,-21.529209,-47.358684,-54.610015,-49.435592,-42.323822,8.206161,15.56676,23.100409,30.693104,26.020945,45.616851,54.639624,58.017908,29.652604,48.67764,58.705598,62.3996,31.428261,47.57642,56.650785,60.3242,31.66513,44.211758,50.563899,54.88899,29.332958,55.453926,78.705563,98.765842,54.909519,85.522854,102.233082,114.44894,44.825214,79.944775,100.269413,114.416553,35.213058,67.54327,86.370014,99.541614,26.489571,51.110195,65.952209,77.954876,-12.292976,-11.923153,-4.57205,-1.987759,20.027264,38.788867,46.658636,50.918327,37.158051,56.283203,64.585558,67.639635,48.540912,67.448456,74.013636,75.001976,55.31776,71.694105,76.666545,77.077481,53.820499,305.867775,-81.737709,299.254819
