takenoko1/special-research/HandMotion_SimilarSearch_自分用/NewProject/handData/key/d4_feature_d3/105.csv
,vel_0x_L,vel_0y_L,vel_0x_R,vel_0y_R,posFromWrist_1x_L,posFromWrist_2x_L,posFromWrist_3x_L,posFromWrist_4x_L,posFromWrist_5x_L,posFromWrist_6x_L,posFromWrist_7x_L,posFromWrist_8x_L,posFromWrist_9x_L,posFromWrist_10x_L,posFromWrist_11x_L,posFromWrist_12x_L,posFromWrist_13x_L,posFromWrist_14x_L,posFromWrist_15x_L,posFromWrist_16x_L,posFromWrist_17x_L,posFromWrist_18x_L,posFromWrist_19x_L,posFromWrist_20x_L,posFromWrist_1y_L,posFromWrist_2y_L,posFromWrist_3y_L,posFromWrist_4y_L,posFromWrist_5y_L,posFromWrist_6y_L,posFromWrist_7y_L,posFromWrist_8y_L,posFromWrist_9y_L,posFromWrist_10y_L,posFromWrist_11y_L,posFromWrist_12y_L,posFromWrist_13y_L,posFromWrist_14y_L,posFromWrist_15y_L,posFromWrist_16y_L,posFromWrist_17y_L,posFromWrist_18y_L,posFromWrist_19y_L,posFromWrist_20y_L,posFromWrist_1x_R,posFromWrist_2x_R,posFromWrist_3x_R,posFromWrist_4x_R,posFromWrist_5x_R,posFromWrist_6x_R,posFromWrist_7x_R,posFromWrist_8x_R,posFromWrist_9x_R,posFromWrist_10x_R,posFromWrist_11x_R,posFromWrist_12x_R,posFromWrist_13x_R,posFromWrist_14x_R,posFromWrist_15x_R,posFromWrist_16x_R,posFromWrist_17x_R,posFromWrist_18x_R,posFromWrist_19x_R,posFromWrist_20x_R,posFromWrist_1y_R,posFromWrist_2y_R,posFromWrist_3y_R,posFromWrist_4y_R,posFromWrist_5y_R,posFromWrist_6y_R,posFromWrist_7y_R,posFromWrist_8y_R,posFromWrist_9y_R,posFromWrist_10y_R,posFromWrist_11y_R,posFromWrist_12y_R,posFromWrist_13y_R,posFromWrist_14y_R,posFromWrist_15y_R,posFromWrist_16y_R,posFromWrist_17y_R,posFromWrist_18y_R,posFromWrist_19y_R,posFromWrist_20y_R,posFromBody_0x_L,posFromBody_0y_L,posFromBody_0x_R,posFromBody_0y_R
6,-0.163353,-0.07189,0.188839,-0.164824,4.566616,5.297322,2.623799,-4.208805,-13.767849,11.627621,29.932675,38.81741,-22.152534,8.240833,26.245022,38.992207,-27.804165,-4.898426,12.38142,23.66351,-30.575123,-35.935844,-39.946689,-43.178684,-21.327394,-29.179885,-29.793203,-29.069068,-2.167563,13.325825,17.407244,19.787994,15.916786,29.38234,31.122294,30.908946,28.099933,38.673456,38.277734,38.066338,37.444894,46.072723,48.367702,49.746515,26.027732,50.398372,73.510883,93.463474,53.388015,84.596202,101.352115,113.246853,45.708137,81.300647,101.061344,114.13306,37.000248,71.244312,89.966411,102.61243,28.448112,56.115177,71.494777,82.981922,-15.588681,-17.700867,-11.21858,-7.659805,11.511277,27.679944,35.021388,39.885937,29.328494,43.661419,50.577206,54.372053,42.405144,56.611432,61.577252,63.01963,51.194142,63.485475,65.79662,64.996409,2.06238,301.702164,-70.016103,283.326575
7,-1.466446,3.172749,0.21484,0.258475,4.500332,6.14542,6.727696,4.18681,-13.147499,12.532185,31.725346,42.042401,-21.236297,8.035137,27.882099,42.63065,-26.094429,-4.225628,14.498921,27.721516,-27.635914,-33.652542,-37.581379,-40.565471,-21.294469,-30.086888,-32.00824,-31.926705,-4.881161,9.053092,14.422673,18.464583,12.571926,25.084277,28.011221,29.12673,24.850724,34.344183,35.454641,36.37492,34.538042,41.971619,44.917706,47.007958,25.896183,50.091007,73.100235,93.043418,53.197082,84.414688,101.132492,112.928627,45.540435,81.171226,100.855888,113.76654,36.86309,71.214706,89.859878,102.392326,28.393192,56.158435,71.518844,82.950965,-15.678652,-17.902976,-11.419936,-7.812884,11.056424,27.389865,34.81855,39.706664,29.014555,43.345751,50.31331,54.117098,42.246791,56.34299,61.25799,62.660873,51.174827,63.249786,65.501206,64.707997,0.734722,304.972824,-69.662475,283.682961
8,-3.133506,3.710619,0.12751,0.205209,5.075649,7.948528,11.728305,13.180355,-9.921559,16.177654,35.656208,46.712825,-17.884907,10.915912,31.604679,47.363193,-22.331292,-0.919384,18.56258,33.058879,-23.280568,-29.112145,-33.062989,-36.113148,-21.076848,-30.466678,-33.813698,-34.860899,-7.831867,4.632664,11.162498,16.64055,8.892615,20.768071,24.758087,27.019868,21.244488,30.033276,32.278756,34.10532,31.117391,37.380575,40.804363,43.474019,25.80669,49.906311,72.881881,92.84262,53.071769,84.24028,100.997177,112.843277,45.420318,81.001922,100.661796,113.570594,36.688842,71.059639,89.676384,102.202057,28.169712,55.998813,71.339172,82.74662,-15.67465,-17.986648,-11.616315,-8.02575,10.835975,27.26151,34.675981,39.477384,28.762749,43.125858,50.112361,53.915433,42.025713,56.108363,61.04395,62.47241,51.035851,63.081343,65.317807,64.540802,-2.273969,308.745774,-69.41015,283.950501
9,5.849876,-2.027958,0.063686,0.241815,4.434528,5.267269,5.336941,3.549969,-15.387325,9.892124,29.649662,40.342541,-23.945103,4.76984,24.886722,40.245678,-28.65453,-7.407246,11.961925,25.777805,-30.032593,-36.585136,-41.009468,-44.796902,-20.910591,-30.067152,-33.312853,-34.170257,-5.414683,8.429228,13.515992,17.157834,11.361421,24.02858,26.859145,28.000008,23.433998,33.014722,34.044163,34.856354,32.766732,39.827065,43.123573,45.566049,25.713696,49.802879,72.753307,92.749134,52.947727,84.105434,100.879406,112.729626,45.262894,80.894657,100.573025,113.461201,36.494946,70.958942,89.531834,101.973644,27.979271,55.872768,71.169331,82.488476,-15.729152,-18.130242,-11.84494,-8.30238,10.605299,27.093153,34.500301,39.238496,28.583784,42.967258,49.947771,53.748559,41.912363,55.958396,60.84956,62.258618,51.004519,62.975515,65.154341,64.363751,3.681782,306.773197,-69.240589,284.247697
10,-4.742958,1.985239,0.085327,0.075385,5.289928,7.834156,10.144581,10.674213,-11.366318,15.017223,34.931705,45.904003,-20.00671,9.506939,30.479771,46.536266,-24.73534,-2.725742,17.188351,32.069698,-25.821407,-31.68449,-36.006558,-39.460728,-21.157371,-30.365098,-33.839028,-34.887439,-8.015796,5.24319,11.884497,17.240962,8.497709,21.409633,25.387694,27.858501,20.87096,30.409015,32.592003,34.453346,30.624079,37.400113,40.657459,43.08099,25.690487,49.743645,72.645916,92.65472,52.670872,83.908482,100.708065,112.621777,44.961971,80.647282,100.367375,113.323139,36.23568,70.702709,89.28867,101.765408,27.827316,55.692272,70.924679,82.19093,-15.720741,-18.150632,-11.915348,-8.407245,10.627418,27.133353,34.492261,39.189133,28.613918,43.006037,49.981746,53.769072,41.915673,55.921556,60.83842,62.26956,50.939137,62.889694,65.098173,64.323255,-0.976793,308.802035,-69.070879,284.366681
11,7.400539,-1.633484,0.08186,0.20238,3.731323,3.711937,2.697899,0.221993,-18.353931,6.87632,26.896958,37.778916,-27.429062,1.498902,21.790627,37.100052,-32.084072,-11.401382,7.952317,21.599259,-33.172039,-41.115886,-46.548889,-51.396583,-20.358382,-29.41655,-32.404553,-33.22245,-5.183366,8.921119,14.273324,18.120498,11.038084,24.026863,27.16166,28.594381,22.804786,32.821147,34.115991,35.098601,32.064334,39.045761,42.308888,44.887918,25.735004,49.723503,72.516563,92.473388,52.493866,83.726944,100.508629,112.430488,44.704479,80.413101,100.159561,113.148514,35.981975,70.47306,89.13295,101.690071,27.628624,55.511318,70.729179,81.979728,-15.795236,-18.256299,-12.020594,-8.476318,10.395164,26.931837,34.250644,38.893732,28.487713,42.932357,49.861643,53.597617,41.862741,55.880282,60.756972,62.181492,50.912523,62.788844,64.968053,64.197347,6.481996,307.189305,-68.930769,284.589815
12,-0.192409,-1.106468,-0.01854,0.146942,4.291042,4.493648,2.160747,-2.151936,-18.817646,6.695217,26.752292,37.479526,-28.469307,1.451557,21.574093,36.641567,-33.450978,-11.728672,7.724086,21.420971,-34.711293,-42.168286,-47.540875,-52.104985,-20.421467,-29.669245,-32.877723,-34.154771,-5.47883,9.697927,15.241249,18.881855,11.493221,25.39929,28.421985,29.464233,23.534724,34.001814,35.14432,35.969318,33.002458,40.439517,43.258028,45.277835,25.805214,49.754071,72.517067,92.420403,52.371815,83.54567,100.330674,112.296089,44.581421,80.225693,100.038117,113.155243,35.843617,70.290459,89.037896,101.706116,27.476246,55.327732,70.542343,81.834961,-15.796003,-18.303687,-12.138057,-8.688147,10.094895,26.637361,33.983771,38.649113,28.101958,42.666719,49.720752,53.541719,41.493238,55.61557,60.634446,62.201041,50.5952,62.557341,64.836475,64.151453,6.330094,306.097713,-68.908802,284.751633
13,-2.705635,0.575748,0.064282,0.465264,4.709015,5.296611,3.21944,-0.591488,-16.160752,9.640331,29.750713,40.296215,-25.805901,4.659748,24.647884,39.372516,-31.32565,-8.78706,10.380169,23.617138,-33.176983,-39.942295,-45.092503,-49.612461,-21.074539,-30.976476,-34.35972,-35.394471,-6.40784,8.979757,14.85279,18.822884,10.923648,25.258932,28.366522,29.439633,23.193801,33.894925,35.133354,35.903098,32.774612,40.469108,43.298105,45.263855,25.769531,49.676124,72.483295,92.338199,52.628631,83.74934,100.503696,112.397564,44.834747,80.281414,100.071888,113.169674,36.079914,70.270992,88.959652,101.611187,27.723552,55.516857,70.684627,82.016704,-16.102865,-18.628321,-12.50021,-9.236453,9.947201,26.396696,33.815156,38.595416,27.932033,42.332131,49.404467,53.301486,41.285115,55.235213,60.225474,61.816386,50.362512,62.11763,64.355353,63.724017,3.656359,306.691625,-68.81262,285.235061
14,1.493042,-0.118289,-0.075955,0.442022,4.368141,4.608387,2.305881,-1.762722,-17.458569,7.120662,27.247593,38.465503,-26.702008,1.980869,22.276416,37.704517,-32.025799,-11.154591,8.457218,22.294544,-33.817166,-41.677883,-47.495831,-52.588967,-20.569519,-30.885666,-34.541847,-35.803568,-5.971314,8.997813,15.216203,19.690897,11.111974,25.004928,28.669173,30.23394,23.210164,33.729113,35.29146,36.348281,32.836362,40.323933,43.55243,45.988718,25.828595,49.74091,72.595047,92.424111,52.723389,83.843331,100.593979,112.516777,45.004921,80.365311,100.117768,113.233704,36.328022,70.343193,89.03769,101.721222,28.064919,55.799744,70.936592,82.283615,-16.378877,-18.963774,-12.966104,-9.890255,9.634756,25.98482,33.445234,38.30751,27.614686,41.859752,48.98948,52.954152,40.972485,54.751201,59.778783,61.426445,50.059244,61.632247,63.882666,63.308499,5.174921,306.592074,-68.863055,285.695821
15,-5.447663,0.805485,0.012028,0.519815,6.582413,8.650532,7.307705,3.583226,-11.593494,13.91866,33.744015,44.350468,-21.14225,8.686467,28.654255,43.504017,-27.391296,-4.910808,14.419087,27.712567,-30.402122,-35.538814,-39.85944,-43.828914,-21.20897,-31.885492,-35.796628,-37.570618,-7.421473,7.567167,13.759437,18.216557,9.814573,23.84712,27.387283,28.712077,22.174326,32.986403,34.172418,35.013842,32.019552,40.228158,43.452801,45.662108,25.861633,49.713421,72.61195,92.474865,52.942841,84.07758,100.847569,112.702549,45.222645,80.572506,100.289509,113.328999,36.571415,70.463093,89.121609,101.735928,28.387837,56.048962,71.187573,82.543247,-16.674908,-19.297596,-13.382055,-10.53299,9.576143,25.730137,33.193045,38.120481,27.558666,41.53003,48.585002,52.605757,40.87797,54.43878,59.372638,61.024697,49.901854,61.245442,63.423255,62.867267,-0.256691,307.414972,-68.834976,286.233049
16,0.737961,-0.684936,-0.170803,0.221746,6.04303,7.810238,6.44331,2.696697,-12.358761,11.988247,32.036007,43.284588,-21.391113,7.043141,27.585537,43.285114,-27.428673,-5.643551,14.567906,28.832943,-30.390289,-35.653438,-39.944652,-43.668766,-21.096287,-31.492043,-35.118484,-36.708817,-6.65909,7.915069,14.37247,19.174084,10.48958,24.194466,28.075702,29.77579,22.738293,33.463178,34.770373,35.80426,32.543295,40.979525,44.604138,47.1734,25.985813,49.978603,72.98465,92.864616,53.231472,84.330986,101.130135,112.988846,45.510212,80.803871,100.483887,113.493828,36.825382,70.583679,89.21331,101.743172,28.629192,56.176929,71.278427,82.553192,-16.805115,-19.424951,-13.639271,-11.118236,9.561434,25.583739,33.086365,38.083825,27.473845,41.304109,48.411668,52.523171,40.7468,54.21538,59.220942,60.960575,49.725137,61.029402,63.243722,62.730625,0.49383,306.744381,-68.993219,286.46914
17,-0.74699,0.623667,-0.034401,0.310802,6.254963,8.258011,6.621231,2.335052,-10.928845,13.505081,33.373283,44.288406,-19.962479,8.794853,29.10688,44.487625,-26.262772,-4.462303,15.358131,29.418297,-29.579327,-34.272434,-38.143959,-41.445763,-21.182009,-31.464774,-35.060451,-36.970095,-7.225539,7.515828,14.101682,19.20607,9.883969,23.314189,27.256113,29.219838,22.198779,32.77145,33.934482,35.09308,32.092158,40.439653,44.1315,46.877393,26.077286,50.153172,73.265122,93.161476,53.732723,84.744072,101.507172,113.32029,46.023491,81.139549,100.74234,113.71051,37.309685,70.821877,89.359612,101.817101,29.078568,56.516499,71.544754,82.789558,-16.954724,-19.625553,-13.88873,-11.57635,9.659395,25.437773,32.961814,38.067264,27.554503,41.108645,48.159813,52.343898,40.779342,54.023175,59.003037,60.787377,49.743551,60.84378,62.99535,62.518698,-0.250803,307.378178,-69.025263,286.790072
18,9.768928,-4.303436,0.047402,-0.006669,4.569535,3.872658,-2.458557,-11.962188,-20.505649,1.590226,21.537964,32.845711,-30.000652,-2.796478,17.583687,33.317688,-35.99121,-16.356182,4.065583,18.498551,-39.162082,-46.205177,-50.694923,-54.221454,-19.743088,-29.106155,-31.222095,-32.331577,-2.867207,12.863772,18.319137,22.221442,14.151762,27.197648,30.541223,31.812825,25.924083,36.533878,37.006886,37.769097,35.664309,44.471042,48.076401,50.899791,26.151706,50.262886,73.390983,93.312904,53.752052,84.859817,101.621017,113.402023,46.073661,81.306015,100.92723,113.907394,37.40324,70.990585,89.588241,102.063262,29.216606,56.618923,71.644042,82.848564,-16.90073,-19.564111,-13.801415,-11.501718,9.61507,25.349915,32.843204,37.949667,27.504399,41.052921,48.07214,52.256212,40.703414,53.986187,58.997628,60.828108,49.610886,60.747561,62.940985,62.504175,9.518262,303.078651,-68.977724,286.787312
19,-10.784053,1.235392,0.138885,-0.091761,7.717495,10.871898,8.426639,2.31126,-10.324425,14.801845,34.577121,45.030338,-20.457722,9.853923,30.332485,45.56187,-27.479199,-4.428681,15.590274,29.86861,-31.408825,-35.001366,-37.88142,-39.881894,-20.82051,-29.856176,-32.011476,-33.399514,-6.385055,9.580749,16.424164,21.552153,11.161732,25.150806,29.074551,30.771761,23.741045,34.74992,35.896749,37.341116,34.150151,43.389062,46.995743,49.685554,26.277443,50.416225,73.564499,93.57019,53.956993,85.053154,101.820007,113.562698,46.181396,81.40741,101.042427,114.000916,37.41156,71.010498,89.619598,102.050835,29.155277,56.548599,71.564209,82.691711,-16.797841,-19.399892,-13.576372,-11.268858,9.725789,25.512318,33.009102,38.132966,27.578734,41.19927,48.203952,52.433485,40.737932,54.114862,59.112619,60.956672,49.605946,60.805952,62.957941,62.514734,-1.269762,304.314052,-68.84281,286.69556
20,10.961105,-3.105836,0.048695,-0.227155,4.464672,4.026867,-1.779499,-10.764645,-20.783844,1.219563,21.169544,32.357014,-30.651375,-3.417812,16.924381,32.493519,-36.838017,-17.381722,2.896831,17.10799,-40.01041,-47.795036,-52.600903,-56.269604,-19.310058,-27.940061,-29.223729,-29.636468,-1.487382,14.565329,20.308599,24.471132,15.500699,28.739963,32.229368,33.525274,27.207046,37.944319,38.717693,39.812775,37.023262,45.822325,49.791074,53.201166,26.341827,50.573867,73.749378,93.711055,54.082237,85.092258,101.826816,113.595028,46.32257,81.456058,101.102886,114.128505,37.509155,71.096408,89.714962,102.167804,29.157199,56.540783,71.53815,82.615413,-16.658952,-19.226226,-13.380623,-11.03817,9.744215,25.543922,33.071359,38.227667,27.573238,41.27442,48.328676,52.606831,40.754061,54.201165,59.277555,61.18768,49.679046,60.941728,63.114194,62.700553,9.687235,301.198963,-68.798223,286.459152
21,-8.132378,1.386791,0.188758,-0.030418,6.100903,8.07304,4.642102,-2.510822,-13.404029,10.922299,30.574391,40.995518,-23.540874,6.058903,26.525746,41.470036,-30.139011,-8.137321,11.872799,26.037014,-33.53841,-38.032951,-40.577545,-42.148555,-19.595765,-27.59663,-28.32284,-28.457011,-4.649708,11.425604,18.475463,23.924135,12.613312,26.048546,30.450536,32.666017,24.998863,35.590553,37.275413,39.114514,35.362423,44.115791,47.712369,50.613268,26.289139,50.489285,73.667714,93.640172,54.27792,85.248356,101.957829,113.687314,46.555562,81.583752,101.188534,114.202069,37.731308,71.275372,89.793446,102.177647,29.338738,56.699307,71.637715,82.673069,-16.61406,-19.211233,-13.297766,-10.855081,9.845041,25.562447,33.081239,38.271979,27.617353,41.250559,48.25497,52.561827,40.752876,54.131856,59.184262,61.126349,49.684245,60.909062,63.029596,62.619351,1.541484,302.572971,-68.622838,286.415951
22,6.730545,-3.320481,0.130223,-0.229576,4.562107,4.319561,-1.665332,-11.313182,-19.199215,2.678524,22.234852,32.747029,-29.297733,-1.925708,18.325093,33.209988,-35.871311,-15.865127,4.25964,17.964169,-39.538169,-45.912448,-49.005157,-51.158489,-18.607029,-26.053005,-25.702596,-25.070828,-0.245976,16.013735,21.923113,26.289188,16.587174,29.852484,33.609959,35.279073,28.329793,39.267717,40.268481,41.685196,38.239746,47.37546,51.275801,54.723104,26.267143,50.476787,73.633804,93.590378,54.149483,85.185882,101.921081,113.684921,46.402565,81.552749,101.222214,114.247352,37.561626,71.278404,89.833008,102.207847,29.150722,56.595096,71.58506,82.600227,-16.604217,-19.124992,-13.177402,-10.652934,9.960415,25.771781,33.279137,38.418031,27.731813,41.416656,48.399775,52.649278,40.850787,54.254208,59.287348,61.186841,49.735115,61.00911,63.136449,62.690772,8.25999,299.237865,-68.504654,286.17175
23,-6.406677,1.317631,0.028724,-0.236072,5.448155,7.452976,4.04829,-3.697666,-13.141491,10.808636,30.349789,40.735874,-23.409439,5.747463,26.366192,40.831936,-30.17839,-8.301189,11.471203,25.187611,-33.803776,-37.284096,-37.833961,-37.315212,-18.751143,-25.615986,-25.016562,-24.286079,-2.674979,13.536653,20.540126,25.925515,14.415831,27.735666,32.413433,34.884919,26.686008,37.427431,39.353784,41.335799,37.085815,46.221529,49.615023,52.355494,26.273541,50.546219,73.683793,93.615601,54.378926,85.305909,102.033898,113.812157,46.546395,81.61599,101.251145,114.257721,37.544129,71.294266,89.774346,102.070061,28.962502,56.432419,71.404473,82.363541,-16.525312,-19.03738,-13.123457,-10.571288,10.007729,25.836286,33.387694,38.569653,27.747943,41.485137,48.542653,52.871975,40.891296,54.348032,59.390237,61.334017,49.834558,61.16303,63.270164,62.817718,1.838625,300.540274,-68.490618,285.920456
24,9.028645,-1.745969,0.104989,-0.220017,3.025795,1.879692,-4.999192,-15.754692,-21.290566,0.162368,19.535728,30.162964,-31.2999,-4.556282,15.734253,30.237465,-37.486313,-18.294617,1.489746,14.787254,-40.706257,-47.159603,-48.932259,-49.633324,-17.863208,-24.921219,-24.016526,-22.990876,0.845289,17.014709,22.717755,26.918388,17.502142,30.232916,34.246149,36.187952,29.041133,39.733142,40.958036,42.317064,38.93944,47.912713,51.213631,54.105909,26.179721,50.45446,73.590271,93.483902,54.43563,85.40483,102.148178,113.946418,46.553112,81.639015,101.264762,114.274612,37.466354,71.28321,89.709068,101.990272,28.799743,56.263343,71.24327,82.22557,-16.425239,-18.877607,-12.955458,-10.40056,10.268353,26.148533,33.688222,38.85431,27.955289,41.690371,48.720433,53.051397,41.046166,54.524181,59.558421,61.522553,49.926653,61.290483,63.418377,62.998018,10.852627,298.774894,-68.400272,285.681028
25,-6.373513,1.542785,-0.141015,-0.242926,4.295701,5.294037,1.208588,-6.769226,-16.147728,7.841996,27.62011,38.419396,-26.250949,2.920258,24.034676,38.785698,-32.578868,-10.740577,9.466645,23.352471,-35.697074,-40.081512,-40.502895,-39.925941,-18.731271,-25.770126,-25.065542,-24.258279,-2.230141,13.952012,20.774555,25.710896,14.987121,28.077505,32.68101,34.92239,27.335203,37.937823,39.912021,41.699448,37.972996,47.027484,50.072816,52.368054,26.169503,50.546002,73.724717,93.590516,54.458153,85.514786,102.299973,114.183243,46.610424,81.732079,101.350296,114.405488,37.542572,71.445534,89.899201,102.239777,28.864563,56.450284,71.473732,82.520897,-16.35041,-18.854142,-13.029003,-10.413429,10.269439,26.133466,33.690667,38.900537,27.894538,41.599981,48.712949,53.102502,40.977549,54.452588,59.568004,61.606954,49.898137,61.298239,63.481424,63.088791,4.459156,300.317022,-68.561245,285.437445
26,-1.585865,1.43193,0.025338,-0.445455,4.588864,6.000195,4.020367,-0.959278,-14.648151,9.627034,29.78983,41.222409,-24.372837,4.265797,25.676869,41.04292,-30.640892,-8.648563,11.572873,25.471882,-33.64167,-38.283233,-39.584655,-39.985233,-19.615277,-27.448502,-27.74462,-27.140368,-2.439264,13.120184,19.917201,24.832076,14.358144,27.774385,32.303073,34.254164,26.499869,37.346724,39.374076,40.736068,36.87295,46.094361,49.856554,52.638682,26.167843,50.504276,73.701965,93.620361,54.335025,85.502975,102.415008,114.467994,46.484985,81.617958,101.335739,114.473076,37.422683,71.336128,89.86235,102.305465,28.724189,56.339595,71.434112,82.647857,-16.20374,-18.621158,-12.797168,-10.104183,10.582909,26.56851,34.170826,39.411052,28.073899,41.910474,49.134161,53.582117,41.061715,54.67316,59.89585,61.978605,49.944795,61.523405,63.821434,63.488069,2.857503,301.759878,-68.551695,285.002916
27,2.16346,0.71917,0.045364,-0.271442,3.946392,4.35973,1.620861,-3.722568,-17.687404,6.902607,27.6954,39.650105,-27.260845,1.87991,23.980282,39.908879,-32.867397,-10.615139,10.150509,24.668049,-35.108768,-39.954185,-41.486229,-42.062473,-19.922819,-27.972677,-28.747583,-28.171661,-3.61083,12.10129,18.660715,23.18896,13.611965,27.026143,31.293985,32.76861,26.089191,36.820647,38.711507,39.553066,36.574634,45.813039,49.293415,51.506772,26.065544,50.438221,73.715378,93.68074,54.45203,85.604645,102.547463,114.604042,46.665688,81.738785,101.418915,114.504753,37.604267,71.467232,89.926117,102.3162,28.881832,56.469463,71.560684,82.821693,-16.129764,-18.530854,-12.687845,-9.972334,10.741471,26.706781,34.310467,39.542123,28.179022,42.029874,49.314126,53.797329,41.13353,54.829413,60.025957,62.075515,50.046053,61.723711,64.013416,63.670763,5.000616,302.505616,-68.526678,284.758042
28,-0.653686,0.137062,-0.076744,-0.24163,5.122776,5.790676,2.899578,-1.814083,-17.056641,7.890735,28.433727,40.035679,-26.574818,3.166111,25.234348,41.430072,-32.37497,-9.10017,11.918483,26.491642,-34.849068,-38.78048,-40.49881,-41.582714,-20.675594,-29.03681,-30.064584,-29.539137,-4.052816,11.430161,17.895392,22.197025,13.145897,27.086756,30.97308,32.246991,25.679958,36.9769,38.456588,39.031151,36.048951,45.917581,49.640291,51.948818,25.991913,50.498177,73.939362,93.942696,54.338562,85.624008,102.596947,114.711662,46.654003,81.841873,101.569336,114.691498,37.726376,71.623398,90.147537,102.628029,29.120705,56.722801,71.88826,83.254967,-16.072916,-18.434091,-12.59449,-9.867296,10.946755,26.92381,34.477503,39.620633,28.398076,42.202294,49.480568,53.894871,41.320708,55.02352,60.209344,62.173279,50.194712,61.879631,64.213537,63.882493,4.32795,302.697213,-68.622402,284.570947
29,1.093757,0.110743,-0.15152,-0.318854,4.866497,5.165875,2.224194,-2.649776,-18.840156,6.648457,27.702015,39.5919,-28.039455,2.087803,24.529942,41.035435,-33.34584,-9.451709,11.916699,26.99136,-35.223907,-38.667286,-40.220283,-41.09357,-20.856437,-29.044751,-30.21912,-29.80396,-4.57967,11.017521,17.211272,21.117035,12.988371,27.02277,30.505926,31.325761,25.73026,36.930254,38.028756,38.150096,36.086854,46.019778,49.737857,51.876743,25.995392,50.664379,74.195641,94.190804,54.424118,85.740486,102.72638,114.887329,46.860638,82.052445,101.793068,114.936127,38.032997,71.920372,90.46946,102.995476,29.474076,57.092526,72.262276,83.686638,-15.915922,-18.319717,-12.55376,-9.769521,11.060561,26.861898,34.39514,39.524895,28.498976,42.186016,49.51789,53.901638,41.419385,55.074933,60.313813,62.248318,50.356609,62.078059,64.455944,64.117058,5.397737,302.891369,-68.797892,284.335506
30,-2.911239,1.097465,0.114144,-0.2214,6.48563,7.916828,5.581455,1.199672,-14.911766,11.123645,31.562519,42.660335,-24.046738,6.524471,28.304454,44.551632,-29.775193,-5.055119,15.560291,30.252834,-32.190674,-34.093094,-35.604321,-36.374474,-21.533035,-30.445139,-32.380125,-32.628498,-5.774441,9.592321,15.634402,19.64514,11.918336,26.474662,29.511794,30.162174,24.68427,36.137058,36.772222,36.660689,34.843016,45.050606,48.6418,50.560916,25.979232,50.704113,74.286827,94.366516,54.603813,85.942588,102.966476,115.118064,47.006938,82.260154,102.04589,115.136283,38.122592,72.058822,90.580352,103.036125,29.523159,57.121067,72.288528,83.693664,-15.787876,-18.097836,-12.288135,-9.569301,11.15231,26.921574,34.405329,39.396269,28.656859,42.363685,49.663868,53.888967,41.61522,55.343214,60.503103,62.267189,50.59315,62.394012,64.741688,64.330307,2.46547,304.070761,-68.704776,284.196033
31,6.407123,-3.416329,-0.073037,0.061157,5.288178,4.916748,-0.752083,-9.355316,-20.53165,4.167298,24.045342,34.328293,-29.50169,0.158409,20.968849,36.556938,-35.055622,-11.744888,8.612664,22.734467,-37.433693,-41.519291,-44.088444,-45.926891,-21.213267,-29.457787,-30.513744,-30.747951,-2.562173,13.630452,18.244838,20.672889,15.562549,30.31198,32.253772,31.970078,27.933873,39.852827,39.315079,38.591821,37.770529,48.235087,51.377071,53.017224,25.964447,50.813084,74.490189,94.625084,54.852768,86.270096,103.321015,115.485123,47.301808,82.677407,102.479279,115.626297,38.414853,72.452591,90.990693,103.443352,29.804352,57.444191,72.63144,84.014031,-15.81633,-18.190102,-12.487859,-9.881523,10.879275,26.261883,33.537699,38.313241,28.505893,41.985007,49.165629,53.250629,41.570341,55.166806,60.182705,61.814583,50.663188,62.412574,64.65677,64.144748,8.852972,300.74665,-68.797434,284.349408
32,-7.682625,0.773918,-0.110355,-0.011893,6.851967,9.604821,7.769509,2.373711,-12.662509,13.989945,33.532082,43.673653,-21.791565,9.073975,29.987297,45.441834,-27.72694,-3.308876,16.557679,30.689667,-30.373283,-32.063186,-33.232269,-33.806076,-21.410943,-29.480227,-30.379017,-30.890496,-3.828834,11.914371,17.660247,21.465789,14.465046,29.031104,31.538084,31.793459,27.034293,38.604715,38.932572,38.923384,36.925857,46.94007,49.36528,50.398969,25.811211,50.654789,74.290592,94.50967,54.884342,86.778637,104.037998,116.423641,47.376766,83.024082,103.090496,116.593082,38.55114,72.593845,91.434483,104.182285,29.94706,57.354584,72.546398,84.118504,-15.975436,-18.411046,-12.751978,-10.314998,10.89197,25.643143,32.661535,37.359321,28.531815,41.768646,48.76167,52.811707,41.548246,54.988643,60.043001,61.77636,50.541675,62.45454,64.91538,64.538456,1.153925,301.607868,-68.924211,284.424815
33,3.34433,-3.383651,0.368076,-0.681687,6.222771,8.320519,5.897187,-0.503402,-16.533531,7.719178,28.097786,39.114716,-25.412372,2.831795,24.143303,40.357224,-31.156723,-9.024902,11.17202,25.445229,-33.605198,-38.342617,-41.335567,-43.511844,-21.028732,-28.947951,-29.847074,-30.71116,-1.234033,16.003632,21.896721,25.561954,17.105988,32.881563,35.767308,35.97374,29.236585,41.963357,42.751836,43.086313,38.826893,48.649358,52.10953,54.422478,25.576012,50.274845,73.801941,94.090691,54.111237,86.631546,104.242081,117.008721,46.796151,82.896126,103.397049,117.400978,38.24033,72.307686,91.601807,104.845185,29.847576,56.82098,71.985764,83.851731,-16.453669,-18.801852,-13.04764,-10.758305,10.943087,24.57144,31.2454,35.872852,28.745718,42.041891,49.240075,53.612473,41.700584,55.408076,61.075171,63.435432,50.473737,63.187566,66.444135,66.656791,4.480711,298.307132,-68.573679,283.826043
34,1.335068,0.442059,1.154847,-1.966109,3.850273,5.032196,3.683144,-0.766457,-19.132988,1.980492,20.012146,29.740059,-26.552868,-3.614479,14.419945,27.693043,-31.046551,-14.442924,0.315674,10.094547,-32.006641,-37.655754,-40.926979,-43.905281,-21.5092,-29.962251,-31.426292,-32.778527,-2.854672,13.273251,20.124348,24.764891,15.411211,30.885506,34.98356,36.548858,28.144775,40.845119,43.081904,44.854363,38.384649,47.881356,51.299278,53.811841,25.052959,49.568687,72.444007,92.30429,52.675518,85.071327,102.924659,116.373619,45.398632,80.663864,101.380462,116.423263,36.961189,69.639083,88.955474,102.725852,28.590854,53.735618,68.445304,80.246612,-17.761975,-20.25038,-15.042486,-13.340163,9.154808,22.381623,29.177663,34.035407,27.021166,40.962815,48.447472,53.199376,40.246906,54.827327,61.299523,64.477323,49.197381,63.219615,67.768904,68.751983,5.810818,298.838742,-67.423793,281.949485
35,11.893158,-5.896868,2.449642,-6.501824,-2.983566,-7.089775,-10.525475,-15.118401,-31.767151,-21.850788,-8.24556,-0.267311,-36.471016,-26.872696,-15.683899,-6.5881,-37.952442,-33.590035,-25.74836,-20.787518,-35.855152,-46.833847,-53.147209,-58.696552,-22.283069,-31.174757,-33.289079,-35.671361,-0.862542,14.581026,20.262459,24.190995,17.997096,33.842313,38.501839,40.47038,31.235458,45.035057,48.363985,50.843103,41.606489,52.140442,56.184156,59.297142,23.567939,47.051101,67.757389,85.170055,50.090023,79.968052,95.795299,107.418102,43.391155,74.308696,90.647358,101.591629,35.316856,62.511509,76.536461,85.799354,26.937263,47.173381,58.125686,66.450004,-12.804108,-11.934984,-4.351947,-0.321448,12.050667,27.112494,34.77199,40.316474,26.521666,43.692788,52.487751,58.17142,37.159706,55.012084,62.59638,66.567253,43.856538,60.170651,66.074608,68.323188,17.767525,293.067002,-64.910602,275.572789
36,8.264626,-2.665333,1.633472,-13.276944,-9.477288,-17.872811,-24.193074,-29.494,-39.683899,-41.092415,-34.238366,-30.093441,-41.610947,-44.505341,-40.696953,-37.175755,-40.289681,-46.719166,-46.28294,-46.215512,-35.734749,-50.05703,-58.054802,-64.683758,-21.058867,-28.980988,-29.712162,-30.232273,0.491385,14.815875,21.478559,26.377874,19.275292,34.280543,40.2494,43.54723,32.980277,46.303373,51.226413,54.773356,43.434919,53.929772,58.123822,61.25831,22.970112,46.69772,66.917473,81.962265,47.954544,80.615158,92.584328,99.410568,42.781769,76.965225,88.743027,94.721363,36.529324,66.602875,75.630169,79.582066,29.638813,52.021191,59.344128,63.191494,-2.826069,1.15808,7.001237,8.827703,15.177091,27.606053,34.680711,39.64132,21.31092,36.30613,45.065859,50.289919,25.301577,41.006819,49.396514,53.699085,27.044322,40.718642,47.751606,50.848167,26.146351,290.572273,-63.16293,262.466449
37,12.763847,-3.100896,-0.531727,-21.590352,-16.189957,-31.032807,-43.009277,-51.824616,-51.329956,-64.930012,-65.507034,-66.154152,-50.225144,-66.675133,-71.396645,-74.171139,-46.248711,-64.0746,-71.229035,-76.933285,-39.500748,-59.238705,-70.382572,-79.762425,-20.72555,-27.408192,-25.537587,-23.858383,3.09251,17.102505,23.502083,27.968157,21.557958,36.332917,42.766705,46.929622,35.192128,48.835894,54.258148,58.328772,45.394593,56.316018,61.335906,65.252784,23.098778,47.078579,67.229702,80.533299,49.171875,81.817601,88.910809,90.805813,45.579506,78.913136,84.553768,85.158921,40.657894,69.858799,73.002777,71.897713,34.688507,56.856846,59.938568,59.557846,-5.633354,-3.944666,-0.095022,2.013026,7.582753,17.544811,22.518226,26.323015,14.621769,26.39719,32.84597,37.473929,20.095214,32.234197,38.306819,42.414543,23.661881,33.623272,38.449956,41.365712,38.90609,287.819275,-63.698765,241.223995
38,8.901329,-0.601659,-1.028858,-28.100204,-22.988823,-43.208428,-58.959904,-69.649029,-58.627808,-82.110203,-90.561195,-96.478478,-54.567123,-82.452404,-95.756424,-105.375755,-47.786041,-75.81197,-91.015514,-102.510933,-38.719059,-61.803406,-74.840321,-85.931133,-20.539311,-25.858145,-21.260086,-17.388397,4.347711,16.584098,22.558661,26.995761,22.88369,35.672534,41.782811,46.211427,36.864514,49.037435,54.529381,58.696681,46.839886,57.657249,61.710003,64.634181,20.205025,42.815151,62.141865,73.9827,45.803616,77.039703,80.784485,79.002812,44.816345,75.826264,76.375282,72.701901,42.4063,69.272118,66.565441,60.817337,38.783089,59.376297,57.945957,53.488884,-9.047769,-11.798738,-11.514248,-10.336717,-4.730144,0.532628,4.06976,7.481433,2.394533,8.733256,13.463207,17.389762,9.07074,16.320448,20.675828,24.139829,14.669662,20.147949,23.094753,25.11078,47.565605,287.651036,-64.969437,213.557211
39,3.612694,-2.67152,-1.972595,-35.135367,-26.002465,-48.754326,-67.645443,-80.694638,-59.916161,-90.97078,-104.69672,-114.127671,-54.475296,-89.51199,-107.654412,-120.511036,-46.690773,-79.751358,-97.443146,-110.058838,-37.312455,-62.612881,-77.047005,-88.752594,-20.109837,-23.450423,-15.596252,-9.252237,7.208027,19.737506,25.808671,30.463096,25.740116,38.272349,44.218556,48.678628,39.38918,51.302798,56.86961,60.895576,48.604157,59.755725,63.796857,66.503748,22.35371,43.59153,60.091667,68.076633,44.946693,71.874172,73.740143,69.476978,43.293136,70.010055,68.043938,61.142532,40.464901,63.897926,59.109054,50.688766,36.470581,54.69548,52.451134,46.577488,-5.996583,-10.406624,-12.824746,-13.627519,-17.385643,-19.767863,-17.666132,-14.028335,-14.351537,-16.643786,-13.108662,-9.214082,-10.092667,-11.026919,-8.234473,-4.857386,-5.361023,-7.164345,-6.495872,-4.873688,50.853785,285.489112,-67.266546,178.93144
40,2.655647,0.982239,-3.92926,-36.48535,-27.267906,-51.708206,-74.046581,-90.673988,-61.284508,-93.881252,-110.12495,-122.024437,-55.547653,-91.496395,-110.582771,-125.256191,-47.616348,-81.204826,-99.202698,-112.472591,-38.547775,-64.606224,-78.786095,-90.464745,-18.141728,-18.648958,-6.693745,3.203784,10.180407,23.085206,29.953334,34.994255,27.894983,38.919926,44.561864,49.128269,40.727731,51.255435,56.424179,60.217668,49.126034,59.129107,62.658946,65.14503,23.920974,44.396003,59.976496,66.522967,43.49165,69.120481,71.328639,66.97472,41.481408,68.105474,67.995369,62.743707,38.891111,63.566796,61.48954,55.042575,35.451441,54.808934,54.460698,50.140006,-10.33017,-20.716208,-29.166625,-34.793226,-34.978135,-47.675543,-47.725565,-44.313301,-31.958876,-45.943741,-44.592661,-41.118206,-26.847723,-38.797427,-37.566853,-34.003869,-20.296384,-30.771918,-32.167674,-31.192921,53.205025,287.016919,-71.500213,142.991658
41,-0.222107,0.287979,-3.771366,-35.67755,-26.675995,-51.275917,-73.906322,-90.869705,-61.041389,-93.479851,-109.795795,-121.966759,-55.430809,-91.381222,-110.351189,-125.086452,-47.56263,-81.216946,-99.077282,-112.452393,-38.607811,-64.698704,-78.857231,-90.72266,-18.539116,-18.594692,-5.568751,4.502457,9.983634,23.333801,30.16599,35.263326,27.782807,38.771169,44.183828,48.656966,40.608714,50.993478,56.09605,60.002826,48.949799,58.930135,62.249454,64.695092,23.099942,41.344825,54.700019,60.125493,39.828131,59.400116,63.680509,62.035746,37.301484,56.92546,58.613399,55.519184,34.364108,52.580397,52.368942,48.23023,30.880469,44.814244,45.634886,43.340512,-20.707043,-37.62361,-48.397075,-54.247966,-53.196367,-71.904624,-72.487362,-67.971764,-44.541511,-65.078143,-64.430468,-59.88342,-34.005138,-51.81023,-51.476244,-47.069353,-22.605492,-37.180579,-40.116857,-39.160696,52.597195,288.185983,-75.657302,108.195193
42,-0.59317,-0.242679,-2.243455,-33.184533,-26.833077,-51.338722,-73.835198,-90.702713,-61.020355,-93.548367,-109.736801,-121.898472,-55.278145,-91.178513,-109.970444,-124.605183,-47.340088,-80.985798,-98.808197,-112.214916,-38.379524,-64.543797,-78.742973,-90.74556,-18.641128,-18.359546,-5.232224,4.728266,10.12025,23.148365,29.959472,35.167082,27.975505,38.639258,44.040974,48.525351,40.820937,50.874571,55.98648,59.903148,49.165567,58.982511,62.188679,64.575209,20.208992,35.991635,47.161689,51.248081,31.231813,47.823988,55.053802,56.028219,28.950358,46.196918,50.867947,49.867285,26.991672,43.151613,44.957829,42.257625,24.917716,36.478933,38.546327,37.436344,-19.254495,-38.089662,-51.429773,-59.844727,-61.292209,-86.331762,-85.850211,-79.807067,-55.552227,-81.962726,-79.621317,-73.843461,-47.159928,-69.75063,-66.98354,-61.169098,-37.21317,-55.378118,-56.494261,-54.503171,51.623697,289.375466,-78.281085,76.442822
43,-0.440209,-0.078226,-2.766632,-31.836591,-26.819274,-51.281387,-73.759723,-90.551605,-60.990737,-93.494613,-109.627224,-121.785656,-55.163314,-91.021328,-109.691963,-124.2052,-47.148902,-80.737186,-98.541229,-111.955581,-38.198707,-64.479366,-78.74477,-90.771663,-18.675053,-18.395571,-5.365604,4.765836,9.980275,22.900548,29.651622,34.884389,27.849585,38.491589,43.887463,48.369419,40.692534,50.688468,55.797648,59.695828,49.036756,58.785627,61.975987,64.324515,18.864624,33.554249,43.694024,46.632283,26.30967,41.722733,50.225728,52.269391,23.968655,40.7692,46.990185,46.526734,22.472386,38.609723,41.673775,39.274304,21.04794,32.230374,35.234917,34.567063,-18.059711,-37.652696,-52.505393,-62.226693,-65.195628,-94.301697,-93.2923,-86.515427,-61.089003,-91.836256,-88.719064,-81.826422,-54.07804,-80.907934,-76.616385,-69.276725,-45.305968,-67.243938,-67.21089,-63.756164,50.940839,291.273877,-81.290366,46.582868
44,-0.20256,-0.223215,-3.24234,-29.283194,-26.863907,-51.384979,-73.856609,-90.472733,-61.092499,-93.51186,-109.512829,-121.615894,-55.127174,-90.880222,-109.399086,-123.884342,-47.000038,-80.526123,-98.243706,-111.64286,-38.046753,-64.495216,-78.77338,-90.767967,-18.678314,-18.261301,-5.187874,5.186528,10.051238,22.859793,29.400643,34.388249,27.89728,38.465591,43.82943,48.263653,40.676108,50.732373,55.789101,59.609562,48.913539,58.653357,61.780423,64.029743,11.163414,24.507866,36.597496,41.723946,17.734406,36.229557,44.585141,46.060822,19.608445,39.932019,45.166226,43.415245,22.574307,41.795494,42.293587,37.820252,25.63131,39.072899,39.223893,36.294869,-23.756773,-47.451165,-64.404438,-73.914996,-67.393992,-98.66039,-97.596331,-91.110868,-59.946559,-92.7712,-89.49284,-82.153186,-50.556488,-79.258463,-73.553824,-65.277916,-40.177967,-63.999677,-62.647139,-58.183177,50.134197,293.043598,-85.136788,19.29261
45,0.12941,-0.196551,-3.29298,-24.069815,-26.871025,-51.432427,-73.919678,-90.408028,-61.082337,-93.531006,-109.540798,-121.678494,-55.048165,-90.763264,-109.257958,-123.729675,-46.832634,-80.424626,-98.189072,-111.591786,-37.874336,-64.498043,-78.774193,-90.708962,-18.708165,-18.26802,-5.239338,5.221886,9.773138,22.576926,29.040366,33.959108,27.571904,38.164595,43.589998,48.063964,40.357327,50.453198,55.547101,59.38279,48.61043,58.385101,61.478673,63.689597,4.623017,16.0158,29.047186,36.11305,10.259418,31.353884,39.553167,40.62128,16.197661,38.850309,42.849667,40.019831,23.222841,43.858516,42.446446,36.577989,30.201254,45.003264,42.977207,38.27374,-28.465625,-54.388582,-72.154846,-81.586787,-69.628897,-101.638864,-101.755948,-96.506803,-59.983121,-93.385819,-90.236251,-83.199106,-49.021513,-78.441665,-72.358908,-64.154301,-37.594608,-62.166996,-60.3148,-55.333349,49.487297,294.862864,-89.206078,-2.761388
46,0.233551,-0.227526,-2.904911,-19.319843,-26.721131,-51.377976,-73.940586,-90.407353,-61.053497,-93.442772,-109.439736,-121.530522,-55.039192,-90.684391,-109.121613,-123.507637,-46.834671,-80.490269,-98.249714,-111.577629,-37.964768,-64.720677,-78.997811,-90.829765,-18.724553,-18.241294,-5.283069,5.297074,9.706572,22.581187,28.957572,33.739758,27.443365,38.024805,43.326769,47.67422,40.158269,50.323733,55.309646,59.026404,48.298665,58.138359,61.179023,63.313858,-0.415144,9.214794,22.323949,30.487189,4.627874,26.673438,35.029532,36.479574,13.78057,37.57256,41.25864,38.171478,23.942075,45.220148,42.707943,35.887576,33.811196,49.331779,46.016817,40.15058,-31.361497,-58.394718,-76.4464,-85.882115,-71.146405,-103.119937,-105.498265,-103.069946,-60.486554,-93.747023,-91.859368,-86.060492,-48.620562,-77.996874,-71.921877,-64.075331,-36.518428,-61.150289,-59.357049,-54.429556,48.881344,296.309738,-92.950493,-20.406831
47,0.265983,-0.187166,2.467678,-20.255694,-26.537475,-51.175598,-73.843517,-90.312378,-60.983825,-93.409572,-109.492057,-121.606292,-54.988998,-90.769111,-109.329151,-123.812484,-46.735015,-80.577632,-98.476226,-111.893978,-37.811302,-64.72562,-79.09346,-90.992088,-18.685057,-18.319692,-5.45119,5.329469,9.597694,22.562551,28.87106,33.53103,27.312245,37.81063,42.974434,47.171622,39.997755,50.139606,55.01527,58.590508,48.062433,57.994431,61.009161,63.032536,-4.457686,2.508179,12.916899,18.182218,0.884212,22.318648,29.171132,29.623943,11.660559,36.495756,39.192421,35.481013,23.694979,46.027652,42.757725,35.498742,35.644579,51.982112,47.736839,41.007573,-33.480733,-62.121255,-81.845795,-92.877578,-69.365382,-101.283471,-102.384107,-99.433735,-57.687753,-91.43357,-88.479365,-81.34191,-45.03787,-75.22398,-68.942578,-60.360423,-32.322376,-57.41947,-55.626529,-50.190379,48.429508,297.113688,-91.200634,-39.671409
48,0.399743,-0.17663,0.462136,-12.766367,-26.470963,-51.138451,-73.840451,-90.24939,-60.905915,-93.397202,-109.624501,-121.860558,-54.953087,-90.832169,-109.600766,-124.312901,-46.741837,-80.735917,-98.754742,-112.258667,-37.860924,-64.827725,-79.187531,-91.094491,-18.661284,-18.378022,-5.539136,5.251267,9.423606,22.512471,28.771974,33.336725,27.096525,37.477152,42.52615,46.620684,39.810737,49.864359,54.681521,58.2039,47.920962,57.848774,60.822982,62.794907,-7.164002,-1.607152,7.705982,11.827262,-2.51373,17.810829,24.573669,25.29309,9.357593,33.714328,36.470466,33.37318,22.469112,44.723602,41.320964,34.19609,35.648643,52.30117,47.841007,41.079883,-32.29207,-60.57273,-80.571987,-92.918899,-66.167388,-96.520748,-99.209506,-98.163315,-54.872059,-87.469329,-85.281531,-78.688788,-42.204746,-70.924189,-64.622146,-56.366246,-29.418088,-52.932194,-51.077446,-45.982049,48.217444,297.265221,-91.350305,-52.109613
49,0.283264,-0.010078,0.985862,-5.977317,-26.244942,-50.862145,-73.585659,-89.937115,-60.727936,-93.302422,-109.726433,-122.062786,-54.889023,-90.989113,-110.047097,-124.914391,-46.727234,-80.893376,-99.058022,-112.612427,-37.826111,-64.850441,-79.257477,-91.198963,-18.660135,-18.550515,-5.827559,4.927609,9.222202,22.348227,28.650672,33.271665,26.882597,37.258828,42.30501,46.396234,39.616619,49.641749,54.439781,57.97514,47.754064,57.685148,60.674646,62.648868,-7.712208,-3.140476,4.81279,8.503716,-4.005798,15.968067,23.295056,24.992798,7.982838,31.960179,34.117562,30.982281,21.41676,43.06025,40.103096,33.604008,35.015751,51.67598,47.700737,41.377339,-30.25793,-56.816606,-76.120782,-89.161846,-62.695909,-90.581151,-95.081824,-96.23543,-52.339748,-82.564151,-79.878418,-73.686912,-40.288395,-67.270176,-61.199573,-53.516093,-27.913415,-50.15458,-48.481897,-43.68883,48.3007,297.450036,-90.564451,-57.892037
50,0.235588,0.018118,1.674614,-4.876986,-26.18248,-50.71296,-73.471916,-89.736603,-60.722534,-93.420845,-109.896092,-122.209088,-54.92759,-91.254147,-110.448509,-125.384102,-46.779213,-81.05444,-99.256508,-112.796368,-37.866234,-64.959069,-79.373532,-91.285137,-18.661469,-18.69143,-6.061347,4.796475,8.995861,22.067238,28.421281,33.115807,26.713895,37.074305,42.151769,46.25769,39.538912,49.589112,54.371719,57.88323,47.764289,57.72279,60.70247,62.608063,-8.091156,-3.434727,4.332092,7.900223,-4.405208,15.17157,22.755295,24.93108,7.174404,31.094582,32.899647,29.543816,20.38036,42.337074,39.65617,33.445164,33.839516,50.883946,47.420002,41.54282,-28.001422,-53.568769,-72.515978,-85.574968,-58.94601,-84.992807,-89.848658,-91.76352,-49.207223,-77.751484,-74.142268,-67.544876,-37.394042,-63.024421,-56.533805,-48.709731,-25.119789,-46.585739,-44.741149,-40.079117,48.427712,297.545957,-88.998413,-62.69122
51,0.249916,0.055933,2.340351,-3.549895,-26.106468,-50.542305,-73.296787,-89.546139,-60.682457,-93.537724,-110.127937,-122.490463,-54.966774,-91.503834,-110.849556,-125.928246,-46.908074,-81.25169,-99.474346,-113.009411,-38.049866,-65.172581,-79.522133,-91.375363,-18.695666,-18.820649,-6.204175,4.630738,8.779056,21.828845,28.242255,33.061344,26.510131,36.829662,41.952711,46.123532,39.401024,49.394352,54.193841,57.768894,47.712049,57.632388,60.648599,62.623674,-8.234447,-2.958961,5.685414,9.829651,-4.770298,15.102448,22.644333,24.639908,6.46764,30.591534,31.04979,26.718075,19.472615,41.567345,38.647637,32.676224,32.816597,50.211949,46.762448,41.194382,-26.288101,-51.449742,-70.353208,-83.621759,-55.104734,-79.99187,-84.28896,-85.310349,-45.406424,-72.547005,-66.94125,-59.152254,-33.608112,-58.142928,-51.230309,-43.289064,-21.395579,-42.38124,-40.111956,-35.249247,48.668438,297.624111,-86.667252,-66.218894
52,0.204735,-0.207778,-2.274112,3.74218,-26.069435,-50.537499,-73.301091,-89.539582,-60.673165,-93.661206,-110.250664,-122.58387,-54.952378,-91.648568,-111.004269,-126.061798,-46.913636,-81.392693,-99.538479,-112.958416,-38.123497,-65.343384,-79.628495,-91.368862,-18.647105,-18.71098,-6.100693,4.718016,8.819947,21.890534,28.324334,33.14262,26.538994,36.96187,42.16664,46.359357,39.453944,49.566389,54.423405,58.063937,47.803439,57.757198,60.781981,62.822733,-7.89774,-0.953396,10.715446,18.798431,-5.11979,16.030449,25.21479,28.548065,6.552166,30.225105,30.288139,25.778549,19.725151,40.877998,37.825653,32.020214,32.832378,50.132721,46.893653,41.741294,-24.163622,-47.475421,-64.294035,-76.051159,-53.98187,-77.381908,-84.890036,-88.521491,-44.916194,-69.867331,-64.959741,-58.756511,-33.441325,-55.897337,-49.320153,-42.634967,-21.542002,-41.38617,-39.276461,-35.153972,48.865271,297.375547,-88.949266,-62.5175
53,0.102905,-0.120648,0.509136,2.921566,-26.034508,-50.514381,-73.307694,-89.482819,-60.753044,-93.860848,-110.3867,-122.625195,-55.048187,-91.884052,-111.185051,-126.158478,-47.007385,-81.596638,-99.684185,-113.056183,-38.209648,-65.462563,-79.695557,-91.38018,-18.636015,-18.747314,-6.23174,4.620006,8.744661,21.775789,28.205884,33.001347,26.461312,36.964884,42.260191,46.501667,39.406804,49.581654,54.512264,58.21409,47.808417,57.78979,60.878089,63.009306,-7.304009,0.448219,13.301616,23.168312,-4.080769,18.274246,27.765438,31.427456,7.726513,31.735691,30.692344,25.180298,21.038704,41.673706,38.488678,32.786384,33.950043,51.070633,48.093658,43.100372,-24.330712,-47.15953,-63.116349,-73.802187,-53.575324,-76.725908,-84.830033,-88.957557,-44.376205,-68.640921,-62.955162,-56.758706,-32.986989,-55.646809,-49.766237,-43.503665,-21.211933,-41.817749,-40.527684,-36.677114,49.013884,297.213656,-88.394422,-59.637177
54,0.101166,-0.493954,0.820896,2.74065,-26.082985,-50.643425,-73.427365,-89.600441,-60.85627,-93.965584,-110.421501,-122.601334,-55.084076,-91.8685,-111.058285,-125.946396,-47.011208,-81.587632,-99.591351,-112.896195,-38.248169,-65.432774,-79.604748,-91.249924,-18.458803,-18.438895,-5.908069,4.925584,8.962072,22.10934,28.516402,33.235653,26.629853,37.221358,42.527929,46.742938,39.575395,49.899335,54.870762,58.556768,47.997966,58.091725,61.196449,63.3259,-7.358791,0.830051,14.57563,25.066303,-3.240589,19.072632,28.100521,31.186764,8.863575,32.24683,31.096745,25.610905,22.178925,42.083187,38.726635,33.076241,34.816704,51.436409,48.383823,43.383739,-24.172668,-46.994496,-62.586821,-72.822199,-52.988559,-76.391925,-84.628204,-88.505522,-43.762825,-68.225801,-63.104536,-57.138267,-32.243317,-55.104437,-49.901137,-43.946477,-20.385175,-41.058361,-40.2921,-36.707977,49.20884,296.614513,-87.479736,-57.001716
55,-0.043099,-0.248384,0.854736,3.419516,-26.002853,-50.666725,-73.402233,-89.580093,-60.942741,-93.947502,-110.389824,-122.591594,-55.199432,-91.920822,-111.092605,-125.984962,-47.19191,-81.717499,-99.665291,-112.994808,-38.489135,-65.528949,-79.64098,-91.292885,-18.402327,-18.351,-5.831734,4.858151,8.957057,22.233729,28.621896,33.245273,26.5796,37.27755,42.529188,46.667923,39.51583,49.890603,54.884556,58.592014,47.981786,58.075052,61.225484,63.4278,-7.148334,1.237828,15.282852,25.9021,-3.1031,19.271267,28.399796,31.60429,9.071629,32.399403,31.240414,25.799538,22.424069,42.142903,38.717903,33.131287,35.036854,51.58881,48.445851,43.343914,-23.834121,-46.88279,-62.681621,-73.137873,-52.049206,-76.20594,-84.873428,-89.150061,-42.610612,-67.816581,-63.079157,-57.297207,-30.986838,-54.507416,-49.746793,-43.960421,-19.101459,-40.148796,-39.626252,-36.131451,49.255245,296.268443,-86.535496,-53.679886
56,0.052803,-0.214027,0.756386,4.522137,-26.005165,-50.793274,-73.579982,-89.754432,-61.234771,-94.05487,-110.422577,-122.599834,-55.43708,-91.976703,-111.032673,-125.838134,-47.355583,-81.78067,-99.648399,-112.954158,-38.597419,-65.585243,-79.708591,-91.357189,-18.385568,-18.353717,-5.815778,4.936081,9.156116,22.426922,28.73096,33.22555,26.757466,37.449154,42.618207,46.708752,39.633612,50.096997,55.062076,58.749786,48.068966,58.159353,61.234796,63.352118,-7.232414,0.508587,13.907215,24.194687,-3.170929,19.12199,28.465405,32.175522,9.18298,32.212269,31.236855,26.201145,22.590637,42.012291,38.715843,33.364323,35.293488,51.577194,48.473991,43.371174,-23.672286,-46.448666,-62.007602,-72.31876,-51.451425,-76.153458,-85.807446,-91.18696,-41.970699,-67.959113,-63.778623,-57.974238,-30.392485,-54.741252,-50.475398,-44.564093,-18.590462,-40.178727,-39.829553,-36.145505,49.405065,295.947609,-85.682093,-49.264556
57,0.076767,-0.15019,0.507237,5.366031,-26.089393,-50.950264,-73.742466,-89.893993,-61.375419,-94.083732,-110.435405,-122.643276,-55.584114,-91.990093,-111.046428,-125.913196,-47.483734,-81.823745,-99.709476,-113.084987,-38.659012,-65.57056,-79.734924,-91.451202,-18.39525,-18.391384,-5.901141,4.849235,9.151955,22.422649,28.681609,33.067469,26.805792,37.458739,42.588802,46.623599,39.716,50.125786,55.089272,58.740092,48.196518,58.272444,61.356778,63.380561,-7.132153,0.23339,13.220512,23.112121,-3.305237,19.116863,28.376998,32.023647,9.066066,32.183338,31.354499,26.497627,22.463058,41.93692,38.839874,33.665691,35.29018,51.557075,48.537311,43.388019,-23.665025,-46.6225,-62.503304,-73.042871,-51.089723,-76.142569,-86.167121,-91.914152,-41.597814,-68.007958,-64.100485,-58.181047,-29.988063,-54.963344,-50.917507,-44.784067,-18.079762,-40.022956,-39.722818,-35.807255,49.585699,295.619976,-85.070989,-44.075968
58,0.130394,-0.17337,0.44165,6.070491,-26.166229,-51.149162,-73.892166,-90.053936,-61.515449,-94.068775,-110.438072,-122.673866,-55.742157,-91.894592,-110.942035,-125.829689,-47.644432,-81.825016,-99.734173,-113.180568,-38.735664,-65.542763,-79.789856,-91.641208,-18.392397,-18.298315,-5.811541,4.783224,9.274183,22.488215,28.759698,33.153957,26.956611,37.532962,42.604894,46.60495,39.875489,50.218584,55.158666,58.777537,48.359909,58.427387,61.538176,63.527465,-7.23951,-0.574345,11.820396,21.43174,-3.408634,18.519882,27.712772,31.398731,9.052448,31.924725,31.250885,26.508408,22.337254,41.715237,38.71843,33.598068,35.12772,51.266247,48.147915,42.911579,-23.227559,-45.749849,-61.159917,-71.459923,-51.165687,-76.448054,-87.271814,-93.840539,-41.858888,-68.247525,-64.563964,-58.57825,-30.306071,-55.143291,-50.961392,-44.596641,-18.346381,-40.232623,-39.506351,-35.122202,49.884664,295.199685,-84.460768,-38.252398
59,0.075806,-0.025145,0.066719,6.670026,-26.179779,-51.247238,-73.987621,-90.163776,-61.578255,-94.110958,-110.503704,-122.773647,-55.824394,-91.90789,-110.958447,-125.881737,-47.717285,-81.877247,-99.836735,-113.419304,-38.688423,-65.512402,-79.877655,-91.887302,-18.516861,-18.391743,-5.899807,4.624365,9.239899,22.415968,28.697368,33.084907,26.972197,37.52496,42.581726,46.577249,39.904932,50.150844,55.106994,58.774833,48.409902,58.404454,61.536719,63.543916,-7.396133,-1.162651,10.899467,20.376595,-3.362606,18.025394,27.466404,31.801987,9.278595,31.937141,31.074783,26.349541,22.498844,41.75243,38.597328,33.44339,35.186428,51.122005,47.897667,42.728199,-23.099581,-45.50289,-60.758262,-70.976108,-51.266822,-76.78878,-88.584288,-96.27833,-42.016863,-68.371457,-64.668699,-58.492034,-30.527403,-55.26765,-50.983221,-44.413156,-18.666797,-40.576683,-39.630939,-34.989901,50.139233,294.985608,-84.215286,-31.771304
60,0.173515,-0.150585,-0.043053,6.817684,-26.1931,-51.314049,-74.086487,-90.286262,-61.632545,-94.109058,-110.527302,-122.849865,-55.902443,-91.8521,-110.915096,-125.888614,-47.774231,-81.866512,-99.886036,-113.540794,-38.622734,-65.455318,-79.925148,-92.039028,-18.562988,-18.407637,-5.904055,4.587056,9.365476,22.413041,28.662986,33.076065,27.117225,37.581178,42.633683,46.672753,40.057666,50.233306,55.17077,58.854775,48.576382,58.536723,61.658763,63.646595,-7.842167,-2.016266,9.742195,18.943474,-3.097355,17.497902,26.949829,31.692341,9.837479,31.720196,30.546009,25.960465,23.057488,41.637532,38.160954,33.023884,35.616051,50.911068,47.374958,42.209622,-22.917442,-45.130128,-59.977459,-69.771395,-51.512848,-77.21127,-89.877842,-98.381871,-42.508316,-68.814937,-65.223415,-58.756289,-31.148488,-55.761159,-51.49833,-44.640391,-19.367275,-41.27471,-40.352332,-35.491666,50.492975,294.635011,-84.078112,-25.153632
61,0.110939,-0.01209,-0.510189,6.692343,-26.277328,-51.31414,-74.01194,-90.223732,-61.561935,-94.073616,-110.550384,-122.886188,-55.869026,-91.825447,-110.959144,-125.984962,-47.764663,-81.822349,-99.902664,-113.583389,-38.564369,-65.383095,-79.940838,-92.126175,-18.607832,-18.464757,-6.004376,4.390812,9.438661,22.373471,28.64672,33.123427,27.276466,37.610657,42.66746,46.724795,40.253068,50.204048,55.126396,58.816699,48.753691,58.586111,61.765331,63.796351,-7.979484,-2.008598,9.852768,18.767121,-2.723304,17.809765,27.19915,32.014767,10.338272,31.842041,30.159394,25.518917,23.578446,41.831669,37.858818,32.646263,36.060013,51.021607,47.052635,41.785698,-23.159807,-45.898618,-61.211973,-71.376115,-51.573814,-77.417665,-90.184068,-98.759935,-42.552258,-69.055615,-65.273452,-58.556273,-31.147704,-55.947837,-51.468517,-44.36643,-19.377044,-41.434273,-40.423462,-35.426921,50.785589,294.439114,-84.406626,-18.645096
62,0.170494,0.144372,-0.563015,6.205608,-26.269203,-51.217918,-73.909721,-90.162895,-61.667152,-94.152877,-110.640575,-122.976059,-55.991043,-91.79528,-110.873989,-125.817524,-47.900345,-81.795868,-99.875507,-113.565811,-38.642669,-65.344688,-79.895588,-92.100299,-18.656195,-18.626802,-6.221255,4.115455,9.427769,22.185132,28.481266,33.112473,27.269279,37.522811,42.589543,46.72713,40.230307,50.062554,54.997128,58.762211,48.720273,58.456398,61.656737,63.784928,-8.27861,-2.21038,9.933621,18.898522,-2.428093,18.066227,27.840351,33.37872,10.842991,31.827553,29.643814,24.970425,24.163182,41.830708,37.470269,32.198651,36.60616,50.85751,46.53479,41.254521,-23.210449,-46.190062,-61.504886,-71.730816,-51.459181,-77.615884,-91.028135,-100.36242,-42.447622,-69.316986,-65.366732,-58.357202,-31.11712,-56.131193,-51.589752,-44.238063,-19.541962,-41.831366,-40.764244,-35.489049,51.127012,294.494705,-84.798712,-12.528269
63,0.235726,0.096133,-1.036583,5.410651,-26.233383,-51.029549,-73.722153,-90.121331,-61.625542,-94.145027,-110.699616,-123.071057,-55.999077,-91.758499,-110.875363,-125.814732,-47.910782,-81.730431,-99.840592,-113.478974,-38.620835,-65.253594,-79.80946,-91.988732,-18.62879,-18.736705,-6.394329,3.847347,9.507736,22.155258,28.454183,33.173643,27.322223,37.534408,42.646341,46.846518,40.244263,50.004533,54.93392,58.760284,48.683926,58.340382,61.549427,63.736528,-8.389526,-1.952373,10.543923,19.292691,-2.027252,19.027016,29.066918,34.980629,11.328335,32.342297,29.567585,24.780854,24.694897,42.274544,37.586678,32.282799,37.069657,51.199414,46.662472,41.295239,-23.656613,-47.217279,-63.111903,-73.911723,-51.156659,-77.499836,-90.88693,-100.141131,-41.996288,-69.42366,-65.130654,-57.555793,-30.544477,-56.097384,-51.654732,-44.103039,-18.977988,-41.385064,-40.511623,-35.134718,51.416954,294.574014,-85.781079,-7.134442
64,0.339317,0.137148,-1.038482,4.640729,-26.304657,-50.960701,-73.637535,-90.018585,-61.60611,-94.07143,-110.706619,-123.182327,-56.049133,-91.662437,-110.882423,-125.934288,-48.029045,-81.735775,-99.93877,-113.632862,-38.752579,-65.271744,-79.838573,-92.078682,-18.5456,-18.874915,-6.767166,3.430482,9.517233,21.979318,28.289037,33.123217,27.333066,37.3775,42.513257,46.783137,40.24945,49.788505,54.707185,58.590619,48.678257,58.235566,61.491665,63.778617,-8.557858,-1.718125,11.121185,19.544311,-1.88926,19.788391,29.929012,35.851535,11.522094,33.013549,29.973793,25.057033,24.890087,42.733783,37.982277,32.667984,37.207008,51.563461,47.204784,41.832618,-23.911643,-47.883863,-64.290021,-75.701139,-50.918606,-77.385172,-90.656181,-99.815472,-41.707408,-69.568755,-65.245035,-57.343581,-30.121024,-56.065762,-51.93369,-44.412341,-18.432566,-40.688699,-40.439622,-35.346387,51.846737,294.646302,-86.729095,-2.558573
65,0.17189,0.176248,-0.803032,3.939682,-26.287239,-50.786522,-73.380363,-89.805164,-61.611396,-94.018352,-110.688148,-123.16888,-56.086624,-91.559875,-110.831417,-125.926334,-48.087158,-81.691085,-99.940052,-113.672424,-38.796501,-65.227661,-79.817047,-92.131061,-18.578303,-19.010976,-7.010426,3.071836,9.537438,22.002931,28.38023,33.295723,27.339612,37.305709,42.487828,46.838601,40.200432,49.576071,54.517994,58.467748,48.536701,57.994159,61.333276,63.744555,-8.543667,-1.541394,11.370174,19.686996,-2.102555,19.919391,30.335037,36.45449,11.267235,33.284855,30.618564,25.792167,24.623874,42.864841,38.419967,33.08242,37.012928,51.642975,47.447914,42.035728,-24.173446,-48.366825,-64.933744,-76.810831,-51.179741,-77.543777,-90.762268,-99.901502,-41.871966,-69.788605,-65.725798,-57.97819,-30.176821,-56.105671,-52.060321,-44.627078,-18.385857,-40.471158,-40.258841,-35.1681,52.132381,294.644252,-87.418373,1.202811
66,0.156144,-0.04551,-0.871319,3.037701,-26.235192,-50.693734,-73.238286,-89.663464,-61.534333,-93.831482,-110.510811,-123.031884,-56.075295,-91.37455,-110.705567,-125.889359,-48.124764,-81.613839,-99.916901,-113.73721,-38.828293,-65.12661,-79.734375,-92.146077,-18.460557,-18.94268,-7.019565,2.89665,9.556592,22.027582,28.433533,33.397587,27.263597,37.248281,42.470921,46.876195,40.09148,49.517186,54.496566,58.505638,48.447484,57.957232,61.338191,63.797907,-8.635643,-1.653511,11.285934,19.864162,-2.279858,19.886433,30.546844,36.743774,11.021027,33.682354,31.555401,26.714081,24.339786,43.174107,39.276386,33.845066,36.711674,51.85556,48.114716,42.697815,-24.172847,-48.203051,-64.535529,-76.292764,-51.810979,-77.912063,-91.058572,-100.16417,-42.544768,-70.172409,-66.29255,-58.724302,-30.785433,-56.412262,-52.549255,-45.337881,-18.818241,-40.568638,-40.672347,-35.8339,52.424773,294.310911,-88.153444,3.952681
67,0.001052,-0.061207,-0.749336,2.380176,-26.084221,-50.547706,-73.050052,-89.474544,-61.447929,-93.627021,-110.357952,-122.943077,-56.053573,-91.216335,-110.661632,-125.930088,-48.136734,-81.486454,-99.848018,-113.711723,-38.84745,-65.018188,-79.661991,-92.117855,-18.331129,-18.829751,-7.007363,2.782757,9.654911,22.206004,28.633913,33.604451,27.26335,37.333163,42.575933,47.015183,40.028926,49.555138,54.533901,58.542429,48.334332,57.917984,61.351331,63.847406,-8.730572,-2.034966,10.709175,19.516983,-2.538815,19.372146,30.173355,36.419334,10.773468,33.768631,32.283531,27.561939,24.040317,43.322319,39.951175,34.45198,36.330219,51.965355,48.619903,43.19149,-24.098704,-47.691869,-63.513424,-74.870059,-52.579488,-78.346083,-91.230343,-100.064277,-43.467863,-70.766399,-67.266916,-60.07442,-31.734358,-56.896169,-53.189718,-46.309821,-19.653773,-40.945408,-41.270771,-36.777014,52.581155,293.858438,-88.74745,5.941591
68,-0.038681,-0.065715,-0.57042,1.574691,-26.013221,-50.507927,-72.979076,-89.360138,-61.460998,-93.392246,-110.058345,-122.617973,-56.061515,-91.018798,-110.447021,-125.729885,-48.15834,-81.328823,-99.638591,-113.503944,-38.898605,-64.955246,-79.578518,-92.021038,-18.277937,-18.743288,-6.877785,2.912779,9.71912,22.448004,28.897748,33.810623,27.319321,37.534741,42.754614,47.156666,40.057505,49.749108,54.736158,58.69904,48.31435,57.987218,61.457555,63.933351,-8.778991,-2.332752,10.284909,19.437172,-2.887687,18.870346,29.770283,36.002953,10.446225,33.734162,32.918049,28.333031,23.734692,43.354042,40.469674,34.929692,36.058606,51.993256,48.931366,43.496155,-24.187643,-47.62637,-63.195298,-74.275619,-53.380298,-78.866892,-91.290994,-99.61482,-44.357939,-71.309611,-68.223251,-61.522992,-32.627658,-57.463532,-53.942116,-47.391959,-20.452749,-41.616104,-42.160854,-38.015653,52.69804,293.318468,-89.162304,7.042027
69,-0.006363,-0.009596,-0.386123,0.844177,-25.962913,-50.43592,-72.914646,-89.38385,-61.455871,-93.277359,-109.8796,-122.368377,-56.009834,-90.92427,-110.290809,-125.517711,-48.069854,-81.15002,-99.396858,-113.210884,-38.835914,-64.872596,-79.470977,-91.847957,-18.213272,-18.627345,-6.68815,3.087138,9.865196,22.659277,29.089582,33.948302,27.451529,37.678237,42.830345,47.200298,40.14277,49.950785,54.882309,58.769102,48.321266,58.019218,61.448082,63.847184,-8.63134,-2.504448,9.85794,19.336601,-3.196953,18.262253,29.312908,35.671863,10.085792,33.208854,32.761528,28.231613,23.419979,43.026947,40.487835,34.918281,35.839897,51.881103,48.797447,43.220363,-24.112152,-47.297092,-62.432822,-73.069034,-53.996616,-79.335614,-91.493251,-99.443258,-45.110115,-71.790689,-68.709239,-62.212181,-33.484247,-57.937404,-54.19954,-47.647661,-21.317885,-42.563632,-42.786323,-38.447801,52.788786,292.839649,-89.451318,7.416981
70,0.158387,0.00478,-0.46035,0.227551,-26.01558,-50.473549,-72.99741,-89.484799,-61.346695,-93.186928,-109.74004,-122.209259,-55.880722,-90.778382,-110.08342,-125.258515,-47.943215,-80.967476,-99.187569,-112.96978,-38.728432,-64.713341,-79.288525,-91.601326,-18.066146,-18.503314,-6.638614,3.224606,10.024932,22.722274,29.109341,33.944497,27.601717,37.78236,42.918697,47.289749,40.252574,50.072902,55.03771,58.94241,48.388919,58.127391,61.561344,63.939748,-8.470928,-2.46143,9.771869,19.452736,-3.068848,18.189937,29.197277,35.50399,10.194832,33.004417,32.418903,27.793899,23.545074,42.953041,40.397369,34.787864,35.89666,51.973262,48.952606,43.390926,-24.191774,-47.232872,-62.262972,-72.598645,-54.128751,-79.487206,-91.308735,-98.830294,-45.298652,-71.89259,-68.551251,-61.944494,-33.72408,-58.072823,-54.280008,-47.738275,-21.612774,-42.908892,-43.243845,-39.034319,53.029547,292.453663,-89.829294,7.253766
71,0.17205,0.146891,-0.188439,0.025052,-26.006996,-50.386505,-72.986023,-89.535816,-61.241112,-93.151268,-109.736687,-122.23978,-55.745979,-90.74057,-110.070774,-125.26133,-47.809593,-80.878693,-99.123138,-112.911449,-38.636078,-64.661659,-79.225983,-91.505184,-17.977236,-18.551985,-6.920702,3.082853,10.054635,22.7017,29.106983,34.004125,27.597643,37.751979,42.927306,47.357639,40.219044,49.988367,54.967537,58.910252,48.336617,58.086551,61.498273,63.87559,-8.460468,-2.464039,9.711205,19.365418,-3.136596,17.958607,28.94204,35.275097,10.142453,32.591549,31.829109,27.221134,23.530564,42.63192,39.950398,34.393341,35.887951,51.902298,48.786885,43.201493,-24.364805,-47.441286,-62.507077,-72.847616,-54.089119,-79.48602,-91.062073,-98.267642,-45.317343,-71.951056,-68.433258,-61.714301,-33.816817,-58.068538,-54.161917,-47.538648,-21.7687,-42.953365,-43.277165,-39.099367,53.277809,292.323328,-89.941521,7.001592
72,0.374222,0.156044,-0.101326,-0.463659,-26.100334,-50.335167,-72.998394,-89.62571,-61.085289,-93.122109,-109.782829,-122.334938,-55.58036,-90.764134,-110.128773,-125.386585,-47.675034,-80.906662,-99.186859,-112.982975,-38.584671,-64.743324,-79.328888,-91.61364,-17.974989,-18.659246,-7.201136,2.868541,10.126684,22.673516,29.089273,34.056463,27.667667,37.680163,42.857033,47.346869,40.266752,49.908338,54.883284,58.899803,48.361329,58.049018,61.399324,63.771626,-8.339,-2.058838,10.348481,19.985813,-3.233196,17.805943,28.61023,34.833641,10.149594,32.240582,30.928837,26.103104,23.670983,42.424656,39.304585,33.683831,36.096005,51.971649,48.542862,42.936871,-24.854844,-48.473444,-64.283334,-75.257617,-53.911327,-79.329804,-90.664987,-97.622684,-45.0645,-71.669196,-67.70012,-60.672281,-33.550197,-57.800943,-53.691453,-46.889009,-21.52402,-42.788281,-42.905842,-38.550919,53.737965,292.310226,-89.956913,6.368787
73,0.099609,0.126502,0.105904,-0.626267,-26.105438,-50.258857,-72.969646,-89.630802,-60.884559,-93.197765,-109.912983,-122.502308,-55.340034,-90.88171,-110.264625,-125.524383,-47.43956,-80.948822,-99.208065,-112.965557,-38.438781,-64.869392,-79.427993,-91.6348,-18.138146,-18.810065,-7.374939,2.834319,10.093561,22.557833,28.984593,34.021772,27.681289,37.602419,42.786984,47.323737,40.306074,49.860135,54.811888,58.85759,48.420758,58.091514,61.350034,63.706776,-8.535233,-2.316341,10.142612,19.749435,-3.384853,17.455318,28.165501,34.40934,10.184956,31.733093,29.99992,25.077461,23.841144,42.145271,38.665638,32.98748,36.348862,51.992088,48.245418,42.623234,-24.900335,-48.580883,-64.565897,-75.494393,-53.502298,-79.115035,-90.60801,-97.77057,-44.661776,-71.507045,-67.271936,-60.071103,-33.245212,-57.643954,-53.336665,-46.408701,-21.387873,-42.892485,-42.769836,-38.240246,53.959419,292.335577,-89.729164,5.641369
74,0.038201,0.041817,0.095009,-0.855799,-26.092095,-50.264603,-73.009747,-89.569588,-60.789276,-93.303063,-110.061917,-122.648323,-55.206963,-91.009713,-110.399689,-125.610466,-47.272957,-80.983876,-99.223057,-112.903405,-38.314339,-64.91977,-79.439518,-91.534184,-18.305057,-18.916201,-7.355561,3.042912,10.010952,22.532194,28.974281,34.052993,27.651501,37.637185,42.913535,47.489969,40.327354,49.898507,54.878888,58.931469,48.497267,58.205877,61.406141,63.71226,-8.745941,-2.519531,10.064747,19.530258,-3.439545,17.291748,27.822441,33.909633,10.306549,31.455585,29.500065,24.513737,24.064899,41.991817,38.286529,32.589374,36.604568,52.085552,48.197719,42.609386,-24.893357,-48.668587,-64.790057,-75.683892,-53.205223,-78.863946,-90.343706,-97.550868,-44.347306,-71.299045,-67.079997,-59.945948,-32.942702,-57.487448,-53.191218,-46.340949,-21.114584,-42.716243,-42.59097,-38.169325,54.168234,292.333481,-89.463541,4.741657
75,0.085075,0.084289,0.172622,-1.22175,-26.106766,-50.351189,-73.149467,-89.65385,-60.866684,-93.485722,-110.298809,-122.842541,-55.222664,-91.269974,-110.6609,-125.81266,-47.229149,-81.10944,-99.301105,-112.864906,-38.316078,-65.129997,-79.594986,-91.540077,-18.505721,-19.084014,-7.348484,3.254753,9.930516,22.569208,29.045727,34.136307,27.653304,37.746693,43.056426,47.59292,40.395712,50.061541,54.984765,58.938928,48.618187,58.328896,61.427791,63.621042,-8.904327,-2.526969,10.34079,19.706692,-3.71165,17.110978,27.505246,33.449604,10.165478,31.213223,29.172364,24.142376,24.052517,41.893891,38.119206,32.477498,36.674927,52.16557,48.202378,42.656479,-25.15923,-49.497025,-66.33204,-77.85127,-53.083001,-78.603403,-90.00821,-97.212235,-44.160141,-71.217417,-67.025367,-59.91687,-32.707965,-57.539998,-53.21758,-46.36962,-20.792531,-42.571556,-42.4201,-38.028942,54.446657,292.429811,-89.097571,3.531948
76,0.058891,0.026269,0.222085,-1.596199,-26.172569,-50.501152,-73.334484,-89.807853,-60.965126,-93.715828,-110.524578,-122.984836,-55.260887,-91.497047,-110.836269,-125.888248,-47.198913,-81.235199,-99.341125,-112.778949,-38.305664,-65.289871,-79.68116,-91.454555,-18.715019,-19.127573,-7.076091,3.636988,9.884549,22.691856,29.162052,34.161946,27.746362,37.960646,43.256373,47.690671,40.576455,50.379456,55.24403,59.04604,48.83314,58.5808,61.617216,63.684336,-9.050549,-2.7556,10.136924,19.32891,-3.803902,16.979484,27.195098,32.931827,10.110065,31.037578,29.336894,24.460132,24.010723,41.784381,38.165794,32.555397,36.613071,52.120422,48.292087,42.815483,-24.765417,-48.972646,-65.619539,-76.958279,-53.135495,-78.495197,-89.75021,-96.770306,-44.247511,-71.130541,-67.330735,-60.621503,-32.761286,-57.459697,-53.187149,-46.536648,-20.774957,-42.633331,-42.62886,-38.520271,54.693763,292.45286,-88.687271,1.932529
77,-0.007278,-0.073409,0.047092,-1.768977,-26.290306,-50.733902,-73.58947,-90.007931,-61.081352,-93.868698,-110.597271,-122.969067,-55.348984,-91.644699,-110.893856,-125.85545,-47.245766,-81.306358,-99.323685,-112.687443,-38.342697,-65.35096,-79.649014,-91.294762,-18.735915,-19.022474,-6.788,4.058879,9.913436,22.869957,29.32884,34.21226,27.81572,38.247254,43.586998,47.909551,40.680122,50.702942,55.577372,59.241937,48.96205,58.831692,61.877198,63.871082,-9.141678,-2.865143,9.881115,18.749462,-3.747265,17.25198,27.385059,32.863804,10.094891,31.209446,29.940319,25.21875,23.994415,41.951717,38.624943,33.123264,36.60704,52.26075,48.613369,43.16367,-24.409036,-48.477173,-64.971813,-76.287008,-53.256222,-78.516142,-89.568775,-96.328314,-44.387536,-71.203572,-67.667558,-61.292711,-32.796088,-57.520397,-53.201684,-46.686781,-20.630479,-42.526483,-42.595483,-38.748507,54.853581,292.351617,-88.473083,0.135718
78,0.266212,-0.081226,0.07782,-1.606974,-26.357208,-50.839462,-73.749183,-90.144928,-61.228889,-94.036651,-110.767948,-123.121101,-55.49913,-91.831157,-111.116775,-126.091781,-47.31546,-81.402935,-99.500976,-112.915832,-38.289779,-65.264877,-79.600959,-91.278362,-18.541414,-18.784352,-6.561179,4.297729,10.068244,23.084168,29.515066,34.337749,27.898712,38.47242,43.893292,48.2113,40.70245,50.930554,55.862707,59.497905,48.944945,58.918674,62.010899,63.958149,-9.031449,-2.673432,9.919853,18.612671,-3.409493,17.46373,27.514709,32.927101,10.324379,31.280937,30.058937,25.335823,24.184959,42.010494,38.799454,33.359401,36.754051,52.301021,48.697357,43.22224,-24.299028,-48.26398,-64.585145,-75.892942,-53.690334,-78.693545,-89.502961,-95.973645,-44.903195,-71.268645,-67.453871,-60.972801,-33.25322,-57.535891,-53.000903,-46.39343,-20.91219,-42.603153,-42.565973,-38.669738,55.333625,292.260165,-88.181431,-1.481482
79,0.165596,-0.014672,0.180691,-1.368272,-26.508087,-50.946601,-73.91542,-90.429508,-61.307212,-94.202922,-110.929573,-123.266075,-55.564842,-92.026851,-111.312881,-126.287578,-47.355079,-81.567112,-99.670532,-113.099258,-38.302551,-65.333587,-79.68544,-91.374332,-18.340848,-18.554468,-6.410718,4.41918,10.228795,23.295824,29.767119,34.556926,28.020151,38.762129,44.249048,48.543246,40.779712,51.180581,56.173744,59.817401,48.954973,59.026305,62.157952,64.118947,-9.046303,-2.693493,9.784126,18.387691,-3.279683,17.50241,27.487083,32.85276,10.445365,31.263576,30.090248,25.389518,24.307045,42.042057,38.937149,33.553871,36.864933,52.30846,48.75468,43.241615,-24.335022,-48.255791,-64.579013,-75.978701,-53.991182,-78.956985,-89.635428,-95.943609,-45.289999,-71.49283,-67.459138,-60.867498,-33.623278,-57.709798,-53.028555,-46.327209,-21.194556,-42.818439,-42.783303,-38.842194,55.748096,292.237187,-87.751865,-2.85806
80,0.145478,0.030282,-0.168412,-0.849469,-26.687737,-51.055024,-74.076336,-90.65823,-61.401673,-94.276383,-110.951191,-123.328034,-55.686905,-92.1316,-111.403233,-126.447567,-47.524109,-81.718838,-99.801155,-113.28344,-38.500832,-65.394974,-79.681652,-91.387471,-18.062465,-18.28016,-6.311633,4.422009,10.350666,23.428526,29.889645,34.601411,28.03486,38.967449,44.533113,48.836128,40.744256,51.343739,56.39428,60.053474,48.896323,59.127724,62.300608,64.253848,-8.926014,-2.632976,9.721424,18.289089,-2.815887,18.183655,28.098954,33.307904,10.820343,31.879898,30.720955,26.005646,24.6022,42.499077,39.486477,34.117607,37.133,52.658741,49.199295,43.649746,-24.134167,-47.749451,-63.650738,-74.630381,-54.143607,-79.186351,-89.857378,-96.146515,-45.483118,-71.557859,-67.496313,-60.983355,-33.783669,-57.662782,-53.04253,-46.429851,-21.313562,-42.854613,-42.938649,-39.098916,56.193381,292.259886,-87.62047,-3.715112
81,0.076355,-0.02454,-0.186767,-0.362963,-26.775376,-51.151223,-74.230568,-90.857071,-61.343308,-94.28246,-110.986107,-123.43982,-55.633141,-92.159008,-111.469574,-126.541443,-47.508293,-81.774662,-99.895523,-113.398396,-38.518067,-65.370896,-79.656716,-91.398445,-17.810498,-17.937716,-6.011797,4.65676,10.499719,23.611999,30.096731,34.783143,28.109492,39.258072,44.889117,49.166259,40.772068,51.574537,56.694363,60.367388,48.868857,59.245519,62.472682,64.449548,-8.600567,-2.317383,9.814876,18.382438,-2.135605,19.385112,28.874759,33.170929,11.315437,32.734897,31.462978,26.583286,24.969143,43.123432,40.14418,34.791927,37.442081,53.127365,49.610573,43.916187,-24.11248,-47.516368,-63.256214,-73.795429,-54.277111,-79.462956,-89.302167,-94.370579,-45.40409,-71.42128,-66.98973,-60.291787,-33.497017,-57.4342,-52.733326,-46.132813,-20.900359,-42.388027,-42.374923,-38.482146,56.580878,292.369042,-87.496095,-3.944379
82,-0.023896,0.307196,0.174144,1.122227,-26.857406,-51.242019,-74.299003,-90.830097,-61.436325,-94.412498,-111.087364,-123.558666,-55.72586,-92.281334,-111.579483,-126.622753,-47.627243,-81.930679,-100.02761,-113.520801,-38.649307,-65.45581,-79.703201,-91.433864,-17.827035,-17.911522,-5.849357,4.799181,10.363967,23.508024,30.024891,34.715205,27.968034,39.24235,44.917658,49.216314,40.645542,51.50161,56.661351,60.383876,48.76251,59.136172,62.38102,64.408286,-8.378299,-2.045562,10.064267,18.821801,-1.245277,20.393269,29.511979,33.34544,12.108136,33.472184,32.079071,27.306004,25.560093,43.754837,40.548684,35.20427,37.923008,53.540818,49.874669,44.134713,-24.339474,-47.709652,-63.346925,-73.565186,-54.385378,-79.735447,-89.417387,-94.191126,-45.379914,-71.598583,-67.493737,-60.904289,-33.500074,-57.500798,-53.089317,-46.591828,-21.028639,-42.467166,-42.519326,-38.551319,56.862968,292.89807,-87.015965,-2.60032
83,0.033303,0.321794,0.294377,2.362022,-26.855988,-51.263352,-74.355297,-90.892697,-61.511536,-94.470795,-111.11372,-123.568142,-55.830918,-92.320553,-111.569367,-126.543194,-47.841637,-82.076306,-100.082119,-113.475449,-39.013253,-65.727402,-79.876145,-91.485833,-17.76941,-17.908607,-5.808664,4.936303,10.356755,23.420635,29.875245,34.467709,28.001046,39.253798,44.849028,49.027938,40.718901,51.587727,56.683556,60.302513,48.86278,59.302181,62.506287,64.468245,-7.655583,-0.682755,11.920189,20.979664,-0.349011,22.527042,30.998234,33.717201,12.764923,34.939567,33.061889,28.055363,25.996353,44.664825,40.91851,35.540188,38.315403,53.945274,49.995598,44.41737,-24.914834,-48.73056,-64.998391,-75.584728,-54.4501,-79.891485,-88.563695,-92.083629,-44.934355,-71.194681,-67.024744,-60.545137,-32.812335,-57.107806,-52.508241,-45.96823,-20.332892,-41.920181,-41.546307,-37.392444,57.119923,293.53674,-86.497936,0.078578
84,0.116913,0.40491,0.32864,4.238214,-26.841706,-51.375596,-74.441575,-90.938622,-61.742592,-94.584927,-111.159153,-123.616894,-56.072411,-92.30785,-111.503964,-126.45464,-48.110459,-82.13379,-100.101529,-113.472222,-39.265549,-65.800209,-79.938618,-91.551831,-17.859047,-18.029157,-5.901277,4.852508,10.316925,23.27583,29.659711,34.193438,27.968812,39.124098,44.62475,48.740106,40.707551,51.506216,56.583903,60.173158,48.879675,59.362252,62.625526,64.611321,-6.882809,0.900158,14.115555,23.58807,1.101883,25.390972,32.82859,34.017723,13.764129,36.919727,34.606705,29.377636,26.594009,45.887501,41.604515,36.157608,38.615639,54.310581,50.192093,44.744922,-25.397265,-49.651919,-66.271647,-76.772064,-54.387595,-79.954643,-87.004181,-88.78074,-44.064655,-70.497549,-66.174582,-59.585714,-31.518534,-56.19695,-51.378195,-44.669877,-18.927359,-40.45312,-39.638596,-35.40295,57.369936,294.273561,-86.036196,4.648703
85,-0.147194,0.632831,0.829113,6.163667,-26.53109,-51.194573,-74.330716,-90.974671,-61.566491,-94.648739,-111.298233,-123.729115,-55.862893,-92.387604,-111.646077,-126.503323,-47.899636,-82.191376,-100.223214,-113.543324,-39.116318,-66.001877,-80.21156,-91.752755,-18.054524,-18.203244,-6.023197,4.744148,10.20796,23.150093,29.522513,34.052585,27.904393,38.960595,44.312676,48.296602,40.644689,51.37838,56.303988,59.756713,48.764003,59.211235,62.388627,64.356415,-5.899063,3.066295,17.55265,27.717487,2.602363,28.217697,34.475956,34.050602,14.645256,38.989368,36.330608,30.693455,26.882892,47.202862,42.294514,36.611137,38.318584,54.148796,49.629993,44.179619,-26.237768,-51.053431,-67.644384,-76.915078,-54.314427,-79.870755,-84.019716,-83.442844,-42.708721,-69.380595,-64.806526,-58.0541,-29.362988,-54.190611,-49.102995,-42.19347,-16.374597,-37.878604,-36.639773,-32.3348,57.305901,295.117498,-85.123924,11.023476
86,0.184616,0.809066,1.591118,8.506039,-26.511223,-51.325356,-74.554058,-91.377445,-61.860741,-94.986019,-111.624047,-123.989537,-56.118279,-92.564038,-111.736977,-126.480137,-48.126343,-82.289212,-100.271633,-113.483929,-39.381661,-66.260971,-80.389069,-91.728985,-18.238639,-18.471599,-6.378904,4.385477,9.883981,22.762708,29.12042,33.639549,27.585959,38.677432,44.023844,47.958309,40.353264,51.192326,56.055122,59.383432,48.51862,59.009459,62.139798,64.059408,-4.674214,5.863929,22.012619,32.78659,3.904163,30.784092,35.246875,33.254562,15.230552,40.818889,37.387481,31.2071,26.90831,48.413578,42.890339,36.971683,37.946193,54.244869,49.500297,44.095928,-27.430657,-53.082895,-69.996809,-78.768239,-53.304542,-79.111898,-80.456124,-78.4151,-40.375933,-67.655462,-62.545041,-55.471877,-26.350327,-51.809546,-46.25485,-39.044464,-13.055568,-34.477348,-32.860667,-28.464464,57.631325,295.778743,-83.391998,19.381694
87,0.243004,0.609933,2.179561,8.884075,-26.459038,-51.459824,-74.856926,-92.006459,-61.85772,-95.154305,-111.864991,-124.099091,-56.071221,-92.721611,-111.948372,-126.551972,-48.090203,-82.371106,-100.335926,-113.314991,-39.510842,-66.563645,-80.655568,-91.724373,-18.233377,-18.445959,-6.562636,4.223938,9.781006,22.776763,29.16204,33.591051,27.512847,38.726537,44.008679,47.743319,40.303309,51.335551,56.036573,59.101949,48.4348,58.98471,61.99729,63.739949,-2.690735,9.771401,27.895752,39.538754,5.557537,33.726128,37.013649,33.589772,15.485207,43.097855,39.828907,33.187512,26.289849,49.838894,44.436413,38.20887,36.662876,53.74704,49.226567,43.799046,-28.542664,-52.960284,-67.487859,-73.540177,-50.669566,-75.345043,-73.295491,-68.984806,-36.428445,-62.503767,-56.302309,-48.881799,-21.490878,-45.753029,-40.004492,-32.983612,-7.555231,-27.337778,-25.78988,-21.894139,58.042506,295.97166,-81.04426,27.848753
88,0.280448,0.669955,0.752718,13.961503,-26.549537,-51.659271,-75.190498,-92.65171,-61.857765,-95.347446,-112.11589,-124.317432,-56.07518,-92.86417,-112.119827,-126.649498,-48.132431,-82.528163,-100.517337,-113.363285,-39.694221,-66.882476,-80.943283,-91.809803,-18.356977,-18.521196,-6.758175,3.893055,9.429078,22.555524,29.054693,33.5386,27.181494,38.608396,43.91572,47.58651,40.050404,51.213384,55.828807,58.759247,48.241966,58.792086,61.746806,63.423935,-0.512449,13.715235,33.436295,45.850645,8.365425,37.495062,39.754212,35.205139,17.160061,46.419617,43.395882,36.484383,27.150959,52.730427,47.395289,40.744366,36.793299,55.12183,50.758885,45.017229,-29.587025,-53.301588,-66.115234,-69.641306,-48.731774,-72.760696,-68.418135,-62.831075,-33.266778,-58.750182,-52.293188,-44.720238,-17.55173,-41.008924,-35.554449,-28.685243,-3.102677,-21.629681,-20.576775,-17.205564,58.25386,295.911389,-80.360636,41.08003
89,0.273446,0.536068,-0.66766,18.458254,-26.507264,-51.636109,-75.313855,-93.075463,-61.669968,-95.404553,-112.293171,-124.466092,-55.935448,-92.960427,-112.283821,-126.726105,-48.080475,-82.610012,-100.607884,-113.295124,-39.828827,-67.118363,-81.070931,-91.673493,-18.382579,-18.469919,-6.781616,3.692922,9.0648,22.380362,28.959757,33.472996,26.804853,38.578076,43.903419,47.498046,39.752927,51.267119,55.78589,58.566462,48.018763,58.695113,61.572941,63.150664,2.355624,18.476595,39.670991,52.909087,12.263855,42.484961,43.974598,38.606724,20.177124,50.990136,47.684372,40.354718,29.509896,57.160241,51.443957,44.227913,38.65285,58.537205,53.862637,47.728873,-31.04208,-54.780072,-67.111163,-68.973833,-47.808284,-71.370391,-65.787907,-59.621579,-31.216183,-56.161932,-49.708372,-42.149803,-14.86024,-37.62728,-32.368146,-25.427359,-0.040585,-18.047947,-17.206715,-13.887535,58.226229,295.563138,-81.329373,58.653965
90,0.560989,0.28562,-0.411106,19.735166,-26.753677,-51.885292,-75.590904,-93.548401,-61.786446,-95.514427,-112.420074,-124.587959,-56.115532,-92.940205,-112.233456,-126.648079,-48.33078,-82.615425,-100.579433,-113.169983,-40.15741,-67.200211,-81.081997,-91.554668,-18.417801,-18.407427,-6.688335,3.596949,8.866902,22.2393,28.838418,33.347927,26.664779,38.608383,43.95319,47.545483,39.694128,51.402957,55.928349,58.704079,48.024555,58.816094,61.757168,63.327691,5.090361,22.974272,45.246163,58.718497,15.79113,48.002112,47.990239,41.521843,22.843014,55.753441,51.689438,43.670437,31.621914,61.346501,55.235236,47.449471,40.421786,61.985333,56.953698,50.376635,-31.84583,-55.111387,-66.521582,-67.69631,-45.914491,-67.880962,-62.455861,-56.662832,-28.357774,-51.638164,-45.576275,-38.286574,-11.468358,-33.041534,-28.26706,-21.604972,3.648712,-13.443589,-12.898704,-9.693286,58.303831,294.936547,-82.223866,77.47692
91,0.333435,0.229378,-0.313053,20.427543,-26.7285,-51.804611,-75.536133,-93.698307,-61.49556,-95.433506,-112.403961,-124.597115,-55.930481,-92.960838,-112.30378,-126.704361,-48.274246,-82.732395,-100.735428,-113.310928,-40.23587,-67.410026,-81.353554,-91.847855,-18.494557,-18.442044,-6.749036,3.42064,8.736066,22.107315,28.746719,33.341641,26.595866,38.492848,43.744783,47.329468,39.704762,51.326375,55.790868,58.615751,48.073474,58.791777,61.727108,63.335694,8.578532,27.932505,50.740025,64.325701,18.675316,52.013987,53.331528,47.707077,24.614994,59.476044,55.906563,47.375679,32.369225,64.146115,58.086073,49.665448,40.258353,63.109886,57.816868,50.518896,-32.176034,-53.696649,-63.488267,-64.0179,-43.76667,-62.954397,-59.207364,-54.716343,-25.760231,-45.622921,-40.494105,-34.050187,-8.451282,-26.608333,-22.821582,-17.289075,6.971279,-7.540257,-7.244929,-4.691812,57.863165,294.33278,-83.31102,97.071318
92,0.463486,0.138704,-1.872196,24.394154,-26.689911,-51.690834,-75.441982,-93.762772,-61.396065,-95.333451,-112.399498,-124.794743,-55.899719,-92.836521,-112.200176,-126.757107,-48.302559,-82.688164,-100.778595,-113.545372,-40.303116,-67.465554,-81.4888,-92.14975,-18.600669,-18.614649,-6.964779,3.020349,8.607242,21.780395,28.385825,33.070162,26.506315,38.299137,43.525136,47.184095,39.688941,51.28946,55.771725,58.686011,48.129877,58.927986,61.916558,63.57158,12.175289,32.908785,55.797958,69.347586,24.128729,59.192465,60.05674,54.055498,29.094984,65.121014,60.127676,50.724581,35.495173,68.526512,61.17853,52.003418,42.030344,66.455057,60.14982,52.043489,-31.709046,-52.80626,-63.158192,-64.397649,-41.484198,-58.661465,-57.386495,-54.625405,-22.909566,-40.640959,-37.351555,-31.706144,-5.321734,-21.779037,-19.234191,-14.13889,10.173112,-3.585815,-3.761921,-1.058504,57.451281,293.6873,-86.058586,120.681288
93,0.231949,0.214558,-1.340544,23.529013,-26.574097,-51.587906,-75.359665,-93.824135,-61.155259,-95.256604,-112.437401,-124.920227,-55.662186,-92.810452,-112.310051,-126.986859,-48.051316,-82.592652,-100.845269,-113.813553,-39.969269,-67.252945,-81.458187,-92.385716,-18.75796,-18.864244,-7.237309,2.60299,8.525176,21.541582,28.127449,32.881712,26.463744,38.021692,43.195512,46.94722,39.666155,51.118955,55.674715,58.786874,48.10877,58.875745,61.965686,63.793116,15.998114,38.331368,61.368508,74.940216,31.342146,68.151204,67.575211,60.64226,34.744109,71.610512,64.52294,54.268256,39.122183,73.205773,64.054241,54.0649,43.63179,69.672301,62.137625,53.235077,-30.474008,-50.048335,-59.716094,-60.815255,-36.647243,-50.856201,-52.438848,-51.67344,-17.626353,-32.670149,-31.915543,-27.200553,0.117634,-14.310578,-13.891447,-9.339997,15.697813,2.908383,1.451307,4.412178,56.954951,293.207876,-88.127409,143.516319
94,0.22435,0.059565,-0.137798,21.33389,-26.615044,-51.544373,-75.256142,-93.801705,-60.956246,-95.05093,-112.255658,-124.900669,-55.460312,-92.623146,-112.201275,-127.104664,-47.863495,-82.439129,-100.857434,-114.104737,-39.72654,-66.984925,-81.366864,-92.627758,-18.74419,-18.992278,-7.558646,2.150211,8.68396,21.297815,27.781436,32.582049,26.660271,37.778778,42.886785,46.725882,39.858532,50.969135,55.565268,58.864543,48.295441,58.956576,62.108873,64.092246,18.998445,43.192062,66.942135,81.241001,37.295362,75.867176,74.247368,66.785254,38.922461,77.013199,68.868444,57.692533,41.010424,76.293354,66.671505,56.081703,43.150875,70.454286,62.532309,53.117821,-28.914649,-45.641894,-52.701049,-53.122907,-31.170086,-41.315391,-44.429782,-44.966418,-12.201758,-23.243058,-24.426866,-20.917041,5.505056,-5.265921,-6.864231,-3.600561,21.417952,10.968028,8.172204,10.519072,56.597947,292.560012,-88.846561,164.14278
95,0.033073,0.02407,-1.248997,21.337781,-26.382019,-51.193405,-74.799248,-93.371796,-60.690308,-94.791595,-112.056759,-124.857914,-55.194397,-92.373928,-112.058018,-127.105946,-47.596367,-82.193619,-100.772358,-114.288815,-39.424782,-66.712509,-81.276134,-92.854992,-18.660826,-18.997774,-7.725458,1.878806,8.74718,21.129274,27.531767,32.403541,26.717773,37.575681,42.55626,46.410609,39.933571,50.8876,55.532849,58.98266,48.339025,58.972088,62.238981,64.417548,22.377657,48.384121,72.533421,87.788224,43.761217,82.228009,83.529934,78.627806,43.785021,82.211998,75.379263,64.672457,43.641856,79.348126,70.722553,60.291573,43.401272,71.30456,64.348841,55.156941,-27.170978,-40.926589,-46.124674,-46.587083,-25.029767,-31.562445,-36.093804,-37.88661,-6.426075,-13.409299,-16.654447,-14.755227,10.737446,3.87666,0.017383,1.595693,26.317933,18.646315,14.238182,15.253951,56.149704,291.8685,-90.576874,184.764979
96,-0.404068,-0.155278,-1.690864,21.338756,-26.337112,-50.405617,-72.362011,-88.941273,-60.662315,-94.094009,-111.373192,-124.33231,-55.4133,-91.988972,-111.878197,-127.134727,-47.940628,-81.91745,-100.72776,-114.644314,-39.593376,-66.1921,-80.91869,-93.024193,-18.444329,-19.291767,-9.051548,-0.28378,9.109878,21.227038,27.497397,32.300875,26.689492,37.535495,42.494127,46.336361,39.739515,50.671882,55.367,58.834879,48.262331,58.889367,62.314897,64.72241,24.747854,52.499965,77.264019,93.747986,50.851884,89.331012,92.756069,89.962045,49.131975,87.698227,82.946668,73.674757,46.923036,82.960613,77.053951,68.156765,44.572643,72.901273,69.091547,62.380554,-25.180058,-36.988413,-40.719635,-40.527199,-17.873493,-21.374491,-26.793284,-29.644443,0.388775,-3.413599,-9.075096,-9.422208,16.461895,12.667202,6.396374,5.904254,30.690838,25.659174,20.010784,19.479853,55.438042,291.077863,-92.575332,205.468376
97,-0.447945,-0.02076,-0.840443,18.569943,-24.809806,-48.704361,-70.959034,-87.789356,-59.218185,-92.299186,-109.75859,-122.870487,-55.847488,-91.525394,-110.909614,-125.780319,-49.885963,-82.765354,-99.414688,-111.389442,-42.49237,-68.370151,-80.852954,-90.414676,-8.628818,-6.009538,3.606557,12.196855,14.746467,25.431648,31.17719,35.585725,25.106087,35.461915,40.376569,43.92991,31.874686,41.573946,45.966994,48.985317,35.213864,44.144789,47.451338,49.60723,26.433975,55.082119,80.037312,98.019848,55.079281,92.66193,99.888828,100.928684,51.89526,90.018116,89.666084,83.552113,48.239365,83.796993,82.454441,76.714096,44.432339,72.323227,72.544613,69.116856,-23.391513,-32.851195,-34.693518,-34.351508,-11.501817,-11.945729,-16.564931,-19.353037,6.336963,5.654682,-0.699312,-2.657899,21.321379,20.801194,13.774158,11.487453,34.069628,32.474578,26.944742,25.016289,54.620967,290.546992,-93.784905,223.528208
98,-0.866958,-0.011758,0.502956,15.230183,-23.920258,-47.751114,-70.193985,-87.27253,-57.81411,-90.040947,-107.818966,-121.300175,-56.141602,-90.654179,-108.759842,-122.652809,-51.727638,-83.240879,-95.681774,-104.042473,-45.586418,-70.814415,-79.830849,-85.836159,1.444898,7.621076,16.606144,25.333638,21.361049,30.196458,35.00311,38.575989,24.585519,33.321474,37.200326,39.617225,24.793581,32.117217,35.032788,36.728009,22.506803,29.134314,31.753124,33.304591,27.304139,56.264489,81.18583,100.338776,55.981808,92.071953,104.331963,110.076531,51.60006,89.596985,95.891671,94.376748,46.950909,82.133034,87.29599,86.096329,42.174775,69.511231,74.687291,75.121228,-21.666651,-28.652142,-28.483193,-27.878138,-6.177301,-3.872739,-6.360503,-7.990232,11.360804,13.851334,8.786343,6.297826,25.381173,28.581524,22.720484,19.514995,36.510141,38.722448,34.425966,31.351104,53.355068,290.142714,-93.68089,238.365871
99,-1.296707,0.811314,1.146378,12.73002,-23.835617,-47.539925,-69.353108,-86.099648,-57.554146,-88.256745,-105.803662,-118.971909,-56.53624,-89.484719,-107.190548,-120.248886,-52.919724,-82.646805,-94.616158,-102.352433,-47.401451,-71.636959,-80.405262,-86.123097,6.049515,14.355329,23.356859,32.446631,22.539333,30.140377,34.217941,36.801838,22.985789,31.266692,34.269058,35.28384,21.152011,28.19351,30.338707,31.018492,17.426436,24.165431,26.951474,28.297386,28.256035,56.856834,81.155136,100.67981,56.070328,90.284569,107.461922,117.899757,50.581718,88.106392,100.929634,104.636192,45.248417,79.984406,91.22612,94.999569,39.981537,66.83107,76.76984,81.325928,-19.680844,-24.49708,-22.861101,-21.947628,0.204394,4.949012,3.773185,2.917164,17.876362,23.280745,19.381985,16.76951,31.134163,37.560899,32.903596,29.250973,40.419165,46.343462,43.376095,39.797005,51.638329,290.715057,-92.954544,250.85692
100,-1.896607,1.808337,2.380394,10.634175,-23.216926,-46.795074,-67.813774,-84.12442,-55.52964,-80.538769,-95.085594,-106.445984,-55.30957,-82.153862,-97.373932,-108.419082,-52.554565,-78.057941,-88.358322,-94.751861,-47.552444,-70.200771,-79.043014,-85.001037,8.796506,18.094982,27.155089,37.111392,22.180402,29.137944,31.664944,32.175373,20.599443,28.951841,30.202151,28.937119,17.582651,24.828815,25.180187,23.657484,13.290467,19.951891,22.199804,22.857989,28.201424,56.041843,79.822403,99.894241,55.547047,89.064903,108.072693,120.613129,48.938896,86.128715,103.640694,111.858032,42.869064,77.482704,93.624275,102.043167,37.156403,63.881081,77.579887,86.10878,-18.022377,-21.049123,-18.030627,-16.671377,5.367148,12.23982,12.68698,13.092841,23.005066,30.323725,28.213627,26.175629,35.669903,44.567161,41.871929,38.577828,43.542636,52.658491,51.557308,48.408976,49.275558,292.432819,-91.040314,261.40052
101,-3.045616,3.841863,2.509209,8.393733,-18.62265,-40.167412,-60.907173,-78.094574,-51.622627,-69.573429,-77.161056,-83.190765,-52.980217,-71.515926,-78.78566,-83.474545,-51.485733,-69.80389,-72.921318,-73.662575,-47.718201,-65.701435,-69.555576,-70.929989,8.052797,15.610974,23.563624,32.454634,17.857305,23.831361,26.233156,26.364623,16.365341,23.757718,24.973942,23.151489,13.621548,19.802406,19.907925,17.912486,9.738756,15.373407,17.119734,17.202331,27.818905,54.69675,78.086357,98.372062,55.44239,88.538383,107.983772,121.588623,48.61639,85.081878,105.207893,116.99794,42.15168,76.009552,94.481964,106.134544,35.908332,62.347904,77.198204,87.942558,-16.860542,-18.477255,-14.248846,-12.739888,8.717133,17.116646,19.441537,21.296062,26.175679,34.592297,34.989599,34.58438,38.622499,48.945748,48.876698,47.144105,46.224617,57.075338,57.846551,56.21571,45.715279,296.252585,-89.045768,269.772156
102,-12.727066,1.281111,3.113022,6.322649,-12.590446,-28.510872,-44.665649,-59.009697,-41.398407,-48.256565,-48.42025,-49.976944,-43.500252,-50.289059,-50.690266,-50.287422,-43.527088,-51.603848,-49.690979,-47.547592,-41.599709,-54.302856,-56.848434,-58.037052,-2.382936,0.349792,6.414337,13.760079,10.300488,18.433091,20.58634,20.246602,16.294897,25.213496,25.644526,23.221107,19.834245,27.791403,27.154509,24.938917,21.330779,28.928846,30.547497,30.601331,27.086425,53.227088,76.53067,96.468498,54.911476,87.92871,107.25904,120.888496,47.864593,84.277587,105.829147,119.545898,40.849639,74.793434,94.722862,108.189079,33.957492,60.652462,76.318931,88.57798,-16.021564,-16.882167,-11.962932,-10.12067,11.43178,21.341387,24.915402,27.768321,28.784424,38.319404,40.520448,41.438578,41.107929,52.678054,54.415007,53.934984,48.597624,60.610562,62.543374,61.987979,32.546814,297.519638,-86.374145,276.080747
103,-13.376724,1.806644,2.749179,4.896462,-5.719849,-15.344078,-27.059384,-38.697762,-30.180588,-25.85368,-18.549752,-15.683682,-33.457043,-27.788166,-21.770806,-16.833893,-35.317887,-32.515194,-27.216042,-23.644318,-35.337742,-41.908219,-44.098767,-46.033448,-13.096397,-15.24278,-10.556751,-4.50174,2.535793,13.085493,15.126826,14.632057,15.48425,26.884561,27.5136,25.316484,25.168604,35.846905,35.455852,33.731114,32.276471,42.382643,43.98824,43.854513,26.212475,51.707005,75.149105,95.057774,54.468373,87.740399,106.808293,120.368077,47.416672,83.819584,105.607167,119.909741,40.08759,74.144383,94.460049,108.530056,32.845677,59.602146,75.586933,88.696095,-15.77024,-16.61501,-11.308451,-9.565484,13.024286,24.199233,28.541498,31.831411,30.184466,40.837129,44.033836,45.462716,42.424645,55.050604,57.67922,57.451274,50.068568,63.120357,65.683049,65.436937,18.803261,299.323886,-83.991795,280.974813
104,-15.114807,0.952439,2.147587,3.506016,2.804603,0.191505,-7.240448,-16.415429,-15.553139,-0.011467,13.49327,19.555984,-21.163479,-2.50573,10.239441,19.059173,-25.628861,-11.337685,0.615577,7.949524,-28.266049,-27.105572,-24.812027,-23.723156,-18.270268,-23.326811,-20.087434,-15.277954,0.275308,12.87375,14.754112,14.440976,15.626584,28.472744,29.275845,27.758008,26.777831,38.245945,37.463048,35.876298,35.059167,45.46011,45.78488,44.617352,25.385159,50.343716,73.732613,93.488503,54.787434,88.088265,106.656075,119.799065,47.644787,83.912979,105.390518,119.778008,39.836804,73.767105,93.933563,107.992264,32.049339,58.805512,74.638367,87.987511,-15.878859,-16.898285,-11.267413,-9.420161,13.419019,25.916549,31.183414,34.963602,30.257788,41.720604,45.832773,47.800302,42.311234,55.418784,58.837126,59.002654,50.066419,63.429529,66.450458,66.563968,3.388682,300.250128,-82.14398,284.454632
105,-15.929913,0.162848,1.637135,2.145394,11.072628,15.93774,13.260006,7.003475,-0.929066,22.003956,38.850987,46.553616,-8.873268,18.461781,35.537029,46.610172,-16.121281,7.25584,24.212688,34.162457,-21.76601,-13.084259,-5.965942,-1.462303,-22.080663,-29.206821,-27.605608,-24.332342,-1.874384,11.863304,14.654558,15.834559,15.619223,29.469236,31.579618,31.666933,27.954313,39.894632,39.747777,39.364455,37.051198,48.023888,47.586078,45.708532,25.028011,49.603786,72.902767,92.41856,55.40665,88.235218,106.199695,118.780048,48.213672,83.887996,104.7281,118.851162,39.964943,73.460987,93.015117,106.563526,31.719761,58.407325,73.907856,86.930362,-16.119759,-17.309455,-11.37098,-9.136665,13.831599,27.152459,33.099555,37.219197,30.475348,42.570673,47.356095,49.752221,42.339936,55.583535,59.533437,60.006507,50.140483,63.326382,66.585889,66.885712,-12.756208,300.3842,-80.721822,286.57125
106,-8.348671,-2.170366,0.943474,0.839485,13.425945,20.988087,20.228314,15.283894,4.47456,31.605457,48.666699,55.318646,-4.715538,27.598194,44.652844,54.907322,-13.501808,14.572002,31.982266,41.375416,-20.591766,-9.452064,-2.23732,1.694824,-22.172363,-27.96833,-25.526386,-20.742433,0.340837,16.022478,18.435387,19.331077,18.317988,34.069493,35.673608,35.501744,30.568467,44.138058,43.035233,42.206653,39.324366,51.824873,50.471699,47.647655,24.792366,49.508583,72.840007,92.452022,55.471687,88.18832,105.998622,118.441555,47.917236,83.645336,104.2653,118.159091,39.267414,72.834949,92.212268,105.496089,30.799221,57.759944,73.151516,85.692958,-16.46681,-17.534289,-11.207947,-8.656531,14.193579,28.655674,35.249827,39.808156,31.132297,44.121052,49.405356,52.210986,43.032182,56.727152,60.837185,61.523504,50.654419,63.629786,66.623223,66.705265,-21.231302,298.176524,-79.904771,287.373425
107,0.55291,3.01873,0.19432,0.140371,12.052082,19.560574,20.569164,17.253994,3.322769,30.558414,47.438747,54.586521,-5.937218,26.074871,44.015453,54.917576,-13.888264,13.423954,30.903751,40.666042,-19.841675,-8.23431,-0.150078,4.581058,-22.036462,-28.176602,-25.261093,-20.389331,-0.650343,13.654511,16.742352,18.53204,16.858678,31.379806,33.665226,33.966321,28.944567,40.989047,40.413385,39.8653,37.873059,48.93798,46.806047,43.490173,24.803513,49.744068,73.072209,92.84087,55.669682,88.329472,105.959713,118.306309,47.833946,83.653439,103.969425,117.646076,38.901432,72.48032,91.626858,104.655247,30.31445,57.411816,72.639416,84.675946,-16.64885,-17.597521,-10.896144,-7.975869,14.353364,29.519241,36.530037,41.339628,31.443223,45.318269,51.017956,54.079035,43.269749,57.553508,61.880471,62.71457,50.668831,63.578854,66.326019,66.162059,-20.716066,301.155024,-79.748125,287.473566
108,6.145958,-0.08109,-0.251884,-0.450914,10.305439,15.582767,14.783352,10.262432,-3.9604,22.86478,40.123112,47.71558,-13.793026,18.506847,36.583546,47.480175,-21.165184,5.936016,23.166057,32.689373,-26.020603,-15.673576,-8.326595,-4.06398,-21.692488,-27.67183,-24.651382,-19.748066,-0.845746,14.124813,17.287003,18.764381,16.991675,31.590831,33.814389,33.688888,29.290764,41.280199,40.550754,39.615223,38.225987,49.119476,46.865438,43.478563,24.923813,50.152725,73.385021,93.108249,56.037746,88.431186,105.996814,118.326473,47.860668,83.632267,103.77071,117.331707,38.571476,72.089596,91.121189,103.991169,29.730697,56.883087,72.081562,83.841694,-16.582591,-17.103753,-10.018757,-6.841575,14.789891,30.638937,37.98258,42.928985,31.922802,46.430666,52.283518,55.428183,43.606745,58.285843,62.5906,63.467666,50.735707,63.683731,66.196479,65.884775,-14.539862,301.031249,-79.969763,286.979967
109,6.066284,2.571509,-0.077717,-0.747415,6.646534,8.785458,7.008556,2.174137,-12.227714,13.738072,32.013302,41.55154,-21.489418,9.359837,28.863087,41.499241,-27.205387,-2.036282,15.700321,26.506085,-29.938785,-23.143478,-17.814377,-14.580929,-21.159631,-27.120966,-23.684556,-18.346294,-2.759836,11.176923,15.201556,17.266712,14.786383,28.177701,30.868537,31.109117,27.182297,37.911258,37.989767,37.700825,36.457604,46.103883,44.706854,42.472254,25.18222,50.697109,74.015465,93.795387,56.003162,88.389404,105.987694,118.478073,47.533241,83.440636,103.51355,117.055778,38.067295,71.651596,90.63945,103.505379,29.15395,56.371296,71.650543,83.304199,-16.298428,-16.354362,-8.903507,-5.700699,15.704254,31.71684,39.067918,43.99665,32.943512,47.542791,53.290124,56.378312,44.554355,59.324214,63.437594,64.241412,51.442527,64.373619,66.567229,66.012018,-8.345158,303.567409,-79.91906,286.197203
110,1.333443,0.164725,-0.331581,-0.452717,6.187259,7.888973,5.311786,-0.266041,-13.984337,12.406254,30.482219,39.634632,-23.274845,8.18922,27.224865,39.409847,-28.874462,-3.195156,13.950565,24.133518,-31.286076,-24.806042,-20.25063,-17.658188,-21.06698,-27.435831,-24.422053,-19.543733,-3.006541,11.916348,15.811033,17.203517,14.801957,28.658811,30.933499,30.46963,27.356223,38.30446,37.946246,36.953065,36.717388,46.467124,44.744164,42.025355,25.36552,51.131515,74.506141,94.274643,55.917709,88.374573,106.06311,118.784477,47.256145,83.319763,103.4282,117.141678,37.725139,71.343612,90.463806,103.636436,28.72942,55.842487,71.211433,83.0102,-16.156871,-16.082178,-8.476343,-5.108105,16.234332,32.195591,39.296888,43.994563,33.485372,48.174276,53.776569,56.790014,44.958759,59.996738,63.9695,64.717236,51.593248,64.807725,66.869904,66.189897,-6.816908,303.69496,-80.055834,285.707312
111,-2.887287,0.736349,-0.360787,-0.175111,6.846611,9.363968,7.199318,1.595146,-11.01455,16.20417,34.018982,42.82006,-19.936959,11.85173,30.245979,41.902931,-25.639996,0.380928,16.781433,26.331253,-28.210511,-21.968434,-18.280518,-16.435627,-21.494614,-28.192657,-25.692061,-21.303929,-3.61803,11.236081,14.94959,15.9198,14.247821,27.720267,30.030164,29.473608,26.71003,37.258001,36.89061,35.706126,35.930873,45.289593,43.748908,41.155835,25.66499,51.41193,74.75766,94.519661,55.866658,88.299408,106.024224,118.858567,47.06218,83.186692,103.253357,116.974686,37.479962,71.120224,90.239113,103.462029,28.449887,55.455208,70.858086,82.71341,-15.911402,-15.812527,-8.123922,-4.632331,16.594497,32.513444,39.327664,43.794948,33.805151,48.481594,53.918014,56.908895,45.19278,60.224077,64.106474,64.8756,51.704126,64.966348,66.955638,66.279051,-9.469328,304.390952,-80.181754,285.491844
112,-0.827797,-2.204144,-0.326465,0.12213,7.662574,10.133903,5.738205,-2.046227,-10.740887,17.208664,34.893425,42.748558,-19.603672,13.866851,31.071441,41.5028,-25.88102,2.086898,17.884712,26.419944,-29.182057,-22.415932,-19.412499,-18.531727,-21.74742,-27.705495,-24.829099,-19.71057,-2.17044,13.92315,16.726347,16.338653,15.890036,29.917877,31.680444,30.46175,28.139219,39.602096,38.520426,36.602607,36.787117,47.30236,45.859808,43.047596,25.754242,51.584244,74.967029,94.724659,55.704929,88.279255,106.05875,119.007763,46.868442,83.221401,103.360576,117.180919,37.329563,71.098423,90.26913,103.621296,28.335296,55.277492,70.733768,82.710193,-15.879811,-15.825915,-7.990022,-4.340968,16.657581,32.326563,38.812628,43.031774,33.928973,48.408358,53.667752,56.60575,45.314193,60.229178,63.944787,64.626511,51.737508,65.002287,66.898988,66.13905,-10.039896,302.148421,-80.25099,285.575587
113,-3.895661,2.304847,-0.077671,0.145607,7.851059,12.328858,10.855522,4.987725,-4.751816,22.306023,38.128464,45.234787,-13.230446,18.193314,34.061486,43.935608,-19.283066,6.907448,21.203636,29.500511,-22.736183,-15.307708,-11.583801,-9.57621,-21.244698,-27.418282,-24.198146,-18.567756,-4.434556,8.63288,12.288418,13.384896,13.586671,25.445443,28.467323,28.318961,26.201799,35.956771,35.647142,34.304589,35.420357,44.480007,42.890329,40.011587,25.747009,51.553573,74.965919,94.708832,55.230526,88.037567,105.815483,118.744446,46.432594,83.105873,103.250061,117.083748,37.069187,71.045768,90.213272,103.66571,28.260429,55.185516,70.616638,82.657905,-15.871671,-15.913847,-7.975683,-4.061979,16.735992,32.158021,38.317008,42.315532,34.093181,48.407926,53.477326,56.35886,45.489194,60.303044,63.905662,64.527118,51.806052,65.06489,66.946116,66.137211,-13.598568,304.411188,-79.991672,285.679114
