takenoko1/special-research/HandMotion_SimilarSearch_自分用/NewProject/handData/key/d4_feature_d3/120.csv
,vel_0x_L,vel_0y_L,vel_0x_R,vel_0y_R,posFromWrist_1x_L,posFromWrist_2x_L,posFromWrist_3x_L,posFromWrist_4x_L,posFromWrist_5x_L,posFromWrist_6x_L,posFromWrist_7x_L,posFromWrist_8x_L,posFromWrist_9x_L,posFromWrist_10x_L,posFromWrist_11x_L,posFromWrist_12x_L,posFromWrist_13x_L,posFromWrist_14x_L,posFromWrist_15x_L,posFromWrist_16x_L,posFromWrist_17x_L,posFromWrist_18x_L,posFromWrist_19x_L,posFromWrist_20x_L,posFromWrist_1y_L,posFromWrist_2y_L,posFromWrist_3y_L,posFromWrist_4y_L,posFromWrist_5y_L,posFromWrist_6y_L,posFromWrist_7y_L,posFromWrist_8y_L,posFromWrist_9y_L,posFromWrist_10y_L,posFromWrist_11y_L,posFromWrist_12y_L,posFromWrist_13y_L,posFromWrist_14y_L,posFromWrist_15y_L,posFromWrist_16y_L,posFromWrist_17y_L,posFromWrist_18y_L,posFromWrist_19y_L,posFromWrist_20y_L,posFromWrist_1x_R,posFromWrist_2x_R,posFromWrist_3x_R,posFromWrist_4x_R,posFromWrist_5x_R,posFromWrist_6x_R,posFromWrist_7x_R,posFromWrist_8x_R,posFromWrist_9x_R,posFromWrist_10x_R,posFromWrist_11x_R,posFromWrist_12x_R,posFromWrist_13x_R,posFromWrist_14x_R,posFromWrist_15x_R,posFromWrist_16x_R,posFromWrist_17x_R,posFromWrist_18x_R,posFromWrist_19x_R,posFromWrist_20x_R,posFromWrist_1y_R,posFromWrist_2y_R,posFromWrist_3y_R,posFromWrist_4y_R,posFromWrist_5y_R,posFromWrist_6y_R,posFromWrist_7y_R,posFromWrist_8y_R,posFromWrist_9y_R,posFromWrist_10y_R,posFromWrist_11y_R,posFromWrist_12y_R,posFromWrist_13y_R,posFromWrist_14y_R,posFromWrist_15y_R,posFromWrist_16y_R,posFromWrist_17y_R,posFromWrist_18y_R,posFromWrist_19y_R,posFromWrist_20y_R,posFromBody_0x_L,posFromBody_0y_L,posFromBody_0x_R,posFromBody_0y_R
6,3.02988,-0.091279,1.136398,0.066419,8.622574,19.149983,29.913563,36.248692,-1.991844,21.791554,40.38406,50.93446,-13.613559,13.911244,33.092343,47.829953,-20.6273,-1.04821,15.230656,26.700314,-23.976848,-25.179954,-25.829235,-25.091766,-20.806295,-27.571399,-22.639221,-15.239286,-4.788523,8.435773,13.31529,16.036125,13.897436,26.262166,29.088532,28.98668,27.343193,36.621094,36.53573,36.08137,37.495047,43.282938,41.798619,39.304087,27.309048,53.258709,76.605492,98.259247,55.467053,87.6232,104.121826,115.193344,46.006119,81.506951,100.281739,112.235916,36.399353,69.797196,87.073975,97.69867,27.716595,54.475926,69.082856,79.255532,-13.936487,-12.658513,-4.457243,0.25104,18.538672,33.616603,39.370754,42.712871,35.242245,49.078363,52.882732,53.582191,46.043689,60.734198,63.286318,62.12499,52.079334,65.793953,66.537613,64.122987,-17.729925,314.681721,-75.10441,297.550847
7,-1.016727,0.89233,0.104176,0.423781,8.74538,19.604439,30.625625,37.275261,-1.28429,22.869255,41.375061,51.828621,-12.94693,15.163582,34.398811,48.820999,-19.922585,0.198154,16.312614,27.298576,-23.172581,-23.174355,-22.800156,-21.405476,-21.050135,-28.360667,-24.040189,-17.047424,-4.641013,8.189216,12.642014,15.093715,13.876367,25.774931,28.340697,28.215307,27.142517,36.075603,35.881942,35.486628,37.018248,43.013336,41.139273,38.288874,27.184467,53.094257,76.483761,98.273884,55.416984,87.463955,103.899502,114.952961,46.042213,81.519161,100.201046,112.064403,36.488788,69.928173,87.097057,97.53091,27.826458,54.730465,69.286732,79.254307,-14.338742,-13.04312,-4.718028,0.013005,18.229895,33.208927,38.959681,42.395017,34.991241,48.47768,52.18531,52.998415,45.890152,60.231525,62.717497,61.6196,52.071949,65.601649,66.184882,63.701651,-19.474937,316.187223,-75.728519,298.5878
8,3.098648,0.403514,0.123333,-0.004335,8.646744,17.579681,26.483482,31.96907,-5.260586,18.263031,37.699951,48.296471,-16.276463,11.478676,31.617691,47.073349,-22.576904,-2.267349,14.764915,26.151947,-25.48122,-25.192143,-24.157436,-22.388226,-21.825127,-29.677198,-26.073185,-19.662109,-4.956347,7.714726,11.507807,13.327085,13.411486,25.252078,26.910731,26.75491,26.562977,35.81314,35.093562,34.910867,36.040295,42.625371,40.243337,37.173328,27.202537,53.063816,76.358688,98.13034,54.794964,86.870453,103.498192,114.714477,45.488422,81.181251,100.071808,112.130104,36.092022,69.741714,87.049164,97.614921,27.615131,54.589039,69.123482,79.041939,-14.263925,-12.874603,-4.56459,-0.009794,18.068677,33.065506,38.833809,42.209704,34.894701,48.401418,52.129031,53.002305,45.880297,60.182149,62.638704,61.529284,52.106467,65.617136,66.188513,63.658154,-16.715813,316.966155,-75.94471,298.958883
9,-2.111057,2.451949,0.091015,0.177656,8.241073,17.407711,27.469837,33.755802,-3.222016,20.465366,39.176685,49.584812,-13.84314,13.993549,34.18713,49.372066,-19.939053,1.003257,17.870578,29.219295,-22.747811,-20.291645,-17.672402,-14.809937,-22.275115,-30.680631,-27.017992,-20.94406,-6.795176,4.915703,8.962207,11.441499,11.418651,22.861089,25.155141,25.31736,24.739154,33.338911,33.292154,33.282126,34.561384,40.282547,38.056495,35.219792,27.177681,53.039154,76.240368,97.926143,54.370926,86.551906,103.209812,114.50378,45.023277,80.855175,99.89764,112.0918,35.71994,69.406734,86.877422,97.654575,27.374622,54.342212,68.907634,78.871731,-14.386846,-12.998635,-4.600999,-0.076941,17.918265,32.793865,38.580262,42.024786,34.821724,48.305025,51.99854,52.860218,45.84605,60.142246,62.544757,61.381577,52.005036,65.493574,66.047067,63.49044,-18.967552,319.594154,-75.994377,299.312589
10,-2.57119,1.089623,0.091152,0.259376,9.918926,20.161022,30.205021,36.981914,0.548355,24.884205,43.328098,53.766277,-9.964279,18.042675,38.436527,54.142536,-16.454464,5.688171,22.584148,34.138492,-20.057808,-14.530976,-9.970997,-5.732323,-21.336299,-30.075514,-28.159473,-23.324564,-7.866842,3.863587,8.198392,10.713363,9.372107,21.824028,24.556558,25.19502,22.466245,32.634216,32.957393,32.919354,32.218388,39.838797,38.425527,35.547575,27.1054,53.025707,76.228294,97.781776,54.11356,86.362015,103.037361,114.358704,44.720329,80.674484,99.80571,112.071533,35.422886,69.183609,86.739441,97.617187,27.105812,54.099152,68.681351,78.666412,-14.427181,-13.130434,-4.815778,-0.357337,17.697063,32.498304,38.315501,41.78338,34.615034,48.098508,51.878349,52.774657,45.661503,59.97142,62.400224,61.194128,51.783204,65.312868,65.937313,63.365297,-21.648645,320.784289,-76.013128,299.672477
11,0.374279,0.286114,0.036186,-0.027417,10.594345,20.587486,30.425422,36.860939,1.447815,25.354683,43.659714,54.042801,-9.079468,18.1306,38.364601,53.967338,-15.986,5.849476,22.609955,34.301399,-20.312531,-12.751763,-6.300636,-0.635182,-21.040255,-30.158444,-28.73858,-23.871672,-8.841844,3.153013,7.580197,10.339082,8.642131,21.343437,24.158836,25.001495,21.963053,32.136285,32.677701,32.947019,31.980007,40.129073,38.128249,34.546182,26.954327,52.787201,75.920654,97.409935,53.807888,86.124527,102.883347,114.311417,44.358948,80.466133,99.733406,112.08934,35.032425,68.865875,86.546242,97.503594,26.708782,53.714241,68.350044,78.36628,-14.368209,-13.002722,-4.677717,-0.225821,17.865,32.574713,38.406039,41.906003,34.775547,48.221354,52.029094,52.951374,45.753993,60.044014,62.477227,61.269451,51.760603,65.338716,66.037225,63.494528,-21.34247,321.118194,-76.045046,299.692851
12,-4.232781,-1.122857,-0.022224,-0.094441,12.177212,23.757706,34.374642,40.878365,5.961548,30.459847,48.709442,58.981728,-4.600799,22.789582,42.957894,58.334977,-12.084629,10.232861,27.221123,38.894371,-17.088661,-9.0886,-2.326961,3.462674,-20.716782,-29.115628,-27.326262,-22.500331,-8.48221,3.939923,8.626273,11.377587,9.027972,22.277004,25.363463,26.091661,22.393392,33.226316,34.01477,34.137159,32.470034,41.022108,39.313276,35.79086,26.898708,52.676181,75.762611,97.108497,53.539203,85.86985,102.658699,114.175049,44.003814,80.120155,99.439682,111.854347,34.66048,68.46817,86.255081,97.336326,26.388782,53.330486,68.006653,78.085235,-14.306274,-12.958855,-4.617757,-0.021514,18.044755,32.784986,38.551202,41.999037,34.920068,48.37074,52.14253,53.018385,45.859697,60.189436,62.622106,61.40976,51.777498,65.469862,66.258859,63.784483,-25.609097,320.023159,-76.101116,299.626232
13,-10.072883,-1.265637,0.054187,0.329896,14.814869,30.20224,43.607734,50.897781,15.700229,42.345039,60.256256,70.183525,5.406852,34.454704,54.095695,68.645851,-2.599263,21.530044,38.093193,48.929855,-8.439011,1.465072,8.525963,14.262451,-20.47073,-28.42816,-26.227141,-21.395381,-8.263427,4.600048,9.689035,12.675248,9.376245,23.424229,26.818377,27.353902,22.956951,34.70325,35.658616,35.45784,33.11356,42.396043,40.719951,36.883176,26.616429,52.299809,75.382222,96.631337,53.26569,85.759884,102.55029,114.057736,43.727738,80.050747,99.364941,111.65601,34.429104,68.473561,86.273404,97.284932,26.286038,53.502125,68.229321,78.296139,-14.454166,-13.273511,-4.853311,-0.001581,17.852464,32.574293,38.280587,41.744328,34.827145,48.133433,51.807558,52.610054,45.860783,60.067639,62.328791,61.018163,51.809188,65.399886,66.009375,63.423527,-35.686352,318.774423,-76.051301,299.973029
14,-7.203266,-3.14974,-0.034469,0.214187,17.697578,36.350246,50.768497,57.920093,22.631939,51.022625,69.433399,79.207019,12.032741,42.838016,61.911655,75.96738,3.040969,28.42012,44.423961,54.211315,-3.926983,6.059784,12.100891,16.853508,-20.021879,-27.31117,-25.426164,-20.911036,-5.880183,8.268294,13.209315,15.627622,11.861069,26.588196,29.60973,29.765897,25.240012,38.049591,38.488921,38.154147,34.943027,45.678719,43.859885,39.577222,26.340019,51.961315,75.067921,96.224682,52.987552,85.56039,102.449604,113.983967,43.489975,80.011059,99.325458,111.502865,34.230423,68.548839,86.333187,97.195164,26.180534,53.690071,68.4398,78.393528,-14.553609,-13.395443,-4.912566,0.009892,17.777301,32.554978,38.160384,41.505552,34.796468,47.967473,51.533522,52.302908,45.894512,59.936753,62.020953,60.659183,51.883808,65.357649,65.800547,63.141155,-42.885973,315.634856,-76.082125,300.197389
15,-1.611294,-4.041391,-0.027134,0.243655,18.571152,38.118187,53.180397,59.696182,22.870823,51.954002,71.011619,80.704788,11.970394,43.867447,62.703003,76.380066,2.657409,28.272171,44.338829,53.558372,-4.50848,4.504429,9.497566,13.22295,-20.251246,-26.913065,-24.200444,-18.55117,-2.258423,13.12668,17.105432,18.533089,16.36581,31.025691,32.975522,32.180177,29.682447,42.203726,41.706043,41.16669,38.909576,49.987921,47.128507,42.141309,26.117535,51.680157,74.770569,95.846374,52.788093,85.364319,102.299194,113.845024,43.324997,79.929314,99.21302,111.264633,34.119301,68.581192,86.311134,97.025757,26.184322,53.901318,68.637085,78.471405,-14.757756,-13.593637,-5.000845,-0.029776,17.62537,32.43428,38.00292,41.311519,34.690307,47.794152,51.26681,52.01357,45.853769,59.80168,61.72008,60.313665,51.908952,65.26175,65.528401,62.818089,-44.475145,311.593175,-76.087137,300.440754
16,0.373718,-0.396018,-0.009556,0.501388,18.063286,37.589722,52.545891,58.99054,21.307205,50.259064,69.526703,79.588738,10.067585,42.202858,61.320053,75.29599,0.927692,26.334492,42.333458,51.423454,-5.753952,1.710297,5.135204,7.715149,-19.85046,-26.515182,-23.687779,-18.003123,-1.380826,14.219391,18.173047,19.457295,17.120561,31.775737,33.597942,32.468823,30.191456,42.69836,42.042163,41.26575,39.151577,49.787258,47.268026,42.763432,25.88617,51.493275,74.685345,95.737026,52.59708,85.242153,102.233379,113.751217,43.243057,80.016346,99.290234,111.196987,34.17675,68.866139,86.505169,96.997822,26.415356,54.39616,69.068539,78.679012,-15.021652,-14.03593,-5.462132,-0.49504,17.121352,31.937585,37.530653,40.859544,34.322485,47.331691,50.782329,51.526891,45.641348,59.451333,61.161449,59.613947,51.831246,64.989839,65.021678,62.148381,-44.075501,311.18452,-76.070767,300.929505
17,5.243774,1.513083,0.084503,0.301849,15.51495,32.942986,46.580269,52.55452,16.921933,45.661263,63.92585,73.692193,5.015923,36.912278,55.282174,68.542305,-4.121189,20.341427,35.598519,44.714081,-10.480098,-2.749202,1.222229,4.334668,-19.517713,-26.854847,-24.263158,-18.104456,-0.932234,13.859546,17.655467,19.091868,17.741572,30.949677,32.947228,31.776564,30.741467,41.319831,40.578418,39.612247,39.939363,48.890456,45.95557,41.281941,25.702046,51.245819,74.473286,95.584591,52.287873,85.134144,102.237728,113.720021,43.029408,80.077755,99.343838,111.035534,34.06168,69.053341,86.617939,96.845066,26.417622,54.707875,69.353405,78.768894,-15.091751,-14.185861,-5.630489,-0.755121,16.828284,31.611271,37.247577,40.653433,34.148076,47.112081,50.487445,51.231192,45.578127,59.280012,60.777398,59.141642,51.860663,64.847183,64.672194,61.684154,-38.804736,312.660633,-75.959273,301.194384
18,5.447091,0.884117,-0.106338,0.168282,14.587234,29.843216,42.203636,47.957817,11.757717,38.766311,57.270401,67.447769,-0.511631,29.905861,48.641418,62.642166,-9.672295,13.433498,28.798553,38.550682,-15.888268,-9.34203,-5.821095,-2.776669,-19.577153,-27.545624,-25.499042,-19.129277,-1.855649,12.949074,16.696163,18.268378,16.910808,30.024594,31.955196,30.858398,29.998437,40.294861,39.61468,39.020011,39.37063,48.166075,45.200511,40.598006,25.728458,51.337692,74.617641,95.723339,52.251343,85.161999,102.213192,113.598758,43.010135,80.141178,99.323421,110.854603,34.053966,69.096393,86.595005,96.689953,26.449184,54.778106,69.371761,78.659694,-15.160097,-14.300494,-5.758559,-0.967987,16.680034,31.482892,37.111578,40.52393,34.001592,46.917407,50.248978,50.980967,45.408647,59.061478,60.536411,58.942596,51.639202,64.594463,64.457464,61.550168,-33.332531,313.471227,-76.040497,301.289143
19,5.205391,0.052809,-0.008286,0.123711,13.672966,26.925773,38.157302,43.55104,6.176902,31.78379,50.794464,61.51609,-6.308316,22.957763,42.61885,57.53675,-15.204094,7.126007,23.63095,34.654174,-21.038956,-14.788514,-10.445961,-6.524735,-19.356358,-27.646919,-25.873978,-19.17885,-2.704322,12.509213,16.329427,17.828715,16.278767,29.875208,31.917479,30.716952,29.661131,40.170249,39.705774,39.114181,39.406705,48.494118,45.469669,40.71695,25.651554,51.225334,74.561062,95.719357,52.112892,85.159275,102.234799,113.587063,42.885773,80.159054,99.353657,110.803379,33.942089,69.074101,86.533207,96.490368,26.379719,54.757691,69.31921,78.509663,-15.100125,-14.284995,-5.777999,-1.040816,16.652913,31.399961,36.993931,40.416423,33.953847,46.836329,50.173963,50.928096,45.310204,58.978868,60.432399,58.836126,51.494422,64.449596,64.333073,61.459419,-28.101619,313.418393,-76.023262,301.307211
20,1.051059,-0.193229,0.057186,-0.024441,13.445904,26.241772,36.960308,41.948033,4.879418,29.892437,49.202168,60.185406,-7.703659,21.061878,41.160725,56.405079,-16.694252,5.341404,22.543843,34.24664,-22.626743,-16.331268,-11.240627,-6.656387,-19.536719,-27.807656,-26.053845,-19.346454,-3.486169,11.867009,16.011771,17.644155,15.73829,29.467432,32.042993,31.103868,29.456614,40.081093,39.92689,39.451115,39.639417,48.714529,45.782052,41.104915,25.674557,51.168091,74.455536,95.577851,51.922028,85.019944,102.06221,113.415619,42.701157,79.912148,99.051453,110.458123,33.772728,68.784256,86.218506,96.185784,26.235054,54.468327,69.013436,78.238701,-14.941858,-14.225492,-5.776566,-0.933851,16.814748,31.506295,37.053112,40.454313,34.097972,46.952099,50.274814,51.003593,45.394346,59.056908,60.571313,59.008681,51.502437,64.505518,64.502455,61.702358,-27.009556,313.089489,-75.925072,301.147095
21,2.131302,-0.249385,0.179982,0.122871,12.708424,24.602245,33.875622,37.85899,2.650898,26.960781,46.653935,57.828266,-9.994354,18.273617,38.908276,54.42564,-18.960079,2.815476,20.929699,33.34306,-24.865906,-18.662269,-12.297478,-6.589222,-19.614883,-27.787179,-25.930505,-19.23229,-3.445513,11.763157,15.932174,17.530386,15.931347,29.314069,32.242693,31.646135,29.8161,40.168544,40.244806,39.957419,40.272322,49.361995,46.45497,41.908584,25.666133,51.012874,74.223209,95.295215,51.700767,84.780017,101.786258,113.123828,42.460006,79.616741,98.685985,110.001926,33.513977,68.442501,85.841114,95.76939,25.997509,54.169201,68.693035,77.925762,-14.837253,-14.257367,-5.878627,-0.875362,16.902286,31.54237,37.033328,40.383102,34.135862,46.968462,50.210668,50.886353,45.36967,59.057933,60.548008,58.993219,51.431301,64.473655,64.499948,61.736024,-24.832026,312.690313,-75.698862,301.120175
22,-0.591419,1.459545,0.106979,0.138926,12.336491,23.905815,33.882042,38.249657,1.65493,25.482078,45.893166,57.532837,-10.089821,17.6567,39.035179,55.213325,-18.139778,4.049251,22.968246,35.715591,-23.350033,-16.711166,-9.664501,-3.436981,-20.568037,-28.90212,-26.315568,-19.718512,-5.208512,9.211926,13.956099,16.314162,14.261961,27.289841,30.502048,30.237892,28.362075,38.294085,38.458082,38.454427,38.843355,47.318081,44.102267,39.715148,25.582981,50.847805,74.016529,95.01067,51.487644,84.572445,101.596058,112.96764,42.194801,79.363232,98.468845,109.854824,33.227039,68.152233,85.61935,95.633594,25.732532,53.882114,68.430119,77.719425,-14.833276,-14.316907,-5.975797,-0.850772,16.922762,31.524771,36.957659,40.233308,34.090698,46.936377,50.19013,50.860208,45.250702,58.999728,60.514231,58.960084,51.245024,64.349759,64.432146,61.681832,-25.369486,314.006356,-75.537924,301.115599
23,2.375427,2.948409,0.214806,0.005212,9.224716,19.124909,29.081658,33.287064,-0.805172,21.736267,40.964585,52.580246,-11.649605,14.700096,35.190514,50.678742,-18.481109,2.156983,20.287285,32.744202,-22.508652,-16.972629,-9.87006,-3.573749,-21.305979,-29.605976,-26.206739,-19.461001,-6.846688,5.742504,11.091473,14.156887,12.55297,24.168333,27.985917,28.209564,26.629606,35.160302,35.4416,35.547637,37.294211,43.972197,40.61521,36.776952,25.441108,50.621715,73.704334,94.603054,51.180896,84.324222,101.428218,112.892681,41.828533,79.049068,98.218586,109.668857,32.849945,67.788745,85.346225,95.470722,25.382183,53.522003,68.105426,77.468639,-14.784148,-14.25549,-5.923507,-0.703943,17.093774,31.595969,37.022632,40.310669,34.253534,47.14266,50.410381,51.077545,45.361877,59.200972,60.71729,59.141741,51.267971,64.446731,64.56397,61.786338,-22.926487,316.825895,-75.255546,300.991941
24,4.25734,-0.368835,0.129592,0.071519,7.926281,16.197693,24.133506,27.082855,-5.118897,16.44564,36.007507,47.962761,-16.085141,9.352455,30.185508,45.913604,-22.652413,-3.228356,15.284042,28.055786,-26.237664,-22.831238,-16.696095,-10.986889,-20.8059,-28.879346,-25.369737,-18.890625,-5.372731,7.319313,12.36158,15.21992,13.830412,24.891998,28.438016,28.634567,27.487232,35.420654,35.528902,35.663901,37.913024,43.886079,40.948773,37.843159,25.439518,50.595097,73.572545,94.372754,50.955632,84.101681,101.267498,112.839123,41.568375,78.789631,97.957158,109.420269,32.619175,67.55119,85.181157,95.439641,25.221817,53.355229,67.970089,77.421811,-14.837253,-14.440408,-6.162209,-0.738337,17.131219,31.562587,37.004268,40.327502,34.320694,47.234632,50.427585,51.023674,45.426444,59.275752,60.744498,59.134072,51.290275,64.503863,64.643999,61.859056,-18.582533,316.33937,-75.03934,300.94577
25,2.358089,1.740485,-0.181629,0.273073,5.266377,11.839611,19.184521,21.391537,-7.794605,13.771511,32.634808,44.359257,-18.291893,6.864132,27.16238,42.207584,-23.993351,-5.050323,13.267284,25.959034,-26.531982,-24.700859,-19.055431,-13.379459,-21.059237,-28.21611,-22.783247,-15.547939,-4.949951,6.29039,11.600148,15.093183,14.009575,23.526252,27.482749,27.902701,27.291718,33.32787,33.60571,33.755356,37.647954,41.395265,38.282538,35.56841,25.332058,50.632874,73.757973,94.46846,51.066719,84.204094,101.477372,113.094864,41.636341,79.006485,98.187676,109.595902,32.642029,67.771912,85.43097,95.568924,25.216633,53.610363,68.231415,77.534294,-14.961359,-14.651767,-6.482534,-0.998727,17.027762,31.371926,36.814978,40.153427,34.212371,46.999424,50.108878,50.671091,45.331385,59.040001,60.31963,58.600597,51.230612,64.33789,64.25444,61.308402,-16.150366,317.983552,-75.146891,301.12254
26,-3.520557,1.304971,-0.237865,-0.134604,6.788109,14.579681,22.993263,25.958931,-2.770844,19.362236,37.259697,48.157791,-13.159642,11.956993,31.306091,45.644874,-19.454956,-0.264347,17.125099,29.110679,-22.886513,-20.275349,-14.845322,-9.457112,-22.037388,-29.842492,-25.429412,-18.909495,-6.299617,4.665244,9.787761,13.182182,12.790709,22.371458,26.173616,26.513206,26.181681,32.101433,32.403949,32.578678,36.547389,40.130222,36.882644,33.927986,25.322227,50.732872,73.920833,94.511455,51.340565,84.341709,101.626133,113.304439,41.86845,79.068203,98.2691,109.794514,32.781223,67.758076,85.433521,95.604435,25.193333,53.484043,68.119778,77.442798,-14.867609,-14.511124,-6.51925,-1.090932,17.350668,31.594883,37.047814,40.41483,34.434068,47.259418,50.414605,50.984796,45.443252,59.223721,60.586318,58.847748,51.276295,64.433801,64.424563,61.496087,-19.601606,319.205988,-75.315439,300.905401
27,-0.853581,-1.789675,-0.276055,-0.182756,8.946476,17.531353,24.928219,27.09882,-0.085304,21.319096,39.216877,49.825573,-10.91296,13.233639,32.483082,47.070431,-18.374508,-0.215549,17.073773,29.074299,-23.160724,-22.04433,-17.71606,-13.106769,-21.81153,-29.916333,-27.300685,-21.78946,-5.829313,6.699994,11.126238,13.505741,13.205103,24.244459,27.415343,27.508573,26.440353,34.070345,34.323806,34.660321,36.621576,41.954798,39.258738,36.445093,25.37296,50.927308,74.189999,94.714428,51.629666,84.473523,101.714596,113.436345,42.137398,79.18047,98.37505,109.993206,32.995743,67.801449,85.476574,95.700726,25.302887,53.413479,68.073933,77.46793,-14.744023,-14.347227,-6.432442,-0.985734,17.808374,31.94376,37.347489,40.709082,34.839854,47.592055,50.728568,51.291806,45.748793,59.526569,60.901998,59.127662,51.487728,64.681284,64.698401,61.77857,-20.392113,317.334179,-75.52842,300.640511
28,-3.467365,-2.633544,-0.307491,-0.03295,12.604328,23.378105,30.518944,32.60939,4.912445,27.431442,45.737686,55.733688,-6.735809,18.054153,37.513596,52.246857,-15.916786,3.311863,21.063675,33.202675,-22.574673,-20.623695,-16.444233,-11.956615,-21.639913,-30.092446,-29.022101,-24.544344,-4.642828,9.700051,13.388243,14.841106,14.598069,27.12582,29.602209,29.123915,27.813065,36.845199,37.064042,37.301621,37.824313,44.770197,42.383482,39.275744,25.461743,51.153546,74.560227,95.047005,52.047787,84.755448,101.994621,113.730744,42.529473,79.434677,98.602661,110.244759,33.320217,68.023636,85.643372,95.811562,25.514237,53.527268,68.166916,77.503807,-14.681284,-14.344213,-6.59445,-1.114484,18.126858,32.199221,37.529257,40.791457,35.070998,47.733006,50.789343,51.28983,45.900168,59.637276,60.969096,59.103493,51.615514,64.826842,64.808391,61.837554,-23.804357,314.636701,-75.78079,300.543627
29,-7.63678,0.672499,-0.294399,-0.181077,15.08313,28.75866,38.436882,41.865326,14.035652,38.355057,55.227516,63.873345,2.750096,28.604668,46.557381,59.947426,-7.168648,13.70129,30.162232,41.308365,-15.052894,-10.429951,-5.760692,-1.145073,-22.768081,-31.865324,-31.755779,-27.874297,-6.679357,7.523942,11.214505,12.685795,13.021062,26.378306,28.736369,28.065513,26.657678,36.447872,36.758192,36.87432,36.842346,44.520948,41.784281,37.972243,25.483921,51.285278,74.834965,95.295879,52.461834,85.065525,102.24226,113.935009,42.916031,79.721363,98.876621,110.572666,33.613563,68.232983,85.788631,95.898365,25.648716,53.530128,68.139439,77.443371,-14.545199,-14.185157,-6.517485,-1.015449,18.395942,32.470799,37.76034,40.939695,35.264684,47.964027,51.041186,51.52048,46.024854,59.834445,61.205057,59.284211,51.725418,65.020232,65.026432,62.022385,-31.397587,315.26332,-76.031639,300.31667
30,-4.383591,-1.616107,0.055836,-0.254474,18.361462,34.628632,45.275345,49.555275,19.994385,44.932732,61.450127,69.37365,8.630265,34.769234,52.100487,65.104615,-2.458602,19.108155,34.922265,45.432885,-11.884838,-5.606163,-1.194889,2.762604,-23.002794,-33.264749,-35.717377,-33.281644,-6.941846,8.774931,11.87926,12.5525,13.092483,28.353937,29.859115,28.6298,26.905395,38.861881,38.748989,38.598836,36.903454,46.79997,44.231783,40.019219,25.608696,51.309436,74.814972,95.316879,52.561283,85.092338,102.22602,113.937584,43.045028,79.746116,98.949325,110.837677,33.748134,68.269432,85.7807,96.000755,25.721695,53.360378,67.963508,77.385864,-14.361639,-13.977588,-6.312065,-0.780142,18.683724,32.782528,38.054618,41.205359,35.487369,48.300679,51.42867,51.946188,46.175884,60.13622,61.632778,59.73888,51.8577,65.225306,65.386635,62.447859,-35.73955,313.609635,-75.934175,300.024618
31,-3.241252,-0.625482,0.013996,-0.275876,19.009792,36.724422,48.14558,52.735233,23.228862,49.880642,65.812213,72.887249,12.372413,40.302738,56.44717,67.851001,1.258174,24.426818,39.088199,48.111499,-8.289322,-1.372101,1.999019,4.530155,-23.137929,-32.962099,-34.838817,-32.331392,-5.491106,10.672719,13.417166,13.904834,14.524314,30.117083,31.125492,29.526342,27.960907,40.487818,39.693115,38.790509,37.494689,47.513385,44.669334,40.152415,25.750465,51.473957,74.860737,95.261204,52.434929,85.022907,102.239834,114.100284,42.897697,79.670734,98.922832,110.94746,33.697208,68.191852,85.819484,96.311702,25.795429,53.293728,67.963955,77.59489,-14.220539,-13.856199,-6.255983,-0.560014,18.748821,33.101222,38.493453,41.778674,35.578402,48.696437,51.88918,52.430336,46.266472,60.480169,62.0964,60.273824,51.904976,65.356253,65.611357,62.728526,-38.935775,312.954253,-75.875152,299.718842
32,-4.991021,-1.220275,0.420353,-0.783477,20.609185,39.958363,52.280697,56.884198,27.931332,56.611164,72.615452,79.488499,17.578572,47.662022,63.649464,74.307392,6.401276,32.105198,46.768238,55.181637,-3.347122,4.180699,6.509732,7.796631,-22.893187,-32.286055,-33.83557,-31.385919,-4.228742,12.830315,15.791211,16.406492,15.652704,33.316175,34.542773,32.960147,28.792982,43.111285,42.491422,41.405034,37.980653,48.714739,46.260049,41.952316,25.785701,51.382724,74.46508,94.549942,52.133789,84.274566,101.504081,113.611793,42.646099,78.968399,98.396187,110.914444,33.460865,67.488281,85.374023,96.435882,25.474491,52.553238,67.29554,77.340225,-14.070436,-13.655683,-6.152477,-0.561187,18.736249,33.638895,39.627858,43.391212,35.447096,49.651802,53.762774,55.044157,46.148072,61.206441,63.651436,62.507386,51.955303,65.766721,66.641452,64.285032,-43.884018,311.709843,-75.412021,298.91123
33,-0.844104,-2.679363,0.422733,-2.513686,20.869297,39.559318,50.649536,54.321395,27.307365,57.141265,73.102409,79.328956,16.982071,48.964691,64.646804,74.419464,5.841018,33.101772,47.761665,55.296821,-3.888199,2.152885,2.718555,2.113781,-22.204534,-29.507558,-28.510918,-24.843734,-1.672991,16.382051,20.044147,21.19662,17.175013,36.55964,38.620968,37.654463,29.588303,45.468731,45.440733,44.918361,38.346142,49.580406,48.435097,45.776408,25.912079,51.402122,74.068119,93.584736,51.736015,83.093502,99.959896,112.241283,42.095512,77.405788,96.720966,109.93578,32.510834,65.350822,83.410961,95.32909,23.917831,49.564373,63.944355,74.008759,-13.911466,-12.947419,-5.29653,-0.426461,17.78586,33.572674,40.633858,45.506633,34.425435,50.420063,56.231395,59.092872,45.440337,62.111911,66.251585,66.649331,51.692826,66.448445,68.431053,66.816502,-44.682254,309.012739,-74.94342,296.379803
34,4.607174,-3.226459,0.313843,-3.670877,16.434173,29.670993,35.440635,36.312458,19.440513,45.475765,58.759494,62.985626,10.765995,37.868637,49.928134,56.989357,1.096607,23.830432,35.579212,40.936306,-7.672257,-3.651272,-4.034409,-5.794945,-13.537604,-15.985638,-12.358974,-8.037915,7.122602,24.893666,27.469498,27.775027,19.901355,38.503482,40.033299,39.051665,26.940272,42.439737,42.259623,41.959516,31.15995,41.552631,40.999137,39.571196,26.468124,52.180629,74.438404,93.435161,52.323887,81.886196,97.785152,109.459636,42.176616,74.803882,92.614116,105.00365,31.543167,60.156326,75.314346,85.020847,21.633579,42.87949,54.087662,61.333957,-14.09894,-12.834736,-4.489094,0.662471,16.191452,33.094232,41.660002,47.633564,32.917613,50.658816,58.195811,62.371905,44.206898,62.230818,67.644366,69.022326,50.581702,66.203988,68.747784,67.344456,-40.015268,305.793662,-74.569765,292.716308
35,17.954395,-2.988263,-1.820755,-14.184773,6.562191,10.65699,9.263557,6.075039,0.660942,14.256821,21.35115,22.391578,-4.662598,9.092628,14.339687,17.295055,-10.434666,0.237259,5.550384,7.154411,-15.494877,-19.19949,-23.446312,-27.814945,-11.58828,-11.925659,-5.726733,0.433328,10.652786,27.900874,30.988938,31.770575,22.994952,41.179559,43.230982,42.865852,29.901983,45.457714,45.984001,46.007775,33.9567,44.791143,45.257482,44.758403,24.839058,51.027008,73.75581,91.16383,50.60123,83.159374,95.404163,102.506687,42.643272,77.942562,91.947613,99.94749,34.073421,64.887657,76.002044,81.210399,25.781009,48.701626,57.034103,60.51606,-4.377228,0.076323,6.031829,7.872288,18.332042,32.835238,41.092034,46.487661,26.842867,43.024723,51.649588,55.975748,31.995346,48.547852,55.786742,58.167183,34.154338,47.713678,52.23387,52.378107,-21.882053,302.869116,-76.2117,278.595252
36,19.499119,-2.810323,-4.715836,-23.092703,-3.412068,-8.727299,-17.31213,-24.767384,-18.618267,-18.01997,-17.085846,-19.436818,-20.714825,-21.140728,-22.178158,-23.431595,-22.689045,-24.513348,-24.877694,-26.575619,-24.277153,-34.66697,-41.558693,-47.704571,-10.170478,-8.684553,-0.103098,7.450496,13.118715,29.336213,33.246274,34.748106,25.129158,42.355571,45.397952,46.053939,32.22055,47.339607,49.245806,50.202011,36.407265,47.563453,49.303728,50.039076,22.850636,49.526161,73.128926,89.230076,46.488453,82.810261,91.164906,93.773266,40.471298,78.549397,88.007481,91.49469,34.125664,67.682419,73.956196,74.540211,27.929272,52.684342,57.489601,57.284477,-6.052751,-5.430628,-3.345897,-2.34186,11.378402,19.525245,24.668709,28.824154,19.294373,28.592503,34.507674,38.618979,24.177694,33.918365,38.896794,41.756258,26.574845,34.117856,36.807556,37.504458,-2.113723,300.275006,-80.658325,255.718762
37,20.555534,-1.816993,-8.608806,-33.414013,-14.058712,-28.640797,-44.492489,-56.114147,-38.327808,-51.203808,-57.20351,-63.583397,-37.194248,-52.252865,-60.620213,-66.956955,-35.358925,-50.476536,-57.764568,-63.730419,-33.529163,-50.365597,-59.634579,-67.382458,-9.472341,-6.250006,4.955297,14.224257,15.11308,29.768762,33.973261,35.968096,27.007975,41.599227,44.960895,46.290764,34.371662,47.875848,50.221672,51.482664,38.643543,49.55494,51.541019,52.629715,19.903587,45.024089,68.210002,83.472381,41.538425,77.401004,83.981529,83.90253,38.501792,75.800777,80.805942,79.687522,34.996204,68.254463,69.344055,65.213138,31.674694,56.144016,57.031093,52.911998,-10.416411,-15.255531,-17.676858,-18.943896,-3.500248,-2.045568,1.957513,5.62479,4.75795,8.10941,13.756442,18.218509,11.222983,15.499558,20.603674,24.223952,15.914033,18.802951,20.914149,21.830827,18.719965,298.742093,-88.988977,222.588829
38,18.523361,-0.240123,-11.581742,-41.171377,-24.003959,-46.570484,-68.280361,-83.417999,-55.188801,-81.133255,-93.581039,-103.203552,-50.396358,-80.138672,-95.287182,-106.090164,-44.643539,-72.613094,-86.523022,-96.183929,-39.286182,-61.67894,-73.124771,-82.088321,-9.123512,-5.729709,6.070053,15.804314,16.382496,29.340412,33.184733,35.154584,28.938145,40.945031,43.951412,45.470336,36.814237,48.615914,50.940064,51.875583,41.085118,51.57555,53.080531,53.405202,17.661244,40.060272,60.636704,72.938668,35.451153,67.794731,72.8829,70.995575,35.07486,68.048081,70.866658,67.323143,34.606945,65.352551,63.207459,55.707608,34.579926,57.742584,56.437557,49.966816,-12.665491,-23.791433,-32.019984,-36.502292,-20.827413,-28.732121,-29.235973,-28.677255,-14.214747,-21.137666,-19.391784,-17.276931,-7.824326,-11.231084,-6.810286,-3.127559,-1.927835,-5.051807,-3.896099,-2.740137,37.593767,298.86229,-100.220278,181.777772
39,14.376652,0.175272,-15.433021,-47.016177,-29.529968,-55.720825,-79.683117,-96.682423,-65.92868,-100.351753,-116.448338,-127.82777,-59.254543,-97.377525,-115.701244,-128.805988,-51.088829,-86.327923,-103.615288,-115.351032,-43.131386,-70.692398,-84.702473,-95.261467,-16.554087,-15.595004,-3.226236,7.651408,11.624133,24.20752,29.647435,33.040324,29.652659,41.4398,45.683993,48.141955,42.592952,54.445228,57.697968,58.871707,51.005421,62.328964,64.163668,64.318205,14.012191,32.994369,50.934162,60.072292,27.260261,56.249107,59.573696,56.379192,29.544182,59.447353,60.834514,56.1236,32.630413,63.327861,60.568073,52.74702,36.655998,60.767658,59.673065,53.825821,-15.732189,-32.822239,-47.342818,-55.690936,-37.492615,-56.531841,-63.469271,-67.504136,-32.91794,-50.931462,-51.791299,-50.493417,-27.164963,-39.804297,-35.514656,-30.300081,-20.793068,-31.622565,-30.28439,-27.167273,52.466663,299.798454,-115.157055,135.522487
40,0.317116,-0.120141,-15.482518,-45.294248,-29.211365,-54.986046,-79.026261,-96.26302,-64.797936,-99.076172,-115.343262,-127.23539,-58.076821,-96.094265,-114.398804,-128.290283,-50.002648,-84.990532,-102.233986,-114.456826,-42.282166,-69.492142,-83.35817,-94.096985,-17.166676,-16.064073,-3.126448,7.663498,11.935836,24.382187,29.833106,33.380679,29.893263,41.091577,45.530036,48.383374,42.707869,54.135981,57.626312,59.05697,50.873484,61.794069,63.654634,64.000424,8.238682,22.6619,37.409398,45.564309,17.741055,39.254117,43.565644,43.201779,22.813488,44.976025,45.649029,42.208271,28.592171,51.869854,48.263009,42.078873,35.549595,52.967961,50.224755,45.495667,-29.454613,-55.994638,-74.105718,-82.582883,-57.230097,-84.418229,-95.759427,-101.945114,-46.095676,-72.009607,-72.994359,-69.867201,-34.282347,-54.179175,-50.009911,-43.119745,-22.756842,-38.616732,-38.237047,-34.603937,52.254896,300.4339,-131.168456,90.983826
41,-0.332474,-0.148399,-14.376686,-38.830907,-29.027412,-54.560555,-78.494122,-95.808426,-63.818584,-98.105324,-114.466129,-126.406059,-56.951408,-95.105095,-113.350307,-127.176659,-48.834618,-83.840778,-101.047474,-113.18399,-41.167969,-68.553841,-82.37891,-92.900986,-17.307652,-16.137544,-3.10975,7.894074,12.098746,24.610874,30.071673,33.747428,30.025039,41.217622,45.578152,48.435912,42.758184,54.266571,57.64895,59.076842,50.799829,61.753068,63.359369,63.508274,2.405205,11.956112,23.521225,30.600907,10.3671,22.733265,27.451069,29.210724,19.081261,32.490303,32.612904,29.725457,27.499695,42.147229,38.161652,32.896649,36.291493,46.973214,43.39975,39.288895,-32.694391,-60.67065,-80.313425,-92.279704,-69.020473,-99.915433,-113.737543,-122.852938,-59.472254,-87.578528,-86.847169,-82.646609,-47.971968,-69.517656,-62.722975,-54.224395,-36.23805,-53.227274,-50.888428,-45.809376,50.636913,300.919322,-146.830651,52.78674
42,-0.020416,-0.424386,-13.074154,-33.808079,-28.851036,-54.226387,-77.899109,-94.930756,-63.403679,-97.318291,-113.663418,-125.680378,-56.43116,-94.278431,-112.46188,-126.28648,-48.226754,-82.931179,-100.093186,-112.198654,-40.464913,-67.606407,-81.344982,-91.762551,-17.114756,-15.744021,-2.608868,8.527214,12.626144,25.133974,30.619868,34.425102,30.390663,41.563622,46.019137,49.028988,42.958428,54.520267,58.035248,59.62957,50.834026,61.897885,63.554018,63.772874,-3.167598,3.210984,12.681817,18.639462,2.872262,10.470669,13.904641,16.346352,14.270485,22.292965,21.621335,20.155587,25.203793,33.873356,29.609906,26.080651,36.03669,40.989613,36.849244,34.135609,-32.363613,-60.77315,-81.639342,-94.319456,-72.549916,-107.850117,-125.981081,-138.112428,-65.731578,-98.165395,-96.821993,-91.365279,-56.489968,-81.528328,-74.162164,-64.554689,-46.556822,-66.277303,-62.921107,-56.461229,49.146538,301.15348,-161.374764,19.637205
43,0.447899,-0.689344,-10.89569,-26.531793,-28.716362,-53.942986,-77.471146,-94.303803,-62.901055,-96.583764,-113.001698,-125.209156,-55.94188,-93.630467,-111.895008,-125.856778,-47.734108,-82.310612,-99.521256,-111.690663,-39.922646,-66.956429,-80.716359,-91.123112,-16.803584,-15.252068,-2.040172,9.370526,13.321997,25.699817,31.217772,35.134811,30.950517,42.006224,46.516079,49.55063,43.394052,54.983147,58.615072,60.310009,51.180989,62.370756,64.055777,64.265988,-9.636956,-5.647397,3.610107,10.157444,-3.735592,1.858177,3.55616,5.498199,10.699688,16.909687,13.846927,11.312187,24.169498,29.408603,23.574474,19.911369,36.759544,38.742599,33.091838,30.248439,-34.066924,-61.55244,-81.849276,-93.862874,-72.831301,-109.688482,-129.497236,-143.399746,-67.081788,-100.269019,-96.189882,-88.022461,-59.024174,-86.31338,-78.618321,-68.054462,-50.377993,-72.314215,-68.256133,-60.238614,48.010964,301.27382,-173.853927,-6.084904
44,0.603286,-0.438539,-7.371975,-21.624901,-28.630577,-53.755142,-77.116058,-93.760116,-62.462928,-95.99707,-112.489517,-124.772632,-55.496566,-93.13314,-111.545425,-125.630401,-47.304657,-81.798145,-99.042091,-111.245762,-39.491569,-66.472881,-80.237159,-90.598125,-16.572205,-14.943439,-1.680278,9.98808,13.745036,26.173505,31.798881,35.821698,31.261615,42.313753,46.883136,49.942127,43.625727,55.341213,59.04194,60.782153,51.370723,62.733281,64.418017,64.606294,-15.272061,-13.510266,-4.409592,3.120037,-9.95121,-5.796158,-4.923638,-3.03249,7.897533,12.411346,7.70224,4.46339,24.147995,26.227913,19.418323,15.785614,38.594238,37.869953,31.205486,28.262775,-34.553431,-61.446137,-81.685752,-93.689791,-73.012854,-109.930653,-130.009744,-144.213815,-68.438791,-101.618634,-96.09162,-86.365488,-61.265764,-89.181996,-81.190439,-70.347175,-53.159967,-75.607532,-71.270992,-62.705673,46.679128,301.489607,-183.161024,-27.055479
45,0.987191,-0.224722,-5.115429,-14.885289,-28.598122,-53.689568,-76.981305,-93.42397,-62.192917,-95.597557,-112.154034,-124.540432,-55.227929,-92.801583,-111.248749,-125.375668,-47.050072,-81.484543,-98.74244,-110.941956,-39.242569,-66.136837,-79.894593,-90.200947,-16.427043,-14.762288,-1.439896,10.498508,14.005376,26.501881,32.166419,36.170266,31.452449,42.576847,47.236595,50.329809,43.744029,55.589079,59.408601,61.203661,51.461904,62.8913,64.611852,64.809465,-17.101433,-17.022435,-8.759732,-1.624203,-12.799004,-11.115681,-11.263069,-9.767292,5.862087,7.461067,2.652385,-0.172097,22.621971,21.866764,15.42913,12.170677,36.962104,34.605125,28.538875,26.083179,-33.855497,-59.559724,-79.255561,-91.437472,-73.736186,-110.316846,-130.936679,-146.407652,-70.721327,-103.686627,-98.412237,-88.553527,-64.763737,-92.062686,-84.379978,-73.53131,-57.581802,-79.824634,-75.608452,-66.558315,46.55987,302.055824,-189.382902,-41.149829
46,1.171829,-0.231107,-2.764813,-13.887989,-28.623711,-53.592339,-76.793106,-92.911572,-61.852547,-95.177971,-111.782788,-124.209126,-54.831505,-92.377613,-110.912373,-125.086842,-46.611672,-80.979092,-98.229756,-110.415688,-38.778122,-65.520092,-79.209206,-89.453636,-16.100618,-14.446102,-1.068925,11.180554,14.328602,27.117878,32.890628,36.865996,31.711504,43.103183,47.986331,51.206492,43.935776,56.022209,60.080285,62.007318,51.599138,63.206807,65.078611,65.340766,-18.820667,-20.587978,-13.764633,-6.892296,-14.899315,-14.957519,-15.456493,-14.035881,4.166748,3.433308,-1.317135,-3.243152,21.13678,17.854065,11.775536,9.368386,35.67255,31.004505,25.093598,23.283783,-32.142541,-57.665493,-77.520702,-88.959833,-73.272245,-110.108852,-130.094595,-145.123676,-71.210069,-103.998997,-96.869415,-85.915086,-65.821394,-91.970622,-83.504242,-72.361708,-58.901504,-80.090964,-75.09776,-65.73231,47.351504,302.734078,-192.52791,-54.128457
47,1.342438,-0.131393,-0.766971,-8.620098,-28.76532,-53.586113,-76.646908,-92.44899,-61.560769,-94.820126,-111.433136,-123.94019,-54.526085,-91.992886,-110.622941,-124.926075,-46.283318,-80.621418,-97.887349,-110.134942,-38.413445,-65.065384,-78.722535,-88.972401,-15.856098,-14.294096,-0.805596,11.750461,14.553868,27.661307,33.601598,37.585389,31.909093,43.53924,48.65089,52.011149,44.128339,56.331776,60.654651,62.759142,51.836124,63.488983,65.470701,65.813132,-18.85072,-21.385048,-15.042824,-8.345089,-14.909443,-15.937832,-16.745705,-15.78978,4.017677,3.422435,-0.801602,-3.188439,20.699661,17.625297,12.305591,9.512146,34.947818,30.745628,25.398285,23.243362,-31.361935,-56.022963,-75.06272,-85.956818,-73.667689,-108.832094,-128.216851,-143.011101,-72.320202,-101.724859,-94.601986,-84.06569,-67.186353,-89.535106,-81.039487,-70.227367,-60.433057,-77.857674,-72.369022,-63.130395,48.548836,303.593644,-193.439987,-61.757596
48,1.355209,-0.283471,-0.002598,-5.756793,-28.944397,-53.694603,-76.539826,-91.986534,-61.347038,-94.47242,-111.035431,-123.57637,-54.250488,-91.508904,-110.141956,-124.509235,-45.952606,-80.097462,-97.358517,-109.683552,-38.012489,-64.381348,-77.94223,-88.188801,-15.579802,-13.993619,-0.346025,12.426368,14.883887,28.420639,34.541513,38.554339,32.153279,44.082804,49.41694,52.930168,44.302512,56.649185,61.283739,63.599812,51.970986,63.67884,65.853307,66.362216,-17.804787,-20.233143,-14.095619,-7.323658,-13.259628,-13.703499,-14.602535,-14.163357,5.194919,6.220482,2.373379,-0.210835,21.620315,19.845886,14.912487,12.016102,36.037845,32.335098,27.169292,24.906303,-29.910165,-54.55184,-73.156186,-83.471771,-73.31661,-107.034744,-124.074671,-135.812906,-72.402572,-95.737228,-87.733439,-77.912008,-67.013289,-83.461814,-74.638359,-64.687256,-59.744799,-72.08858,-65.754782,-57.462467,49.987061,304.311665,-193.359569,-66.512897
49,1.375946,-0.334762,0.483135,-2.827169,-29.050804,-53.781235,-76.459786,-91.734661,-61.148758,-94.174965,-110.720799,-123.338905,-53.914009,-90.969521,-109.603363,-124.050201,-45.449432,-79.421597,-96.817303,-109.391144,-37.256699,-63.411919,-76.999546,-87.438446,-15.327069,-13.65183,0.194403,13.121135,15.469454,29.386157,35.647142,39.726893,32.650506,44.791934,50.336207,54.082678,44.65281,57.131049,62.116469,64.7346,52.175875,63.908145,66.395439,67.198207,-16.081238,-17.41634,-10.960339,-3.871387,-9.269485,-6.997181,-7.345654,-7.501373,8.589008,13.015984,9.437622,6.325859,24.543297,25.614784,20.844578,17.436459,38.757809,36.79414,31.618526,28.851986,-28.762261,-52.459365,-69.153666,-77.244078,-71.48249,-99.35762,-110.695971,-118.069807,-69.917775,-87.121248,-78.16021,-68.921314,-63.516795,-74.46639,-65.136585,-56.099934,-54.968929,-62.588828,-55.671748,-48.38092,51.847818,304.825644,-192.391623,-68.491325
50,1.242668,-0.248953,2.254223,0.686757,-29.243408,-53.980499,-76.520027,-91.827885,-60.80793,-93.823963,-110.391369,-123.115951,-53.49099,-90.559685,-109.338707,-124.026729,-44.982399,-78.951107,-96.551021,-109.390434,-36.75238,-62.864273,-76.57259,-87.16262,-15.182092,-13.34661,0.663842,13.70522,15.764053,29.88652,36.304846,40.508073,32.942832,45.23382,50.857133,54.688129,44.942753,57.480161,62.53447,65.22496,52.461829,64.227666,66.76315,67.647181,-14.119938,-14.157784,-7.575348,-0.623497,-4.368897,-0.658917,-0.865151,-1.432491,12.29385,18.497188,15.021103,11.557182,27.086918,30.101372,25.521114,21.846691,40.403229,39.85294,34.682739,31.418026,-26.74708,-48.516199,-63.094619,-69.165528,-66.379479,-88.327138,-94.274277,-97.194043,-64.028032,-75.815596,-66.736785,-58.574983,-56.582529,-63.081704,-54.002961,-46.374127,-46.88651,-50.531751,-43.404133,-37.353472,53.936382,305.475533,-189.291504,-66.905726
51,0.972931,-0.237887,2.717262,8.94188,-29.286072,-54.081139,-76.456936,-91.925514,-60.707726,-93.628544,-110.178909,-122.983555,-53.343384,-90.285461,-109.177071,-124.070183,-44.744888,-78.611446,-96.41106,-109.553352,-36.334373,-62.346863,-76.149422,-86.925648,-15.118934,-13.098954,1.11068,14.109117,16.021997,30.302977,36.854918,41.194676,33.127713,45.508522,51.21941,55.177377,45.109195,57.69709,62.884273,65.723261,52.637397,64.37599,66.980647,67.992539,-12.918537,-11.412906,-3.913696,3.119042,-1.656841,3.458107,3.882363,3.41288,13.83268,22.460713,19.651737,16.368015,27.99535,33.956623,29.622791,25.875378,41.14579,43.263062,38.281586,34.555664,-26.287231,-47.141808,-59.869427,-64.258516,-64.899134,-80.831009,-81.567867,-80.566139,-62.551432,-69.580281,-59.974992,-52.12088,-54.916266,-58.058179,-48.393897,-41.10234,-44.880694,-45.499445,-37.690019,-32.084403,56.246784,306.207974,-185.236771,-56.993518
52,0.808891,-0.313741,2.000084,9.058798,-29.270897,-54.266693,-76.596439,-92.314018,-60.571014,-93.471622,-110.086475,-122.9393,-53.117225,-90.03265,-109.062778,-124.062492,-44.425483,-78.280689,-96.3185,-109.681022,-35.893272,-61.89109,-75.808159,-86.728855,-15.127098,-12.758512,1.699408,14.577926,16.433723,30.911885,37.560626,42.01887,33.457324,45.923176,51.658517,55.682223,45.359308,58.034494,63.267829,66.177546,52.786438,64.564785,67.290411,68.457124,-11.219879,-8.459152,-0.680763,6.08622,2.560742,9.266213,9.674538,8.628033,17.116482,26.325943,23.728787,20.326893,30.270905,36.967701,32.883854,28.841721,42.294193,45.53579,40.518974,36.273502,-24.911173,-44.222169,-55.314068,-58.860592,-62.930778,-71.241259,-67.12581,-62.938521,-60.132592,-62.302223,-53.037945,-45.98882,-51.779743,-51.654384,-42.412851,-36.091443,-40.970608,-39.421531,-31.885919,-27.084491,59.026256,306.769307,-181.266106,-47.059646
53,0.585137,-0.200998,2.490727,8.27997,-29.306923,-54.419083,-76.659107,-92.718956,-60.519676,-93.359848,-110.05909,-123.007485,-53.050827,-89.908608,-109.093586,-124.30267,-44.342171,-78.177132,-96.438778,-110.066242,-35.729004,-61.729248,-75.760758,-86.880352,-15.200864,-12.602321,2.049385,14.797572,16.618468,31.18108,37.91558,42.477367,33.574452,46.099881,51.878299,56.00939,45.47036,58.138457,63.377721,66.403713,52.928452,64.702217,67.521297,68.903172,-10.589516,-7.319699,0.550815,7.185745,5.32275,12.120964,12.46661,11.251728,19.353424,27.401081,24.551982,21.025325,31.423564,37.652309,33.304744,29.137836,41.821586,45.391605,40.254913,35.765819,-24.127312,-41.987606,-52.234213,-55.168201,-61.755293,-63.205745,-55.711326,-50.300601,-58.570071,-58.662882,-49.91668,-43.102559,-49.700486,-48.435899,-39.72278,-33.939588,-38.486395,-36.218543,-29.321578,-25.098523,61.691397,307.253785,-176.695375,-38.0942
54,0.240761,-0.035445,2.402149,6.993784,-29.230317,-54.498345,-76.750786,-93.009556,-60.457512,-93.448082,-110.255139,-123.222657,-52.927941,-89.944428,-109.245278,-124.467556,-44.23494,-78.213055,-96.600918,-110.303845,-35.680138,-61.858635,-76.014382,-87.152516,-15.359736,-12.58624,2.145494,14.919184,16.622828,31.193048,38.004143,42.681132,33.678378,46.299212,52.047076,56.181352,45.602939,58.31189,63.425849,66.366453,53.005356,64.776256,67.448777,68.77483,-5.587624,-1.744389,4.771683,9.264301,10.598762,14.226619,13.135013,11.530334,20.333393,24.600025,21.386112,18.157688,27.830646,31.369823,27.399433,23.881164,33.793167,36.19178,31.909275,28.098209,-21.292524,-37.774512,-48.190404,-52.069683,-59.947312,-59.322904,-51.946188,-46.781075,-58.833471,-57.670939,-49.702166,-43.260887,-51.79585,-49.789592,-42.058477,-36.718808,-42.308739,-39.882448,-33.592977,-29.748891,63.960932,307.800273,-172.264452,-30.518483
55,0.168365,-0.036334,-0.031494,5.033159,-29.138512,-54.520866,-76.714531,-93.070988,-60.564697,-93.620464,-110.447845,-123.385185,-53.016769,-90.065815,-109.397415,-124.627796,-44.308159,-78.321808,-96.72266,-110.448246,-35.711655,-61.869278,-76.006897,-87.114693,-15.461537,-12.617276,2.198414,14.903215,16.798409,31.421611,38.224061,42.866111,33.823529,46.419316,52.174899,56.343312,45.71614,58.395982,63.534974,66.56913,53.109776,64.880788,67.554247,68.931615,-1.914448,2.516693,8.690185,12.328971,14.401348,16.572464,14.687976,12.814178,21.048145,23.617813,20.193889,17.139186,25.433693,27.778415,23.952987,20.695667,28.543556,30.518509,26.785926,23.470035,-19.809477,-36.045852,-46.876979,-51.627093,-61.166661,-58.718856,-51.265081,-46.317539,-61.930816,-59.057687,-51.154863,-44.753969,-56.52135,-53.219062,-45.566704,-40.159554,-48.388105,-45.497,-39.230018,-35.425674,66.166574,308.112325,-170.258669,-25.136938
56,-0.130714,0.149375,-1.07967,-1.691857,-29.117318,-54.571267,-76.826924,-93.385872,-60.431282,-93.716389,-110.549996,-123.335553,-52.7734,-90.06926,-109.377388,-124.46394,-44.077172,-78.277497,-96.670624,-110.314064,-35.60653,-61.984749,-76.22271,-87.304459,-15.552645,-12.562702,2.219581,14.977204,17.125599,31.820827,38.516782,43.030663,34.214569,46.915641,52.502917,56.482299,46.014221,58.831284,63.778591,66.616319,53.216381,65.181919,67.848648,69.195375,0.261314,5.029964,10.81343,13.67807,17.804203,18.994033,16.24094,14.008884,23.0751,23.5918,19.838081,16.795498,25.722828,26.172558,22.410988,19.253574,27.071388,27.77544,24.293953,21.369632,-17.709091,-32.876839,-43.519646,-48.609331,-59.197081,-55.298766,-47.969288,-43.003882,-60.419814,-55.860027,-48.717221,-42.888162,-55.178414,-50.541403,-43.598477,-38.842503,-47.037277,-43.499219,-37.741839,-34.500628,67.694888,308.41746,-169.679311,-26.673035
57,-0.07544,0.367575,-0.878586,0.536327,-29.267486,-54.602852,-76.831512,-93.38126,-60.478271,-93.81086,-110.576877,-123.308143,-52.833412,-90.231537,-109.420704,-124.48146,-44.242699,-78.495449,-96.737091,-110.229744,-35.924835,-62.29731,-76.549839,-87.512958,-15.534959,-12.622266,2.001862,14.819877,17.306343,31.548619,38.064609,42.481628,34.402884,46.903242,52.340736,56.181982,46.166312,58.923194,63.672604,66.333947,53.397804,65.482854,67.971247,69.08641,-0.687229,4.075413,10.229542,13.449589,16.120022,17.320484,14.682564,12.704532,21.792332,22.557152,18.76355,15.963043,24.976513,25.63274,21.488891,18.404262,26.86718,27.478889,23.853527,21.144894,-18.831961,-35.194387,-46.291591,-51.213235,-60.394595,-58.335194,-50.706184,-45.594682,-61.250178,-58.183905,-50.430536,-44.52929,-56.09153,-52.947094,-45.243934,-39.946576,-48.191923,-46.104642,-39.836611,-35.963254,68.716083,308.878574,-169.461262,-26.043169
58,-0.177086,0.669288,-1.276806,0.314489,-29.299141,-54.608459,-76.909137,-93.432884,-60.617157,-93.971065,-110.63911,-123.219852,-52.908622,-90.36121,-109.446602,-124.322262,-44.305114,-78.556572,-96.612808,-109.856621,-36.058799,-62.416443,-76.639675,-87.408211,-15.566674,-12.673173,1.76269,14.541493,17.339281,31.39591,37.78982,42.127341,34.485604,47.037104,52.361299,56.072672,46.198213,59.108878,63.712704,66.178485,53.322432,65.601402,68.002542,68.900196,-0.965057,3.916809,10.527145,13.992313,15.071789,16.790348,14.378357,12.332886,21.119247,22.424675,18.858913,15.819649,24.796234,25.804665,21.879135,18.613518,27.364059,28.007,24.413132,21.538387,-19.560388,-36.156237,-46.700163,-51.067547,-61.57882,-59.11538,-51.173653,-45.90822,-62.359036,-58.794833,-50.800958,-44.712176,-57.05864,-53.424036,-45.502489,-40.00317,-49.012376,-46.559465,-39.958599,-35.869116,69.37639,309.59692,-169.900675,-25.679622
59,-0.069282,0.583356,-1.221874,0.604012,-29.532761,-54.79509,-77.131153,-93.619904,-60.81855,-93.986058,-110.51223,-123.041188,-53.179688,-90.427391,-109.415921,-124.240643,-44.638802,-78.69952,-96.606938,-109.686711,-36.470078,-62.597237,-76.733231,-87.388413,-15.493833,-12.632677,1.662321,14.343411,17.462844,31.266506,37.5134,41.716071,34.574809,47.085702,52.349418,55.946022,46.246773,59.222474,63.746618,66.101531,53.35737,65.79583,68.219756,69.007197,-6.318478,-2.078293,5.800724,10.93238,10.195289,13.398571,11.936027,10.168579,20.563808,23.01923,19.70232,16.363437,28.255176,30.277817,25.88031,21.970836,34.360325,35.510742,30.966282,27.265857,-21.934055,-39.359898,-49.771913,-53.575145,-64.559173,-61.63153,-53.232585,-47.638862,-63.575063,-59.056902,-50.761902,-44.629308,-56.261165,-51.462287,-43.216952,-37.760112,-46.405879,-42.597639,-35.725059,-31.805933,70.006268,310.236231,-170.423389,-25.019655
60,-0.186425,0.570352,-0.638363,0.928454,-29.652351,-54.873413,-77.299381,-93.762462,-60.969863,-94.102386,-110.584236,-123.082511,-53.371238,-90.562339,-109.525863,-124.282115,-44.858711,-78.871284,-96.726596,-109.735645,-36.703033,-62.767662,-76.926681,-87.559524,-15.475185,-12.655488,1.486863,14.17004,17.461053,31.049811,37.21396,41.37411,34.59694,47.115737,52.314171,55.819618,46.23178,59.243617,63.669614,65.897545,53.278897,65.810267,68.253595,68.976173,-9.929329,-6.018345,2.700634,8.912281,6.037731,10.865089,10.248607,8.626877,19.661533,23.552479,20.520893,16.787304,30.491924,33.713013,29.105232,24.62614,39.344616,41.297493,36.231891,31.820766,-23.968379,-41.994609,-52.328157,-55.471988,-67.534974,-63.818396,-54.973489,-49.014896,-65.215869,-59.560619,-51.153578,-44.899274,-56.314084,-50.346197,-41.908343,-36.374055,-45.136439,-40.009784,-32.877376,-28.983148,70.277383,310.893876,-170.604212,-24.003908
61,-0.221488,0.357041,-0.813286,0.773492,-29.892609,-55.122712,-77.512024,-93.89074,-61.243332,-94.245461,-110.640152,-123.120816,-53.74038,-90.703801,-109.587307,-124.317215,-45.28125,-79.045544,-96.82734,-109.793118,-37.101059,-62.82866,-76.885701,-87.472561,-15.426686,-12.632949,1.578921,14.154417,17.400549,30.791768,36.993906,41.251794,34.578501,46.971945,52.190793,55.763413,46.25669,59.160957,63.612903,65.891394,53.352936,65.870103,68.385357,69.123621,-11.242264,-7.466125,1.578976,8.419613,3.546227,10.469868,10.599518,8.678432,18.768688,24.988323,22.392426,18.002644,31.263599,36.468739,32.028763,27.015427,41.555409,44.909534,39.537735,34.362911,-25.575909,-43.996804,-54.399427,-57.128177,-70.049346,-65.516242,-56.248049,-50.105093,-66.853534,-60.175801,-51.455031,-45.235239,-56.903177,-49.867916,-41.359574,-36.005881,-44.873746,-38.588357,-31.444785,-27.909352,70.399767,311.33266,-171.073626,-23.148673
62,-0.39663,0.244371,0.1119,-1.289558,-29.928589,-55.251892,-77.697761,-94.215591,-61.367729,-94.405712,-110.727081,-123.10405,-53.831589,-90.782432,-109.610859,-124.260326,-45.292282,-78.979545,-96.763447,-109.770218,-37.006439,-62.625091,-76.664966,-87.334579,-15.511074,-12.704184,1.578439,14.029508,17.344023,30.885147,37.186468,41.508972,34.618207,47.028644,52.277022,55.891286,46.36442,59.202528,63.70564,66.046067,53.447649,65.881107,68.48301,69.309823,-10.910843,-7.306446,1.242291,7.594643,3.701798,10.906529,11.078797,8.929505,18.774159,24.942055,22.507874,17.830902,31.031136,36.307824,32.116253,26.974503,41.067776,44.845574,39.523899,33.990441,-24.686679,-41.921917,-52.179698,-55.14912,-69.202786,-63.182559,-54.162787,-48.025624,-66.447377,-58.150431,-49.879717,-43.716532,-56.377342,-47.798734,-39.865949,-34.918833,-44.060241,-36.28324,-29.620975,-26.819693,70.254822,311.654388,-170.710041,-24.360874
63,-0.505371,0.362536,0.05222,-1.25651,-29.998489,-55.381416,-77.885651,-94.575428,-61.377571,-94.663925,-110.994907,-123.301906,-53.797211,-91.021385,-109.829327,-124.445778,-45.227325,-79.10154,-96.940441,-110.003368,-36.939789,-62.665901,-76.749229,-87.450313,-15.689717,-12.921409,1.422557,13.950962,17.060182,30.641567,37.010665,41.412037,34.46172,46.839343,52.037394,55.628378,46.321405,59.064986,63.459898,65.743886,53.479229,65.834226,68.341775,69.116718,-11.207085,-7.625141,0.615635,6.875564,3.394512,10.743656,11.130478,9.085876,18.422355,24.807358,22.496795,17.943523,30.693718,36.15842,31.947006,26.781795,40.721798,44.670032,39.39545,33.830532,-24.156576,-41.104786,-51.706152,-55.095885,-68.018116,-62.252949,-53.508634,-47.478336,-65.312911,-57.188699,-48.994191,-42.852952,-55.378955,-46.986062,-39.08233,-34.092322,-43.182934,-35.399307,-28.818041,-26.053308,69.981193,312.09544,-170.426079,-25.538868
64,-0.402557,0.201233,0.072624,-1.298315,-30.09375,-55.542687,-78.063515,-94.923695,-61.537125,-94.907444,-111.196026,-123.456322,-53.939736,-91.221978,-109.919918,-124.484585,-45.331009,-79.22881,-97.064907,-110.132183,-37.006211,-62.751824,-76.834271,-87.51717,-15.78863,-12.987125,1.443539,13.919518,16.843301,30.396825,36.874974,41.416594,34.295721,46.597503,51.809843,55.429479,46.25853,58.915092,63.294518,65.559819,53.522799,65.793717,68.234625,68.950386,-11.285111,-7.873947,0.185738,6.473236,3.072281,10.758911,11.262382,9.103523,17.980774,24.849598,22.699425,18.149597,30.252102,36.016685,31.91209,26.698975,40.376347,44.527599,39.338001,33.711765,-23.845496,-40.531396,-51.026403,-54.563794,-66.924164,-61.347565,-52.83577,-46.921773,-64.089203,-56.194795,-48.07206,-41.955163,-54.162503,-46.094836,-38.286478,-33.294673,-42.005928,-34.572604,-28.126349,-25.352373,69.791336,312.357479,-170.140755,-26.776377
65,-0.556961,0.051104,0.028782,-1.363819,-30.127602,-55.614807,-78.110276,-95.090847,-61.576401,-94.913247,-111.132935,-123.305043,-53.932045,-91.160294,-109.755226,-124.213704,-45.286057,-79.100567,-96.873871,-109.871544,-36.939949,-62.596299,-76.611557,-87.261589,-15.717332,-12.774987,1.703422,14.020036,16.838226,30.478769,37.033674,41.662596,34.278642,46.655388,51.911349,55.58146,46.267274,59.011831,63.453785,65.740539,53.54335,65.884701,68.373811,69.08294,-11.612984,-8.365826,-0.418511,5.926666,2.806984,10.847053,11.528229,9.249367,17.768761,25.062595,23.101284,18.581669,30.160057,36.1283,32.183601,26.987274,40.45277,44.756115,39.544052,33.761638,-23.600483,-39.989413,-50.359246,-53.858136,-66.028957,-60.237916,-51.721405,-46.026806,-62.774747,-54.780329,-46.588951,-40.655385,-52.560142,-44.543456,-36.81638,-32.03864,-40.187496,-32.886207,-26.618602,-24.097098,69.400675,312.426055,-169.945673,-28.122724
66,-0.277794,0.134567,0.442417,-1.312172,-30.067429,-55.566902,-78.149174,-95.271595,-61.619225,-94.88443,-111.089482,-123.32095,-54.005699,-91.192578,-109.739559,-124.193035,-45.347672,-79.163292,-96.862061,-109.803166,-36.990875,-62.645531,-76.598454,-87.150742,-15.701759,-12.781014,1.5621,13.793486,16.667584,30.237262,36.827525,41.490534,34.037444,46.468333,51.790552,55.480966,46.062374,58.856516,63.339089,65.643664,53.456862,65.772488,68.152287,68.744745,-10.763798,-7.303196,0.368488,6.456322,3.954231,10.690704,10.961723,8.955631,17.887344,23.930386,21.777637,17.805222,29.382797,34.435329,30.431179,25.522408,38.931232,42.90937,37.964012,32.465458,-22.11754,-37.976114,-48.265456,-52.115254,-63.900864,-58.326654,-50.039928,-44.518459,-61.015891,-53.504213,-45.368682,-39.348573,-51.301032,-43.917881,-36.097821,-31.274861,-39.381066,-32.702154,-26.329505,-23.578364,69.225718,312.551403,-169.400419,-29.444115
67,-0.386238,0.304108,0.190361,2.346287,-30.091873,-55.600914,-78.17014,-95.340042,-61.598328,-94.838642,-111.041394,-123.257813,-53.994438,-91.161244,-109.69883,-124.050145,-45.356644,-79.192944,-96.860333,-109.724911,-37.057114,-62.660637,-76.525841,-86.965302,-15.64895,-12.725648,1.536523,13.699835,16.292822,29.920977,36.531136,41.158268,33.668992,46.285639,51.568201,55.180773,45.725674,58.692408,63.130386,65.367751,53.139416,65.576492,67.949561,68.487938,-11.307667,-7.775837,0.469059,7.127335,3.371292,10.073856,10.403629,8.669025,17.413422,23.606689,21.4659,17.860153,29.109066,34.09726,30.083393,25.400288,38.851078,42.461987,37.671799,32.596001,-23.739483,-41.016143,-51.396628,-54.996461,-66.312631,-62.083815,-53.624051,-48.039128,-63.089717,-56.711183,-48.264727,-42.150769,-53.461617,-47.130539,-38.854162,-33.705567,-41.849613,-36.334517,-29.410906,-25.893454,68.90201,312.826201,-169.147528,-27.127138
68,-0.190865,-0.105247,-0.529621,1.620041,-30.095238,-55.576515,-78.097721,-95.176975,-61.599998,-94.631721,-110.7495,-122.904087,-54.038818,-90.96516,-109.395138,-123.629986,-45.402855,-79.046562,-96.60395,-109.352726,-37.11058,-62.560249,-76.337208,-86.751846,-15.415929,-12.41108,1.838803,13.892348,16.477727,30.096496,36.703284,41.315644,33.761593,46.376004,51.717427,55.365296,45.769059,58.821479,63.424996,65.780997,53.138255,65.63944,68.194191,68.84961,-10.693405,-7.043312,1.659817,8.528961,3.863171,11.593929,11.812694,9.665474,17.859753,24.945969,22.829922,18.944801,29.66058,35.271114,31.393673,26.604629,39.613174,43.491302,38.716003,33.549477,-24.881897,-42.728772,-52.7201,-55.900975,-68.721219,-64.346949,-55.494497,-49.636717,-65.419165,-58.643601,-49.894895,-43.656053,-55.565065,-48.53609,-40.187156,-35.122393,-43.765938,-37.816372,-30.678111,-27.13336,68.742468,312.666987,-169.645826,-25.561064
69,0.273537,0.232712,-0.349457,1.323669,-29.89943,-55.363655,-77.951718,-94.969952,-61.303093,-94.39325,-110.595177,-122.69672,-53.76709,-90.784596,-109.31757,-123.554924,-45.161797,-78.99876,-96.57106,-109.250221,-36.959267,-62.539284,-76.349705,-86.779106,-15.37931,-12.45176,1.856304,13.943404,16.460338,30.295679,36.77673,41.166975,33.822035,46.606667,51.89517,55.45024,45.829711,58.94619,63.609174,66.040843,53.148926,65.684741,68.410639,69.208763,-10.096298,-6.150375,2.980534,10.116646,3.875118,12.945683,13.103943,10.560814,17.886612,26.183613,24.171261,19.96693,29.944725,36.43396,32.711071,27.797665,40.212856,44.644821,39.971684,34.751736,-25.929195,-44.206867,-53.955126,-56.788291,-70.683788,-66.251832,-57.090985,-50.97339,-67.518598,-60.372902,-51.288601,-44.931199,-57.680992,-49.918378,-41.282707,-36.280948,-45.911734,-39.375428,-31.855629,-28.352096,69.029268,312.773407,-169.98202,-24.363687
70,0.690719,0.189327,-0.176548,1.196149,-29.855644,-55.330101,-78.003582,-95.133739,-60.969749,-94.215076,-110.527164,-122.604812,-53.365928,-90.587894,-109.169437,-123.383686,-44.74102,-78.807197,-96.444202,-109.144397,-36.664123,-62.474922,-76.403331,-86.903469,-15.436306,-12.513029,2.000059,14.214364,16.449742,30.592858,37.044208,41.326451,33.98035,46.987877,52.186422,55.608741,46.075132,59.380715,64.037339,66.48142,53.404251,66.03515,68.847498,69.761738,-9.815689,-5.778705,3.634758,10.902248,3.648857,13.46909,13.708706,11.060314,17.835171,26.796719,24.873333,20.411911,30.165264,37.229817,33.542896,28.507805,40.753006,45.489887,40.814095,35.57103,-26.708239,-45.440838,-55.232397,-57.968675,-72.226697,-68.165582,-58.925627,-52.483275,-69.444933,-62.24846,-52.91168,-46.338405,-59.81931,-51.535066,-42.587351,-37.443338,-48.159968,-41.080579,-33.215843,-29.606371,69.722763,312.780419,-170.155792,-23.349853
71,1.222687,0.209519,-0.39917,0.933629,-29.832344,-55.304123,-78.072899,-95.263424,-60.574699,-94.16946,-110.690964,-122.835674,-52.960464,-90.580753,-109.257271,-123.493641,-44.39447,-78.813423,-96.635731,-109.412063,-36.495735,-62.596115,-76.713856,-87.396812,-15.431366,-12.634776,1.940322,14.362442,16.538786,30.695377,37.070761,41.352596,34.211272,47.148613,52.208541,55.478571,46.36116,59.640042,64.207523,66.568735,53.666888,66.351633,69.271724,70.301733,-10.407509,-6.413486,3.631931,11.372727,2.748493,14.119229,14.78516,11.805382,17.938191,28.263668,26.609745,21.57803,31.199913,39.19067,35.614792,30.309185,42.673474,47.608486,42.721573,37.259869,-28.352708,-47.748562,-57.217178,-59.275165,-74.640885,-70.364656,-60.853493,-54.084784,-71.553932,-63.733211,-54.162972,-47.485702,-61.411686,-52.138855,-43.109451,-37.884785,-49.252795,-41.287332,-33.285942,-29.748866,70.940792,312.768294,-170.55962,-22.637868
72,1.264023,0.059145,-0.35915,-2.787309,-29.660522,-55.121819,-78.017418,-95.359978,-60.025589,-93.917427,-110.696606,-122.978451,-52.487869,-90.419048,-109.269585,-123.634953,-44.086189,-78.735775,-96.793819,-109.764885,-36.429909,-62.80172,-77.151363,-88.097626,-15.414249,-12.722413,1.738595,14.236088,16.605155,30.822422,37.147948,41.428042,34.416061,47.398776,52.354605,55.495787,46.662625,59.992847,64.479323,66.75238,54.019445,66.821714,69.833355,70.942294,-9.615589,-5.297607,4.623196,11.971012,3.966969,15.378262,15.839333,12.527081,19.092774,29.097668,27.268879,21.812416,32.119309,40.018032,36.308487,30.761193,43.374447,48.473316,43.3247,37.465817,-26.845726,-44.939745,-54.01193,-55.999836,-72.237323,-66.614133,-57.212287,-50.45812,-69.341581,-60.309799,-51.011206,-44.435071,-58.999375,-48.577431,-39.944983,-35.022382,-46.464338,-37.255011,-29.710438,-26.828195,72.197239,312.571499,-170.926346,-25.681117
73,1.56443,0.281989,1.251927,-1.764011,-29.384537,-54.801063,-77.935501,-95.516762,-59.625091,-93.796715,-110.874676,-123.390964,-52.173202,-90.390804,-109.440582,-123.921261,-43.90654,-78.876812,-97.162445,-110.214992,-36.420662,-63.059738,-77.521282,-88.489036,-15.639835,-13.235793,0.967148,13.535456,16.164282,30.417697,36.744015,41.053094,34.169257,47.228259,52.101663,55.081047,46.563281,59.960663,64.375175,66.56829,54.023126,66.987403,70.008999,71.107971,-10.121659,-5.993592,3.488754,10.609783,4.18943,13.862388,14.128177,11.25095,19.361812,27.563472,25.48471,20.416065,32.093227,38.463089,34.530841,29.235374,42.886013,46.913314,41.717605,36.176536,-25.76263,-43.359268,-52.860848,-55.358324,-69.257564,-64.79874,-55.954599,-49.522935,-66.027734,-58.124527,-49.154199,-42.757968,-55.667614,-46.60626,-38.181206,-33.165072,-43.295388,-34.999096,-27.81351,-24.87369,73.732612,312.585423,-169.703476,-27.713193
74,1.070275,-0.192414,0.351688,2.744429,-29.171494,-54.546524,-77.828625,-95.767994,-59.500031,-93.761708,-110.956147,-123.671196,-52.105797,-90.311818,-109.434483,-123.997948,-43.882531,-78.786564,-97.288502,-110.613648,-36.407113,-63.091736,-77.690346,-88.879532,-15.752938,-13.461405,0.374319,12.78814,15.844983,30.080169,36.481328,40.967557,33.939076,46.978849,51.746314,54.634813,46.466259,59.981584,64.345559,66.503008,54.009936,67.198589,70.241279,71.399445,-10.689045,-6.793167,2.860485,10.271931,3.559902,13.509098,14.23653,11.695187,19.017517,27.865631,25.714645,20.936176,32.110416,38.726532,34.676159,29.529934,43.474194,47.25238,42.039448,36.886963,-26.321811,-45.216925,-55.437124,-58.122112,-70.364341,-69.19695,-60.548169,-53.919639,-66.785392,-60.667612,-51.468894,-44.941598,-56.435048,-48.72386,-39.950744,-34.431104,-44.117088,-37.195163,-29.739968,-26.045064,74.747097,312.153458,-169.407578,-25.208315
75,0.726287,-0.085475,0.623245,3.444117,-28.905647,-54.286972,-77.659973,-95.809982,-59.450225,-93.751762,-110.99509,-123.843635,-52.219001,-90.392349,-109.601497,-124.265899,-44.112167,-79.024429,-97.705867,-111.244663,-36.628486,-63.336731,-77.988807,-89.342067,-15.933409,-13.807281,-0.383223,11.719277,15.319141,29.405855,35.816919,40.412285,33.437626,46.276339,50.959614,53.849323,46.045393,59.402575,63.733897,65.95748,53.668592,66.928839,70.059831,71.404755,-10.573539,-7.168842,2.228348,10.037533,3.432026,14.034439,15.230347,12.794701,19.054344,28.629731,26.291279,21.297673,32.493016,39.206303,35.096386,29.709481,44.276791,47.816551,42.610565,37.586266,-26.672566,-46.500913,-57.479081,-60.89922,-70.427704,-73.502102,-65.68434,-58.915716,-66.848816,-61.901071,-52.512995,-46.153092,-56.681475,-49.571514,-40.80479,-35.251464,-44.58825,-38.311839,-30.69981,-26.574512,75.372528,311.977565,-168.885189,-21.854616
76,-0.020896,-0.078645,1.243927,4.735046,-28.632088,-54.027993,-77.474453,-95.817696,-59.384537,-93.62217,-110.857155,-123.772706,-52.216256,-90.286274,-109.586152,-124.312729,-44.162705,-79.063408,-97.910592,-111.679207,-36.630662,-63.345475,-78.049702,-89.576523,-16.167197,-14.105882,-1.020031,10.651859,14.727769,28.998845,35.431485,40.007598,32.950625,45.781681,50.383297,53.313379,45.653611,58.995442,63.369273,65.738043,53.298509,66.724654,70.035662,71.663983,-10.611854,-7.626697,1.501568,9.242523,3.214039,13.925926,15.573418,13.560116,19.245461,28.917446,26.314236,21.30613,33.112587,39.361038,35.140801,29.675652,45.342728,48.256714,43.033436,38.222946,-26.322058,-46.982257,-58.85152,-63.371552,-69.841266,-78.064463,-72.05014,-65.419998,-66.333324,-62.672765,-53.156626,-46.992514,-56.436073,-50.055829,-41.2266,-35.574653,-44.62107,-39.05227,-31.298295,-26.772879,75.189841,311.900874,-167.803053,-17.117616
77,-0.257081,-0.051228,2.54464,6.596488,-28.483589,-53.8862,-77.430004,-95.925499,-59.333381,-93.564376,-110.791053,-123.777259,-52.133308,-90.235393,-109.571983,-124.335262,-44.020683,-79.0769,-98.058551,-111.98949,-36.36193,-63.178367,-77.966182,-89.64188,-16.396155,-14.418796,-1.493261,9.902407,14.248487,28.560355,35.023648,39.654089,32.536292,45.294729,49.869015,52.892204,45.314008,58.641501,63.066918,65.595795,52.976505,66.525472,69.978382,71.866203,-11.252586,-8.801285,-0.105515,7.308094,2.285316,13.179909,15.177933,13.68045,18.628921,28.287689,25.323326,20.349666,32.923187,38.613762,34.211311,28.836697,45.747082,47.849018,42.477802,37.891857,-25.716114,-47.257078,-60.16116,-65.916805,-68.871562,-82.514328,-79.203734,-73.430805,-65.34956,-63.795036,-54.267917,-48.007512,-55.655146,-50.690129,-41.818874,-35.949769,-43.954968,-39.613643,-31.809311,-26.957223,74.862865,311.71106,-165.328308,-10.659714
78,-0.750343,0.007212,2.262657,7.789907,-28.351478,-53.756355,-77.232433,-95.804569,-59.139107,-93.410179,-110.633068,-123.668999,-52.009071,-90.081436,-109.434173,-124.273979,-43.938972,-79.02681,-98.168083,-112.431106,-36.201095,-62.997208,-77.934688,-89.96664,-16.539564,-14.660906,-1.890724,9.205788,14.124629,28.409351,34.752638,39.297814,32.393587,44.967477,49.374839,52.43372,45.132302,58.272987,62.664479,65.306013,52.744892,66.23059,69.832516,72.016714,-11.708771,-9.47937,-0.874226,6.276249,0.952194,12.728268,15.487473,14.668934,17.648129,28.742043,25.450527,20.128178,32.515022,38.939564,34.390228,28.936581,46.120617,48.219189,42.746235,38.21743,-25.113355,-47.519591,-61.207885,-67.914493,-68.337211,-85.944007,-85.669768,-81.615211,-65.133878,-64.973462,-55.377164,-48.798436,-55.851296,-51.376213,-42.355528,-36.234413,-44.358124,-40.226145,-32.225552,-27.122566,74.087305,311.099545,-163.090868,-3.488534
79,-1.262283,0.639104,4.794525,5.639894,-28.243401,-53.7342,-77.245583,-95.791867,-58.732636,-93.284832,-110.605946,-123.681759,-51.623039,-90.140614,-109.585121,-124.504338,-43.67656,-79.138413,-98.416821,-112.863442,-36.017487,-63.048706,-78.064408,-90.239342,-16.759975,-15.194059,-2.68571,8.383891,13.785039,27.803025,34.053438,38.547572,32.081476,44.333709,48.646493,51.848178,44.826205,57.605762,61.922634,64.681099,52.438216,65.67948,69.29698,71.69255,-12.254242,-10.04496,-2.376823,3.878666,1.129406,11.180157,13.623791,13.490776,17.126461,26.47189,22.773525,17.659001,31.178913,36.271214,31.260487,26.154602,43.723641,45.354492,39.550724,34.927483,-22.949776,-43.741319,-57.202711,-64.522283,-61.696554,-81.401536,-84.681409,-82.839086,-58.241717,-60.589159,-52.366381,-46.264119,-48.977951,-46.807381,-38.860547,-33.22991,-37.512826,-34.551857,-27.723015,-23.19913,73.034083,310.877274,-158.087282,1.289985
80,-1.76548,0.873991,3.889572,15.77463,-27.937203,-53.348076,-76.931694,-95.406739,-58.425087,-93.115734,-110.486058,-123.579632,-51.431214,-90.154839,-109.566193,-124.460118,-43.574044,-79.211815,-98.487534,-112.985676,-35.92749,-63.123986,-78.188828,-90.47065,-17.053747,-15.99059,-4.017222,6.957629,13.397765,27.078741,33.187685,37.558675,31.760052,43.716414,47.908847,51.084325,44.56195,57.033743,61.244034,63.971797,52.245159,65.280992,68.845967,71.229582,-12.886219,-9.866386,-1.618549,4.514477,3.079663,11.787129,13.520188,13.802136,19.369057,26.132264,21.583866,17.106537,32.985386,35.387032,29.378472,24.866959,44.985054,44.293019,37.605057,33.247639,-24.198214,-45.642558,-59.422372,-66.226773,-62.290222,-84.950499,-91.353671,-91.905954,-57.737808,-64.687268,-57.626003,-51.197415,-47.934819,-49.851317,-42.58979,-36.220933,-36.068422,-36.63563,-30.856286,-26.054753,71.613636,310.501671,-153.852677,15.815021
81,-1.814621,0.814834,4.838654,17.503636,-27.698067,-53.066368,-76.656956,-95.015682,-58.372513,-93.062096,-110.463959,-123.546513,-51.514755,-90.233826,-109.640145,-124.51846,-43.681114,-79.358345,-98.627964,-113.158997,-35.973976,-63.175049,-78.239788,-90.56559,-17.417124,-16.772697,-5.150071,5.796264,13.005946,26.338156,32.266393,36.454763,31.415225,43.009841,47.060223,50.109422,44.259867,56.381201,60.459186,63.079231,52.003455,64.735982,68.178296,70.434224,-13.278111,-9.732021,-0.833222,5.44622,3.897755,12.717956,14.340763,15.210617,20.129917,26.775616,21.737446,17.449711,33.528831,35.4226,28.615105,24.55315,45.247227,43.712082,36.47715,32.452537,-25.435038,-47.391095,-61.956399,-68.821495,-62.117036,-86.425364,-95.237327,-98.138707,-56.167854,-69.179944,-64.027094,-57.377952,-45.631202,-52.449194,-45.994838,-39.036684,-33.022126,-37.565351,-32.970416,-28.028339,70.361395,309.454724,-148.451643,31.456876
82,-1.810936,0.80646,4.412029,18.354347,-27.449661,-52.86676,-76.474125,-94.749939,-58.627259,-93.196072,-110.580025,-123.663563,-51.954918,-90.441811,-109.750351,-124.561856,-44.183235,-79.714291,-98.870178,-113.363045,-36.427368,-63.55196,-78.537014,-90.842823,-17.844881,-17.627063,-6.460316,4.346414,12.505669,25.514196,31.258565,35.280196,30.95069,42.083239,45.94921,48.831016,43.848177,55.455637,59.408775,61.939405,51.684169,63.991162,67.386125,69.632099,-11.382431,-6.098934,4.344967,11.429936,5.422749,15.582825,16.620083,16.949318,20.788067,29.305939,23.917305,19.485523,33.65894,37.690098,30.279694,26.3703,44.75877,44.96418,37.406994,33.352444,-27.853141,-51.507594,-67.840608,-76.009947,-60.095409,-84.38355,-91.839696,-94.427483,-52.01475,-69.825545,-65.86407,-59.126285,-40.564741,-52.720384,-47.076835,-39.819865,-27.578605,-36.372796,-32.797595,-27.714709,68.980877,308.162708,-143.609196,47.712747
83,-1.747147,0.667991,4.866532,20.099901,-27.336456,-52.780906,-76.484093,-94.728893,-58.861221,-93.316395,-110.696731,-123.828678,-52.272812,-90.626907,-109.933079,-124.745086,-44.517059,-79.980331,-99.003719,-113.345775,-36.747917,-63.973057,-78.919636,-91.127209,-18.214852,-18.292682,-7.416644,3.183913,11.761046,24.474702,30.142896,34.053475,30.324096,41.115388,44.958413,47.755423,43.375108,54.627712,58.490028,60.905728,51.368612,63.402693,66.67912,68.750748,-10.254891,-3.744988,8.219593,16.51609,7.122413,18.126068,19.235607,19.875663,22.204319,31.179611,25.96305,22.281738,34.738987,39.784618,31.607986,27.956256,45.247524,46.423999,38.083305,33.989925,-29.563498,-54.761408,-72.267508,-80.603116,-57.871233,-83.647182,-91.773271,-95.107639,-48.156392,-71.561503,-70.552161,-65.243497,-36.088386,-54.723592,-50.768416,-43.521153,-22.801315,-37.242742,-35.181451,-29.934747,67.494255,307.068249,-138.482139,66.050198
84,-1.699379,0.239221,2.94683,25.578219,-27.231468,-52.536827,-76.150039,-94.270202,-59.122375,-93.367424,-110.672001,-123.786243,-52.669098,-90.650093,-109.845005,-124.564144,-44.903892,-80.108024,-98.995674,-113.255733,-37.017608,-64.10733,-79.030414,-91.256126,-18.527087,-18.863318,-8.293438,1.980373,11.245998,23.738687,29.177515,32.834893,29.868811,40.311633,43.970332,46.521798,43.004753,53.942703,57.639082,59.837286,51.071852,62.881347,66.087897,68.011139,-7.285852,1.765143,16.446556,26.589037,11.285958,24.720303,25.09536,25.124949,26.265118,37.412722,31.357001,27.309666,38.68903,46.068495,36.889286,32.687731,49.008934,51.448128,42.453484,38.241783,-32.413378,-60.070165,-79.227721,-88.559193,-57.966563,-84.872354,-92.054931,-94.723561,-46.395957,-73.557959,-73.823328,-68.524686,-33.563597,-57.03793,-53.958835,-45.880939,-20.08238,-39.223405,-37.919644,-31.978109,65.689728,305.680878,-135.640457,90.001825
85,-1.476631,0.075336,3.239674,22.329856,-27.131035,-52.285927,-75.823219,-93.919716,-59.285362,-93.333801,-110.598495,-123.729172,-53.003998,-90.652302,-109.835335,-124.55373,-45.307503,-80.252483,-99.105812,-113.355377,-37.356537,-64.229107,-79.080162,-91.285229,-18.646883,-19.263016,-8.908324,1.110989,10.6681,22.943366,28.26467,31.827076,29.233497,39.396009,42.940384,45.370893,42.42236,53.073886,56.687471,58.77624,50.585308,62.197769,65.369233,67.225574,-2.873983,9.805784,27.179821,39.050829,16.381451,33.0531,31.653454,30.283133,29.69672,45.302942,38.095831,32.966652,41.207554,53.795614,43.729832,38.604761,50.613785,57.004154,47.856457,43.298492,-33.71026,-62.125842,-81.945881,-92.820761,-51.97187,-78.490238,-83.023389,-83.301747,-38.118795,-67.883447,-68.738675,-63.031443,-24.39345,-52.097915,-49.74201,-41.144534,-10.873794,-33.784175,-33.217454,-26.769813,63.650236,304.293483,-132.963644,110.86895
86,-1.303574,0.044559,1.962765,22.203571,-27.07331,-52.019119,-75.474597,-93.482528,-59.418891,-93.139595,-110.318355,-123.470317,-53.255813,-90.429508,-109.553398,-124.35149,-45.591659,-80.084358,-98.785949,-112.962593,-37.574157,-64.255703,-79.056713,-91.281177,-18.697135,-19.565754,-9.428794,0.326746,10.182112,22.203633,27.479366,30.966436,28.699122,38.591612,42.121747,44.550304,41.934816,52.387321,56.004005,58.114523,50.16601,61.634939,64.809565,66.622149,1.724229,18.721761,38.73516,52.568269,23.951316,42.373272,38.003288,34.861948,35.187847,53.009061,44.132658,38.229995,44.828579,60.856264,49.815536,43.828897,52.401283,62.444595,52.76318,47.277568,-35.504554,-64.384048,-83.981564,-95.465896,-46.45565,-73.947946,-75.473629,-72.844346,-30.90568,-62.538048,-63.299878,-57.079882,-16.883464,-47.985442,-46.388604,-37.354183,-4.150804,-29.910171,-29.844845,-22.815533,61.377645,303.427019,-131.969896,132.161498
87,-1.4832,0.128527,2.439777,22.497787,-26.891739,-51.488136,-74.840068,-92.762214,-59.103847,-92.585334,-109.691997,-122.863941,-53.109764,-89.989906,-109.130493,-123.999218,-45.544807,-79.680988,-98.313686,-112.481598,-37.505996,-64.007057,-78.791267,-91.08641,-18.726183,-19.846631,-9.894466,-0.364389,9.769323,21.44493,26.581416,29.928177,28.23881,37.916075,41.42934,43.868864,41.457424,51.818982,55.443139,57.568921,49.649456,61.078062,64.260814,66.035718,6.435442,26.232977,47.693287,62.65135,30.892662,50.840309,44.964695,41.232325,39.742756,59.518679,49.510077,42.865723,47.041535,65.360292,53.9393,47.158041,52.651028,64.822243,55.159916,49.289486,-34.627914,-61.231591,-79.23405,-90.443778,-41.589625,-70.507423,-71.771241,-68.130745,-25.829938,-58.769457,-59.547528,-52.95117,-12.338776,-44.58423,-43.556144,-34.314296,-0.676429,-27.458735,-27.996815,-20.942519,58.825796,303.155817,-130.598768,154.259556
88,-1.851219,0.351286,1.131329,26.334698,-26.449676,-50.828728,-74.073005,-91.95385,-58.769131,-92.081726,-109.049389,-122.072033,-52.979484,-89.640278,-108.646625,-123.367927,-45.513519,-79.348079,-97.898598,-112.081558,-37.406021,-63.763939,-78.521358,-90.88409,-18.894601,-20.361383,-10.647907,-1.241084,9.24416,20.583277,25.602635,28.927487,27.697061,37.143947,40.507319,42.89816,40.948958,51.163316,54.742926,56.84717,49.179214,60.510316,63.721955,65.517817,13.891405,38.63162,62.570446,78.971883,41.487693,64.488452,55.664222,49.587026,46.457988,69.610101,58.011938,49.707538,50.423835,72.738184,60.848464,52.421762,53.195789,69.42065,60.169841,53.215828,-34.335588,-57.389128,-72.31604,-82.05872,-32.813409,-61.802739,-61.651954,-55.537842,-16.251609,-49.276819,-50.132603,-42.552956,-3.169198,-35.118299,-35.276605,-26.172974,7.094471,-19.092801,-20.761038,-14.129182,55.786514,303.191293,-130.655502,180.278444
89,-1.651291,0.333168,2.001789,22.337742,-26.056938,-50.30365,-73.423507,-91.296261,-58.765697,-91.656669,-108.452797,-121.307476,-53.162624,-89.365253,-108.212425,-122.810932,-45.730613,-79.104961,-97.439254,-111.40662,-37.523231,-63.66077,-78.327209,-90.607876,-19.120706,-20.684498,-10.882213,-1.625765,8.883921,19.881398,24.860197,28.238921,27.317345,36.472856,39.779715,42.17978,40.573479,50.585036,54.139847,56.243548,48.845046,60.009211,63.228557,64.965546,18.644382,45.557522,70.638565,87.460258,46.452667,73.148288,63.459411,56.068313,48.925323,76.308094,64.465496,54.819076,50.657352,77.064674,66.025531,56.782573,51.866169,71.929081,63.752895,56.130375,-32.053317,-51.423538,-62.786503,-69.576467,-25.513195,-51.532416,-50.939489,-44.324902,-8.839954,-38.362085,-39.859884,-33.077386,3.540621,-24.797359,-26.270947,-18.682093,12.556799,-10.701618,-13.40631,-8.323634,52.75724,303.297467,-130.031696,202.389192
90,-1.815651,0.084784,2.870418,17.241185,-25.742202,-49.899925,-72.729423,-90.266121,-58.734157,-91.162902,-107.685493,-120.332542,-53.205185,-88.956024,-107.554744,-122.012878,-45.757988,-78.706409,-96.719284,-110.513866,-37.46791,-63.430435,-78.039196,-90.363155,-19.189484,-20.806555,-11.08788,-1.862751,8.749638,19.469633,24.39261,27.704087,27.15483,36.090942,39.376372,41.736325,40.417633,50.301218,53.830588,55.894534,48.726496,59.655517,62.885112,64.597896,21.54522,49.224106,74.200699,90.887364,48.335449,77.415402,71.58704,66.712921,48.747574,78.934227,69.451596,60.262711,48.584267,77.580906,68.916367,59.797371,48.392098,71.338772,65.176094,57.469139,-27.908679,-42.791467,-50.102802,-53.338697,-16.645651,-38.146891,-39.040154,-33.897617,-0.762791,-25.396586,-29.143471,-24.780181,10.29693,-12.920792,-16.928443,-12.435669,17.707634,-1.241085,-5.470704,-2.732938,49.615671,303.207954,-128.487196,219.45608
91,-1.770996,-0.005904,3.50037,16.13332,-25.284782,-49.310211,-71.583915,-88.283478,-58.469879,-90.694771,-107.129619,-119.612331,-53.207508,-88.657642,-107.138443,-121.298538,-45.850479,-78.522491,-96.382152,-109.94807,-37.504211,-63.312252,-77.768097,-89.921356,-19.288951,-21.078614,-11.556491,-2.181592,8.341172,18.843768,23.868387,27.305687,26.809436,35.720638,39.042007,41.303344,40.179042,50.049586,53.486725,55.254948,48.621978,59.435772,62.701887,64.288836,23.733021,51.735249,76.530556,92.523148,48.665863,80.771954,80.576878,79.145645,47.420265,81.227257,74.572621,65.509209,45.842915,77.941315,72.119568,63.273892,44.553475,70.064255,66.519036,59.247368,-24.091343,-34.730507,-37.952223,-37.019119,-8.045288,-22.700291,-25.432648,-22.441755,7.753789,-10.238169,-16.989663,-15.656372,18.137047,0.996528,-5.80213,-4.670394,24.50717,10.605559,4.407633,4.188975,46.522573,303.01063,-126.308928,235.39798
92,-0.907997,-0.464202,9.137684,18.920857,-25.78981,-50.321651,-72.632927,-89.369614,-59.0289,-90.737079,-106.941879,-119.048538,-54.37381,-88.779888,-107.231598,-121.238617,-47.323963,-78.882122,-96.76387,-110.321743,-39.009476,-63.936012,-78.159393,-90.14439,-18.362523,-19.693059,-11.083211,-2.556319,7.303863,15.925184,19.939986,22.700143,25.483654,34.22787,37.646608,40.04177,39.03015,48.979636,52.616834,54.419032,47.763005,58.331538,62.011567,63.987382,22.946972,49.309628,73.141468,89.127514,46.330467,81.534886,84.303532,82.900852,45.570923,81.450852,77.392182,68.118324,44.725571,77.452274,73.573116,64.149479,43.989773,69.134354,66.999104,59.014343,-24.109262,-32.489448,-32.161504,-26.273219,-2.121485,-9.367303,-13.052209,-12.147578,15.673626,5.167608,-3.234869,-4.451846,27.606386,18.117682,10.136899,8.148461,34.661976,28.366126,22.052357,19.459778,44.223633,302.306469,-118.562187,254.078878
93,-0.483101,-0.256561,7.205269,11.147222,-25.827667,-50.337375,-72.745376,-89.965793,-56.748871,-89.358639,-106.046013,-118.262054,-53.073051,-88.113167,-107.312965,-121.631229,-47.207073,-79.109928,-97.644253,-111.622284,-39.999458,-64.700935,-79.279369,-91.560573,-17.739485,-20.169574,-14.243375,-7.860556,6.199445,12.645941,14.969103,16.31641,24.319004,31.71679,34.146459,35.629642,37.962202,47.29264,50.680453,52.093599,46.680891,57.303061,61.282109,63.370496,21.481052,46.209972,69.026424,84.553905,40.759483,79.186993,88.222721,89.950378,39.983253,79.549141,81.513748,74.835617,39.783154,74.425003,75.97681,69.543663,40.170296,65.840286,67.536816,61.797363,-22.690757,-29.15873,-25.915821,-17.071173,1.185336,1.702199,-1.261376,-1.615786,20.129794,18.309454,11.091312,8.584295,32.992776,31.786543,25.237862,21.803798,40.784788,41.665868,37.151975,33.416742,42.376659,301.981269,-112.720791,265.157461
94,-1.200645,-0.263106,4.684982,7.597141,-25.059014,-49.510266,-71.989563,-89.530758,-52.738976,-85.257145,-102.709614,-115.802056,-50.438564,-84.966889,-105.266178,-120.617787,-46.249821,-77.582749,-97.12175,-112.17746,-40.580887,-64.38311,-79.334038,-92.196659,-17.066937,-21.033475,-18.100676,-13.817075,5.439989,10.023562,10.148446,9.472464,23.509432,29.674926,30.589833,30.506889,37.108527,46.035599,48.48756,48.770759,45.753696,56.851369,61.091807,63.119233,21.591568,46.210465,68.523056,84.490116,39.884297,79.113739,93.898636,99.791794,37.614258,78.543961,86.773602,84.16967,36.568348,71.775387,78.971993,76.61348,36.363213,61.947602,67.727932,65.336792,-21.47772,-25.694606,-20.351331,-10.535041,5.918171,11.892771,9.817525,9.412393,25.728358,29.694908,24.010437,21.351007,39.296616,44.009543,39.043352,35.344305,47.371989,53.966698,51.017832,47.198062,40.000483,301.778861,-109.21134,272.8153
95,-1.551979,-1.380245,3.768803,5.779307,-24.388733,-48.870037,-70.902672,-88.65334,-50.187493,-80.518238,-98.304062,-112.463711,-48.273583,-80.056927,-100.780232,-117.028073,-44.588619,-73.579102,-93.553231,-109.399567,-39.357811,-61.611832,-76.555195,-89.842701,-16.242903,-20.605582,-19.485404,-16.729545,6.427378,10.697345,9.926971,8.131578,23.854604,30.340225,30.391947,29.125137,36.852633,46.357244,47.866363,46.850778,44.939739,56.477668,60.583243,62.144898,22.64764,47.003872,69.173664,85.874702,40.526791,79.604279,96.341801,104.233818,36.493732,77.939529,90.855755,92.636948,34.244877,69.614857,81.323296,83.547981,33.169258,58.359787,67.292519,68.656597,-20.095202,-22.727338,-16.468934,-7.413223,9.349012,19.475092,19.765628,20.424381,29.728736,38.570962,35.993994,34.410701,43.935678,53.78414,51.847881,49.058257,52.440759,63.967227,63.362209,60.088659,37.551195,300.585895,-106.339846,278.781886
96,-2.638893,0.148349,4.062927,4.769688,-22.079888,-45.917942,-67.724053,-86.247116,-49.29134,-72.727398,-83.95094,-92.687336,-48.188462,-72.644738,-85.846791,-95.407643,-45.248566,-67.635922,-81.032776,-91.257924,-40.57267,-58.293812,-68.72374,-77.722824,-16.012154,-21.338324,-22.024137,-21.649312,4.933524,9.7465,9.246494,7.434663,21.905032,28.788388,29.548276,28.557058,34.724146,43.706386,45.583117,44.977024,43.048583,53.879025,57.569292,58.929801,23.974468,47.916229,70.057011,87.944596,41.914787,80.594639,97.843403,106.437527,36.141529,77.269535,94.49033,100.809506,32.506348,67.519066,82.987621,89.406441,30.358875,54.967987,66.534771,71.713062,-18.59894,-19.999464,-13.433382,-6.273323,12.098474,25.100221,28.116408,30.159976,32.31341,45.284097,47.015492,47.195198,46.637172,61.097365,63.019692,61.783301,55.269126,70.875592,73.28886,71.497381,34.220358,300.975188,-102.968863,283.792518
97,-3.887146,-0.000383,-1.59082,-0.32456,-17.359681,-38.129471,-57.397969,-73.902008,-45.260273,-62.278839,-67.582318,-71.462105,-45.161557,-62.981953,-68.643551,-71.647213,-43.00684,-59.441437,-65.622689,-69.895031,-39.063836,-52.504761,-58.076386,-62.702374,-15.284326,-21.158248,-22.032312,-21.535036,5.281982,12.853954,13.921556,13.095966,20.708532,28.47803,30.506581,30.288281,32.342297,40.92574,43.611488,43.770965,39.987875,50.47433,54.145318,55.542297,26.310161,52.025596,75.354698,94.153484,46.318657,83.883179,103.684124,116.281322,37.990757,79.054184,100.551075,111.973492,31.814987,67.699665,87.432415,99.110458,27.488342,53.796718,68.766037,78.746658,-15.464341,-15.22202,-8.061689,-2.796627,15.631475,30.094347,34.907026,38.358492,34.045164,49.41862,53.797268,55.399839,46.690376,63.274511,67.391769,67.976249,54.135413,70.241612,73.850257,73.566181,29.838593,301.17279,-105.054302,283.665943
98,-9.63881,0.386323,1.411114,0.662977,-12.197822,-28.847602,-45.076606,-59.882423,-41.493484,-47.022972,-44.647922,-43.741378,-43.170868,-47.823474,-45.387725,-42.428443,-42.25391,-47.813301,-45.962242,-44.552787,-39.235931,-48.844917,-51.587036,-53.654663,-15.743391,-21.033252,-20.560775,-19.142146,6.527488,17.431573,19.802727,19.693343,21.505063,31.314955,34.178643,34.140136,32.269679,41.50155,43.544896,43.397609,39.624523,49.616098,52.779238,53.876778,27.201725,53.129642,76.770641,96.373397,50.072788,85.411399,104.848548,118.794754,40.726833,79.691963,101.850975,115.653534,33.011798,67.696838,88.301593,102.3227,26.923336,52.865444,68.777675,81.247684,-14.025556,-13.439137,-6.895174,-3.66853,17.507761,32.876377,39.301075,43.960044,35.094464,51.243802,57.231579,59.647255,47.044811,64.572517,69.733876,70.89161,53.842173,70.162449,74.070842,74.297083,19.945118,301.680091,-103.897853,284.449898
99,-12.500724,2.919177,3.095569,0.782168,-7.727234,-19.00914,-29.852463,-40.897866,-35.942036,-29.781407,-19.320992,-12.511071,-38.910817,-31.171784,-19.340126,-9.137524,-38.32766,-33.990933,-23.545773,-15.220608,-35.147198,-41.878853,-42.235588,-41.808804,-16.000397,-20.750189,-19.38695,-17.499363,4.224716,17.257029,22.681346,25.304046,18.788946,30.087629,35.046767,36.585649,29.334953,38.637615,41.951328,43.165205,37.233337,45.498012,48.368369,49.799064,27.553757,53.564003,77.266136,96.957562,52.130665,85.823559,104.368458,118.466183,42.325676,79.581642,101.531307,116.549114,33.739632,67.314709,87.636738,102.520855,26.517929,52.097546,68.012009,81.404858,-13.243339,-12.627107,-6.4688,-4.656821,18.939173,34.802804,42.353941,47.665439,35.948373,52.471746,59.557593,62.73065,47.314709,65.201556,71.065882,72.510001,53.69512,69.872258,74.159009,74.661102,7.386389,304.653068,-100.860289,285.285866
100,-3.824479,1.761196,3.16444,0.618393,-4.870445,-13.829429,-23.569507,-34.029281,-36.66291,-23.909076,-5.196029,8.371697,-41.442935,-25.897945,-5.25254,12.702713,-41.913208,-31.151252,-12.092124,3.414917,-39.584667,-44.923542,-42.96413,-39.670612,-15.004931,-19.477587,-17.384174,-14.8829,3.728279,18.159091,24.045758,27.264572,17.690986,29.061744,35.007308,37.566641,27.47256,35.991091,39.916256,42.30333,35.126981,42.519197,45.709112,48.097914,27.157803,53.171791,76.793965,96.248886,52.946526,86.242573,104.236908,117.720955,43.137818,79.96962,101.492455,116.132698,34.192189,67.556408,87.465603,101.921517,26.404347,52.174096,68.020192,81.220311,-13.442966,-12.952877,-6.568008,-4.771812,19.341057,35.626752,43.455074,48.944464,36.280183,52.957129,60.414393,63.934216,47.45697,65.321636,71.361456,72.979959,53.688859,69.64414,73.886122,74.45824,3.597375,306.434626,-97.660384,285.924621
101,-8.163139,3.255642,2.045975,0.262168,-0.899345,-5.572265,-11.504459,-18.721218,-29.634956,-12.443825,7.098038,20.361328,-36.231377,-16.005215,5.26886,22.784454,-37.949249,-23.743584,-3.810242,11.51001,-36.531772,-43.054058,-44.603966,-45.087719,-15.881465,-21.063794,-20.119297,-18.365425,1.85555,16.326636,22.22816,25.678835,15.870992,27.340637,32.450521,34.576945,25.458101,34.370748,37.752102,39.886814,33.018773,39.866584,43.268983,46.113787,26.912052,52.999535,76.438866,95.726807,53.218529,86.293121,104.024712,117.201691,43.531849,80.383072,101.603394,116.055519,34.573036,67.95266,87.670303,101.914559,26.67215,52.536633,68.330132,81.214977,-13.583139,-13.173635,-6.552398,-4.422157,19.463026,36.012853,43.93669,49.523941,36.477253,53.233437,60.710152,64.370334,47.63738,65.347349,71.214218,72.723213,53.875888,69.468892,73.474481,73.795657,-4.430506,309.691306,-95.479151,286.187827
102,-3.957367,0.968864,0.995659,-0.105976,-0.141952,-3.984169,-9.76569,-17.595749,-28.95528,-8.795826,12.328972,25.674912,-36.513336,-12.24559,9.526543,26.855187,-39.259918,-22.073753,-1.417694,13.892143,-38.756172,-46.248195,-49.667381,-51.69096,-17.047535,-22.499319,-21.835428,-20.829773,2.414923,16.909325,21.82015,24.249374,17.480121,28.67221,32.29917,32.988552,27.139713,36.172403,37.800354,38.634256,34.63793,41.622408,44.552477,47.028916,26.900722,53.03857,76.285469,95.51976,53.219982,86.087997,103.469536,116.304405,43.594872,80.543529,101.421318,115.702789,34.575668,68.119652,87.636085,101.669929,26.558601,52.433979,68.123016,80.794247,-13.541186,-13.22705,-6.211375,-3.881285,19.520602,36.161844,44.038763,49.588248,36.757068,53.28243,60.569929,64.195247,48.045007,65.359427,70.934921,72.173424,54.388256,69.671891,73.446471,73.486028,-8.175413,310.670062,-94.271032,286.091743
103,-3.398884,3.0779,0.341423,0.069704,1.073479,-1.274128,-4.229679,-8.846191,-25.260475,-3.272323,18.184422,31.98412,-32.857635,-8.004295,14.695393,32.958126,-35.324787,-17.530849,3.466153,19.426358,-34.242439,-41.574417,-45.562751,-48.355568,-17.609909,-24.212065,-25.075262,-25.333811,-1.268626,11.838764,17.380481,20.88205,14.035016,24.746168,28.679102,29.985629,24.295292,32.916156,35.261683,36.709718,32.451126,38.53532,41.507577,44.111159,26.936142,53.155701,76.289875,95.455399,53.405342,86.252563,103.473816,116.132973,43.786205,80.814079,101.484741,115.682579,34.684719,68.292641,87.665932,101.5215,26.533024,52.368885,67.917881,80.374615,-13.614089,-13.435927,-6.200927,-3.526048,19.387789,35.888858,43.658628,49.16306,36.658169,52.950966,60.120769,63.87244,47.943291,64.925408,70.28685,71.475114,54.316638,69.373747,73.011439,72.992889,-11.289288,313.756443,-93.6446,286.169928
104,3.674057,-2.815412,0.604992,0.307467,0.552567,-3.1688,-8.224113,-14.378917,-28.14434,-7.795234,13.744503,27.383824,-35.390911,-11.298362,10.812619,28.96336,-38.084209,-20.277649,0.611012,16.138745,-37.685188,-43.889991,-46.444072,-48.195568,-17.29755,-23.100952,-22.93971,-22.510063,2.176443,16.03988,20.168068,22.244191,17.111398,28.430051,31.600181,32.367664,26.689813,35.92376,37.098215,37.850521,33.927517,41.293477,44.017892,46.16451,27.016331,53.064995,76.155064,95.438358,53.233303,86.166859,103.429813,116.035091,43.702652,80.80204,101.384617,115.513058,34.656017,68.398785,87.643673,101.311535,26.542053,52.391361,67.882736,80.26411,-13.610741,-13.61725,-6.327898,-3.270363,19.160276,35.469956,43.121005,48.510198,36.42621,52.525901,59.593742,63.319033,47.771008,64.572974,69.841754,70.951174,54.266386,69.231438,72.762598,72.615941,-7.290865,310.943403,-92.715242,286.479767
105,-8.979114,2.313109,0.778221,0.226871,3.977829,4.574547,4.596016,2.411774,-17.393807,5.513248,25.688988,38.094429,-25.43375,0.633659,22.530029,40.177254,-29.092587,-9.288334,10.720825,25.624191,-29.504814,-32.979481,-33.834,-34.445503,-18.885956,-24.949241,-24.673501,-24.303134,-2.144913,10.110333,15.276756,18.90232,13.331074,24.984698,29.173204,30.89735,24.284288,33.964666,36.04726,37.451724,33.005237,40.200815,42.379246,43.935826,27.104668,53.103481,76.252499,95.693562,53.160324,85.97089,103.199352,115.829464,43.634777,80.592087,101.103344,115.27383,34.506878,68.207314,87.449444,101.207668,26.259029,52.113384,67.636345,80.130386,-13.557488,-13.636911,-6.376508,-3.15447,19.082706,35.284124,42.795,47.984702,36.259435,52.219878,59.222536,62.832477,47.610939,64.337866,69.602311,70.618735,54.181343,69.136206,72.671356,72.436902,-15.943531,313.25594,-91.610573,286.706066
106,-4.290734,0.486519,0.967632,0.506576,4.819989,7.378144,9.976021,9.355843,-11.493988,11.253216,30.494294,42.234215,-19.609703,6.621712,28.424744,45.993989,-23.832996,-3.284832,16.492676,31.639779,-25.022918,-25.538944,-23.192584,-20.590873,-18.288508,-23.105263,-20.739728,-18.18599,-3.735974,7.030211,12.372794,16.773709,11.474956,23.066694,28.519033,31.290811,22.985492,32.743737,35.604448,37.53731,32.444432,39.940883,41.907621,43.257683,27.044896,52.912823,76.117596,95.733788,52.970295,85.777748,103.01088,115.635224,43.466721,80.406407,100.89576,114.973412,34.352578,68.187573,87.408898,101.096558,26.152027,52.135083,67.680703,80.227764,-13.727734,-13.964757,-6.706799,-3.271487,18.67703,34.84908,42.292536,47.361541,35.864491,51.740176,58.666671,62.126114,47.33242,63.960521,69.140936,69.98846,54.045072,69.022511,72.468518,72.070684,-19.903754,313.739613,-90.31243,287.209796
107,-6.949367,-0.026095,0.81221,0.638005,6.538147,11.282478,15.51519,15.825233,-3.53223,20.654583,39.149563,49.899639,-11.48576,16.298344,37.611156,54.172909,-16.337025,5.722,25.163166,39.682102,-18.671906,-16.203976,-11.68903,-7.894924,-18.303267,-22.64274,-19.234649,-15.612123,-4.784595,5.756336,11.284257,16.153179,10.409513,22.299234,28.012827,31.153181,22.305804,32.600623,35.594073,37.646274,32.230738,40.352832,41.609934,42.014436,26.976792,52.787945,76.112412,95.968781,52.827771,85.51854,102.780716,115.468827,43.502942,80.331986,100.790657,114.800583,34.546887,68.412827,87.539086,101.005761,26.456372,52.489747,67.981053,80.436448,-13.842244,-14.261196,-7.149709,-3.630825,18.117164,34.130577,41.573836,46.615213,35.349802,50.980115,57.905733,61.316245,47.028645,63.446103,68.583738,69.320568,54.012283,68.976112,72.336051,71.743037,-26.53236,313.708914,-89.179459,287.843197
108,-2.326675,-1.945534,0.898053,0.514937,7.909687,13.787796,17.292045,15.866523,0.313556,23.842632,41.773647,51.838314,-7.87801,19.987598,40.699779,56.546299,-13.983651,8.590793,27.864612,42.07394,-18.284512,-12.577572,-4.926362,1.61626,-18.461249,-22.794596,-19.085335,-15.214498,-4.206969,7.32434,12.509411,16.593065,11.325878,24.153476,29.608977,32.332281,23.575431,34.680822,37.09698,38.718423,33.76967,43.524062,43.876175,43.007631,27.049896,52.698417,76.112342,96.167484,52.81081,85.319996,102.582607,115.38779,43.620346,80.111698,100.518436,114.477115,34.718135,68.396175,87.473682,100.850246,26.616165,52.588588,68.059501,80.535724,-13.889038,-14.355822,-7.428784,-4.029202,17.556223,33.532326,41.005065,46.023088,34.809979,50.269751,57.265554,60.571436,46.731329,63.022014,68.276097,68.946447,54.043257,69.063526,72.457736,71.734268,-28.569843,311.760077,-87.992214,288.354831
109,-6.660714,1.384667,1.057605,0.472329,11.678994,20.84483,26.294175,25.643933,8.915932,34.932827,51.910389,60.701672,-0.25764,29.36237,49.478108,64.13213,-7.778297,16.856655,35.767239,49.341511,-13.774589,-3.853443,5.942334,13.755719,-19.795577,-25.848673,-23.84633,-21.100326,-8.289067,3.60179,9.138913,13.408361,8.306381,21.885,27.346108,29.998819,21.969302,33.626014,36.112876,37.654907,33.50008,43.901258,43.2233,41.074497,26.937584,52.386601,75.911614,96.201027,52.783596,85.105889,102.372574,115.245484,43.671341,79.83648,100.2342,114.062325,34.711304,68.194382,87.185715,100.375557,26.51199,52.306778,67.714909,80.168564,-13.851754,-14.434171,-7.714887,-4.496924,17.324449,33.267565,40.785258,45.777865,34.564015,49.764694,56.786691,59.938877,46.617263,62.741494,68.030342,68.591579,54.085803,69.273675,72.708591,71.868921,-34.963938,313.153463,-86.66799,288.835879
110,0.883461,-1.062416,0.99717,0.464425,12.272084,20.848023,23.989998,21.236241,8.846203,35.17677,52.362316,60.73486,-0.599052,29.514531,48.965985,62.987492,-9.087215,16.357876,35.319523,48.556607,-16.488464,-5.004707,5.753563,14.268483,-20.595133,-28.099451,-27.727837,-26.198427,-7.972312,5.332951,10.103405,13.107291,9.517072,23.560462,27.746053,29.235671,23.563648,35.440216,36.65024,37.345155,35.203502,46.719769,45.266115,41.844685,26.807865,52.043735,75.615005,96.027534,52.401375,84.691658,102.028244,115.026512,43.38628,79.446236,99.929283,113.738548,34.500687,67.940517,86.929298,99.991081,26.363766,52.020309,67.407051,79.822494,-13.806157,-14.478064,-7.969681,-4.817681,17.094379,32.990207,40.496698,45.455738,34.355805,49.34463,56.304272,59.269638,46.515708,62.561219,67.831172,68.275775,54.087729,69.487059,72.950442,71.938365,-33.823002,312.086224,-85.413345,289.295481
111,2.868222,-2.198697,0.885761,0.280174,12.023208,19.75304,20.470928,15.375595,6.690445,33.650093,50.533973,58.56356,-3.605736,27.729995,46.399223,59.347023,-12.607029,13.25457,32.149727,44.951088,-20.546975,-9.199208,1.702526,10.440822,-20.102724,-28.593418,-29.41224,-28.156299,-6.00508,7.348941,11.83396,14.15086,12.338732,25.1699,29.21843,30.022667,26.327782,37.287492,38.059458,37.976145,37.673568,49.233702,47.560858,43.210937,26.713692,51.803375,75.349491,95.77628,52.085289,84.21793,101.528332,114.664456,43.103886,78.894344,99.38435,113.237057,34.208714,67.373463,86.339733,99.362812,26.017937,51.285416,66.574597,78.93758,-13.56764,-14.293961,-7.992615,-5.003945,17.045349,32.873165,40.35876,45.329816,34.277752,49.061443,55.997904,58.916438,46.469568,62.445326,67.735558,68.174789,54.07381,69.653081,73.242571,72.210969,-30.705093,309.879175,-84.277897,289.567303
112,1.39318,2.358161,0.818527,0.260167,11.903916,20.223919,23.034211,19.403607,6.241688,33.823906,50.595704,58.855408,-4.766098,26.533127,45.822625,59.498818,-13.539814,11.849408,30.629563,44.120957,-20.619346,-11.195194,-2.296142,5.506188,-20.664355,-30.288453,-32.384435,-32.048167,-8.920402,3.788931,9.14242,12.789363,9.914017,22.29984,26.931677,28.310255,24.605959,34.693234,36.47997,37.168141,36.750425,46.528219,44.591331,40.746602,26.575562,51.534027,75.080304,95.511532,51.79826,83.889279,101.213803,114.400372,42.707371,78.336789,98.824894,112.668446,33.646145,66.719216,85.694035,98.71938,25.305016,50.375336,65.652363,78.03059,-13.371138,-14.146032,-8.043955,-5.169634,16.918995,32.785998,40.272877,45.23472,34.052783,48.865534,55.847369,58.726012,46.192753,62.31071,67.640845,68.060266,53.749596,69.58523,73.296343,72.255021,-29.078671,312.221846,-83.226128,289.81198
113,6.597508,-0.207889,0.771378,0.143137,10.061405,15.744209,16.863544,12.471142,-0.147228,26.324032,43.354969,51.730534,-11.413811,19.052639,38.56525,52.156322,-19.744045,4.735668,23.789463,37.26939,-26.089542,-17.855038,-8.853607,-1.031708,-20.235289,-29.833365,-31.898163,-31.17924,-8.409307,4.200029,9.520148,13.1096,10.514811,22.515683,27.183828,28.625034,25.302318,34.918772,36.720649,37.351664,37.486242,46.929721,44.849423,40.96988,26.281082,51.240166,74.774311,95.182285,51.465912,83.50304,100.849903,114.014568,42.23362,77.852886,98.330532,112.082142,33.039642,66.192799,85.027073,97.838505,24.653686,49.629044,64.815479,76.998012,-13.236139,-14.042686,-8.03132,-5.139796,16.945264,32.857345,40.402035,45.411945,34.049498,48.829645,55.766315,58.615269,46.110342,62.222654,67.412159,67.72164,53.538892,69.494334,73.119601,71.921285,-22.260538,311.994336,-82.234125,289.935496
