takenoko1/special-research/HandMotion_SimilarSearch_自分用/NewProject/handData/key/d4_feature_d3/126.csv
,vel_0x_L,vel_0y_L,vel_0x_R,vel_0y_R,posFromWrist_1x_L,posFromWrist_2x_L,posFromWrist_3x_L,posFromWrist_4x_L,posFromWrist_5x_L,posFromWrist_6x_L,posFromWrist_7x_L,posFromWrist_8x_L,posFromWrist_9x_L,posFromWrist_10x_L,posFromWrist_11x_L,posFromWrist_12x_L,posFromWrist_13x_L,posFromWrist_14x_L,posFromWrist_15x_L,posFromWrist_16x_L,posFromWrist_17x_L,posFromWrist_18x_L,posFromWrist_19x_L,posFromWrist_20x_L,posFromWrist_1y_L,posFromWrist_2y_L,posFromWrist_3y_L,posFromWrist_4y_L,posFromWrist_5y_L,posFromWrist_6y_L,posFromWrist_7y_L,posFromWrist_8y_L,posFromWrist_9y_L,posFromWrist_10y_L,posFromWrist_11y_L,posFromWrist_12y_L,posFromWrist_13y_L,posFromWrist_14y_L,posFromWrist_15y_L,posFromWrist_16y_L,posFromWrist_17y_L,posFromWrist_18y_L,posFromWrist_19y_L,posFromWrist_20y_L,posFromWrist_1x_R,posFromWrist_2x_R,posFromWrist_3x_R,posFromWrist_4x_R,posFromWrist_5x_R,posFromWrist_6x_R,posFromWrist_7x_R,posFromWrist_8x_R,posFromWrist_9x_R,posFromWrist_10x_R,posFromWrist_11x_R,posFromWrist_12x_R,posFromWrist_13x_R,posFromWrist_14x_R,posFromWrist_15x_R,posFromWrist_16x_R,posFromWrist_17x_R,posFromWrist_18x_R,posFromWrist_19x_R,posFromWrist_20x_R,posFromWrist_1y_R,posFromWrist_2y_R,posFromWrist_3y_R,posFromWrist_4y_R,posFromWrist_5y_R,posFromWrist_6y_R,posFromWrist_7y_R,posFromWrist_8y_R,posFromWrist_9y_R,posFromWrist_10y_R,posFromWrist_11y_R,posFromWrist_12y_R,posFromWrist_13y_R,posFromWrist_14y_R,posFromWrist_15y_R,posFromWrist_16y_R,posFromWrist_17y_R,posFromWrist_18y_R,posFromWrist_19y_R,posFromWrist_20y_R,posFromBody_0x_L,posFromBody_0y_L,posFromBody_0x_R,posFromBody_0y_R
6,6.454868,-2.768963,0.258899,0.088142,0.777019,-5.408718,-15.571735,-24.873619,-33.977108,-19.549358,-0.26833,13.234142,-42.716103,-25.750797,-3.59618,15.945637,-46.603935,-33.552406,-12.30685,5.803608,-47.745472,-45.158581,-33.645939,-21.76181,-16.534512,-25.25041,-26.15661,-25.392745,-1.80494,12.780656,19.405055,23.358835,15.255674,27.358199,34.179607,37.908776,28.508399,37.909887,41.847797,44.188299,39.153899,48.341174,48.67617,47.71074,28.135724,53.5467,76.570507,96.162426,56.329056,89.319661,106.534184,118.609326,46.914219,84.165013,104.206845,117.805951,37.119919,71.454117,90.338986,103.088482,28.124943,54.456002,70.16256,82.986958,-14.415942,-15.962345,-9.559729,-6.585323,16.247312,32.050008,39.08685,43.602497,33.808635,48.787272,55.078169,58.224686,45.857709,60.629321,65.273693,65.828891,53.345675,67.500561,71.081443,70.673483,18.375429,316.83434,-81.621924,299.485043
7,-8.732666,4.345648,0.190934,0.165047,2.778671,0.049107,-6.429096,-12.800182,-25.535007,-9.360683,9.629116,23.157749,-33.874008,-15.125027,6.65823,26.364796,-37.499199,-22.3545,-1.640888,16.236752,-38.406956,-33.565018,-22.175159,-10.271416,-17.947016,-27.925882,-29.663502,-29.031178,-5.742405,6.654225,13.67642,18.133281,10.935381,22.165002,29.806319,34.248421,24.188971,33.403898,37.950038,40.504096,34.875151,43.637238,44.637175,43.921562,28.134521,53.568981,76.625793,96.190303,56.279113,89.274616,106.524089,118.651439,46.854423,84.150066,104.222477,117.865162,37.05067,71.445293,90.369884,103.196697,28.038356,54.409698,70.124519,82.969631,-14.558994,-16.105088,-9.677031,-6.6758,16.074015,31.850726,38.881974,43.393509,33.657012,48.671045,55.037327,58.240049,45.718832,60.513934,65.11161,65.661596,53.21564,67.388792,70.925276,70.506176,10.14822,321.281227,-80.925533,299.751329
8,-2.979401,-0.538624,0.299675,0.234503,3.540402,1.989567,-3.399112,-9.316761,-23.180408,-6.169704,13.127873,27.073803,-31.165168,-11.229091,9.987088,29.164067,-34.548626,-17.702797,2.975682,20.37521,-35.012638,-29.625114,-17.82613,-5.68412,-17.091872,-26.765728,-28.663689,-27.880817,-4.747211,7.916082,14.718828,18.454568,11.829996,23.51021,30.677432,34.578687,24.810081,34.902729,39.251007,41.336035,35.120374,44.940542,45.948988,45.017372,28.022724,53.42633,76.468895,95.969272,56.362323,89.271068,106.47742,118.593418,46.992221,84.253933,104.293979,117.951038,37.180755,71.565742,90.459331,103.278431,28.112022,54.473396,70.155635,83.000988,-14.777244,-16.347668,-9.847807,-6.705205,15.720185,31.463552,38.500888,43.021562,33.334873,48.412533,54.870564,58.133802,45.461592,60.31905,64.912799,65.475901,53.043246,67.235306,70.735529,70.303511,7.537777,320.820168,-80.2569,300.063397
9,-1.290115,0.349075,0.231468,0.13201,4.478542,3.486729,-1.519054,-7.074955,-21.780613,-4.019794,15.100605,28.99641,-30.418053,-9.673038,11.832996,31.155155,-34.228008,-16.345894,4.82951,22.508114,-35.100552,-27.975071,-14.428001,-0.935406,-18.080619,-28.33204,-30.412312,-29.728575,-5.862584,6.81275,13.784285,17.649182,11.492802,23.145994,30.349661,34.263192,25.048339,35.194512,39.35581,41.329279,35.802864,45.756636,46.174155,44.497705,27.892227,53.245205,76.305427,95.839451,56.426845,89.205952,106.420452,118.540043,47.147289,84.353679,104.416706,118.100086,37.344578,71.694122,90.589794,103.387768,28.216541,54.55513,70.22319,83.07336,-14.855469,-16.447741,-9.869939,-6.647691,15.352635,31.163593,38.287936,42.859393,33.034396,48.148612,54.70963,58.066531,45.280416,60.123388,64.741244,65.34704,53.002713,67.227427,70.724167,70.256951,6.513582,321.226402,-79.759512,300.252566
10,-5.648758,1.770125,0.388641,0.082721,5.92432,6.737652,3.767132,-0.169773,-16.62244,2.638653,21.649006,35.163082,-25.13348,-2.682598,18.558483,37.694653,-29.020042,-9.817886,11.16116,28.687466,-30.098144,-22.249065,-9.28878,3.825382,-19.528185,-30.485734,-32.898063,-32.655939,-7.320486,5.004723,11.523936,15.419659,10.367833,21.947554,28.636692,32.351869,23.870017,33.793148,37.454009,39.327393,34.402452,44.056548,44.122535,42.057354,27.612797,52.964344,76.22097,95.925373,56.282078,89.121769,106.394268,118.501179,47.073601,84.37785,104.522061,118.186512,37.29332,71.805611,90.721905,103.458241,28.191353,54.694622,70.365486,83.15292,-14.963434,-16.521607,-9.90074,-6.769167,15.237124,31.230691,38.470062,43.134639,32.941362,48.123393,54.770936,58.157353,45.23067,60.10632,64.693807,65.257008,52.964218,67.146892,70.631406,70.160349,1.056072,323.034303,-79.179623,300.373063
11,7.817276,-3.957337,0.388928,0.061973,3.220516,1.338947,-4.54501,-10.577751,-24.451664,-6.964634,13.322285,27.411816,-33.470055,-12.338161,9.825062,28.949581,-37.491737,-19.64518,2.351223,20.077984,-38.472462,-32.818588,-19.82341,-6.884972,-17.709548,-27.578932,-29.249601,-28.049247,-2.784091,11.143406,17.010596,20.137748,14.97103,26.883771,32.776847,35.982151,28.120681,38.093113,41.096913,42.58201,38.361641,48.341471,47.755422,45.522095,27.524986,52.931923,76.362785,96.28244,56.151443,89.042175,106.396064,118.53923,47.007785,84.363876,104.588676,118.262581,37.262661,71.902759,90.872543,103.585487,28.202442,54.855571,70.579044,83.353431,-14.969461,-16.564548,-10.036529,-6.938845,15.190403,31.322637,38.603591,43.270477,32.871041,48.132346,54.833118,58.234763,45.194941,60.115804,64.71721,65.26979,52.997414,67.149621,70.604272,70.120878,8.996561,319.093673,-78.667482,300.451743
12,0.642986,-1.467436,0.42675,0.103234,2.859787,0.793099,-5.314773,-11.794773,-24.809417,-7.610618,12.516404,26.266938,-33.597141,-13.07714,9.432862,28.547516,-37.663238,-20.799556,1.359009,19.156769,-39.149448,-33.088737,-19.71001,-6.983905,-17.976459,-27.475686,-28.519972,-26.978014,-1.529669,13.283316,19.092671,22.505579,16.444579,28.569408,34.288633,37.430852,29.737874,39.505332,42.20201,43.759268,40.150698,49.89721,48.811107,46.395566,27.438148,52.82959,76.378143,96.493126,56.14983,89.033226,106.386291,118.494781,47.089062,84.39695,104.6063,118.242988,37.35125,71.975246,90.903694,103.532593,28.24712,54.8974,70.580944,83.301636,-14.98932,-16.73262,-10.255286,-7.173064,14.927001,31.132718,38.466851,43.160969,32.580814,47.883949,54.651078,58.105878,44.959351,59.867988,64.543124,65.131593,52.902764,67.07972,70.556811,70.061301,9.714059,317.631606,-78.16622,300.560346
13,14.735493,-3.04968,0.291138,0.115819,-1.592491,-8.952175,-20.169674,-30.180645,-38.110725,-24.924305,-4.149799,10.078754,-47.145504,-30.63731,-6.993931,12.803272,-50.783066,-38.048973,-15.136311,3.198589,-51.645687,-48.430962,-34.973064,-22.329941,-16.341716,-25.218165,-25.619197,-23.558104,2.1336,17.466351,22.952405,26.208974,20.065586,31.641775,37.222815,40.075721,33.258932,41.962554,44.154027,45.487379,43.589628,52.397781,50.59967,48.122701,27.349056,52.714176,76.415588,96.677558,56.291233,89.069389,106.45317,118.568229,47.341358,84.485092,104.700737,118.338798,37.578666,72.101428,91.012664,103.579719,28.370658,55.048439,70.709999,83.361579,-14.976216,-16.814304,-10.408427,-7.50202,14.9508,31.110809,38.453044,43.161315,32.523658,47.588042,54.327123,57.847144,44.872938,59.571685,64.283179,64.946107,52.875532,66.998246,70.464507,69.986583,24.498316,314.577474,-77.826318,300.671713
14,-6.009636,2.395533,0.253475,0.084907,0.580101,-4.569935,-13.802479,-22.41386,-31.252292,-15.824375,3.621449,16.980091,-39.980289,-22.071796,0.443745,19.812458,-43.778343,-29.851135,-8.429844,9.007908,-44.964569,-40.010376,-27.45639,-15.469437,-18.438611,-27.722415,-28.239797,-26.944731,-0.317941,14.280882,19.606756,23.063099,17.824022,29.49375,34.970011,37.848507,31.151452,39.712678,41.955589,43.522493,41.433476,50.041891,48.502528,46.121518,27.223468,52.628998,76.457073,96.73328,56.403591,89.105289,106.500812,118.643085,47.524738,84.497532,104.709079,118.35696,37.754505,72.156875,91.054653,103.614063,28.491989,55.173088,70.789867,83.372944,-15.011686,-16.918007,-10.617378,-7.768943,14.97198,31.112525,38.460268,43.156968,32.453806,47.438148,54.205919,57.719073,44.728713,59.404044,64.172547,64.847294,52.722551,66.839708,70.324926,69.875,18.507248,316.960576,-77.554275,300.744189
15,7.435661,-2.375008,0.209633,0.098677,-1.8712,-9.607372,-21.649875,-32.409256,-38.109512,-25.256103,-5.013988,9.013493,-46.84021,-31.210281,-8.124881,11.385853,-50.445522,-38.508979,-16.479297,1.272114,-51.284626,-48.367309,-35.431388,-23.16362,-16.177484,-24.891887,-25.485605,-23.997395,2.346726,17.277395,22.780913,26.050758,20.11143,31.366209,37.183554,40.176412,33.177262,41.446222,43.935678,45.589243,43.392595,51.94872,50.491522,48.571714,27.243118,52.628597,76.430637,96.601306,56.562618,89.067661,106.421688,118.573757,47.742748,84.484256,104.655635,118.303676,37.953918,72.140773,90.992694,103.536129,28.593772,55.14751,70.717952,83.256717,-15.007919,-17.030875,-10.845089,-7.944339,14.997755,31.018998,38.32091,42.955785,32.421399,47.269471,54.015704,57.500786,44.631457,59.221708,64.031299,64.736477,52.632902,66.727038,70.212269,69.76995,25.938531,314.574648,-77.34902,300.831946
16,-6.948349,2.330597,0.201232,0.033753,0.615876,-4.778835,-14.127948,-23.000942,-31.66024,-16.37178,2.89507,16.211941,-40.155784,-22.645134,-0.021778,19.422444,-43.704139,-29.80125,-8.319019,9.195591,-44.731613,-38.87947,-25.551921,-13.16106,-18.135182,-27.347677,-27.909902,-26.625605,-0.679045,13.204819,18.989585,22.954295,17.312444,28.621538,34.760739,38.039637,30.781321,39.095482,41.819948,43.661234,41.19885,49.486743,48.288143,46.302509,27.106053,52.460942,76.294728,96.356633,56.66391,89.111081,106.486348,118.643361,47.900197,84.533719,104.702809,118.374012,38.081269,72.183953,91.01611,103.571789,28.618229,55.148301,70.656636,83.170109,-15.045488,-17.115411,-10.892798,-7.876401,14.945995,30.958754,38.267397,42.885747,32.316535,47.113341,53.874641,57.359167,44.484589,59.018574,63.861263,64.586065,52.502114,66.638636,70.145343,69.715252,18.954717,316.89409,-77.183253,300.854544
17,10.030781,-3.002898,0.128254,0.007076,-1.626411,-10.686767,-24.054497,-35.937938,-41.374294,-28.092327,-7.671455,6.533776,-50.497066,-34.394462,-10.973488,8.902725,-53.982239,-41.603142,-19.361641,-1.402748,-54.473739,-51.15081,-38.061218,-25.631744,-15.91129,-24.476196,-24.796113,-23.407284,2.774051,17.339664,22.95558,26.427793,20.897772,31.805278,37.767923,40.859025,34.123747,42.036074,44.67383,46.455403,44.333029,52.723589,51.310381,49.45609,26.984826,52.386498,76.280983,96.26635,56.764492,89.132058,106.563515,118.75177,48.044987,84.58516,104.776795,118.482766,38.213608,72.251461,91.085335,103.661248,28.704678,55.252144,70.733609,83.221344,-15.046648,-17.071765,-10.863021,-7.891455,15.169224,31.192048,38.447289,42.984401,32.462575,47.17855,53.89045,57.295738,44.539893,59.038408,63.843826,64.516325,52.480552,66.611516,70.127918,69.727602,28.908142,313.878644,-77.132355,300.849072
18,-9.404434,3.379032,0.11966,0.098147,1.595375,-4.299133,-14.250046,-23.758072,-32.482658,-15.934101,3.71553,17.002716,-41.646137,-22.339645,0.639679,20.242058,-45.497566,-30.286034,-8.643906,9.042046,-46.714462,-40.802216,-28.069485,-15.938278,-18.24616,-27.62149,-28.349058,-27.741743,-1.275578,12.447055,18.371587,22.658709,17.149868,28.001663,34.223968,37.941281,30.684373,38.508446,41.567179,43.989956,41.2266,49.185957,48.205126,46.509929,26.952942,52.455231,76.3797,96.306953,56.832092,89.304336,106.780266,118.95916,48.104988,84.712074,104.949119,118.692901,38.267372,72.320125,91.185997,103.803451,28.722656,55.256115,70.722427,83.226974,-15.115328,-17.162305,-10.971196,-8.003694,15.146462,31.12979,38.312759,42.769792,32.42687,47.204867,53.903923,57.216598,44.464359,59.024983,63.807824,64.390921,52.359088,66.538551,70.091237,69.681091,19.387293,317.243566,-77.12911,300.933109
19,5.760635,-2.313492,0.084686,0.002037,-0.2406,-8.077674,-19.987701,-30.707679,-38.710453,-23.817775,-2.862602,11.207314,-48.315387,-30.004543,-5.988304,13.98935,-52.125846,-37.920742,-14.925109,3.552704,-53.042575,-49.063522,-35.910358,-23.494754,-16.151203,-25.189228,-26.025909,-24.740932,1.273603,15.55798,21.398099,25.352756,19.484343,29.97449,36.140133,39.834944,32.765745,40.493278,43.449579,45.760143,43.251879,51.327116,50.303455,48.88669,27.02655,52.533245,76.459854,96.427094,56.955872,89.470734,107.017983,119.217888,48.23616,84.865425,105.142044,118.921921,38.400925,72.464893,91.363472,103.980858,28.85178,55.363083,70.86977,83.398911,-15.039856,-17.055476,-10.926303,-8.069025,15.367702,31.186626,38.249873,42.612848,32.606194,47.291096,53.903849,57.161183,44.579661,59.117832,63.836971,64.367963,52.431164,66.624644,70.158966,69.726824,24.996156,314.914306,-77.196196,300.919378
20,-12.064979,3.913198,0.105972,0.105174,3.509823,0.343483,-7.077004,-14.614529,-26.185696,-8.053322,11.284286,23.824219,-35.673958,-14.80925,8.061287,27.257698,-40.111015,-23.234047,-1.270203,16.353355,-42.295223,-34.618309,-21.313637,-9.209782,-18.671064,-29.153555,-30.70685,-29.802749,-3.203451,10.305008,16.076065,20.318516,15.224626,26.224869,32.250054,35.894959,29.034093,37.13114,40.035546,42.386607,39.959519,47.86803,46.900377,45.185926,27.116055,52.658856,76.556832,96.557579,56.945939,89.651825,107.310494,119.58799,48.195511,85.025322,105.37983,119.233796,38.428574,72.603985,91.572625,104.23835,29.016655,55.522786,71.062523,83.638573,-15.038943,-17.07683,-10.9657,-8.149042,15.50044,31.266308,38.235311,42.565522,32.735696,47.456723,53.969761,57.159762,44.635766,59.270676,63.897646,64.350425,52.363781,66.590631,70.100166,69.678646,12.734573,318.815796,-77.286828,301.012844
21,1.356972,-2.757588,0.027649,0.095775,3.411083,0.10334,-7.885575,-16.039502,-27.85397,-9.960274,10.153404,23.109192,-37.806862,-17.142083,6.426338,26.072776,-42.811078,-25.698578,-2.39898,16.046333,-45.507248,-37.802376,-23.34628,-10.341832,-17.131713,-27.248925,-29.016,-27.999526,-1.671559,12.697799,18.759503,22.72656,16.967025,28.822783,35.05335,38.334594,31.018146,39.970881,42.960774,45.159435,42.386533,51.38547,50.335997,48.300456,27.422287,53.038845,76.955635,97.023812,57.030133,89.752007,107.450386,119.864411,48.333687,85.132462,105.595345,119.64505,38.703415,72.78994,91.916405,104.78492,29.419098,55.84647,71.396817,84.046669,-14.942056,-17.053155,-11.066502,-8.485952,15.711453,31.106337,37.882049,42.15398,32.949686,47.619546,54.126557,57.324093,44.764763,59.557481,64.264135,64.771427,52.389839,66.716454,70.363359,70.117086,13.870823,316.041224,-77.479901,301.091635
22,-11.211914,1.849857,0.48634,-0.194193,5.936084,6.702072,4.162124,0.640617,-17.738194,3.441947,22.831008,35.229469,-27.440312,-4.180653,19.163932,38.781738,-32.701539,-12.878872,10.084465,28.473014,-35.81725,-25.100716,-10.073891,3.397853,-18.522579,-28.904688,-30.921012,-29.63343,-4.634788,9.064627,15.878933,20.721191,14.40726,26.888575,34.065887,37.924028,29.028362,38.648632,42.491817,45.094597,40.710713,50.062368,49.914649,48.10404,27.586418,53.189243,77.079174,97.118969,56.685024,89.280041,106.909733,119.457767,48.08242,84.575718,105.1562,119.429294,38.727322,72.514229,91.804172,104.960255,29.689224,55.845371,71.325703,84.025944,-14.71684,-16.853207,-10.94757,-8.5479,16.23427,31.426143,38.285107,42.791837,33.514344,48.558387,55.532676,59.229142,45.256692,60.502806,65.95601,67.232465,52.79244,67.358411,71.54814,72.01648,2.465687,317.868159,-77.186783,300.87452
23,-1.924862,-3.326087,0.844505,-1.190474,5.719768,8.547763,8.430599,6.238895,-16.584309,5.052097,24.731655,37.923191,-26.899132,-2.642327,21.141002,41.077663,-32.643734,-13.024086,10.196491,29.248867,-35.700039,-27.987751,-15.273079,-2.754479,-16.434267,-25.23827,-26.5014,-24.171878,-2.593184,12.056237,19.781201,25.545466,16.002792,28.739482,36.963241,41.472528,30.12505,40.628375,45.852867,49.051921,41.424745,51.762764,53.438757,53.597567,27.829697,53.40152,77.045964,96.698147,56.285511,88.448696,105.909817,118.628117,47.583733,83.421559,103.856976,118.35323,38.226116,71.459061,90.72575,104.099819,29.116505,54.810757,70.066189,82.725941,-14.294652,-16.286437,-10.540165,-8.321226,16.178892,31.363565,38.564713,43.465856,33.343481,49.108164,56.874636,61.270401,45.090435,61.053139,67.473971,69.67089,52.819709,68.010903,72.937129,74.164505,0.381369,314.509563,-76.501734,299.651537
24,-0.16063,1.95009,1.850601,-4.101919,2.060452,3.375035,3.789494,2.606747,-18.421371,-3.157653,9.665245,18.23703,-26.154899,-9.699943,6.897126,21.201279,-29.70655,-16.304214,0.092045,13.994717,-30.549499,-25.180721,-16.397449,-7.322181,-14.743861,-21.93072,-23.089961,-21.265063,-2.097883,10.190733,17.374887,22.996545,15.002102,26.992093,34.716033,38.941897,28.29147,38.688276,43.816919,46.914098,38.774776,48.516953,50.914771,51.540562,27.789391,53.302128,76.284748,95.297047,55.808476,87.174076,104.018956,116.084874,46.879795,81.055081,100.146962,113.266171,36.985978,67.037739,83.870568,94.907422,27.093579,48.897984,60.960846,70.277539,-14.529798,-16.207594,-10.72128,-8.419051,15.202,30.851382,38.527107,43.441637,32.517569,49.957923,58.44217,62.959682,44.388777,62.46437,69.794527,72.497268,51.879892,68.75791,74.309075,75.580688,0.092994,316.443997,-74.778878,295.533962
25,12.308602,-3.971342,4.787087,-8.744007,-5.310791,-9.96658,-13.323017,-16.455494,-30.990658,-25.897305,-18.844185,-14.040036,-36.021698,-30.145203,-20.889622,-12.579689,-36.598377,-32.569634,-23.172615,-14.780319,-34.067185,-35.676258,-32.141339,-27.432896,-11.648091,-15.413619,-14.559079,-11.986286,2.565557,14.426737,21.709025,27.080903,18.612192,30.584523,38.405249,42.782538,30.946454,42.045621,47.767476,51.095984,40.666784,51.254226,54.746668,56.269569,25.514156,49.207237,69.407501,85.750729,54.802574,79.655926,90.269817,96.697071,47.02803,72.936848,84.007404,90.242226,37.679546,59.740173,68.786751,73.463585,27.638878,43.916473,50.705807,55.035255,-6.462687,-2.824884,5.547571,10.568386,21.147775,40.784258,49.9527,54.757771,34.146657,55.957865,65.614543,70.009085,43.158709,64.859866,73.427292,76.390718,48.611073,67.78712,74.767881,77.149063,12.324732,312.509535,-70.068655,286.826835
26,7.028938,-0.542279,0.088325,-18.959402,-10.922996,-19.642582,-25.469833,-29.94191,-35.773991,-40.807629,-41.36586,-41.655727,-37.237152,-42.60585,-42.191643,-40.914024,-34.708191,-41.060074,-40.667107,-38.917946,-29.460754,-38.406933,-41.510273,-42.220699,-12.590959,-14.550472,-11.076135,-6.616989,3.942516,14.879021,21.993891,27.582402,19.402177,30.665785,38.240128,43.11951,31.120392,42.111088,48.307693,52.023339,39.892705,50.171913,54.659958,57.211732,26.711689,52.043576,72.823105,86.942151,56.920796,83.776143,88.275845,89.202702,50.094223,76.94109,81.683041,82.25496,41.729073,64.755833,67.476723,66.356644,32.45224,49.925526,51.588639,50.610272,-9.243901,-6.167532,2.386814,9.606018,13.480597,30.667972,38.187826,42.209803,27.367536,46.185702,53.605113,57.197171,37.892041,56.250698,62.403954,64.874872,44.916188,59.95103,64.791385,67.145398,19.22794,312.138172,-70.10606,268.038349
27,13.796997,-3.566778,-1.099056,-28.568988,-17.516235,-32.482075,-44.385155,-53.459175,-46.543007,-63.354938,-70.979256,-76.251011,-44.905678,-62.771015,-71.007191,-76.736355,-39.537689,-57.144424,-64.86692,-69.569378,-31.701942,-48.885944,-58.042522,-63.9547,-12.644657,-12.594627,-6.011946,0.340467,7.523942,18.422445,25.023465,30.376015,22.338137,33.11493,39.869301,44.73905,33.301466,44.37639,50.495436,54.455552,41.234443,51.633508,56.451473,59.691628,27.377976,53.844681,74.596287,86.974137,59.596584,87.572457,86.703186,82.556214,54.25129,80.96727,79.30957,74.370976,47.222729,70.323933,66.764935,60.102619,38.688595,56.713761,54.098362,48.593205,-9.163811,-8.584469,-4.354121,0.523433,6.996111,17.763271,22.756391,25.789201,17.639536,29.02956,33.956273,37.238845,25.903482,36.691798,40.777922,43.446601,31.669723,39.980637,43.188732,45.868971,32.616325,309.378984,-71.613728,240.276951
28,12.711445,-1.710474,-1.306354,-38.948671,-23.737198,-45.633705,-63.99995,-76.785976,-56.51952,-84.551182,-99.129089,-109.710308,-51.311794,-82.216049,-99.00539,-111.630901,-42.920288,-71.05687,-86.690849,-98.050552,-32.654434,-54.774914,-67.31686,-77.008598,-13.891138,-13.049122,-4.226939,3.730811,9.80678,20.093596,25.862381,30.236706,24.787331,35.467646,41.119414,45.520217,35.780523,46.733082,52.057203,55.82609,43.287335,53.587501,57.643923,60.021005,25.167972,51.384246,72.153625,83.106559,60.264003,87.64825,82.861759,74.411361,58.25616,83.316799,76.485363,66.427425,53.945434,75.279007,66.05381,54.265731,47.528366,64.121086,57.009922,47.082401,-14.196797,-16.896457,-15.018472,-10.168027,-6.435437,-1.03277,2.43199,4.943244,4.7146,9.687472,12.331884,15.040152,14.638497,19.404715,21.473162,23.91917,22.709479,25.368322,26.464411,28.783651,44.776794,309.121331,-73.471058,202.781101
29,2.106125,-3.853238,-1.86533,-45.053854,-24.032158,-46.548866,-66.097321,-79.896469,-55.115147,-84.98758,-100.701931,-112.407097,-49.07824,-81.93203,-100.531769,-114.809807,-40.426323,-70.696312,-88.177551,-101.340122,-30.457558,-54.424851,-68.265942,-79.439919,-16.987526,-16.262786,-4.7801,5.812344,10.261733,22.176425,28.519786,33.262131,26.681389,38.471531,44.392025,49.109584,38.398938,50.290424,56.03819,60.106912,46.112972,57.545048,61.758933,64.257552,22.539219,48.040043,68.849338,78.317894,60.021675,87.228653,79.800316,68.868564,61.183262,84.971512,73.426391,60.605976,59.891876,81.393482,68.032837,54.034641,56.289848,74.624245,65.200149,54.186985,-18.640109,-25.851891,-27.123795,-22.994545,-20.939485,-23.89326,-25.727272,-26.277166,-9.12463,-13.845499,-14.502159,-12.924701,2.626819,-2.175356,-2.325187,0.277037,13.580601,7.114617,6.177746,9.359936,46.105723,307.620993,-76.113584,160.080147
30,1.482605,-2.024586,-3.979809,-50.617468,-23.98201,-47.068703,-68.012684,-82.934063,-55.742844,-86.27021,-102.346562,-114.423351,-49.449967,-83.166172,-102.018173,-116.533413,-40.796311,-72.095135,-89.870659,-103.24807,-31.048737,-55.948162,-70.052822,-81.384762,-18.879633,-18.811263,-5.984023,6.329232,10.788797,23.548087,30.005031,35.061488,28.17486,40.002583,45.709532,50.371206,40.342643,52.143826,57.753233,61.850447,47.9199,59.283409,63.285786,65.851108,21.620098,48.156956,70.988583,81.349629,60.967999,95.809742,93.938358,87.477013,63.802448,95.071186,87.061123,77.156696,63.844322,91.267033,79.601109,67.138561,61.623917,83.697521,74.420597,63.946621,-31.303809,-47.963953,-55.272515,-54.561478,-42.762345,-56.517892,-63.203078,-66.066673,-25.804299,-40.704068,-44.253605,-43.856019,-9.328091,-23.219494,-25.516221,-22.997107,6.183619,-7.792624,-11.321295,-9.13735,46.554125,308.522497,-81.127596,112.388769
31,0.486809,-1.273072,-1.896606,-44.076554,-24.825417,-48.070221,-69.218285,-83.991898,-56.899155,-87.495758,-103.450917,-115.487584,-50.602822,-84.339798,-103.194077,-117.781506,-41.955941,-73.295895,-91.008625,-104.55027,-32.111504,-56.838868,-70.883675,-82.387471,-18.49657,-18.588257,-5.631279,7.050144,11.481217,24.436948,30.951073,36.00695,28.993054,40.788605,46.469248,51.06543,41.165554,52.926279,58.487891,62.596121,48.616594,60.017474,64.096236,66.852651,18.107288,42.369621,64.648109,76.082862,58.553283,93.042125,97.374401,95.72184,63.638088,94.546451,91.531917,85.212398,65.554584,91.504314,81.837215,70.528026,64.889785,84.970882,77.070545,67.909904,-32.333677,-51.808028,-61.505381,-62.719301,-49.90107,-66.710953,-73.34078,-76.515387,-34.187499,-51.733292,-54.975935,-55.230785,-18.084399,-32.874345,-33.198078,-29.983679,-2.26834,-14.845763,-16.532796,-13.857522,45.909222,310.150428,-84.155914,71.213218
32,-0.247902,-0.91419,-2.212567,-34.700959,-25.385537,-48.649636,-69.877957,-84.551674,-57.779354,-88.361573,-104.151032,-116.054798,-51.489487,-85.252076,-103.975102,-118.483658,-42.898247,-74.237046,-91.805924,-105.246163,-33.116021,-57.619755,-71.568695,-83.087391,-17.970963,-18.005098,-5.032028,7.719135,12.030364,25.123007,31.699253,36.684389,29.558885,41.441282,47.142303,51.649527,41.735906,53.62554,59.131293,63.106525,49.134852,60.639238,64.710196,67.463239,14.292504,36.179501,57.72171,69.670624,54.536076,87.360741,93.933689,94.241741,62.207669,92.36705,92.455056,88.627442,66.049496,89.584351,80.593678,69.762577,67.228318,84.552109,76.51553,67.592949,-37.270919,-58.240321,-66.359037,-65.353234,-60.246104,-76.902364,-82.105003,-84.301521,-40.898237,-57.395687,-60.436444,-61.684488,-20.945487,-33.745971,-33.965049,-31.480416,-1.842139,-12.012808,-13.607117,-11.510604,44.546362,311.454866,-87.483439,38.730887
33,-0.336502,-0.384594,-3.069339,-23.983558,-25.745339,-49.036766,-70.348481,-84.726345,-58.528988,-89.05695,-104.720604,-116.539067,-52.396866,-86.069802,-104.700154,-119.107968,-43.933777,-75.167061,-92.579819,-105.842823,-34.236214,-58.501591,-72.203247,-83.528218,-17.678006,-17.892157,-5.130434,7.774303,11.74667,24.943511,31.698574,36.793181,29.34718,41.366737,47.193136,51.621937,41.674044,53.575584,59.157105,63.059138,49.267925,60.843756,64.895435,67.511232,11.974159,32.113369,52.192691,64.281452,52.176315,85.950233,96.923561,101.512859,60.650184,87.890556,87.821376,84.513553,64.916233,84.558528,75.520351,64.733276,66.461162,81.057483,72.599395,63.523956,-35.820963,-57.021676,-65.838684,-65.971701,-62.130195,-79.061035,-85.664766,-89.341144,-43.442853,-56.946162,-59.235991,-61.439418,-23.727719,-33.500747,-33.313149,-31.490592,-5.079231,-13.0308,-13.88621,-11.898458,42.822991,312.576389,-91.939647,16.253446
34,-0.37658,-0.564448,-4.429225,-8.785178,-25.930618,-49.170524,-70.51989,-84.573188,-59.126815,-89.602306,-105.238861,-117.001945,-53.157222,-86.68816,-105.259369,-119.568271,-44.711151,-75.874191,-93.130165,-106.145164,-34.95298,-59.200641,-72.803066,-84.003879,-17.372033,-17.603857,-4.929745,8.049932,11.529889,24.814403,31.79977,37.153704,29.1756,41.19764,47.250193,51.753403,41.641378,53.553848,59.255103,63.151974,49.434515,61.059092,65.129209,67.580935,10.040698,29.128436,47.701024,58.878113,51.454119,86.017417,99.585097,106.459826,60.836449,84.830372,84.923968,81.408967,65.333285,81.106522,72.855492,62.045414,66.869477,78.228322,70.092396,61.03378,-34.126619,-55.347324,-64.805557,-66.794939,-60.838424,-74.773707,-78.568767,-80.43505,-42.965261,-51.398397,-51.891684,-53.758152,-23.744127,-28.920611,-28.109174,-26.893327,-5.693382,-9.452612,-9.531016,-8.071122,40.755867,312.445018,-98.059416,7.901345
35,-0.278915,-0.336169,-6.367206,7.285319,-26.102051,-49.333031,-70.852192,-84.748924,-59.50407,-89.980305,-105.568371,-117.313316,-53.736042,-87.225346,-105.753822,-120.003399,-45.393013,-76.49968,-93.661285,-106.543293,-35.681236,-59.938431,-73.525738,-84.741955,-17.256968,-17.542736,-4.954186,7.994678,11.150729,24.438121,31.520374,37.02698,28.769332,40.780491,47.00408,51.630878,41.312421,53.181221,58.947832,62.869379,49.280348,60.824835,64.858854,67.231243,8.382505,26.569651,43.409054,52.04163,50.96652,83.886389,96.51507,102.767286,61.263256,78.595665,76.859259,73.05756,66.112352,76.217216,68.234722,57.969097,67.910339,74.879871,66.701923,57.895374,-32.071564,-54.110364,-65.399429,-70.454163,-57.66447,-69.131756,-71.058094,-71.417309,-40.473804,-46.489078,-46.054213,-47.007665,-21.661612,-24.939827,-23.845326,-22.602241,-3.968631,-6.173621,-5.690603,-3.894793,38.63934,311.883349,-106.264234,14.961164
36,-0.138084,-0.299477,-3.806328,16.24026,-26.072136,-49.250565,-70.936924,-84.643353,-59.710122,-90.369404,-106.058442,-117.831025,-54.070302,-87.758721,-106.357979,-120.575112,-45.804268,-77.176117,-94.395871,-107.201706,-36.187317,-60.741475,-74.3821,-85.605526,-17.296155,-17.736361,-5.267928,7.769103,10.529581,23.830694,30.994063,36.599173,28.151753,40.207373,46.590599,51.327103,40.81517,52.65528,58.454298,62.429802,49.041522,60.517886,64.408989,66.666486,5.731756,22.511484,35.962349,41.316605,50.213705,81.776899,93.510882,99.377775,59.936337,70.939087,64.332007,58.360268,63.538816,67.663971,58.237816,48.555691,64.22311,66.703354,57.35606,48.583958,-31.165198,-54.547254,-68.824613,-77.659566,-54.877014,-65.080664,-66.786695,-66.744915,-37.636589,-41.957309,-40.146194,-39.697058,-19.395113,-22.761353,-21.739322,-20.267026,-2.379534,-6.452955,-6.603237,-5.04876,36.553305,311.2137,-112.018513,30.831252
37,0.323959,-0.322535,-3.35091,20.401928,-26.034897,-49.376885,-71.300961,-84.953888,-60.027386,-90.86483,-106.646267,-118.464901,-54.502831,-88.328247,-106.9991,-121.248654,-46.25766,-77.935352,-95.272671,-108.126927,-36.643707,-61.602768,-75.348931,-86.650601,-17.493027,-18.101009,-5.66807,7.534983,9.764197,23.168643,30.368754,35.999082,27.443217,39.592672,46.056298,50.818255,40.259774,52.038505,57.838388,61.82182,48.752407,60.109098,63.954371,66.170173,3.624338,19.859373,31.162353,33.347671,50.511114,83.230768,98.156656,107.268419,59.226471,65.340797,55.184629,47.958527,61.535906,62.104191,52.082199,43.245907,61.021751,60.900181,50.902267,42.322895,-29.369786,-53.829127,-70.586451,-83.445616,-50.496353,-59.444383,-62.229064,-63.578329,-33.632186,-38.016669,-35.363661,-33.764424,-16.278501,-20.596785,-19.20117,-17.188316,-0.013869,-5.797344,-6.160363,-4.507208,34.715555,310.562885,-117.531132,50.9049
38,0.69461,-0.354633,-3.218113,20.807073,-26.11013,-49.77095,-71.842334,-85.394828,-60.584175,-91.560459,-107.398475,-119.22116,-55.103954,-88.997795,-107.645587,-121.920856,-46.835357,-78.694393,-96.002437,-108.859726,-37.153038,-62.320655,-76.100029,-87.424552,-17.708894,-18.403376,-5.858471,7.466823,9.368452,22.852049,29.971736,35.503412,27.02161,39.159407,45.639112,50.462264,39.862312,51.617083,57.387808,61.392075,48.440729,59.700595,63.540557,65.776811,2.746702,19.510374,30.191208,29.80426,51.434664,84.264971,99.176966,108.611052,59.920589,63.860802,52.956167,46.06303,61.571829,60.838509,51.02013,43.09108,60.446148,59.101673,49.090153,41.094635,-28.954342,-54.959691,-73.802184,-89.705484,-47.334083,-55.905893,-58.27989,-59.346894,-30.060968,-37.740459,-35.603357,-32.983263,-13.273652,-21.027833,-19.819822,-17.136613,2.284438,-6.335722,-6.948458,-4.809884,33.447555,309.906107,-122.711855,71.409828
39,1.091904,-0.094737,-2.32675,13.139516,-26.346062,-50.452835,-72.799415,-86.62896,-61.086353,-92.186188,-108.091255,-119.966377,-55.604416,-89.662468,-108.301071,-122.734016,-47.377373,-79.43058,-96.799347,-109.797478,-37.738541,-63.1451,-76.929726,-88.288044,-18.073024,-18.855278,-6.198148,7.095962,8.854033,22.525612,29.59591,35.000788,26.550936,38.807009,45.328952,50.222351,39.490512,51.211457,56.98927,61.018892,48.218291,59.365031,63.248403,65.565735,2.520069,19.744686,30.40741,28.870789,51.41629,84.752392,100.569592,111.409195,60.071388,63.339157,52.138928,45.633808,61.761921,60.904793,51.190224,43.732292,60.66322,59.195446,49.229313,41.702809,-29.099295,-55.567424,-75.11577,-92.659365,-45.522793,-54.552185,-57.322661,-58.545072,-28.224107,-38.727092,-36.750246,-33.284584,-12.031587,-22.605857,-21.456515,-18.182033,2.716783,-8.086878,-8.874053,-6.292059,33.035889,309.635844,-126.542175,84.373818
40,1.155373,0.158513,-1.377239,5.529341,-26.609986,-51.052094,-73.625931,-87.693135,-61.537972,-92.746834,-108.732273,-120.623863,-56.04831,-90.222096,-108.856316,-123.396504,-47.85141,-80.011231,-97.396122,-110.448441,-38.215668,-63.697003,-77.396919,-88.64415,-18.31227,-19.210108,-6.450534,6.886801,8.472663,22.324318,29.338288,34.517702,26.278469,38.646076,45.192657,50.082203,39.310498,51.041693,56.793274,60.778288,48.104967,59.281791,63.296,65.665018,2.667217,20.243236,31.377274,30.0718,50.598518,84.800777,102.39917,115.427113,59.655762,63.563061,52.616238,46.466537,61.890118,61.757526,52.256184,44.963699,61.265808,60.588798,50.758472,43.4687,-29.447863,-55.390922,-74.551599,-92.419291,-45.086458,-55.091784,-58.754609,-60.421209,-27.992381,-40.926783,-39.090555,-34.968072,-12.375554,-25.074749,-23.879434,-20.045023,1.605301,-10.894013,-11.856647,-8.931462,33.013298,309.596506,-129.097378,89.705308
41,1.133423,0.207889,-1.399601,-0.826251,-26.837334,-51.560784,-74.29992,-88.591851,-61.974987,-93.237557,-109.278614,-121.174622,-56.453408,-90.69405,-109.320614,-123.979992,-48.244057,-80.395237,-97.779385,-110.90672,-38.534089,-64.015286,-77.711838,-88.981121,-18.401314,-19.280739,-6.459562,6.945761,8.465204,22.469419,29.438855,34.486309,26.329252,38.735243,45.296286,50.230169,39.393873,51.113607,56.902474,60.923957,48.154466,59.348976,63.60327,66.115648,2.676018,20.951031,33.389099,32.282536,50.083672,84.645744,103.253174,117.633911,60.505611,64.029419,53.323334,47.268002,63.731758,63.500805,54.170917,46.630897,63.831024,63.272793,53.380119,45.988117,-29.2904,-54.885038,-73.519843,-91.845216,-45.512147,-56.057808,-60.414991,-62.583129,-28.169661,-42.055025,-40.696368,-36.581592,-12.078158,-25.427591,-24.517921,-20.737826,2.270143,-10.57519,-11.512555,-8.249404,33.291779,309.605676,-131.351921,88.680338
42,0.82267,0.400155,-1.277653,-4.58143,-27.084961,-51.847069,-74.60653,-89.17947,-62.215474,-93.426487,-109.504166,-121.445446,-56.622837,-90.827305,-109.369744,-124.058796,-48.471817,-80.503716,-97.824944,-110.950219,-38.83397,-64.16882,-77.774323,-88.956356,-18.263635,-19.10533,-6.379867,6.780936,8.710032,22.8623,29.868168,34.836927,26.593025,39.153812,45.803356,50.759827,39.66513,51.479343,57.351992,61.394322,48.381312,59.684725,64.067547,66.608663,3.114441,21.834469,35.070362,34.25227,50.002339,84.344639,103.304981,118.011143,61.330239,64.503067,54.558163,48.480652,65.06535,64.274632,55.427937,47.637955,65.575356,64.822609,54.980953,47.565628,-29.334533,-54.395116,-72.62477,-90.871511,-46.106661,-56.783906,-61.278984,-63.576995,-28.796712,-41.763804,-40.464353,-36.646189,-12.337078,-24.537106,-23.457011,-19.910086,2.441432,-9.439594,-9.981102,-6.625016,33.721499,309.754945,-133.022524,83.848022
43,0.387291,0.55405,-1.008167,-4.610279,-27.299675,-51.941826,-74.614483,-89.301991,-62.422017,-93.49553,-109.462956,-121.339886,-56.712868,-90.855687,-109.323487,-123.959919,-48.477906,-80.415013,-97.608994,-110.647889,-38.777276,-64.033493,-77.597088,-88.765057,-18.080447,-18.897973,-6.294887,6.703093,8.932777,23.170434,30.188183,35.012508,26.879287,39.510803,46.22022,51.06517,39.957135,51.806175,57.701425,61.621934,48.603934,59.961416,64.373359,66.824739,3.597977,22.415234,36.048363,35.613235,49.250095,84.272266,103.418884,118.355324,60.862118,65.506679,55.844295,49.6894,65.002659,65.338108,56.515102,48.444878,65.951031,66.12981,56.356911,48.82386,-29.333811,-53.997481,-71.686362,-89.544217,-46.179595,-56.928452,-61.427964,-63.666188,-28.94366,-41.152247,-39.783099,-36.218865,-12.365341,-23.852295,-22.702935,-19.37841,2.639657,-8.51327,-8.959324,-5.70475,33.91273,310.075054,-134.226751,79.003802
44,0.000709,0.35998,-1.101254,-3.06066,-27.415764,-51.709694,-74.178589,-88.656818,-62.451702,-93.47953,-109.353035,-121.107078,-56.653267,-90.74493,-109.197269,-123.712028,-48.26857,-80.196636,-97.303883,-110.221607,-38.429741,-63.60379,-77.205551,-88.403526,-17.782674,-18.635299,-6.227653,6.759002,9.201676,23.453819,30.492119,35.242331,27.180617,39.927631,46.717397,51.497719,40.260824,52.270847,58.188796,62.013135,48.853604,60.406093,64.833128,67.153412,3.700837,22.492333,36.34528,36.223263,48.896576,84.381581,103.708752,118.690098,60.504868,66.095971,56.66129,50.230877,64.686928,65.538712,56.834279,48.602921,65.732117,66.375241,56.62064,48.898728,-28.94992,-53.492393,-71.159544,-88.993489,-46.438273,-56.906184,-61.110727,-63.23528,-29.19636,-40.081445,-38.808275,-35.654039,-12.419811,-22.618107,-21.395023,-18.421247,3.01129,-7.197393,-7.560584,-4.580849,33.808279,310.210339,-135.433165,75.718447
45,0.162232,0.047992,-1.171726,-1.244252,-27.508851,-51.725098,-73.970284,-88.211266,-62.628514,-93.447888,-109.256413,-121.013489,-56.732415,-90.633614,-109.088929,-123.657406,-48.212403,-80.078076,-97.161473,-110.093422,-38.225144,-63.367779,-77.053608,-88.421654,-17.435883,-18.152694,-5.831289,7.087614,9.659197,23.889493,30.938908,35.684081,27.58938,40.368924,47.197038,51.944669,40.641577,52.724219,58.67087,62.430692,49.214646,60.86937,65.29932,67.561892,3.838555,22.545147,36.41494,36.40535,48.746601,84.482071,103.96312,119.010887,60.276947,66.477711,57.161064,50.510021,64.399773,65.671086,57.07663,48.717922,65.44772,66.469425,56.636238,48.714512,-28.872924,-53.556694,-71.508749,-89.404939,-46.745352,-57.271173,-61.23994,-63.2399,-29.399729,-39.446188,-38.282705,-35.479459,-12.449859,-21.837341,-20.600956,-17.899345,3.295885,-6.348905,-6.605448,-3.781157,33.950026,310.059168,-136.625376,74.275032
46,0.037216,-0.003137,-1.067516,-0.146435,-27.664948,-51.845352,-73.908932,-87.980336,-62.784737,-93.377426,-109.086331,-120.83162,-56.848961,-90.538388,-108.966317,-123.522229,-48.25264,-79.968396,-96.929695,-109.788494,-38.145058,-63.105126,-76.781788,-88.19838,-17.112311,-17.766347,-5.498652,7.330243,10.148409,24.352819,31.395318,36.020658,28.029636,40.910327,47.769279,52.405945,41.016229,53.219692,59.178742,62.811074,49.544097,61.274872,65.635637,67.765396,4.028629,22.472179,36.4258,36.927544,49.0597,84.617077,104.190788,119.296955,60.52169,66.507294,57.104782,50.305847,64.564499,65.670696,56.995079,48.492657,65.537407,66.564228,56.5914,48.45813,-28.996227,-53.793254,-71.821916,-89.778769,-46.87278,-57.69115,-61.682159,-63.767878,-29.469112,-39.296251,-38.195878,-35.582341,-12.535191,-21.638097,-20.295193,-17.722189,3.27384,-6.030508,-6.173028,-3.538088,33.954146,309.88832,-137.725988,73.960886
47,0.080269,0.052488,-0.638935,0.197898,-27.832901,-52.012162,-73.988846,-87.898842,-62.966458,-93.464539,-109.075894,-120.768723,-57.079651,-90.68541,-109.134167,-123.678521,-48.44616,-80.082379,-96.959279,-109.74059,-38.244416,-63.0038,-76.643452,-88.097386,-16.8805,-17.514553,-5.275609,7.442987,10.326867,24.477839,31.45645,35.922117,28.185445,41.082883,47.861398,52.359508,41.135729,53.411291,59.321349,62.815878,49.644602,61.445748,65.735117,67.740745,4.010078,22.368931,36.59515,37.620014,49.329071,85.174106,104.716221,119.695175,60.800342,66.450668,57.002952,50.200767,64.797958,65.498062,56.816002,48.26667,65.726326,66.54649,56.538002,48.292042,-28.893086,-53.759952,-71.747433,-89.665346,-46.90037,-57.863718,-61.88801,-63.966801,-29.465518,-39.238392,-38.179786,-35.672935,-12.565437,-21.613083,-20.201962,-17.730748,3.168068,-6.031089,-6.077624,-3.548716,34.036932,309.827666,-138.362406,74.045642
48,0.217552,-0.133776,-0.42516,0.24844,-27.985932,-52.21827,-74.243729,-88.306938,-62.995606,-93.603493,-109.259148,-121.028721,-57.11483,-90.797447,-109.291844,-123.896096,-48.466576,-80.192356,-97.140816,-109.972985,-38.213059,-62.949864,-76.624604,-88.160397,-16.687246,-17.251336,-5.015245,7.426697,10.509587,24.709514,31.687187,36.140429,28.348404,41.369911,48.131482,52.658504,41.307185,53.717783,59.621381,63.15101,49.872041,61.780089,66.031729,68.028181,4.295998,22.650387,36.758183,37.797409,50.235329,85.648785,104.994461,119.772114,61.577008,66.298451,56.670513,49.777142,65.348191,65.363079,56.549881,47.897656,66.054863,66.47762,56.402069,48.078736,-28.903916,-53.840486,-71.901136,-89.957555,-47.111346,-57.98321,-61.953212,-64.016936,-29.696378,-38.767322,-37.50602,-35.112945,-12.727988,-21.168448,-19.5552,-17.185417,3.142195,-5.4442,-5.399789,-3.054935,34.286774,309.61232,-138.755276,74.212512
49,0.067337,-0.058737,-0.082054,0.427122,-28.05851,-52.381623,-74.525402,-88.676056,-63.034184,-93.773918,-109.480648,-121.301583,-57.073746,-90.935372,-109.464924,-124.016567,-48.419335,-80.253617,-97.182278,-109.984932,-38.251785,-63.122212,-76.799252,-88.327996,-16.667609,-17.193105,-4.985864,7.476802,10.705348,24.839869,31.758249,36.149383,28.582685,41.568945,48.236297,52.686057,41.53308,53.966699,59.802928,63.309042,50.072285,61.998056,66.136223,68.084189,4.553261,23.039784,36.974064,37.999443,51.17228,85.961552,105.06942,119.589901,62.362725,65.703839,55.882073,48.983803,65.884106,64.741963,55.849102,47.201946,66.393757,65.990925,55.781674,47.436653,-29.026979,-53.95869,-71.964992,-90.112358,-47.123339,-58.087736,-62.015044,-63.958533,-29.646527,-38.364117,-37.011116,-34.623876,-12.655797,-20.713731,-18.972876,-16.647541,3.204636,-4.913579,-4.795407,-2.602477,34.41065,309.484003,-138.780791,74.570054
50,-0.089012,0.037705,-0.068458,0.547226,-28.10122,-52.378052,-74.599617,-88.751404,-63.143875,-93.965241,-109.643246,-121.424641,-57.152413,-91.052147,-109.48724,-123.886689,-48.465248,-80.280636,-97.149422,-109.919758,-38.282845,-63.131173,-76.771477,-88.277985,-16.712539,-17.318385,-5.156184,7.453052,10.814065,24.635907,31.458315,35.867023,28.740136,41.564042,48.176016,52.657738,41.651394,54.03145,59.848314,63.414981,50.129515,62.067463,66.183202,68.142901,4.583187,23.253078,37.273842,38.57658,51.882053,86.173919,105.272644,119.814022,63.00119,65.158115,55.042556,48.030109,66.385997,64.278156,55.218853,46.556705,66.732799,65.554401,55.241706,46.908531,-28.960888,-53.85209,-71.688474,-89.919703,-47.197742,-58.049278,-61.915533,-63.840793,-29.76347,-37.982314,-36.525282,-34.181651,-12.736918,-20.210589,-18.377034,-16.134636,3.23695,-4.273394,-4.123619,-2.119941,34.375523,309.442658,-138.795364,75.03823
51,-0.134766,0.322683,-0.1787,1.117497,-28.033173,-52.270775,-74.589958,-88.856907,-63.26461,-94.188972,-109.808727,-121.497425,-57.258774,-91.149593,-109.431427,-123.70554,-48.57399,-80.321217,-97.124268,-109.894443,-38.40834,-63.168823,-76.699242,-88.157799,-16.976695,-17.646057,-5.45492,7.195936,10.529248,24.088786,30.830746,35.29735,28.598419,41.23406,47.672281,52.17543,41.58185,53.866502,59.559989,63.144168,50.062973,62.098215,66.362698,68.479861,4.59858,23.672333,37.843449,39.159313,52.302075,86.188408,105.334957,119.959625,63.450073,64.817951,54.485401,47.342846,66.823986,64.149067,55.046379,46.389771,67.138127,65.429249,55.077667,46.801014,-29.016722,-53.982896,-71.910615,-90.423018,-47.257757,-58.174933,-62.032685,-63.952975,-29.851779,-37.932253,-36.447174,-34.073661,-12.833631,-20.114104,-18.254626,-15.968965,3.199277,-4.098961,-3.947963,-1.963472,34.291306,309.656383,-138.923515,76.046769
52,-0.021469,0.35751,-0.114132,1.535023,-27.874695,-52.060936,-74.467964,-89.105312,-63.324623,-94.316666,-109.942635,-121.580326,-57.280792,-91.160191,-109.337597,-123.519802,-48.551766,-80.233292,-96.989868,-109.689777,-38.365288,-63.159233,-76.612175,-87.997353,-17.262204,-17.959218,-5.799339,6.741935,10.227103,23.562512,30.224777,34.798951,28.367102,40.896767,47.254108,51.875607,41.433353,53.739963,59.36529,63.008725,49.96789,62.168709,66.601487,68.85781,4.917126,24.241333,38.337078,39.44307,52.981739,86.352814,105.43356,119.994015,64.00177,64.733528,54.225437,46.9693,67.239224,64.180996,55.048531,46.379483,67.439587,65.17749,54.772133,46.601647,-29.104235,-54.053273,-72.058495,-90.821975,-47.06052,-58.066315,-61.951317,-63.949604,-29.611435,-37.911561,-36.468281,-34.001494,-12.581295,-20.024869,-18.204127,-15.803975,3.517538,-3.922436,-3.787338,-1.683057,34.348,309.897604,-138.959484,77.465503
53,0.197891,0.271862,-0.190578,2.854746,-27.65879,-51.843933,-74.397056,-89.518467,-63.132225,-94.31924,-110.069321,-121.727074,-57.023529,-91.021797,-109.215843,-123.406265,-48.27317,-79.965019,-96.823723,-109.571377,-38.165954,-63.099701,-76.55088,-87.9169,-17.523223,-18.125969,-6.011933,6.390501,10.063292,23.235223,29.785608,34.38941,28.228645,40.701661,46.9613,51.604214,41.342494,53.738025,59.278321,62.903095,49.867731,62.277724,66.875104,69.259028,4.83181,24.42057,38.769275,40.112743,53.340088,86.503727,105.477207,119.848091,64.294567,64.550194,53.960254,46.754368,67.474972,64.175983,55.143448,46.570804,67.610012,64.84267,54.550186,46.487835,-29.309926,-54.275055,-72.319921,-91.335751,-47.057995,-58.254524,-62.307006,-64.465232,-29.438391,-38.771404,-37.449563,-34.704571,-12.496616,-20.846309,-19.090788,-16.468421,3.437905,-4.811697,-4.771238,-2.479335,34.711922,310.031695,-138.984031,80.182478
54,0.603172,0.256623,-0.200901,3.78325,-27.454719,-51.822532,-74.591663,-90.462226,-62.943935,-94.354682,-110.29145,-122.102645,-56.80751,-90.991527,-109.220111,-123.42406,-48.096038,-79.92707,-96.966281,-109.776329,-38.106926,-63.114234,-76.626777,-88.003921,-17.831407,-18.28841,-6.158937,5.88017,9.924748,22.883887,29.363049,34.016449,28.168352,40.546321,46.617349,51.142568,41.343234,53.774086,59.127242,62.628552,49.842771,62.367619,66.982734,69.428112,5.271641,24.987179,39.50457,41.015533,53.744053,86.956489,106.018444,120.344982,64.450447,65.027916,54.230964,47.017112,67.489185,64.674007,55.559852,47.112625,67.489609,64.752491,54.545231,46.643051,-29.319972,-54.315335,-72.49042,-91.619086,-46.793456,-58.146059,-62.41555,-64.806366,-29.008596,-39.094766,-37.805572,-34.811486,-12.049494,-21.209661,-19.523856,-16.723203,3.8909,-4.974607,-5.04294,-2.610542,35.567573,310.148969,-138.932453,83.826379
55,1.006783,0.115275,-0.272759,5.465727,-27.273056,-51.817406,-74.895367,-91.43795,-62.812099,-94.474846,-110.631752,-122.644054,-56.69252,-91.168705,-109.537994,-123.728016,-48.097206,-80.152657,-97.375843,-110.138523,-38.395958,-63.60371,-77.158516,-88.389553,-18.241565,-18.715759,-6.752012,4.965931,9.629619,22.431035,28.836479,33.472639,27.921338,40.259416,46.124075,50.379729,41.199147,53.70978,58.830248,62.082531,49.755345,62.349861,66.716282,68.96806,5.87146,26.336449,41.078568,42.492977,54.298599,87.710129,106.881535,121.180058,64.566834,65.99802,54.83424,47.623066,67.303356,65.518536,56.318585,48.116352,67.00803,64.89766,54.854325,47.221356,-29.281731,-54.406065,-73.057506,-92.355868,-45.491165,-57.411581,-62.183264,-65.084768,-27.321872,-39.937209,-38.814957,-35.127297,-10.581687,-22.197958,-20.751338,-17.364284,4.918902,-5.937272,-6.44139,-3.696602,36.85603,310.16331,-138.923538,89.191172
56,1.283592,-0.665249,-0.283035,7.186852,-27.14534,-51.855034,-75.272289,-92.398189,-62.612331,-94.54676,-110.94841,-123.191276,-56.501838,-91.327709,-109.85749,-124.067253,-48.011993,-80.366421,-97.861851,-110.700382,-38.61232,-64.143184,-77.880729,-89.169468,-18.346838,-18.83232,-7.178844,4.301262,9.661531,22.317364,28.567,33.144756,27.919337,40.138941,45.808246,49.779724,41.236703,53.825821,58.767249,61.811483,49.790394,62.397,66.454175,68.493384,7.029476,28.390926,43.260086,44.56049,54.89447,88.677074,108.20937,122.690998,64.389347,67.348881,55.792694,48.373043,66.720955,66.6721,57.337635,49.307568,66.015015,65.124264,55.275272,47.859867,-29.289258,-54.351582,-73.29123,-92.428054,-44.214437,-56.158511,-61.269111,-64.418715,-25.667682,-39.971344,-39.057531,-34.808046,-8.872447,-22.112612,-21.000086,-17.163681,6.579544,-5.545002,-6.523406,-3.676885,38.521963,309.431694,-138.824232,96.311657
57,1.389771,-0.985117,-0.498138,8.896759,-27.066284,-51.9749,-75.698651,-93.068253,-62.513501,-94.647332,-111.182144,-123.63255,-56.477074,-91.621067,-110.286072,-124.571377,-48.147789,-80.824459,-98.577164,-111.622593,-39.026482,-64.748326,-78.718643,-90.164978,-18.577846,-19.312565,-8.112151,3.307809,9.650268,22.06362,28.094338,32.454337,27.948187,39.687323,44.933453,48.417078,41.285412,53.539188,58.200369,60.954758,49.811538,62.094634,65.766832,67.577132,8.631752,31.02,46.704494,48.990108,55.600582,89.84943,109.788757,124.61214,64.195186,69.001373,57.092548,49.432537,66.184433,68.046913,58.589252,50.855037,65.220142,65.842002,56.164318,48.937076,-29.196762,-53.779885,-72.496732,-91.152673,-42.792258,-53.994721,-59.110786,-62.432594,-24.241137,-37.604538,-36.539368,-32.32384,-7.387955,-20.138872,-19.059506,-15.296108,8.239956,-3.337338,-4.480536,-2.009223,40.353682,308.32739,-138.880422,105.089229
58,1.312156,-1.475106,-0.139435,11.132302,-26.957016,-52.032714,-76.021259,-93.423832,-62.400238,-94.677486,-111.326477,-123.985302,-56.497673,-91.953987,-110.754341,-125.105083,-48.381683,-81.423637,-99.463668,-112.753292,-39.569252,-65.532486,-79.783104,-91.454784,-18.887858,-19.982779,-9.292214,2.121176,9.423063,21.404125,27.19708,31.316215,27.825909,38.877837,43.660876,46.697341,41.219796,52.95246,57.302098,59.775214,49.767139,61.631024,64.90876,66.502983,10.753246,34.14925,50.853893,54.351825,56.892071,91.635086,111.82703,126.904278,64.240333,71.57571,59.602203,51.53453,65.579395,69.896644,60.408188,52.878444,64.160213,66.816559,57.380687,50.333027,-29.319978,-53.274982,-71.68099,-89.643345,-40.892469,-51.267063,-56.29698,-59.640067,-22.543951,-34.303051,-33.136636,-28.730639,-5.622684,-17.359788,-16.334898,-12.509756,10.24887,-0.534863,-1.854939,0.262686,42.053833,306.510539,-138.631862,115.879786
59,1.211243,-1.716007,-0.164955,14.428589,-26.77066,-51.984604,-76.154571,-93.529598,-62.301475,-94.658031,-111.42762,-124.257946,-56.655212,-92.315185,-111.272976,-125.771358,-48.848259,-82.046459,-100.337048,-113.909054,-40.356972,-66.443607,-80.851982,-92.700027,-19.294126,-20.937033,-10.768617,0.618356,8.715107,20.410635,25.908114,29.710556,27.145419,37.578238,41.91429,44.578808,40.578159,51.744017,55.863461,58.132159,49.222563,60.586849,63.593279,65.045414,12.744678,37.080608,55.212524,60.352935,58.326793,93.431465,113.596664,128.789554,64.605697,75.178859,63.625122,55.153484,65.49052,73.155716,63.978607,56.39756,63.831562,69.156154,60.27238,53.340808,-30.083473,-53.470602,-71.380821,-88.335909,-39.472222,-49.138637,-54.093929,-57.413489,-21.228544,-32.402114,-31.742676,-27.267216,-4.452501,-15.70003,-15.055584,-11.049409,11.541868,0.783743,-0.912918,1.002061,43.715149,304.220815,-138.346744,129.734658
60,0.713928,-2.226152,0.179569,16.48439,-26.535026,-51.662842,-75.907905,-93.46511,-61.90242,-94.563205,-111.406196,-124.319858,-56.501106,-92.556015,-111.672844,-126.395668,-48.950134,-82.509601,-101.066803,-114.95541,-40.663879,-66.974121,-81.609581,-93.759132,-19.50425,-21.492453,-11.805357,-0.722665,8.123069,19.57188,24.82726,28.385763,26.587937,36.222508,40.079229,42.421224,40.067002,50.463474,54.293914,56.368691,48.772686,59.565819,62.397668,63.802107,14.922294,39.560795,59.13018,66.198383,60.130852,95.087963,114.682171,129.636795,65.176781,78.564216,67.588039,58.900703,65.528698,76.140426,67.145347,59.354816,63.671253,71.425918,62.9286,55.858108,-30.821743,-53.07953,-69.704242,-85.511267,-38.639437,-46.748958,-51.347129,-54.326876,-20.808166,-29.488656,-29.488891,-25.632016,-4.116171,-13.297902,-13.070605,-9.428689,12.180577,2.968929,1.110414,2.534972,45.136247,301.194535,-137.460005,145.41892
61,0.432175,-2.363151,0.203075,18.591135,-26.442856,-51.508369,-75.696053,-93.379303,-61.501625,-94.300095,-111.209919,-124.300255,-56.26989,-92.499424,-111.844105,-126.859989,-48.957779,-82.743759,-101.616165,-115.897442,-40.885437,-67.293263,-82.170811,-94.692066,-19.641509,-21.9767,-12.739764,-2.121682,7.40606,18.653688,23.681061,26.923649,25.870076,34.973297,38.424317,40.428106,39.389686,49.229997,52.818289,54.690302,48.211239,58.614479,61.26787,62.542262,16.955338,42.013527,63.351963,73.20567,62.0247,96.387795,114.922554,129.227612,66.149037,83.353295,73.333054,64.662403,66.050274,80.278885,71.74839,63.958271,64.079361,74.567494,67.071923,60.418419,-30.8412,-51.719712,-66.94532,-81.265117,-36.612678,-43.968585,-48.287532,-50.939317,-19.240002,-27.492537,-28.875351,-25.736528,-3.274835,-11.962864,-12.806511,-9.637177,12.507163,3.133611,0.487562,1.427033,46.512468,297.750301,-136.312884,162.928972
62,-0.197434,-2.111617,1.18372,21.014678,-26.151306,-51.023689,-75.122177,-92.947608,-61.016052,-93.953292,-110.916366,-124.092361,-55.998321,-92.348155,-111.771858,-126.860664,-48.976135,-82.865341,-101.821002,-116.268413,-41.148307,-67.684684,-82.646392,-95.3768,-19.866009,-22.497676,-13.474644,-3.193929,6.496378,17.561274,22.437951,25.499487,25.047387,33.786034,36.923795,38.706998,38.67127,48.061297,51.42809,53.18358,47.577495,57.668352,60.20801,61.467682,18.914669,44.145103,66.176376,78.339603,63.450851,97.314148,114.729137,128.227295,66.23632,87.784733,79.52243,71.326744,65.357517,83.519394,76.149227,68.432213,63.070873,76.610836,71.218609,65.419945,-30.873533,-50.615887,-65.100273,-78.189446,-32.364466,-40.268852,-45.576467,-48.630833,-16.035279,-26.120264,-30.892552,-29.193502,-1.953203,-11.91515,-15.546828,-13.47909,11.532494,0.978954,-3.473548,-3.588156,47.579114,294.375369,-133.865084,182.680335
63,-0.430778,-1.803297,2.189644,21.062139,-25.664154,-50.318825,-74.37632,-92.490932,-60.579483,-93.51099,-110.535061,-123.84478,-55.871292,-92.134415,-111.613392,-126.690571,-49.161552,-82.908085,-101.863644,-116.307312,-41.533951,-67.999661,-82.941696,-95.711094,-19.819104,-22.585411,-13.719657,-3.96387,5.974426,16.586642,21.125606,23.967792,24.37637,32.751751,35.475401,37.02057,37.919335,47.084639,50.201726,51.852142,46.789707,56.628808,59.137282,60.438339,20.402755,45.677009,68.019516,82.331749,64.21558,97.63274,113.508888,125.364555,65.573192,91.14299,85.676124,78.844722,63.907951,85.612873,80.588356,74.039726,61.306984,77.599262,74.971493,70.870846,-30.172832,-48.628098,-62.347347,-74.248387,-27.76422,-35.419721,-41.901977,-45.726872,-12.722907,-24.267776,-32.308816,-32.975325,-0.712958,-11.561777,-17.700509,-17.419421,10.232377,-0.819119,-6.484905,-7.756778,48.809492,291.370786,-130.014284,202.541188
64,-0.956909,-1.494113,2.622631,18.952646,-25.575417,-49.903931,-73.753395,-91.813008,-60.294846,-92.884804,-109.854687,-123.222691,-55.936478,-91.745968,-111.286423,-126.49419,-49.403732,-82.648682,-101.568363,-116.10466,-41.780823,-67.872242,-82.741722,-95.574154,-19.697394,-23.080081,-15.989207,-8.315644,5.886308,15.895791,20.027412,22.53317,24.074423,32.06815,34.399055,35.78014,37.533098,46.62434,49.412457,50.841831,46.413697,56.240114,58.763248,60.042963,21.726311,47.280567,69.527893,85.687362,64.528541,97.268268,112.364422,122.921276,64.496212,93.597942,92.511749,88.572624,62.046043,86.827171,84.99852,80.547283,58.910408,77.710567,78.114864,76.06224,-28.457825,-45.021978,-57.590694,-68.590381,-22.21208,-28.517143,-35.410477,-39.949737,-8.285658,-18.898503,-28.69775,-31.523276,2.012298,-7.911228,-15.36407,-16.706907,10.585762,0.409702,-5.853988,-8.300095,49.781965,288.776089,-125.462271,220.39325
65,-0.209656,-0.82238,8.58078,19.951867,-25.051918,-48.665565,-71.145161,-87.709454,-60.021881,-92.459438,-106.272949,-115.980125,-56.407837,-91.993767,-111.427288,-126.299423,-50.313881,-83.31673,-102.026047,-116.533173,-42.819832,-68.865669,-83.653839,-96.6213,-19.472782,-23.852554,-18.802099,-12.772603,4.205129,12.29384,14.453907,15.470405,22.504567,30.089691,32.323871,33.565807,36.212665,45.217863,48.099878,49.629214,45.315318,55.090371,57.936262,59.533609,19.627979,44.432258,66.290874,83.874904,62.249851,95.259933,109.381016,117.832683,62.387878,94.552093,96.273056,92.792347,59.888672,85.965751,85.509544,80.579178,56.323574,75.417835,77.346554,75.188621,-28.474831,-43.498904,-54.715941,-64.748123,-16.231787,-21.573939,-28.723612,-33.483556,-1.10595,-9.638869,-20.86786,-25.649219,9.600028,3.092053,-5.142932,-8.412246,17.352669,12.05993,5.986233,1.96706,51.426109,286.905363,-115.027691,239.296771
66,-0.246826,-0.161514,5.971676,15.696152,-25.652985,-49.670357,-71.882572,-87.875233,-60.058067,-92.648449,-102.749119,-108.391754,-56.979401,-91.770687,-108.582195,-120.169361,-51.528923,-84.111408,-101.529945,-114.406185,-44.482842,-70.406468,-85.331429,-98.257782,-19.196091,-24.077289,-20.124855,-15.908413,3.202129,9.636238,9.27569,8.649627,21.338373,27.788167,28.191002,28.027845,35.235081,43.623208,45.444092,45.935637,44.640052,54.003921,56.654373,57.943338,18.995533,43.548259,65.213207,83.721714,59.640506,94.145061,109.004745,117.253761,59.080089,94.292484,101.237743,100.985985,56.364807,85.464191,89.54417,87.184822,52.60683,74.241245,79.564785,79.303333,-27.349665,-40.626547,-50.195415,-59.347073,-10.028798,-13.430146,-20.185827,-24.931161,5.924396,0.628508,-10.509018,-16.529597,16.796903,13.616732,5.264099,0.529905,23.630635,22.495404,16.904101,11.732615,52.860071,285.913303,-107.375227,254.162377
67,-1.095291,0.528114,4.33493,11.214073,-25.439232,-49.165947,-70.386143,-85.699024,-56.679314,-87.525696,-96.722237,-101.465802,-54.935074,-87.590298,-103.964745,-114.869786,-51.111832,-82.132565,-99.528763,-112.286373,-45.448746,-69.934021,-85.020893,-98.074414,-19.140627,-24.653444,-22.000227,-19.296954,2.267796,6.845984,3.886299,1.244184,20.29573,25.966727,24.742822,23.162123,34.1225,42.646242,43.766481,43.21941,43.65869,53.459975,56.272027,57.268703,19.085575,43.949925,66.019215,84.974774,57.967026,93.117829,109.047089,117.748146,56.658257,93.509754,104.877022,107.456886,53.587326,84.542908,92.763886,93.229374,49.552529,72.445072,80.329754,82.019474,-25.334083,-36.397459,-43.961514,-52.085596,-4.526849,-4.935155,-9.6909,-13.305386,12.80601,11.674816,2.539917,-3.708878,24.519557,25.499141,18.628012,13.098534,31.421598,34.683119,30.713259,25.383655,53.155535,285.914871,-101.649542,264.849904
68,-2.79744,1.028391,3.626473,8.580256,-24.683075,-47.613396,-67.09283,-80.902347,-53.606071,-80.685894,-87.319954,-89.707455,-52.204056,-80.608921,-94.864975,-103.350151,-48.847389,-76.74345,-92.702122,-103.608066,-43.535133,-66.078106,-80.886715,-93.450439,-18.545834,-24.795297,-23.383238,-21.718731,0.663533,4.643409,0.42961,-3.471336,18.364178,23.766622,21.866957,19.355445,32.287549,40.565464,41.048414,39.532911,42.217399,52.232846,55.022396,55.666243,19.658775,44.937915,67.491233,86.509826,56.492466,91.930481,109.575759,119.897621,54.366245,92.495796,107.46595,112.885666,50.882755,83.412174,94.925582,98.149349,46.58741,70.347507,80.011562,83.282672,-23.185414,-32.100815,-37.678891,-44.748189,1.205677,3.396174,0.921107,-1.340045,20.19488,22.947441,16.457905,11.030884,32.894161,37.873714,32.779293,27.403932,40.047081,47.118084,44.476167,39.489833,51.486488,286.681752,-96.894676,273.16865
69,-6.365433,1.646995,3.326992,7.05701,-21.894905,-43.391624,-61.34832,-73.560894,-52.136856,-69.314758,-71.34526,-71.396656,-52.797569,-68.903183,-78.106796,-83.687576,-50.701412,-67.188514,-78.578682,-87.060001,-46.621959,-60.858478,-71.879814,-82.239372,-19.190151,-25.927578,-24.04198,-20.699356,0.722307,6.243288,-0.281199,-6.770859,19.421888,25.947758,21.138858,15.66193,33.758716,42.141643,39.272706,35.173368,43.845584,53.858783,53.560591,51.592877,20.117294,45.650241,69.010299,88.210064,55.195839,91.338993,110.009021,121.672084,52.173248,91.038013,107.792095,114.803913,48.218181,81.763733,95.887859,101.501209,43.714897,68.147323,79.55516,84.658241,-21.566714,-28.720684,-32.57002,-38.709863,6.566119,10.704311,9.732989,8.516024,26.84614,31.870215,27.301228,22.632848,40.300172,48.229888,44.345762,38.964807,47.671837,58.006448,56.356119,51.5591,46.050304,288.276806,-92.638435,280.173719
70,-10.024635,3.982519,-2.371731,2.532212,-16.840256,-35.077034,-51.421989,-63.139812,-46.75288,-53.394733,-51.218925,-49.450424,-49.722244,-54.444763,-55.471378,-54.683533,-49.34174,-55.975742,-59.832676,-62.295124,-46.575291,-54.733097,-61.38937,-67.442264,-20.548685,-27.475686,-24.807203,-20.914408,-0.200887,7.450224,2.666049,-2.605287,18.920993,25.863172,20.799774,15.027247,33.29576,40.964778,37.158656,32.466464,43.722552,52.847447,51.158796,47.810503,23.61248,50.480347,74.807796,94.382217,56.11306,92.246658,112.409614,126.382461,50.85379,90.614044,110.785698,121.753921,45.714374,81.668472,100.195404,110.76297,40.880035,67.662609,82.236923,91.402679,-18.410478,-23.665957,-26.037271,-31.216278,11.536125,17.79984,18.4004,17.951178,30.785643,37.265595,34.809485,31.104213,42.891589,51.638288,48.855925,44.009642,49.068297,58.782514,57.670266,53.718301,37.094513,292.50934,-93.941322,282.955946
71,-14.674518,3.533025,0.667305,2.764035,-9.466073,-21.746556,-34.213212,-44.237011,-36.697964,-31.733643,-26.173714,-23.682644,-41.796605,-34.798337,-30.143532,-25.97184,-43.400815,-38.732415,-35.495831,-33.295807,-42.687047,-42.43903,-42.456116,-43.353745,-21.481165,-29.538557,-27.285284,-22.580347,-1.760924,8.250164,5.590722,1.533164,18.159746,27.292052,23.602329,18.358891,33.032024,41.555878,37.535766,32.842525,44.351344,54.009911,50.749477,45.812396,25.464065,52.781456,77.489067,97.094902,57.349399,92.566933,112.678276,127.249901,50.795311,89.490829,110.157257,122.408226,44.682861,79.580601,98.906753,111.215332,39.312607,65.109112,80.24485,91.038231,-16.712366,-20.657539,-22.192654,-27.151434,15.121255,23.026704,24.747762,24.809809,33.612799,41.908164,41.07914,37.998894,45.00864,55.69818,54.361345,49.998333,50.675994,61.717227,61.597135,58.283954,23.676796,296.46747,-92.017216,286.145086
72,-16.150109,6.436826,2.288933,2.702408,-3.492737,-9.85976,-16.169517,-21.604557,-27.402889,-11.684177,-0.146141,6.446537,-33.44125,-15.239948,-3.304745,6.154129,-35.489147,-20.351097,-10.026375,-2.729496,-35.190697,-28.420475,-23.093101,-19.674293,-22.191974,-31.825496,-31.479236,-28.836047,-4.682275,6.537269,6.525573,4.589426,15.81202,25.485556,23.257131,18.816659,31.155565,38.653757,34.413862,29.961831,43.019017,51.037197,46.225,40.173743,26.197643,53.487064,78.368831,98.017707,57.724594,92.618202,112.404693,126.959198,50.365894,88.743072,109.784431,123.014969,43.578609,78.334179,98.049087,111.42572,37.763546,63.701225,79.150749,90.86412,-15.878118,-19.046544,-19.783177,-24.542763,16.964308,26.34217,28.796316,29.207908,35.049842,44.821845,45.544461,43.316543,46.296358,58.478344,58.520939,55.034227,52.084891,63.906267,64.296344,61.483823,8.998117,303.346926,-88.256853,289.290124
73,-15.211143,2.935701,2.105415,2.242021,2.974205,3.286972,1.211105,-2.202645,-15.869934,8.434353,24.182087,32.831005,-23.635849,3.625076,20.999096,33.556148,-27.976044,-3.437599,13.267833,24.048328,-30.30423,-15.831436,-4.605538,2.894325,-23.016429,-33.291475,-33.580813,-31.392773,-4.636888,8.584851,9.461324,8.180805,16.546751,28.133278,26.250347,21.899722,32.074411,40.60281,35.869258,31.41693,44.13749,52.657244,46.468654,39.212302,26.416718,53.626865,78.661297,98.561531,57.954964,92.673569,111.941734,126.220802,50.522369,88.575737,109.457314,123.06189,43.539379,78.078037,97.663582,111.2593,37.458858,63.405075,79.059654,91.325432,-15.509184,-18.313356,-18.477156,-23.20305,17.708623,28.003256,30.945985,31.620299,35.42037,45.968934,47.474075,45.650635,46.632244,59.668596,60.534633,57.501663,52.746622,65.242534,65.945711,63.232163,-4.703848,306.695889,-84.64226,291.945407
74,-11.450192,3.238883,2.028992,1.816475,8.259796,14.608303,16.723984,14.747475,-2.604812,24.365959,42.310272,52.654976,-10.595844,18.418167,38.35833,53.169319,-16.504692,9.479691,29.125878,42.344719,-20.820316,-4.77578,8.632324,18.023667,-22.351389,-33.344358,-34.588542,-34.053055,-6.917071,6.24209,9.2151,10.132329,13.694969,25.881475,26.647699,24.442307,29.243315,38.523007,35.915299,33.128627,41.852404,51.089265,46.410856,40.280979,26.455352,53.700073,78.605232,98.461258,58.033847,92.389023,111.252548,125.221779,50.393486,88.214172,108.812553,122.328025,43.087177,77.63554,96.776138,109.978134,36.743694,62.690712,78.16119,90.246437,-15.191626,-17.751527,-17.563966,-21.997448,18.108284,29.309438,32.960221,34.277246,35.578649,46.710642,48.74522,47.444089,46.719077,59.974594,61.270414,58.642588,52.918979,65.544753,66.440763,63.957001,-14.739739,310.342158,-81.198967,294.169268
75,-7.768547,1.106024,1.303928,1.275912,10.57584,20.303822,25.053429,24.058136,6.17593,35.087311,52.343399,61.231064,-1.182804,30.129112,49.339783,62.752007,-7.857696,21.039997,40.644493,52.900864,-13.820675,5.881474,20.826931,30.20501,-21.126051,-32.810118,-35.186657,-35.574968,-6.526401,7.535909,9.97221,10.117373,13.643976,27.543425,28.080395,25.314112,29.103957,40.27473,37.099944,33.692247,41.780156,52.815695,47.697908,41.040917,26.720741,53.830696,78.544739,98.439869,58.107147,92.07542,110.657421,124.469021,50.426937,87.973652,108.286984,121.841938,42.938759,77.314785,96.209736,109.284725,36.402981,62.381882,77.85109,89.964809,-14.566663,-17.104,-16.970607,-21.510262,18.119399,29.917383,34.07999,35.863355,35.345639,46.764315,49.298812,48.513779,46.537395,59.86984,61.610263,59.448813,52.965564,65.705538,66.654481,64.245511,-21.234564,311.82698,-78.621317,295.823978
76,-2.76218,1.726208,1.00153,0.741869,11.49892,22.990928,29.0079,28.534252,10.158371,40.027439,56.735561,64.983455,3.177818,35.485073,53.987949,66.526645,-3.744782,26.28257,45.420925,57.110859,-10.151322,10.264664,24.699314,33.602909,-20.880309,-32.724149,-35.652255,-36.942974,-6.314684,7.726767,9.978224,9.8742,13.449363,27.528383,28.128721,25.593162,28.487515,39.984034,36.829304,33.547764,40.664054,52.006703,47.196803,40.897829,26.793411,53.816196,78.368568,98.216446,58.055729,91.502655,109.791412,123.373123,50.188991,87.477653,107.628776,121.099319,42.391525,76.689583,95.433494,108.359642,35.547329,61.614692,77.061584,89.042793,-14.198185,-16.477813,-15.992554,-20.263101,18.482281,30.7079,35.24632,37.40656,35.590073,47.134151,49.964123,49.541417,46.781236,60.088141,62.054274,60.140579,53.245516,65.907993,66.900298,64.552992,-22.921274,313.876961,-76.544317,296.88962
77,2.209213,-2.207034,0.274967,0.512998,12.283917,23.800736,27.301037,24.138348,9.128975,37.50388,54.215824,62.260746,1.935574,32.9893,51.869373,65.043995,-5.751606,23.686134,44.078899,56.915417,-13.291901,7.491394,23.048092,32.909145,-20.020941,-31.054208,-32.84434,-32.137248,-4.248638,11.280405,13.290183,12.449624,15.121021,30.754385,31.470974,28.822524,29.941676,43.130601,39.876564,36.352295,42.157167,55.535517,50.792283,44.163747,26.794681,53.793045,78.275677,98.076038,57.803169,90.949345,109.046574,122.529568,49.901344,87.079891,107.143009,120.76173,42.008652,76.229679,94.919849,107.932514,35.006241,60.979649,76.454464,88.49033,-13.872156,-16.074867,-15.401788,-19.442549,18.813375,31.252205,35.820414,37.963548,35.849757,47.270471,50.18829,49.903842,47.023791,60.199797,62.253777,60.437302,53.54393,66.144337,67.156722,64.805588,-19.859791,311.995198,-75.41708,297.727889
78,2.460903,2.4199,-0.043751,0.222672,10.205269,20.353569,25.18808,23.819939,5.297779,33.107186,49.716934,58.196732,-2.21141,28.717232,47.96846,61.368714,-8.930511,19.472878,39.398575,52.198723,-14.882927,4.209927,18.725693,28.336144,-19.829008,-31.486708,-33.422213,-32.410976,-5.644864,8.268281,10.722539,10.657392,14.404358,28.163264,29.414167,26.898183,29.642186,40.72289,37.932068,34.351161,42.020563,53.207576,48.576838,42.00121,26.782791,53.744053,78.140053,97.898369,57.431832,90.465569,108.609055,122.152222,49.276543,86.440087,106.462258,120.072739,41.149601,75.47889,94.177506,107.16861,33.971752,60.154598,75.758812,87.835579,-13.562922,-15.541714,-14.617409,-18.468844,19.11542,31.937338,36.663023,38.89877,36.118384,47.784914,50.863728,50.704338,47.267952,60.615526,62.78404,61.014359,53.774926,66.478826,67.505377,65.097198,-16.68635,314.753971,-74.748293,298.289434
79,2.369534,1.824255,-0.252125,0.078608,7.420292,16.040371,22.483166,23.188785,1.575485,28.248951,45.044803,54.411381,-5.574246,23.906307,43.604954,57.990314,-11.268563,15.071869,34.829807,48.549213,-15.589989,-0.01276,12.929146,22.562942,-20.106724,-31.66997,-33.30548,-32.531537,-6.487955,6.521906,9.680983,10.484232,13.595873,26.259907,28.247813,26.33954,28.726094,38.463295,36.697011,33.537761,40.973054,50.507885,46.410918,40.233012,26.805611,53.665261,78.12299,97.955555,56.991692,89.972203,108.10587,121.719922,48.84858,85.893025,105.843121,119.625378,40.707425,74.893582,93.533101,106.68623,33.469895,59.673546,75.319085,87.518361,-13.310202,-15.180672,-14.124653,-17.954772,19.355741,32.175658,36.901552,39.073969,36.304858,47.967757,51.133676,50.981079,47.44488,60.858983,63.139056,61.41391,54.037193,66.772709,67.799322,65.348004,-13.696335,316.867697,-74.379937,298.657513
80,1.46434,2.165711,0.124386,0.147744,5.601997,13.131477,21.29829,24.346355,-0.598915,24.453541,41.212383,51.519207,-7.62109,20.125362,40.009815,55.177517,-12.526257,11.576008,30.566036,44.67786,-15.70261,-3.428398,7.985298,17.413158,-20.502545,-32.04261,-33.719628,-33.747761,-7.998222,3.875616,8.113386,10.316246,12.028214,23.63208,26.36135,25.220572,27.170193,35.592196,34.899283,32.385856,39.349054,47.139585,43.631013,38.184145,26.573742,53.433724,77.956879,97.811119,56.161938,89.204659,107.344116,120.938782,47.998215,85.194214,105.125519,118.86628,39.957882,74.351326,92.969788,106.139969,32.854363,59.24691,74.926838,87.139824,-13.358355,-15.173521,-13.949257,-17.49609,19.381787,32.308149,36.995228,39.044922,36.48533,48.275497,51.356262,50.962689,47.745962,61.246961,63.394492,61.44665,54.39169,67.042027,67.943089,65.330676,-11.776211,319.199399,-73.799767,298.971248
81,1.698063,2.695751,0.102471,0.196169,3.71545,9.879627,19.547356,24.908638,-2.959156,20.996223,37.805832,48.847069,-9.833725,16.660721,36.601616,52.046196,-13.817001,8.119526,25.940369,39.800812,-15.736485,-5.917912,3.783771,12.434486,-20.671926,-32.521645,-34.679488,-35.231722,-9.69973,1.295054,6.245103,9.299242,10.314159,20.838751,24.109954,23.328108,25.379963,32.397663,32.452139,30.313265,37.338177,43.455778,40.328046,35.431781,26.274078,53.066791,77.580013,97.493316,55.442722,88.659187,106.802971,120.427574,47.249828,84.620773,104.482154,118.209137,39.295498,73.878662,92.499069,105.699257,32.325199,58.939258,74.702579,86.982948,-13.539605,-15.493709,-14.17929,-17.378814,19.037961,32.184698,36.778261,38.678581,36.353221,48.24703,51.218645,50.62221,47.789459,61.378193,63.440163,61.364793,54.545856,67.232626,68.027008,65.302308,-9.768591,321.997934,-73.387739,299.270201
82,-0.714558,0.179756,0.109771,0.204653,3.646969,9.965996,19.596897,24.683785,-1.825916,22.002789,38.415791,48.808148,-8.498966,17.630024,36.928494,51.664662,-12.754371,8.897759,26.065418,39.348072,-14.944095,-6.120907,2.597637,10.499531,-21.028683,-32.824148,-34.998491,-35.918288,-9.523729,1.48296,6.3112,9.270033,10.386332,20.992262,24.095566,23.281918,25.190685,32.237963,32.194207,29.948653,36.823536,42.908854,39.878527,35.074839,25.952259,52.656109,77.172467,97.144799,54.83899,88.115296,106.229599,119.863198,46.684262,84.137215,103.985047,117.72155,38.842976,73.500641,92.125992,105.356346,32.005795,58.773743,74.551083,86.862786,-13.720373,-15.803733,-14.383943,-17.330364,18.591135,31.871722,36.508573,38.470507,36.023462,48.010575,50.963282,50.286831,47.584547,61.237501,63.307091,61.216358,54.408696,67.150486,67.947239,65.206756,-10.285761,322.203965,-73.08058,299.501129
83,-1.165191,-1.139258,0.161225,0.055588,5.59584,12.640068,20.127307,22.68116,0.895145,24.437358,40.643154,50.268917,-5.705738,19.718113,38.429683,52.87952,-11.238785,10.668445,28.109859,41.46944,-15.220849,-6.03859,3.22958,11.124149,-21.515635,-32.814132,-35.122091,-36.523788,-8.741611,3.59296,8.132838,10.328139,10.380577,22.688077,25.411912,24.620086,24.718097,33.768472,33.237109,30.894002,36.227669,44.493839,41.31741,36.23629,25.746425,52.353859,76.804607,96.725052,54.33617,87.598045,105.634186,119.21997,46.20346,83.626236,103.472442,117.208328,38.448177,73.004345,91.628586,104.923027,31.712803,58.445926,74.184837,86.520561,-13.964917,-16.09727,-14.456957,-16.989922,18.301562,31.61421,36.295385,38.361468,35.833307,47.844367,50.811709,50.163824,47.458514,61.10738,63.205585,61.191472,54.281057,67.041311,67.900123,65.226775,-11.318109,321.027125,-72.786512,299.519135
84,0.966934,-1.700026,0.235725,-0.092416,7.303505,14.27156,18.43198,17.541469,1.192692,24.239536,40.257351,49.204021,-5.686901,18.926319,37.372638,51.776172,-12.405213,9.822178,27.802311,41.232548,-17.837368,-7.652378,2.721039,10.932083,-21.274808,-32.303419,-34.914511,-36.362953,-7.417966,5.947244,9.864344,10.991721,11.433891,24.879154,26.893922,25.409467,25.507131,35.865034,34.499251,31.713406,36.842926,46.770811,43.277813,37.667615,25.609532,52.049412,76.315853,96.170952,53.868473,87.086449,105.100777,118.720436,45.716995,83.16964,103.106369,116.936897,37.9758,72.485458,91.203484,104.628296,31.262764,57.992031,73.720139,86.052223,-14.176943,-16.32708,-14.363479,-16.483692,17.983956,31.403728,36.095203,38.206203,35.608178,47.745555,50.779414,50.192217,47.299581,61.041345,63.251021,61.367066,54.117765,66.982129,67.935593,65.307397,-10.249506,319.283071,-72.449118,299.382691
85,1.250587,0.291956,-0.056076,-0.201689,6.401253,13.551316,17.431858,15.894184,0.72313,23.697109,39.026516,47.478779,-6.60363,17.878475,35.122479,48.443516,-13.686607,7.847248,24.90057,37.560482,-19.258552,-9.621528,0.239422,8.18248,-21.278859,-32.617013,-35.152003,-35.802741,-7.197999,4.97996,8.36618,9.131873,12.002193,23.821962,25.720096,23.935176,26.094205,35.16907,33.404502,30.341559,37.440349,46.621412,43.00127,37.092496,25.636288,51.946404,76.066361,95.845573,53.863987,87.004257,105.032433,118.82238,45.681038,82.876167,102.915436,117.018608,37.842682,71.936245,90.757805,104.406441,30.988815,57.502224,73.177849,85.549942,-14.224183,-16.272567,-14.081786,-16.04025,17.942718,31.31104,36.058079,38.386353,35.391298,47.663056,50.839559,50.574909,46.952049,60.857736,63.293234,61.715091,53.668679,66.720678,67.92885,65.549433,-8.930826,319.557499,-72.437101,299.163474
86,-0.325012,0.59967,0.037628,-0.187832,6.728966,14.194016,18.150501,16.565701,1.646061,24.144642,39.174648,47.616245,-6.022991,17.600704,33.968433,46.603787,-13.357326,7.563183,23.967098,35.899509,-19.196228,-9.990864,0.009029,7.7612,-21.661205,-33.276284,-35.928156,-36.995894,-7.819245,3.663874,7.02779,7.847168,11.418615,22.65204,24.12864,21.953186,25.600671,34.348173,32.037374,28.661713,37.065006,45.72744,41.794445,35.692763,25.753269,51.962254,76.009598,95.745415,53.762867,86.829804,104.934311,118.881478,45.591202,82.629479,102.823128,117.144791,37.693978,71.616875,90.559159,104.382134,30.736931,57.120278,72.767967,85.182839,-14.022901,-15.931767,-13.672406,-15.666389,17.978929,31.284562,36.048186,38.43516,35.224522,47.705774,50.999801,50.880289,46.692265,60.803765,63.350081,61.859129,53.377612,66.601079,67.942323,65.661806,-9.215057,320.157225,-72.358692,298.975698
87,1.292999,-0.228415,-0.052231,-0.273357,6.711376,13.661499,17.045941,15.179718,-0.009418,22.367054,37.72649,46.518277,-7.810409,15.705174,32.445179,45.457203,-15.02481,5.750908,22.316082,34.415531,-20.60543,-11.372944,-1.077049,6.906487,-21.444819,-33.093256,-35.818647,-37.082715,-7.683072,4.009047,7.368023,8.190007,11.545475,22.920284,24.297219,22.034523,25.697385,34.568128,32.305025,29.055718,37.123545,45.762589,41.775945,35.702878,25.906952,52.097901,76.087944,95.805268,53.821644,86.875168,105.050423,119.144806,45.562191,82.500824,102.828461,117.316109,37.513333,71.348465,90.440735,104.404038,30.371338,56.722939,72.38815,84.854577,-13.850309,-15.580876,-13.237436,-15.266567,18.021438,31.370531,36.127807,38.517709,35.074246,47.838674,51.241653,51.211679,46.420662,60.843669,63.535863,62.085433,53.01552,66.477962,68.044903,65.906857,-7.881094,319.938122,-72.369959,298.711653
88,1.092362,1.978953,-0.06332,-0.22597,4.687362,11.17931,16.759861,17.232307,-2.146248,20.175304,35.491436,44.986324,-10.059208,13.729557,30.157757,42.834675,-16.254135,3.840088,19.358425,30.894047,-20.387753,-11.938339,-2.421238,5.335373,-21.60169,-33.860666,-36.533409,-37.674359,-9.183373,0.981523,4.768922,6.425439,10.515465,20.017174,21.76891,19.583365,24.948031,31.73755,30.011058,27.134403,36.490368,42.776943,38.997324,33.441022,26.019997,52.190438,76.158337,95.901387,53.853321,86.884632,105.138851,119.358547,45.572296,82.443959,102.909085,117.514904,37.454762,71.261696,90.476383,104.492832,30.202458,56.511429,72.166741,84.618313,-13.598317,-15.244262,-12.936316,-15.025641,18.126451,31.481855,36.221162,38.589513,34.996898,48.026112,51.523346,51.516294,46.220974,60.934134,63.696254,62.165573,52.728949,66.385806,68.102826,66.003262,-6.769106,321.927539,-72.413653,298.496147
89,-1.231098,3.314416,0.014981,-0.184633,3.786151,10.473495,19.237541,23.225418,-1.165547,21.068687,36.162849,46.38874,-9.021515,14.608497,30.627296,42.963729,-14.235089,5.228416,19.57537,30.377403,-17.247048,-9.114739,-0.123974,7.300655,-22.307892,-35.465805,-38.675876,-40.728978,-12.029943,-3.768084,0.645465,3.51145,7.944462,15.6232,17.695754,15.951391,22.724621,27.718253,26.375096,23.855629,34.531238,38.511188,34.750736,29.73228,26.128303,52.317352,76.300506,96.056144,53.983554,87.030075,105.348747,119.652786,45.698925,82.484962,103.052238,117.743385,37.525737,71.282901,90.551193,104.543792,30.19115,56.464222,72.110355,84.557144,-13.422379,-15.003276,-12.763378,-14.851295,18.21216,31.541653,36.356518,38.818285,34.899999,48.138843,51.764518,51.842805,46.032931,60.959809,63.798055,62.221456,52.504634,66.302973,68.146519,66.111707,-8.013605,325.246697,-72.412073,298.316256
90,1.977172,-2.335351,0.331855,-0.070593,5.235981,10.687718,16.057892,17.040322,-3.264141,18.803055,34.880127,45.278824,-10.74139,12.630455,30.288987,44.20324,-16.211025,4.292679,20.904625,33.279717,-19.801769,-9.895866,1.101906,9.624962,-21.993681,-34.609105,-37.61677,-39.741812,-10.770186,-0.376146,3.888584,5.897486,8.865,18.977618,20.659922,18.496793,23.50585,30.785174,29.065314,26.259017,35.299154,41.5706,37.50988,32.011043,26.23795,52.389954,76.340138,96.167519,53.931645,86.997528,105.35772,119.580162,45.584599,82.470612,103.08783,117.620316,37.368302,71.352871,90.580147,104.305458,30.044426,56.402138,72.049256,84.358818,-13.317032,-14.919493,-12.711681,-14.735205,18.155559,31.578666,36.43588,38.815543,34.887698,48.263887,51.92066,51.872309,46.05773,61.065513,63.84401,62.054779,52.576276,66.449445,68.242183,66.04046,-6.068076,322.909284,-72.111861,298.243601
91,-1.290195,0.611527,0.249241,0.034308,6.188072,11.837151,16.930401,18.005848,-1.626606,21.007084,37.289646,47.766003,-9.167461,14.922878,33.501263,48.527996,-14.85862,6.806522,24.293323,37.542995,-18.844345,-7.482548,4.382824,13.628986,-22.20488,-35.113866,-38.431604,-40.889406,-11.768703,-2.018967,2.135737,4.42312,7.780687,18.09187,19.933119,18.320853,22.605368,30.320502,28.794279,26.413813,34.602399,41.122464,37.160336,31.839364,26.33408,52.435295,76.332905,96.219509,53.90268,87.012303,105.389866,119.58276,45.521782,82.528576,103.21613,117.744564,37.303105,71.365998,90.603985,104.218014,29.99001,56.361328,72.013298,84.259106,-13.377276,-15.077944,-12.866773,-14.768377,17.943842,31.370074,36.270377,38.709036,34.692987,48.053467,51.738003,51.732322,45.883002,60.853697,63.664613,61.91147,52.430546,66.35682,68.194994,65.976808,-7.376186,323.500936,-71.880535,298.258034
92,5.532452,-0.160675,0.435711,0.170456,4.926006,8.312061,11.921402,12.016376,-7.719979,14.73278,31.560997,42.747985,-15.444008,8.83921,28.233352,43.983169,-20.332238,1.257934,19.467178,33.430458,-23.217453,-11.589444,0.817932,10.667747,-21.937933,-34.709412,-37.703221,-39.87949,-11.60394,-2.010408,2.065959,4.330038,8.187524,18.114014,20.049025,18.533818,23.209868,30.256158,28.736703,26.517319,35.339316,41.233406,37.105637,31.849023,26.342674,52.262615,76.052353,95.942276,53.811527,86.958298,105.343025,119.437821,45.441696,82.502014,103.218155,117.654007,37.257832,71.409165,90.593811,103.99926,30.006958,56.379318,71.991074,84.101555,-13.470754,-15.316461,-13.071599,-14.721125,17.76941,31.153836,36.134229,38.672221,34.554456,47.814493,51.54444,51.629161,45.805912,60.60924,63.388527,61.635976,52.461248,66.301837,68.041371,65.70539,-1.867469,323.298215,-71.468559,298.386444
93,-1.646038,2.642794,0.35923,0.157884,7.20346,11.336071,13.894031,13.822746,-3.740994,17.97639,34.664646,45.814579,-11.565651,11.68333,31.416927,48.372104,-17.058197,4.234394,22.701313,37.528987,-20.833146,-9.551411,2.714241,12.91817,-22.490377,-36.354863,-40.818566,-44.569854,-13.950356,-4.875503,-0.800977,1.423014,5.143884,15.507418,17.591915,16.848847,20.010864,27.942753,26.546305,24.685728,32.041869,38.660797,34.866037,29.648114,26.301018,52.174919,75.922119,95.830033,53.743218,86.952439,105.341904,119.413902,45.399994,82.513184,103.271416,117.721138,37.235275,71.421765,90.584953,103.910568,29.989071,56.40509,71.988819,84.013596,-13.566084,-15.495007,-13.234695,-14.774453,17.557963,30.86267,35.930329,38.591833,34.393769,47.519708,51.255509,51.408848,45.705666,60.317308,63.097892,61.407141,52.417985,66.128553,67.818847,65.442333,-3.522697,325.883807,-71.118519,298.487126
94,7.519535,-3.261113,0.307709,0.200824,6.583511,8.144806,5.984573,1.796539,-11.142632,9.814727,27.441719,38.928337,-19.195736,3.847503,24.880828,43.069038,-24.775692,-3.640801,16.600593,32.974914,-28.46505,-17.371262,-4.329003,6.73986,-21.681508,-34.680884,-38.501197,-41.162417,-10.973518,-0.52725,2.964909,4.176143,8.111855,19.555232,21.354429,20.381563,22.816715,31.560413,29.84474,27.89586,34.677512,42.661939,38.706208,33.111448,26.244644,52.088665,75.851578,95.807968,53.712055,87.017189,105.407913,119.43544,45.372494,82.570267,103.318245,117.67836,37.213817,71.533516,90.641441,103.850624,29.980179,56.483814,72.021217,83.919502,-13.626661,-15.617037,-13.339435,-14.858211,17.464746,30.659771,35.730728,38.418846,34.376936,47.278845,50.970828,51.139209,45.72397,60.110124,62.843036,61.163697,52.45474,66.022491,67.613367,65.166556,3.982006,322.564485,-70.825642,298.629741
95,-3.397236,3.95031,0.228161,0.173729,7.474445,10.465839,10.685795,9.441799,-7.046276,14.504619,31.697307,43.188137,-15.377346,8.310848,28.763797,46.812206,-20.695793,0.890556,20.04665,35.939518,-23.988968,-12.740868,-0.434464,10.477009,-22.505741,-36.950545,-42.035124,-45.556626,-14.542568,-5.946145,-2.166155,-0.142298,4.331013,14.936943,17.260043,17.22503,19.170242,27.247962,26.244233,24.954996,31.019442,37.932376,34.669559,29.626353,26.172615,51.952251,75.714306,95.722126,53.723797,87.01308,105.342006,119.34724,45.394809,82.592388,103.345608,117.729389,37.220661,71.60083,90.666561,103.858234,29.91061,56.458832,71.907234,83.715328,-13.7007,-15.783146,-13.410683,-14.831091,17.168936,30.355798,35.48128,38.220442,34.124784,46.959274,50.713143,50.946646,45.53878,59.784168,62.59081,61.016916,52.325311,65.822148,67.447727,65.053688,0.564028,326.460192,-70.618223,298.748867
96,10.418152,-4.490861,0.437153,0.167665,5.772091,5.362918,0.775852,-4.812745,-17.886223,2.151523,20.47047,32.519016,-26.662365,-3.790387,17.794315,36.454113,-31.871167,-11.289849,9.496021,26.466396,-34.619374,-24.679997,-11.75512,-0.04382,-20.98358,-34.41159,-38.514016,-40.545259,-10.478625,0.611132,4.14927,5.059854,8.580035,20.314046,22.509705,21.96146,23.183291,31.951726,30.833586,29.215034,34.755429,43.106493,39.702613,34.163737,26.099441,51.809326,75.585296,95.601585,53.652431,86.934768,105.231536,119.168838,45.337188,82.493957,103.200874,117.472389,37.143642,71.610626,90.537162,103.55223,29.790092,56.358249,71.666633,83.258377,-13.710667,-15.865398,-13.433062,-14.684421,17.164663,30.309584,35.468967,38.199706,34.133478,46.901599,50.71234,50.938235,45.537495,59.673128,62.467754,60.816782,52.326385,65.739167,67.315136,64.830115,10.941737,321.930021,-70.221513,298.877222
97,-9.524002,4.546695,0.416736,0.22976,8.474086,11.713771,11.224903,9.783061,-7.317078,13.523334,30.613529,41.673923,-15.943131,7.916301,28.067447,45.590137,-21.447545,0.209861,19.275341,35.109272,-24.901337,-13.829773,-1.977013,8.957073,-22.855531,-38.158469,-43.352654,-45.260149,-15.104299,-5.542754,-1.569633,0.320646,3.919484,14.941958,17.425263,17.759641,18.747425,27.26114,26.617268,25.460943,30.498171,38.34214,35.344343,29.98626,25.94632,51.645207,75.438412,95.583904,53.479454,86.738011,105.025738,118.947453,45.239136,82.374172,103.087887,117.318775,37.119885,71.571659,90.419621,103.343136,29.809044,56.343498,71.507847,82.920674,-13.978971,-16.218041,-13.612211,-14.600588,17.0371,30.238597,35.393509,38.04974,34.080905,46.805145,50.534117,50.652962,45.495802,59.554506,62.275797,60.528421,52.24837,65.686939,67.202282,64.614977,1.37542,326.453507,-69.847092,299.083773
98,7.210281,-5.241041,0.544464,0.412678,6.899883,7.173511,3.559032,-1.09845,-16.759792,4.316723,22.735279,34.357281,-25.305039,-1.15337,20.361889,38.469005,-30.305729,-8.382259,12.40266,29.01701,-33.082146,-21.323513,-8.070454,3.529987,-21.597071,-35.212481,-38.677272,-39.001054,-11.019015,0.817612,4.709568,5.934412,8.463758,20.770443,23.073671,22.758188,23.362997,32.591707,31.703205,30.399493,35.340835,44.172157,40.652964,35.105443,25.763237,51.368924,75.139744,95.324993,53.337525,86.578343,104.837963,118.675907,45.141381,82.284863,102.965092,117.059407,37.088208,71.580632,90.327771,103.099171,29.877674,56.417576,71.463765,82.699322,-14.401517,-16.778377,-13.959816,-14.601663,16.80824,30.099189,35.25478,37.870639,33.98765,46.63264,50.293463,50.36481,45.471003,59.368798,61.981594,60.152435,52.249605,65.579864,66.949748,64.238386,8.531868,321.207538,-69.356461,299.491523
99,-10.489357,5.381165,0.453392,0.356696,8.767422,13.183582,14.388027,14.560375,-5.17812,16.939854,34.586323,46.093746,-13.317124,11.466808,32.003345,49.609989,-18.608734,4.290447,23.75259,39.497967,-22.066361,-8.806675,3.967289,15.14732,-22.562946,-38.394763,-43.915238,-45.768046,-16.481642,-7.038237,-3.112332,-1.402994,2.625912,14.310658,17.047313,17.524446,17.863295,26.976755,26.701224,25.797421,30.23746,38.239264,35.334685,30.325023,25.637764,51.188988,74.88731,95.089383,53.119023,86.314785,104.55003,118.359364,44.984414,82.145886,102.860264,116.92986,37.028675,71.521912,90.239743,102.928059,29.903881,56.410115,71.36039,82.447804,-14.771378,-17.28919,-14.368432,-14.781814,16.46755,29.828178,34.969974,37.533011,33.782785,46.382549,49.944313,49.91597,45.336139,59.083288,61.599049,59.707288,52.131426,65.392797,66.68653,63.886173,-2.011207,326.582315,-68.956787,299.841831
100,4.634594,-4.14691,0.43935,0.338071,7.897796,10.558433,9.423889,6.841278,-11.127194,10.942428,29.430702,41.289665,-19.091881,5.725571,27.078003,44.925133,-24.219944,-1.381748,19.195907,35.364715,-27.618748,-13.895474,-0.22292,11.233795,-21.732329,-36.22504,-40.352746,-41.082796,-13.260333,-2.263486,1.52684,2.658886,6.31987,18.54865,20.961819,20.863216,21.767143,31.139646,30.350278,29.296062,34.534251,43.047039,39.357341,34.095724,25.505471,51.059544,74.712616,94.924828,53.03191,86.186234,104.369866,118.12896,44.963151,82.022049,102.720292,116.74331,37.061303,71.413365,90.122452,102.788155,29.971173,56.366272,71.26933,82.313988,-15.106609,-17.717688,-14.749864,-14.966942,16.288993,29.676433,34.803606,37.327333,33.687925,46.18664,49.62725,49.471157,45.263101,58.901717,61.302808,59.295956,52.044074,65.22223,66.412877,63.491662,2.569983,322.425337,-68.570841,300.169834
101,-12.735169,5.821989,0.294514,0.252361,10.152832,17.796444,22.113785,24.617901,3.013115,26.985375,44.630196,56.36895,-4.328601,21.504731,41.775628,59.078888,-9.86483,14.277329,33.511071,48.778016,-14.292606,1.57568,14.808873,25.679833,-23.09232,-39.460094,-45.746212,-48.429699,-18.900529,-11.128079,-7.690199,-6.225652,0.19933,11.535817,14.204052,14.838748,16.007856,25.160527,24.80829,24.063617,29.267868,36.793711,33.656852,28.929833,25.349064,50.894222,74.511486,94.744343,52.923031,86.069401,104.239826,118.01231,44.93153,81.945454,102.690365,116.745106,37.097912,71.368115,90.173985,102.952412,30.036988,56.38076,71.295834,82.417866,-15.363515,-18.025204,-14.979217,-15.097914,15.996939,29.485723,34.628927,37.148566,33.500488,45.997956,49.360661,49.124108,45.132006,58.726112,61.059326,59.006804,51.920945,65.069201,66.22665,63.29064,-10.212765,328.235399,-68.323906,300.410268
102,8.477326,-3.927882,0.240372,0.049487,8.287811,12.93877,13.638817,12.53516,-6.131298,17.321022,36.159805,48.837524,-13.746575,11.433197,32.97052,51.186859,-19.083355,4.173981,24.766571,40.812881,-23.042198,-7.991146,6.197777,17.708336,-21.72608,-36.67783,-42.036704,-44.584575,-15.407456,-6.355006,-3.054064,-2.288878,3.887485,15.882132,18.516997,18.540944,19.732493,29.068364,28.514982,27.648611,33.152228,40.949119,37.417082,32.668203,25.363243,50.89904,74.465984,94.581905,52.879246,86.018955,104.157429,117.927692,44.883499,81.850056,102.60545,116.687267,37.033424,71.254612,90.142055,103.041607,29.92598,56.238739,71.203342,82.423176,-15.313522,-17.958564,-15.018688,-15.258984,15.954997,29.443424,34.569931,37.09861,33.459757,45.98668,49.330663,49.025505,45.07522,58.681478,61.022251,58.967593,51.834728,64.955357,66.177484,63.301496,-1.815571,324.297315,-68.163666,300.449553
103,-8.925888,4.9294,0.158031,-0.103876,10.146206,18.430733,22.896606,25.543327,4.55421,28.383682,46.056038,58.166931,-3.002049,22.834511,43.194832,60.525284,-8.754673,15.568439,34.705192,49.693931,-13.332516,3.093727,16.590603,27.418945,-22.913775,-39.701946,-46.72424,-49.757544,-20.272265,-13.214144,-10.011693,-8.855479,-1.25877,10.235032,12.906219,13.436963,14.896509,24.008683,23.753506,23.023863,28.502113,35.651872,32.602105,28.134265,25.397255,50.980923,74.543221,94.587708,52.813671,85.988915,104.135285,117.922783,44.770661,81.702553,102.460854,116.556244,36.883816,71.089005,90.054131,103.049813,29.710167,55.968235,70.968132,82.261139,-15.166371,-17.729779,-14.903462,-15.236384,16.031296,29.536691,34.642561,37.152407,33.489076,46.142192,49.490238,49.098629,45.032932,58.824059,61.198264,59.116448,51.721181,65.001657,66.346927,63.55282,-10.833429,329.212099,-68.097605,300.331061
104,13.4011,-5.581941,0.209004,-0.048623,7.603901,10.96772,10.242256,8.631432,-9.110264,12.333664,30.601089,43.305221,-17.026051,6.74144,27.934547,46.036056,-22.194866,-0.263855,19.97374,35.866264,-25.745384,-11.428379,2.692806,14.197838,-22.034017,-36.606966,-41.456571,-42.514356,-15.335863,-6.060284,-2.486343,-1.507723,4.127607,16.013598,18.915806,19.192707,20.077504,29.103426,28.923238,28.188952,33.311395,41.253351,38.018012,33.352941,25.427284,50.986358,74.564426,94.614017,52.826008,85.924816,104.011448,117.777202,44.768909,81.554981,102.236378,116.310139,36.842743,70.922516,89.893558,102.985851,29.605831,55.813843,70.854698,82.291363,-15.060481,-17.584257,-14.743664,-15.030964,16.154908,29.766144,34.891083,37.391295,33.551765,46.325345,49.716998,49.294057,45.051162,58.975299,61.390407,59.283323,51.733544,65.096321,66.50202,63.759091,2.466002,323.620994,-67.99027,300.273274
105,-4.362591,3.448723,0.246872,0.009979,8.843228,14.350239,15.950627,16.78291,-2.672081,18.362538,35.48917,47.757145,-10.899959,12.744198,32.799626,50.287708,-16.1949,5.670365,24.705265,40.027393,-19.879063,-5.576809,7.628975,18.842251,-22.89415,-38.467221,-43.994476,-45.069217,-18.566792,-10.353605,-6.653409,-5.159457,0.494806,12.081839,15.366133,16.182869,16.234307,25.252486,25.791381,25.356918,29.130238,36.838864,34.624061,30.390144,25.428486,50.934494,74.538631,94.579937,52.823971,85.828457,103.883022,117.605793,44.721828,81.41074,101.998089,115.959423,36.743511,70.790359,89.72018,102.780544,29.455822,55.688576,70.741539,82.202648,-14.989492,-17.459595,-14.581915,-14.798239,16.271654,30.009058,35.128031,37.59391,33.647157,46.553426,49.946376,49.485619,45.121174,59.165453,61.558158,59.389138,51.799765,65.199247,66.616542,63.898203,-2.035103,327.066818,-67.881912,300.280354
106,6.946747,-5.20635,0.36391,0.094021,8.542339,11.593025,9.725407,6.923893,-9.530491,10.226315,27.44743,39.27055,-17.948936,4.540981,24.825748,42.280804,-23.313561,-2.309601,17.371181,32.88406,-26.993706,-13.403183,0.349617,11.839062,-22.170201,-35.937097,-39.298345,-38.356898,-14.297073,-3.055744,1.148434,2.358372,5.199348,18.166749,21.496467,21.675,20.66874,30.374176,30.90308,30.479139,33.242087,42.207666,39.828213,35.359459,25.459305,50.964066,74.585679,94.711647,52.774064,85.675301,103.664177,117.275872,44.608418,81.26223,101.766793,115.563675,36.615635,70.664944,89.525666,102.449067,29.350811,55.617108,70.658627,82.025071,-15.031668,-17.404477,-14.468702,-14.571022,16.420645,30.258369,35.389692,37.822683,33.823714,46.818619,50.120463,49.506195,45.290395,59.387039,61.662702,59.351298,51.923538,65.319117,66.675687,63.890521,4.733482,321.859218,-67.696164,300.373125
107,-5.214855,2.362102,0.29987,0.253856,8.848663,13.489712,15.288688,16.351684,-4.047135,16.117882,32.593323,44.205917,-12.29567,10.423645,30.095077,47.335029,-17.393978,3.90002,22.550079,37.544838,-20.731968,-6.912438,6.13044,17.073372,-22.875552,-37.000217,-40.450448,-39.541975,-16.480173,-6.860298,-2.404808,-0.369342,3.107676,15.67675,19.376427,19.878087,18.79002,28.278329,29.080356,28.616437,31.354586,39.500503,37.443597,33.27884,25.462292,50.989929,74.653416,94.867619,52.847557,85.5947,103.498203,117.031712,44.634247,81.211201,101.644009,115.36385,36.59824,70.593681,89.3978,102.213078,29.303226,55.576195,70.629787,81.958363,-15.144017,-17.446603,-14.40416,-14.380349,16.402688,30.30998,35.478391,37.894524,33.854515,46.892794,50.178805,49.514445,45.366003,59.477466,61.657614,59.243321,52.029922,65.388672,66.662102,63.797142,-0.69306,324.208105,-67.607981,300.613766
108,0.237465,-0.731187,0.475388,0.297279,8.816185,13.370224,15.639175,17.418663,-4.101609,15.776275,32.289276,43.964561,-12.486271,10.221679,29.791214,46.860901,-17.70892,3.300419,22.130356,37.134567,-21.181275,-7.821213,5.377739,16.449943,-22.656535,-36.176664,-39.378596,-38.533541,-15.034583,-4.800255,-0.072977,2.170502,4.293395,17.031641,20.835392,21.359258,19.621403,29.505298,30.33242,29.785188,31.716333,40.476271,38.566492,34.433598,25.473804,50.97322,74.623569,94.882587,52.90036,85.483142,103.355564,116.841831,44.650405,81.099185,101.530254,115.219631,36.551342,70.479137,89.25278,101.970211,29.190822,55.482296,70.559063,81.830623,-15.148228,-17.397351,-14.340348,-14.378336,16.485508,30.382253,35.544735,37.894067,33.9721,47.017295,50.223191,49.429772,45.50683,59.582096,61.598234,58.987007,52.192325,65.462279,66.624718,63.624315,-0.730619,323.452536,-67.407617,300.886663
109,-2.232743,-0.391201,0.313385,0.318286,10.068558,15.704796,18.181137,19.230172,-1.863224,19.292611,35.994599,46.985642,-10.866314,13.172814,32.778923,49.305039,-16.818718,5.439171,24.280404,38.910118,-20.91727,-7.338501,5.65519,16.583977,-21.725499,-35.24658,-38.569468,-38.011467,-14.587658,-3.309958,1.291547,3.234215,4.72398,18.371451,21.777579,21.759054,20.020891,30.731191,31.265049,30.40589,32.174904,41.61238,39.541345,35.060254,25.387069,50.90752,74.53886,94.790165,52.768158,85.439746,103.449611,117.08781,44.527954,81.106487,101.751216,115.615734,36.489887,70.461193,89.404415,102.133792,29.199611,55.579788,70.727428,81.887821,-15.192626,-17.415604,-14.331418,-14.413015,16.401614,30.207833,35.330548,37.725315,33.908535,46.940268,50.078152,49.347002,45.476116,59.513306,61.402881,58.778773,52.111037,65.318771,66.359784,63.269732,-3.299321,322.99336,-67.430191,301.136974
110,-0.678611,0.351829,0.400623,0.197923,10.220569,16.071693,18.619423,19.79663,-1.446625,20.546974,37.7555,48.687881,-10.458573,14.22409,34.218177,50.662193,-16.610711,6.20375,24.98378,39.22396,-20.850895,-6.732754,6.293014,16.667221,-22.25554,-35.996736,-39.394898,-39.229716,-14.633699,-2.86801,2.004838,4.083456,5.1384,18.774521,21.994212,21.971019,20.644064,31.133829,31.113303,30.078082,32.852528,41.778353,39.12348,34.638116,25.323944,50.903847,74.542328,94.791595,52.524467,85.381988,103.582466,117.316749,44.29652,81.134971,102.057793,116.069916,36.338791,70.53289,89.690849,102.415764,29.172958,55.744949,71.013222,82.086227,-15.197122,-17.34805,-14.2907,-14.447225,16.575441,30.27351,35.374501,37.794241,34.096478,47.064287,50.119351,49.385917,45.643447,59.626852,61.393729,58.711452,52.159165,65.334714,66.273741,63.081516,-4.354288,323.263598,-67.405924,301.253306
111,2.997642,-0.965962,0.203167,0.25908,9.753101,14.608795,16.16835,16.294144,-5.766117,17.119034,35.106583,46.051438,-15.410705,10.808922,31.525223,48.139023,-21.380916,2.359348,21.704018,36.295807,-24.893921,-11.012295,2.04903,12.693993,-21.394196,-34.854711,-38.117627,-37.990101,-13.309955,-0.641982,4.060732,6.021653,6.523524,20.434854,23.313658,23.071683,22.013787,32.732906,32.31199,31.01864,34.151671,43.287694,40.274965,35.515676,25.218304,50.920406,74.587749,94.802822,52.521503,85.535328,103.896801,117.796154,44.297928,81.349674,102.450336,116.660694,36.393802,70.702114,89.996258,102.783108,29.296039,56.024631,71.357952,82.391819,-15.203433,-17.384544,-14.340175,-14.630501,16.485544,30.059755,35.144987,37.616819,34.019981,46.893967,49.959467,49.419447,45.601506,59.460595,61.166166,58.557977,52.117397,65.188872,66.014216,62.784941,-1.795017,322.192617,-67.641128,301.407367
112,-3.255043,1.211333,0.335644,0.127082,11.068737,17.663246,19.476608,19.421906,-1.964516,21.625671,39.495369,50.00251,-11.608417,15.334557,35.715523,51.545998,-18.086586,6.446102,25.525131,39.59475,-22.457165,-7.238514,5.979069,16.364662,-21.926941,-35.977346,-39.76104,-39.895286,-14.204546,-0.257943,4.833193,6.820383,5.494824,19.525481,21.995275,21.787633,20.903416,31.67464,31.030842,29.830809,32.990343,42.381235,39.370124,34.653084,25.194213,50.907383,74.599891,94.896904,52.4263,85.580886,104.146934,118.143631,44.255241,81.481361,102.762153,117.017555,36.434726,70.954559,90.345794,103.05677,29.441883,56.353042,71.693916,82.522796,-14.981094,-17.118326,-14.111957,-14.579914,16.789641,30.221084,35.257769,37.698219,34.285336,47.036759,50.016352,49.489423,45.813952,59.562484,61.145703,58.488867,52.251297,65.246264,65.937782,62.618215,-5.549904,323.293056,-67.805328,301.423555
113,7.709267,-3.628367,0.116443,0.239456,10.186821,14.025444,11.690231,6.931572,-10.719841,13.609245,32.532829,43.125046,-20.537556,6.825165,28.228935,44.562584,-26.732105,-2.054157,17.994667,32.674209,-30.628258,-15.842526,-2.132115,8.646057,-21.078788,-33.925998,-36.38275,-35.922475,-10.79601,4.668985,9.189955,10.356384,9.408861,23.89447,25.78234,24.715861,24.873819,35.604855,34.263352,32.724964,37.191754,46.692475,42.895244,37.80317,25.117447,50.881508,74.632199,95.019825,52.482548,85.799732,104.477291,118.575543,44.400124,81.837239,103.185917,117.528248,36.703308,71.34747,90.78384,103.503079,29.847599,56.945057,72.262539,82.957226,-15.03131,-17.183979,-14.046169,-14.464911,16.867323,30.189813,35.213963,37.72697,34.353755,46.931215,49.900434,49.572391,45.880284,59.423805,60.977544,58.463462,52.278751,65.093666,65.610023,62.244094,1.588921,319.569235,-68.259327,301.567557
114,-9.591431,4.890583,0.19653,0.097627,11.759674,19.020699,21.534371,21.181984,-0.898933,24.606171,42.475571,52.689011,-9.99852,18.499489,39.009087,54.670418,-15.937225,10.182095,29.170899,43.156838,-19.995483,-3.014637,10.568539,20.78009,-23.413558,-37.712965,-40.747183,-40.543258,-14.885962,-1.600151,3.41113,5.650508,5.26631,18.512638,20.665553,20.257729,20.992868,30.83965,29.641198,28.372066,33.628965,41.622766,37.951704,33.374628,25.15472,51.006763,74.838546,95.302986,52.686573,86.029976,104.698654,118.723755,44.632026,82.131775,103.45356,117.778701,36.918388,71.666175,91.033218,103.725723,30.043201,57.234764,72.497474,83.134575,-14.95196,-17.039001,-13.859089,-14.280474,17.099208,30.382191,35.430065,37.910517,34.557013,47.052209,50.047869,49.732337,46.02893,59.478788,61.032848,58.517754,52.387284,65.126579,65.616741,62.221593,-8.631283,324.396416,-68.69157,301.601782
