takenoko1/special-research/HandMotion_SimilarSearch_自分用/NewProject/handData/key/d4_feature_d3/127.csv
,vel_0x_L,vel_0y_L,vel_0x_R,vel_0y_R,posFromWrist_1x_L,posFromWrist_2x_L,posFromWrist_3x_L,posFromWrist_4x_L,posFromWrist_5x_L,posFromWrist_6x_L,posFromWrist_7x_L,posFromWrist_8x_L,posFromWrist_9x_L,posFromWrist_10x_L,posFromWrist_11x_L,posFromWrist_12x_L,posFromWrist_13x_L,posFromWrist_14x_L,posFromWrist_15x_L,posFromWrist_16x_L,posFromWrist_17x_L,posFromWrist_18x_L,posFromWrist_19x_L,posFromWrist_20x_L,posFromWrist_1y_L,posFromWrist_2y_L,posFromWrist_3y_L,posFromWrist_4y_L,posFromWrist_5y_L,posFromWrist_6y_L,posFromWrist_7y_L,posFromWrist_8y_L,posFromWrist_9y_L,posFromWrist_10y_L,posFromWrist_11y_L,posFromWrist_12y_L,posFromWrist_13y_L,posFromWrist_14y_L,posFromWrist_15y_L,posFromWrist_16y_L,posFromWrist_17y_L,posFromWrist_18y_L,posFromWrist_19y_L,posFromWrist_20y_L,posFromWrist_1x_R,posFromWrist_2x_R,posFromWrist_3x_R,posFromWrist_4x_R,posFromWrist_5x_R,posFromWrist_6x_R,posFromWrist_7x_R,posFromWrist_8x_R,posFromWrist_9x_R,posFromWrist_10x_R,posFromWrist_11x_R,posFromWrist_12x_R,posFromWrist_13x_R,posFromWrist_14x_R,posFromWrist_15x_R,posFromWrist_16x_R,posFromWrist_17x_R,posFromWrist_18x_R,posFromWrist_19x_R,posFromWrist_20x_R,posFromWrist_1y_R,posFromWrist_2y_R,posFromWrist_3y_R,posFromWrist_4y_R,posFromWrist_5y_R,posFromWrist_6y_R,posFromWrist_7y_R,posFromWrist_8y_R,posFromWrist_9y_R,posFromWrist_10y_R,posFromWrist_11y_R,posFromWrist_12y_R,posFromWrist_13y_R,posFromWrist_14y_R,posFromWrist_15y_R,posFromWrist_16y_R,posFromWrist_17y_R,posFromWrist_18y_R,posFromWrist_19y_R,posFromWrist_20y_R,posFromBody_0x_L,posFromBody_0y_L,posFromBody_0x_R,posFromBody_0y_R
6,-6.69508,4.914444,0.397831,0.166788,10.602253,18.379818,21.186527,21.769215,6.20406,31.102283,47.657719,57.681393,-2.485519,24.168171,42.865574,57.456722,-9.472458,14.671429,31.128994,42.896221,-15.363087,-0.196655,11.218929,19.529789,-24.261861,-39.649705,-45.760155,-47.72593,-19.020214,-11.105071,-8.72374,-7.447483,-0.07893,11.775704,12.414945,12.030091,15.482001,25.12602,22.96189,21.263235,28.065624,35.872432,31.742688,26.247333,25.065227,50.211673,73.693096,93.525066,53.53934,86.720752,104.728511,118.089557,45.200637,82.122699,102.251483,116.032733,36.776985,70.699848,89.195171,101.728557,29.272693,55.349258,70.227893,81.012302,-14.777269,-16.896098,-13.516091,-12.429222,18.497064,31.463626,36.156521,38.381957,35.257275,47.482893,50.51385,50.481419,46.065993,59.839756,62.180627,60.712314,52.186681,65.578752,66.715405,64.315302,-13.912771,328.195379,-71.578954,298.243971
7,7.662323,-4.708074,0.523109,0.248224,9.926434,14.713657,13.461651,9.624767,-3.259598,21.90247,38.845173,48.063183,-11.880341,15.768757,34.445217,48.229168,-18.259232,6.680157,23.736431,35.413776,-23.243671,-7.959938,3.863995,12.114704,-23.255057,-36.949742,-41.538675,-42.956575,-13.468802,-2.438474,-0.301256,0.191513,5.550041,18.26445,17.903198,16.628991,20.538101,30.566355,27.3972,25.450753,32.701684,41.137124,36.128486,30.433616,24.9039,50.001125,73.412304,93.249813,53.337765,86.550533,104.512173,117.772442,45.001064,82.037991,102.17506,115.860317,36.626301,70.678883,89.102016,101.460285,29.222694,55.430374,70.251377,80.816631,-14.964483,-17.219546,-13.82336,-12.648719,18.251175,31.236965,35.94,38.162397,35.163983,47.293505,50.232614,50.131986,46.089742,59.637622,61.823476,60.266476,52.26119,65.439728,66.371492,63.7975,-6.43055,323.473627,-71.235947,298.478517
8,-6.355888,4.2806,0.506115,0.234368,10.18626,16.936832,19.654941,20.01321,3.738384,29.2924,45.675052,54.969806,-4.54628,23.243328,41.745494,55.647525,-10.824509,14.386356,30.767269,42.237728,-15.885899,-0.260491,11.225452,19.381519,-23.866151,-38.998361,-44.545722,-46.786718,-17.209679,-8.259488,-5.664612,-4.057693,1.565027,13.166522,13.220208,12.722734,16.681479,26.029775,23.259256,21.595972,29.003811,36.392964,31.724768,26.355088,24.801292,49.814358,73.172058,92.979195,53.186016,86.426445,104.340683,117.492554,44.814136,81.903671,101.975304,115.497185,36.449192,70.564453,88.88063,101.041695,29.124344,55.412762,70.187233,80.614952,-15.162258,-17.50497,-14.158962,-12.874788,18.04205,31.046971,35.761874,37.960683,35.053424,47.059248,49.912895,49.704636,46.042713,59.398549,61.438474,59.756911,52.227535,65.300085,66.090033,63.376053,-12.950426,327.747542,-70.89382,298.7062
9,6.428054,-4.445387,0.478203,0.327821,9.804406,14.150402,13.685452,10.55959,-3.927005,22.021031,38.826176,47.53275,-12.157184,16.673733,35.292401,48.540997,-17.999233,7.804333,24.848408,36.21642,-22.417511,-6.668357,5.124333,13.225972,-23.071498,-36.759625,-40.779182,-41.866582,-12.699071,-1.73331,0.307542,0.92864,6.260961,18.411429,17.935753,16.850687,21.052259,30.559488,27.3087,25.610749,33.152709,41.070965,35.985633,30.602973,24.690021,49.591449,72.925483,92.774597,53.005119,86.251991,104.146591,117.24012,44.665111,81.875038,101.948478,115.368255,36.372333,70.620575,88.871452,100.854858,29.155117,55.530624,70.255623,80.551895,-15.333517,-17.849686,-14.518733,-13.143687,17.706189,30.636392,35.346553,37.542719,34.861528,46.67679,49.483458,49.267356,45.979665,59.064652,60.927538,59.137332,52.240576,65.111375,65.74612,62.887484,-6.67087,323.30423,-70.564115,299.036096
10,-9.269542,4.957459,0.372253,0.314606,11.02502,18.504982,22.540558,23.48838,5.955997,32.953216,49.128753,57.796257,-1.759724,27.914451,46.256836,59.547088,-7.531449,19.292312,35.490028,46.55635,-12.345761,4.750843,16.481552,24.568931,-24.290315,-39.616026,-45.219259,-47.814369,-17.327191,-8.395352,-5.574704,-3.578696,1.490902,12.376721,12.531196,12.217665,16.486125,25.102036,22.437975,21.175278,28.89387,35.438289,30.712481,25.839756,24.553745,49.310703,72.571724,92.3993,52.818421,86.162224,104.062317,117.133965,44.50811,81.872704,101.964066,115.300186,36.294548,70.752113,89.018829,100.89988,29.168884,55.807858,70.555023,80.773041,-15.576468,-18.247235,-14.941068,-13.468951,17.198045,30.124135,34.834173,37.00507,34.512008,46.207783,48.939177,48.655236,45.789968,58.660125,60.388531,58.509626,52.135403,64.79751,65.277657,62.304547,-16.0981,328.263424,-70.34955,299.352437
11,9.779743,-5.079441,0.32016,0.200688,9.319874,12.878803,13.127323,10.808567,-5.763474,21.70673,39.310902,48.527172,-13.868054,16.70573,36.169613,49.764942,-19.144295,7.906208,25.599644,37.243572,-22.948128,-6.157894,6.588489,15.186436,-22.870179,-36.412724,-40.30684,-41.727964,-12.457824,-2.031761,0.343987,1.67309,6.751889,17.955377,17.739523,16.699003,21.715434,30.495972,27.358705,25.781884,34.000555,41.036965,35.861502,30.871587,24.481922,49.161255,72.37793,92.234848,52.538899,85.975502,103.926796,117.02655,44.26046,81.831871,102.014786,115.362785,36.126938,70.86763,89.212257,101.083557,29.094669,56.025147,70.817528,81.010643,-15.655742,-18.407489,-15.098988,-13.672467,16.892974,29.821868,34.529645,36.704865,34.323164,45.931303,48.61116,48.273039,45.714448,58.431328,60.080113,58.151771,52.090042,64.606097,65.015774,61.962229,-6.494448,323.185558,-70.205481,299.5547
12,-5.412106,3.535384,0.2719,0.159205,10.570908,16.340996,18.832764,18.532288,0.808937,27.905594,44.814698,53.656952,-7.498935,22.889145,41.958619,55.412247,-12.989193,14.231369,31.178215,42.564858,-17.156856,0.219246,12.60022,21.062279,-23.803783,-38.703602,-43.707683,-45.876938,-15.996815,-6.844564,-3.812001,-1.502684,3.133352,13.971451,14.306298,14.077377,18.280567,26.790182,24.120971,22.963039,30.566812,37.047221,32.38409,27.709719,24.487828,49.089169,72.259724,92.140011,52.411171,85.849308,103.803669,116.91695,44.104626,81.702633,101.886143,115.213383,35.94896,70.80502,89.177433,101.015293,28.892693,56.021096,70.857846,81.051052,-15.786073,-18.59868,-15.344458,-13.979959,16.655951,29.645682,34.361326,36.494914,34.122772,45.760909,48.437752,48.054159,45.572385,58.272814,59.911596,57.964099,51.971135,64.460033,64.849394,61.773618,-12.077483,326.725119,-70.10451,299.718082
13,8.586365,-4.882704,0.081642,0.048573,9.641121,12.528626,10.722954,6.224648,-8.440899,17.703072,35.385178,44.400124,-17.211422,12.627274,32.114639,45.692139,-22.613399,3.892937,21.761971,33.537552,-26.394997,-9.845787,2.947014,11.603577,-22.757126,-36.142331,-40.04445,-41.230194,-11.567458,-0.557433,2.049484,3.288061,7.831978,19.660035,19.730961,18.672151,22.847887,31.997977,28.945234,27.425816,34.95303,42.553716,37.517426,32.406765,24.5457,49.231144,72.45876,92.384892,52.270775,85.677578,103.710652,116.892941,43.972447,81.679516,101.967808,115.342839,35.845871,70.976612,89.386128,101.106274,28.799046,56.273495,71.086338,81.079296,-15.79452,-18.741855,-15.608441,-14.375977,16.243607,29.368089,34.177371,36.346231,33.772239,45.51692,48.337358,48.02358,45.351664,58.016093,59.704596,57.786246,51.880646,64.346869,64.709912,61.560962,-3.706392,321.858433,-70.238142,299.782673
14,-7.192692,4.83917,-0.027259,-0.102147,10.137463,16.06699,17.68459,16.653523,0.536179,26.279835,43.400082,52.890782,-8.280395,20.433232,39.635182,53.53822,-14.42855,11.509404,28.600949,40.289509,-19.085357,-2.450134,9.865757,18.362194,-23.374099,-38.613138,-44.442204,-47.08154,-16.027369,-6.3967,-2.911977,-0.494411,2.930415,14.753421,15.591868,15.426426,18.120794,27.354679,24.776365,23.370506,30.392762,37.448747,32.885256,27.869282,24.668838,49.457943,72.772922,92.763164,52.055316,85.492824,103.642238,116.946544,43.817264,81.633693,102.079593,115.537799,35.773761,71.106365,89.557537,101.184391,28.803245,56.42728,71.26942,81.176181,-15.567748,-18.617218,-15.637823,-14.60995,15.906276,29.093052,33.968914,36.16955,33.49204,45.343512,48.28198,47.993655,45.214059,57.931717,59.671399,57.711379,51.879794,64.421154,64.835055,61.578153,-11.133334,326.71716,-70.499651,299.700083
15,9.481854,-4.687412,0.017692,-0.086463,8.85157,11.631523,8.79586,3.871948,-9.784138,14.889587,32.921928,42.782112,-19.135346,9.023163,28.965523,43.214607,-25.179222,-0.050835,18.172966,30.369118,-29.362667,-13.700272,-0.988083,7.739914,-22.319958,-36.255878,-40.723261,-41.697917,-11.698171,-0.321287,2.465299,3.635444,7.598833,20.285998,20.723809,19.886053,22.6985,32.396205,29.31355,27.482799,34.72958,42.771275,37.797921,32.264109,24.752209,49.640957,73.021534,93.065014,52.012516,85.317547,103.51775,116.864857,43.844422,81.60751,102.151211,115.655148,35.856926,71.247769,89.620892,101.061001,28.932541,56.543278,71.303845,81.036472,-15.372951,-18.449418,-15.578085,-14.792768,15.740069,28.916656,33.890651,36.167142,33.331452,45.299299,48.433207,48.269049,45.15116,57.910956,59.722417,57.766572,51.96291,64.581446,65.049205,61.705161,-1.903009,322.069876,-70.733488,299.653748
16,-9.731816,4.649423,0.018196,-0.201109,10.731972,17.443005,17.738034,14.918187,1.787133,26.54218,43.39729,52.709691,-7.24998,20.620846,39.43713,53.241108,-13.853164,11.851353,28.75787,40.361126,-19.002307,-2.387088,9.811718,18.289204,-23.610665,-39.473012,-45.520946,-47.685348,-16.311643,-6.364343,-2.957622,-0.964331,2.549909,15.319549,16.463883,16.361118,17.7311,27.559098,25.199923,23.684605,29.942083,37.714744,33.359882,27.888092,24.846703,49.766144,73.144947,93.200398,52.06477,85.294544,103.560368,116.938969,43.885643,81.604832,102.233151,115.71159,35.874207,71.311718,89.621464,100.830746,28.940563,56.55217,71.216915,80.691387,-15.285907,-18.287076,-15.465601,-14.915355,15.648172,28.845495,33.935865,36.265906,33.262181,45.414859,48.745392,48.676306,45.148814,58.003792,59.866358,57.888776,52.038369,64.736971,65.245102,61.837678,-11.890549,326.765912,-70.971016,299.499252
17,10.736882,-3.540373,-0.04533,-0.293166,7.760204,10.505539,7.231888,1.961837,-9.643582,12.967598,30.990944,41.6567,-18.755734,7.137291,26.901123,41.611358,-24.926709,-1.560688,16.626274,29.144485,-29.419201,-15.314072,-2.588974,6.428878,-22.592438,-37.508312,-42.767051,-44.07059,-12.754536,-2.153669,0.912214,2.218531,6.543728,18.874729,19.86985,19.246294,21.684151,30.854013,28.357296,26.548614,33.847982,41.539428,36.856943,31.225096,24.961212,49.948208,73.356011,93.410065,52.244259,85.442917,103.704666,117.046784,44.027973,81.709465,102.36985,115.799034,35.972683,71.407105,89.651001,100.700318,29.008461,56.588013,71.187721,80.520195,-15.187008,-18.124858,-15.299529,-14.878626,15.628794,28.836788,34.043866,36.500545,33.269578,45.56968,49.079375,49.114487,45.213824,58.173136,60.131514,58.193465,52.144036,64.915614,65.514371,62.115628,-1.423782,323.284393,-71.286461,299.26494
18,-6.318077,3.978641,0.045456,-0.328241,9.337452,14.993293,13.601829,9.636772,-1.904824,20.805198,37.951011,48.172691,-11.056424,15.009979,34.091148,48.331993,-17.537728,6.550998,23.976379,36.123161,-22.420533,-7.330937,5.094085,14.11853,-23.615668,-39.812072,-45.747694,-47.725832,-16.476023,-6.767179,-3.123522,-1.133121,2.288593,14.340915,15.931211,16.020576,17.366957,26.435771,24.782688,23.263936,29.46905,36.805345,33.071211,27.749548,24.986538,49.993778,73.386978,93.470352,52.342335,85.609886,103.843506,117.149162,44.111092,81.748421,102.38649,115.778961,36.045467,71.354027,89.579773,100.670174,29.112293,56.468685,71.121735,80.643105,-15.065223,-17.868642,-14.981601,-14.636823,15.949304,29.126472,34.305195,36.781337,33.585123,45.889189,49.379619,49.377112,45.49427,58.543466,60.530323,58.574539,52.355964,65.221514,65.933101,62.590798,-8.010315,327.311851,-71.509461,298.985516
19,13.604633,-5.441891,-0.013115,-0.28257,6.664352,7.190563,0.666973,-7.551327,-16.813843,3.272152,21.601078,32.67033,-26.252873,-1.89568,18.415684,33.609615,-31.849583,-9.852299,9.265034,22.636311,-35.476044,-23.082047,-9.960262,-0.07053,-22.315475,-36.830873,-41.034236,-41.527276,-11.308921,-0.477492,2.705285,3.774938,8.02738,19.567186,20.963091,20.511066,22.901375,31.326638,29.650732,28.075306,34.740695,42.363005,38.381709,33.016463,25.036858,50.113415,73.489769,93.562432,52.579708,85.871956,104.092415,117.356896,44.268116,81.826401,102.406563,115.774819,36.113194,71.311272,89.547867,100.703957,29.102852,56.339035,70.995598,80.602318,-15.078734,-17.780969,-14.842749,-14.490339,16.175323,29.450674,34.648712,37.105959,33.756048,46.262557,49.755778,49.68532,45.586933,58.852601,60.889883,58.9258,52.388235,65.435208,66.206026,62.922559,5.324324,321.909443,-71.79257,298.742429
20,-6.742916,3.339573,-0.143051,-0.367242,8.406292,11.769882,7.528679,0.886871,-8.424877,12.037948,29.272819,39.63668,-17.802521,6.82148,26.048675,40.554176,-23.722389,-0.955628,17.062065,29.729828,-27.862736,-14.367176,-1.777702,7.784752,-23.531501,-39.203793,-44.03023,-44.868961,-14.674565,-4.647324,-0.776758,0.931011,4.27881,15.652853,17.758245,17.917253,19.086682,27.559431,26.726011,25.421755,30.847085,38.281797,35.141258,30.000178,25.139099,50.309189,73.745979,93.895866,52.764896,86.196281,104.485748,117.805367,44.404255,81.970459,102.552132,115.94101,36.197582,71.350433,89.635368,100.901871,29.133179,56.257462,70.910294,80.612091,-14.935004,-17.519629,-14.564378,-14.33579,16.531833,29.795982,34.923526,37.34292,34.031183,46.548992,49.99506,49.868139,45.754697,59.09533,61.131686,59.142458,52.471141,65.654026,66.488262,63.286083,-1.670551,325.26027,-72.18758,298.386441
21,10.719509,-4.95899,-0.138496,-0.492496,6.00864,5.467197,-1.92207,-10.82745,-18.882179,-0.327656,17.502033,28.341625,-28.440514,-5.899647,13.653454,28.441441,-34.123409,-13.886204,4.854938,17.920658,-37.85717,-27.214737,-14.778385,-5.198284,-22.283711,-36.324322,-39.964052,-39.885258,-10.079755,1.885721,5.147934,5.79866,9.284001,21.19242,22.564477,21.760548,23.86089,32.47075,31.158356,29.423824,35.233537,43.272762,39.82578,34.516714,25.225216,50.501907,73.906219,93.934387,52.969654,86.358627,104.585449,117.926307,44.573375,81.915573,102.410453,115.888572,36.362686,71.15435,89.510215,101.103012,29.264122,56.03231,70.748794,80.816185,-14.778331,-17.259771,-14.380906,-14.124123,17.051968,30.308485,35.341959,37.678669,34.406662,46.97418,50.3089,50.014203,45.957534,59.458286,61.557874,59.558692,52.544574,65.912266,66.927048,63.87922,8.806011,320.294633,-72.569023,297.887298
22,-6.084068,2.826193,-0.064202,-0.267095,7.743999,9.468555,3.873012,-3.699406,-11.596711,8.115337,24.881092,34.867916,-21.059853,2.782344,21.578418,35.812854,-26.885514,-5.196144,12.274395,24.611263,-30.870907,-19.081616,-7.715252,1.140278,-23.337013,-37.913518,-42.069432,-42.951549,-12.59517,-1.062602,2.694442,4.082517,6.28713,18.316641,20.042738,19.711657,20.618413,29.520019,28.722759,27.275799,31.749443,39.622127,36.799145,31.606232,25.122723,50.523251,73.981499,93.999024,52.968052,86.432968,104.747635,118.19291,44.616555,81.976479,102.470261,115.972847,36.525215,71.267281,89.718361,101.498314,29.566681,56.35833,71.175476,81.43927,-14.787335,-17.296674,-14.516683,-14.408533,17.218793,30.543248,35.504856,37.805639,34.591506,47.121949,50.303342,49.890739,46.125692,59.613316,61.563629,59.435364,52.70678,65.99532,66.897432,63.815209,2.492953,323.09627,-72.862215,297.595647
23,-3.59261,-3.976122,0.077248,-0.700411,8.010441,10.865937,7.45253,2.020546,-8.933532,11.833191,28.922173,39.469208,-17.865635,6.981926,26.189965,40.647515,-23.61121,-1.352977,16.733071,29.474922,-27.533695,-15.834789,-4.460701,4.640236,-22.222787,-35.304859,-38.869859,-39.586583,-9.135442,3.924498,8.224612,9.706461,9.675487,22.670157,24.828421,24.732411,23.454227,33.280261,32.651407,31.396639,33.908041,43.0297,40.598932,35.769482,25.253826,50.665546,74.025833,93.900993,53.017708,86.244804,104.444961,118.03054,44.690391,81.751854,102.184158,116.002121,36.616001,70.980354,89.491676,101.663154,29.573387,56.187309,71.071426,81.733383,-14.827805,-17.433524,-14.697833,-14.616964,16.934125,30.584102,35.840619,38.55324,34.224845,47.156666,50.749416,50.921428,45.77153,59.470352,61.815522,60.20664,52.504078,65.694732,66.835411,64.103992,-1.282683,319.09392,-72.967993,296.869008
24,-14.42577,-3.333139,0.47905,-2.31937,12.141678,20.310551,21.648777,18.874249,5.22321,29.574429,45.338803,54.17648,-3.486923,25.35751,43.209378,55.968327,-10.326347,16.094182,32.829609,43.741368,-15.756488,-1.346672,8.972901,16.638943,-22.726078,-34.908533,-38.169646,-39.315561,-8.041287,7.026604,11.871097,13.804021,10.431102,26.140802,28.899329,29.114801,23.671119,36.004529,36.13439,35.037159,33.543466,44.265894,42.736151,38.179749,25.397049,50.669185,73.698028,93.050651,53.119697,85.836959,103.679603,117.057106,44.701664,81.111373,101.245376,115.124267,36.292533,69.952766,88.317764,100.663147,28.692569,54.950615,69.767875,80.791008,-14.816493,-17.306541,-14.483164,-14.623275,16.148956,30.683311,36.909469,40.592127,33.244434,47.171424,52.077074,53.591219,44.915965,59.212124,62.630491,62.103612,52.130945,65.678899,67.58196,65.618964,-15.906682,315.738927,-72.687172,294.527784
25,1.22334,-8.243754,1.445583,-4.575014,12.225551,19.427421,20.606414,18.028198,2.521282,27.094276,42.738166,51.332565,-6.337979,21.790443,39.344673,52.05764,-13.698418,11.215621,27.446388,37.945014,-19.452542,-9.034573,-1.634789,3.83329,-21.920618,-32.467206,-35.592802,-36.977283,-3.925017,12.912802,17.862258,19.741656,14.355526,31.402073,34.684836,35.22535,26.919339,40.422042,41.172581,40.997012,36.155953,48.083428,47.988221,45.526776,25.537949,50.917854,73.129772,91.64986,52.186203,83.234859,100.266506,113.623913,43.425453,77.6189,96.825794,111.189114,34.200817,65.006596,82.367145,94.999935,25.449348,48.567913,62.231666,72.90628,-15.440876,-17.679167,-14.974808,-14.917788,14.220503,29.232176,36.616834,41.882884,30.69345,45.974874,52.787006,56.813998,42.209704,57.901089,63.379919,65.328355,49.610615,64.222689,67.618949,67.145323,-14.897157,307.492518,-71.455404,289.950115
26,2.628685,-6.595228,2.38987,-9.486716,6.202526,10.725196,11.529567,9.630958,-4.997796,11.574783,22.197532,28.185379,-10.65033,8.277626,20.312656,29.313537,-14.665123,2.054534,13.086719,20.498828,-16.620736,-10.880608,-7.681241,-4.864838,-20.787165,-29.442905,-31.391995,-31.737933,-0.905187,15.043882,20.272314,22.358787,16.793197,33.359499,37.240438,38.274844,28.793019,42.742709,44.23597,44.206416,37.26751,49.346755,50.358906,48.636218,26.224743,50.945629,70.396534,86.0247,53.371467,80.020076,92.154773,100.9155,43.638702,72.542759,85.8139,95.367416,32.923885,57.833644,69.297294,77.394939,22.056244,39.849128,49.291671,56.58609,-12.394629,-11.164474,-5.11486,-1.990351,15.265987,33.03736,42.365044,47.971475,29.450204,47.96693,56.761992,61.408365,39.49523,57.918528,65.060951,67.764112,45.940158,61.63363,66.123502,66.643367,-12.520402,300.930021,-69.317464,280.49613
27,7.50048,-10.249272,6.527698,-10.279282,-0.46043,-0.223343,-0.826401,-3.229557,-14.300274,-7.181087,-1.66341,1.053681,-17.322876,-9.278881,-3.496536,0.986206,-19.021145,-11.658806,-6.074341,-2.621589,-18.61718,-18.627205,-19.14434,-19.013454,-17.953549,-24.006695,-25.047486,-24.974089,2.443291,18.648205,23.8951,25.790208,19.132822,36.003059,40.433466,41.921083,30.600862,45.413748,47.769218,48.401962,38.812271,51.599472,53.631518,53.317603,22.424961,42.606548,56.917214,67.95583,50.958607,69.235062,74.418892,77.689385,42.519894,61.626457,66.809933,70.140518,32.053093,46.96883,50.506313,52.724533,20.493279,30.320538,33.769295,36.322357,-2.294065,3.59007,11.739791,16.767065,21.343487,39.469493,49.324315,55.178439,29.425368,48.769352,59.333736,65.08302,34.671486,53.527851,62.923411,67.251991,37.559824,53.537101,60.247716,63.003637,-5.219713,290.763806,-62.989557,270.299905
28,13.351902,-11.761564,3.804834,-18.599051,-9.124523,-15.873985,-21.533855,-27.35067,-28.838447,-31.853828,-31.854778,-32.891212,-29.417633,-32.239094,-32.775467,-32.984997,-28.504131,-30.734138,-31.516319,-32.816105,-25.473999,-31.59375,-36.285621,-39.714535,-13.425342,-15.810538,-14.398467,-12.679891,6.304631,21.150406,26.051758,28.203093,21.120519,37.147159,41.914402,44.06234,31.560562,46.085852,49.179461,50.434094,39.324935,51.33229,54.123915,55.079429,21.118361,39.101945,50.155924,58.083745,50.510542,63.646208,64.790572,64.436869,42.670527,55.711001,55.818364,54.904061,32.279097,41.090378,39.68719,37.979823,20.390723,25.187022,24.850045,24.078919,4.481184,12.248194,20.747416,26.115361,20.290055,35.760534,44.405237,48.933601,23.889678,40.842766,51.096289,56.268605,26.25165,43.162926,52.713881,57.058313,27.691083,42.422138,49.51077,52.78692,7.8181,279.464271,-59.498812,252.162883
29,17.985203,-18.097551,0.804841,-25.819885,-17.495682,-31.901012,-42.951153,-51.175461,-44.816322,-60.211544,-65.555203,-68.745701,-43.620758,-60.401104,-66.794128,-69.6152,-40.252327,-55.469719,-62.010818,-65.87376,-34.395767,-49.269928,-57.974888,-63.481739,-12.966228,-15.042635,-13.622264,-11.628146,7.620544,20.784188,25.821466,28.207687,22.263407,37.057571,41.714935,43.94867,32.85795,46.950234,50.446147,52.103405,40.388931,52.515947,56.335679,58.365119,22.488332,40.663421,50.432504,56.987262,51.904043,63.166242,63.229116,61.515878,44.079259,54.881464,53.102314,50.484489,33.89237,40.46997,37.29622,34.108011,22.372655,25.012601,23.27037,21.01696,7.901552,14.4956,21.501364,26.038358,12.312507,21.828085,27.167628,28.706748,13.078848,24.094733,31.566925,34.427534,14.369833,26.653423,34.116102,36.976783,16.276309,27.672125,33.15747,35.251025,25.457331,262.115549,-59.039943,227.091827
30,9.110733,-21.249564,8.529899,-32.263726,-24.194527,-43.747158,-58.143024,-67.86319,-54.644634,-79.489586,-88.686287,-93.075371,-50.824448,-77.212337,-87.517353,-92.56065,-44.678146,-68.33733,-78.348289,-83.684784,-36.25573,-54.559673,-63.791359,-68.781006,-3.361421,-0.95728,2.534657,5.568726,16.610428,26.337749,29.608804,31.077747,25.281977,37.485415,40.587632,41.953514,30.791188,43.142419,45.855164,46.663551,33.62158,44.141245,47.337014,48.532156,20.548388,36.588078,44.600985,49.065846,50.901552,59.33547,56.969496,52.678705,44.986525,53.074236,48.279248,42.237991,37.13471,41.674416,36.194979,30.335238,27.984633,30.183924,27.020794,22.936031,7.937318,12.247219,17.038581,20.025628,3.690161,8.002613,10.519377,9.604215,2.208133,7.264362,11.469827,11.77531,1.842935,8.333095,12.47375,12.955434,2.769698,9.131527,11.864996,12.536723,34.204302,241.919117,-50.873806,195.881233
31,1.256035,-27.20323,5.644787,-30.064855,-21.626793,-40.38699,-55.023056,-65.352825,-55.255852,-81.518738,-93.171284,-99.852253,-53.906365,-81.504032,-93.065998,-99.607189,-49.72641,-73.936295,-83.989723,-89.750279,-43.31535,-61.914299,-70.117996,-74.666657,-4.126607,-2.802481,-0.41902,1.577173,10.467578,16.211601,19.205669,22.157758,17.815846,26.829924,30.246698,32.812637,23.113191,32.779576,35.923574,37.691488,26.326967,35.268785,38.46096,40.282054,19.452639,34.833435,43.304037,48.215469,48.318884,57.376024,58.466234,58.213377,43.708826,52.779585,52.148346,50.343727,37.243006,43.794582,42.648119,40.801168,29.668562,34.297686,33.963501,32.589294,8.043053,8.058632,7.799077,6.78755,-5.050597,-9.404816,-12.097329,-15.874994,-8.254264,-12.482889,-13.442012,-16.14417,-9.675117,-11.677701,-12.222062,-14.54355,-8.947579,-8.739431,-9.169714,-10.864065,35.164101,215.995778,-45.525255,167.096269
32,2.032106,-27.554603,0.083204,-31.352031,-20.046697,-38.485505,-53.917252,-65.148564,-59.270985,-86.148412,-99.647776,-107.724184,-59.463717,-87.718786,-99.743148,-106.976308,-56.062773,-80.682234,-89.91435,-95.121744,-50.124711,-69.065707,-76.291239,-80.171315,-5.242154,-4.954845,-2.81058,-0.580343,6.792552,8.927403,11.322811,15.15026,13.423395,19.257151,22.330573,25.252814,18.387245,25.173372,28.012749,29.753955,21.34873,28.755894,31.599645,33.179126,24.922463,44.70595,56.75845,64.372198,52.044823,66.183712,73.047982,77.771141,46.417042,60.747242,66.020388,69.602446,39.604889,52.54212,57.82576,61.504006,32.000719,41.70718,46.325632,49.291712,-0.337188,-7.645321,-12.629845,-17.147712,-21.785996,-33.782421,-41.074466,-48.206169,-22.229641,-33.948388,-39.208884,-44.862949,-20.56887,-29.770133,-35.464237,-41.16706,-16.347106,-22.128436,-27.184464,-32.733498,36.851614,190.058209,-45.786644,137.361272
33,3.681613,-23.838897,1.365881,-24.430636,-17.891366,-36.220884,-52.204697,-64.142487,-64.199525,-92.264273,-107.229406,-116.597907,-65.980071,-95.666293,-108.074382,-115.766135,-63.130984,-88.670948,-96.826256,-101.082831,-57.326857,-76.912178,-83.325538,-86.354373,-8.822826,-11.517574,-11.611298,-10.911982,0.472531,-0.547294,1.203709,5.666675,7.282598,9.905598,12.364021,15.321511,12.61338,16.42327,18.823034,20.589432,15.766161,21.536763,23.843489,25.087414,29.566035,52.680193,67.40288,77.024214,56.47193,73.281195,83.499499,91.298224,50.520659,66.585062,74.405039,80.692412,43.671129,59.913271,68.720301,75.755362,35.767857,48.169287,55.935442,61.70022,-7.059746,-20.828059,-29.743454,-37.122773,-34.23249,-52.445131,-63.72557,-73.603972,-32.622175,-49.709051,-57.124806,-64.161003,-28.882391,-44.248987,-53.571465,-61.463705,-22.286064,-33.37205,-42.142433,-50.588766,40.234839,168.333142,-44.719151,115.044466
34,0.017744,-14.438212,9.587529,-21.194582,-17.414966,-35.368244,-51.167956,-63.33481,-67.618015,-95.439622,-111.706147,-122.84482,-69.462778,-98.626426,-111.434009,-120.779578,-65.995276,-90.094166,-97.162316,-101.399096,-59.43318,-77.069601,-82.24884,-84.734317,-8.183229,-11.142117,-11.442755,-10.979097,-5.163982,-10.081559,-8.965663,-3.700455,-0.329832,-2.047018,0.365046,4.169324,4.029781,3.599951,5.77689,7.911162,6.951372,9.54835,11.309465,12.632739,30.395719,52.98496,67.374807,77.886835,56.278833,72.404176,83.02712,92.146127,50.470613,65.733015,74.797399,82.730569,43.639188,58.932272,68.83624,77.426416,35.238498,46.912107,54.964925,61.332601,-8.693674,-25.547982,-36.592408,-45.133821,-39.206985,-60.328689,-73.383007,-84.0056,-37.834798,-58.156439,-67.630965,-75.877773,-34.261919,-52.714091,-63.813252,-72.893879,-27.554256,-40.377912,-49.487132,-57.797089,39.895505,156.377559,-35.4887,96.332513
35,2.364859,-10.455373,-0.657017,-15.271198,-17.504785,-34.926191,-50.490001,-63.174117,-70.220113,-98.94265,-117.797127,-131.784938,-72.37242,-102.105838,-116.826635,-128.640796,-68.514731,-91.840292,-99.503092,-105.081351,-61.263264,-77.634953,-82.68353,-85.890819,-16.394616,-23.449693,-25.265186,-25.602365,-18.180698,-24.466369,-21.947954,-14.605918,-9.399542,-13.093977,-9.507522,-4.177707,-0.690763,-3.383654,-0.587159,2.377095,6.502574,7.875515,9.615116,11.146875,34.947755,60.578493,76.635011,90.180937,62.314825,80.237669,93.20537,104.604063,54.05718,71.274874,83.298723,93.863783,44.105913,60.736284,72.746996,83.149755,32.203102,43.021562,50.915468,57.367807,-5.817969,-23.228779,-34.633382,-43.715908,-39.124005,-62.662144,-77.967956,-90.951657,-38.366333,-60.993673,-72.40647,-83.277763,-34.444108,-54.904786,-67.370897,-78.091022,-26.567225,-40.32372,-49.561016,-58.544787,41.801541,148.506827,-36.60454,83.645956
36,1.218575,-2.900545,3.17807,-12.7991,-18.902746,-37.175282,-53.071121,-65.883011,-69.12484,-97.034581,-115.486708,-129.343046,-69.562315,-97.697942,-112.03409,-123.601243,-64.323439,-85.637492,-93.154126,-98.800196,-55.903428,-70.645392,-75.773257,-79.268548,-15.778102,-22.720623,-24.395294,-24.739648,-18.670403,-24.251118,-21.109401,-13.445103,-10.739072,-14.688427,-10.979371,-5.521171,-2.731254,-6.41565,-3.687664,-0.57463,3.774476,4.258974,6.271868,8.181621,37.727434,65.232828,82.889871,98.931112,66.101927,85.194357,98.468393,109.790937,55.830763,73.091303,84.989839,95.101484,43.470514,57.444414,66.531503,74.676916,29.216434,36.392961,41.279611,45.070867,-6.558394,-25.535904,-38.002102,-48.158782,-42.019655,-67.687955,-84.24254,-98.253921,-40.941283,-65.327947,-77.299808,-88.601613,-35.681148,-56.383147,-67.635406,-77.073425,-25.915611,-39.189797,-46.982017,-54.421003,42.423387,148.325786,-34.023199,73.56636
37,1.218575,-2.900545,5.286386,-12.239055,-20.300707,-39.424373,-55.652242,-68.591905,-68.029567,-95.126512,-113.176288,-126.901155,-66.75221,-93.290045,-107.241546,-118.56169,-60.132146,-79.434692,-86.805161,-92.519041,-50.543591,-63.655831,-68.862983,-72.646277,-15.161587,-21.991554,-23.525403,-23.87693,-19.160107,-24.035867,-20.270847,-12.284287,-12.078601,-16.282878,-12.451221,-6.864635,-4.771745,-9.447645,-6.78817,-3.526354,1.046378,0.642434,2.928619,5.216366,38.426686,66.702061,84.639645,102.174855,67.318051,86.94643,100.504086,112.126751,55.906391,74.561657,87.656353,98.432225,42.111592,56.114125,65.66264,73.704586,26.136944,31.689732,35.213963,37.539986,-5.36642,-23.337229,-36.281677,-46.736374,-41.283041,-67.238116,-83.578139,-97.685774,-41.037249,-66.094548,-79.03368,-91.493449,-35.980854,-56.629858,-68.07392,-78.005998,-26.105333,-38.827474,-45.754697,-52.426971,42.944342,147.963964,-29.434433,63.866028
38,1.218575,-2.900545,7.721844,-10.139597,-21.698668,-41.673464,-58.233363,-71.300799,-66.934294,-93.218442,-110.865869,-124.459264,-63.942105,-88.882149,-102.449001,-113.522137,-55.940854,-73.231892,-80.456195,-86.237885,-45.183755,-56.66627,-61.952709,-66.024006,-14.545073,-21.262484,-22.655511,-23.014213,-19.649812,-23.820616,-19.432294,-11.123472,-13.418131,-17.877328,-13.92307,-8.208098,-6.812237,-12.479641,-9.888675,-6.478079,-1.681719,-2.974107,-0.41463,2.251112,36.041702,63.68676,81.289696,99.271202,64.676079,84.63945,97.734283,109.009644,52.699219,72.649841,86.357643,97.150337,37.99894,50.358833,58.704941,65.563454,21.014923,25.058533,26.969124,27.797756,-2.677307,-17.774881,-29.95297,-39.906321,-36.615827,-61.593517,-77.16991,-90.895477,-38.001204,-63.001154,-77.605627,-91.453879,-34.4422,-53.333127,-64.120158,-73.655367,-26.400246,-37.660848,-43.024174,-48.342224,43.383614,146.982134,-22.491892,55.645146
39,1.218575,-2.900545,2.485851,-4.163695,-23.096629,-43.922555,-60.814484,-74.009693,-65.839021,-91.310373,-108.55545,-122.017372,-61.132,-84.474253,-97.656457,-108.482584,-51.749562,-67.029092,-74.10723,-79.95673,-39.823919,-49.67671,-55.042435,-59.401735,-13.928559,-20.533414,-21.78562,-22.151495,-20.139517,-23.605365,-18.593741,-9.962657,-14.75766,-19.471779,-15.39492,-9.551562,-8.852728,-15.511637,-12.989181,-9.429803,-4.409817,-6.590647,-3.757878,-0.714143,34.995358,63.682308,82.052342,99.838017,64.66499,85.036091,97.938687,108.704533,52.302761,72.717007,85.97263,95.967808,36.973584,49.352131,57.02322,62.905575,18.974888,22.558697,24.152767,24.527367,-1.589406,-14.112556,-25.411764,-34.798141,-31.070213,-55.351358,-70.988372,-85.166248,-33.027257,-57.207823,-72.116793,-86.599494,-30.626919,-49.193156,-60.129531,-69.746479,-24.486792,-36.660886,-42.781191,-48.842914,43.753558,145.562885,-20.854672,52.962747
40,1.218575,-2.900544,5.407723,0.696471,-24.49459,-46.171646,-63.395605,-76.718587,-64.743747,-89.402303,-106.245031,-119.575481,-58.321895,-80.066356,-92.863912,-103.443031,-47.558269,-60.826292,-67.758264,-73.675575,-34.464082,-42.687149,-48.132162,-52.779464,-13.312046,-19.804345,-20.915729,-21.288779,-20.629223,-23.390115,-17.755189,-8.801842,-16.09719,-21.066231,-16.86677,-10.895027,-10.893221,-18.543634,-16.089688,-12.381529,-7.137916,-10.207189,-7.101128,-3.679399,33.243587,60.5247,77.94453,93.957378,61.576732,81.58691,93.975048,104.328792,50.143169,70.157512,82.791607,92.571979,36.089962,48.62582,56.097988,62.19144,19.142818,23.953159,26.984516,28.995552,-0.752188,-12.406732,-23.863533,-32.466576,-29.593428,-53.417064,-68.690924,-82.396687,-32.380644,-56.458852,-71.659902,-86.210979,-31.0703,-50.126045,-61.320376,-71.397741,-26.302211,-39.392959,-45.911184,-52.35994,43.688644,143.709533,-16.730438,54.70641
41,1.218575,-2.900545,4.063705,3.187501,-25.892551,-48.420737,-65.976726,-79.427482,-63.648474,-87.494234,-103.934612,-117.13359,-55.51179,-75.65846,-88.071368,-98.403478,-43.366977,-54.623492,-61.409299,-67.39442,-29.104246,-35.697588,-41.221888,-46.157193,-12.695532,-19.075276,-20.045838,-20.426062,-21.118928,-23.174864,-16.916636,-7.641027,-17.43672,-22.660681,-18.33862,-12.238491,-12.933712,-21.575629,-19.190193,-15.333254,-9.866013,-13.82373,-10.444377,-6.644653,31.439358,57.546009,73.438076,87.452053,58.66808,77.743962,89.595028,99.475697,49.103794,69.518086,82.356755,92.221401,37.576115,53.053906,63.576519,71.700062,22.784191,31.183079,37.234486,41.573399,0.266465,-10.870703,-22.354712,-30.558167,-28.479957,-50.337633,-64.168392,-76.649916,-31.817036,-54.234368,-68.617293,-82.588879,-31.765709,-50.746736,-62.381736,-73.034658,-28.501953,-41.706037,-48.851023,-55.981596,43.173628,141.317996,-14.400324,58.402919
42,1.218576,-2.900545,4.171498,6.212857,-27.290514,-50.669829,-68.557847,-82.136377,-62.553202,-85.586165,-101.624194,-114.691699,-52.701686,-71.250564,-83.278824,-93.363926,-39.175685,-48.420693,-55.060334,-61.113265,-23.744411,-28.708028,-34.311615,-39.534923,-12.079018,-18.346206,-19.175946,-19.563344,-21.608632,-22.959612,-16.078082,-6.480212,-18.776249,-24.255132,-19.810469,-13.581954,-14.974203,-24.607625,-22.290699,-18.284978,-12.594111,-17.44027,-13.787625,-9.609908,29.80133,54.055938,68.266822,79.740417,54.064109,71.320541,81.721847,90.449707,45.417869,64.128776,75.972747,85.132598,35.312988,49.986511,59.733696,67.475418,22.295219,31.670631,38.440292,43.540649,0.466549,-10.968621,-22.585683,-31.150415,-27.012743,-46.741277,-59.125544,-70.065334,-30.307331,-50.841226,-63.907786,-76.376726,-30.745024,-48.48257,-58.428252,-67.39905,-28.185043,-40.348541,-46.372479,-52.337957,42.646837,138.5689,-11.974193,64.767225
43,1.218575,-2.900545,1.764289,5.659592,-28.688475,-52.91892,-71.138968,-84.845271,-61.457929,-83.678096,-99.313774,-112.249808,-49.891581,-66.842668,-78.486279,-88.324373,-34.984393,-42.217893,-48.711368,-54.83211,-18.384574,-21.718467,-27.401341,-32.912653,-11.462504,-17.617136,-18.306055,-18.700627,-22.098337,-22.744361,-15.239529,-5.319396,-20.115779,-25.849582,-21.282319,-14.925418,-17.014695,-27.639621,-25.391204,-21.236703,-15.322209,-21.056811,-17.130874,-12.575162,26.778695,48.750801,61.473587,70.966736,50.526581,66.242066,75.865357,84.140786,43.539002,61.024292,72.334008,81.330002,35.068451,50.084633,57.690445,63.663117,23.962326,34.084855,39.743592,43.929039,0.637616,-9.625129,-19.705724,-27.046921,-24.458029,-41.862173,-52.649587,-62.245089,-27.201594,-45.404127,-56.799536,-67.749915,-27.244473,-42.439576,-49.055639,-55.487383,-24.44248,-34.93495,-38.954803,-43.039185,42.133291,135.444019,-11.942025,70.202481
44,1.218575,-2.900544,-5.358181,11.090244,-30.086436,-55.16801,-73.720089,-87.554165,-60.362655,-81.770027,-97.003355,-109.807917,-47.081476,-62.434772,-73.693735,-83.28482,-30.7931,-36.015093,-42.362403,-48.550955,-13.024738,-14.728906,-20.491068,-26.290382,-10.84599,-16.888068,-17.436164,-17.83791,-22.588043,-22.529111,-14.400977,-4.158582,-21.455309,-27.444034,-22.754169,-16.268883,-19.055187,-30.671617,-28.491711,-24.188428,-18.050307,-24.673352,-20.474124,-15.540418,25.826512,47.599675,60.945111,70.851963,53.981862,70.60001,76.320912,80.475712,48.272633,66.384259,72.98663,77.645428,40.794148,57.254368,61.38271,63.73518,30.983723,43.461491,47.904019,50.170269,-3.961283,-14.667557,-24.711897,-32.925641,-22.015146,-36.11739,-46.171437,-54.061535,-22.658165,-37.470002,-48.522862,-57.738747,-21.676877,-33.603994,-40.062469,-45.476041,-18.523709,-26.512965,-30.428083,-33.885508,41.714131,131.783887,-18.937941,80.533137
45,1.218575,-2.900545,-5.281883,9.965942,-31.484397,-57.417101,-76.30121,-90.263059,-59.267382,-79.861957,-94.692936,-107.366025,-44.271371,-58.026875,-68.90119,-78.245267,-26.601808,-29.812293,-36.013437,-42.2698,-7.664901,-7.739345,-13.580794,-19.668111,-10.229476,-16.158998,-16.566273,-16.975193,-23.077748,-22.31386,-13.562424,-2.997766,-22.794838,-29.038484,-24.226019,-17.612347,-21.095679,-33.703613,-31.592217,-27.140153,-20.778405,-28.289893,-23.817372,-18.505672,22.50689,43.244259,57.386822,67.413471,53.453076,70.859287,74.446461,75.309918,50.108929,68.231243,71.75687,72.54015,44.505215,61.309055,63.19994,62.235729,36.747173,50.76273,54.125164,54.193417,-7.658452,-18.488246,-27.914545,-36.18689,-20.470959,-30.717353,-38.607419,-44.257934,-18.285241,-29.093589,-38.076903,-44.926308,-15.386331,-23.499736,-27.862774,-31.009809,-10.739366,-16.260989,-19.298269,-21.813246,41.801801,127.858979,-25.350729,89.474716
46,1.401736,-1.199292,5.701561,6.720576,-28.156473,-52.074906,-69.949154,-83.52508,-56.465741,-76.346593,-90.775291,-102.967762,-43.40999,-57.237819,-68.39699,-77.947196,-27.671687,-32.034196,-39.129934,-46.018855,-10.434478,-11.938655,-18.721484,-25.545015,-10.554258,-16.782015,-17.498561,-17.486877,-22.403132,-21.225271,-13.369617,-3.794659,-22.303948,-28.073163,-23.976175,-17.972218,-21.085125,-33.072466,-31.551822,-27.621838,-21.304463,-28.540436,-24.383893,-19.333239,12.53524,25.376393,33.914337,39.666195,36.95216,48.241768,48.529038,46.569992,37.563481,52.280399,53.946362,52.647114,36.326214,51.858112,53.038433,50.619129,33.413716,47.250698,50.428883,49.863018,-8.725679,-17.220492,-24.326236,-31.067973,-14.620016,-21.28638,-26.625098,-30.049116,-11.013872,-18.279147,-25.851878,-31.252248,-7.381638,-12.774777,-16.172452,-18.303434,-2.727887,-6.323977,-9.16588,-11.746448,42.668262,125.486179,-20.184443,95.021784
47,1.584897,0.50196,-17.451816,11.326421,-20.102664,-39.141424,-54.663922,-67.340228,-51.957731,-71.223934,-85.250421,-96.613128,-44.497334,-60.067603,-72.181135,-82.390608,-34.002736,-42.680802,-51.711893,-59.79812,-21.333467,-27.326835,-35.913138,-43.921094,-11.820334,-18.757119,-20.233028,-19.372961,-20.564194,-19.263343,-13.822554,-6.549258,-19.982638,-24.548068,-22.004637,-17.348497,-19.023526,-28.778175,-28.370525,-25.633483,-19.62848,-25.424982,-22.173684,-18.023118,11.516017,24.602817,34.150554,40.878707,43.02642,58.459041,61.732235,61.965534,44.689796,63.368843,67.074691,67.448112,43.276725,60.689437,60.407547,56.671806,39.827579,54.52351,57.120895,55.794262,-9.372817,-16.047049,-21.664367,-27.3597,-9.978015,-14.995841,-19.998859,-23.597507,-6.84076,-11.577085,-19.136743,-24.564259,-4.383748,-8.188692,-11.557763,-13.065486,-1.571622,-5.066492,-8.20826,-10.423099,43.878932,124.734501,-38.010486,105.094567
48,-0.024304,0.851258,-22.851014,13.030979,-11.046431,-24.467094,-36.922372,-47.964679,-44.891433,-63.230638,-77.425535,-88.0018,-43.69098,-60.814614,-73.261863,-82.715195,-39.05871,-51.571435,-61.744866,-69.738889,-31.912364,-41.606454,-51.011024,-58.893145,-13.064525,-20.677995,-23.098056,-21.864638,-16.992763,-14.775333,-11.337168,-6.120413,-15.687733,-17.954047,-16.909912,-13.735914,-14.829158,-21.693199,-22.077744,-20.370017,-15.711494,-19.377358,-16.884238,-13.578075,13.000094,27.218068,37.333947,44.474728,48.092864,66.594944,70.426409,70.367506,49.287575,70.883824,74.869326,75.084469,47.077332,66.300637,67.064576,63.667866,42.723461,58.27137,61.626561,60.53088,-8.301382,-14.329103,-20.540802,-26.969196,-6.536679,-10.50937,-14.623649,-17.296769,-4.812487,-8.189775,-15.056269,-19.70192,-4.202739,-8.354364,-13.338975,-15.588061,-3.359414,-7.125207,-10.911526,-13.317094,43.672529,124.385263,-61.043599,116.92505
49,2.089922,3.732194,-22.802467,8.560515,-7.096905,-18.757176,-30.939921,-42.736462,-37.979141,-52.026793,-64.542767,-74.143553,-38.780159,-53.64881,-66.682429,-76.831072,-36.725304,-50.014103,-61.699751,-70.529641,-32.523136,-43.461273,-53.629503,-61.844296,-14.200177,-21.771827,-23.229674,-21.175923,-15.90551,-12.822886,-11.046518,-7.482967,-13.59142,-13.334158,-13.575741,-11.636818,-12.611363,-16.800539,-17.937278,-16.936316,-13.850923,-16.871317,-15.484514,-12.726599,12.097166,25.528885,34.227974,39.40012,45.057512,64.05962,69.330168,70.232706,46.00692,67.844593,73.410147,74.895435,43.7379,62.587784,64.204262,61.612049,39.510109,54.171101,57.406574,56.440201,-1.103019,-4.917228,-10.512035,-16.092799,-3.227573,-7.876956,-9.765664,-11.054129,-5.173665,-9.018669,-12.837805,-15.678899,-7.217814,-11.985523,-14.092595,-14.509429,-8.365569,-12.573816,-14.011335,-14.584829,45.899225,127.186218,-83.709292,124.554326
50,2.02874,5.002185,-29.854093,7.654161,-5.505284,-16.438465,-28.64942,-41.535874,-32.702523,-42.046664,-52.870892,-61.489855,-33.7817,-44.978331,-57.834452,-68.349993,-32.943741,-44.585759,-56.572272,-65.937951,-30.70142,-40.791115,-50.883562,-59.244404,-14.10292,-20.903555,-21.414508,-18.355615,-14.109598,-9.644185,-9.891804,-8.463514,-12.185067,-9.559553,-11.121971,-10.477201,-11.959193,-13.625623,-15.15276,-14.993278,-13.754117,-16.642452,-16.253455,-14.198093,14.643093,29.254812,37.521978,42.466787,45.304224,63.787817,69.35963,71.157777,43.684908,64.522138,70.438116,73.186277,39.49843,56.914169,58.361434,56.623197,33.933631,46.96693,50.040704,49.594425,4.607999,3.142763,-1.585253,-6.942852,2.832335,-3.026282,-4.959292,-6.270451,-2.928053,-7.847137,-11.128196,-13.381795,-8.367406,-13.820726,-15.589265,-15.534356,-12.847132,-16.927723,-17.405119,-16.97633,48.216339,131.458936,-113.275011,131.47902
51,1.705364,3.658808,-47.048974,8.762859,-4.165672,-14.823898,-27.075829,-40.415669,-27.742149,-33.138496,-42.210091,-50.188156,-28.788574,-36.976101,-49.514603,-60.16444,-28.414192,-38.511875,-50.447411,-59.930145,-27.086014,-36.270161,-45.815575,-53.718922,-14.717173,-21.149485,-20.667999,-17.213181,-13.415734,-7.696893,-8.1864,-7.225867,-10.579105,-6.074345,-7.914927,-7.783535,-10.057876,-10.017492,-11.269957,-11.088318,-12.014945,-14.706478,-14.702143,-12.681219,25.116234,48.210886,63.419512,74.015723,62.062289,86.045992,93.910275,97.382155,55.276446,77.186492,82.60504,85.957037,45.757204,62.097531,62.151455,60.357977,35.291909,47.225933,49.527369,48.978802,7.193198,6.108765,1.160992,-4.598003,6.062208,-0.823312,-3.900625,-6.007456,-2.027565,-7.793062,-11.024504,-12.635776,-9.875128,-15.656418,-17.171903,-16.494939,-16.759577,-20.978643,-20.856479,-19.422239,50.363686,134.527922,-159.882002,139.652057
52,2.061035,3.908066,-22.955486,3.089139,-12.16008,-27.732284,-43.000259,-58.703213,-27.576988,-28.169723,-35.616714,-43.369514,-22.194511,-24.204895,-35.826931,-46.377273,-16.771522,-19.765377,-30.267803,-39.410911,-11.814102,-14.664654,-22.637295,-30.029674,-12.975361,-17.512664,-14.828769,-10.707855,-14.018134,-6.830238,-6.218044,-4.691592,-12.198788,-6.348344,-7.652129,-7.20765,-12.340097,-12.54015,-13.047751,-12.243952,-14.778257,-19.51678,-19.516514,-16.954823,25.6073,47.767279,62.52701,73.172053,52.157439,69.998205,74.089714,74.381922,43.397856,58.021437,59.489485,59.354273,33.85774,45.129112,44.654743,42.525919,24.96563,33.75309,35.232634,33.881207,9.689983,9.415906,5.660984,0.593613,7.70701,1.141611,-1.563854,-2.823544,-0.3674,-6.806538,-8.993497,-9.131984,-8.116934,-13.837332,-14.42711,-13.245022,-14.673482,-17.977394,-17.226611,-16.008035,52.91799,138.032805,-182.344219,142.338013
53,2.733948,3.375062,-25.797306,-2.221385,-15.0084,-32.355606,-48.640183,-65.363171,-28.065903,-26.519463,-32.19896,-39.869087,-19.59549,-18.944069,-30.316475,-42.191208,-11.643402,-12.209061,-22.369492,-32.387787,-4.607025,-5.60083,-12.741692,-20.299233,-13.383587,-17.046418,-13.011436,-8.116104,-14.891353,-6.892563,-5.741906,-3.454924,-12.732633,-6.459551,-7.339796,-6.371112,-12.8455,-13.03169,-13.061596,-11.563414,-15.521034,-21.304436,-21.369416,-18.274189,27.970224,50.354765,65.782476,78.058233,48.166283,60.306341,61.928301,61.339302,37.421934,46.260733,45.643959,44.296618,26.875242,33.949562,33.411301,32.074087,17.380051,23.462334,25.103949,24.656284,11.514402,13.022285,11.009932,6.733333,12.20676,8.749107,4.824186,2.212669,4.204188,0.710788,-2.465119,-3.868675,-3.593395,-6.535466,-8.00746,-8.284867,-10.465209,-11.418654,-11.341963,-11.551254,56.360859,141.072099,-207.432604,139.78086
54,0.795845,2.131327,-18.497257,-2.996451,-18.143418,-36.77623,-53.789612,-71.194336,-29.787918,-26.510605,-31.638313,-39.103913,-19.372261,-16.45372,-26.942001,-38.394058,-10.121361,-7.723366,-16.558548,-26.250961,-2.179024,-0.541924,-6.922096,-14.461991,-11.881514,-14.559086,-10.05979,-4.529886,-14.599452,-5.973568,-4.837416,-2.885813,-13.6291,-7.179331,-7.952625,-7.157299,-14.700469,-15.10244,-14.743732,-13.284218,-17.920432,-24.230534,-24.225285,-21.178606,30.025285,52.204942,68.26399,82.524713,43.898975,51.686365,53.946607,55.291317,31.145719,35.78005,35.948753,36.05353,19.019617,22.690075,23.252506,23.670564,8.219627,11.741924,14.179979,15.059132,11.27996,14.442384,13.86495,10.364467,15.68358,13.88295,8.402864,4.139627,8.251995,5.649431,0.611805,-2.561209,0.430311,-2.026284,-5.091896,-6.933052,-7.017326,-7.612421,-8.8599,-10.472623,58.037356,142.771213,-225.049209,136.352196
55,-0.02607,0.950926,-12.536173,-3.440689,-17.677116,-35.928177,-52.898735,-70.337368,-30.490471,-27.491455,-32.58934,-39.986206,-20.656654,-19.110443,-30.302879,-42.174797,-11.694076,-11.122169,-20.609573,-30.620865,-3.798637,-3.488113,-10.054001,-17.661918,-11.331256,-13.602992,-8.695582,-2.967682,-13.402915,-5.080583,-3.49537,-0.944856,-12.083531,-5.22201,-5.76421,-4.641149,-13.268676,-13.060929,-12.689741,-10.993037,-16.985186,-22.775528,-22.663933,-19.260812,30.896553,52.669853,68.856468,84.096439,40.178501,44.750576,47.304291,49.797054,26.102325,27.61861,28.519077,29.560707,12.861946,13.885803,15.110676,16.527363,1.075241,1.995987,4.49152,5.811836,11.601568,16.168431,16.332662,13.04105,17.703917,16.85617,10.480909,5.30407,10.540202,8.341085,2.430063,-1.603628,2.742984,0.404903,-3.426383,-6.088103,-4.881735,-5.636146,-7.623855,-10.090586,59.230745,143.335566,-236.365923,132.524934
56,0.94693,2.615278,-7.862045,-4.838584,-22.483795,-43.21685,-62.117546,-81.371921,-33.041725,-28.208427,-32.964638,-40.093048,-20.356109,-16.495605,-27.242958,-38.719368,-9.488045,-6.240097,-15.071731,-24.733818,-0.346001,2.60463,-3.558082,-11.115463,-9.780407,-11.314763,-5.639295,0.890404,-14.376577,-5.860985,-4.358282,-2.057351,-14.32302,-7.268795,-7.768251,-6.668514,-16.487261,-16.675149,-16.289864,-14.573283,-20.754375,-27.269853,-27.312782,-23.930366,31.638233,52.820709,68.687198,83.987297,38.319763,40.637729,42.78994,45.644245,23.853321,23.726074,25.336155,26.738056,9.904014,9.454593,11.137378,12.919223,-2.878682,-3.59293,-1.257374,-0.174431,12.630819,18.701884,19.318697,15.246449,19.244522,20.291155,13.024663,6.840112,12.04456,11.389339,4.816384,-0.321139,4.188932,3.202747,-0.939137,-4.455415,-3.315089,-3.309772,-5.410206,-8.404787,61.544609,145.694154,-242.861034,127.42966
57,-0.299034,0.734533,-8.572129,-4.590785,-18.083107,-36.22831,-52.842407,-69.625225,-32.58934,-30.242088,-35.407104,-42.537872,-22.423668,-21.32254,-32.026199,-43.302704,-13.184235,-12.953567,-21.787125,-31.168877,-5.191223,-4.720619,-10.453262,-17.370369,-11.38722,-14.158239,-9.79409,-4.16299,-13.373521,-4.90515,-3.135408,-0.203035,-12.380278,-5.489469,-5.848782,-4.523545,-14.219613,-13.889007,-13.554159,-11.789172,-18.620423,-24.117055,-23.952101,-20.351274,33.515282,55.480202,72.180851,88.795624,41.537522,43.125767,44.762741,47.925133,26.327454,26.20982,27.613919,29.273896,11.332924,10.73481,12.173012,14.056263,-3.222473,-4.739833,-2.607101,-1.250438,13.716508,20.8816,21.566647,17.135073,21.850538,24.228386,16.697367,10.152707,13.845301,14.880831,7.997383,2.126234,5.39083,5.936018,1.653133,-2.332899,-2.854987,-2.087219,-4.306473,-7.697547,62.840504,146.124748,-249.838234,122.534936
58,0.076859,1.403563,-0.311428,-0.327999,-23.80243,-45.396676,-64.605423,-83.478013,-33.812691,-28.599999,-33.246552,-40.027886,-20.158356,-15.782937,-26.293763,-37.309044,-8.596688,-4.865914,-13.173913,-22.29934,1.003624,4.76493,-0.929444,-8.108231,-9.222233,-10.990907,-5.609636,0.093329,-13.919809,-5.608648,-4.216226,-1.929812,-14.207967,-7.460938,-8.104847,-7.188193,-16.926363,-17.257796,-17.278556,-16.048401,-21.9901,-28.713812,-29.024127,-25.821195,34.124234,56.242241,73.114872,89.94722,41.13588,43.125,45.439934,49.208187,25.283226,25.240746,27.472103,29.723511,9.5472,8.800839,11.115841,13.411927,-5.614723,-7.704448,-5.264843,-3.967849,13.273578,20.494813,20.934464,16.178484,20.911789,22.293726,15.29436,9.548441,12.603074,12.193755,5.730191,0.457478,3.827994,3.076331,-0.588327,-4.010634,-4.544868,-4.670789,-6.380034,-9.273788,64.534104,147.118427,-248.532921,121.797053
59,0.074752,0.133393,-0.088863,-1.098268,-17.480873,-34.88166,-50.695884,-66.213878,-34.221473,-34.529297,-41.177375,-48.970596,-24.896255,-26.341301,-37.841514,-49.280525,-16.017677,-17.89421,-27.521873,-37.331314,-7.997039,-9.045341,-15.594658,-23.14254,-11.637551,-15.2247,-11.761836,-5.958983,-13.517314,-5.391422,-3.157089,0.25745,-11.844921,-5.002142,-4.802904,-3.098364,-12.828926,-11.872388,-11.432558,-9.775825,-16.464945,-21.283515,-20.941689,-17.402069,35.298626,57.223354,74.072891,91.01207,42.150181,41.977043,43.629581,47.562424,25.865753,23.505604,25.332001,27.578899,10.105225,7.320808,8.809421,10.766464,-4.871624,-8.635243,-7.099251,-6.537827,13.667021,20.813717,21.393257,16.389973,20.725994,23.621446,17.422353,12.095954,12.037106,13.94449,8.277537,3.041016,3.1062,4.25385,1.458155,-1.664736,-5.163724,-3.875222,-5.061836,-7.920646,66.087564,146.89594,-247.143076,120.342905
60,0.330323,1.339119,-0.197044,-0.127534,-18.912438,-36.931618,-53.28019,-69.272931,-34.360726,-32.989472,-38.892907,-46.296914,-24.20192,-22.99553,-32.873932,-43.215088,-15.15136,-14.178315,-22.452141,-31.466629,-7.292313,-6.181321,-12.216179,-19.418129,-11.961289,-15.733782,-12.186444,-5.805693,-15.877445,-7.515976,-5.565645,-2.876346,-14.134459,-7.331966,-7.000977,-5.782654,-14.757255,-14.186737,-13.583121,-12.207717,-17.803131,-22.921728,-22.804692,-19.865237,36.451664,58.468505,75.390129,92.586273,43.615905,42.996242,44.125511,48.012279,27.196701,24.927097,26.183326,28.124725,11.24525,8.663108,9.625236,11.330154,-4.002274,-7.838849,-6.526131,-6.081139,13.693216,20.644627,21.453112,16.180486,20.852639,24.802751,18.627654,13.175606,11.992091,15.357001,9.7563,4.240401,3.03985,5.396394,2.921968,-0.232237,-5.17088,-3.065426,-4.075521,-6.999162,67.60599,147.881106,-246.152017,119.861418
61,-0.649956,-0.440206,0.644886,1.33045,-19.078125,-37.018364,-53.171127,-68.863426,-34.425705,-33.000275,-38.338143,-45.139275,-24.077316,-23.041603,-31.942337,-41.302117,-14.888603,-14.061516,-21.555657,-29.848686,-6.937134,-6.004646,-11.513809,-18.18615,-11.833491,-15.231023,-11.191484,-4.397179,-16.165153,-7.958338,-5.729024,-3.00969,-13.80039,-6.973221,-6.469177,-5.341269,-13.839521,-12.761328,-12.0711,-10.678641,-16.371504,-20.766707,-20.453848,-17.376121,36.798385,59.111686,76.191467,93.669776,44.44321,43.658535,44.855655,48.975963,28.069999,26.011024,26.978336,28.695625,12.304149,10.08189,10.924518,12.537288,-2.779839,-6.359906,-4.790131,-4.110295,13.185109,19.459549,20.322264,15.365899,20.087428,23.638805,17.911954,12.627823,11.570144,14.7912,9.546336,4.135215,2.956906,5.190122,3.135211,0.222382,-5.128563,-2.71947,-3.38228,-6.170509,67.86553,147.109665,-244.597635,120.860633
62,-0.519928,-0.225599,0.583683,1.172597,-22.21962,-42.088829,-59.808357,-77.329514,-35.731041,-34.699837,-40.696701,-48.240372,-23.715523,-22.093918,-31.249191,-40.877678,-12.896301,-10.518768,-17.680756,-25.780518,-3.324417,-1.350151,-7.026604,-13.873901,-9.724776,-12.110775,-6.945495,0.360703,-15.692237,-7.603273,-5.336119,-2.77326,-14.492908,-7.257693,-6.134539,-4.892627,-14.923803,-13.72577,-12.646027,-11.282189,-17.347092,-22.435691,-22.378139,-19.688606,36.27024,59.352859,76.763511,94.414695,45.730304,47.294288,50.006366,55.156299,29.898433,29.639041,31.836261,34.56316,14.201465,13.780666,16.489872,19.339611,-0.835144,-2.877079,0.413498,2.505134,12.441306,18.634175,19.766665,14.724256,20.395383,23.630821,18.343967,13.339435,12.529134,15.305896,10.093173,4.597467,3.998426,5.838989,3.602309,0.478726,-4.386379,-1.831721,-2.445606,-5.201706,67.959767,146.645721,-243.399787,121.794885
63,0.55117,0.668362,3.138771,1.277604,-22.833435,-43.196159,-60.976616,-78.490642,-37.439277,-36.691246,-42.300316,-49.605697,-25.222755,-23.766128,-32.580894,-42.005104,-13.939682,-11.065017,-17.952667,-25.944694,-3.811065,-1.412864,-6.891334,-13.680221,-9.605931,-12.391739,-7.45401,0.174537,-17.576347,-9.814697,-7.146431,-4.391412,-16.580782,-9.629526,-7.995987,-6.390754,-16.956071,-15.815973,-14.047558,-12.260069,-19.053485,-24.062061,-23.38958,-20.357981,34.634777,57.26802,74.307541,91.91518,44.745655,45.744461,48.381408,53.448955,29.579441,28.320156,29.566085,31.816394,14.541309,13.407714,14.78635,16.706646,0.196769,-2.583241,-0.626702,0.536739,12.724543,18.524358,19.368115,14.559043,19.976629,22.338915,17.649157,12.928505,12.355473,14.413917,9.97087,5.087653,4.210421,5.52605,3.725662,1.185182,-3.782268,-1.311709,-1.798586,-4.463437,68.863912,147.182848,-239.908041,122.941254
64,-0.386513,0.128564,2.209282,1.602287,-29.188568,-54.109153,-75.555084,-96.378147,-38.766151,-34.822402,-39.265205,-46.042922,-22.170387,-16.130561,-23.989379,-33.211074,-7.568641,0.981217,-4.144775,-11.44828,4.792969,11.914605,7.728859,1.48906,-7.134519,-7.761588,-0.764853,6.790705,-16.422238,-8.093713,-6.289001,-4.433834,-17.771707,-10.729227,-10.122584,-9.145835,-19.960728,-20.044499,-19.134847,-17.926676,-23.543536,-30.835599,-30.992803,-28.322722,32.59449,55.560276,72.666297,90.60704,44.00624,46.415565,49.701152,54.846668,29.756538,29.292709,30.738452,33.160492,14.987217,14.541275,16.244236,18.278629,0.660083,-1.616764,0.70301,2.291999,12.081999,17.55085,18.18525,13.558057,18.981039,20.510017,16.247077,11.718536,11.966971,13.09252,8.810592,4.156383,4.222178,4.756468,2.717593,0.215034,-3.577467,-1.232365,-1.707775,-4.245174,68.619964,147.266662,-237.556194,124.498791
65,-0.927314,-2.048959,1.790851,1.373755,-21.41169,-41.607994,-59.528778,-77.17384,-36.935417,-38.229904,-44.774758,-52.998436,-25.53154,-25.354019,-35.112168,-45.875359,-14.586251,-12.411026,-19.703751,-28.537045,-4.667565,-3.312996,-9.356781,-16.829293,-8.812451,-11.03352,-6.031076,0.610718,-13.503987,-5.515028,-2.587583,0.316977,-13.029615,-5.886994,-4.44879,-2.585502,-13.774979,-12.56984,-11.197431,-9.395628,-16.272172,-21.539019,-20.893622,-17.527299,30.991471,54.390026,71.557102,89.139038,44.081658,48.612225,53.879826,60.500004,30.870197,32.493176,35.703896,39.330208,17.004307,18.240704,21.340748,24.082913,3.485184,3.248223,6.897801,9.519482,11.148154,16.299164,16.897192,12.907776,18.699563,19.172336,15.58234,11.575387,12.483958,12.995937,9.064362,4.625755,5.072457,5.292431,2.996804,0.491157,-2.806377,-0.249193,-0.623228,-2.941431,67.750855,145.199885,-235.707138,125.854728
66,0.424049,0.246137,1.633473,1.23034,-21.701408,-42.111397,-60.089058,-77.750015,-37.458412,-39.032272,-45.875336,-54.454239,-26.141922,-25.994774,-36.264839,-47.664505,-15.183769,-12.791084,-20.375358,-29.615604,-5.186188,-3.633339,-9.937843,-17.760681,-8.853317,-11.320301,-6.840723,-0.745741,-13.381894,-5.256473,-2.537201,0.438366,-13.775467,-6.892754,-5.582848,-3.54041,-15.276397,-14.781789,-13.398653,-11.534291,-18.376577,-24.402725,-23.830095,-20.522928,28.783413,51.913456,68.791065,85.734706,43.957912,52.136764,59.637954,67.856609,32.196384,37.974723,43.586162,49.155017,19.430706,24.345623,29.358764,33.509697,6.768539,9.197811,13.93919,17.718658,10.426138,15.394347,15.713992,12.214158,19.065557,18.637331,15.36877,12.015396,13.126242,13.203745,9.530349,5.642006,5.825664,5.693104,3.515865,1.433332,-2.289143,-0.494658,-0.919951,-2.78017,68.2143,145.430828,-234.034269,127.069874
67,0.252823,0.036445,1.183925,0.702096,-22.787178,-43.896515,-62.559265,-80.713371,-37.181534,-37.49144,-44.167923,-52.695259,-25.316322,-23.611519,-33.705986,-45.328239,-14.355194,-10.555229,-18.114647,-27.787823,-4.797775,-1.950874,-8.07058,-16.030746,-9.049424,-11.115469,-6.379089,-0.384624,-13.034913,-4.31305,-2.08725,0.441997,-13.62897,-6.675182,-6.330238,-4.889385,-15.514994,-15.407456,-14.795775,-13.326652,-19.130376,-25.447165,-25.102475,-21.895275,27.870941,50.246933,66.727158,82.880322,43.872586,52.835816,60.891266,69.350933,32.109982,38.254658,43.590283,48.708081,18.999493,23.917294,28.873879,32.842026,6.014466,8.85688,13.428898,17.262909,9.211742,14.013392,14.655374,12.214769,18.825688,17.881191,13.919,9.945127,13.010207,13.109236,8.628812,4.233979,5.875867,5.821483,3.074837,0.554556,-2.111506,-0.468092,-1.34848,-3.322363,68.513065,145.450097,-232.804402,127.754794
68,-0.720886,-1.199328,1.12809,0.670178,-14.848503,-31.313919,-47.377877,-63.104622,-34.852387,-40.979965,-50.320038,-60.683052,-28.565209,-32.532463,-44.226746,-57.115334,-21.645836,-23.828018,-33.230965,-44.086144,-14.99453,-17.671898,-25.543671,-34.64764,-11.294324,-14.910675,-12.351009,-7.659738,-10.387488,-1.830468,1.20596,4.01025,-9.083214,-1.771225,-0.409702,1.341435,-9.505161,-8.023448,-7.037553,-5.606351,-11.917719,-16.287246,-15.482687,-12.43972,27.219772,48.983883,64.757778,79.711144,44.592087,56.113541,65.982159,75.337647,32.951809,41.393006,48.390267,54.720188,19.615288,26.261181,32.327282,36.820484,6.471806,11.039669,16.602047,21.275528,7.615085,12.162991,13.051838,10.885615,18.561358,17.447702,13.121147,8.842881,13.277505,13.507519,8.160841,3.013698,6.044241,5.907279,2.283999,-0.852891,-2.467559,-1.007742,-2.361571,-4.464944,67.838505,144.230583,-231.629986,128.404786
69,1.47068,1.081509,2.518839,1.165585,-8.407745,-20.44281,-33.749336,-46.937027,-33.020874,-42.02076,-52.617302,-63.80571,-32.241989,-41.040665,-54.3685,-68.470093,-29.61557,-37.810318,-49.894226,-62.523319,-26.147713,-34.0811,-43.337219,-53.461899,-14.861645,-20.963913,-21.192816,-18.799734,-12.901922,-4.588464,-1.292869,1.80602,-9.003587,-1.655208,0.481752,2.408729,-7.710243,-4.815717,-2.66537,-0.890083,-8.84185,-10.517386,-8.82737,-5.820878,27.483427,49.197876,64.871292,78.76264,45.217649,59.72041,70.82666,80.552101,33.455847,45.580605,53.765396,60.503323,20.183287,30.044254,37.313055,42.082598,7.31674,14.372973,20.919668,26.255367,6.465314,10.180889,10.804936,8.597195,18.417057,15.836779,10.655944,6.004999,13.292588,12.087263,5.79326,0.285404,5.89244,4.658939,0.326585,-3.067205,-3.040436,-2.690688,-4.555235,-6.696807,69.364952,145.241706,-229.05538,129.499985
70,1.73893,2.806303,3.996849,1.49557,-10.065743,-23.888947,-39.141953,-53.741089,-34.320488,-45.878655,-57.886894,-69.881287,-33.420113,-44.885079,-59.118714,-73.550194,-30.923836,-40.588394,-52.967995,-65.50335,-27.678269,-36.155777,-45.192192,-55.426255,-16.480117,-23.213759,-23.84972,-22.709536,-12.985192,-6.118842,-4.094553,-1.769742,-8.888281,-3.222316,-2.207497,-0.809956,-7.638607,-6.402684,-5.250027,-4.304974,-8.737288,-11.627121,-11.079179,-9.189159,28.394137,50.4986,66.768333,80.479941,45.152773,61.279003,71.756161,80.22678,33.037577,47.679108,55.547711,61.350208,19.692885,32.151249,40.133532,44.762163,6.95355,15.721579,22.848616,28.277779,5.549797,7.833441,7.558828,4.373646,17.429582,13.557473,7.390583,2.269495,12.250649,9.365589,1.976325,-3.875585,4.707308,2.194622,-2.724292,-6.266691,-4.429308,-5.0869,-7.460364,-9.659191,71.151078,147.86992,-225.011335,130.817466
71,-0.279419,1.669113,5.225372,0.855744,-3.827454,-15.018563,-28.743897,-42.037194,-32.667664,-51.775337,-67.681023,-82.516125,-36.616814,-55.842201,-72.933998,-89.719185,-37.903404,-54.383812,-69.75198,-84.257858,-37.41584,-51.557854,-62.473,-74.0098,-19.722865,-28.673513,-31.72323,-32.599821,-10.167291,-5.050331,-3.760291,-1.821625,-3.145757,1.540056,2.16492,3.2684,0.452458,1.946312,2.65596,2.971461,1.191487,-0.169307,0.271202,1.504247,30.481802,53.384388,69.697117,84.050475,45.897383,60.22395,70.065251,78.173161,32.335184,45.086129,52.619065,58.30663,17.904288,28.730839,37.158537,42.243857,4.313445,12.008234,19.146017,24.74905,3.24729,4.525447,4.17664,0.766791,13.943721,11.465486,5.34129,-0.223382,9.601809,7.727986,0.126165,-6.438166,2.905776,1.293319,-3.9903,-8.393116,-5.37052,-5.116751,-7.894618,-10.870135,70.897843,149.297892,-219.759779,131.432069
72,0.616882,3.826661,5.369042,0.557433,1.372467,-7.792442,-20.663544,-33.579986,-30.985245,-55.639114,-74.253204,-90.90311,-39.533844,-66.068848,-85.456684,-103.577774,-45.03186,-68.877548,-87.237327,-103.3335,-47.849922,-67.92469,-81.066582,-93.933781,-23.608751,-35.436332,-41.191878,-44.035052,-10.966163,-7.900027,-7.269468,-6.178228,-0.031666,2.904233,2.822932,3.049593,6.613383,8.05402,8.445097,8.178237,9.764988,10.76101,11.338067,11.857845,32.023641,56.128555,73.166977,88.056375,47.022932,62.865166,71.136703,77.466625,33.355173,48.884777,55.44223,59.882149,19.525617,33.211727,39.869871,43.213045,6.841982,16.157621,21.786157,25.754322,1.635142,1.872816,1.119223,-2.642399,7.034375,8.171169,4.337043,-0.238746,4.840945,6.534425,1.166518,-4.882895,1.300167,2.749869,-1.487833,-6.09626,-3.101748,-0.691531,-3.194547,-6.811157,71.486629,152.783944,-214.418833,131.648893
73,0.19899,5.858101,8.591514,0.435297,-1.121292,-13.408012,-28.564293,-43.472466,-32.331871,-59.360596,-79.337677,-96.933838,-39.760208,-68.962189,-89.44194,-108.355923,-44.958023,-70.761704,-90.384636,-107.280762,-47.856834,-69.191826,-82.788242,-95.97995,-25.294858,-38.09018,-44.019911,-47.86393,-11.866114,-10.86317,-11.699381,-11.278565,0.900469,1.351124,-0.754417,-1.658171,9.09181,8.613256,7.524893,6.406296,13.464097,14.169719,13.605147,13.221924,33.019152,59.026131,78.171273,93.389986,47.645892,66.336525,71.067078,74.720353,33.475428,53.329182,57.230336,59.256569,19.637278,37.785633,42.812342,44.750651,7.17322,19.516394,24.602709,27.668919,-0.073603,-0.23835,-1.223075,-6.034997,0.218705,7.35465,5.310174,0.732576,-0.238452,7.896226,3.820155,-2.438221,-0.606902,6.65688,3.439751,-1.727733,-0.847808,5.35875,3.613492,-0.065486,71.783953,158.094186,-205.728985,131.536331
74,-1.49057,5.732439,7.814948,1.197146,-3.277886,-18.918915,-36.685799,-53.891762,-33.956589,-64.074303,-85.765755,-104.617264,-39.981903,-71.799408,-93.328297,-112.834282,-44.459152,-72.270813,-92.590187,-109.538281,-46.859299,-69.454949,-84.388332,-98.359783,-25.622074,-38.893003,-44.177109,-47.76776,-10.748487,-11.953151,-13.240474,-13.352193,3.64446,1.921018,-1.251718,-2.956511,13.665724,11.704568,9.309653,7.378767,19.989102,20.677533,19.351764,18.219583,33.081539,60.265537,80.647464,97.532066,48.736427,68.287593,73.845645,78.256439,34.846355,55.770721,61.697753,65.659561,21.134491,40.631126,47.546333,51.492176,8.86037,22.209114,28.378028,32.751651,-2.153292,-2.89037,-4.248583,-9.468376,-7.082377,3.908406,5.634997,4.228261,-5.252743,7.003695,6.473388,3.184067,-1.960143,8.900272,8.668677,5.825997,2.462934,11.120996,11.196146,9.076156,70.442728,163.168619,-197.764692,132.075471
75,-1.476517,7.734597,7.905418,2.365658,-4.888847,-23.048538,-42.670326,-61.327171,-35.734772,-66.725693,-89.23193,-108.742538,-40.962021,-73.616295,-96.058067,-116.232216,-44.594101,-73.299133,-94.875515,-112.608593,-46.210716,-69.809166,-85.627945,-100.011818,-26.469555,-39.983324,-44.312373,-47.782722,-12.521724,-13.644111,-14.841415,-14.820531,3.741606,2.330671,-0.85654,-2.772741,15.592424,14.495428,12.391653,10.641856,23.564785,25.90683,25.181547,24.328872,32.698025,60.479073,81.626266,99.774239,50.986553,70.820766,77.839657,83.817352,37.196159,58.318005,66.358726,72.604774,23.296337,43.215088,51.251427,57.015449,10.654461,24.672546,31.446579,37.065079,-4.526496,-5.433128,-6.490647,-11.467545,-14.54032,0.837663,6.302877,7.714455,-10.188231,7.516384,11.164734,11.055899,-3.205433,12.533,15.993339,16.028728,6.060698,18.063682,20.580795,20.657637,69.242317,170.068887,-189.583168,133.6068
76,0.08551,9.583998,8.516968,4.569988,-9.201141,-30.408599,-52.291854,-71.908046,-44.424728,-78.946643,-100.463825,-116.623809,-48.032295,-84.744918,-105.910011,-122.283519,-49.683563,-82.223945,-102.628074,-117.738636,-49.478897,-75.381031,-90.960525,-103.823307,-27.632847,-41.033791,-44.501664,-46.920977,-14.113378,-13.866475,-15.857148,-17.180879,3.710594,3.771258,-0.830198,-4.365977,17.061861,17.347197,13.86067,10.739088,26.207467,29.771022,28.245898,26.374403,32.126976,60.844013,83.767524,102.751178,53.148674,76.046276,84.285953,90.583832,40.157604,64.922218,74.467758,81.358406,26.656791,50.376537,58.988228,65.099922,14.247242,31.370167,39.314071,45.946438,-5.722806,-7.351436,-8.938891,-14.509711,-19.299523,-1.746617,6.906796,11.504132,-12.881859,7.660941,15.099593,18.772594,-2.937436,15.602217,22.323379,25.740955,10.445699,24.218758,28.787894,31.41015,69.793184,178.608442,-180.600843,137.132345
77,0.275551,9.042051,9.806923,7.318943,-14.129837,-38.059776,-61.969047,-81.500885,-53.327018,-90.640388,-112.486576,-127.603729,-55.378166,-94.75827,-116.445705,-131.870212,-54.804496,-89.889175,-110.391277,-124.868499,-52.446991,-79.646061,-95.413089,-108.054107,-27.531261,-39.740256,-40.691009,-40.696801,-13.489353,-13.065251,-16.180374,-18.750155,5.419339,5.90818,-0.111608,-5.349031,19.699344,21.346882,17.395437,13.34682,29.420662,34.101072,32.901237,31.111821,31.503112,61.334404,85.605835,105.574951,55.321266,79.358711,90.552406,99.381042,43.011108,69.236,82.914402,93.416931,29.702774,55.154079,67.468551,76.934131,16.879737,36.086105,47.104786,56.671383,-7.67583,-9.588326,-11.798337,-18.613137,-19.713245,-3.294978,6.216018,13.080762,-12.340907,7.725828,17.002284,23.985033,-1.51643,17.4973,26.638127,33.406059,12.856472,26.775793,33.197947,38.943008,70.815222,186.399207,-170.047433,143.200002
78,1.202294,9.42226,7.444358,9.457755,-20.231667,-46.619156,-71.499253,-90.591019,-61.670998,-100.327229,-122.06321,-136.459202,-62.478287,-103.423371,-125.259293,-140.046089,-60.197571,-96.961178,-117.478512,-131.505066,-56.077195,-83.66621,-99.457856,-111.827248,-26.376762,-35.464657,-32.809976,-30.381276,-11.331608,-11.287703,-16.06826,-20.337634,7.565315,7.714269,0.319621,-6.904782,22.035314,24.184092,19.132242,13.19857,31.882491,37.670518,36.892438,34.722998,31.393788,61.94323,86.791855,108.399926,58.480706,82.434563,98.799248,111.603505,47.271035,73.263955,92.67841,107.824368,34.762757,60.318169,77.44027,90.941609,22.18927,42.329945,56.350434,68.886143,-10.103344,-12.727532,-15.14248,-21.885118,-18.552733,-4.901748,6.021887,16.247632,-9.473773,7.832619,19.727169,30.657338,2.430125,19.726107,31.231962,41.469168,17.384976,30.014022,37.71,45.848878,72.768563,194.557634,-161.852028,151.393924
79,0.842903,9.505513,9.114315,10.894205,-26.960655,-56.060372,-81.294731,-99.886151,-69.94471,-107.830216,-127.881169,-141.16388,-68.677139,-108.665131,-129.005505,-142.392826,-64.400459,-100.565323,-120.044884,-133.079098,-58.358528,-84.98695,-100.445011,-112.442276,-22.238534,-26.503709,-20.221123,-14.946601,-5.320008,-4.202807,-9.632916,-14.941908,11.82082,12.871886,5.262852,-3.074417,24.951514,27.86785,22.804205,15.829669,33.569463,39.912156,39.925285,38.034376,31.8112,62.646904,87.648503,109.046746,60.597256,85.367913,103.097844,117.398587,49.621331,76.888493,97.582581,113.79229,37.554852,64.292222,82.408196,96.770279,25.11517,46.825539,61.754803,74.929951,-11.800825,-14.821995,-17.083949,-24.047408,-16.127905,-2.623361,7.885453,18.210147,-5.871748,11.700332,24.191316,35.827898,6.597179,24.957392,37.092447,47.934572,21.567097,35.159215,43.283012,52.078741,74.426863,202.679348,-151.922316,160.90433
80,0.678818,10.456704,11.375382,13.173252,-31.433716,-62.085297,-87.653664,-105.851075,-74.873085,-112.215729,-131.78785,-144.797883,-72.5663,-112.310395,-132.151749,-145.089524,-67.371323,-103.96193,-122.515011,-134.772835,-60.766137,-87.537907,-102.482781,-113.634224,-10.837259,-8.925911,-0.088266,8.13758,5.546669,7.850601,3.037206,-2.443267,15.440912,15.505281,6.636823,-4.132486,22.035424,23.211127,16.553927,7.420633,24.761655,28.762848,27.678239,24.445358,31.364307,62.556736,87.50536,107.764812,62.301041,90.716721,107.974709,120.426681,52.2132,83.751732,103.775986,117.794083,40.848495,71.657639,89.550877,102.254734,28.860924,53.834461,69.049278,80.841499,-13.442533,-16.567425,-18.613464,-25.72001,-12.830371,2.990437,13.797142,23.471381,-0.451926,18.478082,30.746728,40.895964,13.471408,32.563969,43.898541,52.903789,28.816633,42.595583,49.833311,56.885986,75.880663,211.816115,-139.771952,172.757645
81,-0.535218,9.921117,10.15947,13.711247,-33.845901,-65.362106,-90.440529,-107.391048,-72.744964,-107.677437,-127.664268,-143.58078,-69.504547,-106.430671,-127.431999,-143.783958,-64.293503,-98.842437,-118.568744,-133.213211,-58.221954,-83.622093,-99.136413,-111.855297,-3.856375,2.917991,15.155923,25.738152,13.954667,13.532183,8.96227,4.203944,19.648734,15.715702,6.697413,-4.352156,22.516102,20.640162,14.193826,5.188146,22.05931,25.333317,25.576132,23.435405,31.770767,62.765338,87.453918,106.704162,63.518577,93.829433,110.921985,122.755142,53.492546,86.962692,106.901722,120.494018,42.737262,75.064865,93.345897,105.690101,31.634708,57.987831,72.997718,83.995445,-14.656226,-17.721578,-19.407796,-26.865147,-9.402439,6.925729,17.616565,26.936592,4.678162,23.988948,35.936171,45.308846,19.513785,38.803378,49.322475,56.979859,34.526273,48.737624,55.394417,61.174342,75.987545,220.609092,-128.970382,185.340752
82,-1.647766,10.627802,9.160446,13.305732,-35.202164,-67.061073,-90.800823,-106.4202,-68.118553,-100.182289,-119.535667,-136.195507,-63.614799,-98.966217,-119.450455,-136.15179,-58.677887,-92.990501,-112.452175,-126.665851,-54.107506,-79.960602,-95.546871,-108.000538,0.757134,9.672016,20.508497,29.706221,24.550667,24.269233,21.675345,18.999268,25.938693,19.243219,10.326756,-0.412036,23.684877,17.46556,9.917449,0.521692,18.261758,18.370624,17.682218,15.431922,32.146614,62.882194,87.066261,105.5625,64.625301,95.769516,112.73798,124.207798,54.639404,89.141773,108.999515,122.203914,44.257919,77.172615,95.790424,107.968391,33.690113,60.636955,75.628269,86.407367,-14.594562,-17.857664,-19.347713,-27.015398,-5.404384,12.020063,23.122726,32.301887,9.827738,29.929758,41.972866,50.746921,25.109298,44.699517,54.629824,61.123225,39.545408,54.556835,60.877187,65.319511,74.786207,230.345132,-119.363508,197.754722
83,-1.82666,11.37329,8.394699,12.977096,-35.65036,-67.43541,-90.697357,-106.414272,-64.302704,-94.500927,-113.387615,-129.432163,-58.666672,-93.167656,-113.019218,-128.411076,-53.605133,-87.965996,-106.573894,-118.800533,-49.720573,-76.495926,-91.443947,-102.023197,7.274754,17.395436,25.639783,32.732547,34.050091,32.46781,29.717077,27.053337,30.156493,20.631195,10.392989,-0.665954,21.618411,11.70621,2.682166,-6.600613,10.129512,6.37321,3.976405,1.361843,32.924354,63.410671,87.078106,105.110412,65.469337,96.772762,113.61533,124.806164,55.420772,90.674629,110.078235,122.667057,45.161384,78.532059,97.261974,109.312614,34.915249,62.257885,77.21252,87.891117,-14.09526,-17.348902,-18.568818,-26.292498,-1.671152,15.930396,27.071467,35.882794,14.36858,34.684626,46.525909,54.619264,29.822534,49.192268,58.52278,64.022741,43.49263,58.910029,64.844009,68.126969,73.29669,241.022606,-110.631666,210.036002
84,-2.355789,11.619957,9.660587,14.241114,-34.790062,-65.167076,-87.427117,-102.353005,-60.412445,-90.032662,-108.356632,-122.553841,-54.38047,-88.986099,-108.208672,-121.701187,-49.256584,-84.128781,-101.786293,-111.810505,-45.798615,-73.764015,-87.559971,-95.772194,10.706287,20.041628,25.121093,29.711594,39.088456,33.536748,28.942517,25.379346,31.802994,18.173196,5.674061,-6.186749,18.613662,4.908652,-6.523177,-16.133443,2.164204,-5.123765,-9.854254,-13.461244,32.212635,62.450878,85.846218,103.080357,66.221466,100.796333,115.909516,123.495964,56.355892,95.741089,113.106926,121.560791,46.130928,83.190846,100.033928,108.614227,35.959099,65.922375,79.861633,87.988518,-15.826136,-18.581699,-18.987016,-25.946979,0.75133,21.041009,30.950591,37.349095,18.549096,40.32938,49.453312,54.060992,34.546207,54.256481,60.832727,63.274289,47.488389,63.310796,67.268133,68.018771,71.175448,252.172269,-100.736532,223.806822
85,-3.512078,9.840546,5.140789,9.865814,-34.46125,-63.394706,-83.519027,-96.392086,-58.907455,-84.764785,-98.944576,-109.021087,-51.82418,-82.865432,-98.071769,-107.230075,-46.022666,-77.522472,-91.727302,-97.779075,-41.808219,-67.811988,-79.337917,-84.75127,5.903858,12.714793,15.151538,16.635808,36.795996,28.314416,21.804787,17.418618,32.340642,18.237848,5.977576,-4.468951,21.214959,7.688951,-3.280861,-11.12588,6.289403,-0.489755,-4.93944,-7.574256,33.084171,62.939861,86.276516,103.944203,65.972202,99.24963,115.004437,124.349774,55.99419,93.58469,112.003452,122.677494,45.86134,81.057827,98.82716,109.087727,36.003079,64.471356,78.577469,87.859772,-15.369084,-17.764852,-17.821082,-24.676551,3.463285,22.824472,32.358982,39.217452,21.097041,41.959479,50.83699,55.863301,36.48985,55.868821,62.441721,64.969869,48.460501,64.596168,68.841484,69.902023,67.849124,261.716753,-95.409989,233.376574
86,-7.421974,9.096589,5.689522,8.867866,-28.996055,-53.415092,-70.394897,-81.291057,-52.743782,-70.467098,-78.412113,-82.842601,-47.089508,-69.79042,-77.594215,-79.6585,-42.043007,-66.163067,-73.648384,-73.825241,-37.988067,-59.873245,-67.210636,-68.620742,1.795467,5.036216,4.182664,1.693394,30.71999,25.180089,20.538261,17.367538,28.936206,18.383481,9.454161,1.838372,20.515698,9.644797,1.136961,-4.519871,8.463116,2.092018,-2.371463,-4.90013,32.52,62.182159,85.407165,103.445858,65.707157,98.217716,114.079891,123.91,55.834557,92.831303,111.172359,122.103458,45.602451,80.245594,97.869106,108.402706,35.494629,63.486786,77.644569,87.137444,-14.758583,-16.909436,-16.537044,-22.961582,6.397713,25.523792,34.748167,41.269949,23.927963,44.391,52.910668,57.797435,38.843689,58.000877,64.288527,66.663077,50.059787,66.284843,70.335695,71.194878,60.568325,270.600429,-89.579292,242.031527
87,-12.332748,8.495647,5.544502,7.87587,-23.166435,-41.663841,-53.534695,-61.315407,-48.165104,-54.666481,-54.21278,-52.253975,-44.587933,-54.973869,-55.45047,-51.233837,-40.461525,-54.61425,-57.175186,-54.280941,-35.883305,-54.306965,-60.735775,-61.905888,-2.296449,-2.936023,-5.160519,-8.699781,21.27146,18.021301,13.904043,10.999168,23.823383,17.369662,10.928168,5.515299,20.046839,14.417794,7.803621,4.016506,12.953865,10.075567,7.358697,6.336333,31.966896,61.190426,84.429829,102.79224,64.996411,97.385617,113.129368,122.939633,55.082508,92.141728,110.280407,121.182919,44.645863,79.400505,96.787136,107.322521,34.357453,62.15633,76.18087,85.569271,-14.40174,-16.378914,-15.549693,-21.261482,8.549616,28.012741,36.867243,42.864394,26.237947,46.594304,54.486859,59.007471,40.843896,59.934023,65.804178,67.93101,51.465041,67.770558,71.500938,72.139573,48.342573,278.95924,-83.927794,249.770561
88,-18.430721,5.815073,4.842842,7.117216,-14.158711,-24.713025,-28.990048,-30.770314,-35.239712,-29.751973,-21.064316,-13.990689,-34.896698,-32.239254,-24.56995,-15.000733,-33.22847,-36.386525,-32.806172,-27.179558,-29.597981,-42.819008,-47.588391,-49.202523,-9.16864,-13.245958,-16.581394,-21.013715,10.809521,13.472643,13.979132,14.926285,19.427606,20.100426,18.819167,17.002321,22.390749,23.264221,20.963968,20.030277,21.761672,23.886257,24.653975,26.313073,31.286179,59.87946,83.073429,101.503933,64.501339,97.121853,112.435559,121.811383,54.487027,91.899777,109.826992,120.59,43.807343,78.732914,95.733639,106.029843,33.247959,60.991974,74.856709,84.128437,-13.949566,-15.774661,-14.664055,-20.093312,10.457445,30.643568,39.308312,44.76958,28.112122,48.538479,55.889298,59.966838,42.331489,61.592517,67.115016,68.913806,52.510328,68.984276,72.541,73.076031,29.974841,284.661075,-79.021963,256.774539
89,-22.662964,3.332287,2.010029,3.923263,-4.050396,-5.416569,-2.875202,-0.116925,-17.427029,-0.719548,13.711818,23.132915,-19.445275,-4.56696,8.830089,21.460087,-20.844292,-12.020794,-2.898892,4.355037,-19.904606,-27.805641,-32.096524,-35.068577,-16.455052,-24.391907,-28.613165,-33.566252,3.399879,13.007205,16.612318,19.549711,17.932196,26.792948,28.960264,29.225988,26.354396,34.327301,34.85171,35.322717,31.017207,37.939638,41.523484,45.058584,31.46854,59.637165,82.979004,101.868347,64.146355,94.250702,110.406922,122.112786,53.97242,88.436302,107.537819,121.223122,43.185253,75.371018,93.557602,106.393982,32.58918,58.113922,72.51844,83.848206,-11.711879,-13.510076,-12.313106,-17.948819,13.25196,31.76151,41.550976,48.569775,30.071265,49.354931,58.660866,64.927175,43.533646,62.243823,69.486479,72.878553,53.264683,69.391631,74.218784,75.920971,7.332144,287.937793,-76.991667,260.642233
90,-18.132363,3.590885,2.88794,5.118035,4.435891,11.191395,18.69048,24.141941,-2.046432,23.278164,40.989911,51.417103,-6.534221,17.444493,32.702809,45.655667,-10.97018,5.546162,15.721653,21.445027,-12.799266,-18.232704,-24.315124,-30.649875,-22.65278,-34.292387,-38.995756,-43.503017,-1.697148,12.816483,17.722059,21.160273,17.20842,31.017553,34.292338,35.200489,29.361839,42.115535,42.835841,43.127328,38.113663,48.01512,52.841186,57.446803,30.441936,58.054,81.276924,100.284622,63.972438,93.290931,109.450355,121.069633,53.632175,87.320434,106.360862,119.886886,42.604808,73.931442,91.778411,104.54837,31.848758,56.428459,70.51213,81.946769,-11.738432,-13.29826,-11.838245,-17.493422,14.856791,32.69241,42.154512,48.808094,31.60228,50.15445,59.058008,65.103879,44.528976,62.716189,69.616192,73.056344,53.554218,69.518083,74.112598,75.692556,-10.823542,291.52036,-74.12705,265.75195
91,-13.213474,2.606213,2.085067,4.268312,7.822712,19.01207,29.92115,37.403732,6.600105,37.098496,55.765366,65.729736,1.696266,30.602577,44.67627,55.702377,-4.112789,16.124199,24.456482,27.147354,-7.310394,-12.836391,-22.303882,-32.70829,-25.2605,-38.30073,-43.275677,-46.349958,-0.876004,14.907254,19.216802,22.319464,19.113519,34.863147,36.855783,36.946655,31.25239,46.302571,44.900182,43.95056,40.07503,50.85207,55.738306,60.924686,29.64893,56.786488,79.831124,98.60994,63.132225,92.244805,108.201554,119.662835,52.923581,86.395317,105.373055,118.676514,41.889027,73.053315,90.827591,103.452485,31.221016,55.39547,69.490151,80.884919,-12.178206,-13.534431,-11.868034,-17.551826,15.627041,33.375801,42.633658,49.145733,32.558251,50.516728,58.859431,64.225801,45.249072,63.003377,69.585564,72.638899,53.825648,69.400942,73.852999,75.1792,-24.079731,294.117348,-72.084698,270.011037
92,-5.071552,0.773844,1.354363,3.146011,9.786129,22.706325,33.838909,41.174366,11.476295,43.018055,61.393947,70.693508,6.398506,36.165767,49.394382,59.16267,-0.241173,21.346973,29.128521,30.480697,-4.21875,-8.476696,-17.832367,-28.841252,-26.131441,-38.243142,-41.893925,-43.243073,0.370762,16.560707,20.407832,23.134051,19.707595,36.695874,38.504741,38.476002,31.325552,47.282994,45.294322,43.917387,40.02679,50.814044,55.310783,60.082348,28.769131,55.584011,78.613357,97.148483,62.230041,91.560951,107.49765,119.008369,52.199901,85.884086,104.842804,117.918823,41.282455,72.686577,90.593445,103.199661,30.824741,54.905617,69.215034,80.598198,-12.822004,-13.85967,-11.910691,-17.638894,16.314545,33.66173,42.505439,48.697548,33.430327,50.496461,58.15513,62.745865,45.820213,62.892053,68.979261,71.54294,53.827723,68.839273,72.966361,73.96473,-29.252455,294.878922,-70.831507,273.144778
93,0.400223,0.986265,0.76197,1.854105,9.372528,22.250873,31.387035,36.531955,10.06858,42.126583,59.908527,68.724414,6.023471,35.957485,47.077457,55.398868,-0.259678,21.646087,27.453014,27.032329,-4.374058,-9.291161,-20.205117,-32.65218,-27.103318,-39.791348,-42.573698,-42.032332,2.363164,17.830568,19.406401,20.11658,21.243179,37.942776,38.146453,37.178145,31.829312,48.09647,43.952153,41.313101,40.096259,50.415568,53.726045,57.649753,27.927544,54.587792,77.578652,95.929116,61.044033,90.801293,106.800934,118.472031,51.210423,85.278557,104.333748,117.288185,40.455918,72.209816,90.374016,103.0719,30.23021,53.999176,68.439446,79.673081,-13.488809,-14.361577,-12.067648,-17.381382,16.545677,33.499611,41.791876,47.46212,33.894344,50.423275,57.424833,61.155336,46.100425,62.890769,68.42373,70.246059,53.632851,68.559482,72.347203,72.698414,-29.018663,295.849268,-70.235968,274.982964
94,5.589969,1.242579,0.152333,1.178544,7.242623,17.725571,25.184578,29.341759,3.534245,35.564072,53.794075,63.294686,-0.305042,28.858177,39.094254,47.238304,-5.87051,14.021382,18.236321,17.022331,-8.966022,-15.701648,-27.442291,-40.754516,-27.685958,-40.164753,-42.134788,-40.064174,2.617563,17.283088,18.614514,19.508178,20.999722,36.127412,36.070663,35.418011,31.458797,46.707061,41.465254,38.576075,40.271099,49.936323,52.805643,56.673454,27.322036,53.946235,76.993641,95.231174,60.218685,90.36446,106.442722,118.216793,50.535587,84.94321,103.968464,116.788982,39.910549,71.962452,90.287281,103.068981,29.8633,53.354576,67.83839,78.837604,-14.042019,-14.648519,-12.0325,-16.970878,16.416829,33.002853,40.799485,45.959226,33.872744,49.839424,56.158048,59.146076,45.957089,62.416514,67.327005,68.445861,53.159657,67.804163,71.198237,70.989163,-23.618906,297.066356,-70.273847,276.136017
95,-1.840828,0.049289,0.233745,0.405169,6.333355,16.480969,24.183174,28.295151,4.053589,36.359642,54.996071,64.80629,0.706204,29.62072,40.857331,49.861336,-4.443809,15.777432,20.948777,20.306237,-7.341842,-14.063919,-25.857696,-39.609821,-28.330002,-40.887665,-43.077927,-41.026554,1.847857,16.569488,18.278591,19.485948,21.034204,35.977038,35.999441,35.411848,32.05517,46.569592,41.152068,37.90118,40.870116,50.262341,53.148259,56.658226,26.963242,53.527119,76.573288,94.793152,59.104065,89.512528,105.619171,117.435723,49.390045,84.173104,103.124474,115.768433,38.814148,71.240204,89.600327,102.243302,28.889706,52.354042,66.822167,77.371491,-14.10577,-14.638553,-11.68671,-15.987602,16.460289,33.02102,40.613654,45.536767,34.061947,49.873511,55.908601,58.620518,46.121951,62.396605,66.908016,67.598003,53.124126,67.633991,70.646065,69.93349,-25.679335,297.071747,-70.259703,276.497288
96,-3.048465,-0.327437,0.32127,0.436921,5.974731,16.772197,25.237781,29.25951,6.166225,38.821231,57.693363,67.617679,3.235462,32.320278,44.499996,54.063137,-1.76017,19.31797,25.73315,25.71825,-4.783734,-11.085492,-22.996067,-37.30933,-28.656959,-41.543269,-44.160017,-42.554173,1.001752,15.988848,17.830777,19.010605,21.143612,36.403127,36.378279,35.54555,32.783392,47.051022,41.559299,37.873441,41.662385,51.038296,54.062979,57.2957,26.650154,53.045162,76.063236,94.25964,58.226258,88.869175,105.06609,116.954075,48.530319,83.55106,102.432049,114.926914,38.070053,70.678242,88.99062,101.518261,28.290562,51.695263,66.120701,76.40086,-14.273583,-14.831683,-11.629603,-15.229454,16.19559,32.620656,39.943094,44.580636,33.864,49.601031,55.298939,57.753036,45.895228,62.079357,66.259464,66.673748,52.811805,67.281088,70.028351,68.985498,-28.974037,296.692613,-70.18467,276.882512
97,-5.213871,-0.53219,0.298634,0.569302,7.321724,19.818603,29.661781,34.267593,11.352081,44.164581,62.591697,72.000389,8.444206,38.187446,51.626747,61.842727,2.984424,25.858337,34.816131,36.418109,-0.985566,-6.264222,-17.690381,-31.939957,-28.817016,-41.035866,-43.007075,-40.711182,-0.114634,15.009808,16.884156,18.030713,20.764267,36.586921,36.572842,35.541956,33.004718,47.364875,42.088438,38.155246,42.223202,51.535733,54.7986,57.958566,26.426605,52.59407,75.493515,93.727844,57.351127,88.066154,104.385498,116.391838,47.811241,82.91645,101.947838,114.52121,37.588611,70.362602,88.65802,101.073829,28.00716,51.62392,66.003547,76.03379,-14.459884,-15.252167,-12.029005,-14.864534,15.692027,32.044722,39.315969,43.814523,33.511516,49.371579,54.818508,57.000101,45.681831,61.904627,65.726299,65.772365,52.759021,67.156018,69.525826,68.067553,-34.431123,296.09309,-70.129251,277.384481
98,-5.345067,-0.758431,0.265835,0.660025,9.00927,23.715168,35.902142,41.91148,16.688096,49.861554,67.874348,76.621869,13.600869,43.812527,57.96436,68.207211,7.559784,31.802022,42.302571,44.578068,2.873028,-1.341556,-12.566116,-27.138931,-29.008639,-40.846132,-42.736942,-40.811601,-1.411528,14.37326,16.547072,17.827344,20.483464,37.438447,37.431432,36.077061,33.683936,48.522461,43.470721,39.373668,43.577673,52.76443,56.117416,59.145162,26.180545,52.099777,75.012119,93.339122,56.644352,87.501766,103.956974,116.000805,47.312393,82.43153,101.502765,113.986301,37.429561,70.357532,88.443157,100.543911,28.216026,52.239727,66.673862,76.856723,-14.624609,-15.753209,-12.586339,-14.751518,15.210584,31.549706,38.881197,43.357731,33.15602,48.882923,54.140366,56.078933,45.50068,61.444254,65.014613,64.768093,52.851227,67.117524,69.241133,67.46771,-39.980891,295.255467,-70.068117,277.965314
99,-5.327808,-0.077089,0.402099,0.560645,10.868214,28.130871,42.309105,49.357636,22.660904,56.079941,73.48597,81.722557,19.138996,49.554863,64.572762,75.16951,12.28006,37.429253,49.016556,51.714409,6.687607,3.290245,-7.684158,-22.380466,-29.142786,-40.822568,-42.762309,-41.278039,-3.267104,12.9263,15.290143,16.34195,19.670433,37.40609,37.347019,35.432843,33.817872,49.044597,44.349294,39.945279,44.212751,53.285801,56.632624,59.283075,26.095654,51.687676,74.560673,93.081265,55.792923,86.70068,103.333935,115.503491,46.658798,81.825772,101.091854,113.591503,37.118077,70.327641,88.248539,100.001393,28.248814,52.683254,67.183056,77.472279,-14.707034,-16.272753,-13.225728,-14.801784,14.632266,30.998262,38.408299,42.888983,32.782602,48.446273,53.526652,55.156715,45.425851,61.22378,64.558401,63.94223,53.185111,67.545799,69.50982,67.404848,-45.489493,295.091495,-69.846812,278.439076
100,-0.813766,-0.641427,0.483284,0.663483,11.667743,30.045753,45.609031,53.982513,23.769802,56.996887,74.017593,81.830658,19.805088,50.272224,65.529991,76.004242,12.573177,37.754356,49.751197,52.600067,6.835487,3.315879,-7.56007,-22.26931,-28.955521,-40.109436,-41.575206,-39.836919,-3.769714,12.723191,15.002374,15.936226,19.62091,37.7822,37.443894,34.959453,34.254695,49.992838,45.280021,40.639713,45.140416,54.016606,57.381731,60.144395,25.899525,51.130532,73.918293,92.604916,54.997593,85.97041,102.789517,115.113178,46.086937,81.292134,100.789868,113.356098,36.893543,70.38953,88.237644,99.753765,28.360989,53.373722,68.007603,78.466496,-14.948095,-16.916945,-13.992334,-14.979822,14.061705,30.377041,37.796378,42.170913,32.391722,47.969252,52.766011,53.916335,45.248603,60.88687,63.883778,62.753795,53.303536,67.640969,69.359755,66.886071,-46.452221,294.371068,-69.51249,279.023559
101,1.07706,-0.761395,0.530995,0.552617,12.263043,31.110913,47.211903,56.375828,22.993744,55.827999,72.469494,79.762265,18.327267,48.59879,63.740719,74.211445,10.757618,35.263104,47.246327,50.213826,5.084462,0.78526,-10.002422,-24.584072,-28.247478,-38.455353,-39.05222,-36.582512,-3.630516,13.350921,15.717024,16.732855,19.620638,37.977109,37.442301,34.545737,34.394807,50.596102,46.038107,41.414174,45.719339,54.228533,57.741699,60.839421,25.666774,50.530666,73.255577,92.211914,54.065529,85.235046,102.277176,114.700126,45.292877,80.797851,100.617324,113.193054,36.385585,70.425544,88.246421,99.401962,28.210647,54.009166,68.806045,79.285194,-15.188378,-17.520494,-14.650606,-15.06405,13.553734,29.93886,37.409684,41.750442,32.094369,47.65115,52.15157,52.892575,45.174774,60.63226,63.203572,61.569496,53.499618,67.710574,69.020486,66.110707,-45.473906,293.536517,-69.08024,279.50302
102,-0.712509,0.336861,0.34869,0.327524,12.504708,32.207119,49.175961,58.989041,23.922775,56.531902,73.266255,80.619404,18.938473,48.715153,63.935337,74.526409,11.182091,34.876476,46.480236,49.281796,5.551129,0.622399,-10.450584,-25.310932,-28.001811,-38.900067,-40.201407,-38.87428,-4.486044,12.929894,15.58531,16.70634,19.198636,37.70763,37.062462,33.904138,34.401068,50.755887,45.954966,41.083476,46.075737,54.197658,57.550285,60.513762,25.529422,50.181335,72.796978,91.864597,53.627517,84.840236,101.965519,114.376842,44.746536,80.332523,100.138103,112.479572,35.784473,70.122905,87.804737,98.554813,27.621036,53.866264,68.673603,79.000705,-15.331355,-17.803224,-14.814146,-14.726201,13.124828,29.695032,37.20124,41.516568,31.772798,47.498639,51.851018,52.320075,45.002404,60.519418,62.877913,60.98031,53.462074,67.78528,68.849795,65.598315,-46.240425,293.805076,-68.78556,279.762242
103,-0.750515,0.260661,0.338562,0.254412,12.714798,32.670902,49.832176,60.029961,24.698948,57.245728,73.906265,81.058617,19.397461,49.241661,64.89196,75.588593,11.465435,35.362061,47.297379,50.228142,5.680184,0.919075,-9.992637,-24.655357,-27.894303,-39.116638,-40.494105,-39.223503,-4.925188,12.636642,15.261145,16.221821,18.877879,37.662861,36.840938,33.415482,34.090834,50.756986,45.907529,40.835572,45.600592,53.809593,57.164431,60.033788,25.404396,49.94981,72.465557,91.572841,53.243969,84.396297,101.600315,113.946796,44.207084,79.994053,99.835064,111.972301,35.084987,69.780773,87.345806,97.666271,26.814399,53.417541,68.005062,77.569622,-15.395897,-17.844634,-14.746702,-14.405852,12.792252,29.441769,37.00081,41.357203,31.553966,47.493464,51.703583,52.015459,44.909271,60.55811,62.612942,60.521628,53.44923,67.750428,68.410466,64.817234,-47.00239,294.011909,-68.458448,279.962826
104,-1.037681,-0.012313,0.193416,0.120759,13.578174,34.147613,51.719421,62.092414,26.125408,58.559852,75.077133,81.865448,20.238773,50.141189,65.944015,76.403228,11.876678,35.961284,48.016113,50.876335,5.679805,1.343433,-9.369931,-23.779038,-27.437536,-38.86356,-40.402862,-39.477224,-5.207597,12.834391,15.508764,16.342877,18.584676,37.972959,36.938553,33.297477,33.782749,50.979893,46.078133,40.942808,45.224298,53.589194,56.940018,59.862788,25.219849,49.753933,72.177018,91.239556,52.912068,84.245224,101.510491,113.714814,43.634045,79.846665,99.691315,111.610428,34.314984,69.482369,87.04628,97.081787,25.950348,53.071404,67.563629,76.511216,-15.44489,-17.699323,-14.467874,-13.943218,12.728118,29.494615,37.038811,41.409283,31.536331,47.671256,51.701471,51.919833,44.860353,60.58759,62.342203,60.191239,53.245972,67.372145,67.591322,63.744283,-48.033966,293.961181,-68.258927,280.04517
105,-0.015519,0.603919,-0.177772,-0.021477,13.772839,34.151391,51.360352,61.230286,26.106743,58.412957,75.200615,82.198014,20.031041,49.649872,65.819481,76.712014,11.586766,35.196202,47.1847,50.074631,5.273404,0.643319,-10.101894,-24.498825,-27.245714,-39.18134,-40.961444,-40.254167,-5.841959,12.135438,14.965225,15.969805,17.889181,37.136723,36.245862,32.732918,33.083043,50.319769,45.48665,40.380126,44.564247,52.88225,56.201989,59.036123,25.116073,49.783962,72.21682,91.209411,52.914093,84.441719,101.71717,113.794739,43.368541,79.957191,99.724182,111.419128,33.807861,69.242752,86.778145,96.597015,25.29467,52.619922,66.959427,75.32547,-15.489782,-17.575526,-14.268359,-13.640184,12.741963,29.5999,37.08295,41.444407,31.571121,47.935808,51.85849,52.057821,44.818573,60.768235,62.385812,60.286705,53.00748,67.143014,67.107051,63.123371,-48.03257,294.534176,-68.419784,279.992769
106,-0.494178,0.276024,-0.446045,0.030283,14.109512,34.985309,52.539093,62.431366,27.019581,59.238304,75.897148,82.826683,20.899452,50.34114,66.200019,76.665184,12.389957,35.762203,47.042701,49.446418,5.98875,1.636608,-9.194733,-23.612904,-27.250506,-39.624844,-41.927183,-41.954724,-6.290909,11.788759,14.438926,15.304828,17.594434,36.906246,35.918548,32.379002,32.956344,50.16685,45.099463,39.959754,44.62149,53.075739,56.047206,58.661027,25.153187,50.052406,72.58255,91.487343,53.479889,84.919716,102.128654,114.07283,43.856975,80.398659,99.973755,111.544716,34.111999,69.410271,86.836738,96.570076,25.386932,52.534412,66.703949,74.76123,-15.538689,-17.478664,-14.141993,-13.516165,12.777988,29.547967,36.900897,41.135259,31.501194,47.895163,51.772298,51.952165,44.631629,60.69117,62.280267,60.234439,52.709225,66.936693,66.820108,62.816261,-48.490911,294.778478,-68.829992,279.99133
107,1.864792,0.057959,-0.375595,-0.091206,13.909755,34.12833,51.073104,60.230369,25.448719,57.446891,73.96717,80.707283,19.355484,48.659156,64.474502,74.965965,10.917446,34.34143,46.055397,48.988884,4.588348,-0.250042,-11.022927,-25.195931,-27.15394,-39.457945,-41.899692,-42.465128,-5.96609,12.114382,14.443039,15.281894,17.743808,37.134278,36.062118,32.485534,33.060195,50.409727,45.235117,40.162011,44.900244,53.526357,56.637441,59.564411,25.222114,50.259338,72.895477,91.914596,53.686672,85.206711,102.404732,114.20549,44.099544,80.733078,100.23809,111.685684,34.374023,69.719055,87.179054,96.91262,25.668709,52.778858,66.956497,74.958206,-15.512259,-17.374466,-13.956778,-13.396764,12.80112,29.727834,37.068871,41.242434,31.5142,47.93419,51.782858,51.915066,44.643016,60.72028,62.341586,60.341651,52.735457,67.030999,66.98912,63.071871,-46.557392,294.814522,-69.13686,279.878209
108,2.257942,0.197528,-0.461151,0.073977,13.22208,32.668133,48.751098,56.7621,23.204715,54.486877,71.109581,78.07418,17.340694,45.90786,61.621376,72.614914,9.213787,31.768455,43.659004,47.165222,3.160011,-2.853459,-13.749676,-27.881722,-26.754243,-38.898302,-41.374604,-42.360314,-5.765291,12.394159,14.669045,15.682937,17.825973,36.850213,35.756452,32.156107,33.195848,50.292771,44.834281,39.633761,45.274191,53.611324,56.881318,60.126932,25.361778,50.466407,73.150039,92.245788,54.039299,85.569168,102.688568,114.424759,44.505111,81.016479,100.429412,111.853683,34.815982,69.945922,87.457008,97.311081,26.132469,53.075729,67.330124,75.523063,-15.603625,-17.452222,-13.963102,-13.406817,12.7791,29.742877,37.072984,41.232986,31.465911,47.875317,51.752613,51.931418,44.534397,60.631594,62.361988,60.448553,52.585515,66.873041,66.950069,63.16756,-44.19659,294.988431,-69.495151,279.928567
109,4.916416,-0.187277,-0.256222,-0.075385,12.189182,29.531525,42.921902,48.646831,18.163067,48.663792,65.507641,72.902309,12.179615,40.619579,56.222935,67.591244,4.238125,26.075306,38.064937,42.223606,-1.392735,-8.668316,-19.43145,-33.001282,-25.810919,-37.782422,-40.027025,-40.865817,-4.256456,13.777789,15.961938,17.028676,18.542846,37.051396,36.119088,32.546135,33.473206,50.540551,45.201437,40.189749,45.523021,54.12967,57.720531,61.337141,25.338764,50.507732,73.219013,92.386104,54.404972,85.755649,102.775326,114.455509,44.963528,81.109669,100.332996,111.643169,35.282776,70.026272,87.494877,97.375637,26.576511,53.217052,67.389164,75.618542,-15.751159,-17.416518,-13.7233,-13.149923,12.876789,29.945381,37.409783,41.618691,31.496428,48.001461,51.989006,52.219977,44.528815,60.717822,62.61372,60.781524,52.612253,67.080078,67.287992,63.635097,-39.137283,294.773897,-69.608482,279.825925
110,5.667549,-0.760308,0.014442,0.010819,11.138546,26.597054,37.891743,41.802372,12.639553,41.939152,58.597034,66.00555,6.04319,33.987133,49.29855,60.733418,-1.85535,19.183136,31.213772,35.892597,-6.987282,-14.96648,-25.342346,-37.999294,-24.607181,-36.042765,-37.987384,-38.881987,-2.226177,15.908437,17.930405,18.775793,19.839012,38.078107,37.208378,33.436996,34.320126,51.363005,46.292728,41.484384,46.228198,55.130249,58.898383,62.694847,25.395264,50.540234,73.198002,92.437832,54.561837,85.654232,102.612797,114.293598,45.212643,80.935879,100.05502,111.31667,35.508156,69.948155,87.365422,97.227024,26.710579,53.077343,67.198391,75.499501,-15.768363,-17.256116,-13.317958,-12.675495,12.942368,30.1384,37.728785,41.958034,31.509679,48.09847,52.183038,52.420295,44.57908,60.839495,62.861771,61.056794,52.779534,67.512615,67.815896,64.208449,-33.274704,293.98653,-69.39901,279.809685
111,5.19825,0.213199,0.229454,0.126181,9.816753,22.713592,31.519993,33.449032,7.309856,35.687931,52.506466,60.016971,0.271889,27.959667,43.44936,55.264721,-7.535351,13.151619,25.755237,30.971088,-12.248268,-20.989632,-31.035668,-43.133183,-23.816158,-35.203243,-36.935687,-37.566147,-0.929813,16.929283,18.869247,19.665988,20.673742,38.290072,37.437151,33.435415,34.776511,51.520049,46.57373,41.690766,46.384662,55.487723,59.440651,63.151838,25.287587,50.424912,73.048794,92.28542,54.54855,85.436383,102.30447,113.951466,45.215046,80.634442,99.717648,110.937527,35.424179,69.613278,86.99992,96.833004,26.498818,52.574639,66.572766,74.761975,-15.777539,-17.07226,-12.913975,-12.176206,13.118529,30.371211,38.068598,42.335267,31.636403,48.294614,52.503522,52.764146,44.705347,61.064031,63.225197,61.451935,52.91399,67.890132,68.349221,64.798795,-27.851538,294.179197,-68.94464,279.915334
112,3.893486,0.137407,0.208512,0.439613,8.877994,20.052864,27.182361,27.975231,2.887321,30.990314,47.754444,55.165592,-4.419834,23.460102,39.039699,50.996212,-12.008,8.509106,21.12038,26.456051,-16.270306,-25.244053,-35.130581,-46.843254,-23.224367,-34.394806,-35.992907,-36.382774,-0.390151,18.022241,20.137168,20.790957,20.90701,38.909404,38.188567,34.073865,34.682514,51.817784,47.143711,42.289844,46.04622,55.414252,59.262044,62.736591,25.207866,50.407253,72.993152,92.129825,54.748993,85.325008,102.088382,113.730205,45.400291,80.465664,99.518749,110.788227,35.492695,69.383548,86.698253,96.492771,26.41959,52.244911,66.088772,74.096523,-15.87813,-16.98902,-12.721017,-12.016482,13.263371,30.360109,38.036686,42.258277,31.706676,48.347016,52.59994,52.892254,44.721106,61.146592,63.306955,61.485343,52.90017,68.003086,68.444651,64.84333,-23.723173,294.309382,-68.501249,280.347725
113,2.277019,0.591409,0.492931,0.342308,8.419293,18.67891,25.054734,25.628357,0.309517,28.181946,45.005036,52.395287,-7.23777,20.509598,36.182259,48.113663,-14.762821,5.120694,17.287148,22.363427,-18.780841,-27.889766,-37.675163,-49.215911,-23.102818,-34.334946,-36.058314,-36.225114,-0.090502,18.447021,20.703431,21.269806,20.921854,38.937611,38.401297,34.371069,34.335452,51.607647,47.311165,42.728444,45.444746,54.92872,58.638883,61.884929,25.038368,50.302311,72.880806,91.969162,54.654396,85.083481,101.838501,113.45874,45.227886,80.178955,99.195946,110.383255,35.217453,69.078621,86.316582,95.982742,26.083466,51.909061,65.686684,73.567085,-15.8457,-16.76399,-12.4269,-11.726045,13.57584,30.658042,38.361887,42.587752,31.957036,48.728979,52.912409,53.130313,44.908827,61.488405,63.549819,61.606274,53.042294,68.279579,68.603905,64.887629,-21.227995,294.90235,-67.790159,280.691592
114,-0.234237,1.139097,0.184994,0.643686,7.933044,18.262939,25.315406,26.569198,0.611709,28.756324,45.504432,52.704071,-6.623658,21.038681,36.818527,48.883415,-13.873558,5.985397,18.246185,23.252311,-17.783375,-27.071617,-37.075161,-49.025048,-23.950539,-35.381343,-37.403546,-37.802527,-1.054129,17.318978,19.526604,20.164832,20.349367,38.359467,37.773369,33.899531,33.912993,50.998505,46.6204,42.040051,45.087866,53.995833,57.402665,60.460434,25.067093,50.448612,73.120731,92.188534,54.903694,85.235561,101.956547,113.61803,45.417,80.337581,99.353451,110.602215,35.321422,69.180828,86.345753,95.990421,26.066711,51.969291,65.787082,73.719028,-15.829607,-16.829877,-12.608397,-12.024707,13.485129,30.405446,37.952174,42.030541,31.823062,48.52687,52.668001,52.80258,44.733789,61.362483,63.363036,61.30303,52.879014,68.108951,68.352778,64.530798,-21.280403,296.052702,-67.423336,281.346533
