takenoko1/special-research/HandMotion_SimilarSearch_自分用/NewProject/handData/key/d4_feature_d3/132.csv
,vel_0x_L,vel_0y_L,vel_0x_R,vel_0y_R,posFromWrist_1x_L,posFromWrist_2x_L,posFromWrist_3x_L,posFromWrist_4x_L,posFromWrist_5x_L,posFromWrist_6x_L,posFromWrist_7x_L,posFromWrist_8x_L,posFromWrist_9x_L,posFromWrist_10x_L,posFromWrist_11x_L,posFromWrist_12x_L,posFromWrist_13x_L,posFromWrist_14x_L,posFromWrist_15x_L,posFromWrist_16x_L,posFromWrist_17x_L,posFromWrist_18x_L,posFromWrist_19x_L,posFromWrist_20x_L,posFromWrist_1y_L,posFromWrist_2y_L,posFromWrist_3y_L,posFromWrist_4y_L,posFromWrist_5y_L,posFromWrist_6y_L,posFromWrist_7y_L,posFromWrist_8y_L,posFromWrist_9y_L,posFromWrist_10y_L,posFromWrist_11y_L,posFromWrist_12y_L,posFromWrist_13y_L,posFromWrist_14y_L,posFromWrist_15y_L,posFromWrist_16y_L,posFromWrist_17y_L,posFromWrist_18y_L,posFromWrist_19y_L,posFromWrist_20y_L,posFromWrist_1x_R,posFromWrist_2x_R,posFromWrist_3x_R,posFromWrist_4x_R,posFromWrist_5x_R,posFromWrist_6x_R,posFromWrist_7x_R,posFromWrist_8x_R,posFromWrist_9x_R,posFromWrist_10x_R,posFromWrist_11x_R,posFromWrist_12x_R,posFromWrist_13x_R,posFromWrist_14x_R,posFromWrist_15x_R,posFromWrist_16x_R,posFromWrist_17x_R,posFromWrist_18x_R,posFromWrist_19x_R,posFromWrist_20x_R,posFromWrist_1y_R,posFromWrist_2y_R,posFromWrist_3y_R,posFromWrist_4y_R,posFromWrist_5y_R,posFromWrist_6y_R,posFromWrist_7y_R,posFromWrist_8y_R,posFromWrist_9y_R,posFromWrist_10y_R,posFromWrist_11y_R,posFromWrist_12y_R,posFromWrist_13y_R,posFromWrist_14y_R,posFromWrist_15y_R,posFromWrist_16y_R,posFromWrist_17y_R,posFromWrist_18y_R,posFromWrist_19y_R,posFromWrist_20y_R,posFromBody_0x_L,posFromBody_0y_L,posFromBody_0x_R,posFromBody_0y_R
6,-11.066082,2.296572,-1.052787,0.340615,9.539897,15.520134,15.438251,10.876911,3.279556,27.151176,42.526874,49.424274,-6.135773,22.576034,39.997135,52.623447,-14.858986,8.749259,26.924629,37.804584,-22.186146,-21.653206,-20.792473,-20.650155,-18.280407,-23.346781,-21.363457,-19.128635,2.522764,20.357863,26.400549,29.208266,19.811187,38.044404,42.427683,42.773275,31.224046,46.694389,47.970437,48.486288,39.873365,52.563111,55.946503,57.482557,25.028629,48.934776,71.605316,90.0676,50.796878,79.869586,95.696788,107.475643,42.103214,74.820556,94.068431,107.283863,32.636592,63.910709,82.399349,95.093135,23.453373,48.653446,63.450096,75.489498,-13.848617,-15.940202,-12.071848,-12.397655,12.68456,29.321133,37.383477,43.487258,28.587674,44.258002,52.702112,58.668795,40.416015,55.737614,62.531629,66.564672,48.682345,62.571803,67.267564,69.493889,-20.808271,312.233934,-71.9708,302.153945
7,-3.955204,1.340256,-0.146485,-0.042312,10.493087,17.930053,19.118259,15.1875,7.469112,32.720409,47.762992,54.16452,-1.905007,28.179714,45.201759,57.292007,-11.012043,13.826362,31.441452,41.644958,-18.849255,-17.296246,-16.592057,-16.950348,-19.068021,-25.027689,-23.940314,-22.545508,0.824627,18.058339,24.065827,26.937802,18.547489,37.041021,41.271628,41.470687,30.307682,46.057273,47.018616,47.32386,39.131433,52.043099,54.967734,55.842441,25.023022,48.94479,71.72184,90.110928,50.851124,80.014607,95.858242,107.502972,42.29551,75.256485,94.489231,107.703404,32.901947,64.419502,82.863018,95.566761,23.769047,49.157982,64.009072,76.146561,-13.960113,-15.888936,-11.778199,-12.244378,12.896265,29.443276,37.464716,43.526742,28.833627,44.223719,52.597062,58.44742,40.661869,55.733489,62.498099,66.478246,48.920603,62.667406,67.420829,69.615772,-24.155187,313.424439,-71.508997,301.961882
8,-3.209176,-0.882216,-0.170688,-0.13606,14.314385,23.540875,24.128838,20.33709,12.46811,39.116044,53.667595,58.527375,1.470829,33.103398,49.070046,60.842812,-10.314754,15.708859,32.447949,42.267334,-21.066146,-21.39038,-24.232795,-27.45116,-21.197879,-28.275736,-28.193596,-27.824489,1.175678,19.885621,24.838498,26.923624,19.434176,40.014946,42.921624,42.646292,31.389932,48.947575,48.960703,49.068532,40.145165,54.07323,57.865434,59.739806,25.155498,49.209571,71.966697,90.306587,50.958103,80.222488,96.047538,107.582199,42.455349,75.534507,94.709976,107.886611,33.111637,64.685531,83.075981,95.754272,24.021251,49.342838,64.138927,76.226406,-14.013268,-15.885183,-11.615203,-12.079431,12.913246,29.458861,37.487205,43.609548,28.862957,44.211133,52.549637,58.365773,40.715307,55.830153,62.672036,66.697953,49.011672,62.791622,67.562397,69.693268,-27.125725,312.397363,-71.441047,301.680962
9,3.375184,0.413073,-0.038167,-0.148942,13.325111,21.042366,20.363376,15.603252,9.110103,35.268882,49.682533,54.315811,-1.892956,29.206226,44.934173,56.814811,-13.382813,11.905048,28.622921,38.752761,-23.84602,-25.522637,-28.81691,-32.107659,-21.113083,-28.122867,-27.806062,-27.450392,1.646451,19.949755,24.668882,26.825577,19.620292,39.630142,42.405169,42.274332,31.355649,48.351326,48.223577,48.526956,40.08607,53.614165,57.509357,59.697729,25.3335,49.371781,72.045685,90.405316,50.979138,80.283154,96.125233,107.636525,42.473328,75.601868,94.749035,107.93153,33.16,64.707654,83.09689,95.796582,24.107792,49.364468,64.150567,76.219792,-13.950765,-15.757063,-11.408871,-11.933576,13.075909,29.531825,37.481141,43.568015,29.009392,44.355926,52.642794,58.405688,40.827767,56.026408,62.927115,66.97546,49.075312,62.918062,67.737917,69.8719,-23.567585,312.72983,-71.296258,301.451414
10,2.14532,0.337034,-0.04375,-0.016908,12.473591,19.128754,17.5444,12.001076,6.751328,32.727116,47.072125,51.577023,-4.415943,26.672757,42.09779,53.873875,-15.727661,9.328766,25.907353,36.089093,-25.957122,-28.171588,-31.593292,-34.780586,-20.99824,-27.975728,-27.477378,-27.034812,1.991611,19.982285,24.643107,26.995279,19.805543,39.318167,42.037889,42.035839,31.416695,47.895657,47.65099,48.101669,40.148339,53.468496,57.300591,59.549837,25.33144,49.462406,72.19218,90.581062,51.146427,80.423286,96.247581,107.722618,42.632034,75.710094,94.807319,108.009475,33.280437,64.721294,83.078247,95.804649,24.172886,49.409683,64.1502,76.21883,-13.992964,-15.800201,-11.425234,-11.927536,13.155876,29.555007,37.493677,43.557037,29.023089,44.333844,52.584996,58.284831,40.775094,55.986135,62.966006,67.044584,48.977377,62.869021,67.737633,69.90185,-21.268095,313.02631,-71.185838,301.393952
11,-0.876056,0.177038,-0.139939,-0.096355,12.489006,19.158096,17.630447,12.046074,7.81089,34.617416,48.660461,52.650902,-3.276936,29.020008,43.799057,54.719604,-14.650589,11.407196,27.469448,36.994835,-24.924111,-26.342594,-29.738045,-33.055378,-21.040168,-28.11679,-27.862144,-27.310787,2.061019,19.927142,24.32413,26.607252,19.80726,39.388525,41.881019,41.757,31.389538,47.796919,47.230803,47.593896,40.106584,53.529073,57.128875,59.189413,25.410817,49.634789,72.378365,90.812371,51.026963,80.437111,96.310158,107.851548,42.525216,75.714993,94.870675,108.184548,33.209278,64.728894,83.193901,96.03978,24.152974,49.503891,64.273018,76.367844,-13.958014,-15.749492,-11.325828,-11.825846,12.939564,29.44682,37.434051,43.514984,28.859561,44.287247,52.618057,58.354522,40.690693,56.011279,63.128088,67.288411,48.955406,62.903971,67.824047,69.989918,-22.003309,313.168156,-71.184935,301.262405
12,3.266498,0.449123,-0.109268,-0.012832,11.851776,17.252896,14.563431,8.303913,4.680874,31.047283,45.291378,49.492482,-6.433021,25.461399,40.243069,51.329487,-17.370975,8.202427,24.463703,34.394543,-27.136413,-29.013759,-32.222545,-35.170269,-21.066239,-28.239179,-28.151889,-27.512748,1.63462,19.542388,23.829213,26.056612,19.451306,38.782186,41.423523,41.552692,31.115119,47.101362,46.687931,47.217724,39.928805,52.975197,56.441124,58.445197,25.369457,49.557724,72.29456,90.739472,51.046898,80.426583,96.320503,107.93953,42.522125,75.668999,94.880402,108.283493,33.143349,64.659382,83.211067,96.177201,23.981861,49.423508,64.213108,76.324722,-13.964967,-15.823543,-11.414798,-11.849953,12.670296,29.355516,37.406584,43.484196,28.625367,44.179295,52.636706,58.404219,40.522103,55.83949,63.06745,67.274777,48.856494,62.783311,67.762037,69.999304,-18.618965,313.597293,-71.176357,301.229587
13,5.868874,-0.052364,-0.066112,0.243457,6.687675,8.851593,5.504299,-2.071541,-2.866448,21.162952,36.477962,42.848408,-12.243095,17.076073,33.4846,45.726116,-20.514954,3.112015,20.664322,31.854801,-27.221764,-28.158875,-28.219219,-28.096207,-16.106706,-20.4815,-18.815647,-16.747354,3.881631,20.436583,25.979423,29.319849,18.898812,36.828328,41.379494,42.759962,28.54477,43.24138,44.547797,46.008243,36.087818,48.304754,51.564669,53.25973,25.262581,49.417499,72.196209,90.669239,51.285175,80.604206,96.500805,108.183895,42.817176,75.804485,94.976268,108.432529,33.410602,64.812229,83.332431,96.337932,24.140556,49.618869,64.393696,76.56546,-14.168632,-16.186857,-11.766763,-12.14549,12.338153,28.809433,36.901763,43.027527,28.340389,43.763073,52.298882,58.14346,40.275249,55.416771,62.661849,66.902842,48.692139,62.484983,67.454928,69.748215,-12.697477,313.532388,-71.189855,301.460503
14,1.642731,-0.016623,-0.049347,0.243952,6.310787,8.221355,4.678127,-2.96093,-4.311631,19.052959,34.504589,41.256946,-13.649826,14.883144,31.697307,44.587703,-21.749874,1.423507,19.580932,31.445766,-28.194844,-29.70615,-29.901764,-29.920784,-16.447395,-20.939343,-19.302735,-17.327759,3.318133,20.176564,25.962763,29.438632,18.530792,36.297188,41.181238,42.72774,28.221926,42.803125,44.382491,45.800391,35.894477,47.752964,51.280469,53.124978,25.115478,49.232094,72.070633,90.627857,51.385654,80.777927,96.665783,108.378147,42.936825,75.908615,95.08453,108.492588,33.480057,64.938572,83.474224,96.44228,24.12569,49.761726,64.561798,76.727543,-14.395207,-16.566586,-12.156421,-12.505509,11.832527,28.341833,36.534038,42.724171,27.958956,43.40802,52.092832,58.039743,40.005609,55.050146,62.304622,66.56624,48.524227,62.216899,67.13464,69.448218,-11.039812,313.515725,-71.224268,301.704415
15,4.841583,-0.27621,-0.005654,0.0916,0.297649,-1.540558,-6.081139,-15.127613,-11.402355,9.425308,25.671455,34.438831,-18.102162,7.763512,25.856678,39.562717,-23.066013,-1.574959,17.576374,30.364506,-26.257965,-25.786194,-22.314194,-19.202488,-10.664296,-11.612325,-7.689853,-3.885793,6.443409,21.828079,28.526307,32.791531,18.366116,34.578983,40.955899,43.251718,25.644267,38.78557,41.813575,43.883807,31.559845,42.567338,45.776581,47.207128,25.109162,49.115605,71.902771,90.509892,51.346676,80.798848,96.741223,108.522641,42.897149,75.872841,95.094075,108.480618,33.422127,64.927025,83.51936,96.437771,24.020749,49.750294,64.591565,76.708065,-14.470814,-16.761248,-12.381526,-12.689969,11.51702,27.965885,36.211986,42.463313,27.743361,43.187942,52.004876,58.100926,39.862732,54.806986,62.082827,66.420892,48.464354,62.085099,66.936311,69.235044,-6.19566,313.246891,-71.227353,301.803391
16,3.320675,-0.489952,0.206257,0.178125,-0.987236,-3.913903,-9.098786,-18.405842,-15.015415,4.22509,20.685871,30.086792,-21.546295,2.814789,21.455383,36.079284,-25.919529,-5.844418,13.904068,27.498138,-28.456146,-29.501461,-26.12669,-22.872586,-10.453542,-10.889389,-6.397195,-2.381553,6.915799,22.748703,29.845357,34.371576,18.609783,34.525742,41.471342,44.205267,25.649157,38.601812,42.182089,44.451589,31.524536,42.0288,45.677879,47.582434,25.037064,48.850926,71.563328,90.216294,51.464516,80.717697,96.63192,108.434899,43.020699,75.729927,94.890839,108.238106,33.526028,64.797123,83.288475,96.13044,24.039345,49.619076,64.397461,76.46196,-14.595315,-16.991465,-12.71005,-12.998857,11.661615,27.837444,35.963687,42.096899,27.866529,43.090784,51.809572,57.83677,39.90508,54.607014,61.783931,66.09343,48.45177,61.9347,66.691804,68.980361,-2.887527,312.77192,-71.033638,301.996497
17,0.89851,-0.438725,0.141918,0.114794,-4.165707,-7.708031,-10.988194,-19.543625,-17.5429,0.501972,17.643196,28.810718,-22.750214,0.207504,20.417209,35.971927,-25.27676,-6.283734,14.473652,28.828983,-25.609349,-24.993874,-18.309471,-12.020886,-7.287672,-5.806799,-0.338701,4.568481,8.738363,23.205521,31.652039,37.247355,18.508846,33.187265,41.781416,45.524886,24.242718,36.322235,41.340431,44.383936,29.371757,39.420364,42.902433,44.657083,25.172001,48.92664,71.566327,90.21745,51.376397,80.639065,96.616299,108.504239,42.943737,75.557991,94.692295,108.08923,33.498059,64.676915,83.125431,95.920979,24.046498,49.520359,64.272686,76.309044,-14.546594,-17.083597,-12.956767,-13.190839,11.631567,27.42978,35.416529,41.468971,27.783524,42.832976,51.45899,57.475604,39.758991,54.340042,61.473252,65.800412,48.293392,61.751314,66.441455,68.638177,-2.001171,312.344223,-70.903874,302.122319
18,3.81681,-1.816067,0.333676,-0.120129,-2.626201,-6.686199,-12.241504,-21.339626,-20.711254,-4.441177,12.97712,24.154736,-26.879367,-5.327602,14.559254,30.577275,-30.163101,-12.540252,8.350743,23.319249,-31.435295,-32.896156,-28.097248,-22.972881,-8.312309,-7.774439,-2.620206,2.258818,9.152807,25.53298,33.487705,38.405249,19.773038,35.182915,43.259461,46.935722,25.918686,38.656104,43.640733,46.862165,31.191986,41.653827,46.091817,49.144238,25.097179,48.744644,71.322635,90.004394,51.124912,80.370918,96.352661,108.262642,42.61726,75.165184,94.310646,107.682197,33.111706,64.299305,82.762184,95.534889,23.611976,49.107124,63.897423,75.929729,-14.433035,-16.982413,-12.938687,-13.141957,11.625404,27.511859,35.475501,41.473886,27.787402,42.940459,51.586109,57.625966,39.782172,54.389812,61.512352,65.845576,48.317363,61.805913,66.444259,68.566398,1.802965,310.534239,-70.582872,302.008273
19,1.749012,2.59059,0.320709,-0.093873,-3.053604,-7.147556,-11.617584,-18.961853,-23.151752,-6.718826,11.232182,23.429741,-28.707103,-8.015236,12.951393,29.879425,-30.497303,-14.026027,7.204789,22.77491,-29.714527,-31.330478,-26.442478,-21.475113,-7.573663,-7.402614,-3.244243,0.543033,6.530514,21.450587,29.950432,35.600805,16.692545,30.936957,39.771959,44.210517,23.080254,35.093538,41.115635,45.204266,28.689094,38.309561,43.264525,47.425231,25.049561,48.618507,71.118656,89.713509,51.124203,80.173279,96.166306,108.150147,42.616756,74.847347,93.937454,107.375381,33.078426,63.972027,82.376678,95.199966,23.480518,48.800663,63.523773,75.560486,-14.382918,-16.974892,-12.982382,-13.074217,11.817337,27.485454,35.380986,41.323104,27.844792,42.840892,51.429806,57.466749,39.743133,54.228162,61.359767,65.715567,48.251439,61.735481,66.364724,68.436586,3.539016,313.117885,-70.275124,301.907456
20,4.366104,-0.524816,0.369736,-0.158019,0.379887,-2.525299,-8.294014,-15.463966,-25.003143,-9.621997,8.694008,20.958161,-33.180988,-13.441177,7.607529,25.486542,-36.950202,-22.286464,-0.706581,15.792641,-38.062751,-43.792316,-42.822189,-40.586242,-11.684809,-14.814492,-12.66375,-10.101973,3.365817,20.581819,28.931105,34.288163,16.49456,31.714344,40.027086,44.770716,25.147027,37.91721,43.622442,47.92605,32.5263,42.20443,47.904833,53.211614,24.945705,48.465694,70.926922,89.499092,51.04018,80.001961,96.012405,108.10128,42.51099,74.576637,93.66101,107.171448,32.91877,63.676437,82.052147,94.968956,23.231884,48.465671,63.158832,75.245556,-14.310127,-16.918674,-12.975812,-12.972638,11.736209,27.439499,35.33198,41.232183,27.704421,42.760258,51.341614,57.336875,39.606418,54.142242,61.279837,65.58925,48.124591,61.679152,66.322622,68.333623,7.887216,312.572052,-69.923292,301.72842
21,-1.219539,2.147728,0.523624,-0.605685,1.097614,-0.676174,-5.079701,-11.180283,-23.597889,-7.000797,12.232189,25.332699,-32.174366,-11.514221,10.211529,28.617245,-35.796444,-20.577484,1.3465,18.399181,-36.189961,-41.397846,-40.316471,-37.821808,-12.387503,-16.248843,-15.150896,-13.284366,0.707561,17.41022,26.952351,33.360401,14.269495,29.124706,37.986717,43.061502,23.479545,35.582712,41.611788,46.028325,31.158925,40.300888,45.740334,50.672018,24.613163,48.13448,70.609921,89.166218,50.679382,79.896938,96.010357,108.137203,42.155354,74.474922,93.709522,107.251637,32.542431,63.525227,82.036595,95.007557,22.851357,48.188839,62.967064,75.136952,-14.434702,-17.05539,-12.999215,-12.839381,11.571743,27.321704,35.324681,41.370738,27.58008,42.71003,51.339688,57.407901,39.509457,54.174217,61.379835,65.74743,48.003461,61.703309,66.425486,68.438389,6.647816,314.682903,-69.419529,301.085858
22,-1.245529,0.014351,0.861374,-2.053041,2.68642,2.093124,-1.180836,-5.871712,-21.737046,-3.617466,16.100155,29.363994,-30.912403,-8.686821,13.280239,31.805317,-35.135434,-19.281201,2.724346,19.808017,-35.997174,-43.095932,-44.908219,-45.042263,-15.065371,-20.065895,-19.963772,-19.257199,-2.432176,15.272915,25.25829,32.49424,12.877925,28.206502,37.202746,42.662137,23.697598,36.287753,42.612453,47.553795,32.589669,42.046597,48.689113,55.160507,24.449192,47.952175,70.224369,88.756336,50.153034,79.365635,95.537098,107.710201,41.644409,73.752995,93.074444,106.722851,32.045631,62.647453,81.227634,94.255291,22.334496,47.496964,62.253056,74.478024,-15.073918,-17.393473,-12.839454,-12.356418,11.087916,27.221249,35.739459,42.320719,27.255718,43.218657,52.398399,59.009818,39.283624,54.57741,62.419848,67.310876,47.911416,62.107774,67.303009,69.656614,5.358673,314.676922,-68.601769,299.012485
23,-2.535897,0.577613,0.940109,-5.031016,-0.59507,-2.200241,-4.77634,-8.782974,-21.391925,-5.088947,10.217274,20.651631,-27.373672,-6.334316,14.083043,31.221623,-29.019378,-13.054699,6.929341,22.266369,-27.521598,-31.992599,-32.838512,-32.92963,-11.302424,-14.133656,-13.584176,-13.161532,-1.155041,14.427651,24.841944,33.02422,10.878781,25.601622,34.849895,40.567279,19.39352,31.983108,38.697625,43.440576,26.279938,36.250222,43.318927,49.802078,24.432919,48.084126,69.787697,87.914601,49.169792,77.588139,93.241299,105.106854,40.502747,71.508248,90.091931,103.510174,30.674103,59.609173,76.97596,89.105015,20.650235,43.08981,55.405323,65.000164,-15.408815,-17.225895,-12.33809,-11.465075,10.340156,27.034442,36.382861,43.891044,26.409836,44.120558,54.518698,62.364285,38.43479,55.983726,65.42902,71.719003,46.920223,62.777815,68.715179,71.284169,2.759061,315.236733,-67.725375,293.963667
24,14.593872,-15.149957,-3.086259,-12.89414,-9.349502,-16.565666,-22.291751,-28.149158,-31.470268,-24.540035,-14.522701,-6.847034,-33.905239,-22.692867,-9.091129,3.088807,-32.814422,-24.788303,-11.265564,-0.749965,-29.209213,-35.310024,-37.228248,-37.952568,-7.600734,-5.763845,-1.669286,1.747636,8.52378,26.744981,37.10108,44.497952,19.443155,37.917174,47.178377,52.403215,26.851549,42.822083,50.247508,54.822016,32.339778,45.508522,53.424332,59.698965,25.354522,49.599729,70.936534,88.159492,50.19465,78.616916,91.27106,100.65414,41.316759,71.367216,86.662845,97.616426,31.159566,58.708082,72.817817,82.160653,20.731149,41.6737,50.750335,56.813592,-15.559721,-17.156346,-12.707402,-12.149011,7.896895,25.579972,34.563162,41.494875,23.978123,43.876107,53.755969,60.828842,36.479642,56.28868,65.482131,71.245723,45.612015,63.255467,68.750302,70.513511,17.292331,300.070872,-70.872236,281.053623
25,14.809937,-20.580251,-7.103531,-20.608842,-16.042305,-26.239311,-31.486565,-36.013058,-36.982727,-37.220409,-33.494053,-30.017658,-35.00441,-32.339527,-25.910957,-19.484562,-30.070667,-28.820355,-22.596153,-17.464222,-22.768261,-29.91394,-32.914089,-35.015442,-5.6893,0.37149,7.995863,13.947973,12.709618,32.903892,45.221173,53.991831,22.9302,45.339277,57.157984,63.792671,30.473766,50.693926,60.808879,66.715725,36.036589,52.668989,62.217331,69.234846,27.222507,52.473032,73.6348,89.374569,53.412569,82.567863,89.683799,94.334358,44.321703,73.414095,82.766235,88.994905,33.758337,59.987966,68.715637,73.381502,22.810907,43.33814,48.269428,49.865953,-15.675145,-17.38234,-14.048163,-14.419339,3.938608,22.747345,30.092186,34.928929,20.056182,42.305423,49.824715,54.102234,33.407349,55.242122,62.280125,65.598907,43.912261,63.353094,67.207666,67.15792,32.044355,279.546363,-78.03368,260.500523
26,24.09938,-26.515355,-9.519768,-27.242392,-25.086307,-41.165096,-49.200325,-54.83567,-51.129249,-61.648143,-61.56142,-59.261112,-44.667137,-53.348705,-50.43711,-45.892833,-35.204532,-43.195541,-40.601692,-37.444622,-23.891029,-32.762352,-35.083351,-36.363555,-1.232674,9.316791,20.987903,30.20719,20.351947,41.650566,52.613327,59.442885,28.737777,53.008999,63.953086,69.149729,35.076259,57.502218,67.240925,72.145982,39.492809,57.991775,67.103419,73.367529,29.236713,53.872587,71.452515,82.191421,54.90513,79.247978,81.858089,83.387409,44.107401,67.075304,71.459598,74.48533,32.000799,52.075727,56.735859,58.749212,19.837629,35.38096,37.411869,36.92518,-14.776009,-19.193171,-19.802419,-22.064293,-5.607772,5.362214,11.732689,16.945239,7.068316,21.912541,28.869509,33.717441,18.052665,33.240833,40.053385,44.39242,27.217803,40.637816,44.518761,45.692451,56.07201,253.428159,-87.625173,233.655282
27,34.909321,-37.925683,-16.085529,-36.336586,-31.960384,-54.991287,-68.781566,-77.398075,-63.192341,-85.347381,-89.646286,-89.222831,-53.310631,-74.155746,-76.259845,-74.248375,-40.823639,-58.785576,-60.736438,-59.533333,-26.98225,-39.278251,-41.377144,-41.564415,-0.09278,12.201245,27.353135,39.823223,19.413891,42.686306,53.621872,58.634721,26.635386,54.101191,64.664451,68.285199,32.801028,58.387003,67.198095,69.793971,37.423652,57.907745,65.531266,69.105355,29.860004,53.653146,69.509445,76.814701,48.271036,65.432601,64.421379,63.659374,35.573827,50.521596,50.77827,51.110155,22.562227,35.262228,36.013298,35.565942,10.098741,19.31199,18.659614,16.427106,-13.812505,-22.296659,-27.653464,-33.390516,-22.212772,-20.275217,-17.282199,-13.489569,-12.184949,-6.921739,-3.305777,0.088204,-1.907538,4.802033,8.749212,11.851609,7.877963,14.682099,16.526905,17.25795,91.041847,216.414097,-103.650186,198.230317
28,35.073143,-44.095377,-22.323658,-40.962648,-35.032539,-59.953857,-74.676796,-81.445484,-68.153354,-92.312084,-94.762253,-93.090065,-57.226341,-81.76189,-85.044353,-83.925499,-43.722885,-65.355571,-68.69038,-68.409004,-28.965751,-43.895851,-46.992576,-47.939506,-2.484935,6.145161,17.019316,25.970396,9.133535,26.313407,37.641675,42.782199,15.551169,36.776063,47.994631,52.202008,21.677835,41.716757,51.406082,54.88121,26.838804,42.123822,50.300725,54.300633,30.401584,52.744897,66.291423,70.502243,41.087247,52.027851,47.645324,44.174148,27.004709,34.292615,30.544452,27.461591,13.436502,19.358282,16.652893,13.798524,1.020452,5.636632,3.675373,1.26721,-14.862694,-29.225723,-40.194652,-49.527387,-40.62044,-48.963131,-51.715161,-52.324829,-33.395049,-40.345379,-43.330394,-44.930008,-24.306555,-29.055959,-31.234433,-32.402825,-14.122641,-15.769771,-17.450796,-18.361559,126.072395,173.171296,-126.016439,158.120245
29,24.865792,-39.899892,-23.352042,-43.440205,-33.568245,-56.436333,-69.284707,-74.332306,-58.544609,-77.00924,-78.905343,-77.488015,-46.296547,-64.674706,-67.276669,-65.77866,-32.297219,-48.397934,-51.356232,-50.523354,-17.708771,-29.019196,-32.030457,-32.694809,-6.303433,-5.400741,-1.237003,3.161195,-12.801664,-6.403753,4.445745,11.19982,-8.298941,0.354595,11.529567,17.590068,-2.306428,6.348041,15.360785,20.314304,4.281211,10.387598,16.492534,20.545059,29.393257,49.186558,59.448235,61.580509,30.684826,34.415177,28.779602,24.393803,15.391674,15.05595,9.687058,5.064434,1.402405,0.027855,-4.203243,-7.901058,-10.888836,-12.306804,-14.981689,-17.131427,-16.644212,-36.613239,-52.504615,-64.772483,-57.977968,-76.455562,-83.868514,-87.646824,-53.593429,-72.775417,-81.01541,-86.220383,-45.946937,-62.081412,-68.961304,-73.12451,-35.69648,-46.142723,-50.903032,-53.503027,150.335375,134.090106,-149.971293,115.498742
30,25.94268,-40.855036,-25.049743,-44.262559,-31.199707,-51.71521,-61.884842,-64.573586,-47.460983,-58.959641,-57.353073,-53.442604,-34.268395,-45.309013,-43.902237,-39.528603,-20.38195,-29.819801,-29.074265,-25.995712,-6.396652,-11.69529,-11.395042,-9.483604,-10.047292,-17.188048,-21.018859,-23.080421,-33.290969,-40.437109,-36.476413,-34.05279,-30.739324,-37.043653,-33.242896,-31.773119,-25.585061,-30.613409,-28.438671,-28.081815,-18.442434,-22.31248,-21.77385,-22.036722,27.147777,43.697902,50.381836,51.599338,17.889587,13.554794,9.074936,5.722057,1.522407,-6.312138,-10.6073,-14.451199,-12.803856,-21.300648,-24.786141,-27.441079,-24.959153,-33.568051,-36.229752,-37.401307,-18.670373,-43.852839,-64.183576,-78.81998,-73.703057,-103.119965,-114.09573,-119.742447,-72.299402,-104.221944,-115.784715,-122.463389,-66.687191,-94.267108,-104.058207,-109.523665,-57.183278,-76.703966,-83.480623,-87.050686,175.455322,94.300978,-175.843769,72.302091
31,31.444267,-47.528372,-27.863469,-44.152835,-28.246536,-45.751922,-52.776306,-52.723846,-34.076454,-39.648994,-37.043381,-32.819755,-20.020912,-24.951919,-22.897568,-18.89106,-6.406242,-9.964668,-8.603851,-5.879333,6.741097,6.398735,8.037552,10.472603,-14.604763,-29.509929,-40.852696,-48.361774,-55.215379,-73.546942,-74.112277,-73.924055,-54.04025,-72.924829,-73.504332,-74.098506,-48.88522,-64.97928,-66.65262,-68.422415,-40.164203,-52.047508,-54.764613,-57.0749,25.026593,39.431557,45.69294,49.754323,6.817852,-0.576679,-5.122077,-9.079742,-9.283916,-19.784168,-24.141975,-28.598075,-22.953735,-34.082164,-38.094932,-41.350742,-34.388568,-45.831298,-49.725357,-52.069049,-21.332224,-49.299948,-71.567379,-87.679778,-83.995399,-115.207012,-130.321136,-140.218019,-81.923883,-116.54285,-133.159675,-144.607069,-74.904609,-105.055343,-119.784617,-129.995146,-63.30748,-84.127996,-94.624386,-102.212481,205.945106,47.767918,-204.661721,29.144568
32,25.769989,-40.740823,-24.267334,-35.953585,-25.418129,-38.104294,-41.124824,-38.457756,-20.086715,-17.833282,-13.925766,-9.77362,-4.958633,-1.968841,1.388924,5.171494,9.007279,13.230904,15.561447,17.501839,21.838532,28.074463,30.776711,32.858116,-17.672054,-38.983711,-57.935351,-71.372657,-70.299099,-100.750376,-107.134423,-109.503771,-71.028655,-103.661071,-109.71162,-112.596744,-66.805705,-95.285853,-101.156116,-104.568709,-57.783482,-78.298608,-83.945523,-87.597788,23.149956,35.256134,39.531086,44.798653,3.48174,-4.251251,-9.931961,-15.859462,-11.921653,-22.301891,-27.745536,-34.20885,-25.178455,-37.006382,-41.938282,-46.677337,-36.445896,-48.902195,-54.489601,-59.069423,-26.284656,-56.037962,-79.287066,-95.953159,-87.746066,-119.314773,-136.738979,-150.278729,-85.505981,-120.615505,-140.218519,-155.305843,-78.504277,-109.554552,-127.315175,-141.010446,-66.788035,-88.371441,-101.280179,-112.216016,230.6649,8.120877,-229.97925,-5.715235
33,26.701493,-38.793868,-22.907535,-34.491748,-21.356209,-29.651253,-29.300446,-26.458054,-6.156189,0.5904,4.376266,8.29795,9.360786,16.623848,19.783264,22.767791,22.935447,30.76847,32.832069,34.066429,34.675025,44.421455,47.48513,49.552574,-24.615595,-50.545615,-71.606871,-86.123417,-81.997172,-115.517311,-127.309608,-132.971349,-79.462178,-116.487876,-128.317764,-134.715672,-71.825415,-104.457921,-116.168547,-123.151049,-59.239428,-81.968945,-92.402101,-99.594214,21.475868,32.115623,35.287353,41.752087,1.244476,-7.307133,-13.733379,-20.319992,-13.873764,-24.154701,-29.853413,-36.410168,-26.940376,-38.863289,-43.691895,-48.393047,-38.154877,-50.816197,-56.674152,-61.566673,-27.311559,-57.250752,-81.029336,-97.879541,-88.18087,-119.758209,-137.151704,-150.763273,-85.580267,-120.328372,-139.906161,-155.002896,-78.192729,-109.260608,-127.306292,-141.493082,-65.900901,-87.717649,-101.423848,-113.693389,256.510397,-29.140161,-253.742781,-38.674153
34,27.387451,-32.840481,-19.878651,-25.89716,-17.918175,-23.947884,-21.702805,-19.019875,-0.56733,6.987442,13.553787,19.789261,14.650543,22.774269,28.790359,33.733703,27.976547,36.901382,42.060425,45.20771,39.536453,50.646995,56.797325,61.289428,-28.212874,-55.213578,-77.396136,-93.530308,-85.645392,-119.397645,-135.757778,-146.357963,-82.505105,-119.846623,-137.134225,-149.163874,-74.588372,-107.628542,-124.235336,-136.642834,-61.677402,-84.118406,-97.58291,-109.012498,19.73473,29.414704,32.652066,40.373188,-0.967689,-9.702598,-16.468815,-23.520824,-15.847687,-25.611625,-31.205864,-37.613548,-28.473621,-39.712051,-44.114422,-48.483341,-39.47327,-51.767097,-57.591488,-62.554092,-28.948192,-58.857794,-82.853485,-99.9171,-88.277981,-119.662495,-136.917558,-150.753883,-85.346248,-119.079081,-138.304086,-153.130709,-77.799353,-108.106922,-126.080064,-140.463659,-65.450123,-86.763167,-100.36732,-112.924701,283.670821,-60.195228,-273.848459,-62.785899
35,22.432136,-25.15576,-15.759155,-19.124881,-15.651901,-19.259422,-15.95977,-14.772743,4.972801,12.693856,19.44738,26.105347,19.658867,27.969109,34.059197,39.071114,32.444481,42.063149,47.347847,50.756058,43.320465,54.522286,60.765175,65.428208,-32.232915,-60.476266,-83.994392,-101.456961,-88.691107,-121.067203,-137.859164,-149.521002,-85.009282,-121.321426,-139.378673,-152.53954,-76.785769,-109.26074,-126.500865,-139.674843,-63.76262,-85.867563,-99.303088,-110.930308,18.02227,26.94619,30.186916,38.492752,-3.043865,-11.728455,-18.723907,-26.031246,-17.781624,-27.066044,-32.604973,-38.965004,-29.979149,-40.790176,-44.948502,-49.076923,-40.696804,-52.485558,-58.084019,-63.033714,-30.417783,-60.370234,-84.29708,-101.645006,-88.364919,-118.921456,-135.969417,-149.829754,-84.941566,-117.497356,-136.556151,-151.24181,-77.039761,-106.599591,-124.432758,-138.851754,-64.53065,-85.385697,-98.933857,-111.664983,306.154112,-83.816799,-289.556459,-80.376591
36,18.349526,-20.51411,-11.558018,-14.321161,-14.495568,-16.791046,-13.187783,-13.972252,7.51815,15.867416,22.396614,28.786171,22.065353,31.168785,37.089203,41.982788,34.369697,44.525459,49.59835,52.741813,44.659515,55.417717,61.442207,65.925522,-33.551145,-63.049079,-87.755839,-106.445475,-89.021917,-121.285737,-138.162828,-150.327488,-84.990448,-121.148228,-139.424739,-152.9822,-76.363724,-108.959284,-126.487593,-140.048366,-62.930672,-85.037598,-98.596247,-110.611364,16.110981,24.766274,28.452725,37.560505,-5.033066,-13.226772,-20.360447,-27.845855,-19.431015,-28.220936,-33.855125,-40.461159,-31.052913,-41.288292,-45.523556,-49.973087,-41.380245,-52.395721,-57.830028,-63.183758,-31.50858,-61.515075,-85.544655,-103.155823,-88.382877,-118.087428,-135.062304,-149.046389,-84.706569,-116.283214,-135.041921,-149.609369,-76.634478,-105.600877,-123.14922,-137.722521,-63.973405,-84.496294,-97.961434,-110.861194,324.698691,-102.972474,-300.919424,-93.339317
37,11.913048,-16.507957,-8.655075,-14.31776,-13.583748,-15.117806,-10.639664,-12.247582,9.159004,17.506324,24.017051,30.555747,23.346679,32.149314,37.904937,43.143951,35.123634,44.849349,49.666488,52.995849,45.078712,55.159172,60.862449,65.275177,-33.729116,-63.816988,-89.338912,-109.674754,-88.219068,-119.378322,-136.452709,-149.677189,-83.697243,-118.528908,-137.20815,-151.706845,-74.893428,-106.680212,-124.489819,-138.68121,-61.626457,-83.442683,-96.960932,-109.354644,15.364689,24.136299,28.428108,38.706562,-5.855907,-13.654918,-20.465343,-27.080406,-20.142036,-28.888916,-34.153782,-39.824009,-31.694904,-41.452961,-45.282783,-48.993873,-42.022671,-52.528953,-57.41621,-62.215977,-29.794231,-59.78518,-84.450162,-101.673331,-87.323381,-116.868008,-133.694589,-147.252957,-83.813201,-115.290461,-133.782741,-148.199196,-75.934262,-104.766508,-121.98528,-136.376774,-63.262735,-83.937294,-96.994459,-109.62248,336.706885,-118.773672,-309.479353,-106.950318
38,4.716293,-13.230896,-2.446712,-10.963622,-12.917633,-14.262543,-9.193222,-11.518685,9.992523,17.449447,23.437774,29.603256,23.590004,31.7826,37.092979,42.43911,34.746139,44.149612,48.742493,52.195473,44.606048,54.030784,59.434982,63.930633,-33.636453,-64.105138,-90.09998,-111.173011,-87.492588,-117.227443,-134.791981,-149.676664,-82.993533,-116.056567,-135.550994,-151.877252,-74.360822,-104.932411,-123.300941,-138.874568,-61.161619,-82.261405,-96.160434,-109.597571,15.12529,24.000583,29.131874,40.150108,-5.930031,-13.183045,-19.66428,-25.856953,-20.108197,-28.333374,-33.324978,-38.481686,-31.574444,-40.7864,-44.376641,-47.752499,-41.881646,-51.737812,-56.542797,-61.499588,-30.228222,-59.919076,-84.518807,-101.664004,-87.122282,-115.921376,-133.051556,-147.116106,-83.699577,-114.251484,-133.018262,-148.002736,-76.140589,-104.16258,-121.572425,-136.421711,-63.760171,-84.356428,-97.396217,-110.306834,341.400353,-131.707799,-311.94889,-117.617171
39,-0.908226,-13.791745,2.120441,-12.134869,-13.754791,-15.187592,-10.115662,-12.853295,8.95047,15.595299,20.873611,26.312805,22.240722,29.632004,34.321174,38.888672,33.079605,41.917946,45.617111,48.175026,43.047409,51.663116,56.007133,59.493576,-31.850075,-62.404049,-88.348567,-109.412989,-85.770592,-115.332294,-132.983816,-148.233976,-81.489481,-114.238826,-133.796493,-150.282325,-73.091264,-103.383515,-121.774273,-137.183368,-60.106094,-81.134776,-95.256896,-108.765579,15.962757,25.434574,31.24466,42.713493,-3.787777,-10.478428,-16.492435,-21.857174,-18.210239,-25.930504,-30.628258,-34.869415,-30.093212,-38.701286,-42.181274,-44.992126,-40.707298,-49.998585,-54.716549,-59.338383,-29.295118,-58.362899,-82.884479,-99.825023,-86.434809,-115.051063,-132.523176,-146.682337,-83.152982,-113.67356,-132.674001,-147.872705,-75.960321,-103.825448,-121.469089,-136.402289,-63.90779,-84.873138,-98.08293,-111.094254,340.399201,-145.517134,-309.921375,-129.76963
40,-6.833542,-12.926983,7.299832,-12.882689,-14.777527,-17.344322,-13.059975,-16.188583,6.336662,12.001945,16.465942,20.707237,19.690475,26.1828,29.924561,33.320618,30.516197,38.529282,41.331436,42.810173,40.903839,48.591682,51.993256,54.410294,-29.045414,-59.237994,-84.570743,-104.996406,-84.090224,-113.3538,-130.963734,-146.436274,-80.575986,-112.532388,-132.001049,-148.805577,-72.667535,-102.021508,-120.334034,-135.614652,-59.976254,-80.737496,-95.196083,-108.995176,17.527164,28.044147,35.013473,47.084575,-0.544087,-6.473992,-11.728959,-16.099537,-15.196187,-22.231259,-26.404267,-29.584408,-27.592976,-35.228234,-38.46016,-40.51426,-38.65828,-47.430668,-52.03846,-56.050152,-28.007878,-56.050599,-80.077583,-96.251332,-85.381369,-113.887952,-131.728279,-146.178586,-82.592063,-113.02221,-132.262093,-147.589202,-76.026506,-103.468271,-121.286025,-136.142923,-64.54649,-85.573156,-98.714521,-111.603819,333.439322,-158.653096,-302.74788,-142.861298
41,-12.906097,-8.266373,11.726451,-12.600005,-14.920304,-18.263466,-15.021927,-18.411599,4.2705,8.551666,11.815521,14.785102,16.957603,21.647392,23.831497,25.573196,27.396423,34.071487,35.434387,35.689682,37.838584,44.518936,46.543579,47.724998,-28.65915,-58.347708,-82.637183,-102.497219,-84.229061,-112.752031,-130.546696,-146.326294,-81.540171,-112.296253,-132.002523,-149.317529,-74.45637,-102.777179,-121.175158,-136.441103,-62.5981,-83.168352,-97.903822,-111.964345,19.847443,31.684674,39.746121,52.232895,4.352955,-0.350052,-4.231876,-7.107845,-10.571457,-16.324539,-19.440445,-21.187854,-23.546173,-29.855495,-32.331653,-33.316806,-35.130798,-43.194294,-47.417598,-50.485851,-26.394377,-52.851857,-76.075264,-91.922375,-83.855601,-112.391237,-130.632737,-145.633635,-81.926631,-112.265434,-131.928159,-147.640996,-76.301063,-103.348676,-121.480592,-136.440909,-65.623614,-86.537826,-99.764146,-112.684897,320.484198,-167.286538,-291.070456,-155.828372
42,-16.489907,-6.1941,16.359501,-11.481934,-15.690971,-19.90345,-18.114807,-22.526344,0.728623,3.339821,4.751381,5.743241,12.866455,15.640023,15.921593,15.568817,22.86882,28.28595,28.238983,27.014672,33.263947,39.20874,40.152718,40.033333,-28.304882,-57.22056,-80.357835,-99.16531,-84.18436,-112.482498,-130.946565,-147.212735,-82.507744,-112.811326,-132.897831,-150.540785,-76.457224,-104.381739,-123.153058,-138.490487,-65.628188,-86.367583,-101.705363,-116.032651,22.044777,35.171906,44.068703,57.157299,9.432793,6.36422,3.956543,2.254303,-5.565479,-9.52296,-11.459232,-12.037079,-18.927795,-23.551162,-25.130619,-25.172344,-31.058738,-38.079723,-41.700748,-43.718055,-24.909504,-49.632196,-71.635112,-86.798054,-82.064878,-110.497984,-128.969627,-144.209693,-81.271083,-111.519556,-131.340358,-147.016643,-76.761072,-103.50569,-121.896265,-136.823879,-67.073714,-88.021709,-101.34248,-114.054817,304.050922,-173.778599,-274.654324,-167.608267
43,-22.244339,-4.528244,19.168591,-9.577661,-17.91703,-24.499786,-24.987556,-30.741623,-5.756515,-5.10569,-4.782783,-4.42614,6.746681,7.53653,6.693466,5.380966,17.358032,20.93573,19.922676,17.790138,28.530098,33.020462,33.087731,32.069344,-26.4517,-55.436634,-78.550946,-96.247794,-84.050754,-113.294505,-132.030538,-148.487073,-83.503655,-114.972399,-135.260193,-152.687274,-78.401849,-107.48676,-126.208274,-141.080555,-68.466082,-90.480824,-106.160165,-120.193353,23.737564,38.007511,47.727356,61.950474,15.427585,14.641834,13.870685,13.356182,0.504513,-0.984581,-1.516365,-1.18491,-13.150131,-15.518635,-15.879524,-14.958756,-25.994202,-31.603626,-34.194626,-35.078568,-22.824802,-45.792933,-66.794865,-81.372805,-79.823382,-108.287624,-126.982022,-142.650425,-80.486494,-110.724683,-130.715634,-146.492974,-77.262049,-103.933155,-122.529594,-137.65564,-68.674511,-89.696887,-103.064345,-115.731969,281.787437,-178.522401,-255.504879,-177.401486
44,-23.369476,-1.192067,21.296791,-7.369597,-20.000656,-28.739548,-31.51339,-39.139092,-12.230324,-13.84243,-15.237236,-16.429207,0.191437,-1.483246,-4.109711,-6.857254,11.067764,12.686829,10.342918,7.35981,22.707573,26.21537,25.338844,23.494766,-25.129195,-53.81588,-76.13813,-92.59098,-84.074398,-113.270027,-132.211067,-148.706095,-84.865512,-116.327756,-136.494158,-153.957881,-80.845718,-110.199929,-128.86473,-143.736982,-71.856483,-94.370841,-110.187866,-124.366965,24.712543,39.85358,50.264259,65.37894,21.299538,22.949604,23.969353,24.723335,6.977966,8.229,9.354607,10.66539,-6.60957,-6.499317,-5.318802,-3.323353,-19.962181,-23.929642,-25.409145,-25.307945,-20.137708,-41.244758,-61.092483,-74.532704,-77.243618,-105.508267,-124.127915,-140.027726,-79.556969,-109.548294,-129.459709,-145.294185,-77.739446,-104.220167,-122.694834,-138.023814,-70.434669,-91.446029,-104.69234,-117.433808,258.359694,-179.61652,-234.266355,-184.673135
45,-23.756653,1.774731,22.075699,-4.539711,-21.920013,-32.87796,-37.603912,-46.356445,-19.19696,-22.999695,-26.295113,-29.141693,-7.075333,-11.217316,-15.69136,-19.884178,3.855538,3.463921,-0.292419,-4.25766,15.841759,18.335014,16.351959,13.584526,-23.504581,-51.380878,-72.864137,-88.597782,-83.431335,-112.667634,-131.690533,-148.258903,-85.489239,-117.000179,-136.903407,-154.222843,-82.546039,-112.330809,-130.876339,-145.592147,-74.436057,-97.558142,-113.41466,-127.494188,25.034649,40.617702,51.424095,67.467178,27.132568,31.605285,34.297748,36.193039,13.572864,18.032627,20.697853,22.96574,0.331638,3.115803,5.877708,8.89809,-13.286774,-15.144356,-15.414471,-14.421833,-17.179975,-36.452954,-55.22399,-67.543783,-73.930917,-102.159636,-120.638115,-136.554927,-77.80348,-107.657689,-127.462048,-143.432506,-77.436408,-103.913289,-122.299445,-137.85104,-71.654822,-92.750025,-106.018469,-118.958399,234.415518,-177.621309,-212.378179,-188.992366
46,-23.792908,4.697413,22.702526,-2.000782,-24.795364,-38.702041,-46.056656,-57.69992,-27.038658,-33.072441,-38.025283,-42.184455,-14.987846,-21.584564,-27.786232,-33.265022,-3.69413,-6.49546,-11.928154,-17.053253,9.004647,9.770417,6.569344,2.692772,-21.65562,-49.125235,-70.174107,-84.885968,-82.904351,-111.860129,-130.756446,-147.376351,-85.801571,-116.911441,-136.395161,-153.232507,-83.714693,-113.617452,-131.905367,-146.181128,-76.61606,-100.348989,-116.097023,-129.847377,24.595218,40.310898,51.601879,68.720043,32.518398,39.461986,43.398685,46.079521,19.854229,27.205112,31.247085,34.451946,7.075058,12.276134,16.596496,20.782196,-6.749359,-6.561024,-5.711334,-3.873184,-14.302321,-31.692571,-49.251965,-59.433462,-70.289675,-98.09669,-116.138121,-131.72201,-75.65532,-104.839375,-124.315931,-140.052089,-76.674163,-102.728763,-120.647426,-135.90774,-72.459886,-93.344269,-106.461186,-119.447791,210.01958,-172.542819,-190.278683,-190.612071
47,-23.496116,7.05466,21.280495,0.590455,-27.030144,-43.296295,-52.164047,-64.182976,-35.444023,-44.082276,-50.385178,-55.505608,-23.347069,-32.757271,-40.373612,-46.742226,-11.502709,-16.917389,-23.645829,-29.564072,2.123131,1.030815,-3.446137,-8.239495,-19.514019,-45.778078,-66.204801,-80.279315,-80.835802,-109.486196,-127.802172,-144.049779,-84.926325,-115.467077,-134.433764,-150.920401,-83.902742,-113.722594,-131.657131,-145.644763,-77.817175,-101.870643,-117.397724,-130.992109,24.178024,39.854026,50.93938,67.127872,37.659233,47.724266,53.145916,56.665775,26.226676,37.378417,42.845169,46.903518,14.17361,22.552036,28.377559,33.460018,0.475135,3.234901,5.377613,8.01575,-12.233405,-28.135436,-44.744302,-53.888232,-66.139113,-93.344966,-110.915774,-126.010828,-72.450324,-100.773009,-119.967653,-135.4676,-74.568257,-100.207732,-117.386565,-132.078187,-72.025792,-92.541181,-105.281935,-117.934239,186.120117,-165.156124,-169.401535,-189.689581
48,-22.08442,9.418722,22.699882,6.492926,-28.427261,-47.9813,-59.175224,-71.636764,-42.640914,-54.332405,-62.403259,-68.954864,-30.532218,-43.256698,-52.802398,-60.400588,-18.355499,-27.084297,-35.521911,-42.218421,-4.102958,-7.569602,-13.701896,-19.43692,-16.34726,-40.095848,-59.019456,-72.708387,-77.290127,-106.416407,-124.091513,-139.114718,-82.881416,-113.725579,-131.767385,-146.512942,-82.967992,-112.985309,-129.613099,-141.445453,-77.952063,-102.400362,-117.017643,-129.009493,26.384434,45.554066,59.193008,74.769608,44.633835,57.712956,64.30901,68.155415,32.660099,46.398926,53.18327,57.57185,20.072662,31.140278,38.309418,43.646553,5.918873,10.789169,14.150196,17.354565,-9.577307,-23.894847,-38.646267,-46.613197,-65.139562,-93.715795,-110.11438,-123.052721,-72.15841,-102.176006,-119.287377,-131.588421,-74.497042,-101.888124,-116.781968,-128.4934,-72.371085,-93.633545,-106.320947,-118.377687,163.439443,-155.336848,-147.297907,-182.796101
49,-20.568351,11.745528,21.010368,9.411204,-30.250534,-52.849068,-66.670899,-81.283825,-48.900605,-63.462044,-73.579422,-81.81538,-36.500725,-52.098542,-63.608666,-72.65641,-23.863198,-35.600418,-46.323578,-54.743271,-9.2566,-15.539887,-23.505135,-30.557968,-12.567358,-35.0166,-53.597178,-66.5593,-73.749521,-104.006597,-121.779819,-136.752017,-80.387576,-111.930631,-130.266386,-144.694686,-81.45403,-112.245767,-128.832247,-140.104043,-77.638589,-103.060192,-117.15586,-128.002033,28.829808,50.373207,66.17529,82.092888,49.511582,65.541767,73.350792,77.417084,36.724652,53.301522,61.582833,66.281708,23.66652,37.279232,46.05391,51.701329,9.575581,17.247769,22.790726,26.864788,-6.885615,-20.025939,-33.380821,-40.062309,-63.147143,-94.350319,-108.04655,-116.737462,-71.088175,-103.599226,-117.641292,-125.905825,-74.074253,-103.89825,-115.705811,-123.377498,-72.582132,-95.611889,-106.731482,-115.860258,142.324957,-142.856478,-126.833674,-172.650055
50,-18.933403,13.870059,19.180727,13.047545,-31.551293,-56.290924,-71.506714,-86.887242,-54.384133,-71.135971,-82.208519,-91.201435,-41.79998,-59.91964,-72.290245,-81.819077,-28.830231,-43.275673,-55.419228,-65.028832,-13.936661,-23.265724,-32.707421,-40.737946,-8.91503,-30.078178,-48.619671,-61.837949,-70.051038,-101.350103,-119.339402,-134.482378,-77.391757,-109.879192,-128.861622,-143.753932,-79.431975,-111.215062,-128.51459,-140.482048,-77.139059,-103.277411,-117.609495,-128.726238,31.004673,54.61022,72.13682,87.683466,52.890027,70.806603,79.542513,83.950671,39.561894,57.943894,67.505343,72.613156,26.342606,41.767014,51.848025,57.905877,12.635048,22.499215,29.903122,34.896559,-4.484007,-16.790937,-29.258769,-35.327148,-61.526494,-94.848681,-106.267898,-111.389309,-70.225164,-104.799489,-116.208673,-121.076119,-73.688972,-105.501394,-114.727106,-119.053976,-72.536891,-97.105754,-106.866735,-113.472607,122.936749,-127.932815,-108.107752,-158.548906
51,-16.585053,14.953205,17.504746,16.176876,-32.884483,-59.07447,-74.707306,-89.109478,-60.010643,-78.813011,-90.04351,-98.888477,-46.467659,-66.009727,-77.98455,-86.85926,-32.395752,-47.851181,-59.381492,-68.702636,-16.490455,-26.374191,-35.698288,-43.643165,-4.650426,-23.264409,-40.858605,-54.530094,-65.305716,-97.124469,-115.028223,-129.591921,-74.046077,-107.835371,-127.030876,-141.949002,-77.304976,-110.394157,-127.781461,-140.032947,-76.172591,-103.082893,-117.372466,-128.53018,32.925041,58.280439,76.852014,91.013963,54.58905,73.854023,83.298231,88.057142,40.992759,60.738155,71.371221,76.927986,27.966968,45.010391,55.989927,62.35437,14.968208,26.712833,35.65583,41.530168,-2.469789,-14.35479,-26.169863,-32.420218,-59.930982,-95.344937,-105.171899,-107.561747,-69.114398,-105.950297,-115.365619,-117.659743,-72.944983,-106.829962,-114.277565,-116.21442,-72.048489,-98.252909,-107.007926,-111.671661,106.200845,-111.495485,-90.753857,-140.887905
52,-14.969513,16.364109,16.571085,18.693467,-34.237037,-62.04364,-79.012813,-95.14096,-63.381752,-83.433643,-95.061035,-103.613239,-48.95684,-69.230438,-80.964557,-88.644458,-33.849769,-49.64273,-60.683967,-69.003502,-17.131073,-26.897964,-35.660202,-42.870781,-0.758813,-18.086992,-35.451189,-49.511773,-61.896624,-93.733988,-111.061697,-124.195877,-71.703278,-106.213089,-124.727196,-138.199399,-75.747587,-109.373493,-126.038529,-137.106406,-75.491474,-103.139456,-116.779322,-126.931344,34.239132,61.174827,81.082626,94.866153,55.255154,74.401485,83.882366,88.867573,41.32798,60.774067,72.046875,78.229832,28.609062,45.98846,57.481373,64.352783,16.43779,29.170944,39.060127,45.677444,0.661736,-10.494921,-21.874787,-28.005838,-58.545078,-95.8276,-104.629258,-105.203572,-68.49441,-107.408114,-115.311854,-115.770579,-72.854643,-108.295818,-114.70899,-115.132459,-72.072855,-99.558513,-107.7715,-111.357417,90.712509,-93.102943,-74.701595,-120.166005
53,-9.459205,17.291814,13.369263,17.555983,-35.087609,-62.308251,-79.018753,-96.560761,-65.693058,-86.572003,-99.071194,-108.781414,-51.113388,-72.223584,-84.468865,-92.707615,-35.464829,-50.630608,-61.564408,-70.014988,-18.195374,-25.866509,-33.49363,-40.24276,1.932337,-14.218434,-31.168527,-45.211734,-58.100024,-87.314267,-104.372062,-117.57887,-68.490213,-100.535769,-118.806209,-132.961186,-73.429169,-105.132556,-122.605326,-135.40802,-74.436685,-100.943158,-114.99288,-126.423258,32.365856,56.790485,74.683971,87.093791,51.824398,70.07307,79.602108,85.399761,39.77251,59.246654,70.944309,78.4062,29.14484,46.597232,58.298778,66.30434,19.001064,32.534389,42.93127,50.446682,2.942912,-7.865633,-19.835765,-26.171749,-53.999788,-90.647906,-99.492835,-100.499577,-64.627271,-102.68617,-111.265844,-113.46122,-70.107599,-104.590321,-111.97815,-113.853603,-70.408519,-97.866622,-105.495263,-108.687517,81.013207,-74.81884,-61.572429,-101.617733
54,-7.736412,15.203865,12.91337,19.152187,-34.493843,-61.526139,-78.040089,-94.980034,-68.289185,-89.843926,-102.325436,-112.336258,-53.915474,-76.046643,-88.202511,-96.97752,-37.989464,-53.528046,-63.649727,-71.977055,-19.987267,-26.230683,-32.582497,-38.963402,4.880395,-8.788609,-24.744137,-38.710397,-52.540964,-78.933782,-94.884602,-107.045608,-63.6937,-93.244363,-110.427264,-123.750579,-69.581015,-99.151426,-116.157048,-128.84623,-71.633522,-96.693441,-111.096389,-123.279807,30.106601,52.73097,68.491258,78.000154,48.896885,65.394802,74.52424,81.085081,39.178047,57.423706,68.891287,77.501449,30.899276,47.773418,58.942194,67.863178,22.645626,35.79998,45.474586,53.598089,4.817157,-5.802579,-18.471764,-26.06356,-50.290092,-84.960239,-96.048015,-100.426193,-61.142248,-97.493681,-108.368454,-113.833485,-67.19994,-99.906706,-109.757602,-114.785086,-68.198344,-94.515806,-103.49823,-109.164679,72.964823,-59.602029,-48.971031,-82.4526
55,-6.309677,12.807005,12.91337,19.152186,-33.649659,-61.23864,-78.936287,-96.985051,-70.234955,-92.785435,-105.801774,-116.333474,-56.252793,-79.341557,-92.360848,-102.110642,-40.327309,-57.139012,-67.917698,-76.654931,-22.094948,-29.127411,-35.834038,-42.777226,7.388276,-4.066283,-18.779443,-31.188095,-47.201574,-70.708128,-85.311232,-96.222363,-59.282288,-86.161245,-101.832984,-113.616133,-65.957656,-92.908475,-108.239139,-119.314091,-68.773129,-91.877428,-105.065859,-115.986484,27.847347,48.671455,62.298546,68.906517,45.969372,60.716533,69.446373,76.770401,38.583584,55.600757,66.838264,76.596699,32.653713,48.949604,59.585609,69.422016,26.290188,39.065571,48.017902,56.749496,6.691403,-3.739523,-17.107761,-25.955371,-46.580394,-79.27257,-92.603195,-100.352807,-57.657224,-92.301192,-105.471062,-114.205748,-64.29228,-95.22309,-107.537054,-115.716567,-65.988168,-91.164989,-101.501195,-109.64184,66.344954,-47.28334,-36.367853,-63.78873
56,-4.724259,10.003888,13.608707,16.797102,-32.347755,-60.759132,-79.723251,-99.086162,-71.278061,-94.562267,-108.453804,-119.942734,-58.392013,-82.951446,-97.473392,-108.668335,-43.203552,-62.382889,-74.658165,-84.379795,-25.410507,-35.432785,-43.487537,-51.46241,9.463658,-0.309808,-14.597896,-25.088303,-42.274283,-64.052616,-77.731354,-88.024549,-54.936813,-79.488916,-94.052105,-105.02034,-62.326238,-86.603295,-100.841693,-111.030449,-66.167716,-87.09518,-99.16043,-109.001142,27.262299,47.038777,58.684101,64.062298,42.847435,56.70987,65.549732,73.784901,34.253701,49.576103,60.74802,71.112145,27.110893,40.797913,50.56271,60.381501,19.926728,28.407463,34.842213,42.212563,5.87461,-4.983314,-19.213421,-28.392509,-46.222357,-76.532093,-90.623276,-100.504316,-56.416029,-89.214927,-103.969369,-115.176577,-61.473508,-91.093536,-105.437981,-116.400561,-61.38304,-85.587494,-97.34222,-107.390768,61.328602,-38.470204,-23.051239,-48.18238
57,-2.265633,6.401955,8.937298,12.220297,-30.852447,-60.143737,-80.241611,-100.165374,-72.843738,-96.906635,-111.349582,-123.881904,-61.038837,-87.025634,-102.869922,-116.134471,-46.761154,-68.382854,-82.289188,-93.965549,-29.596687,-42.874969,-52.560688,-62.274639,11.221007,3.142781,-10.369073,-18.488067,-37.550043,-58.200393,-71.569731,-82.334294,-50.698669,-73.634933,-88.010574,-99.629485,-58.837491,-81.239036,-95.19768,-105.814811,-63.631527,-82.607299,-94.230956,-103.976822,27.535189,47.27964,58.131798,62.903137,42.171072,55.741568,64.752766,73.620701,32.70682,47.284155,58.539654,69.407438,24.55715,37.038935,46.511616,56.598147,16.477587,22.634096,27.728382,34.599649,5.861301,-5.036697,-19.755524,-29.013328,-45.420976,-73.904028,-88.482086,-99.761834,-55.307649,-86.478065,-102.356787,-115.240332,-59.64683,-87.996944,-103.711178,-116.533329,-58.82255,-82.299225,-95.049442,-106.413364,58.939653,-33.83382,-14.237257,-37.727654
58,-1.447334,3.38617,4.265888,7.643492,-29.183647,-59.03215,-79.993046,-100.375225,-73.333843,-97.663616,-112.277378,-124.865639,-62.810531,-89.477428,-105.891517,-119.963608,-49.891594,-73.865925,-88.943058,-101.860931,-33.831962,-51.285324,-62.882973,-74.383152,11.667858,4.833508,-7.946172,-14.313412,-34.599083,-54.800878,-67.825195,-78.698467,-48.16374,-70.163652,-84.351053,-96.199975,-56.900614,-78.052032,-91.474312,-101.91438,-62.427221,-80.320536,-91.350725,-100.638403,28.666018,49.394047,60.641636,65.429035,43.940283,57.811629,67.055474,76.277802,33.942942,48.724913,60.213166,71.48258,24.992484,37.672671,47.432327,58.071955,15.942767,21.74547,26.676411,33.910757,6.651477,-3.899673,-18.734068,-27.817827,-44.17625,-71.388375,-86.179625,-98.125361,-54.332085,-84.090607,-100.633315,-114.397013,-58.812248,-85.933313,-102.356644,-116.114872,-58.306698,-81.300181,-94.622863,-106.709628,57.412628,-31.30125,-10.05106,-30.937762
59,-1.064461,1.395375,5.537573,4.752111,-28.177986,-58.276062,-79.702022,-100.633976,-73.349567,-97.635109,-112.435489,-124.87247,-63.59634,-90.189582,-106.982151,-120.990314,-51.572433,-76.669189,-92.444377,-105.757873,-36.398758,-56.782562,-69.875644,-82.550651,11.511703,5.342114,-6.972795,-12.08668,-33.617166,-53.751128,-66.501341,-77.403247,-47.384994,-69.095896,-82.973659,-94.772727,-56.355859,-76.790843,-89.684721,-99.839505,-62.264627,-79.341499,-89.493776,-97.975328,29.347487,50.287211,61.192366,66.532683,43.191736,57.32963,66.837267,76.409666,31.203363,45.33843,56.915617,68.252592,20.189947,31.548186,40.928186,51.304876,9.392286,12.090563,15.327129,21.303875,5.734952,-4.929131,-20.178799,-28.933921,-44.961664,-71.125227,-85.577568,-97.864639,-55.003636,-83.938406,-100.821128,-114.965086,-58.476217,-85.446021,-102.356433,-116.823727,-56.619434,-79.99274,-94.218498,-106.835632,56.336008,-30.327053,-4.525646,-26.606829
60,-0.230209,-0.440868,6.210468,0.800965,-27.914062,-58.087875,-79.733505,-101.171379,-73.382503,-97.596863,-112.62141,-125.125523,-63.831837,-90.522503,-107.490646,-121.622314,-51.98481,-77.343693,-92.989666,-106.393249,-36.924454,-57.815895,-70.911461,-83.825306,11.541826,5.886074,-6.095086,-10.170626,-32.894456,-53.440634,-66.048036,-76.848591,-46.82911,-68.688293,-82.391629,-94.220859,-56.005511,-76.382048,-89.188278,-99.484501,-62.1488,-79.24552,-89.175532,-97.473241,29.193324,48.442412,57.864092,63.727724,37.803847,50.630362,59.758261,68.989123,23.734686,35.488009,46.067797,55.940295,10.893191,18.902453,27.320532,36.259158,-1.038168,-2.097673,-0.854084,2.907715,3.0954,-8.285581,-23.123609,-30.960978,-48.164528,-73.742487,-87.392092,-98.940035,-56.768457,-84.801646,-100.613412,-113.960799,-57.913269,-84.587771,-100.495338,-114.728622,-53.785955,-76.162597,-89.489846,-101.530352,56.108248,-30.997426,1.687271,-26.035369
61,-0.042023,-0.995095,-0.512603,-3.26522,-27.737297,-57.901886,-79.53495,-100.956985,-73.263565,-97.705948,-112.946937,-125.626007,-63.589382,-90.520134,-107.562355,-121.915352,-51.737068,-77.209076,-92.875133,-106.513607,-36.734504,-57.48159,-70.555629,-83.709262,11.291853,5.685675,-6.149026,-10.129112,-33.063363,-53.615647,-66.101179,-76.893231,-47.068776,-68.794837,-82.381262,-94.092953,-56.318438,-76.672269,-89.513589,-99.777291,-62.503001,-79.803225,-89.801596,-98.065511,24.328989,39.786398,45.209615,46.675706,35.558378,47.391454,55.310812,63.574075,25.314062,37.386446,47.239923,56.572946,15.689203,25.185075,33.597112,42.926622,5.847971,8.068616,10.928947,16.177242,6.817134,-2.67069,-17.115658,-25.769824,-42.104509,-67.512957,-82.199222,-94.559677,-52.751018,-80.751875,-96.891384,-110.67359,-56.712712,-82.744404,-98.298042,-112.157554,-55.865122,-78.056179,-91.02493,-102.9729,56.078252,-32.090713,1.186695,-29.398781
62,-0.011741,-1.252897,3.891683,-0.408711,-27.92878,-57.965195,-79.412041,-100.63044,-73.375237,-97.87135,-113.118359,-125.859684,-63.607819,-90.67416,-107.704788,-122.214432,-51.598046,-77.111252,-92.69743,-106.379334,-36.36953,-56.920967,-69.95493,-83.105175,11.325636,5.8782,-5.840743,-9.678315,-32.993221,-53.624879,-66.15473,-76.95739,-46.972557,-68.770212,-82.363892,-94.116888,-56.219996,-76.680878,-89.561103,-99.853078,-62.432131,-79.864068,-89.928336,-98.247956,21.026036,33.020977,36.292259,36.866925,30.102139,40.560688,48.187374,56.369534,21.192776,32.957943,42.93742,52.533451,12.716,22.190998,31.060742,40.813854,4.06905,6.338963,9.281777,14.261364,6.353124,-3.417249,-17.694265,-26.200391,-42.647261,-68.063088,-82.74922,-95.165091,-53.158212,-80.993915,-96.46632,-109.766921,-57.034545,-82.856986,-97.326689,-110.559067,-55.951344,-77.648648,-89.849557,-101.226113,56.032105,-33.433173,5.043972,-29.897055
63,-0.218582,-0.819422,4.576664,-1.732951,-28.187485,-57.951691,-79.08656,-100.100739,-73.483223,-97.921875,-113.169262,-125.986874,-63.546433,-90.537484,-107.54028,-122.199234,-51.277222,-76.475556,-91.905064,-105.631211,-35.69751,-55.595376,-68.39431,-81.416874,11.127344,5.66786,-6.106881,-10.084658,-33.267022,-53.985094,-66.545369,-77.256299,-47.063213,-69.095932,-82.751857,-94.527673,-56.132199,-76.862751,-89.906482,-100.245817,-62.183079,-79.923423,-90.191105,-98.647855,14.616142,20.73024,18.261875,14.480038,21.394524,28.374916,34.237381,41.286965,15.648148,24.835831,33.255295,41.659332,10.060547,17.343956,24.830338,33.849518,3.772248,5.344116,7.675495,12.156601,7.628838,-1.717365,-16.600635,-26.482998,-39.556641,-64.693937,-80.428238,-94.119092,-50.844474,-78.853084,-94.965711,-109.156061,-55.50361,-81.194239,-95.70006,-109.101924,-55.31823,-76.660234,-88.840725,-100.337299,55.719962,-34.35946,9.527075,-31.736871
64,-0.226983,-0.912591,3.726883,0.551178,-28.226875,-57.836288,-78.762474,-99.670543,-73.604747,-98.026496,-113.216571,-126.053203,-63.47644,-90.51091,-107.394882,-122.130477,-50.969856,-75.957275,-91.242485,-104.952186,-35.094314,-54.685798,-67.39413,-80.340328,11.083551,5.674888,-6.164747,-10.233494,-33.279366,-54.13579,-66.818021,-77.518948,-46.99633,-69.178974,-82.928435,-94.758551,-55.954951,-76.760301,-89.939194,-100.319441,-61.911834,-79.630201,-89.951137,-98.458148,11.047096,12.687744,7.281384,2.338474,13.342575,18.385254,23.767273,30.536362,9.174248,14.546333,20.22892,26.152863,5.463913,8.730194,14.583595,21.930771,1.393845,2.016358,3.771412,7.128021,3.847353,-8.052457,-23.50472,-34.273393,-44.047347,-69.10194,-84.611452,-97.88336,-52.620916,-79.765168,-94.772806,-108.447509,-54.84382,-80.005007,-93.286285,-106.245097,-52.753593,-72.558957,-83.377848,-94.557387,55.365943,-35.483195,13.126922,-31.396837
65,-0.211761,-0.686782,-5.628765,-1.770816,-28.193253,-57.695572,-78.405304,-99.181824,-73.710491,-98.119812,-113.281105,-126.116535,-63.435894,-90.405373,-107.179859,-121.916805,-50.821655,-75.578396,-90.773037,-104.464531,-34.795578,-54.089745,-66.750366,-79.640488,11.056245,5.534436,-6.436721,-10.441828,-33.358604,-54.303998,-67.10889,-77.781436,-47.034128,-69.345342,-83.176925,-94.992378,-55.924359,-76.830091,-90.118264,-100.521291,-61.802912,-79.512696,-89.937301,-98.533005,9.685009,11.470997,5.259544,-1.604942,17.737415,23.730709,29.044476,35.911617,15.857082,22.792866,28.688061,35.433872,13.873158,19.390148,25.506214,33.586842,10.647411,14.65131,17.9473,22.949925,6.264956,-5.700224,-23.177937,-36.209151,-40.798893,-65.688965,-81.650415,-95.729685,-51.09909,-78.786289,-94.73425,-109.157754,-55.581731,-80.778295,-94.675856,-107.680322,-55.871501,-76.722686,-88.377971,-99.841333,54.986063,-36.416879,7.330038,-33.414555
66,0.200684,-0.721486,1.38961,1.527946,-28.436463,-57.883347,-78.562603,-99.321568,-73.924771,-98.421147,-113.570549,-126.425309,-63.532288,-90.505658,-107.208813,-121.969288,-50.744385,-75.193875,-90.19384,-103.777371,-34.477227,-53.023476,-65.226712,-77.57214,10.999533,5.790435,-6.078883,-10.112827,-33.285256,-54.318583,-67.281723,-77.996371,-46.873354,-69.409463,-83.433041,-95.336096,-55.6301,-76.702823,-90.117387,-100.538701,-61.34733,-79.104716,-89.651424,-98.265184,13.718273,18.215184,15.727673,13.623848,18.664868,25.501843,32.126919,39.997891,13.518391,20.344265,27.176983,34.514706,8.715191,13.119084,19.531597,27.422619,3.548504,5.030606,7.227082,11.001309,2.438252,-11.042956,-28.38451,-40.268413,-46.408683,-70.85506,-85.676635,-98.809635,-54.955576,-82.046173,-97.251771,-110.637584,-57.124911,-82.5419,-96.083215,-108.751578,-54.672049,-75.431497,-87.002234,-98.082268,54.989348,-37.314172,8.522249,-32.062416
67,0.081573,-0.776678,3.510498,-0.926899,-28.549438,-58.004723,-78.730488,-99.583923,-74.00639,-98.493084,-113.608555,-126.491856,-63.585926,-90.506035,-107.091785,-121.798908,-50.753311,-75.079514,-89.965542,-103.441418,-34.403641,-52.676743,-64.716248,-76.842407,10.911675,5.967295,-5.826608,-10.093494,-33.320219,-54.263866,-67.209247,-77.844959,-46.875627,-69.376273,-83.424149,-95.307667,-55.577347,-76.582231,-89.962853,-100.300302,-61.232962,-78.910857,-89.379713,-97.848671,7.056073,7.715756,3.02393,-0.576324,10.411595,15.450817,21.052403,28.331486,9.047413,14.519246,20.175877,26.970555,8.084828,11.806675,17.370587,24.539738,6.452259,8.974034,11.688309,15.878186,0.910757,-13.103832,-29.998906,-42.150887,-48.741088,-72.786458,-87.192915,-99.663911,-55.344541,-82.031958,-96.874015,-109.692811,-55.756447,-81.00293,-94.532582,-107.134309,-51.922723,-72.617697,-84.166815,-95.371307,54.876314,-38.275601,11.83814,-33.174066
68,0.079628,-0.909799,3.055298,-1.637831,-28.591736,-58.119507,-78.970413,-99.941894,-74.042519,-98.565502,-113.649799,-126.512707,-63.561916,-90.575867,-107.105461,-121.766361,-50.679634,-75.045502,-89.912556,-103.370922,-34.297165,-52.440674,-64.42083,-76.4744,11.037015,6.404394,-5.273677,-9.706369,-33.125274,-54.068192,-67.080603,-77.730437,-46.712155,-69.211937,-83.327791,-95.223437,-55.406935,-76.394152,-89.725285,-99.93734,-61.048051,-78.688476,-89.075235,-97.380851,3.483319,1.54271,-4.397873,-8.403854,4.049046,4.287701,6.449902,11.276551,4.816761,6.06435,9.980221,15.619343,5.80196,6.176068,10.687557,17.120442,5.737919,7.174175,9.874649,14.062054,1.360708,-12.559583,-29.826647,-42.940328,-47.047126,-70.021682,-84.016492,-96.702997,-54.020192,-79.659877,-95.409246,-109.504151,-54.59512,-79.620684,-93.68259,-106.838728,-50.919,-71.219698,-83.083506,-94.813734,54.769598,-39.448735,14.707094,-35.075232
69,-0.015037,-0.702541,-0.38887,-4.621116,-28.697526,-58.309159,-79.202111,-100.217835,-73.993195,-98.603211,-113.692635,-126.566918,-63.487256,-90.498345,-107.024071,-121.6997,-50.494286,-74.723843,-89.445488,-102.781071,-33.949677,-51.235932,-62.643998,-74.075799,11.109652,6.758521,-4.784323,-9.22269,-33.028943,-53.907887,-66.965907,-77.659276,-46.618239,-69.219797,-83.43422,-95.447803,-55.241752,-76.442508,-89.853898,-100.127178,-60.787186,-78.877574,-89.500013,-97.875867,-1.366276,-6.007942,-14.796982,-22.327057,1.524776,-3.433502,-5.582451,-4.113819,6.48682,6.273525,9.486088,15.167713,10.678654,11.482029,15.611309,22.596806,12.267757,15.91634,20.134895,26.335293,8.092478,-2.300037,-19.295281,-33.738468,-37.059745,-58.982413,-73.932663,-87.984288,-48.031824,-73.811027,-91.915004,-108.179491,-52.920974,-77.552936,-93.130894,-106.891779,-53.542381,-74.157018,-87.129529,-99.423505,54.599499,-40.392998,14.163162,-39.93807
70,-0.184411,-0.588722,5.908802,-2.330844,-28.754402,-58.490467,-79.547802,-100.618572,-73.980331,-98.482418,-113.509746,-126.395599,-63.575283,-90.56797,-107.042141,-121.690773,-50.580986,-74.834415,-89.55249,-102.894058,-34.017265,-51.281318,-62.714538,-74.151832,11.295237,7.058146,-4.435736,-9.099874,-32.859871,-53.741693,-66.870682,-77.623485,-46.480925,-69.081403,-83.29808,-95.374645,-55.127137,-76.318909,-89.702595,-100.020079,-60.714543,-78.828918,-89.417058,-97.770592,-7.30117,-17.125935,-29.515846,-39.31216,-8.899315,-20.436127,-26.884644,-28.784054,-0.702003,-6.204918,-5.467598,-1.722839,6.33902,3.225243,5.912178,12.18924,10.17897,12.237877,16.437504,22.850784,10.117058,1.552356,-14.305786,-28.908363,-32.825636,-53.49834,-68.634749,-83.287409,-44.684031,-69.288167,-88.658682,-106.583082,-50.424744,-74.491418,-90.808911,-105.21431,-51.901931,-71.842229,-85.247425,-98.223339,54.32044,-41.211474,19.977316,-42.498668
71,-0.336822,-0.222086,2.411797,-3.467798,-28.723755,-58.483223,-79.545891,-100.767437,-73.970833,-98.334847,-113.308193,-126.209702,-63.665188,-90.488445,-106.930836,-121.612553,-50.669472,-74.839028,-89.537006,-102.825096,-34.03672,-50.966423,-62.219685,-73.42281,11.303815,7.131932,-4.301904,-9.04084,-32.945796,-53.722179,-66.827796,-77.594425,-46.56798,-69.154416,-83.311843,-95.413155,-55.183755,-76.392768,-89.74238,-100.092385,-60.720921,-79.053257,-89.751219,-98.196088,-15.443802,-31.401661,-49.158303,-63.838097,-18.550782,-37.69693,-49.716134,-55.871464,-4.149811,-15.419403,-18.363957,-16.946354,8.493301,2.219169,3.086036,8.605133,16.563217,19.736824,24.810722,32.396141,14.451745,7.389431,-8.999851,-25.936383,-25.577978,-45.645015,-61.793545,-78.013738,-39.535893,-63.721627,-84.674684,-104.852101,-47.816555,-71.280872,-88.483329,-103.826612,-52.26608,-71.912378,-85.834212,-99.787943,53.943255,-41.605014,22.34875,-46.13792
72,-0.454468,0.041046,-2.008507,-3.134334,-28.618858,-58.357567,-79.429516,-100.772243,-73.945919,-98.148136,-113.077572,-126.040787,-63.718449,-90.440014,-106.902294,-121.641724,-50.689339,-74.886932,-89.672321,-103.085289,-33.997352,-51.023094,-62.474579,-73.948448,11.342476,7.132642,-4.254931,-8.993682,-32.981334,-53.856338,-66.988341,-77.774162,-46.62605,-69.285988,-83.425563,-95.526504,-55.256831,-76.580657,-89.907192,-100.260992,-60.818388,-79.209998,-89.843836,-98.275253,-14.804741,-31.432183,-51.569573,-68.693722,-17.718041,-42.606709,-59.305355,-69.220471,-2.576775,-19.156838,-24.755551,-25.510437,10.215362,-0.175438,-0.897263,4.240059,17.270073,19.103302,23.950561,31.915489,19.783635,15.066094,-2.555577,-21.411763,-15.521873,-34.60661,-51.611642,-69.562583,-33.62894,-57.247324,-80.731584,-103.899134,-46.061034,-69.338673,-88.336696,-105.004451,-54.668862,-74.453503,-89.517796,-104.620993,53.496712,-41.51721,20.348168,-49.225496
73,-0.440254,0.230168,-0.113503,0.070569,-28.595718,-58.401341,-79.48074,-100.759575,-73.844753,-98.102795,-113.087116,-126.016686,-63.648663,-90.457707,-106.968819,-121.691609,-50.641983,-74.961639,-89.912464,-103.389107,-33.992043,-51.363442,-63.043671,-74.685494,11.424957,6.947965,-4.563954,-9.341478,-33.138482,-54.020125,-67.143402,-77.922332,-46.744586,-69.499187,-83.645829,-95.774018,-55.326695,-76.716501,-90.079605,-100.530479,-60.835147,-79.127777,-89.68384,-98.082857,-14.352653,-30.935932,-51.628315,-69.201782,-17.120475,-42.292865,-59.045185,-68.876243,-2.315551,-19.683609,-25.3801,-26.292869,10.335617,0.206452,0.095627,5.591172,17.282547,19.283615,24.636132,33.198716,20.001082,15.802579,-1.794424,-20.31047,-14.67054,-34.267656,-50.97851,-68.662423,-32.563222,-56.638126,-79.725932,-102.408088,-45.136754,-68.819945,-88.301089,-105.374528,-53.950644,-73.919059,-88.920597,-104.018977,53.126032,-41.061527,20.304239,-48.929412
74,-0.133576,0.645428,0.525673,-0.677754,-28.648292,-58.537696,-79.582408,-100.857868,-73.834499,-98.107738,-113.157005,-126.128356,-63.633316,-90.44997,-107.022068,-121.745361,-50.629303,-74.853275,-89.858551,-103.377353,-33.992912,-51.386993,-63.133335,-74.816825,11.33414,6.554819,-5.130447,-10.015744,-33.450038,-54.349829,-67.408133,-78.165505,-46.966931,-69.920998,-84.082245,-96.220205,-55.456297,-77.011254,-90.447097,-100.938347,-60.828911,-79.20751,-89.706139,-98.011773,-14.449035,-31.583851,-53.150516,-71.338154,-18.531166,-44.493004,-61.167961,-70.741859,-3.668106,-21.309746,-25.868923,-26.246795,9.365227,-0.235405,1.088036,7.557587,16.693062,18.477883,24.377449,33.452614,20.9088,17.669763,0.277593,-17.427183,-12.053582,-31.747597,-48.214858,-65.791785,-30.304811,-54.189,-77.179457,-99.638915,-43.466609,-67.206882,-87.295255,-104.861851,-52.942167,-72.905408,-87.941145,-103.085255,53.08814,-40.031251,20.925596,-49.222318
75,0.205628,0.975286,-0.484428,1.428065,-28.793655,-58.819176,-79.902031,-101.314819,-73.9319,-98.248123,-113.227295,-126.121376,-63.673576,-90.522995,-106.985344,-121.592926,-50.586754,-74.723785,-89.551415,-102.929329,-33.873688,-50.93486,-62.366478,-73.744675,11.304228,6.424093,-5.373323,-10.347745,-33.781773,-54.610897,-67.612879,-78.324081,-47.198069,-70.236518,-84.394949,-96.54357,-55.571697,-77.311084,-90.908385,-101.521972,-60.798307,-79.45917,-90.085839,-98.465089,-14.692063,-31.995094,-53.30642,-71.590061,-17.960083,-45.381787,-63.030018,-73.109379,-2.368607,-23.116997,-29.828682,-32.082195,10.999649,-1.029007,-1.003853,4.100143,18.37548,19.884338,25.963348,34.884247,20.520402,17.468703,-0.217257,-18.274918,-9.976107,-31.555554,-48.700284,-66.905609,-28.235772,-53.618303,-77.221098,-99.991078,-41.74507,-66.920923,-87.891875,-106.279088,-51.803039,-71.98504,-87.434283,-103.594434,53.388794,-38.643111,20.536194,-47.381399
76,0.632103,1.676919,-10.965019,3.829359,-28.935631,-59.283062,-80.634213,-102.128815,-74.018383,-98.3844,-113.224766,-125.897896,-63.748741,-90.806111,-107.200768,-121.585522,-50.668717,-74.951901,-89.786476,-103.095509,-34.014427,-51.566712,-63.190258,-74.83968,11.473233,6.21253,-5.92486,-10.725509,-33.892955,-54.723376,-67.62027,-78.229047,-47.359009,-70.428426,-84.593106,-96.730591,-55.765395,-77.615167,-91.338872,-102.024225,-61.056813,-79.764014,-90.35039,-98.718293,-5.300629,-14.44265,-29.794236,-43.524994,-2.430588,-23.057522,-36.07623,-42.360203,7.434608,-12.067177,-19.471138,-22.242302,15.371269,1.80352,-1.739331,-0.026711,18.351425,17.985855,21.42897,27.546936,15.970107,9.37901,-10.260467,-28.510122,-16.962913,-40.016564,-57.503469,-75.432047,-31.833196,-58.180207,-80.558235,-101.992001,-42.232496,-67.765199,-87.682986,-105.268734,-49.270401,-69.77327,-84.003223,-99.218185,54.109045,-36.735416,9.659323,-43.321264
77,1.078239,3.107886,-11.140377,2.432021,-29.277351,-59.844532,-81.419231,-102.913719,-73.844043,-98.624485,-113.430553,-125.839016,-63.50029,-90.962574,-107.404941,-121.458835,-50.345375,-74.674976,-89.55804,-102.680797,-33.663231,-51.283355,-62.744453,-74.143501,11.466693,5.761721,-6.857705,-12.025022,-33.899044,-54.652369,-67.545108,-78.053849,-47.391237,-70.833305,-85.38729,-97.777254,-55.682619,-77.882306,-92.011026,-102.987294,-60.771452,-79.880321,-90.62233,-99.043274,4.922824,4.252738,-3.117955,-10.484528,11.507938,-1.685063,-9.384533,-11.761712,14.86552,-1.753006,-9.226559,-12.61686,16.868076,3.865654,-1.791527,-2.677346,15.579471,13.65652,14.933155,18.839904,9.580428,-0.707666,-20.11495,-37.205339,-25.06942,-48.63928,-65.631018,-82.68964,-35.05845,-60.990283,-80.650842,-99.67531,-41.068637,-65.072096,-82.24622,-97.731515,-44.194208,-63.119647,-75.079726,-88.19857,55.216129,-33.755464,-1.452209,-41.017177
78,1.376244,4.797778,-11.171551,1.314821,-29.635208,-59.934494,-81.398209,-102.39695,-73.791378,-98.774334,-113.394379,-125.312737,-63.693935,-91.456707,-107.77105,-121.357647,-50.555534,-74.83374,-89.506531,-102.146999,-33.901062,-51.286285,-62.432785,-73.329964,11.293212,5.598737,-7.095832,-12.521464,-33.328377,-53.63143,-66.153389,-76.195457,-47.037024,-70.533074,-84.914998,-97.107253,-55.510909,-77.824766,-91.880454,-102.679298,-60.764128,-80.43545,-91.175743,-99.463089,14.503578,21.660999,22.315498,21.728039,22.861107,16.483063,14.165085,15.840465,20.154018,7.577476,0.691635,-2.530415,16.442081,4.914058,-1.838299,-4.539849,11.028202,8.421352,8.294277,10.180389,2.510506,-11.35687,-30.042798,-46.063887,-33.174057,-55.585294,-71.167906,-86.33817,-38.099764,-61.397157,-76.284653,-90.888576,-39.215933,-59.723825,-72.710308,-84.557109,-37.762903,-53.821857,-63.06049,-73.321022,56.976156,-29.659313,-12.239977,-40.403983
79,1.483475,6.796825,-10.212845,1.364313,-29.583641,-59.683491,-80.901181,-101.749134,-73.935288,-99.051258,-113.332959,-124.600491,-64.208084,-92.088925,-108.026951,-121.02443,-51.372803,-75.834263,-90.519528,-103.010033,-34.989853,-52.705216,-64.096184,-75.021241,11.498773,5.755336,-6.996433,-13.11911,-32.26275,-52.281375,-64.346078,-73.738742,-45.949957,-69.571824,-83.631621,-95.323577,-54.629003,-77.113723,-90.811922,-101.175145,-60.262628,-79.914827,-90.341498,-98.267491,22.852066,37.416607,45.459503,51.266464,31.903816,32.0121,34.617348,40.068375,23.1068,13.672646,8.123142,6.250637,13.650547,3.22522,-2.548233,-5.032379,4.339668,0.721722,0.766457,2.48037,-4.085975,-20.633356,-38.121332,-52.500311,-40.469731,-62.297267,-76.133941,-88.766448,-40.782417,-60.407136,-68.598412,-77.34006,-37.083024,-53.401799,-59.68959,-66.159104,-30.859249,-43.243702,-48.356497,-54.506996,59.741198,-24.517032,-21.171255,-40.694214
80,0.433708,9.686997,-16.093597,2.385227,-29.281357,-58.644379,-78.985302,-99.132054,-74.121998,-99.016194,-112.397003,-121.191204,-64.162869,-91.166874,-105.321053,-114.952229,-51.172371,-74.162464,-86.775078,-96.110928,-34.769074,-51.298989,-61.223866,-69.738796,11.554441,5.763913,-6.901053,-14.591264,-31.940314,-52.347689,-64.06612,-71.747087,-45.602438,-70.138168,-84.092594,-94.578076,-54.132504,-77.362441,-91.00847,-100.574057,-59.468882,-79.674766,-89.882365,-97.226459,28.7513,50.830913,66.507774,79.106712,44.591812,54.563278,61.107513,67.827896,32.390247,33.640365,30.59024,29.712959,20.116481,18.584976,12.585594,8.994598,8.978118,9.435184,7.914688,7.679489,-6.842093,-21.931721,-34.755237,-44.358229,-45.118729,-61.875259,-69.605379,-76.682158,-42.972957,-56.213024,-57.004479,-59.667616,-36.44718,-45.654839,-45.389109,-47.06491,-27.37279,-34.942866,-35.942568,-38.361955,61.650141,-16.419925,-35.789617,-39.898877
81,-0.747036,13.402347,-7.572579,6.110651,-28.48447,-56.525128,-75.72567,-94.693131,-76.330616,-100.44647,-111.57304,-116.997288,-66.775526,-92.072634,-102.464178,-107.619221,-53.870859,-74.432184,-83.23086,-88.265814,-37.608719,-52.280789,-59.665278,-65.04015,11.693477,6.11237,-5.617744,-14.537002,-31.568426,-52.473432,-63.652881,-69.573733,-45.070298,-71.219551,-84.532291,-93.097132,-53.522034,-78.086527,-91.21183,-99.19196,-58.527708,-79.85501,-89.632206,-95.772456,27.577189,49.754185,67.259594,81.559044,44.870327,56.925877,63.295693,68.173473,34.162674,41.91322,41.463833,41.254841,23.351864,29.650051,27.41993,25.863968,13.324288,19.063213,20.304703,22.076986,-6.246529,-18.160475,-26.552562,-33.350208,-43.668415,-58.09346,-60.766968,-62.849131,-42.261105,-52.107121,-48.347685,-46.689711,-36.215949,-41.915346,-37.916324,-36.111906,-27.657376,-32.158886,-31.404922,-31.944111,62.770168,-4.323393,-41.495133,-35.094041
82,-1.800682,16.582986,-9.296619,13.216923,-27.114979,-53.482876,-71.35635,-88.669556,-80.893765,-103.541205,-110.959145,-112.031159,-72.350493,-95.007071,-99.558329,-99.198029,-59.761053,-76.847723,-79.910025,-79.384444,-43.739296,-55.640637,-59.154871,-60.444821,11.959801,6.866905,-3.029629,-11.848956,-31.368601,-52.834591,-63.111045,-67.197928,-44.61114,-72.782429,-84.666758,-90.452278,-53.099562,-79.462752,-91.554711,-97.028589,-57.816546,-80.874934,-90.212764,-94.625701,27.778272,50.660259,68.178817,82.429126,49.003692,63.588844,70.839557,74.983474,39.361324,52.693508,55.822036,57.455886,29.375679,42.051006,44.006275,44.569793,19.274196,29.663841,34.617679,38.972231,-4.799897,-15.207459,-22.69173,-29.636484,-43.923247,-59.281143,-58.782617,-56.686175,-44.393915,-54.902804,-48.546152,-43.496496,-39.93866,-46.30648,-40.673901,-36.303345,-32.527533,-37.532802,-36.713766,-36.351875,63.294605,12.009365,-48.466633,-22.127346
83,-4.375115,19.68394,-9.194104,16.820343,-26.394809,-51.255058,-67.64867,-83.584407,-84.6804,-103.995519,-106.782371,-103.612766,-76.237543,-94.570753,-92.654497,-86.896,-63.51999,-75.816969,-72.96293,-67.448141,-47.443344,-55.969875,-55.838846,-53.774574,10.90495,6.075129,-1.82689,-10.07857,-32.067953,-54.688791,-64.347167,-66.863371,-44.042787,-74.302108,-84.870282,-88.095928,-51.443006,-79.577682,-90.598856,-93.889346,-54.883157,-78.809404,-87.44554,-90.238042,27.787165,50.801182,67.449532,80.301728,52.830185,70.380925,77.163415,78.920781,44.762147,63.195397,68.905461,70.998036,36.025704,54.119122,59.016449,60.826996,26.664998,41.002053,48.548825,54.375864,-1.17122,-9.94496,-17.018849,-24.025539,-43.701273,-59.340757,-55.32883,-49.811903,-46.633708,-58.629652,-50.784679,-44.520856,-44.346244,-53.031168,-45.59234,-39.900307,-38.604546,-45.669253,-43.800812,-42.464277,60.919431,32.240306,-55.660796,-4.760002
84,-6.952018,22.136829,-9.664718,24.547678,-26.731144,-49.747536,-64.440468,-78.254975,-87.533043,-101.746439,-99.088749,-91.602585,-78.41347,-91.169249,-82.309565,-71.233097,-65.04724,-71.374758,-62.259859,-51.883982,-48.683121,-53.432751,-49.762041,-44.843102,8.237925,3.774346,-1.734087,-8.625442,-33.359304,-57.225891,-66.318726,-67.311493,-43.493458,-75.485948,-84.483391,-85.198016,-48.993283,-78.446877,-88.175475,-89.384431,-50.423311,-74.678534,-82.380113,-83.62213,24.139177,48.150135,66.662224,81.036964,53.519794,72.315216,79.797295,81.528259,49.130802,71.264145,79.246353,83.25555,44.650234,67.837063,75.624904,80.403946,38.837162,59.654171,69.635765,77.879373,-6.498231,-15.994005,-22.401101,-28.696136,-41.886354,-54.326487,-49.347314,-43.403883,-41.454083,-50.077583,-44.767206,-40.643454,-37.187982,-42.867945,-38.224749,-34.899622,-31.083876,-35.468121,-35.104161,-36.172132,55.029025,55.970826,-64.263902,21.381367
85,-8.344414,23.848948,-5.082356,26.676104,-28.031056,-49.433522,-62.431275,-74.175659,-89.471489,-97.25271,-88.942097,-78.933243,-79.541525,-86.1047,-71.187189,-57.702782,-65.629366,-66.065375,-52.49481,-40.58436,-49.065651,-50.311947,-44.699472,-39.518623,4.096312,-0.038458,-2.86935,-6.98295,-34.372308,-58.988798,-67.267015,-67.694834,-41.71843,-74.669521,-81.60216,-80.38522,-44.658447,-74.795532,-82.589959,-81.974536,-43.893724,-67.42906,-73.876217,-73.684389,27.434927,52.013066,69.937557,84.215092,54.807965,74.682095,84.352993,87.80064,48.090855,70.875252,81.636853,87.352822,41.342377,64.952385,76.543488,83.602948,33.407112,54.014443,66.889012,77.119646,-7.37445,-20.384404,-30.496778,-39.868595,-43.66878,-58.294489,-55.084353,-49.867922,-43.381054,-54.552327,-50.532792,-46.784625,-39.720348,-48.299703,-44.699046,-41.362797,-34.24727,-40.707366,-41.061156,-41.864069,47.530392,81.191517,-68.500477,49.429214
86,-5.525219,24.131437,-4.276222,26.278641,-30.632584,-51.884096,-64.052754,-74.116104,-90.591053,-95.9238,-85.869759,-76.014988,-79.180452,-82.637243,-64.375443,-49.746763,-64.311688,-62.286513,-46.905945,-34.863939,-47.361031,-48.012188,-42.82501,-38.786722,1.281025,-2.330028,-2.824442,-4.831198,-35.202063,-58.855778,-65.333624,-64.57938,-39.843783,-71.782004,-76.839928,-74.39249,-39.677711,-67.415425,-73.039918,-71.314837,-35.990184,-55.254302,-59.797086,-58.430889,29.659321,54.22344,71.601574,85.138659,54.518269,75.920477,86.374306,90.29583,46.563955,70.76932,82.885683,88.902929,38.857578,63.656233,77.257422,84.986504,30.430407,51.938679,66.195562,76.850149,-8.199673,-22.379547,-33.381374,-43.351383,-43.142055,-56.935575,-53.891576,-49.016739,-42.676901,-53.069876,-48.936037,-45.095539,-39.056246,-47.329462,-43.480614,-39.975327,-33.522715,-39.568136,-39.168506,-39.267473,42.396235,106.324428,-72.385637,76.709329
87,-2.706024,24.413927,-3.470089,25.881178,-34.535729,-57.099261,-69.304905,-78.076309,-90.891735,-97.759707,-89.871735,-82.84782,-77.330252,-80.766878,-61.874325,-47.365042,-61.094204,-60.038172,-45.493263,-34.722719,-43.56926,-46.533474,-44.138655,-42.647398,-0.207938,-3.100364,-1.599363,-2.170187,-35.848572,-56.826832,-60.518556,-57.965133,-37.869518,-66.823396,-70.196695,-67.219828,-34.051076,-56.306557,-59.525353,-57.405335,-26.712691,-38.154261,-40.14272,-37.861629,30.812359,54.78126,71.654274,83.807665,52.650707,76.030363,85.861233,89.013828,44.550104,70.946348,82.992846,87.905874,37.195839,63.948607,77.766707,84.554615,29.907045,53.42688,67.555418,77.070883,-8.9739,-21.979435,-31.05489,-39.144499,-40.306179,-50.249746,-45.768982,-40.850333,-39.341625,-45.630229,-39.976941,-35.576193,-35.195678,-39.957222,-34.569455,-30.737212,-28.910212,-32.05043,-29.426211,-28.382345,39.78423,130.441209,-75.761707,102.293361
88,-1.679497,23.606057,-4.207775,23.659671,-37.044912,-60.775786,-73.107926,-80.515966,-90.044039,-101.141623,-98.069881,-96.28273,-74.951767,-80.362816,-63.202623,-50.846176,-57.838022,-59.717585,-47.318903,-38.425444,-40.124397,-46.237062,-46.648638,-47.599171,-1.039976,-3.027024,0.374029,1.839598,-34.893116,-52.749398,-54.077258,-50.460723,-34.299556,-59.247126,-61.308779,-58.340707,-27.323803,-42.642093,-43.454348,-41.064095,-17.093858,-20.668655,-20.260924,-17.285789,31.29126,56.572764,75.005356,87.295458,52.536072,78.552057,88.2556,90.987785,43.367312,72.826235,84.564886,88.128405,35.680195,64.987696,78.586596,84.062782,28.534487,53.944187,67.487017,75.54146,-12.675566,-23.655861,-28.942742,-33.199924,-38.252015,-43.41594,-36.7259,-31.208631,-34.789898,-34.885275,-27.237332,-22.284084,-27.891611,-26.518233,-19.904375,-16.256654,-19.064319,-17.335758,-13.451657,-12.259844,38.240328,152.920917,-79.833887,124.826683
89,-0.652969,22.798186,2.973518,23.632018,-38.160136,-62.913672,-75.461815,-81.435076,-88.047965,-106.069548,-110.4642,-116.319718,-72.044998,-81.425057,-68.360339,-60.190167,-54.543143,-61.324751,-52.382864,-45.972113,-37.026444,-47.122954,-50.35496,-53.642041,-1.215087,-2.110005,3.095736,7.198159,-32.335696,-46.623475,-46.009729,-42.06615,-29.133897,-49.05319,-50.17618,-47.755126,-19.495892,-26.422032,-24.826901,-22.291118,-7.133685,-2.797482,-0.151696,3.296632,32.45644,56.300509,72.827534,82.567137,57.496857,81.420622,85.853051,83.929184,46.786131,73.270792,77.969851,74.189295,36.019169,60.38748,65.774947,63.204678,25.315699,45.847584,53.72037,55.43157,-8.120565,-17.23517,-22.912641,-28.568365,-34.574945,-32.423786,-21.844242,-14.3079,-33.542082,-27.879066,-16.838945,-9.807006,-28.404535,-22.042439,-12.028208,-6.427106,-20.609264,-15.717094,-8.556788,-4.45419,37.792546,174.091053,-76.655182,146.830651
90,-18.199276,15.399898,15.801774,25.558206,-29.697745,-48.833479,-58.742833,-63.579192,-65.149275,-80.102114,-87.423775,-96.491696,-51.196896,-57.425766,-48.753142,-44.511464,-36.405161,-40.784449,-34.481501,-30.520781,-22.112286,-29.059771,-32.080267,-35.212841,6.605541,11.642651,20.469419,26.25504,-16.597356,-23.126653,-19.370792,-14.155649,-17.623626,-28.495472,-27.076005,-24.168123,-12.887233,-12.560213,-8.477615,-5.222161,-5.294968,0.904647,3.542646,6.411496,25.255565,43.109258,56.271411,63.62491,44.998924,61.074674,62.488231,58.962856,36.460401,56.304456,57.232572,50.774625,28.021328,45.311284,46.073175,40.395881,19.682138,34.901195,38.370019,36.421869,-12.598995,-21.166448,-26.26078,-31.797091,-31.604602,-21.972968,-9.480773,-1.650246,-26.702984,-11.628026,0.569125,7.470197,-18.091266,-3.208218,8.172346,13.81968,-7.326208,4.40637,13.50378,18.331292,19.926138,187.829924,-60.52054,170.72783
91,-0.14003,18.644839,1.17667,20.626277,-23.660506,-42.531235,-54.324612,-61.634016,-57.313494,-73.037018,-81.329876,-90.204186,-46.85879,-55.694979,-49.474074,-45.329619,-35.549807,-42.854096,-37.425722,-32.544296,-24.330792,-33.305449,-34.850441,-35.412238,13.930066,22.872063,32.663671,40.160906,-1.961464,-3.42397,1.247569,5.435012,-6.810206,-11.347601,-7.660885,-5.185722,-7.146474,-3.320727,2.696258,5.943255,-5.39249,0.388065,4.165399,7.260645,23.762409,41.436904,54.865276,62.073944,47.749397,63.967266,62.849041,57.06031,40.668663,61.2896,58.46696,48.06808,32.653209,49.569007,46.184898,36.906749,23.695678,38.700668,38.997379,33.527504,-15.214104,-22.651966,-26.190326,-30.094193,-24.956442,-8.308932,5.317976,12.609397,-16.373987,6.91872,19.923295,25.824467,-4.66039,17.526002,29.926269,34.988191,8.437879,25.781291,35.862299,40.395001,20.2143,204.705691,-58.915678,189.585035
92,-1.438614,17.463523,0.754657,17.808176,-18.5707,-37.133366,-49.881249,-58.468569,-51.456614,-61.574284,-66.187672,-72.107311,-44.596167,-49.230143,-42.425738,-36.825606,-36.308401,-40.106232,-32.869269,-25.735165,-27.558472,-33.593348,-31.374916,-28.11632,17.488409,29.064666,38.812407,48.01688,9.233391,11.16499,16.134197,19.644844,2.056487,3.009431,8.382032,11.155851,-2.564087,3.413736,10.01977,13.138043,-6.067015,-1.709338,2.140319,4.755826,20.824002,39.075875,53.862522,62.41111,46.44746,62.356625,62.608681,58.812664,39.836804,60.08329,58.833653,50.800129,31.9086,48.909325,46.865902,39.82489,22.80138,38.064446,38.771633,34.243458,-16.842215,-23.717827,-26.822835,-29.756967,-17.739707,4.635659,18.834815,26.071407,-5.414517,22.773713,36.416009,42.09801,8.965209,35.211283,47.660389,52.130995,23.210918,43.61055,53.564345,57.634118,19.096636,220.527301,-57.840071,205.751298
93,3.522194,17.131238,0.43364,20.071725,-17.599526,-37.066281,-52.51434,-62.556977,-47.811882,-58.282322,-58.826557,-59.655819,-43.508183,-51.69746,-45.756775,-38.143399,-38.041352,-45.406609,-38.680241,-30.155068,-32.217453,-40.793713,-37.731652,-32.160794,15.298726,29.252356,42.44317,54.969846,19.090078,20.483735,22.248426,23.598834,13.653806,14.237311,16.535797,16.813736,8.102642,10.628222,13.515794,14.476631,2.044359,2.645659,3.790092,4.636567,19.236831,36.73193,51.421039,61.843242,45.736988,60.074249,61.96669,61.112148,39.619285,57.819237,58.647159,54.645756,31.744411,46.812012,46.631676,43.263359,22.313278,36.418968,38.125843,36.292133,-16.790221,-23.654076,-27.751907,-32.484027,-8.125181,16.340801,28.895846,35.796368,5.245426,35.173257,47.711517,53.696528,19.020843,46.800007,58.644601,63.766587,31.498761,53.497889,62.948901,67.167343,22.84865,236.456762,-57.176611,224.621246
94,5.39566,13.829894,-7.636963,15.829693,-17.039852,-36.991287,-54.139332,-66.277599,-44.154362,-52.991501,-50.778568,-47.232559,-41.88414,-52.234417,-48.498367,-40.249981,-38.507515,-48.249527,-43.919723,-36.160137,-34.598419,-44.737747,-43.0261,-38.117557,13.601566,27.150199,39.111846,50.387225,27.396966,32.285684,33.167813,33.226637,22.420154,26.240763,27.569373,26.277665,15.613727,17.533758,18.2964,17.18099,7.520397,6.679678,6.970424,6.854222,21.992924,41.427521,57.513428,70.331943,45.697277,65.129448,73.445732,78.299858,38.986416,62.539181,71.188064,74.381275,31.333477,52.119862,59.440235,62.665729,22.563721,40.511513,47.026829,50.182148,-17.233157,-22.574061,-24.530277,-27.635298,-3.123225,17.17726,28.364299,35.503251,11.478846,37.131746,49.041165,55.391738,25.491496,49.43118,60.54849,66.114203,37.577065,56.949873,65.065026,68.738484,28.473804,249.363558,-64.58408,239.527841
95,25.722325,17.227377,-18.548115,11.409772,-24.627068,-51.928666,-73.734639,-88.300496,-64.23135,-81.060505,-78.360478,-71.757912,-61.583657,-80.14769,-75.272782,-63.632035,-56.993958,-74.806321,-70.628575,-60.813618,-51.287945,-68.622483,-68.793423,-64.271851,5.25743,13.08138,21.080738,30.498405,21.701404,27.155583,28.41938,28.237438,23.01775,27.500175,28.784769,27.094525,21.854718,25.283904,25.823195,24.134049,18.375428,21.830351,24.099358,25.117128,28.945782,54.826515,75.145123,91.237415,57.633454,85.848232,99.182305,108.127121,49.358814,80.779541,95.683891,104.296475,40.221234,69.071697,83.141876,92.090206,30.073231,54.357159,65.98637,74.222065,-15.535366,-18.966837,-18.333426,-19.246578,4.202041,22.346721,33.080783,40.827211,19.153693,40.808686,52.49179,59.735471,32.471862,52.898589,63.377288,69.393804,43.100503,59.975483,67.397981,71.147441,54.256045,265.829991,-83.072279,250.176669
96,4.923522,10.829812,-2.533253,12.71851,-27.790695,-55.396717,-76.530269,-89.802875,-67.73553,-83.547065,-77.870956,-68.745369,-64.493248,-81.193817,-73.670562,-60.290977,-59.059902,-75.337051,-69.465351,-58.606292,-52.602573,-68.947128,-69.39149,-65.636524,-3.319431,0.529831,7.043721,14.890173,16.531783,24.206532,26.646254,27.546846,23.25812,29.780359,31.379139,30.901153,27.108653,32.873313,33.710241,32.939411,28.44881,35.143308,37.051396,37.857992,28.710755,54.908181,76.062745,94.015961,53.782986,82.235608,100.367398,114.504719,44.8014,75.972622,97.125836,112.822071,36.022843,65.636742,85.965821,101.595578,27.277256,52.196457,67.799035,81.253098,-14.760942,-17.346716,-16.32487,-17.594582,8.470983,24.064617,34.083004,42.484926,23.753827,41.508047,52.452887,60.718353,36.236253,53.458517,62.763526,69.126684,45.20413,59.990982,66.693174,70.890992,59.182176,276.138691,-85.602923,262.374067
97,3.587357,8.492089,-0.322403,11.638236,-28.30822,-54.856705,-75.529953,-89.056984,-66.144756,-83.801537,-78.656822,-68.958057,-62.444515,-81.494934,-74.719254,-61.90226,-56.829266,-74.997551,-69.64183,-59.542671,-50.216789,-67.224369,-68.280945,-65.607182,-10.271909,-9.479676,-3.463679,2.617267,14.250316,23.295788,25.929319,26.702114,24.991368,32.696251,34.386483,34.033814,32.764683,39.499602,40.774304,40.59424,37.586636,45.47288,47.382438,48.353475,28.49849,53.89246,75.07758,94.270752,53.133831,81.85746,101.111035,116.517735,44.662537,76.318783,98.623593,115.61475,36.618977,66.009854,87.164372,103.974461,28.668984,53.024495,69.11435,83.670697,-14.193629,-15.807648,-14.281079,-15.93105,12.819546,26.470957,35.11515,42.499511,27.77662,44.130364,53.667518,61.312935,39.144945,55.688868,64.190331,70.238488,46.700984,61.428519,67.801298,72.057494,62.717691,284.328694,-85.977168,273.710217
98,-5.667521,6.559691,1.135334,10.083435,-22.834138,-45.238946,-62.908367,-76.354688,-60.297935,-70.430975,-63.517198,-53.484174,-58.158571,-68.47598,-58.785438,-45.286668,-53.517671,-63.234952,-54.501165,-43.502397,-47.180397,-58.173076,-56.621246,-53.235746,-11.609497,-14.37381,-12.769275,-10.458149,11.129499,25.564461,31.949478,34.376282,22.06596,35.835493,41.932161,44.140942,30.542841,42.442892,47.376046,49.122626,36.576825,47.476384,51.344054,53.210942,28.148266,53.29596,74.899624,94.493947,53.219971,82.532765,102.384247,118.073525,45.314599,77.714356,100.413231,117.398667,37.728573,67.725312,88.878422,105.502717,30.199254,55.007161,71.174515,85.613755,-13.945405,-15.185229,-13.244648,-14.513039,15.079105,27.882892,35.324422,41.3203,30.372014,45.25868,53.100352,59.210025,41.591595,57.112067,64.266025,69.086608,48.808674,62.949938,68.430275,71.895572,56.982982,290.641022,-84.909022,283.546289
99,-11.835056,7.59635,2.193043,7.942288,-15.075582,-31.882135,-46.750065,-59.317629,-52.420006,-53.605013,-40.920049,-27.94087,-53.346113,-52.999472,-36.837936,-19.47722,-51.366262,-50.554956,-34.982271,-20.129339,-47.202713,-51.962047,-45.306942,-37.950319,-13.57274,-17.867636,-16.42895,-13.70349,7.380965,23.259133,31.129174,34.639697,20.043499,35.293362,43.24721,46.732805,29.683115,42.492157,48.403401,51.302601,36.840611,47.9272,51.08054,52.479039,27.617649,52.497792,74.709389,94.296078,53.769608,83.743675,103.134281,117.95406,45.815392,79.131558,101.726841,118.202992,38.05846,68.856789,89.806961,105.861408,30.360031,55.486908,71.614918,85.911015,-13.723671,-14.998545,-12.580769,-13.620412,16.319523,29.143589,35.935097,41.01602,31.917331,45.9346,52.68954,57.559288,43.067961,58.08476,64.203867,67.785675,50.23974,64.247327,69.093339,71.876998,44.992092,297.989768,-82.871813,291.240973
100,-15.385425,8.208606,2.604698,5.630057,-8.153532,-18.619646,-28.321129,-36.937735,-40.159539,-32.289294,-17.066512,-4.090742,-43.887595,-34.282912,-14.633606,4.095125,-44.290335,-35.302294,-15.89411,0.814298,-42.366772,-41.051354,-30.389534,-20.375033,-15.123812,-20.484137,-18.876674,-15.444469,4.124286,19.210467,26.738398,30.284193,18.036783,32.335912,40.207707,43.673232,28.649302,40.439857,45.828668,48.542592,36.763793,46.949234,48.857414,49.064204,26.908436,51.560383,74.211708,93.552464,54.260308,85.070183,103.906208,118.092831,46.129155,80.390992,102.630993,118.640889,37.895199,69.4529,90.206555,105.727627,29.787632,55.203209,71.205368,85.112011,-13.912899,-15.324106,-12.373794,-13.127878,16.858357,29.993484,36.497606,41.068668,32.741402,46.571012,53.018817,57.223959,43.890378,58.750985,64.620732,67.585147,51.051215,64.808132,69.267673,71.513004,29.42902,305.929038,-80.444762,296.601694
101,-10.631745,4.016173,2.114159,3.739123,-2.270742,-8.136011,-15.702518,-23.678198,-31.559097,-18.487604,-2.005949,10.014513,-37.653494,-21.863405,-1.232826,16.941416,-40.293737,-25.371168,-4.358671,12.038824,-40.456043,-34.927288,-21.775383,-10.399481,-17.094255,-23.863181,-22.310949,-18.135145,1.729296,16.786553,23.782035,26.98966,18.093569,32.5377,39.385499,41.339289,30.237794,42.522118,46.285843,47.507556,39.567855,50.365711,51.008255,49.675051,26.582336,51.191677,74.121712,93.302982,54.84597,86.363148,104.687588,118.24744,46.672588,81.780212,103.651417,119.248867,38.052509,70.298264,90.787777,105.649715,29.507389,55.308666,71.171894,84.722042,-14.554695,-16.078065,-12.312328,-12.622784,16.41862,29.921681,36.359285,40.778416,32.49329,46.21943,52.490506,56.354612,43.713055,58.36933,64.146958,66.708205,51.042805,64.714889,68.986721,70.766652,18.583545,309.720112,-78.544333,300.115718
102,-15.893188,6.207262,1.641575,2.183804,3.680826,3.652651,1.617588,-1.653093,-19.234085,1.125131,19.54838,31.113275,-26.975207,-3.923693,18.365558,36.47069,-31.245718,-10.099039,12.031053,28.386846,-33.122303,-23.153973,-8.667687,3.242723,-19.129647,-28.201024,-28.29197,-23.889344,-2.790377,11.193313,18.272812,22.005773,15.500101,29.250911,35.839334,37.357289,29.168635,40.814645,43.934091,44.428372,39.875706,50.14441,49.863205,47.277209,26.422336,51.065655,74.122799,93.245132,55.546978,87.577595,105.334968,118.187942,47.345695,82.950474,104.123932,119.037895,38.34518,71.138111,91.106621,105.244057,29.37125,55.623482,71.255241,84.340061,-15.285969,-17.067419,-12.550327,-12.544127,15.318758,29.283416,35.969714,40.808871,31.749122,45.436595,51.755564,55.550535,43.179,57.701771,63.469395,65.824914,50.785206,64.229283,68.314962,69.662727,2.44031,315.762219,-77.152805,302.134367
103,-9.171152,3.734733,1.319332,0.864135,6.335128,9.731071,12.429233,13.183662,-12.179158,12.880016,32.373996,44.126712,-20.551003,6.813308,30.463977,48.812793,-25.104756,-0.624321,22.350345,38.983921,-27.167702,-14.113152,1.617439,14.166526,-19.334041,-29.335706,-30.736588,-27.599186,-5.178426,7.791038,15.169792,19.781807,13.747433,26.768483,33.607946,35.459421,27.994883,38.84101,41.959887,42.516567,39.410534,48.828114,48.036523,45.18253,26.296131,50.867798,73.999489,93.116673,55.78196,88.174427,105.592381,118.056072,47.548565,83.488026,104.334126,118.927059,38.265701,71.508682,91.263348,104.975315,29.016735,55.601086,71.11742,83.897713,-15.745898,-17.743067,-12.758833,-12.377784,14.466454,28.856289,35.873939,40.967039,31.264036,45.189977,51.782228,55.656857,42.888267,57.439813,63.212773,65.390216,50.643402,63.959249,68.014226,69.168835,-7.011039,319.351678,-76.11367,302.853228
104,-3.551342,2.142703,0.540104,0.075508,6.596729,11.156971,17.103584,21.382095,-8.615284,18.475399,38.003036,50.455673,-16.569466,12.035579,36.607704,55.706337,-20.327259,4.657688,27.685684,44.806869,-21.623177,-6.73486,9.943725,23.347629,-18.692702,-28.93717,-31.567799,-30.389564,-6.843329,4.383921,12.555353,18.652045,11.371338,23.471578,31.111648,34.022859,25.746525,35.791181,39.676875,41.024417,37.62476,46.313895,45.865563,43.523962,26.176289,50.735058,73.859516,93.122749,55.884521,88.468666,105.702644,117.984055,47.857727,83.961101,104.573982,119.020752,38.558395,71.974331,91.53685,104.925499,29.280395,56.033981,71.435303,83.904098,-15.979672,-18.226918,-12.988939,-12.068895,13.963905,28.311786,35.407353,40.588509,30.912825,44.749141,51.372107,55.2569,42.620098,56.912626,62.536051,64.483856,50.497166,63.554315,67.416964,68.242184,-10.876922,321.389609,-75.888107,302.823964
105,-0.875016,0.541588,0.473442,-0.219646,7.170044,12.611138,19.482502,24.521599,-6.373226,20.508671,40.025551,52.712654,-14.324993,14.325566,38.99318,58.174622,-18.289718,6.56995,29.134804,46.091584,-19.864688,-5.327991,10.887143,24.077214,-18.204553,-28.400497,-31.972437,-31.846404,-7.512432,3.398298,11.691502,18.319544,10.248852,22.48971,30.107315,33.074101,24.557669,34.717502,38.675135,40.168902,36.543128,45.484168,45.197176,43.312245,26.187149,50.798069,74.007809,93.487038,55.93158,88.465851,105.641762,117.808182,48.018528,84.188828,104.679909,118.95829,38.788788,72.286835,91.6856,104.831566,29.621235,56.386333,71.686489,84.033611,-16.088403,-18.379812,-13.033635,-11.947667,13.791028,28.081519,35.123178,40.268222,30.885111,44.583341,51.030121,54.796945,42.671461,56.759497,62.086433,63.807701,50.569117,63.507705,67.200417,67.895109,-12.038029,321.874625,-75.700756,302.547746
106,5.214684,0.664484,0.602371,0.15513,6.388412,10.143471,15.362331,19.444805,-10.240242,16.28714,35.613029,48.263901,-18.251164,9.982098,34.356422,53.308388,-21.789276,1.984852,24.191803,41.16996,-22.783642,-9.234238,6.056351,18.678383,-17.853168,-27.86953,-31.455364,-32.054071,-6.630599,4.015061,11.695478,18.151422,10.532854,22.152886,29.212032,32.590434,24.364267,33.666954,37.274179,39.019134,35.915435,44.232388,43.750129,42.043805,26.03817,50.576741,73.876671,93.482598,55.864346,88.343949,105.341355,117.33799,48.115128,84.285462,104.583916,118.664429,39.034504,72.515934,91.706131,104.677963,30.010048,56.742142,71.90577,84.119385,-16.14309,-18.708943,-13.52833,-12.277193,13.41892,27.701197,34.72296,39.765017,30.591005,44.289062,50.744228,54.368817,42.469957,56.560722,61.826636,63.418698,50.440256,63.255343,66.877079,67.496386,-7.099251,322.502361,-75.374291,302.666128
107,6.610542,-0.86915,0.556767,0.162576,5.455467,7.273831,9.517719,10.476494,-15.738842,9.486992,28.921463,41.69458,-23.622722,4.059883,28.331886,47.221115,-26.575813,-3.380562,18.777992,35.729668,-26.845093,-13.842991,1.208359,13.773949,-17.655455,-27.266524,-30.03193,-30.769995,-5.464084,5.860942,13.461257,19.708286,11.712201,23.289959,30.304015,33.659396,25.151239,34.472835,38.068154,39.878997,36.191472,44.690292,44.05188,42.271146,25.913326,50.397629,73.701107,93.327747,55.772758,88.197429,105.075748,117.000515,48.137008,84.35313,104.558063,118.535946,39.155674,72.701271,91.81216,104.714046,30.219337,57.037159,72.126755,84.246036,-16.27894,-19.032181,-13.850617,-12.342005,12.998573,27.300969,34.356855,39.407903,30.305744,43.972481,50.396302,53.99067,42.336058,56.282833,61.418034,62.894153,50.424374,63.084073,66.600808,67.156414,-0.732411,321.606445,-75.061226,302.801938
108,2.366432,1.919475,0.273594,0.006669,5.623318,7.020207,7.409993,6.900216,-16.289199,7.963852,27.135888,39.747757,-23.975372,2.641377,26.021485,44.824311,-26.852932,-4.233604,17.037507,33.772934,-27.139183,-15.266063,-1.167698,11.326081,-18.289768,-28.930476,-32.426908,-33.753776,-7.229306,3.847433,11.31149,17.33071,9.698766,21.078787,28.007368,31.495686,23.088948,32.501316,36.14448,38.055161,33.937125,42.689295,42.652393,41.074163,25.905521,50.401313,73.689891,93.274864,55.628448,88.057434,104.972191,116.957267,48.114463,84.333435,104.574417,118.622543,39.305088,72.77045,91.896423,104.869857,30.514503,57.313545,72.371063,84.493423,-16.265824,-19.210504,-14.127309,-12.507052,12.716732,26.866913,33.852873,38.825584,30.087543,43.664173,50.041497,53.562814,42.170468,55.964349,61.011927,62.366792,50.314248,62.896574,66.415668,66.90152,1.412464,323.510013,-75.009189,302.7927
109,2.048024,0.007434,0.341709,-0.212298,5.311351,6.121227,4.840049,1.804653,-18.018895,6.304378,25.325008,37.573871,-25.244465,2.11045,24.087169,42.137752,-27.601788,-3.660359,16.85075,32.966251,-27.25462,-15.433674,-1.728608,10.695911,-18.920375,-30.16778,-33.495757,-34.491544,-7.43076,4.298891,11.14385,15.746565,9.687763,21.135969,27.374699,30.446992,22.859497,32.521151,35.763554,37.249282,33.189501,42.599671,42.639315,40.802326,25.684536,50.182857,73.517132,93.069797,55.223511,87.750149,104.883236,117.038143,47.822593,84.186184,104.600956,118.730587,39.240406,72.833896,92.053127,105.103351,30.680809,57.52288,72.553013,84.727466,-16.264638,-19.209577,-13.961138,-12.014691,12.565036,26.618503,33.547912,38.470112,29.987235,43.472216,49.795495,53.242082,42.104383,55.764636,60.718242,61.948594,50.227785,62.877048,66.414878,66.830186,3.286852,323.505755,-74.841116,302.56871
110,2.93597,1.178124,0.224933,-0.204875,5.169411,4.827335,1.406513,-3.097847,-20.538094,3.105789,21.96904,34.045944,-27.687653,-1.048405,20.117409,38.060806,-29.665192,-5.968689,14.165268,30.370651,-28.833263,-17.350536,-4.175022,8.299805,-19.814608,-32.096592,-35.985126,-37.558576,-9.113928,2.301265,8.72684,12.773011,8.405491,19.444427,25.280384,28.181974,21.735664,31.126209,34.153289,35.427471,32.005412,41.081475,41.215782,38.988334,25.618481,50.137047,73.444439,92.89254,54.872017,87.614228,104.87764,117.11348,47.498337,84.09375,104.686226,118.907662,39.020176,72.802254,92.128785,105.227898,30.545094,57.492989,72.573647,84.838761,-16.236567,-19.203674,-13.860967,-11.731702,12.221172,26.142185,33.053526,37.991187,29.67542,43.071283,49.434403,52.920523,41.847538,55.350636,60.310318,61.49248,50.022983,62.722425,66.308728,66.633041,6.047539,324.67596,-74.791466,302.355916
111,-6.511379,3.221951,0.397408,-0.438243,5.892219,7.667713,7.232265,4.784992,-14.988957,10.633312,29.277958,41.327327,-21.067406,7.73521,28.028835,45.637195,-22.139363,4.144787,23.267063,38.953365,-20.532841,-7.601899,5.680927,18.42667,-20.906688,-34.021883,-39.105399,-41.447741,-12.091558,-1.743671,5.173141,9.120376,5.325714,15.717222,21.85441,24.779082,18.72501,27.876075,31.306533,32.399305,28.903516,37.905837,38.802798,36.883843,25.582214,50.08239,73.334713,92.657822,54.488995,87.498642,104.912453,117.179398,47.016506,83.875717,104.682999,118.964951,38.502171,72.509056,91.980217,105.108925,30.063412,57.078838,72.238094,84.60775,-16.152475,-18.982892,-13.356565,-11.000478,12.345785,26.203318,33.011289,37.891609,29.828907,43.188201,49.506429,52.958376,41.957256,55.332865,60.278875,61.395779,50.010485,62.784274,66.419941,66.703017,-0.607927,327.898744,-74.538145,301.918506
