takenoko1/special-research/HandMotion_SimilarSearch_自分用/NewProject/handData/key/d4_feature_d3/134.csv
,vel_0x_L,vel_0y_L,vel_0x_R,vel_0y_R,posFromWrist_1x_L,posFromWrist_2x_L,posFromWrist_3x_L,posFromWrist_4x_L,posFromWrist_5x_L,posFromWrist_6x_L,posFromWrist_7x_L,posFromWrist_8x_L,posFromWrist_9x_L,posFromWrist_10x_L,posFromWrist_11x_L,posFromWrist_12x_L,posFromWrist_13x_L,posFromWrist_14x_L,posFromWrist_15x_L,posFromWrist_16x_L,posFromWrist_17x_L,posFromWrist_18x_L,posFromWrist_19x_L,posFromWrist_20x_L,posFromWrist_1y_L,posFromWrist_2y_L,posFromWrist_3y_L,posFromWrist_4y_L,posFromWrist_5y_L,posFromWrist_6y_L,posFromWrist_7y_L,posFromWrist_8y_L,posFromWrist_9y_L,posFromWrist_10y_L,posFromWrist_11y_L,posFromWrist_12y_L,posFromWrist_13y_L,posFromWrist_14y_L,posFromWrist_15y_L,posFromWrist_16y_L,posFromWrist_17y_L,posFromWrist_18y_L,posFromWrist_19y_L,posFromWrist_20y_L,posFromWrist_1x_R,posFromWrist_2x_R,posFromWrist_3x_R,posFromWrist_4x_R,posFromWrist_5x_R,posFromWrist_6x_R,posFromWrist_7x_R,posFromWrist_8x_R,posFromWrist_9x_R,posFromWrist_10x_R,posFromWrist_11x_R,posFromWrist_12x_R,posFromWrist_13x_R,posFromWrist_14x_R,posFromWrist_15x_R,posFromWrist_16x_R,posFromWrist_17x_R,posFromWrist_18x_R,posFromWrist_19x_R,posFromWrist_20x_R,posFromWrist_1y_R,posFromWrist_2y_R,posFromWrist_3y_R,posFromWrist_4y_R,posFromWrist_5y_R,posFromWrist_6y_R,posFromWrist_7y_R,posFromWrist_8y_R,posFromWrist_9y_R,posFromWrist_10y_R,posFromWrist_11y_R,posFromWrist_12y_R,posFromWrist_13y_R,posFromWrist_14y_R,posFromWrist_15y_R,posFromWrist_16y_R,posFromWrist_17y_R,posFromWrist_18y_R,posFromWrist_19y_R,posFromWrist_20y_R,posFromBody_0x_L,posFromBody_0y_L,posFromBody_0x_R,posFromBody_0y_R
6,-0.838509,0.686034,0.287212,0.012227,4.95623,3.496285,-1.625725,-6.907711,-25.275478,-4.173649,16.08886,30.616081,-33.256634,-9.08733,13.471184,32.594559,-35.840023,-15.018379,6.800125,24.19915,-35.391334,-26.530975,-13.255119,-0.780579,-18.783623,-29.925126,-34.077026,-35.939851,-7.458647,5.528342,12.205426,15.77523,9.214471,21.22689,28.078382,31.714506,21.903662,32.651605,36.978914,39.31524,31.661882,42.17899,44.494223,44.915768,25.645992,49.880562,73.020332,91.522602,56.219101,87.305363,103.797558,115.482662,48.319782,83.187344,102.986011,116.658085,39.09985,71.608818,90.366291,103.240208,29.615044,54.969017,69.894882,82.482799,-14.400863,-16.464599,-13.589129,-17.768446,14.751395,28.768504,35.810287,40.571527,31.146574,43.811497,49.682282,52.622367,42.8536,55.79393,60.39194,61.479068,50.952056,64.064509,68.203911,69.38895,4.64887,310.8177,-78.516661,289.319208
7,-0.562843,0.361339,0.159222,-0.124761,5.262909,3.745445,-1.568138,-7.38842,-25.039582,-3.214314,17.448097,32.015854,-33.023632,-7.326542,15.382553,34.303413,-35.465882,-13.198277,8.682472,25.957695,-34.859883,-25.305393,-11.937641,0.583854,-19.116804,-30.30872,-34.413146,-36.455665,-7.602686,5.603504,12.075392,15.363033,9.270664,21.263582,27.669396,30.97891,22.076044,32.740279,36.677114,38.525613,31.857099,42.421385,44.495791,44.398534,25.683357,49.892578,72.991424,91.44564,56.366546,87.361198,103.832977,115.509681,48.421177,83.276252,103.091789,116.780983,39.12482,71.634716,90.422172,103.311058,29.526569,54.941494,69.896232,82.486885,-14.477285,-16.438033,-13.456785,-17.612082,14.791546,28.831947,35.878657,40.639589,31.206596,43.889328,49.72762,52.695258,42.943695,55.861794,60.451912,61.58975,51.07347,64.220268,68.351593,69.538658,4.089895,311.186221,-78.353571,289.201629
8,-0.828804,0.65159,0.085807,-0.028713,5.734726,4.462166,-0.930199,-7.189659,-23.712422,-0.823277,19.888458,34.259926,-32.141453,-5.696835,16.669075,35.36927,-34.866886,-11.73103,9.795639,26.721611,-34.607208,-24.267082,-10.786457,1.780609,-19.409031,-30.996619,-35.374365,-37.678076,-8.054501,5.251774,11.623256,14.881726,9.178804,21.217343,27.223052,30.117825,22.102424,32.524375,36.018843,37.529579,31.885196,42.391411,44.132625,43.604844,25.704506,49.887429,72.997616,91.496247,56.443394,87.451355,103.902375,115.590615,48.508816,83.387902,103.227723,116.948777,39.2039,71.779656,90.566437,103.444725,29.5933,55.075184,70.030026,82.611718,-14.59476,-16.490707,-13.379302,-17.506514,14.687372,28.762465,35.889314,40.722815,31.192578,43.867863,49.717158,52.7175,43.028131,55.883332,60.459038,61.620155,51.259066,64.331171,68.379775,69.516786,3.260233,311.843501,-78.268622,289.178606
9,2.090561,-1.081472,-0.000927,-0.011906,4.664772,2.341621,-4.080986,-11.033295,-26.202187,-2.980419,17.851799,31.941993,-34.504395,-7.834866,14.640495,33.096061,-36.983689,-13.625416,8.238784,25.083961,-36.326466,-26.47696,-13.399819,-1.366585,-19.276959,-30.318204,-34.435722,-36.289988,-6.4389,8.007436,14.417314,17.565868,10.689219,23.267321,29.18947,32.070509,23.282153,33.963962,37.353529,38.749323,32.741921,43.650243,45.221284,44.457308,25.76643,49.893174,72.976788,91.496739,56.470643,87.405659,103.802433,115.522717,48.586682,83.415493,103.23396,117.000195,39.318798,71.867146,90.666813,103.597561,29.717778,55.208565,70.160363,82.759861,-14.723015,-16.587025,-13.363147,-17.425398,14.589597,28.616907,35.75045,40.596956,31.154886,43.802111,49.641959,52.662493,43.057525,55.882135,60.463101,61.685512,51.349741,64.389316,68.396856,69.507882,5.352522,310.768843,-78.267821,289.173514
10,-0.987316,2.584107,-0.007473,-0.013103,4.298137,2.15784,-3.772763,-9.498105,-24.329098,-0.581177,19.818386,32.975406,-32.707135,-6.184731,15.768734,34.048862,-35.742074,-12.641373,8.603221,25.16463,-35.948193,-25.620427,-12.729138,-0.7095,-19.847953,-32.107151,-37.519513,-41.005769,-8.168456,4.570024,10.469362,13.720966,8.954242,20.244045,25.887069,28.849101,21.635405,30.952925,34.028392,35.484121,31.062964,41.134074,42.698323,41.88323,25.894192,49.979474,73.025116,91.550103,56.510926,87.404641,103.811097,115.616135,48.640629,83.401452,103.21502,117.026391,39.395497,71.907692,90.749703,103.739869,29.805348,55.294579,70.255406,82.878823,-14.770168,-16.57433,-13.244105,-17.303935,14.516521,28.561739,35.706089,40.606416,31.068929,43.680067,49.530376,52.603792,43.003505,55.785532,60.399239,61.686636,51.347715,64.337001,68.358842,69.502311,4.36504,313.357511,-78.27546,289.164972
11,-11.457047,1.90111,-0.025039,0.019612,6.712933,8.451782,7.128628,5.078911,-13.025894,12.847973,32.183956,44.886326,-20.152096,8.393841,28.876041,46.245907,-22.746071,2.661266,22.457348,37.881718,-22.835278,-10.072929,2.694557,14.439022,-20.457343,-32.512876,-38.597033,-42.663002,-8.574168,3.287505,9.145545,12.096226,7.60171,19.113197,24.633264,27.230697,19.604805,29.726525,32.892654,33.955786,28.33593,39.116095,41.628744,41.145831,25.930286,50.007122,73.078056,91.631012,56.457687,87.333618,103.783584,115.691299,48.663769,83.354851,103.199959,117.090729,39.495346,71.936256,90.837547,103.914436,29.951465,55.429126,70.382469,83.021164,-14.791262,-16.616061,-13.269472,-17.26339,14.411681,28.420318,35.563877,40.505738,30.899708,43.494409,49.380038,52.535743,42.822082,55.607863,60.271971,61.626466,51.202441,64.170398,68.219311,69.391593,-7.100636,315.276785,-78.309128,289.202748
12,5.157372,-2.474697,0.022991,-0.013499,5.217098,5.607948,2.238521,-1.601521,-17.547375,5.625732,25.61967,38.910038,-25.712792,0.597129,21.83591,39.993015,-29.082894,-5.98082,14.854122,31.253208,-29.794774,-20.459828,-8.442811,3.163524,-19.133427,-30.579422,-35.93569,-38.917605,-7.992652,5.403346,12.044776,15.378038,8.370243,20.626428,26.761097,29.782508,20.560775,31.146562,34.844349,36.50299,29.774035,40.586693,43.134021,43.24264,25.889671,49.918465,73.03157,91.623699,56.492969,87.299641,103.786961,115.785725,48.783703,83.333004,103.179851,117.104336,39.650814,71.969387,90.910572,104.058254,30.075634,55.551235,70.523151,83.1954,-14.817098,-16.620049,-13.230989,-17.237356,14.390094,28.32437,35.456951,40.441456,30.832438,43.344232,49.255834,52.463533,42.749514,55.524649,60.207158,61.559912,51.168528,64.101015,68.182088,69.379947,-1.959594,312.81683,-78.302467,289.203991
13,-1.956253,-3.307105,-0.010414,0.048289,5.184791,6.046508,3.743831,0.451984,-16.659039,6.328376,26.423686,39.468784,-24.813492,1.579536,23.159854,41.313526,-28.504555,-5.249829,16.370372,32.957302,-29.589524,-19.573849,-6.771756,5.006435,-19.014916,-29.123841,-32.973115,-34.049795,-5.924187,8.906756,15.574108,18.744041,10.653391,24.073855,30.584522,33.723542,22.927742,34.406564,38.224295,40.019071,32.161874,43.766889,45.912888,45.491491,25.93222,49.896263,72.993267,91.554188,56.392193,87.221294,103.715893,115.753269,48.777832,83.310642,103.124645,117.023083,39.766239,71.996761,90.913547,104.036213,30.302055,55.721443,70.67593,83.344013,-14.814455,-16.694533,-13.343486,-17.30128,14.256095,28.06676,35.20943,40.290056,30.715618,43.061748,48.942783,52.174664,42.653035,55.32191,60.008766,61.356629,51.090265,63.910108,68.004629,69.204427,-3.954751,309.522471,-78.351785,289.265026
14,-2.867032,-1.346172,0.166088,0.050153,5.376069,7.33936,7.635018,6.578247,-13.750328,9.565991,29.592911,42.946335,-22.005729,4.042683,26.03714,44.676522,-26.07843,-3.219143,18.391732,35.238511,-27.624435,-16.91645,-3.117931,9.477448,-18.564199,-28.428864,-31.87886,-33.020736,-6.11723,8.675785,15.69178,19.598136,11.204835,24.539577,31.434702,34.468846,24.318832,35.560482,39.418919,40.93898,34.377616,45.62118,47.422254,46.703442,25.902157,49.733425,72.829365,91.42971,56.171436,87.100983,103.597298,115.599609,48.619995,83.239494,103.062286,116.930763,39.701328,71.992069,90.919189,103.997864,30.348759,55.78458,70.777256,83.459839,-14.775404,-16.78081,-13.504345,-17.334007,14.154319,27.831566,34.966715,40.103472,30.669343,42.816464,48.637478,51.84514,42.658951,55.19878,59.843757,61.116557,51.134059,63.832846,67.913425,69.075864,-6.873259,308.188874,-78.237173,289.327754
15,-0.619091,-3.207267,0.221317,0.052007,4.677121,6.955078,9.016995,9.065335,-14.326206,9.116661,29.086384,42.45583,-22.391155,3.794243,26.689167,45.682103,-26.197414,-3.929409,18.204861,35.415745,-27.264335,-17.111549,-3.499523,8.839566,-17.556766,-26.244987,-28.886781,-28.950507,-4.104735,11.565136,18.929342,23.659263,13.769589,27.3365,34.832753,37.872207,27.220533,38.412659,42.980658,44.818289,37.745236,48.746134,50.084747,49.504268,25.727886,49.435879,72.495987,91.071156,55.831536,86.901867,103.431141,115.434712,48.35344,83.095928,102.972874,116.863415,39.529232,71.89523,90.847492,103.898564,30.283241,55.720562,70.723549,83.401051,-14.822051,-16.960949,-13.733613,-17.352471,14.065965,27.613487,34.745413,39.913737,30.646581,42.637264,48.446755,51.662766,42.674931,55.100016,59.725677,60.970319,51.158339,63.758362,67.807905,68.901714,-7.558005,304.99547,-78.081511,289.393624
16,0.087777,-0.58774,0.229328,0.069778,3.433742,6.418155,10.387332,11.993305,-14.599926,9.181182,29.099956,42.591648,-22.905888,3.027099,26.759113,46.213428,-27.028462,-5.519886,16.812343,34.418666,-28.186158,-19.091881,-6.59824,5.008667,-17.205838,-25.902149,-28.805258,-28.877593,-4.581535,10.21353,17.426769,23.293478,13.977527,26.721243,34.638227,38.061114,28.056473,38.099881,43.195636,45.418577,39.130717,48.863237,49.883255,49.455263,25.59771,49.192429,72.177842,90.700241,55.514145,86.692864,103.254364,115.273018,48.058903,82.894089,102.786347,116.679108,39.299435,71.753334,90.66758,103.639252,30.150158,55.630291,70.638714,83.295411,-14.854568,-17.109916,-13.951382,-17.406898,13.953221,27.341724,34.513231,39.770328,30.638627,42.473995,48.267308,51.48716,42.746846,55.016282,59.606536,60.815276,51.263475,63.749853,67.74156,68.757095,-7.534984,304.400885,-77.916939,289.456557
17,-2.450982,-0.190438,0.255673,0.126193,4.131993,8.057545,12.889973,15.300019,-11.713977,12.216912,32.086041,45.449124,-20.093044,5.56762,29.129071,48.503804,-24.70697,-3.33744,18.946095,36.544293,-26.375633,-17.674587,-5.578548,5.950825,-17.346,-26.358448,-29.777864,-30.35323,-4.333941,10.391655,17.331191,22.966361,14.350585,27.351962,34.847165,37.857362,28.388912,38.530701,43.352037,45.441646,39.430836,49.200851,50.307134,49.897519,25.488853,49.017597,71.978416,90.478283,55.031135,86.430347,103.02618,115.041241,47.578022,82.644207,102.583591,116.474315,38.91386,71.562195,90.464344,103.358036,29.942528,55.49469,70.509796,83.140583,-14.891754,-17.32929,-14.309584,-17.581318,13.710938,26.983263,34.191746,39.529612,30.494477,42.24032,48.041647,51.279481,42.669658,54.834674,59.418531,60.639312,51.195031,63.608753,67.548331,68.499435,-10.043971,304.196421,-77.719271,289.568724
18,-5.745048,1.428139,0.312126,0.01235,5.452663,11.496014,18.096096,21.634598,-5.530827,19.410301,38.808781,51.832638,-13.952843,12.646591,35.721393,54.607715,-19.077656,3.300259,25.064381,42.440243,-21.515579,-11.802761,0.232349,11.79047,-18.334525,-28.13539,-32.317165,-33.494992,-6.247092,7.721259,14.755878,20.849026,12.739702,25.402057,32.589607,35.644486,27.224311,36.823388,41.510874,43.614871,38.685126,47.831881,48.904461,48.449681,25.353619,48.828632,71.779633,90.296459,54.700813,86.196064,102.849941,114.893406,47.178062,82.35696,102.377964,116.287067,38.449345,71.275154,90.255787,103.159458,29.433025,55.13134,70.209183,82.84029,-14.95327,-17.451,-14.447127,-17.632028,13.459824,26.802223,34.056291,39.424723,30.297234,42.178174,48.080402,51.384963,42.547405,54.812024,59.431054,60.704483,51.109976,63.603702,67.529262,68.482034,-15.824352,305.607026,-77.442478,289.56354
19,9.068893,-3.249245,0.141243,-0.051167,4.05439,7.128903,8.538151,7.705994,-13.914985,7.902981,28.320637,41.951512,-23.481113,1.164116,25.041905,44.617688,-29.226288,-8.84721,14.353672,32.829357,-32.045219,-26.244026,-15.820507,-4.97818,-17.929727,-27.308367,-30.234916,-29.933661,-4.176477,11.854856,18.828614,24.295996,15.029852,28.803874,35.678437,38.78736,29.338361,39.576481,44.172428,46.818026,40.871091,50.553703,51.722762,51.759059,25.316574,48.809166,71.755051,90.2272,54.528007,86.01939,102.792561,115.012676,46.951664,82.093494,102.184513,116.158688,38.169914,70.988056,90.02837,102.997456,29.082024,54.896038,69.984306,82.588451,-14.969077,-17.490841,-14.491574,-17.591049,13.291863,26.761258,34.092526,39.516893,30.088766,42.130985,48.178339,51.591222,42.341517,54.723598,59.47491,60.881979,50.922626,63.5154,67.497733,68.510551,-6.784275,302.348462,-77.330051,289.503054
20,-3.612934,0.252448,0.130726,-0.108458,5.857601,10.080437,11.289459,10.008305,-10.204113,12.213524,32.649307,46.056107,-20.348282,5.286038,28.702446,47.981804,-26.85553,-5.017822,18.353096,36.903763,-30.792824,-22.90662,-11.495338,-0.070896,-19.473536,-29.173871,-31.924185,-31.391329,-4.93539,11.617944,18.540129,23.535156,14.37247,28.731491,35.086077,38.131151,28.887657,39.513817,43.415615,45.936156,40.33028,50.594471,51.72785,51.055537,25.340504,48.861397,71.834427,90.286583,54.485939,85.89798,102.728943,115.03141,46.838642,81.880371,101.989105,115.965454,37.97073,70.739147,89.782196,102.776756,28.780506,54.694084,69.807987,82.387733,-14.908563,-17.427942,-14.455734,-17.534116,13.19526,26.752761,34.133639,39.561328,29.944874,42.126921,48.278695,51.738027,42.183053,54.687956,59.544329,61.04647,50.762025,63.462158,67.493929,68.565867,-10.41334,302.587032,-77.215456,289.380718
21,11.805153,-2.18946,0.078335,0.00909,4.29166,4.131798,-1.037521,-7.159447,-20.562389,-2.092358,19.536301,33.557488,-31.768341,-9.325916,14.647659,34.636322,-38.678078,-19.827015,4.841286,24.458908,-42.968182,-39.057392,-28.102661,-16.524948,-18.923043,-28.477067,-30.057124,-28.669518,-3.452256,15.080142,22.474198,26.860577,15.836819,30.99951,37.307042,40.611875,30.113206,41.143176,44.882682,47.947071,41.586889,52.089301,53.365064,53.216382,25.415805,48.943096,71.93264,90.408954,54.345085,85.767505,102.672947,115.048702,46.661567,81.728908,101.901752,115.929737,37.796619,70.582145,89.688984,102.74216,28.629169,54.586452,69.731861,82.309902,-14.906439,-17.461881,-14.499368,-17.53135,13.090963,26.765321,34.142729,39.537776,29.801465,42.04651,48.237705,51.726727,42.0154,54.571482,59.468512,61.007986,50.5715,63.312821,67.361091,68.447466,1.381828,300.395766,-77.147106,289.388002
22,-9.603229,0.323869,0.064968,-0.064245,6.52771,9.254848,7.682865,4.096046,-12.317208,9.312114,30.011364,43.133709,-22.638485,2.879161,26.230877,45.411403,-29.296063,-7.225811,16.718891,35.368709,-33.691384,-24.89748,-12.562512,-0.891472,-19.386444,-28.108022,-29.602321,-28.505843,-2.984596,15.101507,22.288737,26.762122,15.675317,30.974253,37.326432,40.564586,29.771306,41.327031,45.023052,47.909884,40.811785,52.003517,53.414736,52.860044,25.488189,49.019382,72.031025,90.514915,54.249309,85.62014,102.586921,115.058372,46.57814,81.610634,101.835891,115.952522,37.719131,70.485225,89.631065,102.767807,28.546772,54.519893,69.676883,82.272011,-14.865054,-17.411628,-14.422525,-17.455743,13.0787,26.804137,34.148694,39.496786,29.736281,42.010892,48.218315,51.718884,41.913413,54.521525,59.449702,61.012074,50.451222,63.259678,67.342665,68.446626,-8.230493,300.721861,-77.09123,289.325983
23,12.524002,-3.272044,0.090339,0.003075,4.167354,2.526729,-3.889927,-10.916279,-23.606449,-5.713703,15.954219,29.890743,-34.711521,-12.712201,11.649501,31.823467,-41.515995,-23.05933,2.06036,21.713825,-45.444821,-41.564347,-29.973427,-18.137272,-17.091476,-25.13259,-25.872101,-24.077473,-0.292005,19.359076,26.767878,30.866277,18.201218,34.210074,40.859062,44.149989,31.893446,44.023166,48.041142,51.227586,42.872731,54.431432,55.9478,55.979132,25.517979,49.053109,72.085911,90.599007,54.077282,85.47979,102.556229,115.139237,46.428704,81.456688,101.723717,115.904847,37.651349,70.387471,89.520287,102.674492,28.592961,54.522366,69.658917,82.247429,-14.762955,-17.394215,-14.477718,-17.45988,13.155653,26.873878,34.230118,39.59366,29.764612,41.995825,48.227874,51.763184,41.886514,54.44866,59.376158,60.92613,50.382507,63.176389,67.274357,68.357496,4.279827,297.460333,-77.014573,289.339574
24,-7.773033,1.707646,0.153798,0.034543,5.301349,6.014316,3.389888,-0.611195,-17.116585,3.876731,24.694599,37.611751,-27.48333,-3.081723,20.559803,39.799015,-33.723679,-12.743157,11.579921,30.32127,-37.358815,-28.855969,-15.469048,-3.056511,-18.0544,-25.840127,-26.733173,-24.754987,-1.446565,16.798805,24.294267,28.963698,16.905682,32.139768,38.96824,42.469896,30.653633,42.303775,46.243007,49.152525,41.243174,52.524864,53.772543,53.089892,25.531391,49.040325,72.06554,90.605999,53.742725,85.261974,102.434955,115.067333,46.092166,81.257206,101.595874,115.809848,37.396785,70.229003,89.387134,102.53667,28.501876,54.385494,69.544475,82.160877,-14.722397,-17.429807,-14.578791,-17.539698,13.258962,26.923266,34.214915,39.549336,29.885668,42.066826,48.249005,51.76931,41.956799,54.485921,59.313815,60.785006,50.347149,63.134078,67.210136,68.243591,-3.50509,299.167161,-76.872659,289.373299
25,2.774139,0.779821,0.207035,0.090168,4.050808,3.524036,1.19331,-1.68829,-19.413677,0.920219,21.663883,34.80035,-29.404759,-6.333561,17.537189,37.004688,-35.15086,-15.547634,8.406727,26.916721,-38.126267,-31.302498,-18.265595,-5.871117,-17.014461,-25.025256,-26.58517,-26.134947,-1.673423,15.026766,22.283217,27.110444,16.49314,30.852791,37.548709,41.133321,30.197866,41.53108,45.384577,48.140819,40.886159,51.907459,53.549377,53.534989,25.426345,48.908477,71.909957,90.362823,53.75386,85.242324,102.392509,115.003898,46.044937,81.191986,101.46849,115.653488,37.299957,70.099193,89.195572,102.316017,28.347942,54.206977,69.352855,82.005157,-14.784741,-17.567498,-14.776306,-17.76011,13.298371,26.994439,34.344344,39.733833,29.900574,42.043818,48.253871,51.778103,41.912141,54.403187,59.195921,60.619292,50.263995,62.985482,67.039582,68.049608,-0.740072,299.949242,-76.674745,289.465727
26,1.050842,0.058565,0.154106,-0.175767,3.862622,2.807568,0.033451,-3.64587,-21.142811,-0.493503,20.513981,33.593136,-30.992832,-7.385124,16.831043,36.20612,-36.319931,-16.069279,7.974987,26.374981,-38.841991,-30.133598,-15.355202,-1.987861,-16.817528,-24.734387,-26.035691,-24.968533,-2.358323,14.457339,22.170843,27.271526,15.713676,30.11281,37.397185,41.312779,29.586808,41.118055,45.368151,48.193998,40.40711,51.867567,53.400644,53.119569,25.393902,48.903888,71.877056,90.212974,53.971618,85.280227,102.373306,114.991379,46.175594,81.116775,101.286941,115.388077,37.241935,69.863159,88.895187,101.999748,28.020092,53.888386,69.077179,81.79113,-14.640713,-17.372984,-14.65215,-17.75223,13.4948,27.208924,34.603351,40.053677,29.996708,42.203814,48.514187,52.117608,41.940287,54.501445,59.355349,60.856637,50.301528,63.079689,67.131788,68.150966,0.302318,300.006149,-76.529091,289.288302
27,9.185658,-0.120772,0.04557,-0.057884,1.667289,-2.838204,-8.987114,-14.935513,-30.199024,-11.464852,10.004768,23.943466,-39.800904,-17.95784,6.703674,26.605201,-43.984337,-25.671707,-1.319893,17.556816,-45.134903,-38.041146,-22.94093,-9.123768,-16.291611,-24.131196,-24.774339,-22.783308,-1.884017,14.896929,22.645086,27.547304,15.881885,29.931055,37.487551,41.660953,29.348538,40.583347,45.139477,47.990839,39.883961,51.20832,52.757576,52.706644,25.308781,48.850983,71.805668,90.050972,54.164269,85.431336,102.495804,115.078308,46.316506,81.165436,101.283348,115.322411,37.311344,69.823746,88.809128,101.856995,27.996231,53.883396,69.084126,81.799484,-14.658622,-17.375986,-14.709628,-17.822639,13.641258,27.374217,34.82097,40.333109,30.105623,42.286212,48.629252,52.26645,42.011757,54.553043,59.391793,60.8761,50.352199,63.078515,67.105765,68.104529,9.480789,299.879816,-76.490708,289.224857
28,2.641617,0.701028,0.028381,-0.212261,1.264411,-4.176156,-11.394585,-18.32491,-33.285874,-14.452584,7.393775,21.625968,-42.756043,-20.843159,4.28881,24.46772,-46.481633,-28.060719,-3.463143,15.630706,-47.157406,-39.194584,-23.283314,-9.063561,-16.419188,-24.787245,-25.664941,-23.880675,-3.070317,13.767983,21.751595,26.804582,14.95884,28.809951,36.758674,41.19223,28.845939,39.867906,44.659219,47.457711,39.745578,51.057031,52.498817,52.167637,25.331017,48.914406,71.816311,89.914902,54.372963,85.425065,102.41684,114.99099,46.472397,81.120232,101.245972,115.330536,37.347725,69.664731,88.686585,101.810761,27.847241,53.621567,68.845871,81.618897,-14.569812,-17.120981,-14.454475,-17.720257,14.024926,27.80043,35.180691,40.582309,30.375596,42.640141,48.955306,52.513007,42.175124,54.832686,59.667076,61.116198,50.457805,63.275338,67.355978,68.408551,12.116398,300.56595,-76.468335,288.997702
29,6.909805,-0.831605,-0.018951,-0.624099,0.462868,-7.119072,-17.719803,-27.333927,-39.986538,-23.008988,-1.265236,13.27597,-49.428509,-29.168621,-3.984055,16.456604,-52.629078,-36.36208,-11.691605,7.62323,-52.476425,-47.387409,-32.833523,-19.336739,-14.676134,-21.967154,-21.474645,-18.672213,-1.2893,16.806943,24.85585,29.742061,15.505503,30.155035,38.59765,43.581872,28.387516,40.205224,45.724241,49.206581,38.761585,50.509083,52.851214,53.674223,25.366505,49.055214,71.855003,89.751457,54.568165,85.137177,101.946579,114.527435,46.541519,80.533951,100.579651,114.666985,37.232666,68.994701,87.970917,101.112557,27.481682,53.018807,68.119892,80.769356,-14.409928,-16.735597,-13.937254,-17.131516,14.409322,29.007429,36.856314,42.599546,30.682569,43.856069,50.677254,54.583955,42.448406,55.799833,61.087916,62.928301,50.738164,63.848765,68.236539,69.683104,19.004357,299.705714,-76.509132,288.344972
30,11.819778,-3.179727,-0.333549,-2.156708,-2.800918,-14.165428,-30.76078,-46.012756,-51.977142,-39.500358,-17.351028,-2.203514,-61.96899,-45.277725,-20.160095,0.687241,-64.849628,-52.417957,-27.771526,-7.795921,-64.05534,-62.457939,-48.901233,-35.516716,-12.676878,-18.016646,-14.610493,-8.179336,2.37628,23.424488,32.688668,37.793821,18.320187,34.229711,44.104491,50.012202,30.265236,42.496646,49.438813,54.053619,39.993964,51.882672,54.164461,55.216181,25.84505,49.60754,71.950332,89.703506,53.572013,83.193901,99.581543,112.10733,44.848594,77.833763,97.669784,111.817268,35.136577,66.012565,84.856292,98.08921,25.272937,49.949672,64.84687,77.168163,-13.727388,-15.227281,-11.912803,-14.701365,14.879639,31.702699,40.661708,47.346598,31.12101,47.152343,55.357059,60.150348,42.924268,58.852305,65.291193,67.94199,51.034197,65.641825,70.822499,72.820705,30.763046,296.499104,-76.90377,286.161381
31,0.457741,-0.990952,-0.493893,-4.334953,-4.472317,-16.866543,-33.957573,-49.694446,-52.870977,-44.943129,-27.164537,-14.086761,-61.92326,-51.398638,-30.593182,-11.868885,-64.065857,-57.038744,-36.461929,-18.809383,-62.662863,-63.855949,-52.838488,-41.18771,-7.730812,-9.843756,-4.847537,2.261269,8.405911,27.872833,35.833085,40.070775,20.377334,34.047294,42.441151,47.347931,28.531012,38.160013,44.002986,48.032984,34.551739,43.811374,45.99335,47.262104,26.321033,50.413593,71.98518,89.455524,51.587505,79.855408,95.304531,107.227604,41.439857,72.810699,91.786663,105.638912,30.788143,59.896282,78.015037,91.035896,20.547352,43.625908,57.721058,69.188953,-12.566814,-12.307437,-7.46245,-9.366438,14.832672,34.557803,45.182233,53.270821,30.410559,50.104137,60.495768,66.905818,41.874696,60.996489,69.184223,73.208572,49.663337,65.929705,72.33121,75.252918,31.072586,295.524859,-77.545864,281.843135
32,5.800301,-2.470695,-4.296845,-10.119694,-7.987942,-23.595738,-43.331108,-61.2449,-58.133498,-60.376231,-49.534247,-40.146561,-66.362584,-68.562201,-54.624356,-39.345921,-67.91129,-71.785487,-57.312481,-43.20203,-66.021487,-74.412655,-67.853022,-59.151982,2.019923,4.640642,11.348077,19.183203,17.228562,34.102412,40.03662,42.896708,22.574561,31.687452,37.440083,40.706871,24.438577,28.795143,32.527832,35.691139,24.506392,28.496926,30.468369,32.620883,29.823521,54.59681,74.164559,88.963429,54.493973,80.329995,91.576516,98.984162,42.732148,71.419945,85.626789,94.432572,30.976513,57.658905,71.392262,79.992508,19.760914,41.247506,52.959114,61.222973,-8.573452,-4.661316,3.199079,5.130607,22.069869,46.412005,57.828865,65.1083,35.679561,60.351802,71.356368,76.651132,45.229855,68.082114,76.997515,80.487833,51.209864,69.61571,76.751316,79.458182,36.595179,293.173157,-82.120417,271.842434
33,4.772186,-2.280011,-12.130588,-19.154015,-13.950611,-32.908367,-53.774345,-71.115303,-61.973528,-73.258684,-70.253088,-65.912956,-66.431156,-79.255858,-74.583126,-65.897415,-64.965328,-78.054938,-72.761284,-65.317749,-60.670183,-74.171162,-73.757509,-70.400837,1.443397,5.942168,15.434547,25.538285,20.109145,35.57348,41.121526,44.137274,25.198163,34.377004,39.606943,42.750798,26.589604,31.768179,35.48196,38.667027,25.822973,30.160124,32.965877,35.890754,31.34745,56.723957,74.783295,87.588718,54.238495,78.695286,89.310676,96.550381,40.755718,67.493603,80.312759,88.311825,27.903763,52.754711,65.461647,73.844204,16.330902,36.679424,47.584911,55.407349,-7.027888,-1.015288,9.152659,14.766203,19.623293,45.472337,58.031407,66.42172,32.053528,60.96144,74.805215,82.226627,41.493758,68.243147,79.662367,85.039185,47.980836,68.589987,77.01998,80.873132,41.018269,291.195399,-94.600101,252.990672
34,7.864998,-3.156187,-16.037361,-27.512352,-20.194096,-42.895123,-65.843376,-84.196243,-67.138247,-88.390463,-92.350645,-92.816506,-68.702728,-92.560747,-96.249745,-94.122025,-65.251786,-87.512656,-90.369873,-89.121437,-59.398916,-78.075623,-82.250204,-83.139507,0.714953,5.675876,16.59254,27.358082,22.022025,36.233147,41.457127,44.235741,28.012414,36.828409,41.412018,44.096537,30.046911,35.666334,39.352093,42.29064,29.408078,34.213088,37.231201,40.100477,31.876121,57.007473,73.196926,82.900223,50.179332,72.969108,82.412819,88.227756,35.170944,61.10622,72.592117,78.491935,21.988884,46.548259,58.429996,65.535976,11.029484,31.828113,42.39291,49.274585,-7.039708,0.001346,12.716756,21.972958,12.999326,41.425795,54.90402,63.396529,24.429303,57.432267,72.729907,80.713543,34.400697,64.407075,76.88503,82.681998,42.239665,64.731116,73.286031,77.01499,48.501732,288.687236,-111.018997,226.126344
35,4.387047,-2.167106,-17.165051,-29.076281,-24.186711,-49.507245,-73.556946,-91.492001,-69.294394,-98.159666,-109.283324,-115.019543,-67.521195,-100.359061,-112.08228,-116.736523,-61.763043,-91.233943,-101.377877,-106.390995,-54.078673,-76.440297,-85.070555,-90.779148,-0.779951,4.542657,16.558639,27.784258,22.967769,35.532329,39.702502,41.936959,29.793703,37.853997,41.211873,43.311949,32.357253,38.32296,41.200282,43.481707,31.696314,36.934638,40.381842,43.454611,31.140393,54.859795,67.92556,73.387928,45.059349,61.872185,67.690247,70.558548,27.882282,48.996449,58.712116,62.701172,13.477856,33.805172,43.792591,48.900204,1.74099,19.147339,28.820801,34.555344,-5.536616,-0.649608,10.602453,19.756044,-0.804978,20.240649,29.065919,33.399754,6.708738,37.825913,53.754635,61.780429,15.912772,44.292379,57.109115,62.860085,24.803084,45.61251,54.229786,57.629041,52.385399,287.195247,-128.687428,197.72518
36,2.929779,-1.000968,-20.79079,-35.381887,-27.381546,-53.987847,-78.375698,-95.766735,-69.705117,-102.516518,-117.576325,-126.89748,-65.24944,-102.283654,-119.061322,-128.943592,-57.730557,-90.688649,-105.79192,-115.419434,-48.778347,-73.049298,-84.860665,-94.072586,-6.68132,-2.977938,9.727641,21.227914,19.612684,32.101038,36.736333,39.607653,30.49491,40.125245,43.91924,46.611483,36.732628,45.495271,49.030741,51.557827,39.118367,47.084319,51.040322,54.048678,30.435413,50.453716,58.359981,59.008827,39.780407,50.660888,53.439903,53.978611,22.023834,36.80579,44.61858,47.166309,7.394222,22.222263,30.546547,34.228294,-4.441017,8.515422,17.137447,22.180858,-7.438819,-8.087013,-1.773898,5.616781,-15.223934,-4.91067,-1.779091,-1.559513,-9.754651,11.934576,26.339997,33.882377,-0.987247,18.882659,30.788583,36.670106,8.583326,22.309319,30.463763,34.404656,54.558192,286.817943,-150.235204,162.966957
37,1.636711,0.3336,-21.051922,-38.44882,-29.726235,-56.274605,-80.309635,-96.798111,-68.52277,-101.606461,-117.383778,-128.537121,-62.107578,-98.486206,-117.262264,-130.604862,-53.407952,-86.061115,-103.706578,-116.125569,-43.660538,-68.025032,-81.687962,-92.96592,-16.965221,-17.056254,-4.281687,7.545753,11.777891,25.690494,32.405098,37.110553,29.919038,43.619047,49.603081,54.002094,42.915252,57.048329,62.7338,66.312508,51.283112,64.369112,68.92071,71.503717,26.33012,41.967487,45.431465,42.929031,28.861324,34.869839,37.604965,39.483513,10.780609,20.254543,30.50544,36.657406,-3.827603,6.247032,16.907032,23.701526,-15.133347,-6.891152,2.465309,9.328193,-12.376042,-21.091199,-21.630607,-18.90056,-40.403727,-42.98448,-44.671538,-46.592408,-35.781585,-23.090547,-7.16997,3.162517,-26.000159,-12.971409,0.382136,8.555847,-14.323428,-6.762059,2.189256,7.961888,55.118351,287.895589,-172.363678,125.262183
38,0.077591,0.243445,-16.08712,-39.555177,-29.46135,-55.329804,-79.396626,-96.633396,-67.206711,-100.413883,-116.558041,-128.311844,-60.995568,-97.194397,-116.013794,-130.010124,-52.689766,-85.203312,-102.780716,-115.339714,-43.344452,-67.887966,-81.455818,-92.753186,-17.062083,-16.922107,-4.224,6.959222,11.346601,24.97777,31.668341,36.343959,29.418168,42.352163,48.270507,52.792292,42.481801,56.016973,61.714659,65.33248,50.809746,63.64247,68.159944,70.701419,23.560364,34.172092,31.832794,25.061233,19.226978,18.79858,17.476536,16.080253,0.606869,5.503715,14.799282,19.938766,-13.948723,-7.801792,1.920501,7.373714,-25.097683,-20.4012,-11.694775,-5.997483,-15.0862,-30.513874,-36.961648,-38.688696,-56.147532,-68.829399,-75.499993,-80.864517,-53.181758,-47.84748,-33.234899,-23.564254,-44.099625,-37.036353,-24.969002,-17.527348,-32.69467,-30.219948,-21.66646,-15.97695,53.659624,289.054324,-189.987116,86.622296
39,-0.62645,0.523421,-15.156304,-39.285742,-29.054649,-54.693626,-78.77362,-96.300979,-66.202949,-99.727661,-116.07542,-127.956962,-59.926826,-96.369404,-115.155189,-129.123962,-51.655701,-84.448379,-102.117199,-114.647358,-42.457077,-67.276703,-80.857738,-91.980755,-17.504759,-17.413628,-4.987086,5.951345,10.571745,24.005621,30.745247,35.47434,28.730368,41.306345,47.142513,51.654516,41.894703,54.906293,60.417209,64.007192,50.243791,62.69533,66.952391,69.348949,21.42651,26.974514,19.449074,10.179669,12.614605,5.28883,0.261441,-3.26168,-6.444465,-8.590141,-0.310238,5.7827,-21.416439,-21.912414,-13.3339,-7.720092,-33.102516,-34.660434,-27.127407,-21.58477,-17.774387,-39.099669,-51.965781,-58.07231,-66.561843,-91.248877,-103.248121,-111.280847,-64.857884,-69.851214,-56.935152,-47.263802,-56.969633,-58.656766,-47.855223,-39.961946,-46.744234,-51.441458,-43.190677,-36.556719,50.718035,290.497671,-207.458559,48.25648
40,-0.349182,0.267306,-16.085678,-43.084899,-28.692055,-54.090477,-78.083668,-96.024204,-65.546013,-99.03574,-115.523907,-127.602699,-59.424705,-95.81884,-114.669113,-128.704102,-51.269165,-84.11451,-101.939117,-114.517673,-42.207527,-67.245026,-80.912624,-91.988033,-17.865234,-17.744488,-5.469407,4.878344,9.692937,23.067286,29.907787,34.808966,27.778954,40.341778,46.204103,50.758381,41.028406,53.97186,59.544687,63.277265,49.536267,61.881557,66.09375,68.513304,19.113522,19.848381,8.298386,-2.320541,5.580654,-4.208507,-10.490295,-14.881222,-12.234192,-16.7337,-8.566623,-1.622658,-26.038101,-28.515655,-19.680256,-13.069645,-36.617546,-40.028343,-32.984939,-27.107414,-22.617885,-46.861208,-62.007534,-68.920064,-70.000072,-97.491229,-109.634188,-116.520424,-66.276177,-77.40947,-66.335744,-56.820546,-58.11213,-65.274952,-55.641734,-47.331042,-48.450386,-57.729716,-50.292468,-42.793325,47.418079,292.305097,-226.495011,6.711701
41,-0.501846,0.200083,-14.337101,-39.493877,-28.28698,-53.394951,-77.243557,-95.210621,-65.028775,-98.440407,-114.990441,-127.129258,-59.14547,-95.347161,-114.159485,-128.14143,-51.129181,-83.8984,-101.749604,-114.322689,-42.094597,-67.210854,-80.918312,-92.001778,-18.098539,-18.100997,-6.072325,3.921571,8.937965,22.146477,29.057682,34.075397,26.961379,39.431553,45.312342,49.833102,40.247301,53.007752,58.614875,62.389072,48.819654,60.973469,65.127431,67.475836,15.155285,12.676758,-1.4809,-14.114971,-1.529434,-13.856815,-22.066898,-27.97427,-18.523761,-24.912174,-15.37619,-6.949951,-31.294327,-35.184791,-24.830955,-16.776603,-40.753338,-45.587597,-37.750946,-30.82521,-22.837248,-46.376721,-60.112319,-66.659089,-72.5022,-98.167378,-109.047572,-115.12461,-67.929535,-74.803304,-62.951612,-55.203495,-59.274869,-62.310612,-52.313004,-46.053038,-49.465563,-55.440416,-48.098165,-42.135431,44.188048,294.431633,-243.560297,-30.855723
42,-0.741761,-0.06569,-11.797222,-31.539104,-27.873848,-52.738357,-76.379207,-94.341522,-64.56705,-97.790096,-114.303165,-126.479885,-58.866027,-94.880401,-113.698368,-127.842361,-50.951088,-83.693367,-101.610569,-114.39822,-41.910736,-67.129852,-80.950481,-92.281848,-18.220731,-18.391039,-6.612197,2.952003,8.596967,21.555192,28.321135,33.269974,26.545712,38.57757,44.353703,48.846527,39.857594,52.133996,57.68027,61.494642,48.543555,60.289397,64.355576,66.669018,11.307953,5.370896,-11.547157,-26.266113,-7.429287,-23.704903,-33.856087,-41.703895,-23.535622,-33.56028,-22.943596,-13.646919,-35.357666,-42.073173,-30.25724,-21.29417,-43.758602,-50.042541,-41.425564,-33.684345,-22.994544,-44.847277,-56.655703,-62.345707,-72.08015,-93.889599,-102.658936,-107.937932,-66.40848,-71.103123,-59.471982,-54.600724,-57.277706,-58.625588,-49.524966,-46.166902,-47.387605,-51.166576,-44.866876,-41.228561,40.823204,296.318531,-257.980602,-60.442239
43,-1.036949,0.112991,-9.006523,-22.874983,-27.31073,-51.969269,-75.588867,-93.551754,-63.772007,-97.258163,-113.818233,-126.03741,-58.269264,-94.616913,-113.503257,-127.70533,-50.471054,-83.575802,-101.601871,-114.537986,-41.536308,-67.207912,-81.212436,-92.653221,-18.594901,-18.955413,-7.307507,2.157535,8.024133,20.652981,27.287915,32.315979,26.041223,37.630775,43.168972,47.585374,39.408483,51.251484,56.624412,60.453135,48.162926,59.513479,63.308227,65.507245,8.157131,-0.107494,-18.611778,-34.848381,-12.387383,-31.542206,-42.180473,-49.569031,-27.689381,-42.476669,-33.493561,-24.052196,-38.672298,-49.704987,-38.624084,-28.904697,-45.924934,-55.322765,-47.361694,-38.703827,-21.861338,-40.620446,-49.987069,-54.655888,-68.924562,-86.101205,-90.288213,-92.519,-62.769195,-67.872218,-56.210572,-52.145916,-53.636392,-55.375793,-46.07553,-43.489009,-43.584478,-46.553206,-40.669627,-38.004837,37.242027,298.203496,-269.531353,-81.545248
44,-0.706855,-0.01624,-7.173809,-14.877842,-26.931611,-51.458725,-75.149437,-93.060391,-63.305695,-96.903122,-113.522782,-125.8732,-58.028367,-94.540329,-113.545373,-127.899651,-50.366707,-83.709149,-101.867661,-114.933987,-41.57856,-67.584309,-81.722889,-93.208878,-18.958698,-19.564408,-8.090626,1.239071,7.384052,19.552823,26.020747,31.106226,25.488779,36.55733,41.859604,46.13519,38.958606,50.347605,55.503913,59.234157,47.824508,58.790826,62.235041,64.21739,7.190311,-0.467068,-19.616123,-37.421528,-15.088715,-35.305767,-44.890308,-50.706699,-30.055286,-47.08865,-39.397728,-30.262047,-40.895863,-54.087204,-44.238945,-34.43446,-47.875694,-58.66864,-51.533787,-42.718998,-16.95678,-31.666475,-37.203295,-39.921925,-63.513667,-74.362402,-72.496925,-70.893749,-58.380803,-59.735659,-45.556743,-40.83145,-49.771072,-48.398077,-36.779329,-33.869894,-39.765817,-39.23493,-31.868408,-29.381559,34.134367,299.82978,-279.105967,-94.780566
45,-0.477288,0.19523,-3.74608,-7.390854,-26.5345,-50.979515,-74.726864,-92.551941,-62.819229,-96.692997,-113.448944,-125.924698,-57.779594,-94.554622,-113.75124,-128.324489,-50.272842,-83.908687,-102.267666,-115.554611,-41.551552,-67.772404,-82.065422,-93.665977,-19.321445,-20.323222,-9.051289,0.158106,6.573541,18.277356,24.503786,29.512745,24.782898,35.232154,40.277287,44.462717,38.311722,49.124342,54.137747,57.900879,47.236138,57.803029,61.075505,63.008589,8.494016,3.311353,-14.016409,-31.753235,-11.809393,-30.326764,-37.906432,-41.737656,-27.175633,-43.96637,-37.389342,-29.203675,-38.675269,-51.986527,-42.887398,-33.488503,-46.042042,-56.046015,-49.035674,-40.333186,-10.18757,-18.416748,-18.18779,-17.574232,-50.938778,-52.215918,-44.973378,-40.35419,-47.312539,-40.682849,-24.697691,-20.084256,-39.841034,-31.807551,-19.597841,-17.980571,-30.763828,-24.418215,-16.654744,-15.568125,31.585956,300.770983,-284.92317,-101.425447
46,-0.252159,0.211532,-0.543343,-1.760566,-26.105392,-50.539444,-74.339722,-92.259396,-62.448795,-96.512775,-113.386036,-125.953182,-57.608574,-94.583679,-113.92083,-128.70282,-50.235626,-84.115826,-102.644073,-116.140285,-41.537407,-67.909412,-82.329014,-94.052456,-19.606089,-20.940133,-9.916066,-0.944077,5.924508,17.207012,23.155676,27.935738,24.186154,34.080299,38.867846,42.927022,37.712977,47.986134,52.845521,56.615594,46.611829,56.805056,60.043149,62.054027,12.471926,11.088735,-1.441538,-16.125355,-3.740358,-17.791351,-22.16585,-23.489777,-20.265896,-32.428276,-27.265852,-21.363957,-33.170534,-42.647552,-34.579262,-26.666245,-41.753757,-47.460463,-40.395189,-32.657392,-3.602043,-3.718119,3.493999,8.953248,-31.212726,-20.892244,-9.495771,-2.650769,-29.239746,-13.935279,1.794656,6.72558,-23.466803,-8.344926,1.906283,2.220743,-16.276169,-4.339757,2.01633,1.536777,28.929874,301.14193,-287.870436,-103.026598
47,-0.02758,0.449444,2.650749,7.10599,-25.748955,-50.135376,-73.95401,-91.852902,-62.19413,-96.381741,-113.416981,-126.020107,-57.610886,-94.588108,-113.988808,-128.806629,-50.411499,-84.256359,-102.816261,-116.327465,-41.784737,-68.065853,-82.437149,-94.08569,-19.938689,-21.604789,-10.779164,-1.968294,5.027003,16.067939,21.855842,26.467981,23.328108,32.958789,37.616499,41.585062,36.90159,46.825128,51.612983,55.386193,45.857486,55.73607,58.997048,61.075851,17.053877,22.300924,16.894003,7.613514,5.932509,1.146847,1.389982,3.710312,-10.254581,-12.750286,-8.528166,-3.935463,-23.056097,-23.412414,-16.94545,-10.742741,-31.492893,-29.791471,-23.040418,-16.225038,1.354101,8.201721,20.974306,30.238588,-15.279288,2.145347,17.245264,27.365159,-14.577765,5.664207,21.625591,28.872761,-10.030969,9.245433,19.132617,20.890971,-4.094628,11.481286,17.369471,17.142709,26.749741,301.341362,-287.37224,-96.17062
48,0.657348,0.264317,10.429127,11.232573,-25.612129,-50.071151,-73.8208,-91.720367,-62.307849,-96.250282,-113.436058,-126.197181,-57.934249,-94.542114,-114.078254,-129.210182,-50.817077,-84.387783,-103.03656,-116.731372,-42.081481,-68.077869,-82.411251,-94.152088,-20.053916,-21.954569,-11.312737,-2.909235,4.488514,15.387548,20.998092,25.382667,22.638676,32.099877,36.807531,40.837091,36.186001,45.89645,50.770472,54.650337,45.218913,54.968537,58.462128,60.728887,23.893221,34.695883,34.663084,30.081081,20.343504,23.110611,26.806108,30.72662,3.419483,9.24361,14.315145,17.689384,-10.870074,-3.870232,2.77478,7.069267,-21.457592,-13.201944,-6.151846,-1.483252,6.385061,20.746783,40.110082,53.785326,6.108059,32.122307,48.838803,60.102779,7.779564,35.600522,47.982383,52.488922,12.045535,36.547723,42.56206,41.748444,16.658574,35.257439,38.603419,36.566313,25.468523,301.106881,-278.881679,-85.436845
49,0.657853,0.569524,14.779713,12.735337,-25.484963,-49.894478,-73.492951,-91.270695,-62.193192,-95.854695,-113.05077,-125.849053,-58.128548,-94.411034,-114.048283,-129.384488,-51.211373,-84.544064,-103.174713,-117.005528,-42.457032,-68.079529,-82.370865,-94.21336,-20.198202,-22.347227,-11.763552,-3.644065,3.982457,14.78989,20.289617,24.403849,22.06047,31.377768,36.056646,40.060641,35.602015,45.042109,49.922034,53.820313,44.724835,54.301373,57.990775,60.375094,28.913686,42.750497,46.096544,44.729907,33.943605,42.867782,49.268915,53.915611,16.843769,28.846,35.004976,37.656188,1.7133,14.676361,21.865676,24.417663,-9.998154,3.188181,10.759397,13.712282,10.279542,30.965174,54.384073,70.636488,26.584289,57.614727,74.218234,85.509566,30.001852,61.458115,69.609693,71.08588,34.002027,61.545031,62.663409,58.109247,37.111944,57.636998,57.579258,52.683905,24.454691,300.880933,-265.773651,-73.49698
50,0.662017,0.462745,16.093042,13.702772,-25.404762,-49.81311,-73.315006,-91.102752,-62.141029,-95.541595,-112.745807,-125.526329,-58.286064,-94.259182,-113.924823,-129.316921,-51.523681,-84.628955,-103.166542,-116.944461,-42.829238,-68.242332,-82.448593,-94.223899,-20.291272,-22.495453,-11.924832,-4.020903,3.684116,14.406544,19.899095,23.894285,21.731921,31.013095,35.681833,39.601651,35.307737,44.657997,49.467366,53.27991,44.526086,53.976023,57.67612,60.010051,32.754158,48.854382,54.04026,54.990841,44.654343,57.237408,65.329971,70.361572,27.983311,43.103851,49.224438,51.135658,12.561596,28.804493,35.336643,36.090557,0.070862,15.726517,22.60318,23.669563,12.584326,36.516347,61.644275,79.256561,40.13481,72.251835,88.959842,100.843529,45.47551,76.14623,80.130823,78.88525,49.669901,76.397937,74.044894,67.257709,52.110753,72.106117,69.735123,63.19163,23.419607,300.813288,-251.37771,-60.324598
51,0.569001,0.360474,16.833584,14.67309,-25.527832,-49.833046,-73.157971,-90.832535,-62.101044,-95.200814,-112.434849,-125.284687,-58.408081,-93.995545,-113.696011,-129.142548,-51.763481,-84.529553,-102.958065,-116.685494,-43.104653,-68.147702,-82.216301,-93.922257,-20.273784,-22.560105,-12.015308,-4.354132,3.466323,14.221713,19.781708,23.736476,21.439027,30.840935,35.609944,39.541951,35.048287,44.469745,49.342754,53.166302,44.409946,53.890869,57.643405,59.931183,35.5074,53.136841,58.230743,59.9034,52.23888,66.22903,74.900848,80.003425,36.112449,51.532699,56.651436,57.97673,20.534946,37.441852,42.310879,41.552559,7.417637,23.295479,28.548557,27.923309,12.534932,36.924671,61.624496,79.129077,46.500487,75.835279,92.54307,105.156845,54.265323,79.693723,79.869965,76.495101,59.091921,80.653293,76.180415,68.934912,61.43244,78.078801,74.143194,67.177946,22.479458,300.896095,-236.053276,-45.929175
52,0.311897,0.124526,15.738556,8.183522,-25.612198,-49.761841,-72.872028,-90.514675,-61.872826,-94.812458,-112.041286,-124.980709,-58.268188,-93.634655,-113.41618,-128.969616,-51.676735,-84.258705,-102.67273,-116.428986,-42.943428,-67.76453,-81.820519,-93.582356,-20.144849,-22.428676,-11.883533,-4.505656,3.669753,14.259739,19.881681,23.900559,21.56874,30.861843,35.685884,39.669317,35.124857,44.569422,49.548605,53.474548,44.436943,53.973269,57.820567,60.14994,37.399658,54.435425,58.095028,58.976829,57.522754,69.735328,77.85347,82.758384,40.367569,53.206501,56.307563,56.175464,23.117351,36.785625,39.962379,38.068851,7.829326,21.249183,24.76934,22.395836,13.71686,38.69321,63.634146,81.026853,55.959928,86.245276,102.55682,115.13951,65.62057,90.512538,85.493088,78.390728,70.880742,90.838802,82.553533,72.839206,72.902055,87.907936,81.652539,73.32399,21.32313,300.94795,-221.782945,-37.818324
53,-0.17173,0.110151,8.386367,6.28723,-25.623436,-49.634651,-72.55957,-90.157059,-61.634296,-94.479858,-111.620842,-124.491394,-58.065788,-93.277679,-113.033615,-128.490051,-51.522331,-83.941532,-102.297512,-115.978375,-42.764648,-67.377743,-81.394672,-93.116547,-20.105823,-22.339768,-11.815275,-4.568728,3.940911,14.336506,20.025596,24.093034,21.829857,31.030557,35.858328,39.792867,35.325163,44.751931,49.775068,53.679917,44.525962,54.082431,57.940115,60.216013,36.744759,53.791958,57.353589,57.866971,58.71143,70.320065,77.967339,82.39555,41.919583,53.104249,55.098084,54.248806,24.541054,36.851098,38.66264,36.056019,8.930375,21.199311,23.65923,20.696892,13.645877,37.761414,61.761971,78.619346,56.640046,86.381373,102.029125,114.128995,66.444783,90.15549,84.01209,76.389168,71.613157,90.165037,81.312362,71.563812,73.519392,87.817385,81.178567,72.743893,19.87583,301.145432,-214.672148,-31.443763
54,-0.087273,-0.140421,5.389069,5.338879,-25.701233,-49.761406,-72.572776,-90.221431,-61.609852,-94.406433,-111.582687,-124.476734,-57.979294,-93.009727,-112.786892,-128.27837,-51.337074,-83.536297,-101.919742,-115.609131,-42.422973,-66.845077,-80.844303,-92.5788,-20.018397,-22.08685,-11.536459,-4.398679,4.221394,14.609888,20.358592,24.515581,22.033757,31.330702,36.255952,40.254995,35.430201,45.073688,50.28982,54.310883,44.485688,54.224494,58.259402,60.646068,35.903595,53.414623,57.756214,58.695477,59.041397,70.543476,77.190205,81.051544,42.210114,53.159191,53.503372,51.204826,24.53207,36.325161,36.983334,33.731552,8.261501,20.708737,22.297142,18.681976,12.36208,35.845805,59.937994,76.611908,54.764507,85.898312,101.363159,113.279926,64.894039,89.465522,81.883139,73.207336,70.315972,88.902111,79.5885,69.865361,72.52889,86.623972,79.509917,71.237628,18.867078,301.193606,-210.204558,-25.916289
55,-0.250694,-0.195119,3.350178,4.090804,-25.766396,-49.727577,-72.355179,-89.976688,-61.656349,-94.299957,-111.377323,-124.241043,-57.950981,-92.760921,-112.445503,-127.929497,-51.164818,-83.136394,-101.421684,-115.108738,-42.041496,-66.272827,-80.190983,-91.921589,-19.87868,-21.83297,-11.291297,-4.255752,4.571025,14.988974,20.774802,24.955429,22.263667,31.703699,36.77489,40.894507,35.533213,45.399385,50.829382,54.97617,44.431706,54.374696,58.611009,61.133155,34.985721,52.692592,57.268009,58.059803,58.223328,69.947525,76.104206,79.809551,40.99696,52.153244,51.725384,48.688774,22.912571,34.559624,34.705799,31.291008,6.165939,19.063213,20.275761,16.397724,11.109788,34.26321,58.434551,74.738166,52.630191,85.123949,100.421385,112.118327,62.992021,88.61604,80.102776,70.810914,68.54594,87.273475,77.550403,67.960688,70.906788,84.749124,77.198716,69.227343,18.062319,301.184538,-207.408445,-21.639434
56,-0.139984,-0.056069,1.816818,2.889221,-25.74987,-49.694504,-72.271603,-89.794258,-61.755009,-94.282665,-111.253006,-124.047787,-57.937386,-92.648232,-112.274494,-127.777702,-50.999863,-82.901768,-101.122135,-114.794941,-41.713577,-65.949955,-79.858177,-91.555229,-19.863564,-21.806232,-11.291903,-4.009986,4.853916,15.327699,21.059471,25.169875,22.487857,32.019169,37.135141,41.29623,35.662172,45.672309,51.18704,55.37294,44.439536,54.497468,58.833001,61.408191,33.976582,51.764225,56.462357,57.055779,56.972717,68.738091,74.908093,78.867806,39.555714,50.907681,50.153446,46.853966,21.338207,33.133381,32.989712,29.43235,4.382309,17.934528,18.848774,14.611393,10.631989,33.430871,57.460852,73.461736,50.334929,84.11761,99.750875,111.720785,60.489876,87.250875,78.250505,68.681211,66.149296,85.545328,75.702479,66.185555,68.852562,82.864286,75.333138,67.796148,17.55193,301.295525,-205.962032,-18.583157
57,0.065117,0.054044,1.49699,1.588017,-25.858109,-49.824509,-72.394089,-89.786797,-61.9487,-94.371781,-111.183918,-123.84581,-58.041069,-92.666817,-112.201412,-127.691311,-50.98304,-82.820217,-100.960167,-114.617672,-41.614083,-65.805496,-79.708626,-91.347725,-19.903146,-21.78168,-11.262201,-3.692737,4.992891,15.592843,21.261618,25.219955,22.618361,32.31362,37.474867,41.637796,35.756687,45.952705,51.478786,55.597168,44.475314,54.700231,59.076854,61.605323,33.384362,51.054383,55.671089,56.259007,55.967812,67.404316,73.489586,77.503292,38.304509,49.09322,48.358166,45.108158,19.880036,31.349499,31.250462,27.768997,2.795254,16.50214,17.467724,13.132988,10.756317,33.917859,58.373047,74.564222,49.293446,83.495301,99.500403,111.735555,59.145144,86.381052,77.428891,67.825591,64.694036,84.346283,74.554656,65.086947,67.415611,81.580421,74.128258,66.7961,17.266857,301.48538,-204.815232,-16.859329
58,0.226684,0.213953,1.291535,1.268125,-25.853485,-49.80233,-72.456665,-89.78944,-62.008804,-94.509578,-111.26881,-123.829548,-58.04631,-92.811458,-112.296032,-127.725174,-50.936805,-82.961231,-101.047462,-114.642288,-41.610649,-65.968036,-79.888183,-91.427822,-19.967169,-21.855633,-11.348133,-3.57388,4.922557,15.65904,21.314698,25.215879,22.616125,32.370578,37.529269,41.716812,35.833443,46.063596,51.504264,55.572443,44.625219,54.8665,59.155511,61.60904,32.90324,50.470745,55.090358,55.76326,55.334095,66.591854,72.658275,76.817287,37.546211,48.132648,47.344173,44.17155,19.056175,30.369129,30.18457,26.715534,1.933948,15.566654,16.558708,12.266475,10.712245,33.611676,57.757921,73.754877,48.720612,82.784183,98.956135,111.327854,58.555693,85.808793,77.164908,67.685374,64.04423,83.565277,74.038534,64.743646,66.695922,80.884846,73.626758,66.435694,17.141069,301.756881,-203.876169,-15.533656
59,0.042458,0.056909,1.135334,1.622134,-25.737442,-49.620529,-72.365742,-89.702591,-61.843895,-94.635052,-111.361622,-123.805813,-57.744118,-92.910439,-112.321507,-127.595512,-50.575287,-82.98436,-101.067787,-114.570202,-41.358467,-66.081551,-80.076851,-91.542206,-19.99098,-21.839207,-11.357926,-3.381749,5.084776,15.854974,21.486797,25.363858,22.882936,32.563623,37.664132,41.826234,36.174774,46.369113,51.61938,55.552189,44.987707,55.196791,59.26024,61.556837,32.572208,50.059421,54.748993,55.905956,55.034878,66.184398,72.27626,76.579319,37.186878,47.40192,46.702526,43.83411,18.62027,29.577003,29.390934,26.125774,1.483074,14.830604,15.8115,11.628685,10.670348,33.69465,57.994987,74.199314,48.051917,81.990962,98.062322,110.300741,57.830514,85.094328,76.412368,66.885774,63.26665,82.560035,72.991914,63.769731,65.897403,79.940299,72.628618,65.455986,16.86537,301.838811,-203.058992,-13.886501
60,0.268684,0.090365,0.745456,1.662618,-25.678207,-49.64978,-72.590812,-89.838512,-61.747432,-94.734649,-111.543457,-124.037292,-57.549339,-92.982753,-112.44556,-127.706577,-50.379684,-83.03397,-101.223507,-114.744358,-41.307197,-66.278721,-80.403728,-91.916885,-20.036255,-21.964103,-11.503237,-3.145455,5.110946,15.884565,21.454736,25.339097,23.03404,32.617222,37.586426,41.671265,36.42563,46.547448,51.609784,55.40904,45.307414,55.479102,59.318644,61.464211,32.30888,49.870617,54.582379,55.830929,55.304913,66.279637,72.319405,76.694539,37.499909,47.411442,46.652779,43.942097,18.925919,29.597844,29.295891,26.104329,1.767666,14.914834,15.822613,11.669564,10.288927,33.138685,57.301795,73.533014,47.314962,81.077549,97.213716,109.482727,57.18923,84.224597,75.615559,66.168339,62.708759,81.652082,72.178673,63.093557,65.414496,79.275537,72.016448,64.884233,16.94062,301.886982,-202.50697,-12.266077
61,0.331375,0.158081,0.455121,1.558,-25.705032,-49.726158,-72.771492,-90.167873,-61.569225,-94.716579,-111.666675,-124.302875,-57.42398,-93.036815,-112.607769,-127.955394,-50.346817,-83.135879,-101.486412,-115.122814,-41.372154,-66.463279,-80.691993,-92.337238,-20.096313,-22.124666,-11.714744,-3.451477,5.074909,15.767029,21.365001,25.34805,23.093592,32.554509,37.440152,41.453595,36.530803,46.549931,51.55143,55.29968,45.435669,55.543767,59.326165,61.468003,32.068336,49.612598,54.336639,55.659244,55.414375,66.505439,72.584724,76.955188,37.660514,47.65908,46.953884,44.218837,19.151985,29.663108,29.400066,26.215106,1.991752,14.909442,15.971935,12.004531,9.595587,32.000823,55.748234,71.76915,46.733261,80.225394,96.424231,108.781267,56.766153,83.502575,74.978344,65.667327,62.327179,81.022672,71.664971,62.684992,65.059147,78.835645,71.697674,64.556208,17.267721,301.948597,-202.056123,-10.804543
62,0.228333,0.127256,0.278903,1.68707,-25.683334,-49.721031,-72.831814,-90.400143,-61.432892,-94.61824,-111.732353,-124.55056,-57.329704,-93.009464,-112.66515,-128.131016,-50.344688,-83.184929,-101.636169,-115.383499,-41.442146,-66.560646,-80.819801,-92.575584,-20.132092,-22.258048,-11.917015,-3.781608,5.076081,15.710947,21.325035,25.376121,23.129086,32.546394,37.393678,41.375468,36.553279,46.493231,51.497867,55.272707,45.467396,55.527711,59.358534,61.591614,32.061081,49.673436,54.260823,55.46608,55.493775,66.883107,73.136914,77.538128,37.720276,48.255215,47.698082,44.808953,19.295151,30.236825,30.030934,26.677472,2.218701,15.46098,16.667256,12.651925,8.89524,30.825571,54.252183,70.06487,45.974565,79.296847,95.487731,107.895908,56.26579,82.8147,74.287685,65.066693,61.985119,80.523087,71.177644,62.236419,64.83156,78.546734,71.456614,64.301112,17.69422,301.943188,-201.579054,-9.250138
63,0.265091,-0.00536,0.291482,1.620634,-25.760422,-49.841309,-72.979008,-90.764877,-61.358688,-94.548603,-111.792492,-124.822689,-57.258453,-92.959408,-112.713375,-128.3741,-50.296211,-83.136795,-101.730538,-115.65691,-41.350731,-66.500954,-80.853951,-92.811218,-20.096808,-22.27635,-11.947692,-3.940269,5.169707,15.727373,21.332754,25.460102,23.207262,32.600932,37.460899,41.459337,36.565432,46.504309,51.586343,55.432752,45.445796,55.504036,59.435018,61.803109,31.926658,49.655559,54.207286,55.546291,55.649185,67.168281,73.534584,78.056922,37.900005,48.476726,48.070713,45.337257,19.545639,30.418979,30.263031,26.995216,2.570949,15.778049,16.994441,12.985553,8.396586,30.216298,53.602815,69.402152,45.457349,78.561745,94.635939,106.945834,55.94804,82.192478,73.56182,64.359972,61.82316,80.014319,70.61138,61.686605,64.809576,78.177188,71.01151,63.84664,18.382696,301.768404,-200.864187,-7.798928
64,0.389145,0.093058,0.120391,1.399566,-25.853142,-50.042153,-73.227619,-91.265339,-61.485581,-94.54715,-111.840752,-125.009548,-57.405716,-92.990067,-112.810295,-128.65297,-50.46286,-83.215542,-101.877777,-115.953449,-41.443428,-66.570145,-80.983853,-93.100033,-20.100167,-22.36306,-12.078023,-4.205574,5.186429,15.722223,21.305633,25.459596,23.184315,32.589928,37.462851,41.48095,36.482168,46.418599,51.585726,55.52182,45.338708,55.365184,59.449813,62.001711,31.902821,49.724636,54.167187,55.329552,55.778733,67.575486,74.145058,78.768139,38.059479,49.025666,48.664994,45.798466,19.784512,30.904736,30.732582,27.300316,2.86718,16.218567,17.487706,13.43945,7.795731,29.134777,52.148687,67.735769,44.925191,77.791897,93.888032,106.253564,55.6193,81.632995,72.979608,63.812648,61.610233,79.721623,70.324482,61.389247,64.68507,78.090127,71.004175,63.849531,19.274986,301.699907,-200.240651,-6.560917
65,0.079971,0.011189,0.033348,1.29784,-25.908577,-50.094818,-73.253609,-91.509704,-61.534149,-94.627281,-111.919945,-125.131153,-57.414825,-93.032535,-112.835552,-128.723602,-50.4543,-83.228702,-101.912441,-116.07225,-41.382912,-66.547314,-81.007759,-93.245567,-20.033501,-22.280623,-12.08815,-4.497851,5.229247,15.902484,21.527712,25.683923,23.199642,32.745169,37.673704,41.728372,36.470645,46.472285,51.711301,55.708393,45.318405,55.362751,59.597088,62.304622,31.906575,49.931248,54.55188,55.992337,55.977368,67.976235,74.710659,79.469674,38.348957,49.580258,49.180722,46.175824,20.120774,31.421975,31.179326,27.58247,3.166432,16.635338,17.949292,13.866337,7.335572,28.352671,51.237324,66.791561,44.353264,77.01394,93.026304,105.29989,55.162637,81.032311,72.54967,63.529509,61.243885,79.328537,70.023473,61.13392,64.408594,77.902245,70.891313,63.732532,19.953112,301.559329,-199.609148,-5.414844
66,-0.056763,-0.14031,0.01046,1.298666,-25.961952,-50.170692,-73.371105,-91.690429,-61.591575,-94.744342,-111.991184,-125.176323,-57.357032,-93.014019,-112.791709,-128.627929,-50.31887,-83.116344,-101.800998,-115.957935,-41.223678,-66.468704,-80.949623,-93.185085,-19.923165,-21.98017,-11.776569,-4.230273,5.342201,16.112449,21.775233,25.985512,23.293145,32.993616,37.996116,42.131207,36.582031,46.793425,52.06428,56.105634,45.412476,55.632021,59.916475,62.683165,32.042496,50.417988,55.474778,57.520867,56.173989,68.377556,75.220024,80.099934,38.732025,50.12201,49.718296,46.699288,20.58442,32.108391,31.794995,28.083916,3.644291,17.31744,18.477608,14.168438,7.233234,28.435664,51.643784,67.465018,43.901703,76.413005,92.161305,104.161126,54.788881,80.379258,71.829309,62.83922,61.034114,78.820289,69.462625,60.628198,64.382098,77.592987,70.43667,63.332773,20.501821,301.259783,-198.993216,-4.275414
67,-0.123916,-0.045164,-0.065357,1.253812,-25.970375,-50.270668,-73.568665,-92.070236,-61.570931,-94.877907,-112.084751,-125.231289,-57.188278,-93.016743,-112.763363,-128.474854,-50.090332,-82.971108,-101.698712,-115.843724,-41.057602,-66.437874,-80.984265,-93.273892,-19.882978,-21.749236,-11.440474,-3.833663,5.413585,16.349583,22.034523,26.261993,23.401616,33.209977,38.179317,42.262069,36.739952,47.143118,52.414849,56.445113,45.532926,55.96714,60.297339,63.129361,31.915684,50.521282,55.782658,57.867737,56.571385,68.988808,75.951828,80.971504,39.295704,50.806938,50.279228,47.240341,21.220047,32.720993,32.248512,28.482685,4.311127,17.862293,18.824387,14.434445,6.917676,27.83698,50.861696,66.605896,43.361571,75.665422,91.294106,103.152167,54.381908,79.843857,71.305053,62.318485,60.78445,78.412173,69.018201,60.22769,64.329955,77.371821,70.175897,63.159606,20.918129,301.066548,-198.518349,-3.169673
68,-0.140808,0.072211,-0.260628,1.473439,-26.021897,-50.346634,-73.658833,-92.151181,-61.623436,-94.937943,-112.120652,-125.249634,-57.108582,-92.884987,-112.583977,-128.155472,-49.974106,-82.719704,-101.42537,-115.51902,-41.012444,-66.275837,-80.746468,-92.944908,-19.826131,-21.545287,-11.190681,-3.499705,5.38408,16.515284,22.239102,26.448319,23.421339,33.371195,38.303558,42.322127,36.80017,47.433419,52.81099,56.895261,45.541744,56.254786,60.657146,63.511188,31.90408,50.810933,56.50446,58.9361,57.124718,69.91404,77.008942,82.159813,40.031353,51.877774,51.13337,47.941933,21.994984,33.722489,33.039162,29.113335,5.044888,18.712418,19.466389,14.921208,6.451812,27.092363,50.015271,65.765176,42.43542,74.649597,90.236994,102.051997,53.64617,79.150782,70.556792,61.580851,60.290144,77.933262,68.512446,59.821971,64.073332,77.040264,69.7983,62.910541,21.461764,301.002927,-198.094534,-1.832066
69,-0.283539,0.166257,-0.278984,1.90881,-26.05259,-50.234047,-73.492344,-91.961769,-61.654701,-94.846207,-112.003178,-125.17067,-57.030785,-92.624554,-112.282665,-127.763683,-49.84108,-82.375523,-101.101673,-115.235859,-40.866669,-65.970142,-80.407334,-92.63966,-19.699258,-21.370175,-11.089349,-3.491393,5.4082,16.597905,22.298728,26.418963,23.412854,33.496857,38.390787,42.328524,36.780793,47.648125,53.095104,57.198591,45.509535,56.502244,60.963378,63.816902,31.899399,51.153431,57.304928,60.121777,57.786862,71.032837,78.28727,83.575711,41.017628,53.119915,52.08339,48.778359,23.098194,34.97485,33.980656,29.927536,6.142742,19.853966,20.261822,15.522332,6.055529,26.480571,49.374518,65.243818,41.332416,73.397731,88.907965,100.609625,52.724459,78.188378,69.486158,60.466411,59.715816,77.278004,67.822206,59.204084,63.889076,76.808379,69.476395,62.661984,22.397072,300.996091,-197.154671,-0.096349
70,-0.047035,0.35998,-0.280815,2.682549,-25.994683,-50.135491,-73.440594,-92.067353,-61.622933,-94.722279,-111.928265,-125.138478,-56.8946,-92.348534,-111.976204,-127.409386,-49.641335,-81.963822,-100.665722,-114.770565,-40.646759,-65.620251,-79.960739,-92.071026,-19.668161,-21.334076,-11.083631,-3.491171,5.60821,16.707982,22.322749,26.398573,23.543394,33.65931,38.540692,42.486198,36.835739,47.918974,53.464038,57.668191,45.475683,56.709652,61.282332,64.198087,31.844902,51.318558,57.850434,60.937935,58.371311,72.43459,80.005657,85.51854,41.969341,54.711102,53.46571,50.030617,24.287956,36.605381,35.355686,31.150543,7.478806,21.39877,21.474175,16.575268,5.502165,25.521439,48.136144,63.888958,40.041134,71.816526,87.284467,99.000533,51.760115,77.192257,68.292806,59.166132,59.202726,76.77275,67.240357,58.65156,63.880937,76.788206,69.345941,62.563992,24.002724,301.243278,-195.782799,2.473407
71,0.159553,0.242161,-0.264129,3.791086,-25.886238,-50.053001,-73.431106,-92.10704,-61.739319,-94.6684,-111.94075,-125.241257,-56.844864,-92.061722,-111.621849,-126.996826,-49.48439,-81.526851,-100.186535,-114.279716,-40.476173,-65.313984,-79.597332,-91.649116,-19.607411,-21.380191,-11.2458,-3.475585,5.935079,17.032912,22.552275,26.568781,23.854752,34.009805,38.820174,42.746611,37.102253,48.37048,53.929524,58.1493,45.666146,57.107657,61.688414,64.585212,31.789981,51.463886,58.317272,61.592422,59.309474,74.295455,82.272903,88.007343,43.339553,56.875064,55.337253,51.653915,25.894203,38.790813,37.200576,32.754764,9.172794,23.38734,23.177684,18.145568,4.65771,23.98365,46.197632,61.756069,38.207796,69.54918,85.026044,96.791665,50.379864,75.957082,66.981271,57.709014,58.381007,76.349031,66.775735,58.139149,63.651213,76.925934,69.440586,62.56829,26.376165,301.326308,-193.83304,6.105362
72,0.467171,0.06438,-0.159829,5.153492,-25.83989,-50.043846,-73.450871,-92.062477,-61.875115,-94.600742,-111.96817,-125.389057,-56.844658,-91.771443,-111.325482,-126.718964,-49.367844,-81.135601,-99.807552,-113.920464,-40.27311,-64.983204,-79.21376,-91.195061,-19.494432,-21.362135,-11.377846,-3.519242,6.365776,17.418112,22.893558,26.927107,24.252314,34.410504,39.186367,43.146891,37.438448,48.783814,54.356332,58.597906,45.929661,57.45582,62.035094,64.929682,31.798405,51.824112,59.437443,63.602543,60.298966,76.255944,84.761536,90.888989,44.953526,59.006642,57.051407,53.067547,27.805264,41.143433,39.194802,34.493248,11.054398,25.484391,25.05169,19.955178,3.956991,22.87394,45.041282,60.665235,36.301665,67.030745,82.43023,94.141368,48.800832,74.618321,65.786734,56.528853,57.362162,75.939946,66.418385,57.728206,63.256782,77.170564,69.522541,62.373319,29.469051,301.180008,-191.367154,11.048174
73,0.512558,0.102778,-0.296676,7.028555,-25.746414,-49.958519,-73.493282,-92.175099,-61.860054,-94.537022,-111.930187,-125.408638,-56.71051,-91.640923,-111.205925,-126.609661,-49.136238,-80.946774,-99.659466,-113.859902,-39.984215,-64.820286,-79.163887,-91.275993,-19.495593,-21.598145,-11.879532,-3.868058,6.639194,17.684997,23.119317,27.1594,24.568846,34.695617,39.373149,43.240615,37.786571,49.130381,54.552117,58.664596,46.261321,57.825901,62.333188,65.201618,32.043697,52.491256,60.934032,65.712867,61.489746,78.811054,88.263725,94.975284,46.846218,62.032013,59.66827,55.134796,30.09732,44.477222,42.1432,36.968261,13.473827,28.539196,27.878769,22.57259,3.080315,21.119111,42.861239,58.378741,33.894826,63.51669,78.7076,90.374841,46.841288,72.588487,63.919439,54.63511,56.086084,75.152604,65.665074,56.903196,62.702906,77.232766,69.518176,62.143509,32.877697,301.122062,-188.767742,17.916005
74,0.593284,-0.073681,-0.24321,9.00928,-25.713295,-50.015235,-73.679637,-92.373653,-61.785781,-94.552734,-111.965332,-125.4207,-56.46952,-91.543258,-111.044094,-126.370101,-48.802299,-80.713439,-99.350418,-113.48244,-39.687423,-64.692111,-79.030632,-91.065776,-19.61277,-21.867414,-12.2868,-3.909307,6.873513,17.974767,23.460106,27.64135,24.918206,35.044557,39.718977,43.616811,38.204424,49.606885,54.968303,59.052142,46.622623,58.259797,62.706988,65.57028,32.312805,53.362919,62.911629,68.521271,63.008091,81.854954,92.408672,99.82933,49.184933,65.555134,62.833042,57.738178,32.949737,48.454433,45.737606,40.038414,16.587055,32.299312,31.445629,25.935459,2.022012,19.066404,40.290668,55.687603,31.16426,59.227173,73.969244,85.436697,44.801604,69.871666,61.633118,52.568719,54.898729,73.760695,64.482454,55.834451,62.348965,76.69802,69.02085,61.595684,36.39438,300.944091,-186.087553,26.820995
75,0.63659,-0.468772,-0.148522,10.927187,-25.866875,-50.195939,-73.863442,-92.451004,-61.619957,-94.328831,-111.768883,-125.295754,-56.224343,-91.255715,-110.803608,-126.224133,-48.539681,-80.430954,-99.070038,-113.298523,-39.475502,-64.507576,-78.897149,-91.068902,-19.565062,-22.042192,-12.554785,-3.830279,7.087824,18.362325,23.959382,28.244108,25.25929,35.482503,40.157454,43.991883,38.622561,50.144323,55.474434,59.476132,47.025705,58.80325,63.166794,65.947328,32.933304,54.951291,66.043648,72.870495,64.508721,85.025998,96.864213,105.073506,51.493,69.186974,66.098454,60.312802,35.799717,52.590729,49.474961,43.194855,19.746941,36.300248,35.1423,29.242539,0.871032,16.912906,37.804806,53.345606,28.24194,54.496177,68.454234,79.376276,42.518314,66.656791,58.723987,49.830384,53.490195,71.756442,62.535704,54.015784,61.819838,75.622333,67.833192,60.430521,39.80448,300.221148,-183.462565,37.494011
76,0.422264,-0.518814,-0.273445,12.893375,-25.922562,-50.279572,-73.893917,-92.478379,-61.299866,-93.998806,-111.433354,-124.973214,-55.831032,-90.945397,-110.538483,-126.007359,-48.148774,-80.091935,-98.743664,-113.036499,-39.137192,-64.253632,-78.711205,-90.990887,-19.5187,-22.063386,-12.612967,-3.753524,7.308087,18.714092,24.391425,28.690587,25.516875,35.818721,40.57186,44.400497,38.896325,50.527768,55.906167,59.897961,47.285699,59.166317,63.556796,66.375073,33.308728,56.298294,68.935067,76.75541,66.327496,88.513081,101.624279,110.672974,54.210194,73.097763,69.713127,63.293862,39.232716,57.00642,53.515126,46.765824,23.720456,40.724499,39.205193,32.97836,-0.728007,13.854699,33.972933,49.315441,24.970501,48.998606,61.985335,72.278912,39.974018,63.018944,55.64416,47.070665,51.857267,69.277923,60.330164,52.030273,61.104305,74.031031,66.375036,59.13359,42.730952,299.343978,-181.231802,50.02903
77,-0.055298,-0.623531,-0.531326,15.196047,-25.88086,-50.230316,-73.820343,-92.372109,-60.973252,-93.692906,-111.034149,-124.438969,-55.344429,-90.592095,-110.174114,-125.542809,-47.542534,-79.558674,-98.176483,-112.463013,-38.487488,-63.669914,-78.130429,-90.383538,-19.439944,-22.035919,-12.749015,-3.677398,7.516112,19.229189,24.993232,29.236337,25.708302,36.385627,41.283349,45.119914,39.080674,51.140493,56.645592,60.679585,47.452091,59.594248,64.005191,66.823097,33.600597,57.49316,71.460995,79.844936,68.652706,92.618946,106.938652,116.722012,57.68161,78.381558,74.592167,67.440239,43.626778,62.871815,58.809723,51.40416,28.902237,46.870995,44.809559,37.986008,-3.238852,9.205974,27.971443,42.92168,20.460431,41.811538,53.498563,62.880673,36.549032,57.882113,51.014498,42.974094,49.606027,65.620311,57.104441,49.29226,60.041272,71.749638,64.358855,57.45598,44.98276,298.442486,-179.456022,64.947116
78,0.080452,-0.995553,-0.18766,17.202368,-25.9842,-50.419968,-73.953633,-92.47007,-60.851441,-93.379795,-110.688298,-124.053108,-55.109207,-90.140408,-109.716831,-125.099522,-47.218437,-79.003235,-97.58757,-111.864453,-38.102463,-63.132408,-77.512173,-89.744351,-19.087694,-21.575248,-12.221246,-3.060955,8.073669,20.042257,25.905311,30.199755,26.110964,37.132981,42.243086,46.248688,39.370754,51.807546,57.494018,61.66632,47.699229,60.073147,64.639726,67.586777,33.729297,58.705513,73.98294,82.846824,70.969688,96.626427,111.968124,122.266834,61.396671,83.986267,79.901356,71.889919,48.556217,69.346287,64.67316,56.441952,34.924827,53.850757,51.112987,43.571434,-6.23873,3.684357,20.776118,35.019956,15.182395,33.603506,43.775139,52.140325,32.477123,51.860639,45.668629,38.51162,46.807109,61.075221,53.039819,45.959597,58.480357,68.250094,61.129197,54.877104,47.301396,297.16754,-177.405498,81.870091
79,-0.030602,-0.964887,0.302593,19.293842,-26.049751,-50.544342,-73.998493,-92.435314,-60.637001,-92.996441,-110.28693,-123.666218,-54.763115,-89.63158,-109.268268,-124.716614,-46.775482,-78.372814,-96.992866,-111.359459,-37.567886,-62.426536,-76.779625,-89.059318,-18.731407,-21.078454,-11.62759,-2.403882,8.612651,20.918594,26.847782,31.043377,26.507068,37.915136,43.221077,47.326133,39.640467,52.477056,58.415383,62.732898,47.921494,60.58286,65.383905,68.499361,34.478657,61.354088,78.878815,88.916016,72.770519,99.863216,114.244743,123.56155,64.250107,89.20808,85.007206,76.209492,52.56292,75.733154,70.707653,61.626995,40.04504,60.976753,57.665314,49.204376,-9.333358,-2.282665,13.112435,26.598132,9.615602,25.518587,33.525837,40.350437,27.868733,45.298547,39.390953,33.186419,43.149527,56.003499,48.094457,41.659039,55.822181,63.606475,56.521548,50.937452,49.344984,295.846363,-175.028715,100.807643
80,-0.275093,-0.672635,0.925072,20.99779,-25.984016,-50.574966,-74.026462,-92.438484,-60.54277,-92.848926,-110.044761,-123.321247,-54.463028,-89.343807,-108.922314,-124.28516,-46.3377,-77.840195,-96.441261,-110.78873,-37.043312,-61.786033,-76.073456,-88.299579,-18.568324,-20.714657,-11.24785,-1.993834,9.052759,21.571395,27.541746,31.66944,26.834173,38.472013,43.927576,48.127629,39.847491,52.956486,59.147113,63.63559,48.022135,60.882572,65.939992,69.286161,34.348331,62.935718,82.69852,94.295894,74.117214,102.589679,116.877102,126.082866,66.904655,94.423668,90.991539,82.355369,56.702122,82.409946,77.85894,68.60796,45.553367,68.408569,65.232937,56.406887,-12.868663,-9.132102,3.899686,16.035637,3.365335,16.484173,22.932861,28.635074,22.539802,37.737813,32.46555,27.416682,38.75315,50.075459,42.718292,37.150344,52.490789,58.270986,51.409984,46.503111,51.329349,294.856788,-171.844185,121.488493
81,-0.582458,-0.516419,5.244152,21.953105,-25.953736,-50.539032,-73.972458,-92.318756,-60.501389,-92.698723,-109.697903,-122.776852,-54.314644,-89.148445,-108.565659,-123.780533,-46.14077,-77.526615,-96.055745,-110.359143,-36.817818,-61.356263,-75.55093,-87.733784,-18.515219,-20.557552,-11.062401,-1.659838,9.390003,22.005056,28.026178,32.183166,27.159585,38.886729,44.323582,48.482299,40.137793,53.346996,59.6405,64.170621,48.26122,61.292274,66.526362,70.011222,34.261322,64.010044,85.666351,98.461475,73.23658,103.955086,117.513233,125.45779,66.908981,97.799915,93.999286,84.775417,57.697082,86.288921,81.543056,71.717811,47.42831,72.340381,69.120231,59.886062,-15.606651,-14.236465,-3.655884,6.423457,-0.60106,10.928013,15.392902,19.403616,19.022165,31.777583,26.279512,22.171071,35.819617,45.223056,37.944103,33.501642,50.240783,54.160477,47.053857,43.118133,53.013279,294.072273,-164.333645,143.173502
82,-0.489762,-0.523495,5.534134,22.039988,-26.081909,-50.590118,-73.928707,-92.203262,-60.384155,-92.365253,-109.235721,-122.323745,-54.240143,-88.874233,-108.1562,-123.409321,-46.165764,-77.374248,-95.822479,-110.148719,-36.932647,-61.222503,-75.364483,-87.640205,-18.348159,-20.267053,-10.54702,-1.000777,9.740745,22.347919,28.348515,32.566389,27.51549,39.053282,44.407685,48.547161,40.476247,53.476931,59.797802,64.354859,48.574381,61.628541,66.993541,70.614313,33.757347,65.131347,89.061332,103.820446,72.172909,104.043766,117.430538,124.750843,66.592998,99.787227,99.293586,92.433643,58.480224,89.701927,87.983173,80.070991,49.205772,75.903751,75.108856,67.708454,-17.063251,-17.623438,-9.308789,-1.435537,-2.352537,7.240717,9.869309,12.307944,17.095762,27.338537,21.989408,18.442625,33.596287,41.17179,34.261079,30.331641,47.713259,50.142915,43.244529,39.458426,54.738041,292.964344,-156.584987,164.629056
83,-0.844757,-0.24032,6.014797,21.618535,-25.953506,-50.271057,-73.476436,-91.665344,-60.05468,-91.855098,-108.526142,-121.532318,-54.021766,-88.575748,-107.708015,-122.887504,-46.100784,-77.13628,-95.465515,-109.763489,-36.998886,-61.012092,-75.088051,-87.338539,-18.182533,-20.107305,-10.4869,-0.7723,10.164155,22.555066,28.511524,32.701573,27.888215,39.269878,44.52222,48.556584,40.695633,53.617191,59.959909,64.509408,48.607676,61.685697,67.124217,70.807369,33.487495,65.89143,91.698017,108.90897,71.10117,103.508457,117.08781,124.562187,65.712295,100.329952,104.239929,101.126244,58.259388,91.2033,93.744942,89.358227,49.574753,77.166882,79.705639,75.370239,-18.071647,-19.970003,-13.442892,-7.690619,-2.467645,5.58798,7.106422,8.381964,16.581233,24.807956,19.566569,16.144978,32.396526,38.941329,32.40795,28.387306,45.734862,48.114266,41.792456,37.731391,55.858028,291.83535,-148.605446,185.358917
84,-1.286155,0.167195,6.544441,20.756277,-25.732499,-49.74717,-73.07491,-91.518128,-59.766438,-91.081948,-107.504643,-120.344525,-54.004921,-88.105946,-107.025319,-122.066758,-46.246697,-76.826523,-95.018006,-109.260338,-37.331452,-60.932179,-74.948376,-87.217495,-18.293041,-21.528194,-14.444459,-6.60291,10.170182,22.387439,28.276786,32.414805,27.82008,39.072783,43.980323,47.718582,40.583618,53.375574,59.400747,63.541977,48.487325,61.571608,66.873585,70.371412,32.615811,64.748566,91.012951,110.189621,69.850708,102.735913,118.457623,127.933388,64.766464,100.143414,108.933495,110.246693,58.05637,91.501042,98.605168,98.491619,50.031555,77.248409,83.191349,82.336853,-18.671361,-21.39306,-16.824875,-13.519672,-0.918365,5.845207,7.095715,7.853664,17.615379,24.638229,19.807321,16.405899,32.459376,38.457206,32.582592,28.484996,44.555627,47.66933,42.285077,38.12736,56.349524,290.961287,-140.283354,205.073936
85,-1.27208,-0.706733,14.804833,22.96646,-25.97953,-50.050713,-73.292198,-91.495171,-58.625072,-89.762501,-106.418438,-119.331562,-53.212349,-87.06839,-106.145794,-121.022106,-45.910538,-76.058464,-94.312569,-108.586464,-37.539185,-60.527721,-74.41729,-86.521797,-16.577726,-18.964886,-12.493936,-5.33447,11.108318,23.057579,28.501594,32.277311,27.760157,39.320143,44.008012,47.126766,40.019713,52.942037,58.685751,62.218418,47.858706,60.879385,66.232306,69.626121,28.258518,58.133022,83.516784,103.473095,65.772937,99.309459,113.457161,120.992912,62.003448,97.164276,106.318679,107.405719,56.325519,88.669521,96.15303,95.882068,48.956874,74.126678,80.602409,80.044418,-21.164311,-24.817515,-21.761957,-20.599542,-0.009176,5.579051,5.558501,5.444855,19.596617,24.887256,19.522949,16.119933,34.971728,40.530945,35.366388,31.536108,46.748569,52.514638,48.387672,44.094426,56.62484,289.259159,-123.931125,227.045001
86,-0.725761,-0.193946,8.560615,18.126661,-26.572792,-50.848709,-73.740979,-91.535466,-56.343441,-87.88353,-104.458294,-116.911835,-51.561585,-85.628861,-105.20319,-120.251656,-45.083565,-75.434441,-94.153679,-108.906281,-37.490273,-60.091759,-74.063759,-86.327282,-15.598981,-17.735756,-12.276575,-6.316623,10.346121,20.649424,24.259477,26.527174,26.902926,37.703937,41.128022,43.013423,39.192987,51.679858,56.942006,59.772818,46.909318,59.958316,65.705464,69.245109,25.562679,54.345143,79.41766,100.493752,63.18972,97.038929,112.382721,120.981743,59.747807,95.471947,109.294121,113.942791,54.752861,87.831631,99.809303,103.067951,48.217564,73.707871,83.430783,85.771362,-21.750163,-25.677847,-23.027272,-22.928682,2.500348,7.40438,6.933595,6.641133,22.44457,27.3313,22.59676,19.292891,37.294396,43.326793,39.064076,35.006135,47.674628,55.027583,52.027056,47.014367,57.271912,288.158072,-113.997677,244.264521
87,-1.160935,1.330092,7.871762,15.133618,-25.913978,-49.898804,-72.187729,-89.729725,-52.79076,-82.610046,-98.460411,-110.476879,-49.204765,-81.550827,-101.184253,-116.201088,-44.234825,-73.6138,-92.59497,-107.69149,-37.950119,-59.852577,-74.153892,-87.07909,-15.874302,-19.39336,-16.201011,-11.845236,8.193748,17.208864,19.375784,20.089977,25.021872,35.007383,37.192804,37.539075,37.722042,49.877746,54.149183,55.614668,46.046059,59.007989,64.71989,67.919685,24.747058,52.314079,77.107749,98.651527,60.619514,94.871692,110.88525,120.393264,56.761081,93.178081,108.729835,115.071567,51.866935,84.986812,98.881519,104.301052,45.928985,70.772838,81.59975,85.688301,-21.54378,-25.184992,-22.518325,-22.676196,5.546014,10.707361,10.34412,10.150372,25.573785,30.916406,26.901628,23.877563,39.866696,47.136905,43.725713,39.797177,49.012648,58.10116,56.267901,51.873359,57.340914,288.89457,-104.895978,258.804545
88,-1.209045,1.569819,8.102897,12.456132,-24.584954,-48.170037,-70.15305,-87.993805,-46.895909,-76.347096,-92.765328,-105.287407,-44.65313,-75.996437,-96.545769,-112.071099,-41.593003,-70.240757,-90.05238,-105.742916,-37.500595,-58.989899,-73.804997,-87.246655,-16.202987,-20.882224,-19.074703,-15.632031,6.301678,13.94675,14.663783,14.202977,23.679393,32.952959,33.984079,33.074175,36.849731,48.355327,51.579316,51.720774,45.511066,58.4541,64.066805,66.631399,23.941017,50.346142,74.610901,95.989803,57.329361,92.453774,109.117813,119.275086,53.182171,90.752117,107.514816,115.056999,48.490334,82.207958,97.448342,104.297917,43.292347,68.085915,79.647457,85.005432,-20.85651,-24.127158,-21.522501,-21.788287,8.760148,14.618533,14.230556,13.949036,28.82287,34.769002,31.528822,28.874369,42.745735,51.177951,48.570096,44.982273,50.975842,61.619897,60.57813,56.720372,57.213221,290.101636,-95.711729,270.897924
89,-0.249413,1.37817,7.622521,9.61943,-23.447365,-47.03453,-68.510879,-86.406452,-41.035675,-70.641494,-87.848739,-100.867298,-39.678177,-70.758602,-92.406234,-108.432609,-38.387581,-66.802482,-87.503425,-103.82159,-36.537735,-57.922085,-73.067631,-86.856868,-16.416434,-20.432297,-17.288411,-12.777926,4.86156,12.199066,11.845347,10.580044,22.895842,32.278459,32.605848,30.89031,36.359532,47.692227,50.113065,49.486521,45.052483,57.778403,63.009725,65.077685,22.801105,48.411449,72.470077,93.423191,54.610759,90.753444,107.472267,117.477356,50.186485,89.199153,106.164001,113.95848,45.386913,80.253158,96.06491,103.474971,40.604713,65.974067,78.113674,84.405716,-20.307302,-23.264542,-20.390431,-20.864365,10.950793,17.260908,16.727989,16.236913,31.157443,37.349119,34.529768,31.887394,45.048371,54.40425,52.378898,48.922925,52.806063,64.575889,63.909676,60.098552,57.884136,291.368035,-87.16888,280.405583
90,-1.394668,2.612252,-0.993611,3.240304,-21.469918,-44.104683,-64.181488,-81.560761,-38.545121,-64.621582,-79.032086,-89.549229,-37.574707,-64.695511,-84.275757,-98.246579,-36.924157,-62.74498,-82.048554,-96.897904,-35.675423,-55.75446,-70.317067,-83.586972,-18.429657,-23.980772,-21.190012,-16.606563,1.839965,9.400401,9.634757,8.655444,21.114936,30.015542,30.518696,28.815707,35.340897,45.973071,47.948442,46.827622,44.651933,56.533997,60.92392,62.171167,25.555161,52.100476,76.732086,97.590809,55.178467,91.607804,110.888478,123.747105,49.279679,89.806618,110.621945,122.879666,43.684822,80.397286,100.2132,112.427822,38.877251,65.913849,81.00119,91.461891,-16.97341,-18.684687,-15.335789,-15.922431,15.438418,22.549731,22.53433,21.999695,33.973038,41.218264,39.513446,36.787215,46.004254,56.407272,54.71415,50.951784,52.037615,63.360393,62.89419,59.411565,57.18235,293.919743,-87.469609,283.585343
91,-1.834626,2.632655,1.171475,4.264372,-18.557029,-40.152557,-59.71836,-77.526145,-33.747367,-58.054115,-71.569839,-81.397132,-33.013984,-57.780143,-76.312236,-88.813316,-33.11753,-57.136642,-75.25138,-88.615974,-33.095695,-52.376174,-66.156692,-78.378868,-19.611647,-26.280951,-23.510321,-18.586862,-0.11467,8.836249,9.779796,9.375676,19.53357,28.939368,29.810209,28.338907,34.005779,44.327274,45.898797,44.566668,43.655207,54.358986,57.56245,57.766028,26.723625,53.471523,78.30273,99.048248,55.903301,91.624042,111.154884,125.034187,49.779545,89.802944,111.194206,125.15094,44.122101,80.216343,100.506134,114.379165,39.478534,65.564998,80.976608,92.941681,-15.764115,-17.508465,-14.458921,-15.200901,17.030022,23.712961,24.048624,23.587015,34.886648,42.23086,41.233319,38.675592,46.205203,57.097975,55.977292,52.392767,51.740176,63.585165,63.709567,60.862046,55.99883,296.555517,-85.647028,287.852834
92,-1.7807,2.090955,2.510868,3.217295,-16.124268,-36.987969,-56.262383,-74.142849,-31.658661,-53.251316,-62.813313,-68.892472,-30.823586,-52.375489,-65.745003,-73.327584,-30.768563,-51.48935,-64.203781,-72.802426,-31.052559,-48.148773,-58.24086,-66.446652,-19.826661,-26.030157,-22.196827,-17.147904,-1.51202,8.275284,9.852834,9.959749,18.128304,27.982113,29.416872,28.194967,32.632969,41.997851,43.460718,42.319793,42.290845,51.534437,53.561653,52.79312,26.4566,52.854229,77.296852,97.917904,55.536449,91.481632,111.188061,125.513042,49.626446,89.935547,111.60387,126.35931,44.022045,80.472954,101.016575,115.692363,39.332062,65.669883,81.401161,93.98196,-15.422363,-17.196465,-14.096582,-15.001867,17.539612,24.050032,24.331083,23.7736,35.349962,42.539278,41.569352,38.962892,46.621623,57.438393,56.34262,52.772001,52.131192,63.863351,63.926842,61.022622,54.849312,298.633393,-82.504978,291.05705
93,-10.832932,1.156388,2.061149,2.51502,-12.840156,-29.937469,-46.392998,-62.07312,-29.436001,-41.949817,-44.53664,-46.215557,-28.703178,-40.185848,-45.367595,-47.039394,-28.769153,-40.178524,-45.006054,-47.80751,-29.219352,-40.22953,-44.739612,-48.51337,-16.185709,-19.160844,-13.24818,-7.006399,0.927528,13.15143,15.162134,14.828608,17.906335,29.557415,31.079909,29.578361,30.217354,40.807488,41.578047,39.907414,38.502876,47.839131,48.517262,47.034017,25.911106,52.069302,76.382492,96.934307,55.341511,91.353756,110.69434,125.006298,49.585282,90.021344,111.39758,126.523648,43.976212,80.500283,100.855145,115.918339,39.195202,65.736225,81.525364,94.350735,-15.432514,-17.352606,-14.089381,-15.018256,17.389015,23.86483,23.988171,23.342656,35.197303,42.281434,41.282016,38.786274,46.442498,57.011649,56.011551,52.722811,51.993724,63.279822,63.276228,60.473846,44.595697,299.779095,-79.864512,293.561384
94,-6.718231,0.486853,2.020054,1.48695,-9.903305,-24.310799,-38.993889,-53.576042,-32.01107,-34.868088,-29.11306,-25.354225,-32.843262,-33.067417,-28.498432,-23.238899,-33.153774,-34.821213,-30.488571,-26.600796,-33.035191,-37.563309,-35.742107,-34.55159,-12.432013,-13.269411,-5.583312,2.184593,3.25726,16.59462,18.986127,18.660678,18.464805,30.099114,32.060455,30.676295,29.532801,39.900337,40.188823,38.27246,37.232262,46.214008,45.75167,43.535621,25.485615,51.204186,75.113709,95.290306,54.802803,90.518006,109.710938,124.15622,48.990795,88.980423,110.286965,125.874001,43.293389,79.302006,99.555153,115.06263,38.306923,64.59676,80.373825,93.495438,-15.295873,-17.108841,-13.426589,-13.655782,17.655542,24.796434,25.389707,25.090094,35.398152,43.084831,42.721195,40.844576,46.529652,57.35566,56.98948,54.350638,52.103145,63.466567,63.762574,61.359335,38.404369,300.192129,-77.317555,294.974515
95,-4.12175,1.583157,2.103916,1.207505,-6.885132,-19.010467,-33.309505,-47.807236,-33.318889,-29.736385,-18.11293,-10.943458,-36.601272,-28.966724,-16.942005,-6.908924,-38.048801,-32.44408,-20.725365,-11.955459,-38.572563,-38.411911,-31.469215,-26.31847,-11.616858,-12.501482,-4.76749,3.355715,3.912815,17.700681,19.299412,18.259584,19.481316,30.96693,32.14409,30.368469,30.711629,40.506059,39.671515,37.370163,38.387563,47.315895,45.710915,42.679476,25.318783,50.73713,74.341919,94.127575,54.224774,89.873143,108.851269,123.154072,48.084206,87.861111,109.012516,124.625531,42.078347,77.969685,98.036648,113.513638,36.779274,63.240017,78.92862,91.913556,-15.331924,-17.169986,-12.976219,-12.316848,17.316507,25.438613,26.740781,26.984177,35.085238,43.608993,44.070503,42.948128,46.295136,57.552483,57.923479,55.972636,52.034503,63.58367,64.102522,61.93018,34.711035,301.673719,-74.785223,296.080453
96,-9.200111,4.487501,1.948563,0.565461,-2.967476,-10.889992,-21.498471,-32.633778,-31.374951,-18.723484,-1.232414,9.65451,-36.453644,-19.216931,0.073654,14.941772,-38.516682,-24.240864,-5.907051,7.482307,-38.959248,-32.923348,-21.574024,-12.991516,-12.350749,-14.275559,-7.791593,-0.645168,2.995574,16.029913,18.428879,18.160512,18.219224,29.154024,31.032818,29.935575,29.175859,38.532208,37.530073,35.333326,36.880816,45.651215,43.52563,40.155638,25.33849,50.455238,73.564327,93.001751,53.958549,89.422703,108.185337,122.26926,47.31855,86.733936,107.766163,123.221752,40.787292,76.382149,96.315868,111.58231,34.986351,61.570038,77.280144,90.230267,-15.272322,-16.89947,-12.123459,-10.674806,16.890244,26.340317,28.537261,29.370039,34.644377,44.278935,45.608224,45.067908,45.983024,58.012746,59.112558,57.569427,51.92066,63.892743,64.770143,62.74999,25.736086,306.041035,-72.611498,296.525729
97,-6.278321,0.260389,1.480762,0.391781,-0.116478,-4.935356,-13.617118,-23.572403,-31.078823,-12.422412,7.916886,19.428589,-38.080524,-13.281726,9.344101,25.385354,-41.323185,-20.372234,1.059929,15.715256,-42.406814,-31.60857,-17.476856,-7.683998,-11.486281,-13.503123,-7.239421,0.673956,5.234792,19.243898,21.861696,21.675222,20.259483,32.151019,34.076953,33.106323,30.851037,41.691593,40.069608,37.457059,38.332025,48.692843,45.97123,42.061738,25.451432,50.444653,73.41433,92.9282,53.884598,89.103997,107.614106,121.41639,46.779591,85.793175,106.507348,121.575371,39.786507,75.0626,94.662941,109.458207,33.598767,60.241459,75.805596,88.648934,-15.335813,-16.946807,-11.706136,-9.704793,16.484643,27.110012,30.184775,31.655942,34.22424,44.776731,46.937267,47.02205,45.666875,58.307296,60.106579,59.07662,51.797864,64.315636,65.561821,63.814741,19.563257,306.184132,-71.025244,296.800218
98,-2.110279,5.57421,1.144375,-0.110669,2.127388,-1.006405,-6.868629,-13.89188,-27.959953,-7.65652,13.103817,25.57037,-36.20763,-10.344658,13.149754,30.27657,-39.60038,-17.767479,4.010548,19.394131,-40.255405,-28.245575,-13.918911,-3.468601,-15.713912,-22.054333,-19.067095,-13.037735,-0.862987,10.815634,14.397182,15.957455,16.344161,26.547934,29.27424,29.303361,29.15148,38.291368,37.434841,35.699901,38.551708,47.460304,44.666382,40.383966,25.52813,50.523674,73.371106,92.774975,54.112576,88.894467,107.06979,120.467755,46.511834,84.924099,105.168492,119.65456,38.994049,73.940289,93.085156,107.274617,32.258709,58.960579,74.357369,86.962612,-15.304901,-16.740536,-11.020608,-8.409998,16.366144,28.061734,31.945242,33.936051,34.024687,45.411315,48.307866,48.867634,45.470571,58.714688,61.127141,60.46383,51.730729,64.733179,66.261601,64.711764,17.480432,311.676177,-69.853415,296.607384
99,-6.036758,6.103102,0.886048,-0.128243,3.724159,2.969707,0.061695,-3.607006,-21.315491,0.043339,19.929783,31.942303,-28.740429,-2.492912,19.789295,36.322254,-31.684559,-8.986061,11.793354,26.585117,-32.04277,-19.203426,-5.328014,5.199955,-19.409538,-29.349539,-30.338422,-27.171491,-6.017072,4.218244,8.334058,10.30434,11.8945,21.581201,24.302146,24.5006,25.380592,34.231526,33.56435,31.838895,35.286211,43.852969,41.460955,37.297644,25.717529,50.77621,73.587146,93.015323,54.296894,88.765262,106.736217,119.860759,46.359089,84.397831,104.37228,118.463344,38.433689,73.268657,92.174572,105.93346,31.262706,58.005626,73.35466,85.831043,-15.289353,-16.593447,-10.650748,-7.665721,16.148733,28.388937,32.642873,34.869321,33.745686,45.49206,48.702933,49.395562,45.274068,58.780168,61.421196,60.850634,51.690652,65.04844,66.688074,65.162011,11.414761,317.721687,-68.99628,296.421549
100,-6.560028,5.489377,0.674537,-0.32414,5.534202,7.162617,7.2113,6.441547,-13.413803,8.629841,26.965748,37.863224,-20.455147,5.924114,26.579853,42.311634,-23.449299,-0.048672,19.127666,33.148991,-24.02837,-10.429779,2.861652,13.343365,-20.461926,-32.360217,-36.099106,-35.208875,-10.314579,-1.507402,3.257951,5.934041,6.600069,16.004904,19.325507,20.014877,19.760403,28.6216,28.841567,27.564013,29.528614,37.83796,36.242169,32.453102,25.799412,50.853962,73.581906,93.048237,54.208683,88.335537,106.205899,119.206501,46.075905,83.764721,103.572911,117.398816,37.953472,72.619114,91.368588,104.827412,30.55671,57.264233,72.574494,84.917828,-15.273162,-16.426301,-10.259399,-6.862336,16.082598,28.755191,33.196552,35.503078,33.682367,45.797366,49.108324,49.721851,45.298978,59.075866,61.719611,60.995562,51.79979,65.399688,67.015141,65.335999,4.804733,323.157169,-68.371743,296.043514
101,-5.429375,-0.82774,0.763424,-0.066518,6.959484,10.98618,13.190197,13.666454,-7.928329,15.492176,33.891346,45.043865,-14.96315,12.776356,33.080647,48.450222,-18.228767,6.739071,25.828457,39.475056,-19.053932,-4.726765,9.008412,19.821659,-19.391852,-30.801809,-34.694592,-33.706178,-10.321779,-0.60997,4.424108,6.689459,6.390933,16.830927,20.296743,20.7019,19.518873,29.423528,29.716349,28.027327,29.380352,38.533752,37.035563,33.157316,25.735188,50.849671,73.703522,93.352524,53.796685,87.902573,105.761971,118.693543,45.51986,83.293625,103.016808,116.560158,37.31947,72.28917,90.964783,104.172318,29.869217,56.882252,72.183026,84.35907,-15.3596,-16.446777,-9.969715,-6.137274,15.812169,28.746336,33.250263,35.534065,33.567438,45.808741,49.091664,49.567488,45.361631,59.110273,61.614697,60.699223,51.99486,65.585372,67.020563,65.18413,-0.670933,322.245646,-67.65461,295.893213
102,-8.718235,0.665917,0.62463,0.140643,10.048313,17.544502,22.64653,24.807541,1.15733,26.953034,44.798172,55.131706,-6.090568,23.994438,43.5588,57.641098,-10.076305,17.049751,35.372589,47.789841,-11.930843,4.63488,18.379395,28.778229,-20.13865,-32.013489,-36.165167,-35.51654,-12.507559,-2.657911,2.393223,4.774072,4.580398,15.433478,18.821389,19.10948,18.266241,28.675952,28.95599,27.143011,28.65019,38.326331,36.568606,32.398415,25.782234,51.048489,73.902272,93.517468,53.798699,87.724446,105.477917,118.313175,45.333081,82.935963,102.60014,115.993183,36.999413,71.983624,90.610142,103.653157,29.45652,56.594078,71.879368,83.845974,-15.576517,-16.532524,-9.863702,-5.924952,15.29838,28.530555,33.190575,35.525741,33.161923,45.593911,48.938251,49.334998,45.122409,58.943831,61.425778,60.405093,51.902728,65.490634,66.809858,64.844342,-9.430647,322.77544,-67.071459,295.897733
103,-3.169601,-3.720537,0.610474,-0.132899,11.846889,20.868141,25.786056,26.442375,4.210235,30.935989,49.060318,58.897636,-3.302227,28.766556,48.247398,61.198723,-8.205609,20.36071,39.191482,50.860084,-11.382122,6.789184,21.610199,32.000175,-19.985187,-30.896584,-33.812549,-32.374728,-11.290816,0.34022,5.058298,6.704415,6.207596,18.402092,21.587833,21.418266,20.266559,32.187094,31.978044,29.658501,30.941452,42.228909,40.138324,35.809052,25.814781,51.209038,74.125934,93.884365,53.67683,87.449718,105.153454,117.91531,45.144012,82.600262,102.286228,115.565037,36.732067,71.691925,90.30003,103.193951,29.119869,56.28939,71.518432,83.327556,-15.616939,-16.331354,-9.484703,-5.561181,15.121762,28.492887,33.230613,35.640818,33.001359,45.530246,48.947094,49.315064,45.018891,58.939274,61.42947,60.322767,51.843225,65.56571,66.88507,64.843638,-12.648708,318.904575,-66.509445,295.614506
104,1.455459,-4.248342,0.369392,-0.152413,12.09644,20.658371,24.217324,22.98523,2.751389,29.646286,48.261795,57.94645,-5.458431,27.466988,47.702271,60.589051,-11.210254,17.620652,37.149651,48.915711,-15.351436,3.250878,18.741532,29.033455,-18.971727,-27.674324,-27.342959,-23.570885,-9.000382,3.957646,8.297922,9.719441,8.535537,21.669986,24.781157,24.399885,22.759127,35.620812,35.120251,32.649456,33.774746,46.082604,43.55264,38.85741,25.902226,51.456356,74.510845,94.451145,53.620777,87.316647,104.966412,117.692356,45.005928,82.400608,102.060185,115.240208,36.540116,71.454014,90.049404,102.869763,28.899479,56.018017,71.198273,82.911267,-15.596499,-16.186314,-9.186312,-5.251922,15.074956,28.481501,33.253919,35.759022,32.999643,45.577609,49.043573,49.436046,45.024301,59.027293,61.535805,60.385531,51.820069,65.668266,67.024046,64.94528,-11.246767,314.494789,-66.193571,295.300649
105,0.047505,-4.879999,0.337223,-0.009028,12.480812,20.899532,23.690769,21.234775,2.267715,29.832676,48.923847,58.193035,-5.962338,28.295643,49.067928,61.412945,-12.23972,17.264019,37.605663,49.202694,-17.077,2.296612,18.461712,28.462749,-18.347109,-24.774389,-21.418649,-15.386251,-5.569517,8.862394,12.461357,13.250564,12.147566,26.273862,28.719796,27.831096,26.364635,40.379965,38.919062,35.960192,37.482253,51.038148,47.789447,42.839521,25.999295,51.672203,74.905243,95.078705,53.794957,87.349045,104.875443,117.485184,45.081929,82.383889,101.963036,114.966225,36.497704,71.355217,89.86892,102.528374,28.786698,55.84837,70.964207,82.528427,-15.583568,-16.159675,-9.131428,-5.368605,15.002312,28.448959,33.288536,35.891069,32.985576,45.55155,49.050897,49.413705,45.03029,59.065912,61.571151,60.364585,51.809745,65.685593,67.040718,64.927212,-11.263309,309.462887,-65.920395,295.139718
106,2.11956,1.167725,0.270138,-0.099998,11.139313,18.107849,21.51012,20.596676,-0.549511,26.841099,46.165501,55.449406,-8.755783,24.978275,46.828754,60.090351,-14.78532,13.975239,34.58939,46.870228,-19.389793,-0.395874,15.437736,25.353458,-19.013915,-25.593187,-21.33788,-14.232186,-6.273508,7.383349,11.322704,13.059545,11.565568,24.991898,27.215938,26.117386,26.051474,39.033176,37.553402,34.576711,37.503779,50.004459,46.516252,41.320856,26.01931,51.77203,75.131779,95.425289,53.946751,87.402592,104.814571,117.276341,45.189995,82.430523,101.919628,114.738705,36.493687,71.343807,89.783032,102.303692,28.665024,55.694023,70.784157,82.263027,-15.558362,-16.159885,-9.19907,-5.483437,15.141473,28.592923,33.452643,36.144418,33.097529,45.622834,49.111757,49.450458,45.077479,59.179643,61.693206,60.44591,51.784871,65.758026,67.157574,65.034706,-9.262493,310.50843,-65.769001,294.917538
107,8.296543,-0.435624,0.159771,-0.275666,8.207428,11.762112,12.636955,10.552403,-9.290268,16.390938,36.189217,46.024841,-17.381115,14.679268,37.230354,51.422676,-22.75502,4.146721,25.406273,38.654938,-26.263538,-9.944355,5.490372,15.626244,-18.67314,-24.48047,-19.543438,-11.894674,-4.882297,8.527954,12.384304,14.181463,12.635949,25.632991,27.755982,26.858218,26.76306,39.205781,37.605235,34.822613,37.852965,49.802522,46.536913,41.732163,26.050106,51.821446,75.286697,95.648483,53.998604,87.354721,104.732414,117.140556,45.274578,82.393066,101.811356,114.525627,36.551159,71.290009,89.657845,102.081436,28.650696,55.536049,70.547733,81.929764,-15.335913,-15.939844,-9.085944,-5.284774,15.502119,28.888312,33.74366,36.464359,33.337367,45.869021,49.36612,49.685048,45.208291,59.423817,61.95935,60.66027,51.864405,65.997889,67.439317,65.269321,-1.111015,310.00107,-65.754295,294.570136
108,0.145695,4.923446,-0.014408,-0.128466,7.118374,10.206024,12.490825,13.327583,-8.81686,16.413082,35.765728,45.904026,-16.681057,13.863018,36.360821,51.731174,-21.775189,4.04472,24.493664,38.280979,-24.687287,-10.241375,3.864395,13.832371,-19.290902,-26.748006,-23.402023,-16.527226,-7.993566,4.130461,8.745958,11.4497,9.176816,21.690685,24.28235,23.941549,23.082008,34.466512,33.471824,31.180093,34.038729,44.735568,41.984081,37.278983,26.156834,51.909096,75.504604,96.016079,54.110161,87.434383,104.799259,117.21072,45.464424,82.432697,101.857189,114.589268,36.773804,71.308125,89.629589,102.024685,28.847042,55.374435,70.310966,81.713779,-15.167111,-15.888961,-9.124265,-5.200805,15.692175,28.962055,33.855429,36.593961,33.462758,45.902132,49.361526,49.563487,45.299374,59.515492,62.090397,60.682377,51.974791,66.306444,67.863542,65.624485,-1.144884,314.876737,-65.948267,294.393891
109,-5.837929,0.4191,0.033028,0.008855,9.8951,16.070641,21.290829,23.893272,-2.32933,24.089733,43.528095,53.944668,-10.775745,20.185627,42.519802,57.806408,-16.591976,9.804279,30.023037,43.572224,-20.433105,-5.482052,8.32806,18.470753,-20.767997,-30.053518,-28.894228,-23.636896,-10.356976,1.542983,6.46165,9.322472,8.118846,20.76696,23.382337,22.805428,23.21692,34.466647,33.83089,31.680024,35.095625,45.865539,43.114262,38.038069,26.307735,51.914806,75.527057,96.214885,53.924881,87.291607,104.801662,117.364322,45.484783,82.352588,101.983646,114.880062,37.018512,71.284458,89.679576,102.065792,29.297973,55.329288,70.201183,81.546054,-14.901683,-15.735129,-9.083572,-4.994423,15.728707,28.868935,33.782872,36.485305,33.458325,45.892388,49.292501,49.276557,45.313379,59.562052,62.126114,60.505005,52.025648,66.57964,68.250396,65.853406,-7.174439,315.266089,-66.106865,294.372998
110,-4.400825,0.069408,0.026115,-0.128305,11.489421,19.909401,27.628337,31.796836,2.154762,29.040515,48.826068,59.940799,-6.597828,24.015987,46.487056,62.278942,-12.783326,13.582019,33.906566,47.772136,-17.200791,-2.10307,11.761196,22.482158,-21.577496,-32.094023,-32.565648,-28.424332,-12.38938,-0.693704,4.765798,7.843982,7.168729,19.941653,22.922617,22.196198,23.298863,34.501758,34.462547,32.438343,35.996328,46.899586,44.376995,38.970351,26.455627,51.894596,75.437382,96.211018,53.586502,87.045033,104.764423,117.533009,45.314919,82.13451,102.017864,115.177425,37.037796,71.079083,89.588436,102.017773,29.470974,55.025929,69.840935,81.193211,-14.545371,-15.414558,-8.791134,-4.450019,15.801264,28.844099,33.818527,36.537818,33.43912,45.933785,49.348595,49.241742,45.28301,59.615157,62.249331,60.512526,52.059302,66.926591,68.771162,66.254339,-11.764864,315.31034,-66.27035,294.219536
111,-1.670517,-2.237724,-0.054245,-0.136814,13.652092,23.61874,30.042629,31.837097,4.364994,31.413562,51.624744,62.495212,-4.884854,26.120281,48.419574,63.62804,-12.090455,14.661117,35.443554,49.12437,-17.866345,-2.139599,12.367755,23.35271,-21.867365,-32.575602,-33.927652,-30.759412,-13.177859,-0.239629,4.764588,6.953788,7.210991,21.204388,24.072484,23.163345,24.189106,36.758464,36.452936,34.376504,37.558429,50.108644,47.408904,41.745242,26.614483,51.881458,75.34219,96.20422,53.402081,86.832653,104.744968,117.742001,45.309597,81.923138,102.049473,115.526516,37.17429,70.816097,89.461063,101.995754,29.697281,54.691155,69.468212,80.871059,-14.186503,-15.050453,-8.479357,-3.991448,15.957245,28.853226,33.867816,36.551032,33.444579,45.989175,49.464945,49.289809,45.244304,59.673177,62.43058,60.644338,52.070207,67.253152,69.303006,66.731361,-13.591278,313.045143,-66.480492,294.055249
112,-1.467865,-0.117289,-0.07053,0.018908,13.857078,24.742412,32.356281,35.182354,5.56549,31.945301,52.716854,64.388866,-3.680478,26.495853,49.386051,65.557651,-10.880974,15.357868,36.768184,51.368167,-16.655102,-1.406376,13.357372,25.158428,-22.264666,-33.400686,-35.279023,-32.482087,-14.143104,-1.355162,3.981371,6.235582,6.716272,20.65739,23.875439,22.999052,24.213609,36.650315,36.799739,34.854687,37.942504,50.635338,48.294269,42.705585,26.839703,51.942833,75.316933,96.22332,53.226574,86.719895,104.79261,117.974281,45.264485,81.825417,102.185715,115.925148,37.268292,70.653076,89.448464,102.078758,29.916138,54.490151,69.292648,80.782951,-13.982097,-14.811232,-8.233183,-3.679398,16.039521,28.783905,33.806807,36.474103,33.428425,45.939565,49.42503,49.177966,45.173242,59.627223,62.450748,60.616983,51.981163,67.346494,69.577894,67.003445,-15.200334,312.903311,-66.692213,294.049614
113,1.933158,-1.503202,0.14772,0.008497,13.196,23.381619,30.762303,33.240979,3.098683,29.46024,50.499173,62.183957,-6.387737,23.992917,46.939168,62.961422,-13.377388,13.056759,34.663891,49.320225,-18.769248,-3.338481,11.746766,23.77406,-21.969179,-32.575566,-33.820775,-30.672233,-12.634184,0.646897,5.950578,8.209878,8.273616,22.299815,25.578391,24.750466,25.730001,38.122963,38.173092,36.21038,39.343818,52.096155,49.696608,44.249715,26.997448,51.957219,75.253968,96.186219,53.091832,86.663453,104.867524,118.143975,45.122303,81.737755,102.233735,116.081154,37.131043,70.439438,89.323082,101.964638,29.828156,54.246254,69.057782,80.482705,-13.781309,-14.569689,-8.050352,-3.491912,16.12691,28.83449,33.882154,36.539299,33.457176,46.069771,49.588804,49.298738,45.151493,59.757306,62.595528,60.683019,51.904765,67.422669,69.722822,67.101875,-13.386979,311.37561,-66.664296,294.033612
114,-2.772308,0.987475,0.100594,-0.152709,12.856259,23.659664,32.219639,36.620945,6.248131,32.122158,52.605297,64.843083,-3.255295,26.459919,48.950329,65.123669,-10.320225,15.740776,37.287129,52.178387,-15.173435,-1.171852,13.298767,25.428669,-21.548004,-31.681555,-32.468045,-29.224098,-11.251851,2.133588,7.514074,9.690739,8.630794,22.747419,26.453185,26.225684,25.009843,37.610497,38.115183,36.4219,37.539113,50.564708,49.122601,44.692491,26.989861,51.967358,75.307297,96.247169,53.300228,86.833031,105.025177,118.206642,45.229706,81.820084,102.23893,115.987198,37.061874,70.386429,89.194656,101.752281,29.558865,54.005379,68.802498,80.210587,-13.737799,-14.400801,-7.8188,-3.312169,16.306938,29.077676,34.183472,36.878976,33.57134,46.219566,49.828371,49.619321,45.196806,59.89391,62.812445,60.975877,51.919536,67.545194,69.874728,67.315693,-16.289978,312.346628,-66.694393,293.864446
