takenoko1/special-research/HandMotion_SimilarSearch_自分用/NewProject/handData/key/d4_feature_d3/136.csv
,vel_0x_L,vel_0y_L,vel_0x_R,vel_0y_R,posFromWrist_1x_L,posFromWrist_2x_L,posFromWrist_3x_L,posFromWrist_4x_L,posFromWrist_5x_L,posFromWrist_6x_L,posFromWrist_7x_L,posFromWrist_8x_L,posFromWrist_9x_L,posFromWrist_10x_L,posFromWrist_11x_L,posFromWrist_12x_L,posFromWrist_13x_L,posFromWrist_14x_L,posFromWrist_15x_L,posFromWrist_16x_L,posFromWrist_17x_L,posFromWrist_18x_L,posFromWrist_19x_L,posFromWrist_20x_L,posFromWrist_1y_L,posFromWrist_2y_L,posFromWrist_3y_L,posFromWrist_4y_L,posFromWrist_5y_L,posFromWrist_6y_L,posFromWrist_7y_L,posFromWrist_8y_L,posFromWrist_9y_L,posFromWrist_10y_L,posFromWrist_11y_L,posFromWrist_12y_L,posFromWrist_13y_L,posFromWrist_14y_L,posFromWrist_15y_L,posFromWrist_16y_L,posFromWrist_17y_L,posFromWrist_18y_L,posFromWrist_19y_L,posFromWrist_20y_L,posFromWrist_1x_R,posFromWrist_2x_R,posFromWrist_3x_R,posFromWrist_4x_R,posFromWrist_5x_R,posFromWrist_6x_R,posFromWrist_7x_R,posFromWrist_8x_R,posFromWrist_9x_R,posFromWrist_10x_R,posFromWrist_11x_R,posFromWrist_12x_R,posFromWrist_13x_R,posFromWrist_14x_R,posFromWrist_15x_R,posFromWrist_16x_R,posFromWrist_17x_R,posFromWrist_18x_R,posFromWrist_19x_R,posFromWrist_20x_R,posFromWrist_1y_R,posFromWrist_2y_R,posFromWrist_3y_R,posFromWrist_4y_R,posFromWrist_5y_R,posFromWrist_6y_R,posFromWrist_7y_R,posFromWrist_8y_R,posFromWrist_9y_R,posFromWrist_10y_R,posFromWrist_11y_R,posFromWrist_12y_R,posFromWrist_13y_R,posFromWrist_14y_R,posFromWrist_15y_R,posFromWrist_16y_R,posFromWrist_17y_R,posFromWrist_18y_R,posFromWrist_19y_R,posFromWrist_20y_R,posFromBody_0x_L,posFromBody_0y_L,posFromBody_0x_R,posFromBody_0y_R
6,3.081619,-0.175149,0.841495,0.383717,11.176369,17.354908,21.617592,23.5872,-6.839916,19.918327,39.839058,51.379211,-16.59161,15.476578,38.742393,54.625076,-21.389706,7.365784,29.709915,44.496277,-23.404015,-6.54974,9.710689,22.259239,-21.457712,-34.527236,-35.733024,-31.608751,-12.443671,0.19838,6.12863,9.310666,8.77629,22.457205,26.677068,26.62521,25.598671,36.490455,37.5783,36.411983,38.997115,49.097222,46.546745,41.534538,25.872608,50.878532,74.184174,94.651932,50.654549,83.778854,101.716621,114.770828,42.057026,79.261711,100.072746,113.730835,34.017403,68.376057,87.111877,99.457008,26.995354,51.722694,66.102551,77.053825,-14.714827,-16.13726,-10.422976,-7.30069,16.212719,30.163248,36.083137,39.467578,33.710414,47.334605,51.367685,51.51433,45.584944,60.158017,62.954952,61.088336,52.33645,67.595669,69.894044,67.433611,-17.53866,320.161563,-74.365305,300.860225
7,-3.709751,1.128687,0.767029,0.413234,12.929981,20.607216,24.983059,27.376648,-1.557072,25.888355,45.355602,56.311924,-11.402722,20.779049,43.471012,58.96249,-17.083363,12.179088,34.112972,48.351848,-20.173119,-2.807053,13.233192,25.360393,-21.738665,-35.263684,-37.621204,-33.694421,-13.037883,-0.678909,4.749113,7.455041,7.648937,21.943083,25.816612,25.889292,24.310902,35.670928,36.359544,35.272144,37.503075,48.332072,45.890275,40.834633,25.478645,50.289688,73.470062,93.92926,50.215164,83.314339,101.330314,114.412651,41.680687,78.882454,99.7882,113.397011,33.656387,68.076004,86.868851,99.127853,26.65147,51.464973,65.906044,76.842682,-14.997323,-16.548493,-10.897491,-7.774241,15.9671,29.878381,35.724997,38.982096,33.482123,47.018542,50.93437,50.91419,45.35958,59.797234,62.36883,60.257608,52.134576,67.311197,69.458802,66.763631,-21.380384,321.298002,-73.730249,301.281211
8,6.624241,-1.792355,0.716217,0.395252,12.291938,16.933651,17.710945,16.892749,-8.259785,18.644485,38.627266,49.04647,-18.386158,12.858627,36.262069,52.523208,-24.156899,4.292987,26.96743,41.933761,-27.701844,-10.936592,5.774608,18.439201,-21.10618,-34.771101,-37.63579,-34.230106,-13.142217,0.210643,5.824558,8.230885,8.209248,23.217636,26.845571,25.646848,25.58406,37.245465,37.47383,35.730073,39.607467,50.726815,47.774886,42.05923,25.147842,49.81953,72.778198,93.118286,49.764576,82.921509,100.996788,114.102676,41.171448,78.499214,99.490723,112.996971,33.167312,67.763752,86.593368,98.766106,26.269615,51.359081,65.922958,76.863899,-15.319784,-16.997048,-11.322494,-8.097492,15.605873,29.676717,35.561617,38.798636,33.286967,46.920087,50.699348,50.470402,45.25616,59.667385,62.04811,59.731593,52.014607,67.079818,69.039319,66.068828,-14.85791,319.492822,-73.115799,301.663638
9,-6.640606,1.001678,0.539863,0.277247,12.506092,20.169594,25.643635,27.945877,-0.78637,26.53783,45.894001,56.396152,-10.781399,20.32101,43.181614,59.440853,-16.803623,11.05767,32.747097,47.60432,-20.635735,-4.76865,10.997864,23.382431,-21.735429,-34.52242,-35.853635,-31.9271,-13.882567,-1.308059,5.036672,8.542712,7.116537,21.361147,25.954711,25.822293,24.417706,35.227091,36.193954,35.047459,38.490934,48.652532,46.174303,40.929964,24.922223,49.484494,72.328423,92.580574,49.478337,82.73481,100.835541,113.959214,40.855237,78.291275,99.305878,112.768181,32.853791,67.552529,86.375016,98.466637,25.979073,51.261612,65.851754,76.742386,-15.551434,-17.338726,-11.663838,-8.373702,15.159627,29.241129,35.232969,38.578248,32.959183,46.618337,50.474095,50.312482,45.018112,59.393658,61.754191,59.388878,51.805656,66.862605,68.715129,65.529018,-21.580061,320.47042,-72.657481,301.916805
10,3.113056,-2.360632,0.470604,0.234071,10.094971,16.992199,23.062546,25.467533,-5.035996,22.560013,42.620796,54.295143,-14.807797,16.406387,39.849632,56.552215,-20.246052,7.079109,28.960167,44.027092,-23.432488,-8.804375,6.978516,19.653774,-20.802997,-32.055936,-31.580791,-27.651093,-12.428542,1.191017,8.350286,12.288727,9.023217,23.322624,28.382107,27.735951,26.708165,37.324123,38.475583,36.656156,41.172729,51.06454,48.565081,43.274294,24.676953,49.236432,72.10389,92.445168,49.242348,82.59208,100.736,113.849236,40.639023,78.233025,99.295395,112.6642,32.672528,67.543477,86.361535,98.330681,25.882817,51.329029,65.912007,76.706154,-15.706465,-17.533993,-11.871208,-8.485087,14.916676,29.017309,35.040827,38.425836,32.819059,46.430011,50.243667,50.037149,44.963649,59.257362,61.464618,58.963974,51.765481,66.782885,68.479996,65.090331,-18.539354,318.088907,-72.259226,302.129995
11,-5.410069,2.60094,0.143784,0.074928,9.849942,18.702118,29.166745,35.136029,0.051659,28.679249,48.759396,60.855481,-9.452739,22.658238,45.812588,62.377018,-14.596126,13.35981,34.363118,49.241398,-17.522346,-2.844417,12.115357,24.251816,-21.993311,-32.936571,-31.199742,-26.761258,-14.532984,-1.584516,6.342903,11.51844,7.022491,20.486675,25.863481,25.872793,24.791358,34.529052,35.863688,34.160945,39.052047,47.750247,45.385256,40.140077,24.626896,49.217102,72.142296,92.579979,49.153507,82.625587,100.792259,113.875832,40.498146,78.272575,99.3685,112.688507,32.530598,67.549438,86.397125,98.303284,25.809814,51.41003,66.025143,76.754677,-15.80403,-17.653109,-11.990535,-8.477245,14.651495,28.896525,34.961589,38.40263,32.670698,46.320404,50.150893,49.968495,44.916595,59.208123,61.402164,58.884773,51.75092,66.815526,68.440834,64.88159,-24.003016,320.670961,-72.169035,302.186037
12,8.310093,-4.832699,0.058548,-0.135752,8.013108,13.801449,20.59227,23.122181,-9.718048,17.703369,38.802086,51.538948,-19.237495,11.696034,36.06395,53.630242,-23.846454,2.631741,25.15004,41.160782,-26.06924,-13.35403,2.142083,15.285061,-20.342524,-30.088579,-27.941888,-24.161108,-10.827342,3.619365,11.554281,16.047315,11.268833,25.079313,30.589623,29.750472,29.172439,39.427367,40.991752,38.949196,43.572067,53.464829,51.068974,45.630504,24.614891,49.27882,72.183197,92.557823,49.241112,82.80732,101.034439,114.121834,40.487732,78.368866,99.458816,112.722061,32.444298,67.546234,86.347618,98.191406,25.669006,51.3185,65.887138,76.550308,-15.764658,-17.542354,-11.846014,-8.192909,14.587114,28.990546,35.143567,38.6512,32.629177,46.467901,50.380012,50.269985,44.908271,59.345739,61.624008,59.16959,51.759281,66.935273,68.598162,65.031075,-15.727387,315.830895,-72.144951,302.042918
13,-1.974632,3.455837,-0.242832,-0.351644,7.022999,13.436428,22.972183,29.191853,-7.283409,20.769035,41.748711,54.807678,-16.858211,15.046131,39.081528,56.58062,-21.250305,6.142033,27.839562,43.497528,-22.883755,-9.965332,4.809689,17.430782,-21.303212,-31.983144,-30.072771,-25.31836,-12.41802,0.673129,8.789184,13.907799,9.24111,22.324627,27.940444,27.896083,26.768261,36.137046,37.75687,35.873828,40.601502,49.235259,47.120702,41.808636,24.752861,49.486358,72.363132,92.613338,49.247051,82.912433,101.312999,114.507053,40.501693,78.41486,99.602611,112.959652,32.519245,67.604084,86.526615,98.455272,25.832359,51.464985,66.126903,76.865535,-15.581297,-17.174716,-11.500595,-7.864916,14.953973,29.401063,35.502176,38.888495,32.956627,46.944231,50.784514,50.522359,45.166388,59.825515,62.079887,59.493249,51.974408,67.213582,68.952091,65.384078,-17.724203,319.281375,-72.409967,301.685917
14,2.527439,-0.89443,-0.306942,-0.428153,7.24173,12.403038,19.797787,24.84755,-10.320362,16.896275,38.552754,51.725292,-19.742832,11.429352,36.090969,54.019192,-24.229706,3.099873,26.052921,42.282177,-26.076015,-12.677181,3.021858,16.070286,-21.35512,-32.944548,-32.837634,-28.640964,-12.606519,1.053043,8.826209,13.162978,9.426213,23.451634,28.759267,27.962958,27.243689,37.769665,39.157505,36.991869,41.151068,51.241048,49.162023,43.545415,25.018318,49.79607,72.635902,92.79499,49.433464,83.1782,101.601471,114.820335,40.634056,78.492004,99.696693,113.188751,32.614792,67.565254,86.611748,98.751755,25.894443,51.411381,66.131538,76.98706,-15.40306,-16.822381,-11.090942,-7.51857,15.451522,29.891263,35.88766,39.140968,33.366563,47.469024,51.24043,50.900136,45.45822,60.312652,62.617264,60.022203,52.172676,67.496485,69.411168,66.015513,-15.21175,318.384911,-72.731895,301.25573
15,-1.005283,2.929526,-0.418328,-0.36944,8.132469,13.301193,19.979896,25.473278,-7.753121,19.644653,41.162269,53.758255,-17.268231,13.688701,37.851929,55.429893,-22.266701,5.343635,27.932304,43.809036,-24.643009,-10.652687,5.006355,17.681625,-22.14944,-35.540894,-37.57305,-33.86148,-14.014058,-1.214791,5.966992,10.013373,7.496562,21.43657,26.321052,25.737202,24.945907,35.434363,36.508227,34.628298,38.515054,48.661301,46.68346,41.033903,25.319825,50.099534,72.887215,92.918724,49.680394,83.44693,101.917145,115.178925,40.854893,78.582688,99.803078,113.397904,32.817753,67.550457,86.69236,98.975167,26.057831,51.41914,66.246804,77.250939,-15.218315,-16.604661,-10.935381,-7.275804,15.946673,30.336421,36.210392,39.279276,33.773943,47.992568,51.693567,51.227153,45.717102,60.823007,63.207993,60.586898,52.315998,67.750934,69.861859,66.606699,-16.226028,321.306804,-73.159218,300.878657
16,-0.913387,-1.927341,-0.335712,-0.363389,10.106826,15.934284,20.915119,24.699668,-6.266991,20.402675,41.993534,54.257984,-15.797699,13.911724,38.382328,56.377521,-21.609021,5.261421,28.914905,45.414379,-25.090062,-11.06091,5.283256,18.61584,-21.867785,-35.851573,-39.644271,-36.895562,-13.49123,-0.331946,6.299024,9.460805,8.022441,22.890544,27.731369,26.787329,25.685961,37.202622,38.353181,36.722315,39.674467,51.311357,49.636327,44.210763,25.621822,50.443668,73.132267,93.051853,49.885906,83.627987,102.12775,115.456936,41.060291,78.652943,99.913868,113.69569,33.048431,67.539803,86.751972,99.209118,26.283314,51.350498,66.18964,77.317234,-14.944193,-16.255376,-10.614365,-6.940252,16.473083,30.730883,36.518168,39.474161,34.186856,48.483249,52.122288,51.588307,45.967093,61.255791,63.682718,61.048878,52.450145,67.954439,70.260854,67.180385,-17.145715,319.375777,-73.50123,300.511582
17,-2.310414,-0.174766,-0.247238,-0.146336,9.584965,16.596451,22.896698,26.843319,-2.585769,24.792938,45.501457,57.430733,-12.278686,17.945561,41.554276,58.724831,-18.126503,8.381561,30.882775,46.68663,-21.692951,-8.423034,7.12413,20.022618,-21.675333,-34.469562,-36.623404,-32.357957,-12.622019,-0.738745,5.803625,9.604387,8.640723,21.988124,27.384962,27.277405,26.022006,35.97006,37.537754,36.185988,39.9817,50.112954,48.340643,42.844943,25.903061,50.703335,73.340893,93.235119,50.037998,83.773052,102.242283,115.54137,41.232845,78.76601,100.016567,113.838993,33.276901,67.652149,86.911251,99.414425,26.575035,51.557705,66.424599,77.544147,-14.787828,-16.093936,-10.498954,-6.891519,16.848365,30.950529,36.660305,39.536195,34.51396,48.80676,52.337969,51.723577,46.16898,61.547179,63.943527,61.277725,52.528124,68.015337,70.390184,67.40833,-19.459923,319.19302,-73.752262,300.357255
18,1.300804,-1.178877,-0.064499,0.132825,8.707238,15.461277,22.091103,25.391384,-4.153999,22.449005,43.017426,55.170891,-13.583542,16.239338,39.857712,57.06157,-18.919498,6.74849,29.168495,45.021767,-22.120445,-10.281875,4.611981,17.264866,-21.32879,-32.593856,-33.256882,-29.043541,-12.328569,-0.238344,6.615433,10.823032,9.297562,22.190035,28.089262,28.087076,26.965972,36.522009,38.414474,37.066895,41.354288,51.150151,49.031791,43.448306,25.99807,50.868999,73.565151,93.481373,50.332523,84.113171,102.5079,115.71738,41.485817,79.072712,100.208874,113.913746,33.460865,67.903038,87.063366,99.472698,26.674747,51.743271,66.566345,77.587749,-14.81117,-16.191921,-10.635792,-7.029,16.772079,30.785581,36.521281,39.426489,34.451049,48.673132,52.192053,51.620047,46.092298,61.404449,63.78121,61.134748,52.435906,67.916487,70.251406,67.283767,-18.159417,318.00514,-73.817059,300.481077
19,-5.026153,0.460337,-0.090843,0.178878,10.190597,18.765369,26.859672,30.808971,1.180858,28.798622,48.959381,60.853889,-8.006813,22.400493,45.436249,62.277054,-13.693623,12.501617,34.448616,50.113746,-17.64489,-5.074436,9.558746,22.08633,-21.641148,-33.169357,-34.294746,-30.886729,-13.401544,-1.400944,5.448251,9.698124,8.313235,21.268917,27.042271,27.026846,26.150706,35.793737,37.701986,36.387961,40.720074,50.749885,48.881749,43.4859,25.997726,50.958069,73.682705,93.59499,50.584751,84.414173,102.800709,115.942165,41.721382,79.447666,100.555744,114.146244,33.667328,68.28067,87.394649,99.654659,26.835216,52.075916,66.848213,77.672779,-14.896373,-16.317793,-10.787401,-7.10804,16.527301,30.577162,36.404412,39.407372,34.249582,48.483151,52.025105,51.495447,45.924498,61.228016,63.592279,60.967936,52.268921,67.716713,69.970109,66.951711,-23.185192,318.453819,-73.907524,300.648297
20,3.545986,-4.354973,-0.044438,0.211187,10.646667,18.10865,23.437763,24.104851,-2.677872,23.762363,44.336872,56.253605,-12.260079,16.979988,40.578472,57.892055,-18.376865,6.609695,29.681133,46.112011,-22.803486,-11.26014,3.768402,16.94474,-20.345278,-30.617546,-31.568663,-28.754289,-10.793367,2.595988,9.303898,12.885706,11.332856,25.084092,30.801662,30.171375,29.413426,39.984257,41.977288,40.724175,44.233488,55.551881,53.699949,48.537763,25.992337,51.097058,73.941765,93.976982,50.778363,84.656319,103.067734,116.162064,41.928177,79.825997,100.898506,114.330643,33.873574,68.720902,87.739861,99.78312,27.021607,52.461228,67.153015,77.737725,-14.972672,-16.368441,-10.836024,-7.236037,16.222438,30.27614,36.169797,39.262283,34.023662,48.2361,51.759109,51.244913,45.774333,60.964934,63.201176,60.528964,52.180815,67.552197,69.62722,66.489904,-19.636413,314.088345,-73.949169,300.848983
21,-0.160172,2.106616,-0.022396,0.182979,9.320469,16.797879,24.013951,26.773385,-2.161068,24.587895,44.373356,56.118039,-11.807624,18.320607,41.408192,58.266758,-17.50914,8.283657,30.37563,46.123982,-21.347808,-8.837654,6.040078,18.834847,-21.021965,-31.198247,-30.781803,-27.018893,-11.321395,1.130477,8.118993,12.390306,10.597914,23.171496,29.092829,28.894759,28.394568,37.625415,39.753729,38.458181,42.99407,52.480687,50.290227,44.902281,26.027069,51.155045,74.098126,94.244808,51.03875,84.979763,103.369755,116.346646,42.13892,80.198834,101.189152,114.370045,34.004402,69.09652,88.022976,99.822613,27.064007,52.801632,67.464833,77.821919,-15.122985,-16.524411,-10.994031,-7.398218,15.870251,30.043563,36.004393,39.157961,33.775005,48.06405,51.589357,51.048324,45.61351,60.810126,62.983049,60.298141,52.07763,67.415271,69.352838,66.133678,-19.796259,316.183976,-73.971239,301.020977
22,-3.406288,1.364214,-0.085624,0.012115,10.097225,19.305062,29.316204,34.983799,1.358712,28.509121,48.328663,60.288449,-8.204921,22.412739,45.492314,62.40057,-14.09444,12.297684,34.249157,49.727223,-18.085613,-4.54208,10.276543,22.756245,-21.804391,-32.37232,-32.126059,-28.860623,-12.65629,-0.062182,7.039276,11.539695,9.28725,22.328764,28.05462,27.832381,27.218421,36.839111,38.588883,37.219271,41.790592,51.453865,49.351572,44.23928,26.119377,51.317951,74.344402,94.595729,51.23077,85.190654,103.573436,116.500682,42.313419,80.498256,101.456165,114.545024,34.140781,69.402053,88.26939,99.948131,27.13702,53.008472,67.615779,77.824825,-15.132778,-16.488385,-10.94321,-7.332429,15.718963,29.974515,35.963502,39.151787,33.691877,47.976266,51.530991,50.996491,45.599888,60.741756,62.904614,60.253249,52.116335,67.438354,69.268364,65.977215,-23.204624,317.541823,-74.05894,301.026725
23,2.877136,-3.230238,-0.029171,-0.059132,10.995839,19.200108,26.074391,29.072972,-1.789478,24.531407,45.016606,56.893307,-12.001396,17.470082,41.270566,58.759038,-18.746555,6.924397,30.321568,46.769017,-23.413272,-9.771331,6.234307,19.788289,-20.890164,-31.631475,-32.482347,-29.802786,-10.479625,3.539954,10.447145,14.090864,11.668074,26.017017,31.42686,30.523686,29.703455,40.52025,42.141705,40.850121,44.248172,55.480535,53.754969,48.921838,26.254875,51.452636,74.459335,94.729591,51.436363,85.313598,103.624786,116.47705,42.517215,80.65036,101.553634,114.597679,34.31147,69.514995,88.313552,99.927909,27.240852,53.033866,67.578918,77.710372,-15.118922,-16.466316,-10.853672,-7.130579,15.835016,30.085109,36.033885,39.188195,33.776327,48.027408,51.549318,50.975558,45.648955,60.724812,62.85609,60.196339,52.146111,67.441997,69.218853,65.900558,-20.32572,314.308566,-74.086343,300.964574
24,-0.08583,2.017102,0.062965,-0.110595,9.361976,17.306808,26.200138,31.981579,-1.692902,24.747288,44.837642,56.848034,-11.891636,18.269611,41.948238,59.338039,-18.190487,8.242012,30.908054,46.813465,-22.105705,-7.708065,8.182308,21.232372,-21.464999,-32.346755,-31.855012,-27.719797,-10.718933,2.664654,9.772447,14.130248,11.234685,24.680306,30.246229,29.9047,28.904022,38.666219,40.347719,39.076093,43.078804,52.626233,50.644428,45.628429,26.345615,51.548801,74.571625,94.838974,51.600632,85.385628,103.632088,116.453316,42.673828,80.703987,101.519554,114.506264,34.437229,69.533604,88.233284,99.786919,27.31208,53.045643,67.55056,77.641434,-15.068978,-16.37879,-10.725096,-6.981687,16.037286,30.249995,36.126745,39.201631,33.956737,48.102472,51.611389,51.022278,45.811939,60.806026,62.943331,60.312961,52.324039,67.627532,69.334141,65.994542,-20.408792,316.327613,-74.02062,300.855924
25,-2.372223,0.8763,-0.030819,0.024083,10.069416,18.932854,28.308437,34.257946,0.456608,27.582767,47.606907,59.539455,-9.356026,21.16254,44.792393,62.009594,-15.488411,11.35215,33.918835,49.720333,-19.480843,-4.345127,11.715786,24.785236,-21.734391,-32.997888,-32.713392,-28.846581,-11.737765,1.256448,8.471058,12.931315,10.230883,23.4235,29.03266,28.602779,27.974357,37.588279,39.262271,37.87984,42.319299,51.797728,49.781404,44.631531,26.49337,51.681713,74.707111,94.963657,51.694702,85.391087,103.586666,116.359921,42.786198,80.719791,101.536434,114.565189,34.559097,69.591419,88.235378,99.740604,27.442314,53.072811,67.504395,77.523502,-15.040906,-16.457424,-10.866751,-7.167494,16.057725,30.350858,36.277058,39.380102,33.945201,48.145981,51.651687,51.028305,45.789437,60.727108,62.838553,60.162438,52.303611,67.559557,69.271636,65.91071,-22.781771,317.206898,-74.052195,300.882992
26,0.438583,-1.976803,-0.132076,0.071161,10.155144,19.318371,27.960812,32.660488,0.242203,27.612614,47.8316,59.818211,-9.873104,20.540692,44.252369,61.431439,-16.141948,10.132645,32.897381,48.741108,-20.063953,-5.807361,10.195931,23.430004,-21.336558,-31.417498,-30.202411,-25.687492,-10.435091,2.162437,9.147558,13.557414,11.655946,24.667165,30.58199,30.302705,29.609507,39.015491,40.644121,39.196321,44.143023,53.584883,51.600299,46.59134,26.6464,51.912952,75.020347,95.394722,51.695125,85.299568,103.484138,116.271446,42.906612,80.735504,101.638847,114.807541,34.797695,69.709259,88.348778,99.85524,27.780246,53.262817,67.625679,77.595657,-14.968004,-16.482321,-10.961513,-7.273976,16.092787,30.344189,36.268894,39.404815,33.943423,48.076475,51.583861,50.974212,45.783842,60.571423,62.679447,59.973593,52.300759,67.470155,69.165673,65.745985,-22.347639,315.223303,-74.188722,300.947361
27,-2.504345,-0.897135,-0.098133,0.218362,10.518357,20.833935,29.503418,34.594254,1.696484,29.849991,49.947602,62.180603,-8.590038,22.929497,46.759003,63.993187,-14.890411,12.467594,35.606621,51.906121,-18.80516,-3.069626,12.98774,26.150734,-20.727094,-30.454908,-29.480165,-24.471676,-10.649649,1.914732,9.248581,13.773639,11.594084,24.539663,31.240435,31.723051,29.767786,39.586658,41.760877,40.66871,44.498508,54.43694,52.819252,48.169792,26.733169,52.033092,75.202343,95.671154,51.687584,85.289852,103.47948,116.275921,43.006439,80.806492,101.771633,114.989925,35.002464,69.896186,88.526195,99.971866,28.090152,53.515468,67.818168,77.701458,-15.01139,-16.706883,-11.281443,-7.565525,15.83672,30.078526,36.002058,39.14245,33.691938,47.807576,51.324583,50.736361,45.571396,60.264623,62.350366,59.603893,52.142369,67.218176,68.910421,65.455831,-24.856099,314.31425,-74.29097,301.153805
28,1.225331,0.314779,-0.102013,0.277778,10.637523,20.519188,28.433613,32.954395,0.711708,29.117855,49.110912,61.096035,-9.509949,22.285846,45.95319,62.699993,-15.568726,12.086769,35.002361,50.882297,-19.318234,-3.029011,13.119873,26.060199,-20.671741,-30.487142,-29.503359,-24.501674,-10.605275,1.800037,8.878968,13.221442,11.547685,24.293835,30.702972,31.006277,29.62949,39.346152,41.12596,39.710121,44.345379,54.151999,52.023154,46.986481,26.786842,52.117458,75.398449,96.106327,51.672215,85.235172,103.443798,116.201168,43.126259,80.920956,101.918575,115.098278,35.219421,70.172768,88.75565,100.061771,28.382401,53.819206,68.048653,77.772411,-15.069373,-16.918032,-11.633506,-7.938547,15.537157,29.741505,35.619823,38.729241,33.388892,47.440989,50.9515,50.36303,45.323406,59.910929,61.954274,59.203207,51.966676,66.952217,68.588862,65.067137,-23.642355,314.614227,-74.40457,301.416781
29,-0.675133,1.222633,-0.041725,0.237702,11.74379,21.651993,28.311802,31.538464,1.181396,29.772022,49.897259,61.47829,-9.105377,23.314304,47.098698,63.680294,-15.045891,13.426712,36.509228,52.355541,-18.706261,-1.523575,14.580219,27.245281,-21.003513,-31.353166,-31.201902,-26.333673,-12.411684,-0.941113,5.928324,10.250803,9.574723,22.576136,28.753351,29.24444,27.817499,37.922793,39.489117,38.377585,42.757307,52.778831,50.405182,45.395865,26.848595,52.119404,75.439167,96.374164,51.48547,85.052822,103.384724,116.195629,43.045406,80.951328,102.092617,115.318004,35.262794,70.392025,88.992611,100.172825,28.571022,54.122555,68.349495,77.942654,-15.079636,-17.089316,-11.899082,-8.172038,15.170236,29.336299,35.195017,38.31019,33.122402,47.195358,50.688838,50.111879,45.166523,59.686244,61.646523,58.839201,51.905667,66.77219,68.317753,64.641652,-24.332685,315.819434,-74.461492,301.637057
30,6.014454,-0.921279,0.158329,-0.074533,10.418152,18.229832,22.713249,24.464069,-4.588211,22.650284,43.182175,55.259628,-15.50108,16.147156,40.477478,57.48864,-21.381043,6.288563,29.727539,45.901382,-24.514412,-8.320175,7.778126,20.614288,-20.315008,-30.296036,-29.646706,-24.494338,-10.988029,1.066343,7.952194,12.167054,10.885894,23.950503,30.213476,30.993582,28.9347,38.932561,40.503219,39.483967,43.691368,53.421764,50.835879,45.87201,26.64949,51.796039,75.024216,95.953308,51.237259,84.951233,103.440102,116.353294,42.84375,80.927353,102.199997,115.530968,35.098606,70.40704,89.106651,100.344498,28.463711,54.246963,68.588459,78.203796,-15.106781,-17.134863,-11.92829,-8.162873,14.965459,29.046344,34.877769,37.936501,33.01923,47.137436,50.713403,50.223697,45.145603,59.76605,61.752548,58.947931,51.939482,66.829371,68.344121,64.574876,-18.334682,314.892799,-74.319614,301.557168
31,-2.67469,2.774767,0.457306,-0.494843,11.603405,19.753154,24.525077,27.134204,-1.523095,26.233451,46.780975,58.811348,-12.209588,20.083625,44.17266,61.343422,-18.446503,10.365371,33.574287,49.899192,-22.180607,-4.611603,11.56937,24.28054,-20.919397,-32.606774,-34.051202,-30.035227,-12.587018,0.291907,7.411495,11.685117,8.74681,22.63964,28.488825,29.505199,26.290362,37.150567,38.727722,38.135696,40.552336,51.178149,48.853765,43.960008,26.345581,51.156143,74.128258,94.842956,50.883384,84.76902,103.375534,116.466339,42.444465,80.583732,101.935798,115.478439,34.650558,69.957149,88.827141,100.440925,27.967254,53.777252,68.284504,78.253807,-15.063013,-17.046473,-11.81809,-8.145571,15.099902,29.314205,35.210443,38.27088,33.122785,47.513521,51.330054,51.040902,45.252455,60.256015,62.516833,59.961194,52.076568,67.163762,68.932936,65.406975,-21.024198,317.673589,-73.877134,301.068348
32,4.934692,-1.545958,0.508884,-1.219534,12.772133,18.516323,19.872436,18.516918,-5.50589,21.515556,43.040749,54.675247,-16.523529,14.792061,39.213936,56.805267,-23.274193,5.099361,28.87072,45.440712,-27.665474,-10.447243,6.406197,19.746185,-20.876135,-33.102432,-35.233279,-32.876043,-10.820513,4.598825,11.180245,14.756632,10.216297,26.281518,31.056394,31.165778,27.233154,39.604059,40.889517,40.635056,40.829841,52.716882,50.467414,45.644867,25.914265,50.424374,73.310543,93.764958,50.961525,84.652531,103.274449,116.622219,42.458496,80.124104,101.467266,115.392826,34.429814,69.023998,88.007756,100.225239,27.382897,52.752514,67.281189,77.841282,-15.160319,-16.91818,-11.595134,-8.39955,15.375705,29.622402,35.909026,39.369815,33.326339,48.154058,52.827329,53.290013,45.434422,61.04957,64.142524,62.411142,52.317543,67.937223,70.374277,67.581998,-16.102203,316.147827,-73.380947,299.86901
33,4.765411,-1.545823,-0.198372,-3.114925,9.052277,12.382885,12.270012,8.576558,-9.939365,14.379181,35.555558,48.135933,-20.013565,8.854054,33.163514,51.365708,-25.911804,-1.153885,21.815644,39.014397,-29.533928,-17.640484,-5.554973,4.821877,-18.231599,-27.751351,-27.704582,-23.303383,-8.777438,6.946983,14.69272,19.429656,10.316258,26.039988,32.433107,34.180187,25.647379,38.006551,41.269431,42.399525,38.068314,48.921937,48.659547,46.07549,25.756119,49.986637,72.440209,92.451313,50.994427,83.962384,102.28545,115.885105,42.608071,79.094616,100.231213,114.881344,34.390686,67.422295,86.42767,99.47675,26.87011,51.183541,65.547959,76.705433,-15.716913,-17.084771,-11.455764,-8.450371,15.169495,29.434297,36.027006,40.118378,32.970237,48.373321,54.211069,56.219254,45.058362,61.386739,66.028567,66.082117,52.197401,68.456556,72.268026,70.896018,-11.345496,314.669843,-73.588023,296.821924
34,12.409081,-2.802394,-2.187183,-9.474718,2.54068,0.386181,-4.695431,-12.253178,-21.541969,-7.447975,7.442058,15.968342,-29.106846,-11.858002,4.797592,17.085365,-32.561611,-18.674549,-2.54036,9.381935,-33.506516,-29.219444,-22.259148,-16.047856,-15.812453,-23.481879,-23.623213,-21.300558,-4.119877,11.23298,18.075926,21.693537,13.227123,27.594172,33.853934,35.872481,26.964762,39.01081,43.176641,45.235894,38.05174,49.397736,50.970025,50.335181,25.442545,50.361231,72.717853,91.725311,51.917335,85.925468,101.895893,112.944111,44.328438,81.695229,99.853523,111.99472,36.537575,70.23218,86.684143,97.631298,28.933777,53.822714,66.499426,76.091108,-13.219645,-13.472557,-7.787159,-5.252515,15.811138,29.347433,35.076025,39.082781,30.958606,45.684542,51.324281,54.063091,40.90183,56.3844,61.32573,62.570847,46.661773,61.855604,65.995913,65.653532,1.070217,312.033298,-75.768574,287.513055
35,4.730003,1.099861,-4.183331,-15.746157,-3.064728,-8.097851,-14.420952,-22.370441,-23.01955,-18.594486,-11.677311,-8.572048,-27.150169,-20.859089,-13.613605,-8.575516,-28.051437,-23.966148,-16.763008,-11.45961,-27.026905,-29.112797,-28.432583,-27.654842,-15.347917,-21.813333,-21.516141,-19.04132,-4.013826,8.942176,15.351597,19.533248,11.901429,24.505799,30.747,33.863765,24.650011,36.160424,41.451162,44.780967,34.728135,45.70847,49.125935,50.181052,25.13344,51.676306,74.273518,91.819119,53.719895,90.432507,102.028748,107.805016,47.612721,87.882557,100.327183,106.726078,40.906746,77.467375,88.769978,94.615632,33.660977,60.720629,70.18154,76.033362,-7.585501,-6.021073,-0.482061,1.362745,17.340781,29.338923,32.927641,36.090331,27.370018,40.042925,44.03851,46.681706,33.080992,46.034549,50.004458,51.869463,35.880818,48.233006,51.590592,51.840619,5.749546,313.511217,-80.002579,272.144956
36,19.745545,-7.602587,-4.732395,-18.065491,-12.222336,-25.201321,-38.725994,-51.710667,-40.320351,-48.800881,-48.971444,-50.183613,-41.135502,-49.020035,-49.930104,-50.73246,-38.833146,-47.670376,-48.002919,-48.034161,-34.838471,-46.046025,-51.4418,-55.280102,-13.08285,-16.289574,-12.651993,-8.190884,2.651056,15.778897,21.751632,25.515801,18.195142,30.840255,37.07533,40.411927,30.235916,42.698298,48.589818,52.306217,39.372655,51.308368,55.874712,58.306468,25.342879,53.420145,76.627991,92.387306,54.574265,94.001381,101.827664,102.663758,49.121979,92.038193,100.907158,102.610428,42.202607,81.431563,89.416008,91.056759,34.157398,62.104975,70.132731,73.643126,1.474828,5.809726,10.340613,9.965492,21.653937,30.000592,29.900513,31.553355,23.198234,31.696925,32.777866,35.017732,21.586326,30.193074,31.936535,34.369174,18.903123,25.952791,27.085991,27.954399,25.424561,306.556117,-84.805504,254.726952
37,15.311805,-2.531989,-10.431015,-26.948275,-21.389579,-40.959972,-58.786674,-72.849758,-52.646461,-73.455059,-81.440002,-87.258487,-49.71857,-71.443954,-80.971527,-88.228031,-44.061172,-65.131508,-73.7994,-79.847202,-36.996814,-56.46278,-67.864231,-76.867389,-12.903021,-14.337162,-7.825778,-0.582023,5.587399,16.764224,22.713975,26.559618,20.735492,31.472826,37.588723,41.378593,32.24956,43.975901,50.359103,54.18832,40.576739,52.008074,57.43512,60.733345,28.507982,59.062975,82.757595,96.394169,59.931988,101.98645,104.007488,99.275711,54.205959,99.92355,102.763253,98.597763,46.651131,89.105971,91.496395,87.357456,37.805615,68.650538,72.856585,71.518187,9.230384,14.163408,15.362033,11.224718,22.616922,24.359988,22.041167,23.196104,15.214561,17.379697,17.084271,19.770852,6.247894,9.099899,10.509531,14.010162,-1.704836,-0.163774,1.241387,3.479679,40.566164,305.001881,-95.406721,228.75643
38,7.923661,-2.135095,-10.446762,-30.726079,-25.862229,-48.314587,-68.372189,-81.90176,-57.467858,-86.942929,-102.054726,-113.21481,-52.045922,-84.097447,-102.099232,-116.096432,-44.319889,-73.227997,-89.581341,-102.189309,-35.452195,-56.972409,-69.789906,-80.953205,-15.329984,-17.243296,-9.837557,-2.432163,7.599253,17.666509,22.276906,25.271615,23.956653,33.927393,38.519327,41.777859,36.142998,47.664513,53.049285,56.505715,44.277231,56.54689,61.550057,64.20819,30.281199,62.163992,85.4958,96.461701,63.450577,106.762001,105.389225,96.131619,57.733578,105.468659,105.230267,96.471542,49.369343,93.873133,93.244343,85.405083,39.137615,70.015646,72.441897,69.072642,16.608669,22.766735,22.194803,15.617865,22.759591,19.454721,14.065225,13.939149,7.558683,3.384862,-0.756751,0.534716,-7.659126,-11.540232,-14.127481,-11.710515,-20.020619,-25.433506,-28.083439,-26.691202,48.318901,303.954343,-106.024407,199.117908
39,6.94638,-4.940416,-12.060047,-33.446579,-28.013672,-52.162536,-74.162086,-88.797809,-60.946781,-92.620594,-108.562843,-120.067051,-55.024338,-89.903354,-108.720188,-122.998558,-47.224342,-78.611011,-96.018493,-108.97372,-38.731018,-62.039829,-75.686828,-87.210205,-15.693756,-16.17021,-5.509544,5.339509,10.519047,22.078946,27.282135,30.841453,27.908605,38.809875,43.468449,46.75945,40.534539,52.780152,58.084327,61.234512,48.601749,61.530544,66.272086,68.553603,27.793476,58.331051,81.61385,91.738644,64.056931,106.336121,105.289341,95.816769,61.104366,108.565933,109.139511,99.794003,54.124157,98.506393,98.563385,90.335083,44.380611,75.218388,78.13488,74.155964,9.850975,11.472393,8.751274,2.716647,9.467165,1.469857,-4.15484,-4.262125,-1.953901,-9.658234,-15.018695,-14.984022,-13.055902,-19.947798,-24.411809,-23.690811,-21.62224,-28.137743,-32.235827,-32.340537,55.05114,300.190591,-118.298595,166.847993
40,6.222405,-4.703368,-11.262394,-30.803576,-30.055596,-55.865959,-79.396134,-94.727577,-66.356575,-99.050434,-114.996884,-126.330036,-60.203636,-96.332714,-114.958775,-128.895584,-52.081856,-84.513085,-101.857716,-114.625912,-43.160958,-67.004071,-80.685585,-92.205323,-16.293945,-15.802103,-2.636632,10.331795,14.023074,26.744943,31.967175,35.165316,32.088774,43.464102,47.907439,50.857182,44.717734,57.270543,62.253949,64.95038,52.436733,65.652482,70.053372,72.113156,26.541298,54.957195,77.37854,87.867107,65.081509,102.733841,104.957588,99.938541,63.826103,107.373928,112.496555,107.613728,57.50544,98.143959,102.280026,97.976772,47.942093,76.48486,81.602131,79.885563,0.402749,-2.273391,-6.393779,-13.075705,-3.351577,-15.037516,-20.883736,-21.469266,-9.719027,-19.625009,-24.939664,-25.328142,-15.334554,-22.700439,-27.574103,-27.919485,-18.615273,-24.147177,-28.637019,-29.599998,61.049309,297.103614,-129.785225,137.660808
41,-0.048935,0.226537,-9.642139,-31.09261,-29.434319,-54.858513,-78.200386,-93.603825,-64.983822,-97.682316,-113.732746,-125.44788,-59.077835,-95.352093,-114.062302,-128.484455,-51.219704,-83.760761,-101.360928,-114.69318,-42.517525,-66.322758,-80.087048,-91.952248,-16.819836,-16.562374,-3.482933,9.485901,13.225815,25.648479,30.669294,33.655383,31.350808,41.856307,45.839122,48.522659,43.999355,55.847406,60.783327,63.536407,51.664681,64.560686,68.948028,71.011616,25.186489,52.213806,74.07154,85.713901,68.317772,101.282398,106.34959,105.286789,68.981495,108.766262,116.373035,114.846336,64.141777,101.221183,107.847759,106.680816,55.608959,83.126323,88.716602,87.958946,-12.667708,-20.370949,-24.676663,-29.840764,-19.084966,-31.871494,-36.434318,-36.808075,-16.784417,-26.078947,-29.878641,-30.185393,-13.791733,-19.846657,-23.700562,-24.695676,-9.591525,-12.061492,-15.052213,-16.53187,60.650088,299.238884,-139.77765,108.476931
42,-0.223297,-0.235787,3.541133,-23.399158,-28.945977,-54.126595,-77.381871,-93.146107,-63.699795,-96.613896,-112.871281,-124.880883,-57.987213,-94.466435,-113.366776,-127.971005,-50.393532,-83.270462,-101.156994,-114.724022,-41.942986,-66.089207,-80.0831,-91.993161,-17.118474,-16.880957,-4.059188,8.689197,12.996325,24.756987,29.487513,32.358241,31.004301,40.836893,44.400547,46.832056,43.554307,54.837774,59.412343,61.949087,51.192104,63.662241,67.790009,69.718141,19.802994,43.967045,64.2468,76.218556,66.414757,96.047333,105.061959,107.011014,70.477318,108.05476,119.692772,121.400677,67.807526,101.934701,112.261151,114.557591,60.270928,84.904152,93.016709,95.0243,-23.986355,-34.890619,-37.267312,-38.067937,-30.827232,-42.210167,-46.486155,-47.044521,-19.065211,-25.952111,-30.132843,-31.60375,-7.318307,-11.107868,-16.181208,-19.014767,4.141143,5.016597,0.752422,-2.687928,60.042973,301.711877,-136.620335,87.786553
43,-0.301735,-0.300231,11.491906,-17.049295,-28.524674,-53.480736,-76.612015,-92.520767,-62.778717,-95.777642,-112.294659,-124.722428,-57.234764,-93.789562,-112.842133,-127.678574,-49.86985,-82.966221,-101.058117,-114.91967,-41.59845,-65.982983,-80.107064,-92.121964,-17.429474,-17.41758,-4.85068,7.774414,12.59538,23.754223,28.241008,30.956853,30.440977,39.724275,43.013485,45.281207,42.913548,53.678225,58.013376,60.414257,50.613836,62.745322,66.683319,68.552467,14.51049,35.894508,55.116314,67.031284,64.140484,90.814499,102.277404,107.435325,71.059524,105.885521,120.020565,125.375713,70.582729,102.429908,115.009403,120.294937,64.702205,88.910556,98.308754,101.609516,-33.341073,-48.644523,-50.717237,-48.67777,-40.152032,-51.773349,-55.634546,-56.636953,-20.46597,-24.837794,-27.313245,-28.673285,-1.376287,-1.380628,-4.290085,-7.132549,16.28325,22.215198,21.110619,18.363912,59.266022,304.692501,-125.603645,74.018113
44,-0.643021,-0.118857,17.096512,-6.180568,-28.056633,-52.885528,-75.885338,-92.013508,-61.914551,-95.114857,-111.807335,-124.354946,-56.49971,-93.268524,-112.393799,-127.210934,-49.310737,-82.7276,-100.927608,-114.89336,-41.235397,-65.987732,-80.239345,-92.274341,-17.772905,-17.909077,-5.582558,6.814936,12.129127,23.027828,27.285037,29.816199,29.941997,38.782457,41.672562,43.633384,42.350285,52.574634,56.603663,58.811907,49.992602,61.63894,65.318314,67.057761,14.308204,34.518962,51.899253,62.665031,64.534515,88.564945,100.661453,107.558761,70.772609,102.685878,118.036708,126.562397,69.725704,98.778076,112.616787,120.681839,63.243896,85.073959,94.804767,99.992935,-31.84767,-46.67734,-48.416516,-46.590056,-37.305517,-48.152187,-53.110541,-55.349395,-18.77972,-21.977231,-23.933848,-24.714769,-0.665466,1.007174,-0.440367,-1.958396,16.540564,23.408958,24.10373,23.392816,57.977171,308.246803,-109.152963,71.510704
45,-0.944046,-0.268231,21.524562,1.734921,-27.615509,-52.302841,-75.205513,-91.546909,-61.285103,-94.685142,-111.435207,-123.999664,-56.008552,-92.970005,-112.068924,-126.78154,-48.968948,-82.727714,-101.058094,-115.156586,-41.048012,-66.188793,-80.594639,-92.647716,-18.003704,-18.245061,-6.216303,5.926409,11.791895,22.235446,26.304897,28.738987,29.575236,38.000623,40.514556,42.205221,41.931333,51.662247,55.338039,57.301714,49.534426,60.856031,64.278893,65.82237,14.374363,33.573452,49.287781,58.476242,63.94653,87.195271,99.39861,106.671616,69.397568,99.864579,115.86699,126.183644,67.840496,95.083077,109.735634,119.720066,60.937958,80.342068,90.287281,96.743832,-31.781714,-47.604294,-51.242863,-50.194915,-35.850548,-45.665652,-50.475929,-52.940857,-17.471433,-18.887043,-20.073645,-20.130072,-0.102184,2.471554,2.28831,2.206497,16.020008,23.168075,25.809925,27.157615,56.082481,311.382159,-88.579045,76.649212
46,-0.923973,-0.254029,28.8666,9.509885,-27.488274,-52.122986,-74.998993,-91.463779,-61.07262,-94.512669,-111.280254,-123.965298,-55.897934,-92.819515,-111.850285,-126.584896,-48.945236,-82.799973,-101.135673,-115.286785,-41.08184,-66.435722,-80.895664,-92.963287,-18.148706,-18.50713,-6.723002,5.151219,11.47803,21.580398,25.495757,27.810162,29.185504,37.284614,39.6223,41.220388,41.508787,50.843745,54.234893,56.001572,49.121292,60.153682,63.370594,64.782777,12.348782,29.504734,43.218899,50.007214,62.439778,86.260724,96.94875,101.668042,68.34676,99.622181,113.440831,120.848431,66.296105,93.303852,104.90244,112.134945,58.471138,76.49358,84.435242,88.980629,-31.294479,-48.581025,-53.782794,-51.707208,-33.590026,-44.354877,-48.667241,-50.434618,-14.786803,-15.254748,-16.209385,-16.186877,2.661288,6.67312,6.569058,6.269717,18.771155,27.265499,29.646113,30.416808,53.641491,314.304225,-61.229462,89.335192
47,-1.134499,-0.121167,21.828816,15.857456,-27.271568,-51.85588,-74.630893,-91.153724,-60.984878,-94.276027,-111.025463,-123.812336,-55.870056,-92.541297,-111.537895,-126.373294,-48.946586,-82.608226,-100.952144,-115.211563,-41.013061,-66.284328,-80.774002,-92.964523,-18.122005,-18.600953,-6.920974,4.63916,11.130512,21.18322,25.114461,27.360805,28.763935,36.762663,39.126271,40.753568,41.038336,50.185881,53.622872,55.429874,48.619249,59.519827,62.792277,64.255762,13.122276,29.981438,42.662601,47.443794,62.794144,85.613342,96.322334,101.237205,67.568321,96.336204,110.81488,119.344185,64.699253,88.7341,100.962158,109.650421,56.169983,70.962204,78.532699,83.653129,-30.99226,-49.340876,-55.264254,-53.611479,-30.659512,-40.485768,-45.466112,-48.194319,-12.082722,-10.646265,-11.199969,-11.282597,4.478202,10.587744,11.302931,11.316127,19.586101,28.984513,32.290421,33.930258,50.624204,316.396424,-41.283434,107.406014
48,-0.853637,0.111929,13.469192,20.895531,-27.05793,-51.6381,-74.400238,-90.95525,-60.664994,-94.014153,-110.87376,-123.733795,-55.660401,-92.387261,-111.509136,-126.477471,-48.811753,-82.491074,-100.942314,-115.253517,-40.881226,-66.182717,-80.745907,-92.938557,-18.071876,-18.647772,-6.969078,4.528726,10.77788,20.805554,24.809525,27.123288,28.420034,36.178418,38.527984,40.198135,40.725916,49.643762,53.116012,54.955396,48.32523,59.005804,62.227533,63.622413,15.221924,33.06823,45.728692,49.938412,65.12138,89.113976,99.347535,103.043484,68.706253,97.905499,111.61686,118.7043,64.812229,87.986996,99.42389,107.169789,55.35775,68.426228,74.623444,78.522,-31.295619,-49.966223,-56.861845,-55.529475,-27.148727,-35.716494,-40.416124,-43.310486,-7.898897,-4.293396,-4.779297,-5.725604,8.331359,16.177243,16.632942,15.811909,22.407964,32.678311,35.225213,35.850214,47.717692,317.941655,-29.867117,129.734847
49,-0.515602,0.012745,10.281212,24.927591,-26.80362,-51.28299,-74.072628,-90.398793,-60.360718,-93.710312,-110.716645,-123.727913,-55.458161,-92.128086,-111.390358,-126.561551,-48.679482,-82.224987,-100.778389,-115.154824,-40.672623,-65.891739,-80.543518,-92.828499,-17.816673,-18.622158,-7.073263,4.540088,10.993117,20.580301,24.525288,26.85392,28.536372,35.880003,38.278265,40.08838,40.769882,49.413285,52.990289,54.93865,48.357056,58.873893,62.180405,63.625636,16.928158,36.152813,49.294808,53.122422,66.710095,92.629166,102.523888,104.635632,69.093178,99.897366,112.647652,117.31414,63.772053,87.212254,97.22992,103.221165,53.029473,65.168278,69.738671,72.027386,-30.926499,-49.411525,-56.832643,-55.275995,-21.451232,-29.212008,-33.693337,-36.628127,-1.206844,4.768558,3.815268,1.61683,14.946768,24.704531,24.054867,21.778438,28.011024,39.453092,40.133347,38.715211,45.164498,318.610451,-21.623497,155.318489
50,0.071525,0.644971,6.067543,24.28695,-26.564071,-50.689361,-73.393799,-89.701126,-59.850448,-93.338791,-110.477554,-123.654545,-55.176155,-91.874256,-111.298908,-126.772796,-48.52272,-82.021889,-100.734936,-115.241306,-40.471641,-65.663109,-80.36887,-92.74237,-17.253461,-18.317976,-7.35792,3.978801,10.982743,20.000538,23.77381,25.97804,28.336498,35.232142,37.664157,39.511285,40.454066,48.84502,52.493074,54.418761,47.955888,58.370565,61.82287,63.311573,16.483177,36.533066,50.276116,53.914376,64.074681,91.608101,101.408913,102.744107,64.745728,95.216252,107.504677,111.343987,58.15408,81.022602,90.587746,95.945103,46.933182,58.887852,63.083702,65.296452,-29.204009,-46.406973,-52.781489,-49.705788,-14.207767,-20.547783,-25.524092,-28.793007,6.214141,14.243109,13.89517,11.887219,21.828029,33.243451,32.880624,30.448473,33.511115,45.702221,45.610842,43.076167,43.463436,319.218443,-17.328541,179.56846
51,0.67012,0.839657,-9.889498,22.564045,-26.15831,-49.05384,-70.586917,-86.295021,-58.957454,-92.419612,-109.656406,-123.184032,-54.757049,-91.203941,-111.013504,-127.161918,-48.402282,-81.632686,-100.602481,-115.601429,-40.377594,-65.324192,-79.934223,-92.535083,-16.713033,-18.781412,-10.312948,-1.278073,10.249605,18.783685,22.367407,24.358648,27.308996,34.064874,36.676571,38.527564,39.389402,47.737021,51.56136,53.497408,47.160087,57.620001,61.301042,62.933538,17.67556,38.938077,53.855782,58.388323,59.954247,88.63404,100.639327,104.24988,59.210873,88.437304,101.490378,106.504984,52.815451,74.446181,85.097209,91.202614,43.060902,54.695406,59.813364,62.728919,-27.727822,-42.9566,-48.044232,-44.986006,-7.111242,-10.921147,-15.781649,-19.302426,13.945966,24.727625,25.704554,24.263787,29.308622,42.911547,44.265671,42.988265,39.742719,53.313188,54.548128,52.900621,42.979013,319.505131,-28.372582,201.579536
52,0.73272,0.28751,-17.71051,21.130225,-25.851059,-48.51162,-69.514847,-84.788853,-58.381004,-91.140141,-108.530811,-122.387901,-54.545815,-90.089665,-110.276665,-126.876446,-48.406998,-80.86211,-100.117218,-115.517086,-40.248894,-64.620884,-79.222469,-92.005921,-16.199307,-18.599026,-11.63437,-5.072994,10.211567,18.485233,22.069289,24.178287,26.756256,33.786466,36.487849,38.500579,38.781037,47.370433,51.137344,53.141157,46.88589,57.259589,61.003491,62.787152,17.232319,38.278954,55.182049,62.060526,52.938389,84.186728,98.697539,103.386057,52.75795,83.857447,94.305525,95.052378,47.798132,71.023573,78.220019,79.085781,40.71254,54.793825,58.861284,58.493895,-26.245373,-39.208066,-42.789698,-38.459648,-0.493481,-3.369195,-6.734898,-8.721554,22.687219,36.209843,38.650627,37.863438,39.746653,56.374804,59.203578,58.92149,50.75267,67.213835,69.062229,67.078096,43.033247,318.949538,-46.761578,221.866658
53,0.767052,0.380346,-15.594784,19.677917,-25.403481,-47.671463,-68.536515,-83.895527,-57.641533,-90.239674,-107.614506,-121.394097,-53.91948,-89.233933,-109.455162,-126.011822,-47.807579,-79.927002,-99.218319,-114.60204,-39.570694,-63.780224,-78.400258,-91.154538,-16.201172,-18.760121,-11.881743,-5.55382,9.992254,18.096773,21.600393,23.725002,26.544785,33.543799,36.245404,38.360146,38.584485,47.232939,51.11767,53.307858,46.695846,56.973597,60.891871,62.867217,15.805916,33.971764,50.409417,58.91759,43.184086,72.41236,85.444216,89.387312,44.937687,73.458705,80.388297,77.701006,43.271845,65.419001,69.377947,66.420777,40.470864,55.92068,59.211234,57.023547,-25.146373,-36.314454,-39.373143,-35.704934,-0.757004,-0.2064,-0.021279,0.731873,23.317283,39.967516,45.662936,46.75769,42.065338,61.487516,67.357992,69.132279,55.042348,72.957606,77.61736,78.00004,43.31135,318.442238,-62.845311,240.656929
54,0.870552,0.570067,-29.913368,1.975174,-25.114472,-47.185662,-67.947487,-83.218346,-57.243828,-89.7002,-107.102852,-120.893303,-53.580666,-88.79757,-109.132531,-125.796891,-47.476181,-79.391259,-98.789544,-114.259976,-39.189354,-63.249161,-77.803002,-90.51075,-16.483778,-19.136885,-12.430753,-6.026852,9.456224,17.386989,20.898278,23.069201,26.064639,33.026615,35.730937,37.852842,38.228346,46.945516,50.806522,52.993302,46.424627,56.653965,60.507203,62.469199,17.516167,36.735993,54.004429,62.600722,42.19186,71.603285,85.5479,91.192526,42.205754,69.191809,76.866549,75.606531,40.048674,61.165736,66.255255,64.438923,37.649918,52.881666,57.581137,56.701636,-22.622288,-31.168854,-32.548006,-27.987047,5.566806,8.682867,9.799667,10.725917,28.622693,47.57634,55.535097,58.152012,45.753072,66.709661,74.635611,77.570077,56.990758,75.510861,81.797059,83.054977,43.815857,318.216116,-93.124724,241.835914
55,0.574356,0.150659,-28.238308,-4.788732,-24.954232,-47.093193,-67.845211,-82.90456,-57.115242,-89.279469,-106.723652,-120.503769,-53.375313,-88.388993,-108.858296,-125.566338,-47.19207,-78.872612,-98.274628,-113.779621,-38.811676,-62.645062,-77.101147,-89.768704,-17.06921,-19.821957,-12.807629,-6.019727,8.942163,17.183287,20.760649,22.93104,25.744599,32.856307,35.586194,37.732021,38.142525,46.950703,50.835434,53.093127,46.562009,56.771278,60.469597,62.335769,19.346043,39.189492,57.069306,65.450449,43.883137,73.573363,87.458628,92.964747,43.597195,70.88138,77.948439,75.486689,41.020323,62.015379,66.551646,63.78772,38.007878,52.565077,56.848509,55.293658,-21.141131,-27.629172,-27.046971,-20.690643,9.951999,14.002517,16.166727,17.461602,33.412907,53.886639,62.272795,64.143827,50.130139,72.487808,80.533948,82.810106,60.908809,80.515201,86.461784,86.880847,44.090836,317.796405,-121.662409,236.476812
56,0.183105,-0.000556,-20.972757,-10.247006,-24.87854,-47.951202,-69.856945,-85.480476,-57.245087,-89.432819,-106.917389,-120.404594,-53.179985,-88.495994,-108.7943,-125.083855,-46.792213,-78.706524,-98.035114,-113.188167,-38.351211,-62.308227,-76.902088,-89.412437,-17.762951,-19.839691,-10.590813,-1.383543,9.332599,17.680872,21.300125,23.540863,26.517936,33.411098,35.93317,38.081356,39.041562,47.550139,51.261351,53.517785,47.26053,57.163332,60.615118,62.291086,21.162186,41.806412,59.534203,67.486313,47.445042,76.656361,89.528023,94.708065,45.785007,72.311954,80.259819,79.240185,41.653954,61.827164,67.813488,67.000694,36.827007,50.122215,54.656319,54.145901,-19.995956,-24.879698,-23.287735,-16.366057,12.855003,18.196167,20.293545,20.730034,35.519405,56.650396,65.098334,66.383842,50.734942,73.195876,80.909466,82.437282,60.149397,79.455762,84.662952,84.276394,44.066162,317.384341,-142.842945,225.818298
57,0.057861,0.682181,-12.414322,-16.523447,-24.789848,-47.75679,-70.286453,-86.317188,-56.978233,-90.100147,-107.562103,-120.798648,-52.731033,-89.249519,-109.344932,-125.339801,-46.252281,-79.164184,-98.361831,-113.237754,-37.999877,-62.646995,-77.294712,-89.653759,-18.452122,-20.585277,-10.19498,1.711932,8.918724,17.023317,20.476573,22.513768,26.762407,32.987243,35.276171,37.229423,39.484819,47.434036,51.049498,53.185828,47.486882,57.225342,60.427953,61.817115,22.705868,44.115086,60.891438,69.174397,51.886963,79.543648,90.809235,96.249905,48.518887,74.060074,84.680958,87.979385,42.475685,62.312759,71.92424,75.821262,35.183304,47.627483,53.702133,56.213768,-18.283901,-21.483598,-19.588972,-13.860596,13.622191,20.440523,21.691463,20.448476,34.568326,54.556551,61.372253,61.289236,47.567059,67.678217,73.104238,73.052356,55.196187,71.775938,74.80156,73.327182,43.93836,317.835094,-155.44293,209.063423
58,-0.205513,0.210532,-10.798016,-27.962704,-24.98133,-48.158363,-70.783092,-86.711917,-57.291664,-90.398014,-107.839668,-121.194534,-53.037414,-89.549629,-109.664623,-125.825523,-46.617027,-79.63401,-98.869594,-113.922214,-38.413673,-63.048877,-77.702476,-90.274978,-18.512193,-20.751695,-10.65244,1.418827,9.069802,16.951476,20.31901,22.197619,26.907829,32.826112,34.961392,36.656132,39.632934,47.296839,50.710266,52.569361,47.669577,57.393241,60.413392,61.582513,25.437882,51.115494,69.449021,76.32866,61.729512,92.01336,105.420044,112.488121,55.741597,83.977307,98.441975,105.772065,46.183251,67.519444,80.906239,89.054604,34.918969,46.553296,53.716176,58.330582,-17.639357,-21.01863,-18.411015,-10.418641,17.866636,22.074346,19.94282,15.570187,38.20669,55.897133,59.926632,57.977999,49.409697,66.975861,69.412829,67.120308,54.569969,69.703562,69.334986,64.753291,43.600971,317.939023,-166.372822,180.994116
59,-0.876045,0.032271,5.743172,-16.101179,-24.961624,-48.20668,-70.850132,-86.913528,-57.277199,-90.464069,-107.829998,-121.210224,-53.000198,-89.569656,-109.567577,-125.717525,-46.60366,-79.778663,-98.960518,-114.110744,-38.413788,-63.048271,-77.765419,-90.530502,-18.493643,-20.794278,-10.779127,1.089561,9.161057,16.976078,20.256062,21.979899,27.067762,32.817862,34.791306,36.380169,39.799931,47.225455,50.487507,52.227251,47.844022,57.491585,60.453555,61.569903,24.48983,49.874268,68.160542,74.90379,63.375595,92.913918,106.002274,113.041351,58.803658,87.691258,101.801102,108.956772,49.940701,71.986931,85.021031,92.838215,38.961491,50.911411,57.348873,61.058338,-19.803432,-24.830193,-22.646346,-14.445447,12.096115,14.187348,11.497192,7.025208,33.350767,48.740662,51.64781,49.130789,45.891053,61.539448,62.770566,59.928799,52.581167,66.342876,64.752667,59.526915,42.669021,317.99299,-160.685555,164.914633
60,-1.247223,0.069272,7.32201,-14.428774,-24.806465,-48.150421,-70.862777,-86.976253,-57.112335,-90.500656,-107.850391,-121.219997,-52.81533,-89.647739,-109.558982,-125.65971,-46.433921,-79.877575,-99.060447,-114.2784,-38.313583,-63.095409,-77.886474,-90.712452,-18.648378,-20.902416,-10.889266,0.98503,9.306281,16.937891,20.154754,21.862301,27.299943,32.874746,34.695765,36.254272,40.02306,47.317562,50.39682,52.046409,48.027087,57.611726,60.456679,61.5104,24.18512,49.456066,68.004215,75.223583,66.228401,94.669739,107.487957,114.903637,62.644615,92.406349,106.927998,114.728989,54.178963,77.442021,90.719559,98.69458,43.180218,56.292263,62.663876,65.566006,-21.151054,-27.82557,-26.580292,-18.829381,6.292959,6.62099,3.574126,-1.02042,27.821308,40.820505,43.140801,40.711416,41.48694,54.934697,55.495799,52.494482,49.668079,62.375054,60.497026,55.232495,41.433632,318.153384,-153.351711,150.576981
61,-1.089569,-0.083499,9.228676,-12.405856,-24.927246,-48.354904,-70.973442,-87.0504,-57.269691,-90.605095,-107.969249,-121.421138,-52.967857,-89.649879,-109.552837,-125.642452,-46.565117,-79.932918,-99.104347,-114.364368,-38.385383,-63.141906,-77.928875,-90.749759,-18.694542,-20.911962,-10.793725,0.995169,9.305132,16.819416,19.996241,21.711803,27.320704,32.870843,34.624987,36.095042,40.082958,47.481349,50.541477,52.146234,48.147129,57.847551,60.641609,61.604125,23.508419,48.50338,67.085598,74.293064,68.212681,95.614403,108.451412,116.286621,65.881989,96.612923,111.431259,119.503761,57.999779,82.631344,96.15794,104.196968,47.099075,61.243149,67.769486,70.180252,-22.14568,-30.903809,-30.749834,-22.964706,0.758907,-0.780043,-3.973367,-8.542052,22.639683,33.755585,35.413886,32.85343,37.502791,49.408308,49.244669,45.917767,47.227802,59.111805,56.944785,51.584047,40.377903,318.184306,-144.089195,138.285546
62,-0.941139,-0.194292,9.213364,-8.600276,-25.090828,-48.522446,-70.905865,-86.949657,-57.433044,-90.452236,-107.746513,-121.174484,-53.060051,-89.4188,-109.221554,-125.273197,-46.625587,-79.728275,-98.777641,-113.978588,-38.388153,-62.912315,-77.650806,-90.492027,-18.660752,-20.901934,-10.767481,0.870335,9.43655,17.147336,20.319171,22.021482,27.461853,33.08681,34.867939,36.284147,40.225972,47.677432,50.847957,52.464089,48.272508,58.142435,61.116631,62.148307,22.568607,47.415596,65.908275,71.358432,70.446613,97.038677,109.593395,116.912658,68.853744,99.374073,114.064212,121.997554,61.018936,85.481838,98.798927,106.817482,49.870262,63.61893,69.610885,71.564781,-23.868825,-35.505233,-36.550075,-27.571047,-3.707834,-7.413335,-10.706953,-15.155688,18.316969,28.524003,30.752236,29.02919,34.025391,45.588365,46.056569,43.10611,44.922647,56.91349,55.320984,50.199108,39.49831,318.030547,-134.814285,129.725803
63,-0.516128,-0.115115,6.580238,-0.65921,-25.060799,-48.391068,-70.632809,-86.7281,-57.424988,-90.34322,-107.576821,-120.88234,-52.971566,-89.207108,-108.937054,-124.819165,-46.416848,-79.344624,-98.288361,-113.339436,-38.092942,-62.594662,-77.325543,-90.03835,-18.59889,-20.644867,-10.164105,1.450419,9.52447,17.499795,20.66375,22.407039,27.594617,33.488508,35.275615,36.68387,40.377866,48.198025,51.574092,53.392284,48.390093,58.473293,61.544499,62.620488,21.026253,44.569851,62.61874,68.280922,69.658459,95.405788,107.777573,115.030758,68.604698,99.012096,113.749294,121.494061,60.85025,85.544083,98.881073,106.507885,49.338329,63.599442,69.803844,71.375141,-24.503472,-37.190668,-38.973748,-30.516949,-6.605794,-10.993575,-14.079409,-18.270089,15.228824,24.754647,27.21516,25.932579,31.1516,42.626914,43.344713,40.632894,42.565139,54.538,53.349577,48.384646,39.118166,317.907972,-128.098063,129.059133
64,0.295074,-0.011979,5.294952,-0.38042,-25.258736,-48.537209,-70.585716,-86.655819,-57.444443,-90.1646,-107.403797,-120.74334,-52.988113,-88.932392,-108.657829,-124.520622,-46.403481,-79.129372,-98.037563,-113.022835,-38.054398,-62.529923,-77.250595,-89.890938,-18.470549,-20.340623,-9.644081,1.910323,9.667533,17.875842,20.958633,22.632649,27.68056,33.775548,35.572263,36.898106,40.419078,48.482693,51.987968,53.883668,48.397972,58.722344,61.918941,63.033906,19.597493,42.25446,59.927811,65.723362,68.418675,94.131649,106.210785,112.476941,67.588738,98.166504,113.1927,120.467366,59.802922,84.830933,98.443394,105.773541,47.967167,62.846981,69.371304,70.819703,-24.285072,-37.727094,-40.272192,-31.788346,-7.900088,-12.904453,-16.191316,-20.604526,13.683552,22.97237,25.38305,23.939585,29.718596,41.48468,42.303503,39.4205,41.325944,53.90764,53.123052,48.117428,39.625431,317.827975,-122.59092,128.610695
65,0.708092,-0.258315,2.722733,1.208801,-25.533623,-48.740181,-70.53867,-86.479786,-57.410843,-89.905312,-107.073681,-120.455933,-52.857651,-88.447541,-108.087776,-123.974762,-46.232506,-78.695824,-97.515255,-112.474858,-37.788941,-62.078419,-76.775231,-89.510548,-18.091586,-19.835591,-8.957848,2.594444,9.944422,18.405452,21.549412,23.277732,27.778855,34.048622,35.999638,37.392407,40.451732,48.627869,52.310775,54.343043,48.463255,59.024465,62.480994,63.79403,18.22887,40.474995,57.965355,63.263672,67.336143,93.291893,105.33427,110.754055,66.836048,97.343273,112.211346,118.745625,59.184986,84.151428,97.659462,104.576626,47.233372,62.09317,68.774815,70.385479,-24.208014,-38.480294,-41.436718,-32.341012,-8.690154,-14.15207,-17.292474,-21.562441,12.804319,22.313172,24.715887,23.108252,28.853028,41.348904,42.253263,39.190393,40.507517,53.569471,53.004244,47.927854,40.668011,317.466673,-119.533699,129.716509
66,0.831367,-0.175902,0.947765,1.466449,-25.569488,-48.722397,-70.39397,-86.075432,-57.156967,-89.3852,-106.477123,-119.937847,-52.523117,-87.802883,-107.383255,-123.40353,-45.865837,-77.969799,-96.657211,-111.659214,-37.383842,-61.373474,-76.004459,-88.856712,-17.80772,-19.479501,-8.565424,3.143664,10.184644,18.966664,22.274127,24.10946,27.886387,34.389879,36.596443,38.206561,40.498576,48.840982,52.749277,54.96997,48.51489,59.292239,63.001512,64.554066,17.265335,39.114155,56.541893,61.382298,66.383297,92.295124,104.114365,108.880188,66.12727,96.373879,111.243576,117.519928,58.593716,83.340958,96.785488,103.542984,46.558091,61.398823,68.269696,70.228615,-24.239408,-39.031027,-42.150004,-32.407851,-9.17424,-15.121151,-18.163865,-22.241782,12.188111,21.428196,23.674503,21.957681,28.189347,40.676429,41.502736,38.3506,39.932312,53.111455,52.690972,47.664587,42.077001,317.105566,-118.008311,130.997753
67,0.936218,-0.285546,-0.151508,0.786373,-25.444839,-48.653892,-70.200851,-85.68711,-56.839645,-88.796974,-105.935989,-119.595565,-52.157341,-87.03392,-106.658489,-122.91608,-45.513862,-77.201889,-95.854557,-110.966468,-37.016189,-60.674903,-75.254138,-88.232013,-17.593359,-19.065391,-8.027924,3.68356,10.53772,19.541856,22.93745,24.800052,28.055521,34.739658,37.109206,38.87591,40.537478,49.108349,53.147542,55.512657,48.515026,59.479516,63.329444,65.032644,16.74654,38.244358,55.747124,60.508404,65.401657,91.536587,103.256115,107.571064,65.299896,95.935535,111.050617,117.14542,57.768768,83.008015,96.735558,103.411846,45.585022,60.965733,68.213825,70.245312,-24.301436,-39.306231,-42.685114,-32.555256,-9.584596,-15.661349,-18.967318,-23.40114,11.673607,20.71144,22.6671,20.451804,27.654002,40.030538,40.605892,37.089082,39.369994,52.735192,52.363466,47.195389,43.839197,316.653689,-117.333841,131.617795
68,0.556984,-0.187499,-0.346767,-0.064801,-25.276908,-48.389465,-69.787307,-85.102981,-56.265312,-88.060707,-105.28086,-119.215622,-51.60894,-86.316124,-105.995006,-122.579967,-45.06269,-76.616855,-95.267635,-110.522632,-36.638443,-60.091919,-74.643196,-87.826583,-17.539587,-19.115841,-8.272863,3.493517,10.778806,19.776014,23.229875,25.131812,28.211948,34.848017,37.329729,39.250118,40.602427,49.034063,53.029895,55.361739,48.508703,59.533572,63.464764,65.266678,16.470497,37.756736,55.345619,60.301654,65.049774,91.41513,103.02436,106.958061,65.031841,95.850345,111.013984,116.848434,57.603057,82.988525,96.800251,103.317398,45.603904,61.302063,68.620216,70.433853,-24.500297,-39.618045,-43.077631,-32.583852,-10.093327,-16.305048,-19.825457,-24.414686,11.06313,20.122045,21.951611,19.491123,27.018455,39.34669,39.836457,36.162258,38.757986,52.369209,52.050429,46.834446,45.396394,316.292616,-116.680395,131.37942
69,0.055893,-0.131356,-0.35241,-0.205271,-25.080803,-48.011604,-69.318752,-84.429199,-55.817871,-87.429588,-104.632026,-118.640796,-51.113227,-85.660606,-105.380298,-122.116722,-44.525756,-75.821903,-94.450767,-109.782783,-36.069122,-59.349517,-73.862388,-87.155147,-17.524421,-19.284382,-8.554087,3.344835,10.733704,19.848089,23.4904,25.556495,28.159695,34.910448,37.589057,39.739268,40.58389,49.113351,53.200067,55.5936,48.559882,59.647119,63.611953,65.444532,16.36956,37.476471,55.060009,60.117771,64.928398,91.073204,102.664055,106.648064,65.086395,95.773567,110.920647,116.923851,57.843785,83.171379,96.970013,103.599472,45.983666,61.73584,69.083874,70.964745,-24.625638,-39.945544,-43.437364,-32.786121,-10.548508,-16.868131,-20.494443,-25.131584,10.536041,19.368715,21.116437,18.719477,26.514485,38.660952,39.174357,35.646865,38.369477,51.84012,51.596625,46.503637,46.542715,315.888993,-115.942377,130.901882
70,-0.279716,0.065443,0.027809,-0.132263,-24.820061,-47.554962,-68.799454,-83.908184,-55.388741,-86.770214,-103.939865,-117.923893,-50.699021,-85.081341,-104.826805,-121.615471,-44.107956,-75.170677,-93.76371,-109.066303,-35.636994,-58.832634,-73.344051,-86.647957,-17.674054,-19.537793,-8.812623,3.033514,10.649921,19.907271,23.64285,25.784243,28.123201,34.97962,37.695502,39.905982,40.53449,49.129925,53.317257,55.808109,48.462638,59.534314,63.52444,65.365936,16.097523,36.983769,54.474713,59.565766,64.804573,90.994824,102.467125,106.173226,65.0457,95.840081,110.96933,117.084687,57.896096,83.384274,97.276245,104.068199,46.095692,61.96566,69.297673,71.118222,-24.655735,-40.223594,-43.840971,-33.174976,-11.050619,-17.487976,-21.253454,-26.05968,10.01785,18.608141,20.305623,17.901815,26.09318,37.974515,38.480535,35.035591,38.11086,51.413319,51.237849,46.272363,47.35853,315.698376,-114.819037,130.513559
71,-0.655014,0.311531,-0.467182,0.36618,-24.481224,-47.014252,-68.254166,-83.512619,-55.000832,-86.276528,-103.362923,-117.162689,-50.263344,-84.685032,-104.32116,-120.884777,-43.619293,-74.680733,-93.227074,-108.401322,-35.152336,-58.523186,-73.077439,-86.340122,-17.929812,-19.825278,-9.028219,2.723836,10.47718,19.754612,23.516261,25.75438,28.05588,34.927083,37.517994,39.674047,40.495439,49.101063,53.233586,55.718471,48.393699,59.367612,63.23546,64.946762,15.902149,36.834561,54.277371,59.570709,64.76746,91.278969,102.719227,106.207432,65.058426,96.031826,111.36089,117.684094,57.988667,83.661644,97.739262,104.732426,46.24577,62.196362,69.435574,71.178337,-24.716992,-40.467027,-44.418782,-34.074241,-11.621254,-18.212765,-22.280172,-27.435912,9.323213,17.712995,19.387271,16.914519,25.397722,37.024374,37.528245,34.073099,37.474312,50.712921,50.584801,45.700764,47.65781,315.800551,-114.331925,130.670383
72,-0.440987,0.458645,-0.812084,0.794802,-24.288849,-46.722976,-67.976246,-83.258583,-54.943565,-86.113094,-103.025871,-116.491665,-50.131393,-84.557327,-104.100208,-120.32468,-43.295311,-74.334102,-92.858494,-107.878132,-34.678619,-58.266289,-72.831161,-85.929302,-18.172034,-20.137427,-9.299476,2.579266,10.190177,19.508413,23.34541,25.714663,27.905172,34.854847,37.451773,39.592154,40.408124,49.101853,53.348207,55.904945,48.279992,59.163144,62.992151,64.661228,15.834377,36.778439,54.138016,59.741455,64.783195,91.276257,102.755344,106.372353,65.106503,96.023666,111.532196,118.29229,58.114265,83.803722,98.027058,105.362457,46.411514,62.372223,69.648663,71.617115,-24.869639,-40.899978,-45.296601,-35.401882,-12.288178,-19.122503,-23.321,-28.643435,8.53655,16.66267,18.367067,16.016346,24.6139,35.984028,36.541066,33.240691,36.821462,49.837189,49.926579,45.385392,48.061689,315.976478,-114.299143,131.182467
73,-0.110779,0.398859,-0.654568,1.557173,-24.224624,-46.80233,-68.211467,-83.514129,-54.967323,-86.176036,-102.983379,-116.183406,-50.02668,-84.48817,-103.926487,-119.793068,-43.046447,-74.116127,-92.691009,-107.610168,-34.353996,-58.090484,-72.74525,-85.730838,-18.351223,-20.288111,-9.363388,2.606423,9.961835,19.582846,23.501416,25.951746,27.807606,35.083348,37.712471,39.854432,40.393068,49.360142,53.682757,56.324539,48.27536,59.244889,63.130336,64.914033,15.207928,36.258007,53.803139,60.028336,64.06913,90.590767,102.485344,106.874623,64.810845,95.994782,111.847035,119.168003,58.307762,84.433445,98.844017,106.439152,47.147347,63.166924,70.427674,72.497074,-25.053952,-41.387634,-46.388892,-37.211743,-12.982327,-20.406048,-24.785955,-30.289794,8.00423,15.355857,16.846784,14.581581,24.191242,34.6486,34.968986,31.652989,36.388035,48.541159,48.448311,43.960711,48.706409,316.078308,-114.198212,132.442611
74,0.211556,0.249175,-0.667968,2.749906,-24.246048,-47.11409,-68.729565,-84.195923,-55.089089,-86.335957,-103.070664,-116.083706,-50.026474,-84.499661,-103.77602,-119.301315,-42.969658,-74.058048,-92.615559,-107.407025,-34.261505,-58.079613,-72.760849,-85.597847,-18.500806,-20.378587,-9.434981,2.547204,9.973037,19.865873,23.960284,26.583429,27.937652,35.601298,38.35181,40.533847,40.554126,49.791765,54.254035,57.055849,48.37552,59.460175,63.466518,65.459524,14.685527,35.664962,53.562103,61.17453,63.184959,90.302009,102.820129,108.323741,64.440216,96.228996,112.642925,120.671253,58.536781,85.416023,100.178398,108.004474,48.079925,64.693908,72.256748,74.548942,-25.466352,-42.116424,-48.138528,-40.56873,-13.921235,-21.923453,-26.590827,-32.52824,7.318301,13.767341,14.902943,12.484427,23.608973,32.937522,32.720012,28.984421,35.746165,46.938279,46.508002,41.83257,49.650072,316.075532,-114.134073,134.940566
75,0.386879,0.215916,-0.919922,4.752849,-24.432633,-47.558991,-69.395153,-85.076008,-55.377365,-86.619942,-103.250691,-116.143444,-50.167008,-84.600094,-103.67236,-118.85186,-43.003624,-73.993607,-92.493668,-107.124653,-34.345551,-58.217903,-72.917301,-85.600193,-18.708102,-20.573298,-9.633163,2.348418,9.929442,20.109874,24.313953,27.003443,28.079172,36.232783,39.142747,41.420114,40.802536,50.433538,54.978282,57.8714,48.633452,59.876744,63.916765,66.015427,14.477577,35.89381,54.457374,64.310394,62.207325,90.387428,103.986992,111.313923,64.085048,96.82014,113.904613,122.8801,59.192138,87.269291,102.066032,109.820881,50.074516,67.919117,75.728038,78.215549,-26.067146,-42.959397,-50.143409,-45.149925,-14.817376,-23.291953,-28.147394,-34.205085,6.753809,11.972349,12.520989,9.921142,23.092054,30.701138,29.421607,24.923448,34.97865,44.327762,43.077242,37.924516,50.782276,316.05223,-114.30867,139.454197
76,0.84716,-0.187252,-0.623715,6.29354,-24.765907,-48.319061,-70.341327,-86.025844,-55.901481,-87.123573,-103.698097,-116.528137,-50.562446,-84.832466,-103.867275,-118.940586,-43.273681,-74.073566,-92.57278,-107.136818,-34.577019,-58.288353,-72.935554,-85.468872,-18.730555,-20.591811,-9.815363,2.288285,10.11352,20.603174,24.877833,27.549391,28.286876,36.984026,40.188552,42.617751,40.994469,51.129724,55.925187,59.008743,48.739885,60.304032,64.584336,66.974176,14.966767,37.083927,56.414543,68.471604,61.942978,91.202122,106.046963,115.385536,63.951874,97.473885,115.317948,125.578652,59.825649,88.788666,104.084519,112.390251,51.799015,70.627281,78.850353,81.706421,-26.635873,-43.435375,-51.361844,-49.119569,-14.928866,-23.253285,-28.003169,-33.82674,6.805772,11.07498,11.073004,8.71977,23.0893,29.485803,27.726559,23.142554,34.650497,42.493725,40.786598,35.527896,52.506494,315.503612,-114.055327,145.386371
77,0.651238,-0.437365,-0.414688,8.620067,-25.10614,-49.022759,-71.323208,-86.935421,-56.284172,-87.669079,-104.229847,-117.071663,-50.780022,-85.140576,-104.124745,-119.086396,-43.432709,-74.245652,-92.749066,-107.236599,-34.837349,-58.58844,-73.242096,-85.682522,-18.785686,-20.609052,-9.897468,2.310762,10.16634,20.983234,25.439885,28.251233,28.371733,37.650337,41.153994,43.798962,41.12113,51.783376,56.70586,59.940112,48.876476,60.814917,65.260305,67.907335,16.156197,39.081848,59.325703,73.5294,62.402996,92.711323,108.893784,120.036621,64.129063,98.439365,117.245064,128.801766,60.464504,90.336994,106.499096,115.85376,53.272923,73.071053,82.356812,86.571339,-26.964626,-43.368277,-51.784525,-52.307958,-13.977903,-21.985215,-26.659165,-32.161806,7.559165,11.072726,10.455765,8.161589,23.409372,29.01868,26.914066,22.310128,34.322312,41.006498,39.191036,34.113645,54.125107,314.454007,-113.50264,153.394198
78,0.343116,-0.586049,-0.298725,11.404752,-25.370796,-49.42131,-71.829345,-87.487026,-56.704719,-88.093963,-104.602443,-117.425697,-51.153511,-85.499599,-104.364235,-119.201603,-43.764129,-74.561702,-92.973049,-107.352665,-35.204887,-58.93428,-73.532032,-85.896389,-18.730271,-20.643138,-10.228548,1.842818,10.263561,21.089989,25.640463,28.501483,28.474548,37.944813,41.634548,44.382392,41.237864,52.100305,57.112672,60.380442,48.987466,61.050261,65.601995,68.342738,18.297054,42.138828,63.174316,79.220707,63.759922,94.949398,112.300518,124.959743,64.538715,99.271133,118.926189,131.941303,60.955238,91.291363,108.392818,119.140514,54.329681,75.097263,85.896824,92.190765,-27.211276,-42.823324,-51.5086,-54.818731,-12.491596,-19.343737,-23.337222,-28.000712,8.504014,11.906313,11.006634,8.862166,23.684179,29.141137,27.223219,22.892576,33.88531,39.820043,38.446714,33.916593,55.375173,312.819445,-112.894415,163.750437
79,-0.273674,-1.020228,0.324852,14.302476,-25.337562,-49.251434,-71.59925,-87.323501,-56.832,-88.301857,-104.762729,-117.522697,-51.310981,-85.793586,-104.608966,-119.332225,-43.924049,-74.90847,-93.285369,-107.564003,-35.431915,-59.270187,-73.837532,-86.189048,-18.654219,-20.615029,-10.48727,1.214964,10.403994,21.060744,25.558533,28.391543,28.534557,38.013924,41.796112,44.609869,41.253129,52.174776,57.210386,60.444144,48.952442,61.081692,65.646431,68.40623,21.802952,46.519958,67.656727,85.308517,65.854958,96.526749,114.528362,128.681156,64.727726,99.055767,119.420963,134.399792,60.404411,90.105938,108.19035,121.175297,53.526123,73.887279,86.180843,95.102508,-26.657943,-40.772883,-49.139397,-53.950958,-9.603109,-13.624481,-16.054582,-19.081495,9.382666,14.223516,14.034238,12.970909,22.990345,29.775938,29.305078,26.587208,31.920406,38.233694,38.279957,35.544476,55.97668,310.475786,-111.694382,176.729482
80,-0.220253,-1.135862,1.248608,15.384325,-25.549141,-48.777214,-70.325752,-85.494197,-56.824745,-88.484298,-104.966228,-117.776779,-51.706787,-86.069618,-104.869754,-119.648792,-44.560409,-75.621585,-94.028137,-108.438137,-36.208076,-59.914192,-74.287948,-86.705474,-17.504611,-19.028809,-9.717279,1.205331,10.456506,20.569149,25.192822,28.293953,28.185272,37.583203,41.505157,44.250877,40.753679,51.774757,56.865189,59.835063,48.478075,60.818463,65.63497,68.438352,25.432365,50.814628,71.973026,90.749382,67.735519,97.024509,115.336349,130.646209,64.422203,97.585876,118.72808,135.586441,58.768673,87.240028,106.73101,122.236244,50.895195,69.960662,83.759067,95.260334,-25.60831,-37.778766,-45.235635,-50.483827,-5.804625,-6.417455,-7.125627,-8.481629,10.964131,18.093846,19.095327,19.441981,22.995199,32.02774,33.801595,33.412234,30.785495,38.674394,40.723421,40.307161,56.609991,307.714128,-109.59221,190.488011
81,-0.917976,-0.987611,2.079277,15.112709,-25.843735,-47.896431,-68.157188,-82.106529,-56.474281,-88.216255,-104.672195,-117.453484,-51.769066,-86.117294,-104.845848,-119.605007,-44.882126,-75.976707,-94.302338,-108.714638,-36.672775,-60.216076,-74.387615,-86.902966,-15.780837,-16.754789,-8.262897,1.843633,10.035171,19.785721,24.67092,28.039578,27.195128,36.739717,41.037669,43.860144,39.721459,50.810857,56.081057,58.888256,47.802785,60.099848,65.009413,67.812783,27.500141,53.548736,75.113021,94.605388,68.103332,96.533249,115.17723,131.116333,63.216968,95.686569,117.105606,134.714195,56.503555,84.527893,104.612938,121.414627,47.830741,66.729229,81.53231,94.708454,-24.013068,-34.253898,-40.60854,-45.765589,-1.465535,0.713563,1.283841,1.152003,13.942613,22.971215,24.835435,26.06128,24.977313,35.883955,39.103547,40.229974,32.041165,41.64512,45.267251,46.53637,56.405731,305.094373,-106.799217,203.968576
82,-0.994423,0.137716,2.48965,15.339642,-25.828354,-47.266113,-66.311474,-79.932484,-56.42308,-87.078609,-103.421722,-116.708416,-52.574158,-85.395161,-104.0396,-119.274948,-46.072243,-75.905022,-93.84589,-108.191769,-37.729362,-60.110172,-73.772404,-86.092907,-11.225867,-10.115064,-1.582774,8.272097,10.221533,18.719971,23.108548,26.101146,25.228131,34.293424,38.682125,41.418755,36.732195,47.607777,52.851189,55.65288,44.571101,56.410532,61.567989,64.757533,29.275257,56.013405,78.071045,98.279709,67.653168,95.671875,114.582882,130.864048,61.558766,93.365742,114.874157,132.558895,54.265858,81.884903,101.935696,118.994259,45.361142,64.219872,78.915757,92.176609,-22.180056,-30.631946,-35.890951,-40.360341,2.61497,7.867818,10.00537,11.142047,17.253757,28.105799,30.87507,32.945722,27.705162,40.110808,44.614167,47.00618,34.304058,45.194225,49.897384,52.359928,56.002075,303.800783,-103.7188,217.876912
83,-1.325592,0.450889,5.762959,17.912152,-25.109482,-46.86866,-65.919868,-79.601875,-55.562485,-84.832695,-101.836121,-116.118256,-52.094833,-82.772221,-100.765606,-115.585648,-45.524322,-73.478565,-89.184563,-101.690987,-36.83361,-58.203953,-70.720207,-81.956566,-2.058129,2.896255,11.162992,20.787523,15.318363,22.346362,26.049658,28.509609,23.431021,31.123467,34.029466,35.245505,28.74925,37.947431,41.39776,42.520259,31.310028,40.89011,44.711201,46.688301,29.605579,56.376308,78.462307,99.197502,65.86132,96.134765,114.282097,128.329353,59.077515,93.362869,113.582908,127.894615,51.461311,81.396915,100.150062,114.118263,42.500713,62.946487,77.048401,88.09671,-22.296394,-29.267447,-33.101271,-36.4229,5.317229,14.18013,16.076448,16.968779,20.739494,33.361377,34.649095,35.391458,31.745899,45.457146,48.852554,50.492164,38.538902,51.760999,55.734428,57.44568,55.208856,303.295084,-97.423468,234.832476
84,-1.912971,-0.31016,4.223053,12.969933,-25.139855,-47.48021,-65.681591,-78.265698,-57.164223,-82.178261,-96.776951,-109.984795,-54.100525,-78.69983,-89.513306,-98.526181,-47.627999,-70.688748,-79.576802,-86.52388,-38.660843,-58.93895,-70.855282,-81.39576,1.891254,10.133156,20.031488,30.719089,16.194268,23.0888,26.15719,28.065945,21.793425,28.861426,30.704466,30.730463,25.68317,34.057884,35.763912,35.293238,27.610622,36.950854,41.478505,44.175899,28.526802,55.870479,78.79937,99.584953,62.973656,95.35786,113.650246,126.86911,56.124023,92.292091,112.2659,125.056686,48.801773,80.948959,99.464447,111.836265,40.526539,63.124912,77.026348,86.663383,-21.397123,-27.262708,-29.485266,-31.688409,7.997667,19.16119,21.52712,22.585819,25.042287,38.4999,39.573258,39.661919,36.996512,51.298834,53.99913,54.554612,44.143097,58.230935,61.447959,61.799529,53.741044,302.37972,-92.755256,247.197205
85,-2.193879,1.870827,3.401859,10.326744,-24.234512,-47.235992,-65.42633,-77.671531,-57.720188,-77.19643,-86.597133,-95.742393,-54.652816,-73.103805,-78.152378,-81.989742,-48.065185,-65.991428,-69.07798,-70.751873,-38.840606,-57.425148,-68.349598,-77.454322,8.043696,18.347703,28.41407,38.890719,17.551691,23.806427,25.728594,26.207789,19.070936,25.416433,26.685145,25.648046,20.070391,27.645141,28.779015,27.58507,20.027907,28.425555,33.079042,36.035725,27.760391,55.392437,79.004334,99.352146,61.025643,94.770149,113.03587,125.459896,54.052483,91.369961,111.188267,122.741741,46.808876,80.409943,98.57095,109.699368,39.053707,63.216042,76.599095,85.075115,-20.033254,-24.898581,-25.662039,-27.366844,10.398522,22.975167,26.031281,27.533261,28.801059,42.74361,43.88708,43.6548,41.670549,56.617829,58.841239,58.541391,49.290253,64.547175,67.371725,66.801707,51.945247,303.898777,-88.955315,257.172179
86,-3.076927,3.602384,3.105641,10.055548,-22.989601,-46.5168,-64.921325,-77.81591,-57.251083,-69.635982,-73.718582,-79.075767,-53.666427,-63.846508,-63.234031,-62.664276,-46.426506,-57.016102,-54.553104,-51.961487,-36.394455,-50.599468,-58.490089,-64.799274,14.176066,26.220151,36.292619,46.357602,19.560752,26.154214,26.77977,25.648848,16.154846,22.881825,23.349769,21.244858,13.057668,20.978344,21.288516,19.206798,9.788638,17.480504,21.619054,24.21924,27.765312,55.296707,79.242324,99.435333,59.604217,94.226577,112.274322,124.112617,52.164241,90.491397,110.359909,121.227653,44.879768,79.593338,97.669143,108.068046,37.667976,62.727779,75.951347,83.886142,-19.096821,-23.12543,-22.945934,-24.472256,11.699777,26.126686,30.281451,32.40038,30.867611,45.91899,47.55051,46.945986,44.173194,59.971333,61.902108,60.764567,51.838075,67.644835,69.977864,68.64282,49.201154,307.253233,-85.51684,266.979799
87,-14.352115,-0.741598,3.194892,8.567944,-16.595856,-34.989029,-49.794949,-60.375973,-47.312313,-49.181729,-45.631646,-45.323388,-45.458748,-44.314431,-35.368344,-27.369576,-40.540902,-41.071701,-30.839734,-22.168099,-33.101189,-43.396019,-48.609169,-52.263646,9.027552,17.612699,25.511454,33.493028,17.209062,26.890983,27.848374,26.431597,16.508713,25.61932,25.355337,21.973452,14.586003,23.52913,22.500739,19.226905,12.033315,20.399619,23.940314,25.616553,27.320195,54.592289,78.636074,98.702546,58.069817,93.458909,111.227967,122.634293,50.34993,89.955368,109.88411,120.51661,43.088883,78.980381,97.177872,107.242379,36.383297,62.268231,76.013546,84.417389,-18.381739,-21.830623,-20.935798,-22.568429,12.732737,28.072318,32.569069,34.832296,32.478988,48.047205,49.875178,48.951379,46.083789,62.360704,63.775665,61.853992,53.785683,70.111677,71.745507,69.549044,35.122479,306.289092,-82.048508,275.3252
88,-14.135857,-1.328289,-0.259861,3.235487,-13.30592,-25.473118,-33.486408,-40.124519,-38.369843,-28.488155,-16.620998,-9.790661,-38.381699,-25.278282,-8.378666,5.176609,-35.41325,-26.430176,-10.41782,2.044567,-29.712925,-35.966171,-38.390442,-39.305306,1.038445,6.185613,13.73596,21.654301,11.916509,23.211239,24.779403,23.641121,17.964529,28.173811,29.396828,26.840743,21.917334,32.030236,32.167988,29.814557,24.782343,35.382147,40.06347,42.507453,27.693215,55.071854,79.454636,99.411564,57.903317,91.292164,109.601109,122.967373,49.746689,87.409733,108.697392,122.578869,42.182225,76.404099,95.887425,108.864499,35.517712,60.263249,74.719254,85.480603,-15.841858,-18.809188,-17.454705,-19.458605,14.747801,29.684028,35.7855,39.144895,33.532462,49.054996,53.415144,54.250553,46.34976,62.921533,66.062715,65.173781,53.650783,69.443179,72.21024,70.980246,21.316361,304.657948,-81.97863,278.257832
89,-3.737091,0.765854,1.368554,4.82209,-9.583042,-18.890797,-26.364498,-33.872349,-35.416168,-20.814583,-3.34853,8.038021,-37.816464,-20.145561,-1.434849,13.588657,-36.868824,-23.319386,-5.201626,8.474979,-33.196575,-35.171379,-32.296372,-28.705456,-2.528852,-1.284557,4.01143,10.933293,9.137616,22.658054,25.162737,24.185302,18.096551,30.27456,32.777687,30.701502,23.933867,35.153521,36.056362,34.256868,28.355801,39.239781,41.808462,41.972977,27.85968,54.781597,79.164093,99.05524,57.855777,90.519001,108.829685,122.314235,49.481346,86.533435,108.026905,122.238155,41.65377,75.350772,94.830059,108.113353,34.912387,59.143295,73.622852,85.052181,-14.978897,-17.71586,-16.241656,-18.902987,15.93373,30.312375,36.543733,40.059221,34.26203,49.49314,54.121729,55.111217,46.740368,63.193778,66.397266,65.612887,53.96203,69.769308,72.686138,71.86729,17.915348,305.083891,-80.273998,282.740011
90,-14.052796,3.192323,1.272434,4.968549,-2.808998,-5.511074,-7.912879,-12.171981,-21.965389,-0.684963,18.54411,30.884686,-26.784118,-2.213802,18.499913,34.774945,-28.23151,-7.841709,12.174374,26.653462,-26.978256,-22.697113,-15.389694,-8.133888,-10.82376,-14.530242,-12.088335,-7.502317,3.330064,17.675055,21.092422,21.02688,16.67996,29.745828,32.464192,30.9365,25.693791,37.203117,37.690117,35.967602,32.472628,43.354853,44.599865,43.127686,27.430641,54.09581,78.494865,98.376228,57.407902,90.475685,108.964989,122.49163,49.066761,86.540062,108.017441,122.28376,41.386253,75.336948,94.898781,108.324783,34.890735,59.551803,74.540405,86.630424,-14.948256,-17.831518,-16.66383,-19.577314,16.532512,30.472766,36.35206,39.43548,34.676845,49.312533,53.708335,54.371398,46.825695,62.774987,65.725113,64.619225,53.880272,69.050039,71.605716,70.475646,4.158445,307.938776,-78.705671,287.371122
91,-15.003524,-2.120917,1.069919,4.040725,4.565792,9.306209,11.634361,9.433296,-7.077141,20.217121,40.362636,52.394954,-14.534523,15.511585,37.379482,54.013424,-19.432457,6.428112,27.797321,42.573543,-21.986058,-12.617329,-2.933876,5.568832,-19.188323,-26.799456,-25.580021,-21.729475,-0.907866,15.267296,19.117805,19.694776,18.398437,32.804042,35.123425,33.303331,32.035003,43.993229,43.602065,41.608922,42.472119,54.700887,54.566777,51.499856,27.087319,53.421433,77.745335,97.703122,57.078518,90.450314,109.062344,122.573353,49.007836,86.869343,108.302205,122.591961,41.601529,75.852791,95.424191,108.740216,35.409302,60.411164,75.839676,88.398274,-14.9457,-18.300513,-17.527472,-20.413884,17.227846,30.318982,35.553886,38.073204,35.175455,48.752135,52.628863,52.944692,46.984702,62.102055,64.678702,63.24198,53.897389,68.405241,70.625205,69.143257,-10.581533,305.488664,-77.372206,291.082652
92,-3.6805,2.461742,0.591958,2.897193,6.818046,13.653064,16.950897,14.901237,-1.618515,26.955414,45.655357,56.400238,-9.197285,21.514068,42.423362,57.596145,-14.46254,12.597736,33.337578,47.115852,-17.760544,-3.731449,8.818485,18.852104,-19.182765,-27.607398,-26.89081,-22.879194,-2.677176,12.798798,16.221994,16.82742,16.61443,30.675086,33.083586,31.57553,30.880196,42.449914,42.172852,40.256378,42.05129,54.173205,52.762516,48.516904,26.71146,52.882656,77.175785,97.058269,57.359951,90.641452,109.166507,122.59386,49.490352,87.071537,108.221569,122.485439,42.092559,76.109973,95.52119,108.674411,35.835605,60.816844,76.285045,88.788814,-15.009981,-18.64692,-18.140246,-21.247662,17.634386,30.293307,35.339403,37.674247,35.206627,48.068139,51.745314,51.890711,46.704023,61.173564,63.721041,62.153766,53.573534,67.701386,69.923548,68.359546,-14.068319,307.678955,-76.586534,293.708394
93,-2.67952,2.706558,1.110877,2.343737,10.888561,19.552689,21.781082,18.699371,2.452469,29.79554,47.967247,58.099525,-5.456154,23.861481,44.483757,60.31675,-11.741924,15.784836,36.839241,51.258431,-16.793816,1.350231,16.562565,28.095474,-20.756129,-31.474136,-32.486101,-30.133707,-6.275497,10.34953,13.953382,14.616261,13.645927,29.553513,32.134643,30.652052,28.966921,41.630325,41.125836,39.203138,41.271542,53.590453,50.865914,45.449069,26.415883,52.354729,76.583302,96.445302,56.977227,90.313054,108.91721,122.345936,49.109677,86.671406,107.664883,121.721066,41.727551,75.874112,95.180432,108.074742,35.500901,60.746235,76.317067,88.712048,-14.968386,-18.755107,-18.484652,-21.390812,18.17921,30.824336,35.752179,37.956447,35.569102,48.212733,51.593395,51.520011,46.881604,61.051459,63.372274,61.600111,53.605607,67.399006,69.392902,67.621814,-16.62957,310.163338,-75.357388,295.829956
94,-12.035545,2.292336,0.718083,1.729641,15.402591,29.222007,35.361786,34.628013,15.325069,46.063957,63.078735,71.987159,7.527912,39.477539,59.075546,73.634056,0.346561,30.646248,50.763931,64.1361,-6.326054,15.834068,31.701713,43.093849,-21.726673,-34.026774,-36.800788,-36.29499,-8.461746,7.10893,10.433004,11.331361,11.616352,27.727936,30.046318,28.512907,27.322717,40.395045,39.785889,38.064757,40.062519,52.610659,49.656754,44.122102,26.135891,52.125194,76.467705,96.420113,56.745769,90.09906,108.607407,122.002167,48.983242,86.544571,107.289093,121.279564,41.622173,75.91246,95.059135,107.843582,35.418468,60.988403,76.608032,88.916222,-15.057195,-19.001429,-18.764419,-21.49207,18.068764,30.893954,35.699235,37.704123,35.400721,47.813122,51.074532,50.966641,46.714866,60.541623,62.885792,61.16692,53.510141,66.964382,68.764605,66.83541,-28.592468,312.231205,-74.566658,297.335128
95,3.897537,-2.551194,1.102581,1.076582,15.193703,27.747047,31.787155,28.889557,11.755543,42.087685,58.930618,66.855949,3.836403,35.399094,54.885773,68.731659,-3.673737,26.383163,46.781959,59.681763,-10.939934,11.748814,28.318771,39.240784,-20.9984,-32.819862,-34.709141,-32.658212,-6.656855,10.495014,13.432765,13.763636,13.861498,31.591536,33.48284,31.174758,30.105623,44.435374,43.028577,40.818258,43.49063,57.299813,53.235228,47.016307,25.952396,51.836117,76.136867,96.155308,55.887073,89.131313,107.506542,120.781162,48.128883,85.738094,106.251034,119.971218,40.84338,75.435459,94.391956,106.912456,34.777164,60.668083,76.254032,88.363323,-15.097186,-19.046964,-18.629482,-20.858376,18.268328,31.514174,36.24228,38.138079,35.634816,48.186724,51.185213,50.783069,46.971154,60.663851,62.696922,60.701853,53.747916,66.86484,68.395892,66.231145,-24.682423,309.44117,-73.451569,298.172869
96,5.834312,2.86086,0.961075,0.804558,12.239514,22.331383,26.196488,23.880089,5.187825,34.435227,51.897606,61.08355,-3.068939,27.701912,48.11348,63.098076,-9.73376,18.465649,39.135292,52.987954,-15.711364,4.524376,20.618706,31.922287,-21.398778,-33.522236,-35.065194,-33.154649,-7.813897,7.46234,11.237155,12.432593,13.080948,29.054618,31.505221,29.509978,29.596466,42.053796,40.922368,38.855137,43.323644,54.751731,50.672104,44.9059,25.663284,51.576187,75.860126,95.879139,55.321197,88.347004,106.625805,119.835216,47.540313,85.004871,105.301883,118.831615,40.223511,74.837826,93.600368,106.021786,34.179943,60.302353,75.907116,87.964176,-15.247424,-18.91856,-17.963837,-19.641497,18.257683,31.873784,36.742693,38.74826,35.724108,48.402591,51.401228,50.988044,47.224307,60.860317,62.777321,60.719452,54.159187,67.061059,68.317544,65.986688,-18.857724,312.044419,-72.500107,298.719816
97,4.552426,4.501877,0.742733,0.465512,9.525902,17.550556,22.118671,21.739528,0.671562,28.087452,46.018718,56.307667,-7.546635,21.566539,42.052494,57.36185,-13.355896,12.493858,32.363399,46.285114,-18.080372,-1.478794,12.84296,23.38163,-21.190729,-33.681985,-36.496112,-36.743089,-8.356992,5.572591,9.956068,11.854374,11.883286,26.171319,28.781002,27.255223,27.626331,38.691326,37.668986,35.912668,40.512456,50.09365,46.130879,40.850305,25.520553,51.489029,75.794494,95.917122,54.65395,87.674034,105.9356,119.220932,46.793014,84.371155,104.63134,118.098289,39.416908,74.315414,93.032524,105.441353,33.374805,59.987629,75.663002,87.659248,-15.343372,-18.713067,-17.156055,-18.208307,18.201946,32.390857,37.451476,39.566601,35.852598,48.827483,51.887525,51.415591,47.544532,61.335832,63.144983,60.948422,54.538705,67.256721,68.211691,65.591744,-14.322052,316.198351,-71.774128,298.837383
98,9.267654,-1.035073,0.144264,0.375788,7.486908,11.81274,13.267994,11.262028,-8.49147,17.48885,35.941281,46.335446,-17.395443,10.78434,31.753681,47.283863,-22.934017,1.675564,22.036915,36.09811,-26.721714,-11.81131,2.623112,13.111725,-19.846941,-31.692337,-33.82385,-33.560892,-5.866376,8.726556,13.205078,14.771476,14.345065,28.682424,31.281412,29.480919,29.846642,41.04824,39.7407,37.502828,42.367563,52.112482,47.875675,42.322682,25.545914,51.604317,75.963341,96.147148,54.417801,87.393356,105.511574,118.777428,46.545994,84.140076,104.271194,117.731621,39.115768,74.126587,92.752464,105.188438,33.028393,59.964363,75.642677,87.599716,-15.461858,-18.682192,-16.743896,-17.561076,17.91682,32.454683,37.654697,39.896682,35.625505,48.760731,51.901283,51.470549,47.427305,61.278898,63.137178,61.025425,54.479721,67.082906,67.946918,65.315066,-5.091065,314.729466,-71.666531,298.779359
99,4.612049,2.12409,0.116135,0.115696,5.159443,7.358116,8.50866,7.172768,-14.005577,11.595772,30.190865,40.764038,-22.789352,5.180958,26.357048,41.983475,-27.1455,-2.99144,17.133431,31.229141,-29.136863,-15.520694,-1.706291,8.542912,-20.036909,-31.272261,-32.60607,-32.061764,-5.920987,7.939362,12.895796,14.95579,14.081552,27.306984,29.95147,28.348528,29.196583,39.383487,38.1632,35.918165,41.224156,49.565191,45.342118,40.007944,25.624591,51.666526,76.038688,96.246002,54.113456,87.033622,105.112678,118.369239,46.182861,83.707283,103.85662,117.346321,38.727562,73.723686,92.38948,104.896568,32.628673,59.611885,75.310432,87.30558,-15.354426,-18.393571,-16.303035,-16.907424,18.124659,32.823357,38.12358,40.487349,35.758095,49.078684,52.307168,51.90316,47.479175,61.479315,63.393578,61.267993,54.400482,67.076088,68.001307,65.357068,-0.529444,316.435178,-71.600824,298.476677
100,2.764641,-0.903766,-0.103421,0.136345,4.087246,5.295502,5.55613,3.675682,-18.489281,6.867966,26.436562,37.868134,-27.538273,0.703434,22.916084,39.488205,-31.483486,-7.296856,13.53788,28.331863,-32.68206,-19.46656,-5.540073,5.15942,-19.036837,-29.793314,-30.796116,-30.243746,-4.714113,9.652701,14.974462,17.228809,15.533316,28.431841,31.487424,30.070474,30.520635,40.306371,39.283302,37.04259,42.33397,50.200429,45.994448,40.726718,25.586346,51.656903,76.098622,96.349903,53.933178,86.980053,105.180874,118.537182,46.019291,83.573834,103.852765,117.476796,38.589226,73.59216,92.359692,104.932904,32.492752,59.592762,75.326741,87.316464,-15.276719,-18.207838,-15.946612,-16.512703,18.017325,32.663596,38.021383,40.468552,35.620502,48.956603,52.336005,52.070454,47.335346,61.396088,63.416635,61.341303,54.228483,66.984117,67.940668,65.267777,2.16168,315.130739,-71.777762,298.212349
101,-0.809532,1.515207,-0.193061,-0.0927,4.546692,5.661003,5.814423,4.06739,-18.337235,6.796554,26.110451,37.108383,-27.138931,0.986217,23.007225,39.26001,-30.947491,-6.264473,14.507675,29.119148,-32.099693,-18.25827,-4.003201,6.730762,-18.95219,-29.739542,-31.144833,-30.986814,-5.551251,8.653665,14.146834,16.61627,14.115131,26.560383,29.864648,28.931673,28.713237,38.286589,37.455515,35.534719,40.245683,48.158874,44.120891,38.986493,25.689502,51.745994,76.188022,96.46146,53.728477,86.883396,105.085567,118.502826,45.830715,83.402538,103.70866,117.395404,38.470687,73.524501,92.324924,104.900402,32.418926,59.668968,75.382381,87.313304,-15.153403,-18.066936,-15.799868,-16.488558,17.807374,32.459684,37.854596,40.393056,35.382492,48.768437,52.223472,52.014533,47.088456,61.242465,63.351501,61.322556,53.91547,66.788257,67.815735,65.152835,1.254255,316.271266,-72.068716,297.744969
102,3.259357,-5.322058,0.018482,0.091304,5.424179,5.653782,2.626522,-2.426296,-22.429218,3.227108,23.060749,33.564297,-31.797397,-2.613716,20.247883,37.069027,-36.09597,-9.945545,12.582058,28.030209,-37.746082,-21.590583,-5.16703,6.863194,-18.069369,-28.005022,-27.833999,-25.296822,-2.740545,13.108945,18.253866,19.889091,17.601942,31.475852,34.74934,33.116116,32.845328,43.702088,42.396672,39.863028,44.989954,54.687535,50.115757,44.164845,25.748989,51.680694,76.091079,96.385849,53.253948,86.527748,104.862419,118.386245,45.408565,83.12812,103.526619,117.239021,38.202621,73.396179,92.311409,104.928749,32.313022,59.661587,75.41201,87.337646,-15.065717,-18.089425,-15.901768,-16.601623,17.52347,32.185735,37.563381,40.150612,35.085139,48.623176,52.089091,51.973272,46.813518,61.076184,63.162076,61.114247,53.645423,66.533908,67.555865,64.846145,4.392328,310.662621,-72.171518,297.549686
103,-3.806373,4.031511,0.255832,0.056477,5.098984,6.75951,6.309322,2.882801,-18.703137,7.932392,27.005893,37.080883,-27.710564,2.321262,24.210056,39.868892,-31.490616,-4.836239,16.319927,30.836666,-32.741719,-16.472489,-1.163121,10.10075,-20.013667,-30.59024,-30.4792,-28.782225,-5.623783,7.953676,13.098967,15.512543,14.774416,26.767186,29.764699,28.469744,29.965882,38.879751,37.631837,35.511896,42.098072,49.566414,44.98331,39.529823,25.672303,51.526486,75.935864,96.289547,52.772404,86.119595,104.593724,118.218327,44.994553,82.767071,103.28143,117.021,37.930756,73.205853,92.23177,104.864239,32.195034,59.643677,75.441021,87.355992,-15.034076,-18.088672,-15.877068,-16.415199,17.458274,32.16264,37.55166,40.174682,35.021524,48.639009,52.123609,52.02944,46.77033,61.096401,63.162545,61.047939,53.583796,66.534278,67.551085,64.77349,0.470656,314.498575,-72.030985,297.410606
104,-0.124626,-2.459815,0.266041,0.238147,6.114784,7.973911,6.489933,1.995998,-17.356064,8.948421,27.870266,37.56808,-26.67746,2.975246,24.613002,40.408733,-31.53122,-5.039109,16.442653,31.095462,-34.260167,-17.470253,-1.741642,9.58723,-19.32799,-30.05195,-30.579385,-28.980494,-4.237412,10.42547,14.924556,16.541453,16.391474,29.458824,32.200098,30.389761,31.886974,41.739289,40.056998,37.616165,44.294929,53.173304,48.241002,42.2471,25.591221,51.409252,75.768196,96.044312,52.388592,85.859642,104.519028,118.28801,44.648289,82.547516,103.22255,116.999176,37.701073,73.104882,92.253159,104.859101,32.084622,59.714756,75.603859,87.493057,-15.117662,-18.242665,-15.973264,-16.365749,17.206567,31.835783,37.272215,39.961038,34.867296,48.513235,51.980978,51.857045,46.712346,61.061141,63.0396,60.802814,53.600111,66.515926,67.445739,64.550533,0.234936,311.871036,-71.876038,297.481029
105,-3.57803,2.556109,0.239342,0.239505,5.064526,8.640564,11.168426,9.472321,-12.799587,13.348732,31.352669,41.171768,-21.745709,7.650536,28.084099,42.89653,-26.338692,-1.125217,18.672569,32.531227,-28.720219,-14.094097,-0.059303,10.696152,-20.516278,-31.685174,-31.839278,-30.236621,-7.184537,5.782457,11.030118,13.72945,13.608407,25.427844,29.053198,27.888845,29.33252,38.056519,37.417847,35.229968,42.068246,49.764719,45.656636,40.056627,25.487652,51.249687,75.60022,95.918014,52.282814,85.779259,104.434181,118.199318,44.560616,82.453789,103.129578,116.903023,37.615082,72.988174,92.110107,104.709572,31.99205,59.609791,75.525375,87.489006,-15.199098,-18.421852,-16.127998,-16.386695,17.010077,31.548421,36.993362,39.718593,34.678673,48.266246,51.750809,51.642697,46.533048,60.870666,62.911258,60.727084,53.447328,66.434847,67.452358,64.614729,-3.44363,314.303191,-71.737232,297.59658
106,-1.076523,0.868569,0.310524,0.283903,5.565514,9.484863,13.431725,14.043549,-10.606979,14.714127,32.614586,42.979614,-19.601337,8.803322,29.429443,44.95269,-24.391834,0.165402,19.9739,34.185333,-27.096645,-13.349522,0.469769,11.235283,-20.369732,-32.232456,-33.825703,-33.556088,-7.522991,4.795339,9.690554,12.334212,13.047121,24.945585,28.513932,27.577672,28.689797,37.692328,37.215553,35.152546,41.159465,48.974153,45.14496,39.622608,25.332893,51.084137,75.484886,95.805313,52.095245,85.669144,104.374763,118.134796,44.390144,82.337631,103.109253,116.854752,37.452999,72.905365,92.034233,104.577393,31.85471,59.524967,75.485001,87.488914,-15.338012,-18.671052,-16.379222,-16.431451,16.861444,31.381708,36.862452,39.623659,34.581874,48.100681,51.620393,51.535758,46.465963,60.727504,62.787758,60.565447,53.400892,66.396909,67.479665,64.628599,-4.593361,315.078226,-71.499916,297.786949
107,1.515793,-0.156081,0.438229,0.034605,4.207901,7.591049,11.646263,12.93203,-12.422665,12.021973,30.241333,41.239357,-21.243507,6.247353,27.449066,43.800957,-25.687534,-1.943951,18.445129,33.276604,-28.076374,-14.697716,-0.673817,10.315659,-20.542843,-32.208051,-33.364328,-32.439751,-7.269468,4.48823,9.732013,12.788992,13.435136,24.701993,28.63973,27.957401,29.035353,37.511869,37.292383,35.402994,41.405368,48.888221,45.164437,39.737119,25.225685,50.889049,75.308063,95.66724,52.053051,85.598659,104.183155,117.807872,44.373504,82.139156,102.847492,116.529933,37.374275,72.654384,91.716877,104.203525,31.682464,59.239414,75.161922,87.194973,-15.418732,-18.76884,-16.459263,-16.443529,16.888911,31.334247,36.790402,39.518609,34.533004,47.918999,51.469636,51.380184,46.343289,60.581897,62.820633,60.732556,53.265659,66.436009,67.750786,65.065459,-3.140636,314.846112,-71.124755,297.745521
108,-1.848221,0.269763,0.651248,0.049092,4.807606,8.465332,14.268334,17.982582,-10.616501,14.10791,32.257462,43.387871,-19.185482,8.624314,29.968369,46.680908,-23.477108,0.953957,21.525925,36.572434,-25.678631,-11.666542,2.771004,13.977219,-20.48644,-32.654087,-34.488012,-33.840671,-7.686197,4.319738,9.777783,12.93045,12.979999,24.743415,28.627849,27.776632,28.666727,37.868823,37.686165,35.559543,41.069755,49.171186,45.550439,39.96767,25.080163,50.660351,75.085076,95.451348,51.728005,85.25631,103.772553,117.242661,44.011391,81.832581,102.556687,116.098137,36.945294,72.32856,91.409569,103.809357,31.211392,58.779511,74.808655,86.947793,-15.420189,-18.769112,-16.452644,-16.364699,16.875609,31.356674,36.733912,39.329677,34.532695,47.952196,51.479923,51.306157,46.357516,60.668767,62.899254,60.79191,53.342871,66.565931,67.969617,65.375556,-5.044167,315.057694,-70.528817,297.736432
109,-3.187935,5.182688,0.362996,-0.065616,4.746918,9.334374,18.027375,24.816696,-6.727421,18.67257,36.916283,48.784218,-15.052963,12.984146,34.163773,50.975098,-19.033367,5.574269,25.309571,40.134499,-20.745689,-7.056278,6.648583,17.619118,-21.344401,-34.490508,-37.917804,-39.862905,-11.292014,-1.944546,3.450353,7.276248,8.734608,19.149864,23.001695,22.785655,24.217573,32.568476,32.831125,31.121392,36.478771,43.106073,40.078969,35.136256,24.921203,50.491653,74.953182,95.356601,51.696373,85.183605,103.616146,117.08646,43.908268,81.653583,102.343975,115.919918,36.740318,72.036655,91.126705,103.626537,30.886104,58.430488,74.476673,86.722561,-15.428797,-18.747709,-16.354473,-16.135284,16.800373,31.247351,36.640274,39.286328,34.483739,47.915874,51.545255,51.448652,46.327814,60.709362,63.059928,61.069404,53.328125,66.66057,68.148422,65.628325,-8.277003,320.164932,-70.210722,297.595366
110,5.325634,-2.347467,0.445438,0.020094,5.534191,7.847088,11.95554,15.599888,-12.369804,12.716732,31.777394,43.66119,-21.234306,6.625088,29.195011,47.225178,-25.303344,0.278092,22.108097,37.998883,-27.291973,-11.271412,4.565872,16.397061,-20.311291,-33.376382,-37.154556,-38.751212,-8.948684,1.904444,6.823211,9.875657,11.126856,22.73413,26.065775,25.358029,26.52673,35.810188,35.394719,33.628472,38.561428,46.20729,42.585011,37.318145,24.880554,50.384972,74.856926,95.22583,51.416943,84.914543,103.297234,116.756607,43.623848,81.433525,102.173882,115.744675,36.444523,71.831268,90.985588,103.537514,30.557282,58.147236,74.241005,86.543816,-15.436517,-18.78539,-16.303999,-15.903449,16.543948,31.121071,36.522466,39.193949,34.313246,47.842292,51.465436,51.333475,46.240079,60.760935,63.110909,61.116247,53.290259,66.749404,68.264067,65.766399,-2.980219,317.735337,-69.794134,297.533332
111,0.65197,-1.456532,0.317608,-0.039842,6.30344,8.80846,11.400822,12.923664,-13.539345,12.96365,32.486538,43.974186,-22.620426,6.926914,29.736843,47.482327,-26.621406,0.756409,23.105129,38.891407,-28.395767,-9.919658,6.675648,18.663838,-20.912061,-33.459164,-36.312157,-36.737308,-8.286287,3.350479,8.615171,11.755587,12.22489,24.21782,27.277047,26.276579,27.870715,37.497629,36.632494,34.725023,40.178437,48.192381,44.178629,38.72377,24.814052,50.247814,74.714847,95.111011,51.355396,84.820942,103.124874,116.572414,43.523231,81.287487,102.010197,115.623653,36.264187,71.588962,90.796245,103.469181,30.239685,57.791038,73.907719,86.296085,-15.451101,-18.779745,-16.199282,-15.565636,16.435934,31.072523,36.446588,39.101016,34.191018,47.835105,51.48206,51.361486,46.114874,60.772384,63.185467,61.289322,53.192101,66.756209,68.321236,65.90104,-2.352848,316.196374,-69.501125,297.411059
112,-5.452652,5.240054,0.280403,0.263958,7.496945,11.801434,17.70789,21.827168,-6.637356,21.161877,39.836254,50.867054,-15.407478,15.188473,36.625271,53.059902,-19.335148,9.098191,29.59615,44.21481,-21.046383,-2.239837,13.42091,24.858776,-21.878171,-35.545007,-40.156367,-43.399943,-12.327037,-2.310454,3.045888,7.035607,7.759742,19.03659,21.870995,21.518895,23.340692,32.47222,31.715876,30.134485,35.716809,42.384445,38.622869,33.712897,24.717327,50.13303,74.597248,94.881992,51.002815,84.570271,102.972302,116.536045,43.174748,81.188656,102.067257,115.733494,35.980167,71.597454,90.932018,103.66634,30.024891,57.817486,74.049831,86.491688,-15.537305,-18.923426,-16.287634,-15.452213,16.034396,30.833858,36.266092,38.982961,33.939904,47.825423,51.437587,51.238047,46.000636,60.796257,63.03014,60.964256,53.166784,66.645331,68.035184,65.493475,-7.814152,321.355866,-69.229374,297.594455
113,-2.325462,2.328991,-0.010483,0.216633,8.832607,14.34454,19.465404,23.096432,-2.687325,25.125492,43.823604,54.621654,-11.273735,19.295299,40.325764,56.573536,-15.792492,12.679825,32.907818,47.396519,-18.29472,0.984844,16.470096,27.788761,-22.047664,-36.346021,-42.439688,-46.419218,-13.658537,-4.344512,0.516962,4.177205,5.70291,16.686616,19.450256,19.657873,21.005909,29.970426,29.071229,27.839061,33.184251,39.871277,36.261842,31.608751,24.701809,50.105519,74.584545,94.795178,51.002507,84.615406,103.021992,116.72707,43.231739,81.224613,102.116284,115.935482,36.111191,71.688183,91.014897,103.893917,30.175598,58.009907,74.190068,86.653439,-15.609849,-19.072022,-16.445579,-15.496747,15.672625,30.455118,35.95766,38.805169,33.628719,47.558192,51.259857,51.161402,45.741717,60.534855,62.823202,60.846399,52.934281,66.414297,67.768891,65.204113,-10.139608,323.605693,-69.239851,297.731924
114,9.747974,-5.289553,0.117291,0.33102,7.476895,9.933358,9.90374,9.053078,-14.276355,11.588997,31.462555,42.713265,-23.433609,6.613564,29.285614,46.309616,-27.465854,0.541786,22.844445,38.33194,-29.298534,-10.226818,6.537255,18.712944,-20.794846,-34.455816,-38.715965,-39.521178,-9.643253,2.631679,7.916082,11.056436,10.744782,22.722682,25.741277,25.363438,26.24637,35.49347,34.221041,32.479136,38.430011,45.886385,41.636883,36.370437,24.794517,50.133533,74.549263,94.732315,50.720009,84.440895,102.909645,116.651321,42.992546,81.165001,102.170746,115.98999,35.977604,71.763839,91.138641,103.979713,30.179775,58.087726,74.287536,86.692199,-15.622225,-19.137701,-16.539354,-15.571318,15.248967,30.1847,35.713227,38.562749,33.276975,47.327541,50.991378,50.873002,45.487675,60.320507,62.508756,60.479934,52.766035,66.204975,67.479355,64.864695,-0.389803,318.261438,-69.120729,298.008242
