takenoko1/special-research/HandMotion_SimilarSearch_自分用/NewProject/handData/key/d4_feature_d3/145.csv
,vel_0x_L,vel_0y_L,vel_0x_R,vel_0y_R,posFromWrist_1x_L,posFromWrist_2x_L,posFromWrist_3x_L,posFromWrist_4x_L,posFromWrist_5x_L,posFromWrist_6x_L,posFromWrist_7x_L,posFromWrist_8x_L,posFromWrist_9x_L,posFromWrist_10x_L,posFromWrist_11x_L,posFromWrist_12x_L,posFromWrist_13x_L,posFromWrist_14x_L,posFromWrist_15x_L,posFromWrist_16x_L,posFromWrist_17x_L,posFromWrist_18x_L,posFromWrist_19x_L,posFromWrist_20x_L,posFromWrist_1y_L,posFromWrist_2y_L,posFromWrist_3y_L,posFromWrist_4y_L,posFromWrist_5y_L,posFromWrist_6y_L,posFromWrist_7y_L,posFromWrist_8y_L,posFromWrist_9y_L,posFromWrist_10y_L,posFromWrist_11y_L,posFromWrist_12y_L,posFromWrist_13y_L,posFromWrist_14y_L,posFromWrist_15y_L,posFromWrist_16y_L,posFromWrist_17y_L,posFromWrist_18y_L,posFromWrist_19y_L,posFromWrist_20y_L,posFromWrist_1x_R,posFromWrist_2x_R,posFromWrist_3x_R,posFromWrist_4x_R,posFromWrist_5x_R,posFromWrist_6x_R,posFromWrist_7x_R,posFromWrist_8x_R,posFromWrist_9x_R,posFromWrist_10x_R,posFromWrist_11x_R,posFromWrist_12x_R,posFromWrist_13x_R,posFromWrist_14x_R,posFromWrist_15x_R,posFromWrist_16x_R,posFromWrist_17x_R,posFromWrist_18x_R,posFromWrist_19x_R,posFromWrist_20x_R,posFromWrist_1y_R,posFromWrist_2y_R,posFromWrist_3y_R,posFromWrist_4y_R,posFromWrist_5y_R,posFromWrist_6y_R,posFromWrist_7y_R,posFromWrist_8y_R,posFromWrist_9y_R,posFromWrist_10y_R,posFromWrist_11y_R,posFromWrist_12y_R,posFromWrist_13y_R,posFromWrist_14y_R,posFromWrist_15y_R,posFromWrist_16y_R,posFromWrist_17y_R,posFromWrist_18y_R,posFromWrist_19y_R,posFromWrist_20y_R,posFromBody_0x_L,posFromBody_0y_L,posFromBody_0x_R,posFromBody_0y_R
6,1.431816,-0.064801,0.22507,-0.179484,7.633896,10.419388,10.478028,7.918442,-8.016597,14.178841,31.600273,42.216133,-16.735805,8.45517,27.189629,42.628716,-21.313133,2.017227,20.791603,35.13945,-22.236122,-18.560737,-13.292896,-7.060295,-17.911139,-30.754521,-36.915656,-39.632662,-15.115859,-2.389099,6.244992,10.172639,0.051376,13.883345,20.894845,23.861026,12.190174,24.674946,28.752573,29.545189,21.531788,32.410272,35.056944,34.874842,25.987404,49.825448,71.458558,89.739487,51.28283,83.319901,100.535157,112.896195,42.362904,77.601563,97.561799,111.256005,33.024617,66.32174,85.170022,97.889443,24.32277,50.542683,65.858117,77.949624,-14.065793,-13.723597,-5.298457,1.31584,16.316201,31.914503,38.748075,43.16896,33.178694,47.898671,54.16262,57.395378,44.821512,60.418431,65.285586,65.877822,52.007161,67.172901,70.451502,69.570991,-2.767033,334.095482,-67.828755,299.629477
7,-1.185745,0.709302,0.148774,0.032876,7.663742,10.651932,11.062019,9.202995,-6.489498,15.731255,32.602409,42.413933,-15.024925,10.104996,28.377548,43.423508,-19.625931,3.84153,22.297463,36.499214,-20.867317,-17.255722,-12.48912,-6.577377,-18.30665,-31.530452,-37.987779,-40.214202,-15.357463,-2.967366,5.397468,9.041199,-0.104185,13.360715,20.096042,22.967103,11.985533,23.948169,27.785858,28.431261,21.13519,31.499948,34.073026,33.772548,25.810684,49.594997,71.210655,89.415207,51.215263,83.254303,100.463516,112.76255,42.269336,77.551551,97.514465,111.139412,32.85997,66.177154,85.029716,97.685852,24.076492,50.338165,65.694877,77.763656,-14.187787,-13.959076,-5.505407,1.186386,16.288289,31.884702,38.71615,43.166984,33.14798,47.863905,54.143231,57.420325,44.760725,60.31474,65.176893,65.781788,51.91162,67.080387,70.390394,69.55233,-4.075899,334.884568,-67.803102,299.742137
8,-1.070251,-0.523878,0.095627,0.13595,7.869323,11.442718,12.924957,12.050376,-5.099282,17.106651,33.849952,43.583541,-13.77372,11.418479,29.469383,44.553726,-18.532769,5.275703,23.550109,37.689857,-20.005589,-15.759968,-10.063797,-3.352181,-18.221805,-31.615396,-37.625563,-39.08517,-15.501885,-3.011345,5.357207,8.984846,-0.003618,13.808701,20.556996,23.42944,12.323604,24.743329,28.440387,29.023274,21.789448,32.430143,34.772855,34.376566,25.715881,49.434242,71.010177,89.215347,51.329006,83.294105,100.404624,112.586494,42.357833,77.600257,97.498512,111.057289,32.854099,66.077247,84.901245,97.515769,23.95301,50.094772,65.414131,77.43885,-14.334728,-14.235903,-5.756102,0.966258,16.17242,31.704786,38.502222,42.946053,33.054884,47.679111,53.969255,57.280534,44.6557,60.10916,64.987924,65.628474,51.781895,66.908547,70.253567,69.448441,-5.26736,334.424065,-67.828685,299.941462
9,-0.641007,-0.21604,0.085224,0.104914,7.881912,11.777321,13.756806,13.458893,-4.304283,17.750862,34.330788,43.875641,-12.966488,12.036186,29.7724,44.717697,-17.788696,6.021515,23.999794,37.914322,-19.498375,-14.248604,-7.32027,0.348965,-18.344182,-31.74028,-37.517698,-38.5678,-15.423709,-2.858303,5.425083,9.117004,0.143335,14.093865,20.803554,23.698808,12.543905,25.119821,28.702567,29.183677,22.088802,32.993851,34.879795,33.995578,25.636299,49.334095,70.919529,89.216709,51.417205,83.280018,100.298229,112.372203,42.437324,77.666027,97.55421,111.047641,32.871963,66.064968,84.85873,97.374126,23.904865,50.020088,65.283565,77.162258,-14.51131,-14.423587,-5.913516,0.757616,16.102358,31.648531,38.425379,42.871631,33.008571,47.604837,53.892129,57.206668,44.59096,60.016979,64.849838,65.486522,51.682143,66.761421,70.09887,69.29793,-6.010775,334.257518,-67.845869,300.095869
10,-0.724937,0.218609,0.039596,-0.122426,8.068702,12.411987,14.567871,14.570411,-3.021973,18.860664,35.231643,44.508384,-11.844658,12.933517,30.284866,45.016731,-17.026715,6.697494,24.351677,38.063141,-19.274231,-14.42434,-8.211583,-0.986195,-18.319556,-31.71984,-37.654302,-38.888767,-15.512914,-2.872172,5.39065,9.135517,-0.034753,14.084108,20.680374,23.597784,12.311143,24.941967,28.393877,28.864971,21.858534,32.727447,34.428819,33.359141,25.594059,49.293469,70.817471,89.217213,51.406426,83.237995,100.248654,112.316654,42.428032,77.657673,97.573025,111.097996,32.87059,66.047734,84.868984,97.405781,23.914936,50.009228,65.298855,77.17638,-14.572456,-14.376509,-5.736923,0.914387,16.2029,31.747455,38.480942,42.883277,33.174087,47.731487,53.930833,57.207989,44.752931,60.166303,64.938017,65.575664,51.805038,66.901532,70.193558,69.337648,-6.816015,334.512297,-67.886576,300.009613
11,1.270157,-0.761321,-0.081653,-0.07709,7.858062,11.786109,13.728332,13.201446,-4.8406,17.341278,34.111701,43.882988,-13.594334,11.44606,29.163871,44.204864,-18.439843,5.470344,23.55091,37.480842,-20.061905,-15.885361,-9.960354,-2.977273,-17.995626,-31.005104,-36.604298,-37.958682,-14.695993,-1.619911,6.673429,10.25336,0.613058,15.175806,21.61772,24.25844,12.818336,25.958095,29.222469,29.435051,22.259072,33.377444,35.204836,34.220288,25.674522,49.404705,70.923248,89.354782,51.365249,83.2817,100.325294,112.416,42.414081,77.723373,97.655937,111.231124,32.946991,66.150261,85.012939,97.595558,24.086013,50.025226,65.300743,77.217659,-14.646086,-14.451955,-5.75378,0.898728,16.212707,31.568046,38.214564,42.564732,33.190032,47.570529,53.664566,56.880466,44.790094,60.086955,64.828139,65.459871,51.834729,66.980438,70.307649,69.439055,-5.597745,333.771842,-68.020116,299.953389
12,0.360786,0.856355,0.016479,-0.113163,7.541084,11.062683,12.287041,11.214203,-5.937664,16.928444,33.722946,43.531723,-14.366959,11.141487,29.058083,44.05806,-18.985027,5.226425,23.239746,37.174622,-20.462391,-15.282669,-8.86623,-1.510506,-18.084695,-31.038968,-37.113443,-38.824287,-14.800648,-2.255421,6.032138,10.131933,0.248175,14.268235,20.959967,23.995543,12.271128,24.677799,28.330965,28.877704,21.415969,32.25371,34.23638,33.198355,25.764279,49.5084,70.991867,89.492066,51.207321,83.173164,100.279518,112.473038,42.259289,77.595863,97.56324,111.182991,32.873646,66.099678,84.980507,97.613045,24.111729,50.036213,65.321617,77.310768,-14.582842,-14.353822,-5.583695,1.021685,16.20353,31.489881,38.125272,42.463066,33.216793,47.547804,53.607286,56.781689,44.874407,60.169082,64.894014,65.508443,51.961983,67.099603,70.385293,69.467472,-5.281723,334.667976,-68.048401,299.880005
13,-0.058868,0.230774,0.010552,-0.10079,7.553512,11.166641,12.377883,11.111801,-5.851857,16.825058,33.855857,44.15245,-14.50113,10.974609,29.112167,44.490188,-19.180184,4.92041,23.111824,37.213348,-20.565388,-16.335274,-11.106514,-4.651898,-17.857207,-30.54399,-36.814534,-39.245413,-14.769365,-2.493235,5.761029,9.527804,0.178458,13.896176,20.349675,22.943427,12.186962,24.50428,27.937343,28.153457,21.294728,32.066779,34.277295,33.394869,25.733585,49.450985,70.945266,89.515068,51.141128,83.25222,100.482376,112.782211,42.275768,77.560295,97.507392,111.159942,32.958046,66.147399,84.990371,97.672851,24.240005,50.160003,65.402229,77.457504,-14.559845,-14.382387,-5.639973,1.10453,16.183301,31.432603,38.091903,42.431537,33.166752,47.416462,53.440598,56.554263,44.856105,60.112841,64.806873,65.372198,52.000912,67.197984,70.425036,69.43409,-5.368349,334.931197,-68.065607,299.811662
14,-0.615487,0.219362,0.090179,-0.144644,7.494347,11.275017,12.645218,11.598496,-5.22726,17.290947,34.232232,44.596802,-13.751861,11.486893,29.63839,45.112084,-18.447933,5.316468,23.612458,37.82206,-19.908153,-16.001541,-11.164283,-5.019229,-17.757183,-30.502703,-37.044715,-39.727906,-14.685631,-2.903369,5.212747,8.926466,0.139877,13.546904,19.976011,22.567244,12.107415,24.190921,27.539584,27.771297,21.190679,31.858272,34.190944,33.484222,25.653717,49.352772,70.85994,89.428047,51.110092,83.360916,100.658112,112.980286,42.258373,77.508751,97.389748,110.940948,32.919033,66.12648,84.885658,97.523941,24.181664,50.227432,65.462563,77.549629,-14.524067,-14.340742,-5.610346,1.186781,16.175385,31.547866,38.266965,42.615997,33.168851,47.509224,53.585464,56.692177,44.871468,60.179346,64.846566,65.392328,52.023475,67.22776,70.36599,69.328596,-6.014615,335.182823,-68.006207,299.699282
15,0.549431,-0.29408,-0.024078,-0.082461,7.183068,10.770149,12.257492,11.188774,-5.897037,16.353676,33.325447,43.945404,-14.473823,10.43335,28.748383,44.632599,-19.049171,3.966728,22.518402,37.13459,-20.246315,-17.58807,-14.16917,-9.193657,-17.863876,-30.555043,-37.06571,-39.326689,-14.523697,-2.841421,5.302619,8.900988,0.348605,13.566207,19.994215,22.515632,12.360172,24.240692,27.698604,27.986361,21.474051,31.835424,34.19077,33.44737,25.608341,49.337219,70.949981,89.554252,51.255867,83.610626,100.930252,113.240615,42.451961,77.632599,97.439003,110.9496,33.091529,66.204918,84.886116,97.547424,24.316738,50.289756,65.444366,77.569862,-14.492847,-14.380374,-5.705639,1.211246,16.21572,31.608344,38.349229,42.700311,33.142792,47.526031,53.682523,56.789161,44.794057,60.138393,64.859656,65.393834,51.913077,67.221535,70.408338,69.39641,-5.507601,334.918047,-68.072702,299.646125
16,-1.742317,0.719417,0.042011,-0.095442,7.299133,11.344048,13.26313,12.877075,-4.42115,17.897072,34.559258,44.700371,-12.818333,12.303291,30.322632,45.870163,-17.475872,5.907921,24.160378,38.582703,-18.959839,-14.450111,-9.635811,-3.611938,-18.096687,-31.199285,-38.148615,-40.097272,-15.30547,-4.353293,3.635703,7.335368,-0.178854,12.456033,19.058696,21.898696,11.999475,23.433812,27.129389,27.658837,21.247415,31.496267,33.80304,33.007472,25.482708,49.238514,70.952122,89.655453,51.479015,83.877262,101.159946,113.378117,42.668724,77.825855,97.576206,110.963436,33.206669,66.320789,84.91341,97.482113,24.341286,50.422542,65.557079,77.648449,-14.471369,-14.360293,-5.705812,1.292671,16.287326,31.913367,38.729377,43.121573,33.210261,47.754286,54.005441,57.149599,44.820462,60.259115,64.970252,65.499984,51.916993,67.214212,70.327767,69.314319,-7.304071,335.665002,-68.084844,299.578221
17,0.698868,-0.332057,-0.103706,-0.032851,7.263702,11.295227,13.635933,13.267456,-4.825035,17.114708,33.967712,44.072136,-13.327343,11.702019,29.60273,45.205559,-17.895733,5.383232,23.735985,38.149704,-19.186318,-16.523277,-13.364628,-8.818623,-18.034727,-31.277102,-38.053593,-39.799116,-15.350362,-4.112615,3.576473,6.514718,0.145719,13.18354,19.22793,21.40352,12.485044,24.352572,27.439561,27.401128,21.962287,32.008326,34.061688,33.065851,25.449291,49.221313,71.042255,89.749088,51.780784,84.305179,101.553211,113.651882,43.035335,78.264255,97.972675,111.309482,33.576129,66.719799,85.255977,97.78236,24.691841,50.759388,65.838901,77.900264,-14.585497,-14.534281,-5.88185,1.268502,16.205309,31.95238,38.783656,43.166799,33.131616,47.748889,54.034414,57.188959,44.709299,60.133305,64.875526,65.432256,51.794257,67.133171,70.309451,69.369795,-6.672506,335.340234,-68.255853,299.552659
18,0.55973,0.421681,-0.178528,-0.174173,7.034295,10.736504,12.726906,11.9935,-5.740539,16.645981,33.521622,43.340973,-13.871784,11.611428,29.420449,44.775582,-18.161602,5.612641,23.865555,38.182366,-19.267936,-16.170856,-12.424553,-7.384323,-18.271453,-31.95753,-38.980392,-40.50396,-15.702376,-4.674778,2.812818,5.695759,-0.052154,12.838923,18.914028,21.259728,12.354454,23.941314,27.014558,27.008729,21.864611,31.735068,33.648306,32.524362,25.522808,49.401523,71.377269,90.180164,52.017368,84.538891,101.748356,113.791248,43.279586,78.607006,98.371135,111.697002,33.830784,67.049114,85.608066,98.109203,24.980289,51.108684,66.227909,78.281604,-14.510964,-14.345065,-5.681013,1.321669,16.222327,32.098667,38.975501,43.368018,33.182448,48.00067,54.397222,57.609491,44.743682,60.261437,65.067484,65.65331,51.787366,67.097244,70.338141,69.465224,-6.195059,335.765954,-68.516664,299.382525
19,1.170845,-0.324671,-0.246964,-0.173161,6.85112,10.3228,12.404252,11.553795,-7.101448,15.696602,33.144013,43.639985,-15.603973,10.629639,28.688508,44.508042,-19.76247,4.19822,22.706795,37.285401,-20.548873,-19.46426,-17.983589,-14.790046,-18.471018,-31.96762,-38.786928,-40.569774,-15.862088,-4.249528,3.433076,6.092975,0.080955,13.194149,18.977136,20.907528,12.649251,24.173705,26.969122,26.563854,22.162074,31.486523,33.215621,31.756866,25.664589,49.654392,71.800106,90.7374,52.366379,84.889836,102.073826,114.080898,43.652561,79.016224,98.855221,112.258312,34.200989,67.35442,85.979542,98.540188,25.339268,51.269245,66.387783,78.492588,-14.472579,-14.274459,-5.614063,1.351729,16.349669,32.131605,38.987272,43.382777,33.278755,48.099891,54.545621,57.798571,44.78913,60.322162,65.198037,65.811762,51.772028,67.172234,70.53657,69.764714,-5.125231,335.42972,-68.864645,299.197801
20,-1.170822,0.223153,-0.135578,-0.089031,6.917931,10.468987,13.024521,13.089089,-6.634369,17.229309,34.820847,45.155823,-14.869652,12.451424,30.821846,46.34887,-18.964679,6.374337,25.061623,39.374771,-19.57505,-16.822963,-13.62157,-9.044208,-18.515465,-32.293736,-39.083243,-40.90535,-16.2719,-4.641951,3.141293,6.161667,-0.208098,13.153839,19.197969,21.594441,12.3693,24.162801,27.064317,26.84162,21.888953,31.42276,33.430476,32.391364,25.775036,49.86842,72.156258,91.179016,52.527912,85.135162,102.273422,114.173126,43.759174,79.385834,99.259666,112.582443,34.291191,67.683975,86.303856,98.743721,25.461319,51.548069,66.736267,78.798042,-14.444755,-14.217761,-5.571592,1.307614,16.269208,32.192206,39.076216,43.449454,33.299058,48.250549,54.709593,57.938448,44.859365,60.435239,65.267802,65.85984,51.842805,67.15361,70.470175,69.699567,-6.405442,335.638068,-69.109612,299.093965
21,0.851509,-1.045903,-0.261509,-0.115535,6.922165,10.620072,13.666169,14.185181,-7.195896,16.762505,34.638062,45.598183,-15.883106,11.510239,30.178574,46.297577,-20.160701,5.01194,24.108536,38.900322,-20.677665,-19.660755,-18.078575,-14.608554,-18.537363,-31.818604,-37.849545,-39.635453,-15.974721,-3.429013,4.775147,7.900829,0.138086,14.216945,20.419465,22.793707,12.758425,25.143038,28.026153,27.800653,22.307348,31.889123,33.835446,32.846254,25.935745,50.149738,72.586979,91.630657,52.791264,85.51141,102.652805,114.538067,44.029747,79.811588,99.725178,113.117626,34.578747,68.049168,86.728512,99.234844,25.753842,51.859417,67.081455,79.200474,-14.459501,-14.218391,-5.567739,1.310702,16.222376,32.129023,38.987876,43.306749,33.279841,48.245671,54.687968,57.891283,44.842828,60.397497,65.269321,65.86189,51.804816,67.121635,70.506521,69.776681,-5.686381,334.564992,-69.503569,298.951257
22,-1.128799,0.558668,-0.190075,-0.224685,6.890922,10.77269,13.992279,15.013458,-6.060162,18.472984,36.2528,47.198708,-14.699787,13.020218,31.767151,47.843376,-19.158405,6.449226,25.524239,40.380547,-19.88633,-16.971119,-13.724705,-8.754662,-18.416616,-31.86793,-38.232076,-40.382077,-16.48531,-4.209649,4.425207,8.383421,-0.502587,13.35118,20.030858,23.040054,12.084901,24.262466,27.573189,27.870888,21.49317,31.188108,33.338924,32.666338,26.098377,50.415848,73.006989,92.193695,53.069699,85.793656,102.961212,114.860871,44.323197,80.16069,100.127289,113.540497,34.829704,68.321572,87.007622,99.489075,25.961849,52.096722,67.349625,79.483864,-14.315969,-14.002079,-5.387699,1.372081,16.459905,32.275569,39.103893,43.410749,33.504229,48.475012,54.964449,58.219276,45.032315,60.557616,65.429131,66.026887,51.946052,67.183497,70.543337,69.821969,-6.948109,335.084847,-69.826573,298.687759
23,1.0215,-1.293782,-0.186149,-0.186573,6.895729,10.850143,14.259544,15.230575,-6.707303,17.635757,35.39344,46.822036,-15.625683,11.744247,30.462089,46.800018,-20.168965,4.880058,23.966629,38.882537,-20.702786,-17.905404,-14.381161,-9.226868,-17.826887,-30.311623,-35.862355,-38.014628,-15.850516,-2.720032,6.349078,10.726145,-0.301157,14.272879,21.283428,24.468218,12.105341,25.229514,28.89713,29.457849,21.625315,31.756643,34.143544,33.909547,26.316169,50.74649,73.427261,92.653335,53.248489,86.04364,103.226646,115.144477,44.502571,80.478218,100.452598,113.856193,35.039177,68.632644,87.335334,99.84217,26.223232,52.442516,67.735084,79.911895,-14.325528,-14.000152,-5.369939,1.422766,16.582456,32.334492,39.107425,43.402586,33.687258,48.65478,55.084924,58.321597,45.224927,60.778695,65.640194,66.276643,52.120583,67.354212,70.701159,70.027301,-6.054473,333.746892,-70.140586,298.457013
24,-0.350876,1.007631,-0.163857,-0.174791,6.79367,10.509018,13.351639,13.973854,-6.747769,17.955848,35.378242,46.24086,-15.262791,12.212654,30.786621,46.592766,-19.617749,5.653015,24.535309,39.261543,-19.976761,-14.753964,-8.496907,-0.992295,-17.076052,-29.754659,-35.988462,-39.120652,-16.515383,-4.077924,5.068288,9.889365,-1.386618,12.739875,20.312081,24.12801,10.904357,23.886047,28.095264,29.281563,20.327037,30.738157,33.640661,34.189548,26.50938,51.043007,73.763786,93.000687,53.588768,86.349678,103.468918,115.334221,44.858837,80.838616,100.730644,114.113068,35.389217,68.90847,87.563049,100.103165,26.558682,52.650684,67.911781,80.12043,-14.228406,-13.948417,-5.345498,1.4303,16.516346,32.304481,39.075624,43.330215,33.624347,48.678887,55.13661,58.28882,45.193422,60.82428,65.771204,66.409703,52.136651,67.414679,70.840777,70.167376,-6.515093,334.719683,-70.414187,298.247382
25,2.836349,-0.691383,0.042503,-0.373726,6.551903,9.401825,11.424477,10.932587,-10.143425,14.273804,31.970078,43.634812,-18.364334,8.659104,27.364517,43.410599,-22.047935,2.366226,21.364289,36.241425,-21.760254,-16.761806,-10.409694,-3.015381,-16.444097,-27.869418,-33.439713,-36.404263,-15.602859,-2.858859,5.967832,10.518232,-1.50939,12.655389,20.036082,23.569984,10.283309,23.440358,27.522727,28.644127,19.833553,30.132386,32.948835,33.776586,26.662034,51.298886,73.99363,93.283104,53.777184,86.388932,103.447335,115.270272,45.140625,80.995606,100.837098,114.240097,35.792336,69.168114,87.748238,100.317948,27.112668,53.027836,68.199898,80.419373,-14.119972,-13.75047,-5.071425,1.574969,16.761112,32.4667,39.179587,43.397795,33.866841,48.863509,55.238251,58.348483,45.417515,60.979483,65.898138,66.534958,52.346652,67.530918,70.924449,70.244848,-3.775389,334.000719,-70.468329,297.846075
26,-5.013313,-5.108352,0.415421,-0.830135,8.637817,13.81826,16.760971,16.213509,-4.017517,20.973335,38.379272,49.119347,-12.423935,15.107757,33.53215,48.586464,-17.457127,7.083847,25.556396,39.445038,-19.133,-12.867645,-6.204826,0.997101,-17.104271,-27.256669,-32.051131,-34.590889,-12.952334,1.035974,8.938422,13.00297,1.945459,17.213372,23.62493,26.425447,13.954852,27.730332,31.21755,32.161195,23.575295,34.411133,37.240784,38.122099,26.657982,51.30899,73.814415,92.876381,53.521374,86.107292,103.222069,115.193001,44.93771,80.954132,100.799675,114.305695,35.845837,69.331512,87.909142,100.640717,27.460648,53.441929,68.659241,80.875648,-14.243165,-13.704479,-4.946183,1.506636,16.772523,32.313669,39.024852,43.223831,33.972607,48.850751,55.038537,57.985156,45.567556,61.09356,65.949069,66.596745,52.496038,67.506724,70.782879,70.016223,-8.863472,328.864669,-70.127678,296.988242
27,7.938194,-10.568966,0.626953,-2.30082,5.665604,7.047981,6.239456,1.579788,-13.221634,8.731339,27.48983,39.793007,-21.347008,3.944916,23.984139,40.620781,-25.887428,-3.236023,16.901001,32.120773,-27.015884,-22.037269,-14.266067,-5.892814,-8.089551,-11.920386,-11.880112,-11.287345,-3.59459,12.683905,20.734776,24.450298,7.698634,24.911154,32.322945,34.814141,16.420769,32.398157,37.112109,38.663057,23.650396,36.141738,40.251352,42.618887,26.74213,51.445953,73.539345,92.115944,53.816437,85.801804,102.66053,114.546524,45.068962,80.43956,99.934822,113.457962,35.767479,68.654045,87.106934,100.030266,27.063618,52.478691,67.415978,79.42701,-14.482226,-13.805021,-5.271658,0.788528,15.497661,31.668143,39.076092,43.790514,32.692421,48.689841,55.524006,58.782464,44.540448,61.047247,66.452026,67.464856,51.870247,67.364314,70.930623,70.313576,-0.980438,318.28004,-69.555885,294.671759
28,11.882286,-10.469523,0.769913,-4.861672,-1.229118,-6.111442,-11.624164,-19.794285,-27.604488,-11.040367,8.295273,21.902161,-32.752796,-11.766952,9.155709,26.95768,-34.471653,-15.238815,5.164696,21.328194,-33.116604,-29.06567,-20.729118,-11.399528,2.771618,4.569654,7.197431,10.136602,6.630648,23.308916,32.145499,36.663566,12.235943,29.923805,39.508235,43.465695,15.673169,31.869697,39.286674,42.816032,18.114471,30.911935,37.406325,41.902965,27.00214,52.046516,73.713226,91.785095,54.185097,84.826286,101.161537,112.689194,45.287807,79.113144,97.875664,111.117325,35.744442,67.001037,84.780281,97.346672,26.537395,50.87281,65.182777,76.586288,-14.946687,-13.923322,-5.344474,0.056427,13.550819,30.311264,38.807244,44.557467,30.620189,48.075363,56.356415,60.976692,42.897529,60.652193,67.444343,69.796441,51.130008,67.311296,71.605605,71.589142,10.85396,307.808066,-68.83386,289.807636
29,12.563301,-14.438975,1.7868,-9.459916,-7.041572,-17.15657,-25.521801,-34.227092,-40.217571,-31.715435,-14.254165,-0.182167,-42.655048,-29.457206,-9.897537,8.294678,-41.625972,-29.170623,-10.402221,5.890457,-37.346237,-36.463497,-29.005027,-19.729362,11.74315,20.271672,27.576486,33.742611,16.609897,33.435588,42.785341,47.414634,17.289177,35.262931,46.051049,49.952181,16.214374,32.878352,41.685035,45.637,14.972548,28.406671,36.347725,41.797866,27.490483,52.581173,73.265934,90.44862,52.979267,82.85519,98.206661,108.569813,43.672852,76.212216,93.62907,104.742153,33.640366,63.097264,79.244694,89.780354,23.861263,47.158665,60.133919,69.410534,-13.561181,-11.069811,-2.052893,3.241279,11.688748,29.212897,39.104733,46.020655,28.179504,48.605194,59.342133,65.734894,40.701018,61.838221,70.578411,74.51726,49.83914,67.680711,72.496774,72.706034,23.326006,293.392963,-67.138315,280.371592
30,9.877076,-14.17209,-1.674339,-20.086458,-14.535119,-28.862526,-39.981251,-49.102284,-46.517968,-45.268742,-31.634377,-19.729088,-44.768979,-39.457856,-23.946923,-8.415001,-40.809987,-35.625321,-20.824906,-7.081078,-34.699517,-36.742218,-31.323029,-23.650406,15.118724,27.096155,37.429814,45.677101,22.642591,41.310902,47.968955,50.027775,21.898894,42.716761,51.168305,52.77084,19.708298,39.077105,46.177131,48.341964,17.167269,33.096319,40.027024,43.939654,31.428623,57.464722,76.474583,91.254879,61.017231,89.063541,100.537067,106.874027,50.455078,80.817821,93.152126,99.51717,38.21925,65.866115,77.689602,84.322391,25.199913,48.114807,58.866463,65.323791,-8.529227,-2.936862,7.724717,15.444506,14.603083,37.234325,50.87877,59.837199,28.216356,54.804948,69.503756,77.933219,39.544111,65.804264,78.196065,84.375404,48.831299,69.829181,77.007432,78.821461,33.112908,279.316871,-68.902828,260.381132
31,26.192962,-24.722976,-4.222515,-27.741435,-24.861969,-47.436149,-63.102733,-74.087025,-65.740265,-74.57777,-66.063263,-57.017486,-59.970016,-64.638473,-53.312553,-40.377113,-51.078701,-54.82592,-44.243385,-32.799316,-40.193538,-46.710354,-42.91468,-36.314415,18.456198,34.267737,47.964472,59.275826,27.862873,48.224602,57.239705,61.504917,25.66157,49.624336,60.655034,63.621351,23.001955,45.56721,55.076947,58.019527,20.231646,38.586536,47.265927,52.077951,33.127739,60.187408,78.713974,91.569603,64.58194,92.858162,101.162361,103.79187,53.374981,82.789947,91.630806,94.53376,39.958168,66.384441,74.035446,76.638176,25.590397,47.83445,55.540615,58.481529,-7.530215,-0.800199,11.442833,21.404076,12.048691,36.248196,51.788527,61.355259,24.889442,56.501109,74.41993,84.487062,36.525505,66.710205,79.559898,85.481231,46.770985,69.456123,76.116497,77.240478,59.081938,254.850894,-73.349275,232.896696
32,16.070801,-27.360545,-5.961537,-34.651274,-30.115105,-54.338104,-69.08456,-77.188076,-69.983196,-86.243717,-84.672066,-80.574692,-61.142658,-73.238548,-67.071945,-58.167732,-49.524376,-60.388413,-55.018044,-47.016975,-36.554878,-46.454315,-45.474403,-41.225349,11.84657,26.691764,40.841648,52.98625,24.722605,45.687154,55.89199,61.710546,25.807263,52.113396,63.056816,66.080079,26.704892,51.208851,60.217717,61.929538,26.867654,46.619857,55.198656,58.805757,34.325375,61.834649,80.380268,92.294484,67.113854,95.288716,100.96851,99.869282,56.620583,84.705609,89.466877,87.815369,43.342141,68.30626,71.875237,70.120503,28.918682,50.344208,55.280251,54.981388,-8.128664,-1.792337,10.554164,21.840849,7.046383,29.287214,44.494488,53.405189,19.692181,51.254849,68.404791,77.2155,32.024968,62.417335,74.552859,79.434871,43.468863,66.57683,72.468647,72.589937,74.793108,228.108409,-79.670443,198.863482
33,11.805885,-32.025777,-7.864769,-42.099548,-31.364284,-55.473232,-69.431694,-75.557876,-67.145508,-88.84639,-92.862922,-92.746055,-57.783474,-75.936504,-74.198879,-68.812557,-46.014255,-62.784187,-60.951839,-55.54002,-33.362262,-46.927562,-48.143715,-45.733829,2.221564,14.949324,30.141741,43.007316,16.765228,38.022619,48.531116,54.365909,23.431064,51.862905,61.562462,62.877203,30.05877,56.758592,63.844573,63.036222,35.473908,57.098556,64.337057,65.622873,35.515812,64.371323,83.801846,95.404759,70.175354,99.973561,101.014401,95.908665,59.628537,88.568905,87.767258,81.687069,46.279587,72.270813,70.745556,64.805684,31.937222,54.320321,55.419148,51.579449,-8.647317,-4.059126,6.602076,17.73738,0.236041,22.076396,36.087571,42.673753,12.322443,44.42739,59.641259,65.499798,25.215583,55.846851,66.532438,69.252643,37.982895,61.144381,65.859587,64.582755,86.239082,197.107587,-87.895123,157.788889
34,13.810982,-35.98651,-10.109024,-45.537298,-33.348736,-58.935963,-74.687439,-82.705078,-66.202904,-92.528606,-98.971641,-100.148231,-56.401852,-79.111942,-79.49358,-75.987682,-44.763645,-65.467209,-64.867344,-60.656101,-32.956341,-49.255222,-51.138245,-49.366962,-6.421357,3.054132,17.806652,31.129464,7.107,28.35821,39.310427,45.164912,18.363579,48.862169,58.389492,59.184108,29.932904,58.879626,65.540115,63.627038,40.037905,63.392677,70.14656,70.10767,36.385208,66.354355,86.409726,97.025071,75.464676,106.012722,105.519688,98.453579,65.027161,95.095059,90.227475,81.589371,51.847412,79.572682,73.875813,65.238842,37.744309,61.992428,60.166729,54.199597,-10.747764,-9.375274,-0.377616,10.994173,-9.392027,7.134309,17.073792,20.180412,2.58896,30.605462,43.237781,46.852286,16.461919,43.23712,52.167088,53.193522,30.914035,51.599929,55.383618,53.464637,99.509479,162.362905,-98.544732,113.493419
35,14.582222,-41.008195,-6.242603,-38.785677,-31.818272,-58.293125,-75.059235,-84.896622,-67.162445,-97.749493,-106.864883,-109.675346,-59.162991,-86.624599,-87.546398,-83.365231,-48.694073,-73.200783,-72.060116,-66.460865,-37.49049,-56.750004,-58.257362,-55.437733,-10.03635,-2.79864,11.179992,24.64538,-1.728644,15.113111,28.672967,37.134876,11.416033,39.854302,52.770414,55.651651,25.235538,52.692784,62.095807,61.586526,37.693266,59.928213,68.612186,69.775403,32.936548,62.693962,83.949855,94.950935,70.115035,101.990006,103.300598,97.68631,61.20942,93.070353,88.471049,80.205643,50.38456,79.572372,72.720154,63.402884,39.610565,64.624878,60.855063,53.473489,-17.041421,-21.108426,-15.531117,-6.826652,-24.496244,-18.297118,-14.559624,-15.336671,-10.466508,10.199592,19.071134,20.559985,5.875988,27.010223,32.707547,31.681312,22.820754,39.445758,40.613505,36.969062,113.377916,123.011162,-105.50112,76.364194
36,3.588936,-29.963609,-3.38253,-34.600985,-29.125454,-55.31139,-72.984764,-83.638756,-62.575356,-95.364773,-104.399735,-105.4701,-56.391094,-87.151394,-86.849178,-80.736065,-47.787037,-74.7705,-71.805805,-64.184406,-38.103893,-58.915409,-58.770127,-53.911572,-13.455329,-10.822853,0.008225,11.263991,-13.3421,-3.195782,7.523605,13.607543,0.45741,22.473111,33.061541,34.424224,15.19471,37.051053,44.269679,42.620498,28.721993,46.990272,53.894185,53.930284,30.977835,60.089344,81.356263,92.43538,67.99667,98.508891,101.202919,96.986046,60.639212,92.67053,87.24593,78.190052,51.619549,81.351539,73.329506,63.318026,42.795822,68.308079,63.347494,55.188391,-19.62516,-27.774831,-26.025578,-20.247292,-34.43743,-35.6536,-36.13523,-38.91689,-20.621929,-6.306716,-0.205847,0.038853,-3.305412,13.128434,18.82151,18.487914,15.335844,29.106831,30.572592,27.839044,116.060183,94.846284,-109.790319,43.56194
37,2.737518,-25.620271,-1.284679,-30.212695,-27.246265,-53.613247,-73.080299,-85.659553,-59.732048,-93.713711,-100.677063,-99.284912,-54.816593,-88.123386,-87.187008,-80.019894,-47.910702,-77.194611,-73.211643,-64.467991,-39.930828,-62.615902,-61.748909,-55.793506,-16.485514,-18.045181,-11.753944,-4.647534,-22.195701,-17.121012,-8.819308,-5.091241,-9.224567,6.702124,15.803604,16.804757,5.107553,21.627801,27.91152,26.843694,18.877768,33.112905,38.815278,38.945972,28.502552,57.117771,77.934957,88.197263,64.76917,94.335451,98.569507,96.489063,58.37634,91.577407,86.810663,78.436774,50.887859,81.920139,73.056335,62.807235,43.945552,70.374515,64.357486,55.362275,-21.106047,-32.27285,-33.028755,-29.460384,-41.228101,-47.701289,-50.660218,-54.285476,-28.186152,-16.512267,-9.879773,-8.149048,-10.449346,3.86489,10.211888,11.265186,9.247334,20.573187,22.220144,20.737205,117.61936,70.59719,-112.253339,14.720422
38,-2.075157,-26.246426,1.110111,-24.138218,-23.709366,-48.926376,-68.121025,-80.832275,-56.577644,-90.083656,-98.133568,-97.529823,-54.0802,-87.567032,-85.140747,-76.891571,-49.261894,-78.256187,-72.875725,-63.368958,-43.004654,-65.70417,-63.17054,-56.179207,-19.539806,-25.2451,-22.047244,-16.630016,-30.191049,-30.821119,-26.247945,-24.908103,-16.854281,-6.219681,1.153411,1.56951,-1.867203,9.509539,14.34898,13.536092,12.740722,22.23904,26.311079,26.256578,24.910526,51.388435,70.728407,79.393243,59.421186,86.523142,95.000496,96.074638,55.385484,88.218898,86.554269,79.342975,50.237789,80.847301,72.931595,62.856846,45.777454,71.389732,65.763588,56.585054,-23.000006,-36.549467,-38.759885,-36.156178,-45.981641,-60.029227,-64.841144,-67.757415,-33.380219,-25.565056,-17.852152,-13.598552,-15.2486,-3.697121,3.257273,6.093145,4.887761,13.5745,15.372642,15.333137,113.977879,45.340123,-112.709552,-8.428437
39,-3.777168,-20.809018,3.079868,-12.217727,-19.881684,-42.983277,-61.669007,-74.374764,-53.027458,-84.942559,-95.821404,-99.463394,-53.535279,-85.814804,-82.721878,-74.456932,-51.649498,-79.738976,-73.763237,-63.996506,-48.030762,-70.407143,-66.894745,-59.195481,-22.937889,-31.677918,-31.123109,-27.279208,-36.458685,-42.467049,-42.461399,-43.620856,-22.717779,-18.210771,-13.27561,-13.116411,-7.480951,-1.931701,1.285822,1.084257,7.498877,11.760106,14.148087,14.546242,20.238121,44.690769,63.591116,72.961309,51.817503,76.531866,87.038475,91.21328,50.999559,83.38504,87.389574,85.52473,48.969132,77.81337,70.228054,60.60149,47.425838,70.705067,64.667976,55.416372,-24.892736,-39.730452,-42.425,-40.314475,-48.26167,-65.579218,-71.589877,-74.896704,-35.469668,-32.547113,-27.122507,-23.266511,-17.109733,-8.911004,-2.374951,1.088262,3.114185,8.6102,10.20278,10.991534,108.618822,25.466207,-111.211573,-19.711062
40,-4.074211,-15.844261,2.927994,-6.784551,-18.157059,-39.988701,-58.726845,-71.36554,-51.805367,-82.406868,-93.747734,-99.018334,-54.801659,-84.77195,-82.867447,-76.951424,-55.216896,-81.436684,-74.900162,-65.041054,-53.622025,-75.242913,-70.891503,-62.54654,-26.020746,-37.032203,-38.591901,-36.407122,-41.798347,-51.559111,-54.731607,-58.033271,-28.043745,-29.830129,-28.10473,-28.772524,-13.156808,-13.534856,-11.962252,-11.364243,1.671362,0.806177,1.30383,1.960909,17.747824,41.273575,60.138144,70.372286,47.570998,70.872411,82.881202,89.383049,49.009034,81.627004,90.900916,93.893097,48.761501,77.455032,71.309704,62.615324,48.389683,71.181427,65.847135,56.819958,-26.124054,-42.03372,-45.17799,-44.056191,-49.316488,-67.703913,-74.622317,-78.841063,-35.948359,-34.954607,-30.414757,-26.683428,-17.326179,-11.461525,-5.276032,-1.607569,2.904196,6.201022,7.741143,9.039419,103.199547,10.230095,-109.628643,-25.887464
41,-3.231606,-12.220184,4.809437,1.404704,-16.428589,-37.533646,-56.494514,-69.478477,-50.378792,-78.860893,-91.370911,-99.47969,-55.026947,-82.539184,-82.823456,-79.636139,-57.399444,-82.100784,-75.956154,-66.557396,-57.814842,-78.343895,-73.973236,-65.747108,-28.347879,-40.649259,-43.278628,-41.823856,-46.927701,-60.473296,-66.807141,-72.538913,-33.996461,-40.031495,-40.316387,-41.603698,-19.560363,-23.220878,-21.890459,-20.376567,-4.447092,-8.287276,-8.494547,-7.304703,16.381467,38.069915,55.635827,65.446309,45.216073,66.984664,79.632305,87.503894,47.424021,77.24592,88.087082,93.194023,47.570022,72.76585,67.287025,59.648042,47.234161,66.704212,61.797872,53.656783,-25.749707,-41.567056,-44.917387,-44.25466,-49.655213,-68.114574,-75.666614,-80.732728,-37.044901,-39.497587,-36.878829,-34.33862,-19.537044,-16.324789,-10.491287,-6.754616,-0.377622,0.737964,2.489814,4.280546,99.075153,-1.69215,-105.711994,-24.184821
42,-3.741165,-12.443208,0.452024,11.6742,-14.052956,-34.235939,-52.604073,-65.005188,-48.031105,-74.541779,-89.683319,-100.936661,-54.407341,-80.57888,-80.546677,-77.300446,-58.309319,-81.674629,-75.085945,-65.528755,-59.943672,-79.691963,-74.431183,-65.73381,-29.613176,-42.785959,-44.93533,-41.887027,-52.778127,-70.527677,-80.188952,-88.39309,-39.690188,-46.933265,-46.437563,-47.328399,-24.591799,-28.751881,-26.961953,-25.304232,-8.544886,-13.474298,-13.412591,-11.810952,16.983215,37.887669,54.409006,63.290388,44.552799,64.84215,77.646395,86.399729,45.238386,72.593147,83.074087,88.844696,43.917458,66.738344,61.50634,54.654568,42.136191,59.704834,55.400379,48.176279,-22.443036,-36.512457,-39.249803,-39.11206,-48.073079,-65.979266,-74.410513,-80.838314,-37.335889,-38.902791,-37.032667,-36.209506,-21.545889,-17.110295,-11.901367,-9.528719,-3.844593,-1.817784,0.011294,1.072255,94.936003,-13.770083,-105.657955,-12.145346
43,-1.113773,-7.020586,-3.905388,21.943694,-14.712319,-34.70271,-53.075009,-65.527508,-47.289173,-72.284386,-87.423146,-99.395749,-53.305356,-79.309903,-79.861176,-76.939087,-57.511506,-81.269703,-75.060517,-65.591526,-59.897736,-80.185582,-75.090672,-66.200524,-28.876898,-42.197271,-44.843767,-42.492685,-56.218801,-76.333241,-87.443888,-96.916222,-44.708435,-51.436093,-49.94332,-50.315558,-30.228553,-32.422558,-29.580631,-27.822439,-14.095579,-17.408393,-16.455099,-14.517985,19.553066,40.726834,56.457682,63.904524,45.581177,64.444868,76.923472,86.070551,42.452128,67.668686,75.861929,80.845116,37.803806,59.372515,53.967648,47.634899,33.09577,50.183293,46.654656,40.378447,-16.20404,-26.86992,-28.175237,-28.628389,-44.570083,-61.297985,-70.85401,-79.157819,-36.821323,-33.170216,-30.876268,-32.296086,-23.352712,-13.818041,-9.506272,-9.929874,-7.496716,-1.46622,0.305584,-0.585453,93.886265,-20.13035,-109.499308,10.458667
44,-1.597046,-7.661528,-6.586429,18.474278,-17.039749,-37.201458,-54.345257,-65.827595,-48.237683,-71.620766,-85.538235,-95.598393,-52.367627,-78.399777,-78.755471,-75.446228,-55.197121,-79.102261,-72.914681,-63.636509,-56.971642,-77.597821,-72.091976,-63.020439,-25.819364,-39.627886,-42.752503,-41.045076,-58.119183,-79.719041,-90.872855,-100.330495,-48.765153,-51.621511,-48.447083,-48.730276,-34.719228,-31.604939,-27.450254,-26.317754,-18.28719,-17.480986,-15.38857,-14.109945,24.092021,46.492607,61.590047,66.338304,47.124057,65.50506,77.276521,85.45646,39.472738,64.887302,67.514894,66.738292,31.315681,54.615961,49.657081,43.006347,23.816042,42.664581,40.571525,34.872659,-11.001574,-18.914145,-19.907875,-21.049681,-40.221322,-53.689426,-62.564677,-70.982098,-35.034865,-22.643684,-17.611081,-19.378603,-23.203788,-7.074784,-3.159602,-5.740682,-8.703504,2.531619,4.372553,2.011554,92.64295,-27.006638,-115.732006,29.718185
45,-0.883553,-5.45405,-7.800488,16.102174,-20.619942,-40.862285,-56.681271,-67.479915,-49.882519,-72.24424,-85.641804,-94.871784,-51.441181,-78.255283,-79.750946,-76.63179,-52.527649,-79.126842,-73.086525,-63.379864,-53.323814,-76.435741,-70.639515,-60.669937,-19.774918,-32.894806,-36.341297,-35.213589,-57.30052,-79.744112,-91.315833,-101.161436,-50.863221,-53.622458,-51.539395,-53.01447,-37.695919,-29.874426,-23.009164,-21.972377,-21.044049,-16.031716,-11.446702,-10.007784,26.745506,49.628826,64.607866,67.647577,46.443958,64.481489,75.849558,83.865263,35.181433,60.695503,57.696276,51.437187,24.745537,48.83729,43.110809,35.701183,15.997278,34.908886,32.960976,27.565985,-6.949691,-11.754895,-11.283783,-11.503253,-36.893951,-47.631539,-56.315592,-65.17488,-33.761881,-16.191879,-10.088066,-13.086984,-23.0819,-2.537031,0.868494,-3.304895,-9.348315,5.214816,6.921245,3.345239,92.064537,-31.660665,-123.227354,46.620382
46,-1.941788,-2.596734,-10.276211,10.180469,-25.273407,-45.421817,-60.309436,-70.671535,-52.809848,-74.433288,-87.548938,-96.276111,-51.772945,-78.848247,-82.183731,-80.575298,-50.586822,-78.575168,-72.331832,-62.224903,-49.954994,-74.660877,-68.443462,-57.831275,-12.501072,-24.498887,-28.442407,-28.478096,-54.418394,-75.759864,-87.225888,-97.033273,-51.068023,-54.014068,-52.823853,-55.077712,-39.524028,-26.657885,-16.98753,-15.76866,-23.458707,-13.549399,-6.606859,-5.0149,28.915695,53.777745,70.599318,74.375571,45.592106,64.023829,75.348582,83.480398,32.17095,60.989708,55.410502,46.466595,20.543255,49.080443,42.716068,34.250725,11.371199,34.014267,32.378643,26.929488,-4.790014,-7.54075,-4.843486,-4.552614,-34.899542,-42.055618,-50.610977,-60.141567,-32.023125,-7.589323,0.253701,-3.256059,-20.851357,4.925722,7.571094,1.5065,-6.602039,11.340198,12.80015,7.993514,90.314094,-33.453285,-133.31222,57.604965
47,-3.765175,0.789151,-6.672415,1.772536,-29.129676,-49.37305,-63.086894,-72.691074,-55.909274,-77.497901,-90.610942,-99.260536,-52.280307,-79.795223,-87.698799,-90.182006,-48.383537,-77.704662,-72.099403,-62.160129,-45.669708,-71.539775,-65.959705,-55.597778,-5.836695,-17.034824,-22.011675,-23.861066,-50.179789,-70.217912,-81.527414,-91.109,-49.93757,-54.024855,-56.861255,-61.989373,-40.503679,-25.11216,-13.899057,-12.398618,-25.712485,-12.627619,-4.305223,-2.659077,29.922902,56.529625,75.5938,81.564583,45.213284,64.352326,76.1395,84.841027,31.73481,63.814053,57.448895,47.278153,20.532933,52.568688,45.905938,36.76751,12.023049,37.39515,35.969731,30.526886,-5.351692,-7.316985,-2.932798,-1.665272,-33.664737,-37.62791,-45.767645,-55.517331,-29.633164,-3.559398,4.980776,1.637288,-17.37835,8.952174,11.277583,4.729514,-2.254785,15.558418,16.798323,11.828792,86.668178,-32.145863,-139.865376,59.895772
48,-4.036708,4.142925,-2.404769,-6.005264,-31.451432,-52.164208,-65.710099,-75.800537,-58.542961,-79.948952,-93.439247,-103.061737,-52.558663,-79.587708,-89.172821,-93.20398,-46.288056,-75.945832,-71.26323,-61.813935,-41.275681,-67.60064,-63.66005,-54.535881,-0.010331,-10.204719,-16.279848,-19.874518,-45.829618,-64.560908,-76.282362,-86.601035,-48.212536,-50.506199,-52.449034,-56.622405,-41.20999,-24.417848,-11.247677,-8.13248,-28.503336,-13.950486,-3.739,-0.686078,29.031887,56.466819,77.231906,86.405067,44.66605,64.849811,77.856433,87.793705,33.208877,67.780048,65.544056,57.638179,24.042526,58.243423,54.286857,46.08855,17.261673,44.230087,44.241645,39.418842,-9.529423,-11.986447,-6.814134,-3.966143,-33.578368,-35.087474,-42.280909,-51.429844,-26.541871,-4.731496,3.238049,1.463003,-12.614276,9.325164,12.04958,7.232121,3.611238,17.81332,18.919535,15.107775,82.572722,-28.460651,-142.328893,53.432795
49,-4.4721,8.462462,0.130462,-7.737592,-32.527908,-54.037536,-68.05117,-78.222725,-60.118881,-81.535904,-95.689155,-106.606247,-52.142807,-78.217002,-89.101821,-94.02095,-43.639,-72.558906,-68.791282,-59.73571,-36.085441,-61.958358,-59.703415,-51.561515,4.238276,-5.053006,-12.522613,-18.155776,-42.263082,-59.124766,-71.04908,-81.951513,-46.81421,-48.954301,-48.915138,-50.586592,-42.267812,-26.330864,-11.118662,-5.318205,-31.818191,-17.424306,-5.313105,0.00489,26.582646,52.839146,74.03373,86.137402,45.328045,66.633019,81.004349,92.134827,37.095291,70.700054,73.022633,69.262505,30.136448,63.677799,62.905449,57.147045,24.855572,51.431248,53.178612,49.899044,-13.23404,-16.434996,-11.192405,-8.085599,-32.813243,-33.187895,-38.540137,-45.833855,-23.570083,-6.267562,0.8902,-0.008392,-8.859375,8.419748,11.409246,8.015166,7.604847,18.366103,19.265109,16.18314,78.101955,-21.095867,-142.197098,44.597525
50,-4.243148,10.053022,2.387146,-9.161193,-31.255165,-53.939667,-68.278885,-78.144722,-60.885544,-82.182267,-96.511597,-107.695713,-51.328263,-75.198052,-82.746758,-85.279198,-40.399567,-64.968682,-61.3648,-53.046593,-30.051957,-51.823815,-50.440636,-43.806771,6.056061,-2.738396,-10.827799,-17.957995,-39.086806,-55.94528,-67.675778,-78.38517,-45.165887,-41.197967,-35.323304,-32.898273,-42.433179,-24.851898,-9.187603,-1.691856,-34.206097,-18.422834,-5.607999,1.129675,25.323017,52.108132,73.60025,87.129868,49.757687,74.497421,89.570629,99.505371,44.000324,78.265972,80.63324,76.748188,38.437088,71.184254,69.549351,63.078106,33.829823,60.35598,60.850605,56.813599,-16.02651,-20.859338,-16.281558,-12.760821,-34.065837,-36.324037,-39.809607,-44.021924,-22.62327,-9.047053,-2.505449,-2.59579,-6.62351,7.33811,10.123795,7.404227,10.914558,19.034521,19.354938,16.596473,73.867533,-12.651854,-139.801226,33.827323
51,-1.924462,10.50524,2.492604,-7.713522,-29.154052,-52.226921,-65.475929,-72.763092,-59.375931,-80.917419,-94.908577,-105.966945,-48.724754,-68.218025,-71.169777,-70.979267,-36.464195,-55.38224,-51.818893,-44.994415,-24.39299,-41.93042,-41.10038,-35.979492,7.291674,-0.958657,-9.192006,-16.702029,-36.687186,-54.851959,-66.141144,-76.553622,-43.279629,-35.058334,-24.624681,-19.458821,-41.316935,-24.681436,-10.209116,-2.76766,-34.808528,-20.933594,-8.640248,-1.419352,24.646316,51.282943,72.443206,86.356235,54.54253,81.314117,98.147518,109.116416,50.587497,84.658527,91.521629,90.986,46.03339,76.91003,74.714,67.755191,41.678157,67.332012,66.382564,60.954128,-18.908575,-25.09144,-21.775696,-17.566775,-35.99889,-40.739649,-43.392341,-46.133208,-23.188539,-14.172053,-8.11472,-6.961951,-6.499144,4.925436,8.137371,6.164495,11.700901,18.203583,18.042162,15.555911,72.073877,-4.134835,-137.177816,24.12558
52,7.084374,13.622684,2.042839,-6.41215,-28.478348,-51.515969,-64.583885,-71.27417,-59.786522,-81.434601,-95.487511,-106.776055,-47.767159,-63.404297,-62.052956,-58.665734,-34.165558,-48.588867,-45.631989,-39.988541,-20.423882,-34.128273,-34.56839,-31.384621,7.647826,0.858028,-6.510142,-13.645421,-35.186922,-54.490997,-65.455881,-75.372615,-42.722547,-31.424229,-15.378069,-6.180284,-41.823258,-25.778945,-10.851128,-2.326762,-36.745342,-23.70975,-10.887697,-2.5821,23.996383,49.793712,70.015056,83.392753,57.373283,85.593269,103.112743,114.258361,55.266712,88.722747,95.031532,93.99884,52.01445,81.550323,78.81229,71.334537,48.449787,73.495754,71.230281,64.65588,-22.153936,-29.932969,-27.913076,-23.372994,-39.813535,-48.442612,-52.123949,-55.123,-25.680873,-19.970503,-14.48514,-12.871108,-8.336046,0.438045,3.694848,2.417263,10.228147,15.054485,14.590548,12.385867,79.389748,7.402729,-134.90348,15.62831
53,8.63166,13.485969,6.390449,-10.091586,-26.926597,-49.486107,-61.874748,-66.340736,-57.972954,-80.211822,-93.544739,-104.178257,-45.366279,-57.120964,-53.404495,-49.197326,-30.569069,-40.040336,-36.389557,-31.738655,-15.580307,-25.29174,-25.188812,-22.70018,7.719981,2.130599,-3.969002,-10.647179,-34.399895,-54.225569,-64.378077,-73.281524,-42.812703,-29.111979,-12.615443,-3.945777,-42.034574,-22.724454,-9.55692,-3.050291,-37.025763,-21.208012,-9.702033,-3.14619,24.713001,50.283177,69.788921,82.042511,57.215778,85.931259,103.037258,112.673069,55.896938,88.979359,92.298649,88.943447,53.199932,81.910217,76.177666,66.946301,50.374569,74.518684,69.953648,61.799194,-24.496777,-35.531107,-37.074818,-35.169391,-42.066245,-53.577516,-57.436022,-59.618053,-27.142029,-21.83321,-17.262111,-16.077454,-8.915302,-1.04042,1.201601,0.070377,10.385326,14.499553,13.370008,11.257415,88.415205,19.407719,-128.119234,4.055745
54,10.863259,11.34741,3.715817,-7.820319,-25.485238,-47.023957,-58.98658,-62.678696,-56.420266,-78.789277,-91.257546,-101.397595,-43.601487,-52.523072,-46.939705,-42.663208,-28.083367,-34.446534,-30.276787,-26.667916,-12.294091,-19.524125,-19.239579,-17.881417,7.819905,3.847433,-0.273721,-5.626321,-32.804474,-53.030649,-63.019031,-71.85449,-41.918051,-25.760197,-10.051485,-3.329372,-41.157144,-18.198143,-6.831146,-2.891957,-35.954437,-17.228167,-7.073337,-2.582649,23.824997,48.970012,68.197883,79.358448,55.934669,84.830577,101.564849,110.821083,54.486385,88.583541,87.026207,79.736469,51.894699,80.986358,71.24929,59.401577,49.408126,73.781822,66.380893,56.460125,-24.736875,-37.361364,-39.558561,-37.080227,-46.241413,-61.897427,-67.764884,-71.406349,-31.397324,-25.685424,-20.007918,-18.74209,-12.700782,-4.208686,-1.487024,-2.696721,7.202994,11.726663,11.150451,9.28636,99.609776,29.696709,-124.072105,-4.822994
55,10.699401,9.015159,0.381923,-5.43771,-25.333259,-46.141822,-58.063224,-60.637848,-55.387619,-77.914512,-89.829849,-99.938049,-42.505165,-50.070236,-43.474456,-39.123275,-26.97892,-32.176185,-27.840065,-25.099823,-11.31768,-17.806915,-17.538276,-16.960052,7.742705,5.058649,2.351215,-1.796635,-32.359853,-51.438007,-61.409933,-70.725686,-41.66488,-24.26388,-9.15177,-3.831095,-40.599389,-15.294441,-5.002414,-3.253772,-34.797296,-14.366382,-4.98437,-2.288798,22.656681,45.865872,64.139637,74.437088,52.111439,78.085133,94.97136,106.0513,50.632485,83.246029,81.267483,74.494011,48.675122,77.376961,67.560917,56.229458,47.126919,71.49226,63.952881,54.142628,-24.644997,-37.941016,-40.568724,-38.028448,-48.193196,-65.951558,-74.26472,-80.819644,-33.979461,-27.655336,-20.930871,-19.783073,-15.863002,-6.862602,-3.270765,-4.604506,3.261835,8.155611,8.653937,7.099278,110.674221,37.932627,-123.325138,-11.039945
56,9.107712,7.853917,-0.47707,-4.791122,-25.697044,-46.425316,-59.167602,-63.008468,-56.377464,-78.600334,-90.75412,-101.437019,-42.845375,-52.137886,-45.649109,-40.559028,-26.520721,-32.90419,-28.499222,-25.503364,-10.114609,-17.072525,-17.061653,-16.687225,6.793311,5.157277,4.021156,1.189214,-32.527776,-49.967933,-59.857403,-69.154947,-42.501617,-21.288689,-5.528687,-0.117017,-41.350416,-11.149827,-0.586567,0.452977,-34.773719,-9.788632,-0.103944,1.480855,20.725537,42.542633,59.80061,69.416874,48.075188,72.594395,88.796025,99.710267,47.061367,79.315911,72.548024,62.177971,46.00787,75.323857,65.644925,54.597794,45.447476,69.945958,62.616978,53.292962,-23.874649,-37.462364,-40.38519,-37.713885,-48.190059,-68.663254,-78.807383,-86.912384,-34.289948,-26.582466,-18.821118,-18.336692,-16.564684,-8.358937,-4.272993,-5.450635,1.916424,6.222064,7.657088,6.337309,120.053764,45.36309,-123.530377,-16.254521
57,1.043038,3.59837,0.356172,-3.800395,-25.301995,-46.435936,-59.6624,-63.565155,-55.172265,-77.130341,-89.137711,-99.872246,-41.649971,-51.987809,-45.191185,-39.585778,-25.222527,-32.367257,-27.311303,-24.139229,-8.823555,-16.19394,-15.557396,-14.677277,6.3797,4.904792,4.587605,2.529963,-32.481026,-48.682413,-58.589569,-68.340287,-42.266811,-17.472798,-1.854291,2.83653,-40.325545,-5.732939,3.88909,3.242946,-32.791562,-4.400458,4.705955,4.657018,19.160483,39.944239,56.312236,65.381927,45.360296,69.195831,85.316078,96.279768,44.204457,76.630918,69.764779,59.289173,43.300913,72.986242,63.233273,52.22189,42.92632,67.384763,60.076351,50.946343,-22.352167,-35.889844,-38.917321,-35.814275,-46.951444,-68.28043,-78.480051,-86.526232,-33.587028,-24.697209,-16.087864,-15.859301,-16.229259,-7.654371,-2.899568,-4.044699,1.996357,6.552556,8.801757,7.618738,121.2575,48.981745,-123.013507,-20.034631
58,0.017143,2.269673,-4.271812,1.541007,-26.315575,-47.775032,-61.250611,-65.528732,-55.84845,-77.067536,-89.357895,-100.472786,-42.116913,-54.243439,-47.89341,-41.936737,-25.746483,-34.975113,-29.974228,-26.367325,-9.514664,-18.043739,-17.435944,-16.158646,5.563465,4.338356,4.681459,3.739512,-32.16193,-47.461898,-57.587403,-67.790541,-41.795951,-16.851589,-1.356057,3.254963,-39.666495,-4.970513,5.048615,4.391109,-31.802425,-3.063382,6.315394,6.045637,17.356976,36.845599,52.560801,61.338707,45.642373,69.910229,86.326448,98.171387,44.86692,78.058818,70.04945,58.90456,44.406632,74.617635,64.386076,53.134578,44.024751,68.958645,61.263704,52.161773,-20.448674,-32.173429,-32.521586,-26.214788,-47.532046,-69.919437,-81.355818,-90.906765,-34.87907,-25.979367,-16.230596,-16.46665,-18.124244,-9.615385,-3.617486,-5.162518,-0.305185,4.290917,7.714262,6.515788,121.395773,51.339904,-127.164189,-18.405138
59,-1.358093,1.79929,-2.000414,0.814943,-27.236,-49.061623,-62.58117,-67.101609,-56.499161,-77.220475,-89.678147,-101.085663,-42.750138,-55.974793,-50.433312,-44.51072,-26.486985,-36.651696,-31.724099,-27.8489,-10.54216,-19.363289,-18.75087,-17.22242,5.138783,3.943085,4.510602,4.154771,-31.919585,-47.040291,-57.312879,-67.698891,-41.412661,-17.284385,-1.84811,3.35603,-39.201798,-4.823942,5.465016,5.080299,-31.216013,-2.627456,6.98357,6.849572,18.264753,38.197759,53.746796,62.53093,46.675928,71.010098,87.524612,99.249807,45.832988,79.386877,71.676734,60.340633,45.503637,76.125834,66.023693,54.589869,45.16841,70.152255,62.373519,52.958056,-20.411487,-31.830857,-31.95412,-25.741759,-47.413868,-69.996224,-81.537151,-90.950034,-34.844766,-25.974321,-16.249641,-16.702426,-18.099622,-9.897485,-3.789496,-5.309352,-0.127987,4.077506,7.576928,6.418953,120.176835,53.18773,-129.025448,-17.541659
60,-2.38868,1.657109,0.072588,0.948525,-27.751465,-49.561706,-62.869171,-67.256103,-56.397629,-76.741516,-89.218918,-100.729477,-42.492897,-56.293991,-51.567581,-45.798775,-26.152679,-36.544853,-31.803497,-27.79763,-10.192223,-19.219711,-18.89756,-17.378288,4.37485,3.230868,4.137821,4.003483,-32.345872,-47.150694,-57.474782,-67.891249,-41.747811,-18.525,-3.246552,2.462045,-39.598118,-5.362196,5.098633,5.276801,-31.596074,-3.207366,6.589479,6.963965,19.164571,39.478496,54.923606,64.008408,46.881711,71.511498,88.039366,99.124497,45.920269,80.520557,73.136551,61.292668,45.405187,77.130792,67.111097,55.306484,44.887121,70.177109,62.79244,53.507873,-20.529449,-31.762294,-31.899746,-26.197325,-47.190035,-69.97277,-81.053074,-89.433289,-35.012827,-26.403907,-16.721777,-16.736289,-18.276551,-10.207929,-3.905224,-4.948034,-0.051557,4.252169,7.677107,6.725511,117.927206,55.033551,-128.813809,-16.404422
61,-1.82206,0.926528,1.050266,0.740375,-27.825279,-49.665138,-63.049278,-67.61808,-56.342674,-76.552413,-88.958587,-100.489219,-42.293907,-56.402595,-51.899711,-46.258689,-25.823593,-36.502304,-32.011276,-28.003303,-9.703125,-18.972633,-19.101196,-17.86132,4.204302,3.06563,4.082233,3.790808,-32.389227,-47.053869,-57.508115,-68.174591,-41.72287,-18.879262,-3.289395,2.918442,-39.69143,-5.93033,5.221819,6.429465,-31.756644,-4.143897,6.197234,7.622903,20.801623,41.531442,57.038546,66.295566,46.757436,71.554298,87.9296,98.134444,45.136258,80.732492,73.754384,61.637248,44.15066,77.20593,67.122753,54.962098,43.473726,69.426057,62.395714,53.241307,-20.349941,-31.687105,-31.945416,-26.869845,-47.108649,-70.039422,-80.496338,-87.615287,-35.245274,-26.841943,-17.102028,-16.445035,-18.396427,-10.189529,-3.733205,-4.414837,0.215314,4.84641,8.034465,7.204522,116.29022,56.226819,-127.578469,-15.397307
62,-1.860832,0.991144,1.050265,0.740374,-27.729332,-49.404258,-62.509826,-66.53968,-55.87175,-75.898224,-88.054733,-99.491661,-41.699112,-55.81533,-51.542175,-46.057091,-25.122551,-35.666221,-31.44944,-27.563782,-8.813164,-18.074592,-18.577904,-17.66439,3.799756,2.524912,3.503496,3.076726,-32.711404,-47.433536,-57.943043,-68.686385,-42.158526,-20.083223,-4.353108,2.477377,-40.466842,-7.184377,4.455563,6.615883,-32.790544,-6.018443,4.682496,7.037428,22.438676,43.58439,59.153488,68.582725,46.633161,71.597099,87.819835,97.144391,44.352248,80.944429,74.372218,61.98183,42.896134,77.281069,67.13441,54.617713,42.060331,68.675005,61.998988,52.974741,-20.170433,-31.611915,-31.991085,-27.542364,-47.027261,-70.106072,-79.9396,-85.797284,-35.47772,-27.279978,-17.482278,-16.15378,-18.516302,-10.171127,-3.561186,-3.88164,0.482187,5.440652,8.391823,7.683533,114.716451,57.428764,-126.241141,-14.446132
63,-1.722816,0.854008,1.050265,0.740374,-27.236161,-48.715462,-61.817253,-65.941178,-55.224427,-75.334168,-87.435242,-98.808655,-40.954331,-55.185883,-51.440209,-46.333283,-24.312996,-34.610802,-30.976525,-27.279968,-7.841606,-16.980469,-18.225312,-17.937973,3.774827,2.347065,2.991536,1.970678,-33.210811,-48.343045,-59.01243,-69.89523,-42.586061,-22.238787,-6.078161,2.082514,-41.149104,-9.068363,3.523194,7.513802,-33.686468,-8.586908,2.88333,7.053428,24.075729,45.637338,61.26843,70.869884,46.508887,71.6399,87.71007,96.154338,43.568238,81.156365,74.990052,62.326412,41.641609,77.356208,67.146067,54.273327,40.646937,67.923954,61.602263,52.708176,-19.990924,-31.536725,-32.036753,-28.214884,-46.945874,-70.172723,-79.382863,-83.979281,-35.710166,-27.718013,-17.862528,-15.862525,-18.636177,-10.152725,-3.389167,-3.348443,0.749059,6.034894,8.749182,8.162544,113.321274,58.444672,-124.863237,-13.543858
64,-1.305588,0.881166,-0.010622,2.547552,-26.706413,-48.226364,-61.410255,-65.346977,-54.792641,-75.228241,-87.534851,-98.919205,-40.359329,-54.697426,-51.07196,-46.069588,-23.718842,-34.117516,-30.75769,-27.053398,-7.145943,-16.501717,-17.998192,-17.823647,4.026991,2.410532,2.737927,1.25583,-33.833292,-49.221945,-59.974489,-70.925171,-43.121752,-23.634186,-7.125708,1.5683,-41.780298,-10.366591,2.743546,7.496339,-34.406613,-10.245672,1.557123,6.404468,23.439487,45.074751,61.255626,71.117042,46.430033,71.674656,87.771947,96.568583,43.643045,81.080725,74.612245,62.056984,41.793933,77.20347,66.85891,54.268312,40.76198,67.927773,61.36863,52.576623,-20.274266,-32.138321,-32.699734,-28.497857,-47.10884,-70.227568,-79.634437,-84.538751,-35.415334,-27.809954,-18.18684,-16.203436,-18.213794,-10.187497,-3.86406,-3.880517,1.144405,5.916168,8.343118,7.637843,112.364759,59.416818,-124.524786,-10.905326
65,-0.525146,0.907299,-0.50823,3.736806,-26.456955,-48.09224,-61.65239,-66.502488,-54.929787,-75.867211,-88.550011,-100.099297,-40.678597,-55.228455,-51.456894,-46.484437,-24.266167,-35.054421,-31.698372,-27.938004,-7.818306,-17.312623,-18.74659,-18.586762,4.631947,2.804753,2.680301,0.830938,-33.950315,-49.6031,-60.296703,-71.166708,-43.081657,-23.620854,-6.909859,1.801512,-41.655711,-10.719156,2.628776,7.693971,-34.304596,-10.576747,1.39625,6.538843,21.991141,43.603207,60.073243,70.08879,46.35866,71.758197,88.005877,97.538283,44.213147,81.390294,74.751934,62.38052,42.785445,77.538615,67.386335,55.111057,41.929568,68.662258,61.973646,53.313866,-20.756401,-32.850724,-33.566867,-29.030582,-47.446287,-70.184801,-79.934492,-85.685056,-35.459447,-28.358353,-18.975931,-17.246605,-18.251213,-10.929014,-4.781929,-4.771839,0.888473,5.017556,7.59114,6.94813,112.140399,60.331082,-124.73223,-7.161555
66,-0.651238,1.799913,-0.60984,4.829371,-26.364853,-48.323662,-62.338371,-67.570061,-55.280273,-76.690727,-89.80188,-101.532394,-41.278793,-56.04229,-52.623367,-47.868759,-25.19664,-36.351379,-33.006523,-29.279114,-9.094139,-18.763023,-19.959801,-19.625175,5.414665,3.257038,2.403616,0.08198,-34.001253,-49.983902,-60.520251,-70.928944,-42.989593,-24.164499,-7.686185,0.722924,-41.418076,-10.851332,2.058956,6.430601,-34.038902,-10.14077,1.448059,5.895022,20.576711,42.471453,59.603459,70.119976,46.359935,72.029377,88.543892,99.072572,44.997455,81.754259,74.972381,62.891522,44.108888,78.107287,68.2598,56.296218,43.510092,69.745223,62.871853,54.23088,-21.284033,-33.476006,-34.110884,-28.945624,-47.664791,-69.928342,-80.126457,-86.811065,-35.209797,-28.554494,-19.616305,-18.338312,-17.935323,-11.446279,-5.755685,-5.894351,0.980834,4.23077,6.730546,6.01061,111.740644,62.222605,-125.090587,-2.240574
67,0.472183,2.235353,-0.900035,6.454064,-26.847725,-49.223098,-63.935394,-70.540352,-56.403167,-78.713447,-92.784897,-104.953377,-43.098106,-59.038604,-54.861397,-49.572281,-27.851188,-40.555252,-36.013939,-31.455894,-12.592895,-23.180076,-22.947212,-21.186332,6.015916,3.472985,2.32644,0.463597,-33.991657,-49.313243,-59.313476,-69.249809,-42.136709,-21.124841,-4.950883,1.82993,-39.663982,-8.001878,3.82198,6.075703,-31.532947,-6.326145,4.193087,6.682648,18.740593,40.781788,58.465691,69.255329,46.492458,72.491135,89.320644,101.021896,46.088779,82.520817,75.530514,63.735878,45.822109,78.973251,69.591808,58.077324,45.532871,71.381035,64.396694,55.809837,-21.824714,-34.189382,-34.90794,-29.25787,-47.607567,-68.911688,-79.449093,-87.227632,-34.688553,-28.684721,-20.34728,-19.634495,-17.450228,-11.934941,-6.699883,-7.0141,1.203917,3.533673,6.001559,5.126346,112.630583,64.746228,-125.572866,4.50176
68,1.087738,3.591064,-0.721996,8.752157,-28.306389,-51.263786,-66.877281,-75.199539,-58.514763,-81.238037,-96.063629,-108.357994,-45.901107,-63.224693,-58.581459,-52.507827,-31.479812,-46.031685,-40.600891,-35.271766,-16.958633,-29.265129,-28.209961,-25.26757,6.26955,3.468743,2.276762,1.116484,-33.247533,-47.396097,-56.304952,-65.18468,-40.395366,-17.158352,-1.346067,3.690637,-36.829644,-4.507404,6.44691,6.581834,-27.891321,-1.509674,8.139507,8.73735,16.767013,39.025303,57.570831,68.832744,46.303093,72.667339,89.925499,103.194008,47.180683,82.981796,75.816513,64.502323,47.715751,79.789192,71.005062,60.039173,47.838569,73.179908,66.126766,57.556652,-22.798239,-35.190985,-35.495859,-28.94059,-47.565076,-67.628612,-78.464482,-87.389559,-33.843153,-28.728786,-21.386742,-21.372144,-16.483438,-12.222104,-7.867255,-8.359134,1.871087,2.883658,5.037278,4.061368,114.147348,68.713549,-125.865835,13.630174
69,1.531426,4.726525,0.64365,9.655511,-29.647316,-53.498726,-70.119004,-80.445671,-60.867989,-84.420273,-100.134018,-112.94735,-49.192314,-68.564232,-64.533943,-58.464569,-35.741066,-52.350106,-46.626892,-40.599266,-21.892296,-36.2845,-35.128601,-31.414559,5.061051,2.924968,3.125602,3.548042,-31.769056,-43.706825,-51.042101,-58.304394,-37.002576,-12.29904,3.352108,7.831187,-31.87744,-0.033525,10.550836,10.113074,-21.907651,4.03487,13.230921,13.565633,16.825973,39.877281,59.087757,71.037906,45.707039,72.898075,90.407604,104.144851,46.99213,83.345936,76.46719,65.211982,47.85181,80.641136,72.406677,61.400448,48.347534,74.35968,67.569351,58.848472,-23.516366,-35.665432,-35.5481,-29.343956,-47.432282,-66.23327,-76.632304,-85.423143,-33.449161,-28.97309,-22.387161,-22.619732,-15.874561,-12.440967,-8.263125,-8.569605,2.633315,3.0012,4.987846,4.170666,116.151598,73.86077,-124.749361,23.706381
70,1.201172,6.8719,1.654255,11.713226,-30.041428,-55.370774,-73.390984,-85.535775,-63.173859,-87.912438,-104.625687,-117.88163,-52.362625,-74.580803,-71.353112,-65.390625,-39.918915,-59.286576,-53.962372,-47.303856,-27.152321,-43.781182,-42.818413,-38.70401,2.718982,1.4139,3.943067,6.635187,-30.243542,-38.215205,-43.265796,-48.097853,-32.986341,-7.483402,8.52767,13.329253,-26.210715,4.831661,15.713226,15.438579,-15.211948,10.480323,19.829614,20.332114,17.746868,42.245144,63.007141,76.099067,44.768463,72.821926,90.270836,103.567886,45.97546,83.231975,76.462051,65.067226,46.787029,80.923896,72.633888,61.440445,47.47269,74.382293,67.562622,58.677555,-23.960556,-36.095833,-35.68494,-30.323843,-47.377109,-64.181866,-73.156047,-80.55085,-32.762805,-28.775587,-22.783334,-23.130136,-14.700106,-11.825859,-7.941523,-8.296576,4.273357,4.146027,5.660222,4.68906,118.117087,81.149313,-122.330789,35.83625
71,1.108062,8.649306,2.413627,14.390322,-30.063812,-57.282806,-76.542823,-90.136665,-65.196395,-91.846962,-109.78482,-123.474334,-55.541633,-81.382759,-79.139373,-73.067482,-44.236198,-67.256836,-63.045318,-55.783401,-32.488609,-51.920036,-51.966133,-47.667091,-1.028706,-1.242091,4.341777,10.013571,-28.274927,-30.735742,-32.626799,-34.589974,-27.439573,-0.949208,15.191102,20.412075,-18.422778,11.703334,22.837402,23.27278,-5.917449,18.442008,27.820383,29.017643,18.177166,43.499577,65.377739,79.382412,43.395367,72.51487,89.995732,102.474839,44.234608,82.740006,76.423519,64.862183,44.82518,80.506417,72.440815,61.161129,45.622673,73.292519,66.886116,57.973915,-24.508665,-36.501811,-35.949886,-32.05659,-47.05474,-61.761126,-68.595952,-73.855419,-31.816091,-28.748781,-22.880158,-23.023783,-13.239659,-10.937326,-7.053719,-7.471911,6.24359,5.857397,7.090892,5.908532,119.980819,89.981499,-119.161492,50.409452
72,-0.379303,11.525585,3.535527,16.578658,-29.475494,-58.114952,-77.98645,-91.872757,-67.325935,-95.498977,-114.12989,-127.922664,-58.516044,-86.615043,-86.829528,-81.818527,-47.843742,-72.939399,-71.482818,-65.034851,-36.561996,-57.983871,-60.612281,-57.820655,-5.135207,-4.338213,3.723982,11.876438,-25.296359,-22.166329,-20.597597,-19.343823,-20.963036,4.160768,20.598097,27.448102,-10.2129,17.503056,29.794123,32.53536,3.239631,25.200979,35.518306,39.001159,19.746769,46.44984,69.925918,85.335548,41.554184,72.001911,89.574337,101.582634,41.485221,80.698391,75.283367,63.88837,41.540096,78.425731,70.829177,59.547008,42.285209,70.472362,64.529617,55.58551,-25.138729,-37.342679,-37.150184,-35.244962,-46.351928,-58.375758,-63.497887,-67.462646,-30.475706,-28.217598,-22.510668,-22.310066,-11.392019,-9.911491,-6.094735,-6.405438,8.530066,7.547006,8.546992,7.369763,120.076063,101.380391,-115.151418,66.861417
73,-1.642067,13.961231,4.449771,18.377299,-28.674385,-58.406959,-78.389373,-91.844879,-69.611801,-99.249481,-118.27185,-132.237064,-61.584617,-90.944938,-93.972702,-91.274597,-51.386673,-77.596962,-78.871055,-74.061035,-40.545707,-62.607307,-67.027656,-65.909935,-9.363579,-7.746719,2.612821,13.260123,-21.449506,-12.514727,-7.662658,-3.336109,-13.636677,10.729295,27.284772,35.751148,-1.290361,24.31751,37.15468,41.952464,12.85157,32.522571,43.32667,48.735982,20.703736,48.230095,73.214047,89.934334,39.853993,71.966229,89.757946,101.473607,38.704766,79.16763,75.429223,64.431611,38.147313,76.356663,69.92569,58.966931,38.659573,67.099286,62.121392,53.504483,-25.610187,-37.75406,-38.264637,-38.140278,-44.856648,-54.092712,-56.982885,-59.288855,-28.604656,-27.088504,-20.932747,-20.042072,-9.463318,-8.748662,-4.766841,-4.997504,10.435727,8.992095,9.81324,8.496128,118.843162,114.99003,-110.292481,84.887124
74,-3.287841,16.937385,4.262227,19.319765,-27.909668,-58.044274,-77.705315,-90.396996,-71.498452,-102.015976,-121.109814,-134.687199,-64.21566,-94.528748,-99.571106,-98.667458,-54.423775,-81.458199,-85.357407,-82.947876,-44.039818,-65.925133,-72.095353,-73.496659,-12.639383,-11.081068,0.063856,12.239432,-17.032456,-3.472979,4.289622,11.150605,-6.527105,17.436525,33.83147,43.020406,6.924833,30.825305,44.146592,50.402187,21.322287,39.544791,50.689351,57.216703,20.964786,48.237098,73.332195,89.972534,38.860336,72.278972,90.303932,101.764801,36.86317,78.174442,77.470813,67.972492,35.58506,74.413822,70.488143,60.687561,35.462596,63.500335,60.488456,52.902259,-25.765711,-37.046011,-37.234016,-37.406973,-42.307072,-48.598902,-48.877217,-48.94024,-26.028953,-24.412772,-17.874904,-16.216374,-7.111881,-6.198265,-2.45997,-2.780003,12.376444,11.378749,11.821462,10.137997,115.86806,131.287323,-105.717515,103.566797
75,-6.673966,20.710643,4.178478,18.50805,-27.987259,-57.724411,-76.967262,-89.291336,-71.649605,-103.554634,-121.506042,-133.731777,-64.925308,-96.393036,-103.52029,-104.121197,-55.475166,-83.845367,-90.115379,-89.755646,-45.202102,-68.055588,-75.929054,-79.022461,-14.609388,-12.547683,-1.129365,12.004706,-12.449445,4.021619,14.053079,22.327535,0.718232,25.136086,40.380775,48.804951,15.292484,38.6642,51.193642,57.265597,29.819812,46.92617,57.07858,63.233997,21.615783,48.007633,71.890857,88.238296,38.607673,71.908516,89.936256,102.499557,34.988674,74.04974,78.098865,73.552952,32.197689,68.666473,69.645126,64.42321,30.741623,56.531158,57.122761,52.820057,-24.558392,-34.700126,-35.104017,-34.980306,-37.10565,-41.172514,-39.670849,-38.288244,-21.453495,-19.608053,-12.373214,-9.242364,-3.574534,-2.301086,2.096408,2.796478,14.629697,14.845509,15.867923,14.708973,109.257042,151.26337,-101.476089,121.340251
76,-6.804176,20.994387,4.800258,17.834581,-28.547241,-56.594605,-74.845436,-86.305367,-71.465538,-103.273384,-120.18988,-131.612,-65.116722,-96.42366,-106.444862,-110.022629,-55.952545,-84.082604,-93.269554,-96.317253,-45.715439,-68.387581,-77.59861,-83.093559,-15.337592,-13.517832,-3.168383,9.578977,-7.052224,10.726201,21.772053,30.586307,7.580382,31.597198,45.853874,53.80708,22.534028,44.640503,56.74309,62.935137,36.521164,52.570565,62.346618,68.449325,21.758824,46.350197,68.122319,83.570504,38.444035,69.590653,86.80156,100.140416,34.286122,69.780911,78.245259,79.743817,30.824307,63.672043,69.642266,70.192463,28.389462,51.71085,55.887772,55.971486,-22.108204,-31.159283,-32.042517,-31.749703,-31.226319,-33.639655,-31.460013,-29.851051,-17.346333,-15.281967,-8.469508,-4.654746,-1.827349,-0.290462,4.506817,6.290471,13.698044,14.740336,16.306919,15.974547,102.721945,171.496668,-96.406752,138.413743
77,-6.309769,20.90956,5.749192,21.076848,-29.396438,-55.926201,-73.848289,-84.75206,-70.25132,-101.799042,-117.883198,-128.898285,-64.327354,-95.891922,-108.824764,-115.673115,-55.63726,-83.815109,-95.734749,-102.1623,-45.760963,-68.077583,-78.409286,-86.120704,-15.707995,-14.397886,-5.142784,6.44862,-2.290026,15.304086,26.473093,35.349196,13.282798,35.88645,48.854629,56.397244,28.35406,48.814837,59.943323,65.941586,41.55368,56.626536,65.658806,71.223765,22.271267,45.816719,66.05849,79.817756,40.821991,71.696354,85.877666,95.309108,37.47306,72.144813,80.488563,80.527256,34.086948,65.552467,72.090236,72.239135,30.759052,53.818451,58.722564,58.335239,-19.965897,-27.198586,-26.855779,-24.125133,-26.919363,-23.61626,-17.243006,-12.849384,-12.984327,-4.887996,5.590339,11.438813,3.057843,10.768309,19.283666,23.425871,19.366238,25.429104,29.883877,31.403802,96.907545,191.543566,-90.162191,158.627929
78,-5.233978,20.011827,3.362011,20.254197,-30.15683,-56.326149,-75.200455,-87.15477,-67.779602,-99.353851,-115.689892,-127.540478,-62.271309,-94.415726,-110.405045,-120.58017,-54.39267,-83.112076,-98.110886,-107.782539,-45.299378,-67.899216,-80.06337,-90.004372,-15.086416,-15.004017,-7.710391,1.632211,1.510575,16.913857,26.620133,33.845499,17.604585,37.230941,48.074548,54.148442,32.377186,50.560731,60.584379,65.681529,44.602668,58.837003,67.35478,72.326998,22.687225,46.307258,65.72454,78.979076,43.033172,73.410141,87.520408,96.853935,38.879734,71.747921,83.723385,88.167846,34.296924,64.056633,74.503269,78.875827,29.465618,51.895042,59.524463,62.076965,-18.518004,-24.631319,-23.481656,-20.526485,-21.697872,-15.308798,-7.618179,-2.17241,-6.926686,3.848181,14.327997,20.211947,9.29734,19.806494,28.536088,32.801559,24.95055,34.022698,39.208757,40.990615,92.248455,210.682344,-86.225292,178.009077
79,-4.764359,17.769508,4.48574,21.461343,-31.182701,-57.504318,-77.395843,-90.47763,-63.861488,-95.026405,-111.41288,-124.055259,-58.446991,-90.749336,-109.386097,-122.452262,-51.360054,-81.049118,-98.832241,-110.819595,-43.572235,-66.806808,-80.743126,-92.248512,-13.202324,-13.621326,-8.216102,-1.067183,6.328516,17.894837,24.643824,29.248774,21.687362,36.795589,44.547723,48.085392,34.889144,49.830039,57.988528,61.310268,44.916213,58.054527,65.645468,69.575103,24.312355,48.646351,67.737683,81.322346,48.451744,79.71262,91.043907,96.658173,43.692936,76.499119,87.547406,90.798775,38.078396,67.122174,76.945645,80.384812,31.717129,53.387799,60.755459,62.734028,-18.327114,-23.884732,-23.275755,-20.585463,-14.09899,-3.72865,3.535384,7.92322,1.924538,15.888517,24.5037,28.66916,18.042952,31.791817,39.955975,43.425027,32.640651,45.405585,51.133738,52.623714,88.070571,227.724812,-81.153077,198.74338
80,-1.669899,13.72913,1.464558,20.289111,-31.161964,-57.679527,-78.33078,-92.005039,-60.270378,-90.847251,-107.980247,-121.531574,-55.638473,-86.776519,-107.428447,-123.169349,-49.672576,-78.309425,-98.072971,-112.517635,-43.278465,-65.304245,-80.389892,-93.762336,-12.987038,-15.753049,-13.004637,-8.238876,7.363168,15.208583,18.198007,19.636112,22.946651,33.293278,38.219281,39.680432,35.794552,47.520548,53.932909,55.744863,44.945148,56.72709,63.639616,66.839127,25.203964,50.808781,71.182526,85.838287,52.527912,85.579262,96.484531,100.1105,47.723831,83.445877,94.430958,96.225597,41.806938,73.62046,83.440464,85.72578,34.934017,59.220474,66.998405,68.390339,-18.534485,-23.387438,-22.28129,-20.183135,-9.294598,4.857608,12.359209,16.506651,8.442677,25.191426,32.86105,35.870518,25.082227,41.532154,48.481014,50.633979,39.208053,53.580943,58.587173,59.249248,86.970783,240.797668,-79.118408,218.376217
81,-15.830017,13.932041,-0.892662,18.090228,-26.805496,-50.752327,-70.479217,-83.505226,-52.908977,-75.415924,-88.651748,-99.593444,-49.751072,-72.460807,-88.877082,-101.028316,-45.431019,-66.840442,-82.707172,-93.979168,-41.156536,-58.64217,-71.024952,-81.894001,-13.603998,-15.423314,-11.222779,-5.660709,8.241569,13.527194,12.854448,11.016434,23.763251,30.328641,31.05159,29.303955,35.612994,44.122325,46.302522,45.152013,43.563051,53.629072,57.468157,58.36665,27.748409,55.588039,78.212276,94.466022,56.659962,92.262142,104.151615,107.92844,50.84602,88.958324,100.506809,101.485805,44.10918,77.835823,88.067722,89.509334,36.549282,61.973694,69.926788,70.75605,-18.70998,-22.850234,-20.9161,-19.306724,-3.761613,13.820656,22.522178,27.580722,16.068099,35.905431,44.273526,47.36038,33.958614,53.550723,60.606745,62.217949,48.55872,65.713948,71.197657,71.656252,71.52547,254.201353,-79.626366,235.938089
82,-13.816337,12.337498,-2.413582,12.926609,-20.398224,-41.729302,-60.010163,-72.528076,-46.218762,-58.410164,-66.01743,-73.201023,-46.160465,-58.42994,-67.737889,-74.361992,-44.668087,-57.069592,-66.195729,-72.351528,-43.015778,-53.918793,-60.997662,-67.476071,-14.741651,-18.504808,-16.003496,-11.578387,5.742368,10.84525,8.775536,5.181601,22.082911,27.974814,27.32231,23.784974,34.33891,41.793939,42.471995,39.813405,42.709228,52.989017,54.668146,53.538274,28.861691,57.398483,80.965496,99.419712,59.095104,94.349957,109.238491,117.324017,51.103752,88.879292,105.055309,112.587627,42.738762,76.362671,90.893681,97.748577,34.123398,58.986282,70.073937,75.687515,-18.021352,-21.626823,-20.003836,-20.431285,3.596022,19.196153,25.593718,29.539754,23.418115,40.400812,45.443042,47.256133,39.376669,56.370209,60.198784,60.154596,50.703991,66.521668,69.995833,69.429619,57.898836,266.219321,-81.850245,248.545168
83,-22.787705,10.974691,-0.687012,11.145294,-10.840461,-24.896461,-37.760078,-46.496155,-32.200493,-33.217598,-33.659717,-35.204063,-35.149418,-36.195144,-36.636268,-35.91901,-36.397293,-38.644672,-39.123607,-38.523205,-37.177253,-40.368427,-41.082607,-41.858425,-16.843178,-21.435618,-19.33377,-14.936499,2.408673,8.951722,8.119784,5.640999,19.235154,26.220237,26.425434,23.615605,31.865917,39.725312,40.465638,38.39879,40.52787,50.865148,51.861083,50.094355,30.14748,58.48106,82.061634,101.275967,61.729374,96.474072,111.078724,119.143032,53.12534,91.177769,107.226345,114.982327,44.339413,78.103203,92.706631,99.911259,35.369431,60.331971,71.888192,78.544854,-16.559237,-19.451009,-17.619813,-18.120596,9.322695,25.585802,31.919801,35.884227,28.341402,46.378289,51.671411,53.878803,42.937643,61.117915,65.464514,65.960963,52.810126,69.626961,73.512446,73.514656,35.247299,277.05093,-82.401089,259.54738
84,-19.131477,9.974865,-1.670711,7.307161,-1.827919,-9.33831,-18.18148,-24.709145,-21.346459,-12.071663,-6.053089,-2.636021,-26.957268,-17.625115,-9.660954,-1.954617,-31.003647,-22.664097,-14.495705,-7.307819,-34.239464,-29.748653,-23.507389,-18.207745,-20.459579,-27.098353,-25.267639,-21.001253,-4.826684,5.166632,6.173386,4.988779,14.074216,24.451545,25.873707,24.103545,28.883076,38.43295,38.971265,37.327642,40.203273,51.29519,50.80115,47.71027,30.336044,58.474296,82.838173,102.995109,60.210274,93.264335,110.287674,121.989143,50.874641,87.918365,107.492775,120.055572,41.724712,75.305614,93.460052,105.27285,32.983864,58.648281,72.936619,83.518226,-14.067336,-16.418459,-14.077155,-15.579666,11.783251,27.698876,35.276393,40.773044,30.007749,47.747605,55.020321,59.159069,43.739707,61.777792,67.43108,69.300771,52.784895,68.896479,73.237459,74.350127,16.269247,286.998443,-83.918375,266.827189
85,-25.640728,10.675078,0.460579,6.835561,6.583282,8.337147,6.680592,4.840576,-5.847862,15.828632,28.48312,36.397442,-13.383213,8.058987,23.916653,38.018131,-19.361492,0.42984,16.45927,29.549412,-24.285828,-11.354256,1.213486,12.000114,-22.54452,-30.79393,-29.945591,-26.49935,-8.395562,3.202648,6.862397,7.753752,10.562408,22.493896,25.256499,24.321499,25.486198,35.059883,35.689354,34.438266,37.404472,47.7047,46.325295,42.538475,30.37128,57.830417,82.068786,102.354378,59.534408,91.350197,108.959724,122.11885,50.116058,85.698601,106.058807,120.413612,41.145126,73.464947,92.432441,105.919327,32.70536,57.501011,72.396961,84.685249,-12.901489,-14.944687,-12.358937,-14.516904,14.797239,30.128483,38.096558,44.031885,32.246991,49.420954,56.914712,61.200068,45.025214,62.7842,68.953573,71.181095,53.219012,69.394569,74.156267,75.700225,-9.217323,297.671616,-83.303638,273.660845
86,-2.360321,5.805131,1.192577,6.102373,9.867668,13.60255,12.962986,10.803326,-2.420517,21.590389,35.71233,44.231174,-10.767517,12.964565,31.114506,46.056484,-17.979103,5.03857,23.800266,38.248821,-23.881165,-7.428154,7.718662,20.069172,-23.750727,-35.478427,-37.758882,-37.226828,-12.46106,1.368871,6.582174,8.459189,7.046142,22.037685,26.381221,26.549009,23.10451,35.015003,37.158088,36.935663,36.541301,48.55267,47.511891,43.776189,29.449665,56.370175,80.425312,100.773869,58.645283,90.251759,107.891453,121.05447,49.291901,85.14806,105.701923,120.037274,40.426598,73.44801,92.30714,105.640263,32.326183,58.057915,73.362476,86.010418,-12.938848,-14.739144,-11.747707,-13.592365,16.243211,31.801104,39.651693,45.259236,33.595411,50.215756,56.79793,60.227215,45.799157,62.828031,68.016832,69.505807,53.325754,68.566176,72.544718,73.611938,-11.443989,303.488868,-81.977406,279.775339
87,-5.226013,5.441632,0.928551,4.507064,10.696724,16.78696,17.71899,15.632114,0.455303,25.263164,40.844158,50.345707,-7.171944,18.532505,37.766224,53.418926,-13.254673,11.889896,31.399967,46.214344,-18.050331,-0.138417,15.367687,27.921421,-23.640441,-35.869777,-38.404397,-38.650954,-12.545868,1.051906,6.697054,9.264908,6.167507,20.577411,25.015623,25.487976,21.406546,32.949192,34.989858,34.976063,34.123809,44.894402,44.023029,40.404764,28.505607,55.290241,79.590946,99.985622,56.870567,89.079128,107.05505,120.359218,47.856548,84.388309,105.159107,119.061779,39.540298,73.459797,92.369877,105.177807,32.343761,58.848759,74.316089,86.654949,-13.712556,-15.202964,-11.541658,-12.974083,16.504341,33.017266,41.109448,46.636887,34.248705,51.303638,56.896941,58.865013,46.398531,63.31266,67.260673,67.156031,53.631246,68.334686,71.34135,71.182293,-16.527082,308.95198,-80.905935,284.303883
88,0.47866,5.893842,0.289467,3.04332,9.356507,15.256977,15.985188,13.561833,0.005986,24.807919,40.272732,49.57362,-7.04338,19.197041,37.797192,52.80534,-12.303154,13.350941,31.441807,45.012852,-16.459991,1.481118,16.201115,27.573086,-23.131618,-36.550699,-40.676577,-42.822404,-13.869884,-1.31232,3.308315,4.990693,4.419452,17.681354,20.731453,19.986818,19.299474,29.771936,30.396529,28.998401,31.997174,41.393895,39.269952,34.593878,27.819431,54.673221,79.212558,99.816364,55.715973,88.358265,106.53265,119.973369,47.004421,84.018894,105.019214,118.698589,39.106167,73.713375,92.602375,104.911068,32.584236,59.657261,75.234752,87.183529,-14.293689,-15.33942,-11.178072,-12.437497,16.912338,33.809079,41.851761,47.087529,34.88366,51.677376,56.311188,57.055861,46.918889,63.305275,66.145287,64.738069,53.894598,67.876855,70.070168,68.937246,-15.893326,314.88006,-80.461372,287.381441
89,5.865052,1.065405,-0.329808,1.889451,7.554702,10.95924,9.519687,5.439044,-6.691029,16.164768,32.081234,42.171009,-13.947865,10.771167,30.11063,45.898807,-18.591397,5.29557,24.006443,38.148777,-21.806889,-5.106743,9.730007,21.117794,-22.12174,-35.40371,-39.320045,-41.487188,-12.190804,-0.108916,4.175056,5.245697,5.896522,18.643659,21.244611,19.850102,20.64194,31.068102,31.082168,28.939491,33.157167,42.384309,39.728276,34.644154,27.661938,54.711926,79.271462,100.116326,55.428772,88.166817,106.508286,119.998879,46.923626,83.997437,104.851273,118.291466,39.303727,74.047486,92.720765,104.590851,33.139401,60.309094,75.878472,87.551812,-14.780616,-15.45903,-10.737532,-11.399818,17.603005,34.439971,42.328549,47.230618,35.454419,51.608808,55.457032,55.226642,47.241659,62.927906,64.959013,62.594071,53.963747,67.416099,69.152866,67.310357,-9.884433,315.996637,-80.647339,289.322064
90,3.482597,0.951648,-0.006248,1.024711,7.342621,9.281673,6.858799,2.201397,-10.315945,11.496563,27.41827,37.370258,-17.663086,6.466381,25.697033,41.542774,-21.806591,1.311722,19.199123,32.71899,-24.524677,-8.2836,5.827892,16.367901,-21.876183,-35.084633,-38.402668,-39.758448,-11.750215,1.193388,5.024062,5.814011,6.111327,19.230091,21.471396,20.165869,20.527454,31.313522,31.024481,29.02189,32.707229,42.369242,39.407013,34.168281,27.677559,54.785294,79.328728,100.417168,55.015663,87.877121,106.388763,119.752373,46.32732,83.685516,104.553772,117.688362,38.610077,73.625221,92.126793,103.447014,32.464771,59.744808,75.292191,86.695999,-14.909909,-15.238038,-9.92113,-9.967344,17.978274,35.108987,42.887044,47.488673,35.821883,52.190893,55.568257,54.715484,47.522043,63.225061,64.747827,61.772914,54.112417,67.663483,69.212171,67.009954,-6.234655,317.003891,-80.486406,290.402381
91,4.258003,0.157191,0.071171,0.907669,5.945389,6.17403,2.453121,-3.016273,-15.084183,5.117741,21.815197,33.28719,-23.183739,-0.672375,19.842098,37.518345,-27.254963,-6.143051,13.125652,28.242954,-29.564575,-14.996429,-0.410099,11.066883,-21.076922,-34.0689,-37.359826,-38.655597,-10.997093,1.161908,5.974155,7.584025,6.986837,19.213604,22.678654,22.086567,21.644532,31.67128,32.215129,30.753805,34.049215,43.335451,40.760015,35.854809,27.576553,54.827305,79.407978,100.633884,55.135036,87.969028,106.428943,119.626659,46.302051,83.655933,104.366764,117.317287,38.373928,73.438122,91.7887,102.867771,32.019401,59.408615,74.906742,86.169582,-15.031198,-15.182104,-9.638448,-9.497905,18.150064,35.415467,42.913573,47.078453,35.87426,52.467041,55.725227,54.606557,47.525847,63.415599,64.874798,61.730294,54.118568,67.831025,69.343774,67.006472,-1.789971,317.216179,-80.228554,291.365147
92,-5.883282,2.304118,-0.161637,0.428598,7.772862,10.389634,9.143624,5.866826,-8.016586,12.169053,27.969704,38.59623,-15.864498,6.196473,25.445549,42.195649,-20.546012,0.193898,18.096062,32.095414,-23.9561,-9.287944,4.319481,14.78936,-21.817161,-35.507166,-39.02237,-39.879268,-12.84185,-1.318742,3.188989,4.632244,5.061472,17.195712,20.502298,20.198325,19.753698,29.796995,30.144168,28.813792,32.191305,41.416829,38.731464,33.943572,27.489441,54.752873,79.301594,100.5752,55.708867,88.362866,106.580944,119.578938,46.767975,84.021183,104.561222,117.59309,38.529992,73.475842,91.647595,102.583592,31.76223,59.000142,74.402287,85.609257,-14.919147,-15.061173,-9.440848,-9.060354,18.541228,35.546143,42.535314,46.115096,35.994624,52.067083,55.382388,54.409103,47.47442,63.106414,64.8138,61.975554,54.011356,67.716082,69.488813,67.380061,-7.485775,319.567175,-80.202713,291.840623
93,10.634331,-3.911641,-0.238037,0.217361,5.618603,3.841049,-1.167961,-7.302418,-18.151497,-0.561584,14.920258,25.682739,-26.135673,-7.030609,12.63945,30.102242,-30.835567,-12.605083,6.4086,21.572388,-33.976135,-20.863998,-6.807266,4.240837,-21.495405,-34.115152,-35.835864,-35.153337,-10.132477,1.840125,5.772465,6.310953,8.383137,21.025052,23.89216,22.920172,23.697893,34.30906,34.183373,32.42482,36.618562,47.060124,43.620515,38.352044,27.529415,54.755059,79.287976,100.606167,55.754849,88.384541,106.595043,119.494183,46.7864,84.103443,104.5956,117.605793,38.484524,73.450367,91.57861,102.381878,31.625782,58.85241,74.312542,85.544232,-14.833424,-14.996495,-9.342837,-8.674821,18.756675,35.70851,42.448715,45.735628,36.148,51.982238,55.173808,54.108206,47.575642,63.113207,64.827818,61.978308,54.053063,67.768422,69.623602,67.484679,3.321161,315.692205,-80.268145,292.094655
94,-7.532615,3.757599,-0.07838,0.24389,7.631481,9.032341,7.305404,3.937236,-10.426827,9.209564,24.838943,35.006103,-18.299023,3.334602,22.275924,38.712867,-22.808808,-2.891945,14.533882,27.961967,-25.846207,-11.368859,1.47068,11.120018,-22.474112,-35.869753,-38.193742,-37.677817,-12.296953,-1.367204,2.331868,3.235808,5.87733,17.571055,20.137278,19.403016,20.55397,30.297802,30.079712,28.665726,32.664905,41.835089,38.550337,33.712798,27.490745,54.698593,79.27581,100.634102,55.554451,88.243149,106.55191,119.481239,46.537513,84.058937,104.612571,117.681221,38.215816,73.367111,91.516891,102.283951,31.379825,58.671913,74.202896,85.480659,-14.745258,-14.9251,-9.350371,-8.611639,18.723675,35.695282,42.254572,45.274438,36.107491,52.055745,55.167768,53.992176,47.524969,63.210265,64.879391,61.913544,53.991485,67.746587,69.631172,67.438291,-4.047334,319.466251,-80.182405,292.354992
95,12.209255,-2.880472,-0.148236,0.177606,4.508205,0.714626,-5.936497,-12.877625,-21.485951,-4.871258,10.424823,21.101658,-29.504734,-11.426113,8.052898,25.223018,-34.080769,-17.421971,1.1338,15.886379,-36.790879,-24.970013,-11.716885,-1.271656,-21.663835,-34.04068,-35.688033,-35.309565,-9.817093,0.868149,3.958955,4.165189,8.737634,20.283281,22.324021,21.002303,24.032692,33.705783,33.057849,31.107462,36.717845,46.192803,42.412777,37.380958,27.378697,54.561367,79.172093,100.419629,55.587296,88.181065,106.478817,119.354199,46.629399,84.239193,104.805279,117.979786,38.310208,73.520726,91.612622,102.307743,31.438534,58.786858,74.322911,85.536999,-14.803846,-15.050243,-9.581033,-8.61727,18.870518,35.725503,42.143347,44.960957,36.178616,51.972321,54.979554,53.74641,47.534356,63.114701,64.708788,61.690181,53.983507,67.599732,69.474302,67.2461,8.307392,316.597267,-80.18517,292.544086
96,-7.809334,4.429715,-0.158718,-0.011979,6.699634,6.31683,2.794613,-1.786022,-12.766514,5.623112,20.942562,30.875141,-20.33131,-0.133793,18.539829,34.449886,-24.749027,-6.671207,10.191982,23.120579,-27.544441,-14.751274,-2.786007,6.248325,-22.939907,-36.487701,-39.007698,-39.153738,-12.454378,-3.034007,-0.494509,-0.086487,5.621264,16.096381,17.544243,16.451891,20.142009,28.828785,27.907901,26.237763,31.909736,39.981626,36.282295,31.633427,27.343678,54.441994,79.066155,100.370201,55.456593,88.105683,106.425888,119.260483,46.565312,84.385254,105.008927,118.246033,38.337319,73.705925,91.808441,102.470764,31.567829,58.938813,74.512619,85.737442,-14.803797,-15.099532,-9.659963,-8.506441,19.016372,35.80957,42.107939,44.765924,36.342229,52.014088,54.823399,53.436385,47.687064,63.157135,64.603169,61.481834,54.107958,67.677809,69.516539,67.198527,0.624556,321.036745,-80.21739,292.54187
97,9.586201,-3.78919,-0.042091,0.156846,4.673195,0.274383,-7.23983,-14.69426,-22.505139,-5.365105,10.335914,20.702774,-30.514744,-11.727356,7.988433,24.611412,-35.118039,-18.082844,0.60189,15.071685,-37.787728,-25.90915,-12.626702,-2.275864,-22.345498,-34.662594,-36.297658,-36.162351,-10.853747,-0.515221,1.640115,1.343429,7.928506,19.214937,20.35007,18.588492,23.235173,32.553002,31.396046,29.243389,35.819845,44.768629,40.696893,35.678597,27.224144,54.287475,78.909553,100.20845,55.272274,87.98291,106.311081,119.181198,46.469032,84.423042,105.108009,118.403,38.384354,73.849525,91.979965,102.697884,31.803085,59.146168,74.728271,85.963028,-14.887963,-15.166778,-9.758776,-8.449334,19.098698,35.870542,42.10968,44.725354,36.482538,52.144233,54.786027,53.302548,47.862917,63.323158,64.548409,61.301474,54.28039,67.777659,69.395557,66.934433,10.344017,317.256716,-80.126221,292.707877
98,-10.862412,3.272426,-0.106625,0.064232,6.854336,6.685249,3.728829,-0.251152,-13.380043,6.399422,22.698715,32.827744,-21.209884,1.059334,20.631432,36.979317,-25.580189,-5.33044,12.645836,26.313194,-28.266392,-13.89331,-0.818802,9.068665,-23.138534,-36.553626,-39.061829,-38.491798,-13.033227,-2.874791,-0.027232,0.708215,5.510977,16.263972,18.134552,17.167578,20.215022,28.944925,28.331237,26.760726,32.097259,39.967892,36.469731,31.724706,27.108433,54.198372,78.836483,100.062321,55.168362,88.004734,106.396855,119.394551,46.429505,84.543904,105.319943,118.714794,38.456784,74.071507,92.295994,103.146046,32.020329,59.39225,74.984516,86.255345,-14.884986,-15.1124,-9.7722,-8.425893,19.136774,35.95051,42.163787,44.763195,36.542474,52.241676,54.762242,53.22336,47.954568,63.398383,64.467443,61.155188,54.388516,67.877782,69.372723,66.870794,-0.378588,320.538019,-80.093039,292.780986
99,7.97525,-4.061263,-0.099483,0.204938,4.711728,1.167664,-4.812812,-10.832931,-22.58369,-4.047912,12.717087,23.411225,-30.558803,-9.400154,11.086739,28.10273,-34.781444,-15.196621,4.332665,19.394921,-37.183731,-23.498531,-9.253372,1.691506,-22.128692,-34.723961,-36.637026,-35.660665,-10.559098,0.781661,3.521527,3.686265,8.531252,20.191804,22.086665,20.619068,23.927556,33.437959,32.723791,30.656857,36.502286,45.602519,41.889948,36.658428,27.00943,54.093887,78.728027,99.920929,54.997238,87.966087,106.370682,119.397743,46.350632,84.699692,105.547897,118.981361,38.54369,74.390259,92.661941,103.586746,32.328209,59.785812,75.378135,86.61676,-14.935869,-15.232147,-9.932048,-8.29891,19.046371,35.906777,42.055883,44.615043,36.600914,52.271983,54.645261,53.008603,48.11455,63.458873,64.311658,60.877434,54.560638,67.932011,69.217012,66.565561,7.716167,316.488571,-80.073017,292.997739
100,-9.924785,2.922289,-0.060368,0.092514,6.967094,7.388042,6.169224,4.000431,-14.869503,6.412685,23.95824,34.502414,-22.846333,2.222843,22.797878,39.542461,-26.631249,-3.458153,15.572605,29.847164,-28.654667,-12.153992,1.913944,12.368259,-22.435456,-36.254729,-38.957582,-37.375549,-12.748397,-1.279333,2.116483,3.196041,6.008315,17.556334,20.361148,19.797824,20.757771,30.095595,30.09105,28.793328,32.608651,41.075176,37.984531,33.074163,26.923428,54.095513,78.765988,100.007092,54.766274,88.021946,106.456433,119.518009,46.131157,84.892491,105.814373,119.231907,38.461304,74.668568,93.003857,103.973797,32.499275,60.13765,75.712155,86.871426,-14.947996,-15.211683,-9.900122,-8.206617,18.810114,35.878286,42.024515,44.615858,36.54755,52.18452,54.494986,52.856167,48.214549,63.43295,64.145636,60.712511,54.697453,67.964974,69.050892,66.316608,-2.093645,319.419425,-80.018412,293.098818
101,-1.381886,-0.70372,0.014614,0.091984,6.083851,6.564675,6.98719,6.853524,-16.04393,6.205605,24.197846,34.896721,-23.973987,2.80719,23.562035,40.32209,-27.16357,-1.82912,17.440064,31.733391,-28.202419,-10.345711,3.916146,14.287674,-20.911617,-34.641685,-38.145502,-37.090595,-11.668346,0.615404,4.461072,5.746394,6.894248,18.915719,22.150354,21.766995,21.611038,31.334407,31.610456,30.30998,33.487656,42.362882,39.687064,34.802285,26.814206,54.080166,78.826104,100.031525,54.693341,88.056839,106.496315,119.56691,46.059048,84.996941,105.966843,119.379319,38.445866,74.812867,93.156121,104.126015,32.601769,60.322403,75.889069,86.989609,-14.946515,-15.195369,-9.929763,-8.233047,18.666408,35.902628,42.113324,44.74767,36.51676,52.106677,54.453625,52.880002,48.325958,63.425181,64.038758,60.578327,54.90917,68.079273,69.012458,66.19181,-3.361937,318.718129,-79.890204,293.193226
102,-12.179661,2.176924,-0.071102,-0.014907,7.985779,13.3415,18.522595,21.527699,-5.022937,19.49667,37.503766,48.865849,-12.354137,17.157132,37.209012,53.653073,-15.272415,12.527813,30.31358,43.404431,-16.048484,3.185704,16.44936,26.003712,-20.677348,-34.789577,-38.840663,-38.48135,-11.546178,0.928479,5.125951,6.680987,6.38398,18.641968,22.318513,22.527168,20.199079,30.131534,30.640839,29.392962,30.894003,39.916541,37.684338,32.983538,26.75766,54.080567,78.939411,100.12888,54.462513,88.046459,106.543064,119.665547,45.844597,85.015217,106.076626,119.546116,38.357266,74.919743,93.319096,104.313183,32.692475,60.493355,76.092213,87.207585,-14.840896,-15.160862,-9.958205,-8.34894,18.582761,35.935899,42.196403,44.86123,36.523405,51.979496,54.374016,52.847682,48.430218,63.32464,63.937216,60.479897,55.091853,68.202515,69.187261,66.381557,-15.458868,320.896152,-79.878576,293.179418
103,10.832428,-3.117902,0.0248,0.278754,5.968152,7.105637,7.548993,7.007515,-15.249904,6.822178,25.592114,38.10426,-23.027114,3.856064,25.218098,42.677823,-26.05299,-0.843635,18.738888,33.318501,-26.666713,-9.565807,4.762928,15.415707,-19.977048,-33.225426,-36.565728,-36.38659,-9.695518,3.343773,7.233616,8.104532,8.779847,21.537433,24.959467,24.688186,23.223157,33.577466,33.838633,32.206916,34.531139,44.316888,41.740105,36.848892,26.631088,53.964202,78.90969,100.120307,54.274841,87.959861,106.481735,119.600715,45.752735,85.050132,106.14228,119.632965,38.393611,75.055732,93.422744,104.372612,32.87907,60.702621,76.260612,87.325882,-14.944082,-15.400343,-10.25909,-8.756283,18.373452,35.613463,41.827642,44.428223,36.406116,51.632458,54.058694,52.559641,48.402418,63.033264,63.619708,60.160721,55.174771,68.129081,69.094462,66.290808,-4.559973,317.779346,-79.787309,293.459268
104,-4.200668,2.555208,0.00888,0.027812,6.534336,9.044632,11.144474,11.497078,-11.853481,11.83382,30.83923,43.274471,-19.303242,9.770416,31.004368,48.50774,-21.483501,5.565262,24.491718,38.547031,-21.192066,-2.835503,11.089382,21.343655,-20.185086,-33.869941,-37.575608,-37.641569,-10.156115,2.366893,6.445372,7.843241,7.706612,19.773754,23.408593,23.590942,21.360183,31.032879,31.578963,30.441162,31.808995,40.752715,38.538926,33.976003,26.494206,53.822777,78.839722,100.019966,54.214955,87.909027,106.414513,119.507675,45.756855,85.033768,106.191467,119.78421,38.406292,75.053742,93.393265,104.270142,32.858723,60.658756,76.207443,87.273514,-14.963446,-15.453003,-10.339168,-8.999925,18.176543,35.339674,41.587569,44.186335,36.210787,51.301131,53.936416,52.581884,48.255773,62.758549,63.474298,60.101713,55.124716,68.097144,69.202267,66.483013,-8.698465,320.327876,-79.716253,293.480402
105,-1.129051,1.416665,0.047333,-0.022922,6.240291,9.133392,11.417942,11.975395,-10.984314,13.212353,32.132183,44.680813,-18.224384,11.146271,32.37418,50.077457,-20.280293,6.970825,25.956882,40.17976,-19.806667,-2.067959,11.925648,22.427067,-20.050383,-33.833927,-38.413066,-40.106954,-11.224397,0.848834,4.744062,5.885951,6.35518,18.383258,21.74442,21.826313,20.094968,29.774135,30.150862,28.888103,30.771429,39.773231,37.561109,33.073397,26.375702,53.613338,78.654877,99.747574,54.098728,87.769867,106.252716,119.332191,45.710609,84.846908,106.060112,119.812134,38.361854,74.929047,93.282921,104.200813,32.734508,60.464092,76.059883,87.261703,-14.920715,-15.485101,-10.408637,-9.020735,18.141049,35.122424,41.369652,43.927934,36.137515,51.128884,53.992683,52.787105,48.171311,62.622995,63.535469,60.243974,55.106685,68.111186,69.400634,66.76273,-9.78253,321.731583,-79.623934,293.444522
106,-4.01199,-1.838075,0.023975,0.072396,7.483326,12.598103,15.512856,15.236195,-6.704796,18.020531,36.914109,50.041672,-13.669441,16.170422,37.230538,54.897698,-16.025505,11.585392,30.143624,44.151879,-16.043884,1.907193,15.899002,26.517403,-20.202561,-33.162947,-36.750745,-38.190703,-9.703917,3.525381,7.313546,8.017735,7.889134,21.155555,24.447421,24.459659,21.459417,32.383361,32.441295,30.725844,31.740848,41.796755,39.294134,34.597188,26.308045,53.457402,78.42017,99.430996,53.962029,87.644245,106.046459,119.032963,45.617272,84.733212,105.935589,119.762547,38.255608,74.833958,93.162289,104.078785,32.550728,60.320481,75.917691,87.182179,-14.994976,-15.656829,-10.556801,-9.121758,17.662644,34.614392,40.896076,43.481504,35.742547,50.812476,53.895921,52.828948,47.853235,62.401336,63.523687,60.372921,54.861919,67.920995,69.351295,66.836288,-13.761818,319.864726,-79.567257,293.488136
107,13.098622,-2.407661,0.112713,-0.166046,5.478698,5.008037,2.346714,-1.813431,-18.959553,3.632595,22.583187,35.076358,-26.501095,0.938759,22.891582,40.983913,-28.820961,-3.449936,16.805019,32.094143,-28.631985,-12.01545,3.039905,14.498874,-20.143194,-32.674551,-35.820438,-36.918435,-9.066529,3.901502,7.273198,7.689038,9.199453,22.094545,24.812205,24.087601,23.580519,34.133615,33.810994,31.913972,34.834877,44.662604,41.635018,36.659886,26.352928,53.377945,78.207756,99.164749,53.696972,87.400543,105.731735,118.57663,45.343037,84.516701,105.751076,119.598519,37.901596,74.587738,92.93882,103.818466,32.077297,59.957119,75.6175,86.96402,-15.03236,-15.743169,-10.533139,-8.847142,17.278271,34.269045,40.572293,43.195277,35.436486,50.649021,53.954793,53.030784,47.61473,62.304189,63.653646,60.649365,54.66039,67.829591,69.443957,67.036543,-0.643833,317.419715,-79.435181,293.28474
108,-6.821617,1.929824,0.052654,-0.133925,7.077209,9.178264,9.271625,7.025859,-13.00121,12.078701,30.683132,42.483524,-20.277215,9.798442,31.100658,48.575466,-22.134819,5.460742,24.600322,38.95856,-21.547749,-3.240189,11.122295,21.880085,-20.512523,-33.339813,-36.743199,-38.161582,-9.914041,2.804543,6.298715,7.216548,7.795817,20.429037,23.133792,22.619892,21.565912,32.047501,31.85374,30.281451,32.250795,41.891368,39.138189,34.358497,26.38884,53.306614,78.029263,98.961331,53.560627,87.227246,105.468762,118.181637,45.127613,84.276387,105.485424,119.345593,37.580235,74.294392,92.634419,103.509282,31.630978,59.547799,75.247868,86.702511,-15.025542,-15.822234,-10.5579,-8.561954,16.901162,34.040767,40.432898,43.137578,35.085312,50.531672,54.009368,53.202859,47.308831,62.221901,63.754151,60.852623,54.368336,67.685899,69.452554,67.125884,-7.461788,319.292083,-79.378865,293.093359
109,-5.562424,1.101245,0.031369,-0.341973,7.885242,11.999096,14.553966,14.926998,-7.146641,17.817318,35.856182,47.590084,-14.456017,14.874172,35.483242,52.672657,-16.967961,10.108646,28.625484,42.785625,-17.207188,0.817566,14.723865,25.373943,-20.351602,-33.534191,-37.930154,-40.134372,-11.084014,1.416863,5.106018,6.294713,6.375433,19.306501,22.235026,21.945009,20.123915,30.95022,31.045723,29.628934,30.850468,40.676206,38.273745,33.686072,26.553932,53.350032,77.910965,98.814605,53.574566,87.164703,105.303428,117.930656,45.025955,83.984687,105.050926,118.767791,37.360862,73.840439,92.201019,103.097717,31.257728,59.08905,74.799797,86.301223,-14.968634,-15.70765,-10.316074,-8.175841,16.932864,34.109877,40.556373,43.348282,35.034713,50.566634,54.176069,53.45375,47.175091,62.232349,64.04171,61.305142,54.184097,67.627297,69.575164,67.381456,-13.036342,320.333514,-79.359626,292.691572
110,-4.918625,-1.947794,-0.09327,-0.209013,9.300224,15.193989,18.828655,19.761211,-2.275394,23.042599,40.862263,52.628345,-9.153259,20.05917,40.25964,57.063732,-12.074421,14.953548,33.12022,47.044544,-13.10598,5.262394,19.188297,29.947735,-20.488428,-33.193378,-36.579499,-38.094273,-9.907211,2.908457,6.665871,7.967471,7.697288,21.068302,24.010154,23.810626,21.443313,32.759631,32.95212,31.585707,32.043598,42.571846,40.2865,35.740521,26.700829,53.476193,77.983315,98.948387,53.611084,87.179535,105.295235,117.909851,45.045651,83.854225,104.833809,118.420716,37.342678,73.653511,92.029473,102.904312,31.178238,58.936924,74.62571,86.125717,-14.961359,-15.696189,-10.247395,-8.067864,16.842289,33.983907,40.461142,43.327213,34.879547,50.465932,54.201202,53.553551,46.9798,62.146837,64.151638,61.5413,53.984668,67.557309,69.666333,67.623703,-17.971407,318.326813,-79.469336,292.423652
111,11.939529,-1.96612,-0.002987,-0.31657,7.55856,8.229092,6.600666,3.959656,-12.735969,10.206723,27.533581,38.702328,-20.305423,5.468892,26.285443,43.691586,-23.589683,0.277005,20.110989,35.660488,-24.970024,-8.518043,6.450726,18.452534,-20.772049,-33.242717,-36.049286,-36.949051,-10.006025,2.258817,5.532466,6.448151,8.338701,21.179489,23.807451,22.959655,23.043512,33.666645,33.803435,32.45257,34.765074,44.990115,42.316384,37.458528,26.828362,53.545624,78.04002,99.085888,53.683526,87.166226,105.271649,117.920071,45.090718,83.638562,104.554287,118.066212,37.321312,73.379872,91.780873,102.689427,31.054631,58.65065,74.327282,85.869244,-14.825175,-15.522683,-10.020363,-7.792334,17.173988,34.125204,40.554472,43.423742,35.026686,50.554457,54.397605,53.835528,46.970945,62.168808,64.371939,61.874963,53.91032,67.577996,69.854709,67.930838,-6.055315,316.314791,-79.49576,292.06118
112,-7.028606,2.051077,-0.031139,-0.14893,8.512413,12.165596,14.434158,15.106167,-6.670315,17.404655,34.885025,46.333694,-13.942658,13.030586,33.446617,50.923965,-16.715115,8.092987,27.135521,42.200455,-17.71027,-0.363384,14.049522,25.644585,-21.131967,-34.061429,-37.062808,-37.560047,-11.144431,0.559792,4.437557,6.242744,6.665228,19.021448,22.27031,22.143561,20.768479,31.188935,31.921702,31.25828,31.855395,41.739845,39.657732,35.238354,26.928669,53.606861,78.112679,99.236137,53.894405,87.233345,105.338242,118.047295,45.269451,83.523834,104.319672,117.782433,37.443123,73.169014,91.500458,102.392555,31.075333,58.430283,74.031899,85.55365,-14.63754,-15.369554,-9.940865,-7.758173,17.443701,34.179928,40.60838,43.476786,35.112248,50.603574,54.519254,53.977999,46.9016,62.164017,64.496861,62.033711,53.801023,67.556544,69.938912,68.064207,-13.111479,318.323226,-79.554457,291.869608
113,3.774765,-2.106591,0.093555,-0.331006,8.538551,10.878914,10.958954,9.713711,-8.690334,13.698349,30.704224,42.007713,-16.49968,7.844833,28.273361,45.728691,-20.340855,2.398098,22.197189,37.909103,-22.447002,-6.546536,8.4608,20.82019,-20.864736,-33.285806,-35.948076,-36.44103,-11.177529,0.708462,4.394851,5.780147,7.132642,20.100932,23.405629,23.144771,22.057544,32.863594,33.598337,32.715566,34.123451,44.422357,42.072482,37.444264,27.026185,53.663979,78.109097,99.239148,54.020817,87.273892,105.339444,118.050717,45.350018,83.336941,104.034062,117.398587,37.452897,72.880108,91.215786,102.116765,30.984501,58.137761,73.716488,85.23705,-14.492229,-15.111351,-9.641018,-7.42051,17.899826,34.453642,40.817207,43.612105,35.41333,50.88308,54.867661,54.319663,47.024371,62.373016,64.842304,62.426702,53.81683,67.671288,70.165684,68.354309,-9.366669,316.18898,-79.490857,291.510947
114,1.991569,-1.424434,0.147904,-0.173544,8.148022,9.826264,9.351059,7.582249,-11.233692,11.046067,28.11747,39.376145,-18.907894,5.532601,26.136155,43.848473,-22.390789,0.379979,20.514771,36.402718,-24.070941,-8.016586,7.239029,19.737694,-21.087062,-33.16338,-35.028304,-34.617392,-10.428459,1.650589,5.318934,6.540135,8.157514,21.039601,24.335035,23.866843,23.179759,34.020328,34.639511,33.586407,35.240936,45.767615,43.193475,38.315674,27.081448,53.695015,78.116444,99.225986,53.822353,87.038418,105.106853,117.839344,45.143452,83.114056,103.804035,117.209164,37.283363,72.730831,91.073215,102.041302,30.866913,57.992157,73.585522,85.18285,-14.374421,-15.025135,-9.575031,-7.247115,18.024167,34.567226,40.9126,43.681501,35.535819,51.070098,55.033128,54.46316,47.132459,62.539817,65.011266,62.593429,53.92619,67.798593,70.294298,68.472723,-7.419531,314.742291,-79.387384,291.315148
