takenoko1/special-research/HandMotion_SimilarSearch_自分用/NewProject/handData/key/d4_feature_d3/17.csv
,vel_0x_L,vel_0y_L,vel_0x_R,vel_0y_R,posFromWrist_1x_L,posFromWrist_2x_L,posFromWrist_3x_L,posFromWrist_4x_L,posFromWrist_5x_L,posFromWrist_6x_L,posFromWrist_7x_L,posFromWrist_8x_L,posFromWrist_9x_L,posFromWrist_10x_L,posFromWrist_11x_L,posFromWrist_12x_L,posFromWrist_13x_L,posFromWrist_14x_L,posFromWrist_15x_L,posFromWrist_16x_L,posFromWrist_17x_L,posFromWrist_18x_L,posFromWrist_19x_L,posFromWrist_20x_L,posFromWrist_1y_L,posFromWrist_2y_L,posFromWrist_3y_L,posFromWrist_4y_L,posFromWrist_5y_L,posFromWrist_6y_L,posFromWrist_7y_L,posFromWrist_8y_L,posFromWrist_9y_L,posFromWrist_10y_L,posFromWrist_11y_L,posFromWrist_12y_L,posFromWrist_13y_L,posFromWrist_14y_L,posFromWrist_15y_L,posFromWrist_16y_L,posFromWrist_17y_L,posFromWrist_18y_L,posFromWrist_19y_L,posFromWrist_20y_L,posFromWrist_1x_R,posFromWrist_2x_R,posFromWrist_3x_R,posFromWrist_4x_R,posFromWrist_5x_R,posFromWrist_6x_R,posFromWrist_7x_R,posFromWrist_8x_R,posFromWrist_9x_R,posFromWrist_10x_R,posFromWrist_11x_R,posFromWrist_12x_R,posFromWrist_13x_R,posFromWrist_14x_R,posFromWrist_15x_R,posFromWrist_16x_R,posFromWrist_17x_R,posFromWrist_18x_R,posFromWrist_19x_R,posFromWrist_20x_R,posFromWrist_1y_R,posFromWrist_2y_R,posFromWrist_3y_R,posFromWrist_4y_R,posFromWrist_5y_R,posFromWrist_6y_R,posFromWrist_7y_R,posFromWrist_8y_R,posFromWrist_9y_R,posFromWrist_10y_R,posFromWrist_11y_R,posFromWrist_12y_R,posFromWrist_13y_R,posFromWrist_14y_R,posFromWrist_15y_R,posFromWrist_16y_R,posFromWrist_17y_R,posFromWrist_18y_R,posFromWrist_19y_R,posFromWrist_20y_R,posFromBody_0x_L,posFromBody_0y_L,posFromBody_0x_R,posFromBody_0y_R
7,-1.464112,2.705717,0.369599,0.128317,0.406071,-6.094585,-13.397266,-16.749447,-34.692375,-22.558628,-4.801243,8.843582,-42.882248,-26.930351,-4.679054,15.291481,-45.343895,-30.534427,-8.452228,9.358475,-44.671325,-34.532924,-19.276417,-6.693672,-21.651756,-31.710207,-30.282315,-25.964986,-8.69237,3.584847,8.340777,10.319705,9.694605,22.221775,26.440329,27.3067,23.98512,33.763323,35.042075,34.806942,35.385531,43.681242,41.52735,37.953187,27.091861,53.760086,77.957176,98.857566,53.025558,86.258388,104.273597,117.371521,43.786319,81.578361,102.481842,116.317016,35.669071,70.762825,89.893604,102.244995,29.27338,56.177467,71.875374,83.750301,-14.666797,-13.677469,-7.266652,-6.105127,19.220977,37.624267,44.683105,48.37058,36.753969,54.220579,58.388584,58.194576,48.205262,65.213499,67.931517,66.024479,54.502297,68.972901,71.872317,71.225642,11.120012,301.132698,-89.830816,277.094535
8,-2.186703,2.081718,0.347088,0.135653,0.911431,-4.198276,-10.889568,-14.091636,-30.49554,-19.001998,-1.950164,11.541401,-38.405376,-23.234836,-1.745555,17.583035,-41.241588,-27.037124,-5.948661,11.208928,-41.201053,-31.37289,-16.80931,-4.926784,-21.405435,-31.913193,-31.762942,-28.791475,-9.697754,0.958885,5.124012,6.695819,8.187932,19.904603,23.834276,24.634277,22.21949,31.270359,32.297207,31.931805,33.559768,41.009585,38.911046,35.558036,26.926071,53.492271,77.650829,98.567058,52.497962,85.893276,103.997097,117.060436,43.315052,81.317676,102.333652,116.122798,35.328208,70.681537,89.821414,102.066478,29.115474,56.233737,71.93803,83.741901,-14.797918,-13.811504,-7.360204,-6.150415,18.789095,37.401916,44.569336,48.294232,36.452183,54.168302,58.327142,58.066198,48.021863,65.133174,67.719281,65.676516,54.387281,68.888007,71.635814,70.79917,9.021291,303.249357,-89.395746,277.265129
9,1.721856,-0.879462,0.228057,0.095504,0.297203,-5.271756,-12.377735,-15.692093,-32.34383,-21.110127,-3.891472,9.864818,-40.448845,-25.442482,-3.807186,15.757702,-43.253403,-29.31506,-8.048504,9.223789,-43.081856,-33.754509,-19.100167,-7.039296,-20.54551,-30.679939,-30.489389,-27.605274,-8.747736,2.552935,7.258033,9.198169,8.75532,20.737826,25.336281,26.679031,22.543655,31.729968,33.382298,33.475133,33.691507,41.342272,39.592944,36.578746,26.792885,53.237263,77.374512,98.310986,52.079991,85.539402,103.685543,116.728558,42.967175,81.093659,102.186276,115.989224,35.105931,70.596634,89.726475,101.894703,29.035916,56.206822,71.908116,83.749009,-14.912206,-13.981232,-7.476765,-6.059297,18.415454,37.199856,44.474042,48.265863,36.152359,54.007021,58.197367,57.949624,47.817506,64.974771,67.562681,65.489226,54.266151,68.859959,71.627267,70.760834,10.805689,302.414834,-89.105147,277.405572
10,5.019184,-0.540316,0.066559,0.005841,-0.331799,-7.440262,-16.47337,-21.093453,-36.221306,-26.34969,-9.332302,4.830734,-44.73872,-31.511822,-9.772934,10.398285,-47.810108,-35.431298,-13.886914,3.941162,-47.724369,-39.731392,-25.018193,-12.696785,-20.891412,-30.803501,-29.816952,-26.483492,-9.41264,2.215617,7.324007,9.45862,8.298515,20.531963,25.381396,26.890588,22.457279,31.717235,33.567351,33.753825,34.026861,41.785627,40.042487,37.116901,26.822182,53.17178,77.304211,98.237698,51.541775,85.117378,103.351147,116.483357,42.577835,80.872101,102.123677,116.032894,34.918694,70.609589,89.80465,101.970555,29.056103,56.334618,72.07037,84.023438,-14.872574,-14.047725,-7.50722,-5.924384,17.887032,36.817881,44.265734,48.269643,35.731481,53.783337,58.10657,57.990121,47.564577,64.831227,67.481122,65.416053,54.150209,68.845386,71.682978,70.813137,15.873585,301.920244,-88.989876,277.457139
11,-8.025719,3.308785,0.269955,0.003211,2.092094,-1.335503,-7.302441,-10.277401,-27.523224,-16.424103,0.582504,14.299553,-35.646583,-20.49028,0.300453,18.980255,-38.422806,-24.755001,-4.696106,11.59227,-38.094486,-29.846844,-16.641758,-5.549057,-20.000613,-30.509323,-31.027507,-29.460714,-10.455802,-0.323412,4.471026,6.656633,6.569478,17.610884,22.191517,23.644344,19.784585,28.200684,29.766144,29.756239,30.466505,37.309636,36.026635,33.311581,26.846157,53.046604,77.053596,97.897293,51.151508,84.719696,102.980232,116.130157,42.313694,80.574898,101.891304,115.833137,34.766247,70.448295,89.644043,101.758049,28.975742,56.310997,72.037342,84.0271,-14.906166,-14.095507,-7.411902,-5.692103,17.732125,36.572744,44.142245,48.317203,35.579316,53.646918,58.090861,58.106842,47.443422,64.730561,67.416692,65.370333,54.065796,68.761752,71.658575,70.822029,7.878914,305.267673,-88.688873,277.498994
12,4.792374,-4.067734,0.303829,0.045609,0.334533,-4.92302,-11.999863,-15.827614,-32.865944,-22.369721,-5.426262,8.523559,-41.222935,-27.322724,-5.934368,13.522018,-44.353112,-31.676525,-10.523266,6.62677,-44.432682,-36.759934,-22.412224,-10.543236,-19.068985,-28.368967,-28.42574,-26.251793,-7.498415,4.811937,10.080656,12.003996,9.173295,21.884716,26.906494,28.263188,22.40794,32.312768,34.302082,34.286903,33.099381,41.828197,40.45125,37.477807,26.808746,52.880688,76.830517,97.617451,50.705589,84.251198,102.524128,115.707996,42.007725,80.221779,101.565365,115.511318,34.616764,70.277619,89.446312,101.487728,28.951996,56.298283,72.013275,84.036759,-14.86898,-14.146167,-7.443345,-5.60653,17.565139,36.359902,44.026228,48.384634,35.406031,53.427482,57.958961,58.119624,47.33384,64.55871,67.302071,65.309656,54.041256,68.694271,71.642766,70.858067,12.701283,301.234766,-88.355049,277.57943
13,4.783413,-2.175826,0.208157,0.043843,-0.380619,-7.590546,-16.51014,-21.787915,-38.462483,-28.10083,-10.692616,3.369564,-47.253537,-33.853924,-12.075051,7.997715,-50.245171,-38.251294,-16.490033,1.354213,-49.910076,-42.796521,-28.220696,-15.786793,-19.52527,-28.40304,-27.349813,-23.967051,-6.687952,7.629091,13.7707,16.208656,10.748993,24.314102,29.813927,31.297802,24.312422,34.839286,37.289407,37.559874,35.241393,44.675794,43.512095,40.529797,26.747142,52.658626,76.527443,97.254478,50.433265,83.974994,102.334533,115.648956,41.817215,79.959881,101.443062,115.529319,34.509956,70.088035,89.404003,101.541824,28.896606,56.188579,71.976425,84.112575,-14.847998,-14.227863,-7.562338,-5.721855,17.612724,36.239106,43.955475,48.426229,35.348826,53.231943,57.891456,58.230651,47.219811,64.435567,67.333007,65.490103,53.910703,68.603053,71.75241,71.133449,17.506422,299.088284,-88.125166,277.652617
14,-12.779618,5.575544,0.227726,0.014919,2.93042,0.295098,-4.453136,-7.023708,-25.479858,-12.769798,4.022541,16.932553,-33.930874,-18.120769,2.379296,21.043293,-37.2625,-23.40406,-3.793831,12.513234,-37.594024,-30.070335,-17.394024,-6.086643,-19.560616,-30.139388,-31.789038,-31.745899,-10.083941,2.610227,8.630645,11.66653,6.982724,19.39962,24.791494,26.821427,20.169401,29.919742,32.088219,32.590287,30.736181,38.813641,37.804812,34.931912,26.690815,52.517727,76.348182,97.047901,50.093296,83.775009,102.306301,115.761509,41.546722,79.773239,101.415676,115.5844,34.344555,69.99472,89.461372,101.689808,28.839409,56.196739,72.056465,84.273239,-14.762412,-14.231692,-7.681912,-6.01286,17.674129,36.122188,43.869049,48.405394,35.367425,53.179949,57.888319,58.303899,47.199026,64.413905,67.335613,65.508258,53.839974,68.551232,71.803243,71.247749,4.730232,304.683477,-87.894012,277.687185
15,-0.921043,-2.573671,0.390667,-0.050228,2.684807,0.106888,-4.338318,-6.935612,-24.896256,-12.043339,4.52972,17.142918,-33.398392,-18.172085,2.494846,21.000286,-37.403893,-23.523537,-3.317814,13.06358,-38.692268,-30.689724,-17.004822,-5.252152,-18.989758,-28.824351,-30.625586,-30.640196,-8.643094,5.48135,11.524714,13.929708,8.223797,22.247352,27.768,29.38281,21.575483,32.971423,35.364671,35.727381,32.29097,41.989972,40.949514,37.742593,26.444996,52.212799,75.961338,96.608596,49.901321,83.654045,102.27214,115.763282,41.344471,79.607185,101.327911,115.507988,34.15036,69.828392,89.395053,101.683845,28.675129,56.059364,71.978851,84.216144,-14.762115,-14.189825,-7.707229,-6.131347,17.962861,36.314256,44.010717,48.475877,35.588788,53.29415,57.995036,58.40512,47.338743,64.530403,67.44238,65.612332,53.887584,68.641066,71.909676,71.368286,3.808279,302.127182,-87.504255,277.654333
16,-2.180431,0.229354,0.215057,-0.030838,2.910495,0.329177,-3.47342,-5.339871,-24.502602,-10.379036,6.529426,19.101471,-33.091942,-16.587559,4.402153,23.424728,-37.16819,-22.174885,-1.732796,15.128746,-38.586399,-29.888775,-15.784562,-3.416565,-19.438388,-29.876134,-31.887617,-31.621263,-9.334613,5.631575,12.09609,14.945699,7.951477,22.292244,28.342018,30.37499,21.647422,33.37154,36.146147,36.839789,32.536205,42.522309,41.542774,38.259678,26.337112,52.138824,75.918961,96.568382,49.85804,83.676144,102.388206,115.937096,41.243156,79.651337,101.444366,115.644173,34.033127,69.856842,89.526535,101.873611,28.598923,56.104935,72.103077,84.380379,-14.796152,-14.219453,-7.84865,-6.385758,18.057722,36.482489,44.09282,48.448978,35.667569,53.334745,57.97451,58.369503,47.414066,64.606233,67.489483,65.657039,53.930932,68.724936,71.993027,71.447412,1.618252,302.372601,-87.298794,277.63956
17,-13.639618,4.920865,0.097755,-0.082943,5.915863,7.968315,8.99477,11.113689,-11.477497,5.438713,21.944458,33.62297,-19.505448,0.141071,19.862194,37.710273,-23.648484,-5.83683,12.617809,28.230148,-25.45031,-15.174374,-2.577256,9.0023,-19.643757,-31.81995,-35.633791,-37.712829,-12.341215,1.095329,7.427513,10.87657,4.631355,18.140592,24.13836,26.773806,18.139233,29.218961,32.004955,33.15471,28.903725,37.649202,37.056867,34.210519,26.35785,52.160363,75.927212,96.59681,50.103974,83.924939,102.671837,116.234963,41.43322,79.854733,101.677758,115.915764,34.136445,69.95517,89.697922,102.079766,28.624546,56.14674,72.209073,84.515614,-14.898386,-14.296876,-7.939399,-6.564884,18.26366,36.582932,44.098921,48.3524,35.79559,53.350083,57.969422,58.38951,47.458415,64.628388,67.52762,65.735228,53.908406,68.740991,72.051986,71.538778,-12.048752,307.304676,-87.228425,277.567827
18,3.822406,-2.139195,0.186219,-0.076077,5.311936,6.146599,5.514107,6.331639,-13.698577,1.913498,18.034596,29.801457,-22.228603,-4.679626,15.173241,33.260754,-27.378593,-10.894146,8.436985,24.597622,-30.325595,-20.51929,-6.673072,5.503167,-19.822685,-31.400109,-34.507365,-35.935701,-11.842506,2.326855,8.566005,11.377736,4.972292,19.634618,25.57481,27.949645,18.839681,31.096952,33.908683,34.88513,30.047294,40.001399,39.190714,36.10039,26.396759,52.202099,75.976295,96.652198,50.503051,84.220939,102.888336,116.320701,41.753128,80.082733,101.773475,115.904937,34.270878,70.021454,89.599674,101.807556,28.557689,56.037494,72.077865,84.338482,-14.983564,-14.356934,-7.965852,-6.59818,18.320619,36.612573,44.057573,48.194418,35.819648,53.353764,57.992677,58.438145,47.458934,64.593772,67.488446,65.670069,53.927574,68.748549,72.031078,71.462196,-8.26335,305.17282,-87.07921,277.499089
19,1.72205,-1.282976,0.135532,-0.188956,4.99989,5.251591,4.345253,5.02097,-15.985428,-0.213066,16.270615,28.318588,-24.530777,-6.245601,13.937084,32.233177,-29.319282,-12.241115,7.506363,23.909706,-31.735451,-21.932281,-8.19104,3.986206,-19.525887,-30.795832,-33.220202,-33.59231,-10.962328,3.744953,9.955266,12.615573,6.040957,20.86644,26.908977,29.113862,19.779695,32.192441,35.275034,36.239119,30.782939,41.16301,40.709478,37.714694,26.495213,52.304421,76.03783,96.691624,51.058685,84.570465,103.069828,116.310093,42.182247,80.289311,101.784908,115.776249,34.438534,69.983242,89.401726,101.437649,28.446385,55.87674,71.920178,84.112587,-15.043586,-14.302495,-7.840524,-6.420647,18.489975,36.841827,44.23739,48.278991,35.911718,53.483798,58.149696,58.601586,47.485832,64.666217,67.587888,65.786999,53.946716,68.759491,72.025841,71.43237,-6.58033,303.883771,-86.982708,277.30406
20,-9.593696,4.352169,0.085178,-0.151783,6.839962,10.49961,13.463104,17.271846,-7.838311,10.56372,26.996154,38.597259,-15.783532,6.106235,25.603637,43.357498,-19.947979,0.053409,18.35289,34.016075,-21.727353,-11.216881,1.081615,12.667945,-19.238032,-31.97892,-36.341154,-38.830585,-12.669295,0.45741,6.595204,9.922921,3.7648,17.161453,23.145784,25.992009,16.912734,28.082062,31.236249,32.636588,27.391186,36.403696,36.31396,33.811315,26.669701,52.463322,76.198826,96.871399,51.567421,84.874112,103.23816,116.336472,42.621518,80.59068,101.934655,115.858796,34.674649,70.105946,89.362839,101.241875,28.435719,55.861405,71.90601,84.048386,-15.089096,-14.347041,-7.80787,-6.315177,18.481837,36.912902,44.320445,48.341286,35.863256,53.464125,58.163282,58.656297,47.435148,64.611926,67.541304,65.740008,53.95609,68.722096,71.974737,71.346995,-16.22256,308.228416,-86.946064,277.144753
21,-4.207592,-0.50991,0.164486,-0.17731,7.884487,13.390617,17.696331,22.195461,-3.966797,15.339546,31.649013,43.470233,-11.797005,10.908897,30.049266,47.70512,-16.247269,4.956802,22.958278,38.519519,-18.383343,-7.204411,5.350662,17.300491,-18.961365,-31.47847,-35.686501,-38.143093,-11.801899,1.350284,7.395415,10.542944,4.455441,18.530817,24.19023,26.961107,17.502525,29.453477,32.320401,33.513357,27.865022,37.539904,37.337053,34.906779,26.815854,52.591656,76.279427,96.950261,51.934227,85.118866,103.385823,116.349896,42.941128,80.731144,101.968197,115.852375,34.841755,70.134293,89.273037,101.059605,28.405186,55.776295,71.825627,83.929642,-15.109486,-14.308002,-7.702005,-6.159961,18.758787,37.096931,44.420431,48.327713,36.059598,53.609016,58.27773,58.752862,47.54846,64.649298,67.552901,65.750678,54.041874,68.731259,71.917346,71.225803,-20.491144,307.710701,-86.84257,276.959638
22,12.327186,-4.135425,0.155171,-0.146422,5.698654,6.915321,6.521004,7.279793,-14.204738,2.398911,18.788784,31.079487,-22.629467,-3.141895,16.72308,35.003323,-27.3544,-8.988876,10.27327,26.557697,-29.551128,-19.911072,-6.295074,6.010677,-19.528345,-30.553214,-32.724273,-33.013203,-9.969962,4.440497,10.289965,12.743371,6.895693,21.655215,27.179716,29.515227,20.416205,32.853553,35.555628,36.466755,31.129124,41.738956,41.142373,38.470606,26.841636,52.656051,76.351879,96.992958,52.278671,85.363907,103.581482,116.46611,43.164985,80.833614,101.921379,115.687271,34.936683,70.088951,89.040207,100.685486,28.395801,55.71397,71.688412,83.684406,-15.055986,-14.211821,-7.669611,-6.162074,19.123744,37.401298,44.684883,48.521781,36.348515,53.81147,58.396302,58.819527,47.754668,64.739132,67.559557,65.745293,54.20855,68.804445,71.900426,71.147169,-8.230379,303.567745,-86.75382,276.805685
23,-6.264622,3.702876,0.05151,-0.097455,6.627663,10.199536,12.420124,15.098591,-8.066333,9.70673,25.717415,37.480339,-15.810184,5.408879,24.402466,41.930558,-19.883491,-0.488765,17.249646,32.492043,-21.589668,-12.133644,-0.354629,10.964745,-19.573917,-31.609431,-35.341663,-37.396729,-11.403103,1.463633,7.239643,10.35668,5.208548,18.331857,23.69819,26.360991,18.156832,29.083295,31.631562,32.775587,28.256087,37.525886,37.162905,34.758195,26.872398,52.812904,76.537296,97.19926,52.683197,85.644504,103.803096,116.682666,43.499702,81.010208,101.944919,115.63203,35.183921,70.161598,88.993091,100.61903,28.543235,55.809986,71.735595,83.7033,-15.052095,-14.22317,-7.727483,-6.166754,19.307576,37.596776,44.89029,48.74785,36.495519,53.852954,58.398884,58.822282,47.879294,64.763857,67.595583,65.823655,54.342623,68.89722,71.943392,71.178811,-14.559363,307.260973,-86.766672,276.698582
24,-1.848072,0.395882,0.239273,-0.082708,7.062298,11.365471,14.280728,17.671749,-6.043567,11.749752,27.586933,39.39671,-13.65929,7.364537,26.226551,44.00758,-17.911125,1.735794,19.543373,35.044499,-19.91502,-10.485008,1.299591,12.734951,-19.590022,-31.669736,-35.665433,-37.88037,-11.572991,0.847438,6.480273,9.353384,4.84411,17.955229,23.115637,25.681156,17.815488,28.665541,31.060914,32.132654,27.966971,37.160966,36.696652,34.309529,26.931152,52.921966,76.659565,97.300312,52.802604,85.728126,103.900623,116.769527,43.582191,81.050743,101.971149,115.641689,35.23613,70.159755,88.923763,100.506328,28.57846,55.750419,71.62825,83.541069,-15.067817,-14.244536,-7.751567,-6.175783,19.521726,37.696712,44.938195,48.743181,36.694515,54.007552,58.536673,58.975595,48.027346,64.849603,67.650478,65.867386,54.461862,68.972839,71.979367,71.143008,-16.47987,307.651421,-86.599834,276.61044
25,-2.467048,0.07331,-0.065758,-0.057206,7.352359,12.694931,16.348949,20.469417,-2.630081,14.931324,30.638775,42.538776,-10.158589,10.346969,28.697262,46.218784,-14.789131,4.360805,21.707496,37.083629,-17.447342,-7.477902,4.331829,15.754852,-19.693565,-31.885801,-36.009987,-38.661884,-11.539139,0.939162,6.761781,9.798988,4.93182,17.970802,23.194023,25.752701,17.878943,28.570977,31.008463,32.10751,28.03549,37.103068,36.712411,34.48227,27.018654,53.120396,76.921143,97.623562,53.104202,86.084198,104.269604,117.171535,43.839684,81.273434,102.083233,115.642422,35.535542,70.328476,89.041706,100.630268,28.946732,55.952888,71.755554,83.65797,-15.004782,-14.26784,-7.908523,-6.444359,19.609683,37.734541,44.970442,48.813046,36.742063,53.939158,58.392511,58.768472,48.009673,64.789545,67.644921,65.950502,54.386836,68.950868,71.993669,71.214663,-19.028795,307.708892,-86.747469,276.537395
26,14.148697,-3.726057,-0.121387,-0.054069,3.961338,4.250862,3.205387,4.244224,-15.060379,-0.609444,15.162746,27.462192,-22.92017,-6.120198,13.251789,31.961185,-27.457112,-11.669472,7.264572,23.920017,-29.810818,-21.27697,-8.443291,3.461082,-19.997192,-31.043587,-33.743401,-35.025315,-10.011607,3.216814,9.195229,12.04217,6.863299,20.124496,25.661495,28.118692,20.269931,30.70354,33.446431,34.77577,30.896806,40.024863,39.430652,37.166548,27.18227,53.31285,77.162864,97.926292,53.389114,86.421226,104.656219,117.645057,44.113243,81.581211,102.408485,116.012352,35.830604,70.537994,89.286346,100.957946,29.278312,56.100563,71.856731,83.756744,-14.868585,-14.334765,-8.139581,-6.712479,19.663925,37.679966,44.921338,48.834919,36.725947,53.852337,58.386868,58.843277,47.893237,64.676839,67.666065,66.10063,54.208094,68.796134,71.943281,71.249552,-4.961105,303.957977,-86.949863,276.458468
27,-7.99355,2.719636,-0.361954,-0.369922,6.025372,9.27792,10.708798,12.80801,-7.737625,8.721669,24.537529,36.513909,-14.969341,4.19418,23.134026,41.266503,-18.972782,-1.321987,16.705033,32.563111,-21.022407,-11.381973,0.454308,11.896466,-19.695936,-31.496538,-35.785697,-38.81458,-11.241761,0.999814,7.227676,10.752476,5.280315,17.562645,23.406827,26.273035,18.096218,27.866652,30.935376,32.692113,28.315121,36.704309,36.79302,35.132354,27.539852,53.808323,77.729553,98.544456,53.724106,86.676086,104.859604,117.85984,44.571327,81.88884,102.803741,116.70449,36.332874,70.658638,89.477451,101.385727,29.683868,56.095459,71.774872,83.783134,-14.760707,-14.361355,-8.108878,-6.862014,19.387394,37.267794,44.646697,48.821593,36.42437,53.700258,58.719702,59.700978,47.519845,64.551572,68.049807,66.912784,53.850164,68.690541,72.182774,71.781137,-13.03113,306.645944,-87.388292,276.056877
28,-1.439071,-0.543873,-0.371372,-1.164254,6.594978,10.397804,12.904403,16.414398,-7.009186,10.570907,26.467094,38.521202,-14.329091,5.36055,24.624893,42.909782,-18.543698,-0.467663,17.773498,33.839515,-20.640496,-10.771431,1.243801,12.958122,-19.019645,-30.264729,-34.950189,-38.846887,-10.777064,1.337613,7.823543,11.572719,5.308313,17.721084,24.056244,27.417443,18.17022,28.308353,32.141547,34.359301,28.440906,37.271376,38.205252,37.527813,28.054138,54.350864,78.2994,98.977466,53.914341,86.473262,104.41547,117.292682,44.882217,81.737583,102.711948,116.894405,36.652095,70.371849,89.272945,101.482303,29.798961,55.599186,71.05109,83.125865,-14.465676,-14.110142,-7.604885,-6.535293,19.081334,36.905689,44.615339,49.251709,36.174873,53.993486,59.98808,62.01043,47.232347,64.736242,69.217086,69.120583,53.662121,68.991179,73.188342,73.612394,-14.545234,306.070644,-87.834697,274.861196
29,14.518455,-7.603192,-0.728394,-2.886536,-0.299778,-2.679748,-4.665195,-5.460846,-22.765274,-10.287254,5.619438,18.603573,-28.36124,-14.178326,5.110256,24.051819,-30.476097,-17.465492,1.034226,18.021355,-30.184845,-22.366585,-9.972702,2.324055,-14.500602,-21.334903,-22.405878,-23.383794,-3.906356,9.910929,17.278988,21.167671,9.713513,23.173164,31.285723,35.366733,20.383972,31.5203,37.11343,40.064976,28.975343,38.852038,41.159824,41.904459,28.753956,55.368954,79.174301,99.576244,54.207287,86.406372,103.923695,116.541218,44.980522,81.192089,101.815807,116.136532,36.502602,69.100559,87.53207,99.701992,29.278622,54.360203,69.238186,80.833786,-14.042648,-13.241091,-6.48914,-5.34635,18.306021,36.736247,45.424863,51.094391,35.292201,54.279354,61.576276,64.802031,46.509262,65.232889,70.97664,72.054444,53.320333,69.485442,74.273952,75.196145,-0.112318,298.437447,-88.64863,271.944655
30,19.374848,-6.170076,-0.330757,-4.23635,-6.934857,-16.980664,-25.355759,-31.69891,-36.263752,-34.214573,-24.642243,-16.143139,-40.285195,-37.677292,-26.199875,-14.162373,-40.467785,-37.949799,-26.633412,-16.035737,-37.988995,-37.8914,-30.80539,-23.550385,-14.082886,-19.909346,-20.586167,-20.798885,-0.525818,10.216494,14.369518,15.593424,13.348364,25.042422,30.901931,33.372133,24.093108,35.205861,40.445457,43.160438,32.12985,42.771744,45.969736,47.597526,28.639709,55.136696,78.215309,97.843906,53.759193,85.822861,102.330929,113.128773,45.002037,80.440578,99.164509,110.612148,36.632538,67.652275,83.598518,92.978245,29.112636,52.615642,65.071129,73.503845,-15.324822,-14.996779,-7.966445,-5.717149,14.29963,32.995814,42.009485,47.799809,32.117365,53.245936,62.222494,66.240483,44.4487,64.812146,71.66538,73.42108,52.50214,69.815424,74.594091,74.910932,19.19398,292.247429,-89.047937,267.688363
31,3.832489,-1.952425,2.650806,-8.450729,-9.731564,-21.168126,-30.751339,-38.149601,-35.938706,-41.387787,-38.883557,-36.239102,-37.680474,-43.369629,-40.824818,-36.720532,-36.124581,-41.495591,-39.259163,-36.119008,-32.142163,-38.119549,-37.752789,-36.348851,-13.732835,-19.608325,-20.273809,-20.055867,0.430314,9.940087,14.009662,15.509098,14.127173,24.522632,29.838256,32.253685,24.643651,35.464423,41.142892,44.068564,32.237198,42.727395,47.350833,50.104321,25.805683,50.863015,71.888146,89.439114,54.196255,80.431126,90.149987,94.738221,47.086636,75.217587,86.2122,90.222977,38.884861,63.158112,71.916756,74.992882,30.444248,49.25441,57.424107,61.536827,-5.495008,-0.690419,8.250572,12.497086,20.066698,40.707045,50.25277,55.448165,32.205125,55.634367,65.724051,70.135748,40.131914,62.48297,70.772864,73.115897,44.826032,63.142748,69.156781,70.677324,22.981385,290.272397,-86.442215,259.215027
32,13.473049,-4.802033,-3.779194,-16.974953,-15.784298,-32.725754,-46.793598,-57.073483,-46.07951,-61.064186,-65.114605,-67.480934,-45.653984,-61.888253,-67.163864,-69.742047,-42.082306,-56.960358,-62.209786,-65.159169,-35.958092,-49.15963,-54.257172,-57.697277,-14.025445,-18.669014,-16.651097,-13.550523,3.673668,12.493961,15.874685,16.891479,17.780883,27.032749,31.491463,33.691124,28.469138,38.811468,44.544166,47.485857,35.661727,46.089939,51.148595,54.367162,25.871647,51.276673,72.017121,87.758389,53.003998,80.886853,86.882012,87.225644,46.623963,76.167492,82.929165,82.047879,39.385643,65.248101,69.840661,68.490258,31.956837,52.434575,57.667717,58.172196,-1.45836,4.098609,11.925844,15.915761,16.761346,35.473957,44.182864,48.381349,24.05344,45.178503,54.651276,58.647565,28.881334,48.476321,56.332122,58.762248,31.989072,47.138733,52.425161,53.661997,36.400017,285.545057,-90.275826,242.314767
33,15.354389,-5.431282,-4.700752,-20.699566,-21.918915,-45.246117,-65.386734,-80.61232,-57.402924,-82.80772,-93.211853,-100.333649,-54.773037,-81.841107,-94.812458,-103.754425,-48.916798,-73.510677,-85.935185,-94.761418,-40.545605,-60.463703,-70.640682,-78.802174,-14.889964,-18.397918,-13.080405,-6.161852,7.04051,15.700215,18.302451,18.758466,21.882641,30.294097,33.613058,35.158671,32.639588,42.594705,47.880998,50.595583,39.508951,49.851626,54.742506,57.859827,25.722256,50.383186,68.870258,82.648396,53.016083,78.275643,82.274769,80.142689,46.690418,72.639576,76.163361,71.92123,38.971905,61.497677,63.264725,59.141419,30.662865,48.186093,51.417183,49.614269,2.997773,7.661016,11.907542,14.065768,7.892259,20.375759,28.563518,33.183943,9.002988,22.518572,31.525895,36.14595,9.936617,22.119276,29.589001,32.91854,10.918152,19.251401,23.6392,25.23154,51.571861,280.328481,-95.159123,221.829907
34,1.180984,1.12219,-4.084373,-28.829205,-21.270607,-44.593895,-66.078952,-81.686599,-53.391025,-83.704742,-100.487663,-113.285934,-50.245582,-83.283943,-103.738563,-119.886657,-44.412002,-74.649273,-94.358196,-110.074001,-36.345268,-60.796314,-75.966339,-89.143421,-20.116024,-26.119992,-21.115788,-13.847073,4.012097,10.682895,11.947062,11.980062,21.884605,28.197041,29.191618,29.81384,34.993341,43.559284,47.380054,49.586186,43.370834,52.898083,57.058566,59.533696,22.860431,44.938602,60.961075,72.562637,47.548496,69.854324,72.412948,68.392399,41.927009,64.396099,65.663063,58.821396,34.661647,54.380161,54.360237,48.144676,26.557857,41.230247,43.215591,40.009048,5.21565,7.856629,9.09486,9.270608,-1.738076,2.911372,8.878351,13.1287,-5.259992,-0.432259,6.731907,11.57509,-7.327538,-3.821912,1.84183,5.532566,-8.192853,-7.30419,-4.740221,-3.071996,52.573299,281.849131,-99.423042,193.399162
35,-0.633522,-0.16927,-5.789028,-31.772705,-21.373901,-44.491699,-66.260948,-81.645469,-55.496544,-85.708202,-102.433651,-115.490524,-51.723415,-84.612899,-104.272751,-119.661735,-45.320182,-75.56615,-94.616798,-109.678825,-36.821045,-61.177597,-76.272926,-89.267601,-21.073057,-26.174259,-18.340787,-8.260341,4.431296,13.793016,17.515961,19.532902,22.602948,29.619227,31.997223,33.723703,35.80316,44.055325,48.188181,50.566474,44.454936,53.548747,57.220315,59.213273,17.913934,36.427019,50.492488,60.502561,38.583852,56.326789,57.780538,53.522249,35.426319,54.295669,54.743843,48.459108,30.446588,47.475362,46.235406,39.949785,24.27321,36.726413,37.88582,35.065784,7.033554,6.753093,3.792371,0.656549,-11.071987,-15.087938,-10.600251,-5.860315,-19.197971,-25.247276,-20.624708,-15.313086,-24.067958,-28.671577,-23.595129,-18.980795,-26.373628,-31.896888,-29.424482,-26.294653,51.687023,282.271097,-105.464824,162.217693
36,0.090775,0.272047,-10.312867,-31.889839,-21.97419,-45.750527,-68.291874,-84.400726,-57.038281,-87.656902,-103.87484,-116.320759,-53.013359,-86.428677,-105.470078,-120.288689,-46.245438,-76.97113,-95.351944,-109.866669,-37.473061,-62.307243,-77.195435,-89.755303,-21.863153,-26.440797,-17.583022,-6.844638,4.484686,13.580583,16.854318,18.572684,22.955753,29.541311,31.694486,33.391783,36.16855,44.013817,47.840552,50.200628,44.671953,53.398472,56.539937,58.20421,12.760489,27.709162,41.094761,50.955729,24.717997,42.201771,48.00955,48.011061,25.240437,46.761349,51.895741,50.704737,24.734854,43.7992,44.488329,40.879057,22.97727,36.025143,36.733355,34.596085,-4.256181,-14.253471,-24.273994,-32.085267,-33.329881,-48.655197,-45.633292,-39.591119,-38.564827,-56.939823,-54.701865,-48.769947,-39.486122,-51.560115,-46.258043,-40.459966,-37.299117,-47.60615,-45.305465,-42.141303,51.460007,283.19202,-116.095482,130.97673
37,0.522812,-0.736373,-6.336811,-23.775014,-22.621971,-46.590935,-69.386204,-85.531117,-57.932076,-88.991822,-105.133702,-117.352352,-53.841316,-87.680443,-106.529961,-121.072048,-46.972801,-78.260777,-96.492966,-110.687485,-38.295685,-63.320721,-78.16721,-90.611161,-21.676704,-25.942843,-17.246693,-6.530255,4.807862,14.013601,17.304503,18.969788,23.231764,29.944195,31.949848,33.410851,36.453812,44.404548,47.997409,50.160909,44.960055,53.81993,56.684927,58.071903,4.318823,13.174753,23.103676,31.81386,11.236353,21.931298,29.107161,31.866366,16.07927,31.878571,38.726452,40.33901,19.792254,33.334105,33.320189,30.434046,21.870238,29.58894,28.943041,27.009499,-12.334055,-29.057218,-43.916522,-54.855472,-44.325338,-68.306129,-66.18893,-59.079098,-46.489665,-74.78689,-76.204248,-72.15678,-45.100908,-65.486556,-58.786682,-50.669378,-41.696364,-58.061637,-54.401857,-48.864478,51.209227,283.132571,-123.205885,107.87864
38,0.44609,-0.917303,-5.998146,-20.912234,-22.997863,-47.080902,-70.11177,-86.489788,-58.472316,-89.849498,-105.974361,-118.218349,-54.328182,-88.575405,-107.470321,-122.108539,-47.435142,-79.111255,-97.455699,-111.72401,-38.807052,-63.864418,-78.678062,-91.143047,-21.215552,-25.29019,-16.911918,-6.448262,5.140278,14.746456,18.109914,19.648352,23.403431,30.544014,32.632672,34.000531,36.584057,44.853351,48.531106,50.691358,45.084198,54.213639,57.131642,58.516099,-4.807325,-1.799898,6.13757,14.501112,-4.726187,3.250591,10.470434,14.246355,5.507584,20.061127,27.870529,30.914732,15.10972,26.978468,25.226034,21.577898,23.061213,29.194782,26.62916,23.83144,-19.608254,-40.917367,-58.566332,-71.133968,-48.176384,-77.063937,-76.986094,-70.524939,-46.518342,-80.295836,-87.576383,-88.229597,-42.667935,-67.302456,-59.867006,-50.778812,-38.270395,-57.689263,-53.064614,-46.308511,50.504779,282.826517,-130.354569,87.577655
39,0.720406,-0.916635,-6.520546,-11.804221,-23.347343,-47.625091,-70.928844,-87.510647,-58.898323,-90.629631,-106.836685,-119.188007,-54.692997,-89.348499,-108.399834,-123.230484,-47.767204,-79.811382,-98.350708,-112.759392,-39.169922,-64.285915,-79.102375,-91.596188,-20.781027,-24.692891,-16.516939,-6.27404,5.28171,15.136224,18.684896,20.361593,23.382991,30.940587,33.248361,34.724776,36.536447,45.204253,49.077412,51.35678,45.019953,54.516388,57.620754,59.125167,-12.056253,-14.422113,-8.473777,0.447241,-16.383516,-9.692814,-2.971487,0.658453,-0.946003,12.611687,19.877186,23.095064,14.102034,24.414019,20.450472,15.814711,27.248457,31.746975,26.766856,22.848015,-23.635449,-49.045814,-70.284517,-84.002945,-49.592772,-82.993255,-81.690975,-74.267798,-45.096286,-85.18582,-96.410588,-100.822303,-39.705145,-68.909733,-59.421353,-49.034283,-35.032469,-57.785341,-51.168266,-42.65921,49.686304,282.448475,-138.413996,76.312027
40,0.76593,-1.049325,-4.404991,-6.267259,-23.716667,-48.090729,-71.647831,-88.488064,-59.017341,-91.206802,-107.549629,-119.976722,-54.672283,-89.851707,-109.07143,-124.081672,-47.650703,-80.177547,-98.924114,-113.429603,-39.048958,-64.349006,-79.152248,-91.602882,-20.372449,-23.933484,-15.777761,-5.772922,5.656486,15.790914,19.486121,21.279217,23.620274,31.567786,34.170159,35.855155,36.700481,45.692217,49.775698,52.199192,45.057559,54.911529,58.259427,59.933962,-16.906757,-23.809765,-20.428345,-11.943752,-24.501068,-18.576748,-12.185005,-8.756264,-6.17989,5.621555,12.148956,15.46796,11.987503,20.663155,16.131821,11.343235,28.286579,31.297932,25.483669,21.393539,-25.014462,-52.286699,-75.694674,-90.385147,-47.06199,-84.264563,-82.152051,-74.120039,-40.606028,-86.086558,-100.924293,-108.952964,-34.925299,-70.064945,-60.012175,-48.922721,-31.467955,-59.233231,-51.895269,-42.101265,48.739969,281.843379,-144.531252,70.488997
41,0.947228,-0.713686,-2.704422,-0.320207,-24.01561,-48.451172,-72.139939,-89.097119,-59.086155,-91.449063,-107.916676,-120.536042,-54.740319,-90.125782,-109.498192,-124.722176,-47.776612,-80.462998,-99.37246,-113.998879,-39.257332,-64.484139,-79.27573,-91.785633,-19.967922,-23.402826,-15.221193,-5.389885,5.858064,16.215855,20.025745,21.9118,23.653779,31.888641,34.711857,36.5753,36.687797,45.864081,50.158859,52.750079,45.046332,55.108216,58.701868,60.582341,-18.898098,-28.954731,-28.502232,-21.582413,-28.595707,-22.359867,-15.94289,-12.665588,-9.816364,-0.015472,6.044643,9.532551,9.17553,16.194042,12.867691,8.850884,26.562321,28.30473,23.244919,19.834671,-24.613146,-51.688825,-75.715558,-90.986126,-40.908407,-80.539951,-78.680646,-70.706494,-33.678205,-82.755834,-100.946424,-112.228107,-28.932464,-70.965111,-61.955794,-50.58595,-27.817968,-61.903275,-55.466857,-45.16293,47.945864,281.572228,-148.977007,70.611325
42,0.702736,-0.164442,0.112187,1.536122,-24.069855,-48.46875,-72.247857,-89.331082,-59.072239,-91.633553,-108.166832,-120.880211,-54.7431,-90.368271,-109.880013,-125.261639,-47.821427,-80.652443,-99.698285,-114.478844,-39.336228,-64.64439,-79.484528,-92.106881,-19.911185,-23.329293,-15.08649,-5.452524,5.612125,16.207853,20.095214,21.979294,23.385721,31.941759,34.942076,36.943444,36.483107,45.906701,50.353571,53.066365,44.92014,55.18601,58.942732,60.961118,-20.750073,-33.439625,-35.106778,-29.254555,-31.81231,-26.043881,-19.612965,-17.105233,-12.293931,-4.662335,0.326168,3.429645,7.060981,11.875614,9.471015,6.275585,24.311073,24.564788,19.918498,16.982505,-21.139433,-47.090056,-71.061775,-85.892619,-36.201389,-76.930664,-74.286221,-65.674194,-29.277143,-79.999907,-98.576555,-110.144994,-25.225883,-68.706201,-60.251495,-49.499044,-25.177311,-60.282624,-54.331644,-44.435659,47.407151,281.754094,-150.106269,72.493755
43,0.65348,0.113349,0.67139,3.507361,-24.192627,-48.431854,-72.27792,-89.417908,-59.181873,-91.772117,-108.323559,-121.067528,-54.847881,-90.556492,-110.092495,-125.522976,-47.930031,-80.804958,-99.8008,-114.540092,-39.488319,-64.911404,-79.70779,-92.276996,-19.979383,-23.432762,-15.052922,-5.358528,5.372879,15.988553,20.00349,21.978442,23.253588,31.929434,35.115842,37.270449,36.436671,45.970675,50.443455,53.188804,44.918003,55.236571,59.006817,61.005171,-21.702587,-35.904934,-39.070473,-34.586723,-34.102215,-28.197166,-21.86871,-20.075523,-14.262772,-7.815788,-4.126808,-1.978397,5.367851,9.250763,7.425568,4.839237,22.536552,22.462532,18.232189,15.642437,-19.273705,-44.675861,-68.665149,-82.991553,-32.392382,-73.610616,-70.110337,-61.200814,-25.426393,-76.628797,-92.247779,-101.095594,-21.837446,-66.241204,-58.814958,-48.599013,-22.396022,-57.798225,-52.441611,-42.729463,47.369694,282.168838,-150.125816,76.302511
44,0.666367,0.314792,0.743374,4.479073,-24.160698,-48.323868,-72.262413,-89.478859,-59.144783,-91.961644,-108.627903,-121.412682,-54.843876,-90.79699,-110.399197,-125.837517,-47.974709,-81.054806,-100.088723,-114.806534,-39.629517,-65.237217,-80.055188,-92.605763,-20.166376,-23.683124,-15.285376,-5.557463,5.197396,15.687753,19.732974,21.740578,23.207447,31.759422,34.927243,37.066388,36.44508,45.883026,50.25351,52.971034,44.923511,55.167595,58.850921,60.824069,-22.333042,-36.881859,-41.334801,-39.970917,-35.035996,-30.717075,-24.191357,-21.667214,-15.140202,-10.329346,-6.941288,-4.686756,4.188869,6.975552,5.936783,3.950535,20.915359,20.193832,16.798199,14.74387,-18.406631,-43.109192,-66.592231,-81.360102,-30.871094,-71.705344,-70.366484,-63.005872,-24.531043,-75.040077,-91.281868,-100.557101,-21.51083,-65.807915,-59.426121,-49.763033,-22.386501,-57.71075,-53.093888,-43.692838,47.784491,282.713029,-149.634012,81.010983
45,0.561676,0.303972,-0.49324,1.897547,-24.04509,-48.177819,-72.218296,-89.453282,-59.167408,-92.140011,-108.879685,-121.711693,-54.927017,-91.100727,-110.760304,-126.176125,-48.138062,-81.378891,-100.422764,-115.098885,-39.901703,-65.731327,-80.547421,-93.042034,-20.398063,-24.026715,-15.671341,-5.812961,4.941602,15.237075,19.312293,21.384909,23.136953,31.541197,34.654998,36.753981,36.473412,45.828933,50.093799,52.796689,44.98662,55.13083,58.635079,60.508797,-22.4404,-36.315674,-41.433438,-42.068253,-34.493042,-31.703854,-26.166859,-23.781144,-14.937836,-11.064961,-8.007683,-5.912659,3.980278,5.824951,4.742958,3.114177,20.493896,19.054664,15.812633,14.005577,-18.638529,-42.609396,-65.59411,-80.964967,-30.739226,-69.446366,-72.629686,-69.409674,-25.806535,-74.25618,-91.912438,-102.103695,-23.646506,-66.643398,-61.639422,-52.249111,-24.725366,-59.193112,-55.879523,-47.046145,48.346373,283.143793,-150.127046,83.035322
46,0.467697,0.193637,-0.771401,-5.213767,-23.996956,-48.193726,-72.336285,-89.568752,-59.349426,-92.493061,-109.291523,-122.124745,-55.116669,-91.472065,-111.137318,-126.477905,-48.336182,-81.699978,-100.710034,-115.286144,-40.146561,-66.223641,-81.024216,-93.383675,-20.643805,-24.379408,-16.143077,-6.213191,4.744482,14.855976,18.951461,21.114775,23.115316,31.336284,34.432054,36.556837,36.553292,45.830761,50.006015,52.682031,45.109084,55.120493,58.43975,60.191301,-23.042221,-37.385628,-42.452019,-42.878448,-34.933845,-33.181446,-28.33025,-25.838699,-15.450165,-12.144504,-10.067699,-8.506725,3.572651,4.894913,3.406712,2.078293,20.582405,18.210228,14.690197,13.280239,-19.09282,-43.336945,-65.814268,-80.659135,-32.528413,-70.657915,-72.012528,-67.955254,-28.330292,-77.150112,-94.713195,-104.233349,-26.761875,-69.018892,-63.057477,-52.963168,-28.074571,-62.268856,-58.131381,-48.742292,48.749016,283.721354,-150.963501,78.205479
47,0.071411,-0.080893,-2.044189,-8.42869,-23.934975,-48.142227,-72.314838,-89.576694,-59.544662,-92.776291,-109.60009,-122.395729,-55.327858,-91.779728,-111.419758,-126.620419,-48.57502,-81.959541,-100.887131,-115.32407,-40.401421,-66.485813,-81.190269,-93.383057,-20.697392,-24.518433,-16.428228,-6.532539,4.802045,14.776824,18.906222,21.127274,23.255218,31.400208,34.469994,36.573596,36.698603,45.997894,50.146497,52.808347,45.196979,55.151714,58.410876,60.137034,-23.424729,-36.930966,-41.831314,-42.506035,-33.709614,-32.775673,-28.617623,-25.868901,-14.591812,-11.816609,-10.442711,-9.71925,4.071533,4.963611,3.214702,1.933834,21.04652,17.809673,14.301521,12.979602,-20.628942,-44.979994,-67.745976,-83.929073,-35.272342,-72.866017,-76.490396,-73.823692,-32.149377,-80.235021,-99.422437,-110.215723,-31.146099,-72.582175,-66.958615,-56.632174,-32.500668,-66.31562,-62.563548,-52.971628,48.409733,284.061633,-153.418384,70.197961
48,-0.218788,-0.231564,-1.881855,-16.089527,-23.977181,-48.279534,-72.489567,-89.736294,-59.733914,-93.04216,-109.828205,-122.527622,-55.531586,-92.103676,-111.652508,-126.713356,-48.80175,-82.242943,-101.090572,-115.420315,-40.68441,-66.847103,-81.547348,-93.683224,-20.819695,-24.648665,-16.585617,-6.623374,4.917037,14.715864,18.795492,21.031412,23.50585,31.413274,34.405354,36.496556,36.993906,46.102561,50.145052,52.747498,45.496827,55.300322,58.462622,60.146099,-24.068779,-37.937931,-42.905995,-43.143643,-33.401825,-33.179741,-29.246178,-26.204167,-14.528012,-12.266762,-11.039521,-10.028504,4.001976,4.754013,2.94342,1.916702,21.213867,17.248455,13.515575,12.295177,-21.754102,-46.663903,-69.156059,-85.509735,-39.16615,-77.482781,-79.412598,-75.698688,-36.313213,-86.018738,-107.245855,-119.892994,-35.264215,-76.550621,-69.37237,-58.571785,-36.578159,-70.42125,-65.575739,-55.76584,47.219937,284.239931,-156.271247,54.518296
49,-0.421532,-0.269713,-2.250435,-22.355681,-23.991302,-48.340553,-72.554375,-89.887024,-60.059784,-93.220287,-109.966781,-122.646332,-55.893757,-92.288441,-111.711387,-126.617672,-49.206642,-82.458538,-101.196258,-115.425133,-41.128921,-67.238903,-81.923561,-94.052616,-20.871096,-24.739488,-16.642972,-6.695906,4.901747,14.61915,18.680771,21.021346,23.549878,31.301246,34.186991,36.243576,37.095312,46.080553,50.044979,52.598667,45.64709,55.373928,58.480208,60.114001,-24.508507,-39.059029,-43.899376,-42.161041,-33.48135,-33.141461,-29.861138,-27.56416,-14.593277,-12.283734,-11.579876,-10.942475,4.313095,4.838894,2.428367,1.439998,22.105156,17.786464,13.340801,11.950252,-22.32554,-48.098198,-70.905966,-87.067871,-41.740215,-81.012236,-79.954056,-74.359568,-38.79703,-90.124417,-110.930138,-123.342153,-37.519544,-78.983692,-70.489163,-59.11341,-38.646192,-72.632075,-66.65584,-56.52524,45.45508,284.285596,-159.865007,32.477993
50,-0.569252,-0.362969,-2.033169,-25.895078,-24.110252,-48.551605,-72.749851,-90.118629,-60.341663,-93.395954,-110.144497,-122.807888,-56.127605,-92.297424,-111.679207,-126.536796,-49.401512,-82.44611,-101.151775,-115.38105,-41.277946,-67.266746,-81.962791,-94.150051,-20.878679,-24.872708,-16.885292,-7.007524,4.937488,14.68284,18.764986,21.201176,23.607874,31.349646,34.275961,36.428544,37.199584,46.153184,50.090217,52.616241,45.819114,55.548126,58.687258,60.323854,-24.736599,-40.101391,-44.781899,-41.822216,-34.151058,-33.325081,-29.374237,-26.949085,-15.229466,-12.397739,-11.62833,-11.20705,4.07737,4.79496,2.488804,1.666843,22.374779,18.001831,13.395779,12.093636,-22.567738,-49.47209,-72.696945,-88.242957,-44.26164,-85.602861,-78.994548,-68.698241,-40.73558,-94.37967,-114.123725,-125.836006,-38.876399,-80.933943,-70.396563,-58.270085,-39.583663,-73.703106,-66.053317,-55.377165,43.042482,284.223339,-163.741522,6.883627
51,-0.766319,-0.431574,-2.054466,-23.04171,-24.296379,-48.739517,-72.801922,-90.262333,-60.422985,-93.18187,-109.932118,-122.71685,-56.209545,-92.010841,-111.387978,-126.3708,-49.53859,-82.280766,-100.960682,-115.325089,-41.453362,-67.212044,-81.911751,-94.297588,-20.772999,-24.883687,-16.946672,-7.257069,4.86697,14.791064,18.883078,21.247749,23.542147,31.429848,34.339626,36.443204,37.190989,46.185591,50.101049,52.56321,45.919619,55.762487,58.978547,60.640918,-24.435116,-39.014912,-44.050484,-41.43932,-33.456562,-32.595864,-28.2151,-25.604473,-14.844567,-11.892849,-10.354706,-9.958214,4.145942,5.131416,3.271087,2.23621,22.138412,18.112976,13.945392,12.456482,-23.448045,-50.187888,-74.377667,-91.593274,-45.977022,-87.24493,-83.069432,-73.447724,-42.725023,-95.447266,-116.39847,-129.740984,-40.614351,-82.377136,-72.699149,-60.725781,-40.959431,-74.908807,-68.033281,-57.448007,40.027983,283.724315,-168.044168,-16.225533
52,-0.843979,-0.101197,-1.16137,-23.696856,-24.225586,-48.676117,-72.667831,-90.270332,-60.396824,-93.011387,-109.776695,-122.607525,-56.219524,-91.807903,-111.163856,-126.2173,-49.585464,-82.16827,-100.850487,-115.327744,-41.493965,-67.239441,-82.041824,-94.666615,-20.890003,-25.16764,-17.230131,-7.697868,4.508596,14.489648,18.625382,21.019396,23.236767,31.020925,33.895505,35.985362,36.976826,45.769011,49.589323,51.982868,45.8523,55.593464,58.791715,60.449134,-24.054805,-38.669609,-43.838928,-41.02977,-33.916854,-33.612922,-28.71722,-25.479389,-15.564308,-12.637012,-10.152099,-9.031311,3.352776,4.286248,2.766255,1.839444,21.541535,17.840561,13.779293,12.171685,-23.924456,-50.982424,-75.432284,-92.662267,-47.687991,-88.225595,-83.620024,-73.573634,-44.489443,-96.545679,-117.622194,-131.010313,-42.127699,-83.261542,-73.316743,-61.134887,-42.083548,-75.950629,-68.903478,-58.192576,36.975002,283.343794,-171.41454,-40.201713
53,-0.795593,0.024429,-1.373096,-18.889883,-24.046578,-48.513909,-72.461632,-90.237007,-60.334522,-92.882309,-109.703133,-122.579865,-56.207474,-91.602162,-110.99754,-126.112175,-49.610619,-82.033276,-100.745957,-115.32153,-41.489777,-67.134625,-81.937603,-94.643566,-20.969353,-25.407553,-17.561681,-8.318546,4.103401,14.121146,18.279653,20.723068,22.785988,30.525019,33.404984,35.535929,36.571447,45.291593,49.131715,51.574092,45.553378,55.239658,58.486619,60.23749,-23.355904,-37.085026,-42.250099,-40.017265,-33.138748,-33.090431,-28.215386,-24.519425,-15.151005,-12.205799,-9.434647,-8.296829,3.460957,4.175892,2.729404,1.619099,21.685959,18.207401,14.214065,12.356106,-24.276909,-51.252475,-76.153152,-94.349745,-48.940339,-87.965744,-85.577383,-76.522374,-46.215614,-96.053699,-118.557806,-133.369559,-43.591283,-83.49586,-74.291263,-62.262521,-42.844085,-76.535851,-70.278962,-59.763543,34.251389,282.970967,-174.715656,-59.488852
54,-0.730568,0.062368,-0.879891,-14.635138,-23.925705,-48.385117,-72.355488,-90.208294,-60.205708,-92.798802,-109.617005,-122.449848,-56.107865,-91.492825,-110.912201,-126.080086,-49.515244,-81.945522,-100.694904,-115.341969,-41.354622,-67.002789,-81.797962,-94.515598,-21.09877,-25.699941,-18.014201,-8.91093,3.778569,13.703441,17.811499,20.190087,22.476606,30.178859,33.104717,35.304069,36.311379,45.007491,48.848392,51.302884,45.375203,55.01606,58.301157,60.090795,-22.756279,-35.575092,-40.597457,-38.87297,-32.025421,-32.180969,-27.199516,-23.139415,-14.266605,-11.413764,-8.22908,-6.952171,3.976742,4.454808,3.072922,1.746964,21.841633,18.206006,14.412541,12.630398,-24.718881,-51.362551,-76.696556,-95.430427,-50.06913,-88.100292,-87.636768,-79.290101,-47.778875,-95.944622,-119.241957,-134.802774,-44.968493,-83.742513,-75.05448,-63.184501,-43.837803,-76.96052,-71.395348,-61.107124,31.801935,282.593771,-177.314433,-74.563554
55,-0.625237,0.164194,-0.494716,-9.903179,-23.720993,-48.128952,-72.172107,-90.257492,-60.002254,-92.707225,-109.573757,-122.435611,-56.009273,-91.528129,-110.941063,-126.113571,-49.515747,-82.097191,-100.908428,-115.58535,-41.424385,-67.209228,-82.065857,-94.828788,-21.24765,-25.896801,-18.26592,-9.334229,3.453874,13.20598,17.178088,19.417183,22.132719,29.71909,32.522361,34.608204,35.978581,44.634099,48.406543,50.83636,45.087545,54.675556,57.942462,59.753614,-22.223316,-34.917538,-39.909908,-37.817711,-31.644768,-30.941288,-25.892235,-21.947045,-13.743988,-10.791229,-7.372605,-5.825501,4.44199,4.993961,3.710598,2.2019,22.213737,18.493641,14.925052,13.176441,-24.501681,-51.156459,-76.980052,-96.136182,-50.429422,-88.034101,-88.545617,-80.524841,-48.250695,-95.442873,-119.035763,-134.877868,-45.304805,-83.460607,-75.121745,-63.41231,-44.089646,-77.262505,-72.016579,-61.682755,29.836218,282.269723,-179.149629,-84.954975
56,-0.474083,0.227464,-0.491203,-6.866942,-23.458946,-47.835022,-72.048763,-90.265834,-59.973449,-92.910415,-109.808269,-122.564621,-56.056858,-91.822322,-111.236412,-126.29179,-49.592216,-82.447975,-101.330005,-115.923534,-41.476799,-67.428497,-82.336979,-95.034507,-21.390466,-26.086388,-18.569584,-9.679822,3.297978,12.790536,16.646602,18.856291,21.919136,29.283885,32.013809,34.07673,35.717797,44.226929,47.93745,50.374714,44.80374,54.273487,57.535156,59.388582,-21.632744,-34.60698,-39.370972,-36.795273,-31.331257,-29.727093,-24.69944,-21.274109,-13.267491,-9.874409,-6.185246,-4.115605,5.083179,5.520664,4.096138,2.696949,23.03548,19.074359,15.461505,13.887416,-23.034479,-50.083271,-76.072821,-94.405401,-50.140307,-88.331452,-87.307126,-78.634636,-47.57249,-95.344523,-118.346937,-133.916606,-44.264125,-82.403162,-73.428842,-61.721945,-42.907138,-76.125989,-70.509989,-60.270403,28.543058,282.05593,-180.459909,-92.263174
57,-0.283195,0.080942,-0.129879,-3.608275,-23.449356,-47.83358,-72.178539,-90.434269,-60.107266,-93.227577,-110.132916,-122.814503,-56.212441,-92.119377,-111.522274,-126.500633,-49.738609,-82.757504,-101.667515,-116.183624,-41.608292,-67.592274,-82.428486,-94.97374,-21.462479,-26.16996,-18.727047,-9.878522,3.176022,12.642236,16.418694,18.575562,21.717744,29.185678,31.926606,33.987637,35.488049,44.1285,47.889038,50.372109,44.572485,54.115332,57.451534,59.373441,-21.257985,-34.857583,-39.554547,-36.445027,-31.25187,-28.535317,-23.581273,-21.030545,-12.833657,-8.994507,-5.477486,-3.241894,5.822662,6.430858,4.687751,3.265491,23.926013,19.689846,15.922439,14.579223,-21.375954,-48.600779,-74.561161,-91.995538,-49.287215,-88.99993,-85.497255,-75.209914,-46.182531,-95.535556,-117.613197,-132.511391,-42.474184,-81.198287,-71.652056,-59.897955,-41.05352,-74.43043,-68.555644,-58.538467,27.733063,281.893283,-181.116588,-96.115038
58,-0.1409,-0.016228,0.057964,-0.847647,-23.548141,-47.94635,-72.366382,-90.618427,-60.33229,-93.640022,-110.547764,-123.175529,-56.432178,-92.438427,-111.843818,-126.814636,-49.915924,-83.046238,-101.97353,-116.451668,-41.723648,-67.668617,-82.430145,-94.850292,-21.429307,-26.153078,-18.821735,-10.001566,3.159559,12.663972,16.386361,18.46698,21.619845,29.242204,32.022146,34.108371,35.353408,44.165945,48.012378,50.566116,44.39888,54.007331,57.432589,59.387866,-21.132042,-35.402367,-40.010147,-36.173046,-31.244122,-27.889996,-22.98262,-21.147938,-12.473328,-8.307232,-4.792317,-2.463478,6.404503,7.109276,5.179367,3.731472,24.480423,19.787659,16.005524,14.996303,-20.182746,-47.532068,-73.651671,-90.560132,-48.309707,-89.327081,-84.221008,-72.96237,-44.932981,-95.777551,-117.081835,-131.167129,-41.154121,-80.515986,-70.653726,-58.866421,-39.961533,-73.529443,-67.463273,-57.442271,27.309191,281.741908,-181.341596,-97.097832
59,-0.296081,-0.138012,0.061958,1.113279,-23.707672,-48.050354,-72.438916,-90.625122,-60.404995,-93.905182,-110.777024,-123.297741,-56.496495,-92.633641,-112.022621,-126.926949,-49.934922,-83.190079,-102.096817,-116.50874,-41.684281,-67.570496,-82.237587,-94.547905,-21.260556,-25.913375,-18.603077,-9.744326,3.133512,12.88058,16.611651,18.642746,21.461912,29.409857,32.280003,34.407058,35.130612,44.250728,48.257725,50.924083,44.121658,53.900082,57.459722,59.494954,-20.94461,-35.700794,-40.542824,-36.582653,-31.443489,-27.587025,-22.605663,-21.042961,-12.512363,-8.185009,-4.542549,-2.000953,6.520947,7.321449,5.481972,4.191101,24.74952,19.977139,16.193104,15.198544,-19.658336,-47.18214,-73.222107,-89.937795,-47.92497,-89.631785,-83.597473,-71.935373,-44.310882,-95.92506,-116.836738,-130.42704,-40.568557,-80.335378,-70.337983,-58.516166,-39.562223,-73.362283,-67.165167,-57.045061,26.861504,281.588162,-181.431244,-96.000287
60,-0.171662,-0.147843,0.214726,1.125278,-23.915405,-48.23069,-72.571872,-90.650367,-60.640045,-94.077827,-110.84658,-123.261978,-56.731304,-92.742119,-112.12429,-127.067424,-50.11148,-83.218929,-102.074112,-116.472358,-41.756035,-67.439827,-81.98735,-94.212215,-21.051308,-25.686652,-18.406167,-9.547144,3.152458,13.048789,16.816082,18.851376,21.36631,29.528343,32.532933,34.773386,35.015077,44.380552,48.58026,51.375219,43.990203,53.899675,57.616284,59.711661,-21.094139,-35.806893,-40.677281,-36.644131,-31.166405,-27.658985,-22.603958,-20.848778,-12.150055,-8.202988,-4.556546,-1.89719,6.907116,7.290767,5.349861,4.127014,25.091606,19.923511,16.035747,15.024009,-19.777867,-47.288614,-73.353256,-90.128163,-47.85175,-89.681525,-83.848498,-72.270762,-44.122522,-95.959649,-117.055356,-130.692722,-40.331078,-80.387613,-70.486076,-58.608347,-39.263203,-73.243223,-67.187684,-57.118535,26.663921,281.496867,-181.242439,-94.818461
61,-0.034584,-0.172938,0.130199,0.248558,-24.145935,-48.435699,-72.714317,-90.945465,-60.809681,-94.122528,-110.884128,-123.367744,-56.829563,-92.734371,-112.170387,-127.29792,-50.135605,-83.063553,-101.912018,-116.398945,-41.68808,-67.209663,-81.686886,-93.898624,-20.93276,-25.456891,-18.021129,-9.295376,3.307908,13.314624,17.178421,19.284481,21.496171,29.848272,33.043881,35.408946,35.125265,44.704273,49.122181,52.048397,44.043963,54.016272,57.88207,60.039543,-21.174637,-35.907074,-40.909572,-36.864979,-30.985165,-27.454925,-22.500458,-20.820557,-11.883671,-7.991695,-4.574055,-2.196442,7.192223,7.453903,5.354782,4.021866,25.356228,20.057739,16.042832,14.972386,-19.832065,-47.290825,-73.40705,-90.405429,-47.751995,-89.763576,-84.187993,-72.598543,-44.066521,-95.886895,-117.181367,-130.947763,-40.265715,-80.209735,-70.325297,-58.448253,-39.177531,-73.057141,-67.034021,-56.962526,26.612285,281.374851,-181.129292,-94.518981
62,-0.148636,-0.166541,-0.193325,-0.662558,-24.320045,-48.540985,-72.7649,-91.147419,-60.877029,-94.029132,-110.696685,-123.204403,-56.756767,-92.623638,-112.061199,-127.303207,-49.973648,-82.816429,-101.649501,-116.199073,-41.487899,-67.025745,-81.547554,-93.830532,-20.818892,-25.247557,-17.750143,-9.0133,3.657094,13.61625,17.484074,19.602743,21.899129,30.229013,33.491102,35.918214,35.512724,45.15247,49.585482,52.495742,44.368301,54.357616,58.195058,60.27212,-21.157654,-35.948559,-41.062294,-36.92989,-30.893497,-26.962143,-22.181911,-20.727837,-11.743858,-7.638988,-4.37154,-2.224319,7.351376,7.572041,5.413582,4.019955,25.568287,20.269959,16.287998,15.304985,-19.842531,-47.446657,-73.732323,-90.891876,-47.822708,-89.629911,-84.119044,-72.539981,-44.117677,-95.583209,-116.993009,-130.977566,-40.271432,-79.870141,-69.94894,-58.103942,-39.149403,-72.899328,-66.833415,-56.706246,26.404781,281.225236,-181.381485,-95.164613
63,-0.222267,-0.089044,-0.355511,-1.202008,-24.445518,-48.515144,-72.683258,-91.098415,-60.802734,-93.703365,-110.321651,-122.911045,-56.625034,-92.369819,-111.746567,-127.050201,-49.828056,-82.524582,-101.267143,-115.776523,-41.397766,-66.929237,-81.438022,-93.753788,-20.80874,-25.222215,-17.582491,-8.747958,3.829501,13.765217,17.701077,19.903134,22.163335,30.472421,33.787405,36.244306,35.792824,45.428407,49.836942,52.696542,44.637409,54.697317,58.46408,60.425088,-21.130623,-35.811607,-41.120807,-37.386257,-30.657119,-26.158435,-21.648124,-20.460113,-11.481708,-7.125606,-4.034351,-1.988227,7.622258,7.833287,5.566681,4.14616,25.8708,20.687611,16.663617,15.695103,-19.517459,-47.197446,-73.439978,-90.566872,-47.942668,-89.408342,-83.780316,-72.155104,-44.148646,-95.23834,-116.660923,-130.808689,-40.143622,-79.407665,-69.496989,-57.737639,-38.815,-72.432758,-66.493412,-56.519773,26.086984,281.160336,-181.832526,-96.342477
64,-0.020965,-0.032604,-0.453552,-1.200317,-24.527367,-48.541512,-72.701901,-91.28373,-60.822659,-93.412342,-110.032906,-122.798504,-56.588505,-92.11924,-111.504456,-126.977246,-49.773857,-82.254147,-100.947396,-115.47345,-41.367897,-66.846943,-81.369656,-93.704659,-20.836528,-25.249175,-17.500697,-8.744365,4.044664,13.884049,17.878127,20.123817,22.487376,30.70932,34.063059,36.532075,36.143331,45.702344,50.052871,52.842211,44.976592,55.0138,58.674649,60.508401,-21.114876,-35.628193,-40.870628,-37.174267,-30.179603,-25.403229,-21.220241,-20.245102,-11.063702,-6.550461,-3.691429,-1.73933,7.978146,8.197964,5.78373,4.358494,26.147873,21.06348,16.909927,15.886311,-19.244047,-46.909476,-73.105087,-90.236038,-47.907819,-89.189804,-83.513551,-71.871237,-44.127836,-94.986052,-116.368355,-130.594804,-40.014835,-79.117274,-69.26272,-57.56333,-38.47767,-71.972887,-66.217514,-56.420901,25.948317,281.153979,-182.40378,-97.516547
65,-0.145638,-0.024898,-0.585812,-0.918902,-24.542541,-48.468658,-72.572388,-91.257488,-60.805321,-93.177852,-109.81279,-122.727321,-56.477966,-91.863441,-111.214668,-126.741165,-49.613296,-81.947491,-100.58662,-115.082313,-41.20198,-66.642002,-81.152687,-93.462124,-20.915,-25.314655,-17.409121,-8.657272,4.246243,14.07161,18.128896,20.419873,22.79351,31.004561,34.401673,36.874395,36.446785,45.920768,50.212916,52.91073,45.259273,55.268941,58.848019,60.583515,-20.963722,-35.431526,-40.682739,-37.21923,-29.873291,-24.601032,-20.688526,-20.051696,-10.822666,-5.966102,-3.124156,-1.229965,8.172192,8.495728,6.079617,4.677601,26.268746,21.430493,17.231736,16.166382,-18.939148,-46.564081,-72.609247,-89.636061,-47.870744,-89.223244,-83.144064,-71.256971,-44.038421,-94.917398,-115.983804,-130.137036,-39.807675,-78.813344,-68.962533,-57.331398,-38.150893,-71.522041,-65.903328,-56.24163,25.66785,281.179445,-183.124421,-98.385085
66,-0.249985,0.040731,-0.251506,-0.320948,-24.540641,-48.404502,-72.487403,-91.14497,-60.71648,-92.983715,-109.576709,-122.514896,-56.368515,-91.642959,-110.913906,-126.381191,-49.492652,-81.748249,-100.330421,-114.765529,-41.115715,-66.555908,-81.081321,-93.384418,-20.925054,-25.393647,-17.531202,-8.711328,4.266731,14.09899,18.145408,20.38638,22.87996,31.063285,34.392744,36.800849,36.572323,45.976948,50.136036,52.708299,45.415884,55.441916,58.912869,60.541018,-20.951134,-35.452034,-40.519696,-36.916718,-30.070439,-24.536991,-20.698826,-20.18652,-11.027161,-5.933293,-2.958195,-0.928585,8.017181,8.264774,5.821174,4.464534,26.139267,21.291423,17.072422,15.986995,-18.730308,-46.515477,-72.564582,-89.346198,-47.872022,-89.231729,-82.654732,-70.576058,-43.939039,-94.939517,-115.648382,-129.637419,-39.659924,-78.705463,-68.763678,-57.137057,-38.016721,-71.474342,-65.853656,-56.222842,25.312957,281.296441,-183.480835,-98.629768
67,-0.239959,0.03915,-0.076424,0.507453,-24.479348,-48.311051,-72.370503,-90.980793,-60.579655,-92.846192,-109.486554,-122.462288,-56.256638,-91.496327,-110.753357,-126.209233,-49.380318,-81.590367,-100.128285,-114.519642,-40.99482,-66.391434,-80.857739,-93.085945,-20.951038,-25.437564,-17.503439,-8.645145,4.205944,14.129297,18.224226,20.483525,22.836475,31.125727,34.498152,36.915347,36.538855,45.958003,50.149263,52.741434,45.387207,55.421278,58.877832,60.487998,-21.018677,-35.42561,-40.392712,-36.968227,-29.982399,-24.590916,-20.699432,-20.063942,-10.943962,-5.989769,-2.915874,-0.697048,8.105209,8.239346,5.804226,4.544746,26.137081,21.210537,16.964424,15.843739,-18.584911,-46.252377,-72.164505,-88.997111,-47.827581,-89.27739,-82.4726,-70.293048,-43.884375,-95.207625,-115.724743,-129.554841,-39.631248,-78.994619,-69.000216,-57.31936,-38.017654,-71.490944,-65.906499,-56.377237,25.036497,281.414211,-183.59376,-98.043695
68,-0.1157,0.012881,0.453266,1.286156,-24.533524,-48.388779,-72.4949,-91.173191,-60.469723,-92.796089,-109.486439,-122.525688,-56.119869,-91.415485,-110.702763,-126.198635,-49.228134,-81.490883,-100.067482,-114.505188,-40.847923,-66.344788,-80.907715,-93.204781,-20.871096,-25.268874,-17.277432,-8.37779,4.306288,14.177301,18.2706,20.559552,22.93225,31.160554,34.542526,36.989694,36.647153,46.023372,50.197008,52.810175,45.508682,55.494934,58.901976,60.502411,-21.143886,-35.614357,-40.526115,-37.05661,-30.269691,-25.193722,-21.07719,-20.24992,-11.277946,-6.418075,-3.077545,-0.631714,7.792191,7.929508,5.518559,4.324917,25.833115,20.879894,16.563606,15.361565,-18.728295,-46.368184,-72.2514,-89.095745,-47.846597,-89.560334,-82.522544,-70.202994,-43.880504,-95.679185,-115.926253,-129.48066,-39.632483,-79.471085,-69.406997,-57.676938,-38.10989,-71.679795,-66.018292,-56.483445,24.940298,281.505163,-183.120993,-96.679468
69,-0.051132,0.151016,0.349274,2.317777,-24.556572,-48.496033,-72.710221,-91.418633,-60.242066,-92.797016,-109.585133,-122.661129,-55.863282,-91.409821,-110.758541,-126.221066,-48.985291,-81.435219,-100.105362,-114.58849,-40.710182,-66.415352,-81.088211,-93.417618,-20.868934,-25.255041,-17.279568,-8.168258,4.318725,14.199211,18.254657,20.555058,22.977366,31.203323,34.517727,36.918423,36.701259,46.081455,50.216461,52.843422,45.550204,55.53059,58.825456,60.385395,-21.150032,-35.388794,-40.075722,-36.743305,-30.433697,-25.460896,-21.036026,-19.971382,-11.381607,-6.516152,-2.900871,-0.147503,7.824039,8.225784,5.88422,4.755215,26.004433,21.177967,16.829613,15.594097,-19.128635,-46.846919,-72.753357,-89.759266,-48.335756,-90.107603,-82.929077,-70.633626,-44.304006,-96.407503,-116.509751,-129.871095,-40.015255,-80.223776,-70.120745,-58.377969,-38.478948,-72.187677,-66.400425,-56.814983,25.049727,281.774271,-182.611158,-94.243599
70,0.069694,0.236183,1.017826,3.124478,-24.603309,-48.735946,-73.180801,-92.084621,-59.962669,-92.828579,-109.698829,-122.75378,-55.549347,-91.486301,-110.867981,-126.259357,-48.695251,-81.476108,-100.259594,-114.790191,-40.552116,-66.603595,-81.451618,-93.876674,-20.885162,-25.13837,-17.06937,-7.79158,4.307907,14.199631,18.159846,20.473498,23.01223,31.132755,34.309097,36.680585,36.76974,46.067673,50.10447,52.746894,45.624675,55.521525,58.692705,60.264401,-21.43174,-35.602284,-40.034649,-36.56163,-30.503849,-25.856838,-21.403656,-20.095173,-11.322556,-6.559811,-2.947998,0.000252,7.954639,8.238739,5.689373,4.572178,26.12582,21.152653,16.517281,15.161739,-19.684543,-47.55431,-73.558066,-90.485281,-48.770491,-90.788163,-83.61145,-71.371302,-44.686031,-97.165551,-117.256814,-130.445195,-40.378983,-81.059404,-71.012405,-59.252197,-38.812344,-72.79213,-66.934186,-57.298593,25.58123,282.137601,-181.131523,-90.991974
71,0.270241,0.260686,1.354019,4.350076,-24.593307,-48.894379,-73.492355,-92.409164,-59.684807,-92.795792,-109.819221,-122.962006,-55.339874,-91.529755,-111.020679,-126.383205,-48.571541,-81.554787,-100.473667,-115.090462,-40.576263,-66.836586,-81.837822,-94.388695,-20.854386,-24.988243,-16.839449,-7.374913,4.303547,14.142314,17.985944,20.271932,23.003795,31.037202,34.049449,36.288667,36.742557,46.004983,49.9969,52.634112,45.580721,55.506112,58.60823,60.184434,-21.720348,-35.766266,-39.763206,-35.711941,-30.493767,-26.17543,-21.641991,-20.107029,-11.179218,-6.353657,-2.765774,0.328514,8.217339,8.698975,5.873612,4.705753,26.412048,21.431774,16.576424,15.171501,-20.212059,-48.283845,-74.232674,-90.995673,-49.276588,-91.506488,-84.002241,-71.59805,-45.129832,-98.103503,-118.096002,-130.892836,-40.873049,-81.889874,-71.812503,-60.015491,-39.314598,-73.308323,-67.204178,-57.550161,26.784622,282.582427,-178.844353,-86.457758
72,0.557716,0.357103,1.744286,5.871241,-24.538536,-48.951599,-73.773319,-92.788456,-59.34288,-92.796913,-109.989578,-123.218822,-55.035484,-91.627304,-111.225093,-126.562683,-48.365821,-81.665622,-100.770618,-115.502494,-40.561157,-67.056598,-82.250404,-94.946319,-20.727181,-24.808191,-16.728483,-7.110239,4.219479,14.012094,17.780808,20.074034,22.87933,30.829461,33.728482,35.927686,36.610621,45.872664,49.842005,52.529111,45.445549,55.421674,58.528399,60.20822,-21.927189,-35.764069,-39.435917,-35.135056,-30.55172,-25.999855,-21.567398,-19.941147,-11.236954,-5.738331,-2.160405,1.189739,8.230865,9.321647,6.241573,4.96162,26.545246,21.989284,16.893734,15.347683,-20.661904,-48.986361,-74.963129,-91.222571,-49.832835,-91.97831,-84.097243,-71.744787,-45.365446,-98.654134,-118.238429,-130.422792,-40.966656,-82.10415,-72.22477,-60.756906,-39.23673,-73.393084,-67.145511,-57.522836,28.926092,283.202716,-175.516313,-80.323331
73,0.86277,0.589457,1.602253,7.773297,-24.423843,-48.943519,-73.864746,-92.919479,-59.131519,-92.752281,-110.014766,-123.211063,-55.06533,-91.727199,-111.36914,-126.696796,-48.660003,-81.932567,-101.076622,-115.859436,-41.110313,-67.358917,-82.484424,-95.192928,-20.689377,-24.900866,-16.933705,-7.312978,4.028868,13.754941,17.377097,19.52874,22.633144,30.481362,33.10936,35.064662,36.319073,45.457158,49.32818,51.936406,45.142836,55.095767,58.237332,60.005382,-22.212868,-35.515286,-38.357369,-33.181401,-29.925373,-24.979534,-20.815155,-19.252087,-10.439381,-3.782719,-0.490322,2.736225,9.074775,11.162166,7.592285,6.032821,27.174396,23.440899,18.024273,16.334655,-21.68748,-50.159879,-75.923336,-91.56126,-49.866274,-91.76014,-83.694391,-71.629768,-44.822173,-98.076509,-117.134023,-128.404492,-40.217222,-81.690429,-72.065467,-60.80339,-38.31347,-72.645816,-66.344276,-56.691034,31.825258,284.090826,-171.877664,-72.251381
74,0.941712,0.494868,2.721439,9.443255,-24.236916,-48.790535,-73.707779,-92.822811,-59.1045,-92.652855,-109.879601,-122.997517,-55.296501,-91.818329,-111.387383,-126.730694,-49.120331,-82.226246,-101.288429,-116.078613,-41.67263,-67.595661,-82.637135,-95.417095,-20.618611,-24.929358,-17.002075,-7.567266,3.960436,13.46816,16.958379,19.020028,22.480459,29.973365,32.369467,34.198749,36.113332,44.947112,48.740859,51.30896,44.938405,54.744519,58.018019,59.946892,-22.649117,-35.265804,-36.465832,-30.091301,-29.720295,-24.670235,-20.811584,-19.47892,-10.194283,-2.547832,1.033264,4.282299,9.303612,12.144379,8.264008,6.426281,27.161739,24.064259,18.470684,16.750042,-22.055913,-50.554055,-75.595641,-90.144177,-48.05669,-89.542367,-81.420984,-69.818513,-42.555889,-95.818497,-114.152722,-124.095955,-37.867544,-79.266456,-69.804629,-58.822077,-35.886764,-69.866534,-63.339524,-53.80803,35.203085,284.861431,-166.72011,-62.532389
75,1.248115,0.223166,2.020168,9.886958,-24.052322,-48.555381,-73.382309,-92.339653,-59.016346,-92.564941,-109.844547,-122.994598,-55.456054,-91.82563,-111.455509,-126.944057,-49.452072,-82.358173,-101.430221,-116.31055,-42.043006,-67.559429,-82.481071,-95.26815,-20.433656,-24.928494,-17.274579,-7.883453,4.024373,13.212846,16.624273,18.607807,22.398307,29.646002,31.927605,33.663718,35.925537,44.669704,48.532229,51.151089,44.642485,54.521266,58.009559,60.118756,-22.033767,-31.942291,-29.67509,-21.922691,-28.436325,-22.525474,-18.109096,-16.811931,-9.850799,-0.366325,4.166703,7.386875,8.96077,14.041066,10.442311,8.123543,26.191281,25.290768,20.023178,18.14082,-22.042841,-49.648517,-72.701348,-85.688836,-44.515545,-83.500893,-75.498509,-64.721305,-38.35646,-88.701349,-103.612733,-110.375712,-33.607823,-72.981852,-63.93981,-53.668592,-31.626289,-63.024512,-56.620342,-47.642901,39.42394,285.481575,-161.727202,-52.248453
76,1.122071,-0.001692,2.541481,21.121135,-23.842438,-48.356484,-73.137955,-92.065716,-58.850327,-92.435692,-109.719658,-122.863301,-55.364342,-91.757035,-111.414665,-127.02863,-49.450676,-82.317684,-101.418,-116.372109,-42.080429,-67.453537,-82.340172,-95.167053,-20.335486,-24.948414,-17.59289,-8.295082,4.176872,13.22075,16.573415,18.465299,22.471604,29.579423,31.831287,33.578145,35.927365,44.597592,48.483768,51.147903,44.52858,54.407806,58.060639,60.346701,-21.176571,-28.967868,-24.694942,-16.160511,-26.241119,-19.980297,-15.919361,-14.653381,-7.685955,3.67463,8.676396,12.042126,10.930092,17.356133,13.157341,10.193013,27.700207,27.628636,21.959027,19.671124,-23.781386,-52.048527,-74.757809,-86.514096,-45.922126,-84.458064,-76.5951,-66.208007,-39.205046,-88.705609,-102.012946,-105.936802,-33.92399,-72.437839,-63.885086,-53.404701,-31.1676,-61.974553,-55.902277,-46.806608,43.849863,285.857657,-155.881869,-30.749544
77,0.992477,-0.118907,3.78645,25.10526,-23.676155,-48.312469,-73.04203,-92.03603,-58.81596,-92.337307,-109.657619,-122.837368,-55.45713,-91.732555,-111.439121,-127.11137,-49.662094,-82.364788,-101.508396,-116.490108,-42.352066,-67.561638,-82.428085,-95.286449,-20.422331,-25.123242,-17.92202,-8.842116,4.172648,13.120814,16.400193,18.165168,22.427268,29.503211,31.647098,33.244421,35.834913,44.498545,48.396255,51.012719,44.375736,54.25795,57.965396,60.298376,-16.236409,-21.117302,-15.435248,-6.856184,-19.90341,-13.122065,-9.16816,-8.044413,-4.1395,7.956201,12.969051,15.785797,11.667022,18.760568,14.761299,11.543976,25.643892,26.281849,21.266893,19.140163,-23.835236,-51.55055,-73.384365,-84.446664,-47.67987,-84.320305,-78.135427,-69.016221,-42.0105,-87.784815,-98.271986,-99.071076,-37.076485,-73.050824,-64.965308,-54.287288,-33.914404,-62.86069,-57.50449,-48.665376,48.520517,285.570273,-148.417242,-5.812761
78,0.768128,-0.412271,5.110908,28.662269,-23.613213,-48.330574,-73.058796,-92.239563,-58.785839,-92.338692,-109.690922,-122.967099,-55.30703,-91.688908,-111.407971,-127.11026,-49.422776,-82.245175,-101.464634,-116.521351,-42.057518,-67.486325,-82.44793,-95.364739,-20.475349,-25.141865,-18.067318,-9.248853,4.243785,13.242549,16.520681,18.234378,22.525612,29.623785,31.846182,33.51847,35.952523,44.693985,48.661758,51.332315,44.463088,54.361852,58.134531,60.538215,-7.016578,-8.171985,-2.211416,4.329764,-9.553076,-1.796327,2.225006,3.214743,0.410843,11.880392,16.55325,18.593663,10.716454,17.671641,15.00333,12.167198,19.823027,21.021584,17.8352,16.419331,-21.423623,-47.23151,-67.835078,-78.937694,-50.193736,-83.26542,-80.17332,-73.288652,-47.301343,-86.643204,-93.066939,-90.640441,-43.63097,-75.047474,-67.696078,-57.291649,-40.30433,-66.119149,-62.094843,-54.189938,53.25741,284.775912,-139.337569,22.467418
79,0.550598,-0.545527,4.022381,33.59633,-23.643563,-48.47493,-73.191891,-92.431046,-58.713501,-92.406029,-109.88205,-123.281639,-55.078491,-91.622761,-111.470524,-127.218727,-49.098931,-82.06778,-101.471684,-116.66343,-41.716255,-67.379975,-82.462876,-95.456829,-20.42159,-25.099369,-18.300266,-9.609933,4.363086,13.497874,16.796248,18.423161,22.709591,29.988433,32.263343,33.915561,36.164499,45.062474,49.061604,51.70173,44.641064,54.653313,58.453693,60.873346,1.231213,4.373337,10.979668,16.2869,1.400293,11.882378,16.467018,17.2981,6.830801,20.109112,24.759161,26.006304,12.636412,21.876366,19.775803,16.593241,17.735338,21.225037,19.180864,17.770792,-21.297189,-45.851974,-65.17286,-75.722134,-52.111092,-81.738409,-81.62124,-76.824443,-49.976855,-83.272273,-87.211107,-83.14482,-46.216317,-73.766297,-68.255438,-58.818477,-41.821581,-65.437272,-63.521762,-56.919053,57.641802,283.478808,-131.481394,55.312171
80,0.140556,-0.364908,4.019154,39.90345,-23.578834,-48.446251,-73.184509,-92.593826,-58.618755,-92.410789,-109.907101,-123.322803,-54.830589,-91.684971,-111.555073,-127.230263,-48.833038,-82.105682,-101.594753,-116.820442,-41.589477,-67.645763,-82.87088,-95.940502,-20.536619,-25.225093,-18.615242,-10.07873,4.388058,13.657882,16.912795,18.386148,22.837809,30.289318,32.523275,34.059316,36.325458,45.312489,49.177163,51.659036,44.826192,54.80086,58.453817,60.773792,7.57751,14.194439,20.943775,25.465873,11.764738,25.900303,30.819522,31.220752,14.771661,31.340137,36.310953,37.149416,17.755079,30.434475,27.913169,23.930769,20.162195,26.273735,24.527784,22.733476,-23.306362,-47.971521,-66.65923,-76.426842,-53.720283,-81.672157,-84.459067,-81.608754,-50.666614,-80.996351,-86.501817,-83.822167,-45.581147,-71.36454,-68.530437,-60.47915,-39.210502,-63.091183,-63.599074,-58.470915,60.928305,281.837229,-124.316293,93.93895
81,-0.098923,-0.247693,2.957061,32.904491,-23.628158,-48.493217,-73.255279,-92.707843,-58.638874,-92.552192,-110.041305,-123.389866,-54.766502,-91.849411,-111.661537,-127.163475,-48.784355,-82.274059,-101.733982,-116.875534,-41.679428,-67.963291,-83.171459,-96.159279,-20.681374,-25.356078,-18.666594,-10.140814,4.337151,13.704145,16.915809,18.327682,22.894187,30.416845,32.546233,34.010509,36.440449,45.499852,49.186166,51.537239,45.019421,54.982912,58.480036,60.720662,13.916977,25.140473,34.09318,38.606884,23.286564,43.862034,50.198857,50.040345,22.957581,44.488415,49.747822,49.418467,22.412402,40.571366,38.924761,34.417786,21.616328,33.107798,32.479506,30.29056,-23.415333,-45.738647,-61.37458,-69.433577,-48.684635,-71.21319,-77.05426,-76.846282,-43.604812,-67.262207,-72.763356,-71.411597,-36.954225,-58.883732,-59.657143,-54.397123,-29.08239,-50.314152,-53.835839,-51.189924,63.234226,280.132844,-118.954388,125.386749
82,-0.184662,-0.379173,1.248322,32.520849,-23.765876,-48.559341,-73.264446,-92.544422,-58.657814,-92.511531,-109.953563,-123.282886,-54.747665,-91.841205,-111.567741,-127.009243,-48.788589,-82.385959,-101.768966,-116.854202,-41.794555,-68.19944,-83.374534,-96.349731,-20.565653,-25.111002,-18.375317,-9.694876,4.625267,13.989074,17.11577,18.445725,23.201124,30.601887,32.624176,34.004038,36.771926,45.711212,49.21971,51.43303,45.422714,55.3557,58.807338,61.003047,16.382664,31.72411,44.473057,51.091387,32.263006,60.95196,68.899818,68.19972,31.502232,60.758406,66.331112,64.756296,30.031259,55.502729,54.170179,48.704521,28.145096,46.219843,45.854897,42.596048,-24.956615,-45.576012,-57.909033,-63.079361,-41.630207,-58.815113,-66.051578,-67.416707,-32.123463,-50.56054,-57.633281,-58.213719,-22.480775,-41.158901,-46.042972,-43.688707,-12.671376,-31.353151,-37.722435,-37.250238,64.514585,278.651917,-116.241045,156.805844
83,-0.438629,-0.220486,-0.923344,29.282539,-23.576065,-48.052528,-72.311519,-90.787136,-58.642444,-92.423595,-109.897178,-123.206531,-54.828277,-91.79338,-111.508964,-126.793647,-48.92308,-82.383762,-101.795723,-116.856159,-41.940261,-68.410801,-83.602077,-96.568931,-20.432421,-25.325597,-19.370808,-10.835357,4.772406,13.856533,17.007336,18.477144,23.250772,30.642296,32.619396,33.946314,36.803974,45.844222,49.247423,51.243641,45.538385,55.641407,59.112558,61.16203,16.607243,35.332924,52.286431,62.835978,38.629492,72.602,83.606415,85.729403,39.245579,75.226176,85.20464,87.246867,38.913191,71.136355,74.098612,71.926426,37.814793,61.669951,64.145829,62.958304,-27.766122,-46.423209,-55.949933,-58.848816,-31.375773,-44.104731,-50.576437,-52.256888,-16.832116,-31.112568,-39.832174,-42.501475,-4.330513,-18.726674,-25.474329,-25.57037,6.552985,-8.139633,-15.257258,-16.755313,64.870474,277.600635,-116.369871,185.257587
84,-0.583534,-0.109866,7.863373,28.999655,-24.422928,-49.956276,-74.77541,-93.536693,-58.806782,-93.144367,-110.914444,-124.051872,-54.75959,-92.107853,-112.029899,-126.988655,-48.917313,-82.690143,-102.317104,-117.22213,-42.211487,-69.032604,-84.30899,-97.180847,-20.353899,-25.29781,-20.070452,-12.575336,2.458346,10.552096,13.313401,14.610802,21.209735,28.830008,30.884567,32.226416,35.484454,45.076208,48.561747,50.46671,44.957091,55.17056,58.688666,60.758157,13.434277,32.298992,51.594835,66.068722,39.996454,77.12106,88.462818,90.657807,43.090044,82.281967,92.002836,92.752247,44.646664,79.532696,83.057379,79.827135,44.470196,70.631373,73.44484,70.676525,-29.686338,-47.008357,-54.145763,-54.845389,-24.634808,-32.131836,-37.423467,-38.75153,-4.940984,-14.528285,-23.639534,-26.993276,11.195244,1.871327,-5.47037,-7.085014,24.009251,15.562437,8.874182,6.308619,64.734724,276.949739,-108.058714,213.716212
85,-0.278503,-0.575773,3.866078,20.956015,-25.570198,-51.629814,-76.131375,-94.320225,-58.69051,-93.381741,-111.235611,-124.138241,-54.572983,-91.952339,-112.259056,-127.112458,-48.953499,-82.801403,-102.83741,-117.932637,-42.385369,-69.118058,-84.630238,-97.687832,-19.813361,-24.526955,-19.448601,-12.678027,1.281642,8.800915,10.782103,11.32857,20.02283,27.672817,29.24665,30.118664,34.725122,44.439795,47.683322,49.231664,44.734691,55.144871,58.857961,61.003652,14.760589,35.231723,56.181844,72.873184,42.823408,83.522998,97.248756,101.551483,44.730749,87.649932,99.622518,101.584991,45.552452,83.719493,91.95516,91.543001,44.882309,74.116956,80.561176,79.703086,-28.113073,-41.693554,-45.684017,-44.774057,-16.3255,-18.34526,-22.337026,-23.469433,5.242585,1.252897,-6.540277,-9.801955,22.071666,18.370358,11.395569,8.636851,34.302897,31.894359,26.175993,22.838019,64.842024,276.121259,-103.806833,234.41952
86,-0.022545,-0.162577,3.647312,16.15873,-26.223931,-52.816933,-77.133522,-95.656197,-57.572983,-92.606289,-110.728478,-123.771755,-53.804833,-90.998429,-111.679848,-126.804932,-48.810906,-82.476368,-102.884136,-118.305828,-42.857346,-69.230679,-85.003819,-98.410469,-19.227534,-24.169321,-19.841963,-14.36154,1.088339,7.818541,8.526287,7.909907,19.81325,27.003455,27.28689,26.940124,34.502611,43.974939,46.335249,46.761537,44.551268,54.942602,58.51306,60.20822,17.047371,38.809192,61.03696,79.882816,44.789211,85.557392,101.561657,109.184337,45.074123,88.711624,104.093719,109.549667,44.98241,83.926357,97.302589,101.534763,43.875881,73.760719,83.947643,86.723636,-25.795444,-35.655602,-36.917076,-35.038925,-7.86841,-5.878256,-8.541477,-9.429621,14.152775,14.884678,9.284656,6.571738,30.536518,32.440246,27.431485,24.521484,41.390215,44.772408,40.922431,37.454601,65.310316,275.813312,-99.668684,250.43288
87,-0.338402,-0.54591,3.988712,12.119432,-26.886063,-53.598747,-76.497642,-93.594074,-56.872089,-90.136562,-107.68681,-120.03368,-52.990288,-88.208313,-108.111122,-122.202461,-48.254791,-80.351177,-99.670029,-113.949852,-42.623222,-67.707756,-82.613045,-95.158424,-18.581206,-23.43774,-19.052114,-14.044094,1.563532,9.249742,9.956759,8.932468,19.857215,28.355912,28.366694,27.268154,34.281877,44.776681,46.40126,45.558762,44.49269,55.045157,57.889059,58.560015,19.071854,41.579556,64.254547,84.303612,45.830475,84.529415,102.308762,113.235935,44.575138,86.622036,105.634747,115.359867,43.529022,81.414219,99.456322,108.412903,42.047516,70.846104,84.549603,91.41227,-23.528376,-30.462392,-29.842615,-28.292149,-0.659247,3.191002,1.979892,1.701854,20.596097,24.010747,20.798342,18.807435,35.760133,41.552581,39.276325,36.558912,45.067736,53.000058,51.711426,48.635613,65.431417,275.243641,-95.220469,262.528551
88,-0.617935,0.912905,5.612846,10.180902,-26.333107,-53.22995,-75.289787,-90.65118,-57.961189,-87.042446,-98.281414,-104.853802,-54.492737,-84.977989,-96.878929,-103.743279,-50.129528,-77.948216,-89.829655,-97.376061,-44.628056,-66.618416,-76.872952,-84.6866,-18.455247,-23.429353,-18.703496,-13.765747,-0.212545,7.968162,8.940855,7.703055,17.981251,27.173936,27.974925,26.777078,32.786604,43.026045,44.790612,43.614847,43.887957,53.93801,56.183996,56.326071,19.107846,41.970532,65.305584,86.312039,45.468796,84.156876,102.068127,112.865857,43.564648,85.498799,104.445786,113.933384,41.912407,79.378144,96.954976,105.743042,40.160729,68.430806,81.929959,89.195847,-21.930313,-27.649451,-25.215978,-23.202483,3.560047,8.896765,8.741907,9.04772,24.736153,29.638913,27.726009,26.232156,39.557771,47.019234,45.716794,43.163056,48.513952,58.522397,58.421336,56.109771,65.288407,276.056825,-89.132698,272.609732
89,-1.306938,1.304774,-2.022319,3.221741,-24.466141,-50.032242,-70.314068,-83.691834,-57.161511,-81.155789,-86.424385,-88.013054,-54.312241,-78.701088,-82.890519,-83.18676,-50.223427,-72.225037,-76.298321,-77.525746,-44.590657,-61.923764,-66.824696,-70.029476,-18.72748,-23.719976,-17.684639,-11.390876,0.398352,8.804362,9.739967,8.419459,18.124215,27.200414,27.875136,26.352939,32.30022,41.569624,42.370231,40.613617,43.183953,52.375329,53.391148,52.644017,23.611873,48.966774,73.383945,94.246341,49.798816,88.892166,109.202808,122.75465,44.84349,87.779285,110.46278,124.319446,40.682819,79.454372,100.743862,114.213626,37.520015,67.228729,83.563945,95.31586,-19.184161,-22.63628,-18.823131,-17.370353,9.248594,15.280893,16.094504,16.723568,28.111987,34.417358,34.233107,33.200183,40.492228,49.163591,48.871117,46.473052,47.374324,57.407629,57.897187,55.915381,64.44702,277.371396,-90.689466,275.84127
90,-5.320668,3.078616,2.602466,3.610806,-20.782974,-43.995929,-62.478538,-74.158126,-53.877147,-71.508894,-70.493185,-66.949539,-52.117904,-69.229459,-65.096958,-58.221233,-48.898773,-63.752546,-59.449756,-53.687862,-44.186296,-55.918213,-54.60411,-52.474319,-20.154173,-25.934178,-19.588101,-12.52772,-1.42615,7.128536,8.78128,8.109725,16.428074,25.913153,27.154089,25.774474,30.614082,39.547311,39.753965,37.552007,41.792963,50.265157,49.821449,47.851031,24.781426,50.141922,74.770809,95.986279,52.060421,89.496151,109.746483,124.188515,46.343537,87.547325,110.673088,126.251152,41.225247,78.472,100.028664,115.070847,37.156803,65.921585,82.395287,95.626557,-17.984375,-20.854658,-16.724432,-15.963988,11.459123,18.377973,20.252518,21.542076,29.507731,37.008097,38.142094,37.862377,41.155205,51.089167,51.845733,49.988107,47.44504,58.092256,59.155252,57.628461,59.526792,280.57895,-87.68656,279.581014
91,-9.183174,4.058435,2.981632,2.830602,-15.92823,-35.128246,-50.826633,-59.546699,-48.752723,-58.620031,-50.568082,-41.25531,-48.252365,-57.014917,-44.126713,-29.322475,-46.242359,-52.869226,-39.90073,-26.719722,-42.934965,-48.161178,-39.998405,-31.983467,-22.375756,-29.007312,-22.363832,-14.306712,-5.51567,3.565067,6.738958,7.240674,12.756863,23.424142,26.168713,25.612614,27.6943,36.828786,37.089706,35.031737,39.92794,48.009575,46.284225,43.285279,24.638329,49.860077,74.224354,95.156617,53.290833,90.312539,110.282994,124.604176,47.169011,87.845398,110.69949,126.335484,41.331528,78.238598,99.396584,114.269337,36.481213,65.336483,81.738636,94.89489,-17.879103,-20.594812,-16.214127,-15.77082,12.112047,19.834665,22.516967,24.335516,29.843875,37.961338,39.496132,39.458909,41.206593,51.253237,52.093389,50.144076,47.330332,57.556089,58.554804,56.954591,50.617676,284.799955,-84.43087,282.574186
92,-12.404434,5.7377,2.761116,1.239294,-9.997879,-23.834404,-36.430183,-42.84185,-40.38184,-43.022718,-28.859064,-14.849533,-42.095192,-41.398344,-20.947803,0.077831,-41.31958,-38.808226,-18.811157,-0.050377,-39.060476,-36.846302,-23.143684,-10.578117,-24.443913,-32.911271,-27.013983,-18.429133,-10.069146,-2.825322,0.669943,1.931547,8.959522,18.299426,21.727265,22.06898,24.500001,31.859051,32.271889,30.907847,36.982421,43.756107,41.543806,38.324325,24.352776,49.5416,73.603569,94.418187,53.762948,90.17157,110.024586,124.388066,47.131234,87.467732,110.19627,125.779507,40.684674,77.378689,98.187504,112.802067,35.147347,64.179371,80.447125,93.194321,-18.076433,-20.503199,-15.782763,-15.104213,12.289369,21.418106,24.731262,26.852562,29.962424,39.464108,41.493658,41.816206,41.216424,52.073443,53.087224,51.246963,47.201595,57.152884,57.777489,55.799463,38.43116,290.641291,-81.451836,283.917116
93,-15.214977,5.171078,1.73655,0.360067,-4.84425,-12.24424,-20.321091,-24.500198,-27.552853,-24.870764,-10.431467,2.956913,-30.352719,-22.85626,-2.289803,18.110939,-30.591866,-21.832461,-1.225079,17.460674,-29.606249,-22.132302,-6.872166,6.327953,-25.40628,-35.113686,-30.420593,-22.294473,-12.414253,-6.35484,-2.84883,-1.245919,6.618527,15.11371,17.997812,18.28673,21.772449,28.638471,28.230066,26.597657,33.676489,39.495712,36.637304,32.937405,24.209907,49.463837,73.299831,93.768665,54.043144,89.931999,109.654026,124.140896,47.07407,87.295864,109.915409,125.581913,40.216793,76.913933,97.581356,112.111278,34.229496,63.366966,79.591175,91.957924,-18.013584,-20.043814,-14.984775,-13.663872,12.827758,22.872093,26.529113,28.796637,30.525649,40.722667,42.906458,43.415022,41.668041,52.767023,53.739815,51.942804,47.38771,56.804722,56.931607,54.5473,23.363903,295.868173,-79.567566,284.332987
94,-16.309113,6.381893,0.662098,-0.161268,0.653961,0.317036,-2.892997,-4.044616,-14.112831,-5.6672,9.574007,22.847019,-18.229316,-4.441709,16.541977,36.598114,-19.965992,-5.659841,14.927731,33.262905,-20.780714,-9.304149,6.458279,19.885655,-25.495596,-36.975548,-35.322687,-29.741808,-15.235457,-9.341312,-5.293665,-3.433662,3.350695,11.497754,14.746715,15.132247,18.06399,24.597696,24.480012,22.664538,29.622327,34.796851,32.158238,28.230677,24.157081,49.611133,73.253071,93.363212,54.214073,89.796558,109.400734,123.978172,46.946926,87.177589,109.699196,125.558281,39.789367,76.554107,97.277984,111.973961,33.456608,62.596401,78.832443,91.01429,-18.01588,-19.452466,-13.686164,-11.621526,13.374053,24.229281,28.056189,30.290566,31.308892,42.042904,44.1717,44.714597,42.448901,53.785202,54.621302,52.793441,47.910922,56.988233,56.745257,54.079282,7.155172,302.243187,-78.805086,284.16484
95,-0.744976,1.120721,0.213856,-0.126267,1.026924,0.991265,-1.952923,-2.366798,-15.118675,-5.750759,10.347885,24.379406,-19.659611,-4.691791,17.193684,38.260723,-21.489063,-6.150707,15.189411,34.385182,-22.297851,-10.191833,6.116902,20.114193,-25.813821,-37.819769,-36.647326,-30.85988,-15.556572,-9.716366,-5.421007,-3.334992,3.134549,11.408944,14.877094,15.323599,18.038802,24.597227,24.490065,22.613297,29.764501,34.94089,32.074448,27.990436,24.032512,49.716339,73.363151,93.298107,54.313522,89.81567,109.296123,123.907527,46.951892,87.297134,109.729694,125.67564,39.686176,76.577682,97.311939,112.125766,33.218685,62.489536,78.781414,90.906955,-17.982807,-19.049471,-12.764885,-9.955896,13.847085,24.91313,28.78677,31.02957,31.914144,42.759431,44.927043,45.559936,43.073419,54.337497,55.150466,53.314293,48.411211,57.119761,56.690472,53.902774,6.467685,303.289301,-78.533741,283.963966
96,2.460411,0.563003,0.226249,-0.20311,0.551949,-0.24028,-3.376156,-3.67155,-17.845596,-8.774482,7.092511,20.848698,-22.623871,-6.85025,15.171055,35.987171,-23.717251,-7.852787,13.476208,32.445637,-23.27092,-11.00695,5.105015,19.05756,-25.049438,-37.430988,-35.883881,-29.692155,-15.840586,-10.635348,-6.055752,-3.718178,2.779164,10.458988,14.609752,15.497797,17.586814,23.494463,23.956887,22.530255,28.988237,33.562633,30.943551,27.005567,24.053913,49.894936,73.543396,93.291836,54.620213,89.993214,109.312145,123.845158,47.155346,87.383755,109.657116,125.667538,39.726322,76.544449,97.16454,111.976696,33.075897,62.333817,78.593502,90.719593,-17.849475,-18.841458,-12.385453,-9.323213,13.972995,25.237888,29.309204,31.722706,32.090776,43.142593,45.56826,46.482969,43.326522,54.64236,55.625093,53.903405,48.748715,57.32518,56.938203,54.179849,8.905483,303.760002,-78.330105,283.668554
97,7.419663,-1.150991,0.130955,-0.165948,-1.446945,-5.105725,-10.512268,-12.464607,-23.859478,-17.585129,-1.80344,12.021709,-28.016018,-15.548229,6.290462,26.981472,-28.479115,-15.646511,5.505535,24.342144,-27.328503,-17.731419,-1.88451,11.996647,-24.364786,-36.421652,-34.188375,-28.222037,-15.855406,-10.161277,-5.399061,-3.196325,2.59989,10.728505,15.364046,16.28477,17.604512,23.677381,24.578702,23.373914,29.229224,33.840943,31.609888,28.037355,24.183964,50.030239,73.715538,93.492371,54.598904,90.030956,109.327126,123.83345,47.057327,87.448803,109.757881,125.786224,39.570568,76.545307,97.247658,112.143036,32.894257,62.277042,78.667007,90.935577,-17.730358,-18.629704,-11.957794,-8.487656,14.166521,25.644539,29.783521,32.232629,32.318807,43.454049,45.918669,46.839318,43.579563,54.985136,56.021592,54.324518,49.000484,57.624435,57.34126,54.645867,16.246462,302.555798,-78.277834,283.449393
98,12.20161,-3.38207,0.072121,-0.086882,-5.09927,-13.476711,-22.381485,-26.65702,-32.224582,-30.660965,-16.756427,-3.995498,-35.414097,-28.606098,-8.340614,11.252358,-34.920021,-26.97781,-6.84011,11.057465,-32.768451,-26.845287,-12.010849,1.095841,-23.889369,-34.523544,-30.042748,-23.318388,-15.233975,-8.389584,-3.789709,-2.118027,3.501174,12.669678,17.474218,18.177012,19.121645,25.670264,26.765716,25.545405,31.166273,36.086101,34.029603,30.5019,24.269622,50.197357,73.991077,93.893531,54.445118,90.07315,109.422935,123.973388,46.794513,87.456939,109.773971,125.734932,39.299125,76.493442,97.254043,112.171989,32.700931,62.243454,78.730636,91.051609,-17.676661,-18.457853,-11.572411,-7.97845,14.239645,25.883907,30.076711,32.580209,32.486039,43.701384,46.186825,47.121504,43.811793,55.302187,56.342557,54.630898,49.214263,57.939584,57.713231,55.036104,28.301925,299.12379,-78.35186,283.312573
99,15.542748,-5.409608,0.074867,-0.078905,-9.859635,-24.02504,-36.937329,-44.227867,-41.563488,-47.016552,-36.476521,-25.92532,-43.409981,-44.015682,-26.886154,-9.834549,-41.547226,-40.288628,-21.970001,-5.457367,-38.103287,-36.741806,-23.597077,-11.650017,-23.618643,-32.768486,-25.571673,-16.880228,-14.235902,-6.735352,-2.491221,-1.381245,5.029818,14.917727,19.291126,19.65507,21.453415,28.545005,29.626848,28.547302,34.156673,39.64516,37.688253,34.286682,24.337543,50.312324,74.184872,94.216118,54.270355,90.04414,109.414421,124.013878,46.51942,87.375252,109.699264,125.592682,39.021973,76.355335,97.182129,112.114448,32.481193,62.124527,78.704761,91.076671,-17.619344,-18.322175,-11.26372,-7.441357,14.349487,26.173357,30.420587,32.939917,32.629337,43.989993,46.510176,47.418833,43.963626,55.62918,56.707355,54.954495,49.320079,58.229218,58.134184,55.505556,43.709936,293.656143,-78.41173,283.175629
100,3.665302,-1.225375,0.02005,-0.086562,-11.146534,-26.241405,-39.501572,-47.510404,-42.465048,-49.781055,-41.038193,-32.126284,-43.648121,-46.066652,-30.788086,-15.95121,-41.182005,-41.804249,-24.806408,-9.839138,-37.125641,-37.207643,-25.219597,-14.296497,-22.348567,-30.875175,-23.247208,-15.013451,-13.613298,-5.543161,-1.338403,-0.451167,5.333717,15.306334,19.60767,19.986293,21.517468,28.676984,30.018117,29.150276,33.957997,39.35765,37.867885,34.815389,24.408348,50.378334,74.292606,94.453377,54.306908,90.155159,109.505951,124.077621,46.417683,87.328674,109.58567,125.356338,38.812866,76.237884,97.018272,111.825508,32.204155,61.894787,78.527847,90.906475,-17.579515,-18.185274,-10.974209,-7.096839,14.251896,26.283569,30.624882,33.162207,32.580864,44.114235,46.71846,47.655547,43.982917,55.794721,56.894706,55.091828,49.388523,58.513628,58.515172,55.890347,47.231077,292.392634,-78.535841,283.050933
101,4.146607,-1.744597,-0.103981,-0.12912,-13.237278,-30.107083,-44.198925,-52.299826,-47.654051,-55.301434,-45.643788,-35.893015,-48.148247,-51.515265,-35.552147,-19.986031,-45.268187,-46.976944,-29.265576,-13.705983,-40.722256,-42.031203,-29.879723,-18.887593,-21.390658,-29.058972,-21.579984,-13.674592,-10.903171,-1.657665,2.493642,3.44048,7.603797,18.223794,22.203052,22.53367,23.423876,31.2088,32.24286,31.268007,35.68502,41.588767,40.010883,37.299138,24.494522,50.518295,74.447136,94.683792,54.33823,90.189823,109.553535,124.12262,46.367821,87.256725,109.546051,125.281311,38.710464,76.077038,96.864647,111.667213,32.051548,61.657207,78.303795,90.69841,-17.520284,-17.978694,-10.671533,-6.769537,14.39638,26.604449,30.969511,33.46855,32.70119,44.380071,47.060421,48.017059,44.083545,56.107202,57.291761,55.506112,49.476665,58.886033,59.010917,56.425847,51.226153,290.620867,-78.791353,282.894643
102,1.676673,-0.449086,-0.04097,-0.157822,-14.104625,-31.70811,-45.928745,-54.154695,-47.747045,-56.697567,-48.871387,-40.346792,-47.445213,-52.652681,-38.122535,-23.736854,-44.140726,-47.340328,-30.286251,-15.371074,-39.139709,-41.492414,-30.033599,-19.683895,-21.199454,-28.338728,-20.34489,-12.280589,-10.350098,-1.405773,1.800926,2.063087,8.008954,18.250655,21.425812,21.360215,23.697603,31.278887,31.783425,30.561409,36.076801,41.789838,39.7737,36.948729,24.641933,50.775524,74.723557,94.955521,54.507328,90.33173,109.628883,124.119644,46.413918,87.239639,109.479584,125.155678,38.614346,75.977554,96.683624,111.413658,31.82666,61.382652,77.962406,90.259094,-17.373145,-17.746858,-10.449404,-6.695584,14.560883,26.860182,31.248117,33.738869,32.837066,44.649537,47.414671,48.400677,44.21495,56.387624,57.690656,55.935166,49.615987,59.133479,59.34905,56.78784,52.707538,290.139334,-79.027611,282.704374
103,1.098198,-0.267416,0.046875,-0.204715,-14.280452,-31.989429,-46.21059,-54.892851,-46.998991,-56.507744,-49.931327,-42.414144,-46.521022,-52.295476,-39.029548,-25.668068,-43.08819,-46.866886,-30.542186,-16.241031,-38.037666,-40.676633,-29.879127,-20.130054,-20.935977,-28.084761,-20.530623,-12.835663,-9.642377,-1.204492,1.591196,1.631365,8.40796,18.437437,21.073624,20.852823,23.722526,31.330374,31.703198,30.556987,35.922944,41.796853,39.838228,37.162904,24.7924,50.943317,74.818508,94.914825,54.700069,90.381729,109.57933,123.981651,46.525337,87.198498,109.410622,125.116653,38.575768,75.842869,96.492897,111.200523,31.602024,61.047237,77.55455,89.83239,-17.212544,-17.531115,-10.262968,-6.463069,14.720459,27.218162,31.694894,34.218201,32.897446,44.905357,47.794152,48.838302,44.240046,56.627203,58.087464,56.409977,49.667894,59.351915,59.692086,57.204927,53.586605,289.848996,-79.199867,282.476737
104,0.320847,0.320886,0.046406,-0.120289,-14.393532,-32.440292,-46.795309,-54.959644,-50.646801,-58.314057,-49.471047,-40.129114,-50.490269,-54.59087,-39.022133,-23.332088,-47.08275,-49.388414,-31.357716,-15.546868,-41.719219,-43.668251,-31.685589,-21.049095,-20.919978,-27.945261,-20.512024,-12.806974,-8.398859,0.347062,3.484612,4.060663,9.55821,19.787073,22.799567,22.948435,24.65282,32.340605,32.68955,31.615556,36.652296,42.610445,40.422005,37.849353,24.966408,51.144333,74.941841,94.879246,54.91016,90.394901,109.507313,123.768116,46.63599,87.124832,109.294338,124.967228,38.539398,75.729847,96.249973,110.850094,31.438499,60.79042,77.182857,89.349403,-17.048894,-17.324066,-10.179988,-6.442668,14.939388,27.546673,32.110695,34.692974,33.048993,45.179392,48.156416,49.26512,44.390074,56.851764,58.361364,56.754976,49.86778,59.576093,59.864801,57.352066,53.619209,290.148359,-79.441704,282.334925
105,0.966762,0.279,-0.002495,-0.259772,-14.877559,-33.562488,-48.281553,-56.081239,-54.292985,-60.944503,-50.091476,-39.064029,-54.306118,-57.603281,-40.20671,-22.606739,-50.920017,-52.669218,-33.400405,-16.369548,-45.292636,-47.326005,-34.644413,-23.379695,-20.837546,-27.7015,-20.415291,-12.706098,-7.602093,1.544921,5.099856,6.231481,10.293806,20.60192,24.066612,24.664016,25.275271,32.935651,33.369194,32.412304,37.185302,43.16016,40.88832,38.513516,25.079132,51.318981,75.010117,94.709049,55.039856,90.317253,109.413105,123.6404,46.682751,86.941761,109.092808,124.80669,38.477737,75.465672,95.912945,110.498508,31.265625,60.395988,76.672703,88.783241,-16.858653,-16.975238,-9.930121,-6.259503,15.344607,28.07086,32.731991,35.372204,33.334824,45.663614,48.743095,49.94403,44.583019,57.261169,58.865272,57.34331,50.032259,59.887933,60.167267,57.648628,54.294433,290.382127,-79.735737,282.029921
106,-0.000572,0.177607,-0.073963,-0.136864,-14.65353,-33.003124,-47.562212,-55.781027,-50.023996,-58.863693,-50.880283,-42.125873,-49.475967,-55.68334,-41.078613,-26.095859,-45.869819,-50.062666,-32.816986,-17.66708,-40.213588,-43.561529,-32.441311,-22.418506,-20.933137,-27.703785,-19.596395,-11.385924,-9.138975,-0.193859,2.937294,3.43026,8.887354,19.144931,22.376824,22.536479,24.176348,31.72302,32.245719,31.15278,36.485966,42.07917,40.116402,37.685319,25.113178,51.35788,74.965679,94.511627,55.119644,90.285507,109.353493,123.53968,46.707607,86.857933,108.977371,124.690452,38.416248,75.325184,95.713623,110.256866,31.123398,60.142307,76.335033,88.349888,-16.771782,-16.775327,-9.764568,-6.109042,15.513556,28.340278,33.103482,35.806644,33.472342,45.973812,49.12596,50.36749,44.709546,57.519719,59.182596,57.713924,50.17452,60.115298,60.346418,57.796966,54.012285,290.485492,-80.091276,281.818815
107,1.116577,-0.403916,-0.049496,-0.176013,-15.220344,-34.172183,-48.91436,-56.778596,-52.53903,-60.632,-51.49641,-41.913242,-52.238645,-57.948389,-42.373123,-26.5265,-48.789756,-52.685176,-34.833549,-19.153919,-43.174518,-46.514465,-35.104042,-24.855011,-20.56067,-27.038455,-19.226176,-11.042141,-8.622204,1.142945,5.111267,6.191813,9.44656,20.311088,24.0815,24.475128,24.815385,32.961746,33.75159,32.71916,37.197683,43.281179,41.486564,39.131848,25.213589,51.418408,74.837082,94.186901,55.209149,90.189812,109.220959,123.361118,46.716934,86.661186,108.743534,124.450298,38.325131,75.067681,95.415104,109.898701,30.906613,59.779335,75.920014,87.869408,-16.639451,-16.494647,-9.460138,-5.752668,15.836041,28.745508,33.593879,36.33351,33.741388,46.402915,49.635673,50.917549,44.928735,57.870547,59.58627,58.132591,50.382285,60.470425,60.667569,58.049562,54.87894,289.943557,-80.390694,281.504783
108,0.104531,0.822787,-0.217071,-0.034506,-15.462937,-35.279217,-50.497673,-57.736639,-58.280108,-63.919773,-50.955025,-38.268322,-58.822775,-61.893237,-42.596054,-23.200916,-55.797661,-57.463875,-37.095886,-19.098507,-50.18121,-52.452313,-39.136872,-27.412972,-20.72027,-27.313516,-19.739309,-11.331108,-8.277908,1.977107,6.859014,8.915463,10.020641,20.741945,25.449778,26.688349,25.536,33.526343,34.560718,33.803399,38.019828,44.20063,42.118357,39.853673,25.308551,51.484165,74.76194,93.990291,55.197464,90.078094,109.086742,123.250866,46.670196,86.486194,108.562626,124.300998,38.266788,74.892906,95.241245,109.716488,30.832225,59.610443,75.742206,87.663906,-16.588125,-16.376592,-9.288114,-5.574889,16.023207,28.990435,33.89059,36.68403,33.950092,46.712643,49.9897,51.303366,45.129881,58.087069,59.829653,58.401415,50.590371,60.657232,60.843644,58.212533,54.76125,290.588957,-80.829986,281.29289
109,-1.325524,1.284761,-0.296929,0.262217,-14.597843,-33.975654,-49.171823,-56.959064,-56.621051,-62.233852,-49.468414,-37.005695,-57.400732,-60.50822,-41.281745,-22.05986,-54.61544,-56.215284,-35.861343,-18.082374,-49.249031,-51.307314,-37.81422,-26.116527,-21.236708,-28.249807,-20.176527,-11.412174,-9.250897,0.455737,4.908799,6.57506,9.121579,19.297522,23.901108,24.982136,24.706729,32.107645,33.236628,32.488034,37.293241,42.95739,40.951089,38.636615,25.331326,51.394352,74.718956,94.111141,55.00446,89.981266,109.078068,123.369175,46.569695,86.445923,108.611309,124.460873,38.288601,74.893467,95.326756,109.900303,30.951462,59.701172,75.940865,88.053131,-16.604921,-16.424461,-9.166194,-5.349957,16.005842,28.912234,33.735596,36.496284,33.956971,46.749483,49.950488,51.246568,45.080727,58.021465,59.732075,58.290808,50.479368,60.521307,60.750858,58.146744,53.28852,291.669559,-81.274121,281.350948
110,-1.257797,0.874509,-0.318191,0.357535,-13.876694,-32.784038,-47.85474,-56.107647,-54.256262,-60.317493,-48.516603,-36.807403,-55.193006,-58.692347,-40.131122,-21.618095,-52.56332,-54.400211,-34.42931,-17.129608,-47.474665,-49.398085,-36.023163,-24.501114,-21.692246,-29.091977,-20.731854,-11.748621,-10.313109,-1.14471,2.958456,4.255425,8.183004,18.025625,22.448128,23.323347,23.896996,30.97791,32.166142,31.449973,36.604181,41.983043,40.062488,37.648776,25.426494,51.325023,74.668064,94.276943,54.93061,89.887321,108.998211,123.335849,46.572635,86.391895,108.621517,124.587307,38.355114,74.84761,95.375461,110.048595,31.038688,59.748802,76.080906,88.365108,-16.652086,-16.55494,-9.155845,-5.277314,15.97798,28.752078,33.482147,36.168612,33.924256,46.604715,49.719159,50.969173,44.993042,57.770067,59.472501,58.064517,50.362574,60.269106,60.528334,57.978721,51.904529,292.337068,-81.718506,281.501483
111,0.42318,0.523767,-0.235977,0.323559,-14.378495,-34.057263,-49.653534,-57.658997,-59.099287,-63.706089,-49.011927,-34.766464,-60.692202,-62.094984,-40.648853,-19.271782,-58.371472,-58.665287,-36.653057,-17.282204,-53.402441,-54.812994,-40.077988,-27.270081,-21.842436,-29.489724,-22.049324,-13.487562,-9.577649,-0.241289,4.507614,6.670113,8.932308,18.663297,23.588769,25.175069,24.520329,31.529625,32.845668,32.483663,36.988639,42.644415,40.573325,38.360227,25.526687,51.286479,74.598186,94.327617,54.768402,89.768577,108.927509,123.307971,46.449565,86.226516,108.46915,124.473438,38.278392,74.695381,95.284183,110.009319,30.984741,59.688365,76.086204,88.472866,-16.745958,-16.657198,-9.108988,-5.2897,16.07367,28.673718,33.260378,35.881386,34.004903,46.586994,49.565747,50.796667,44.965045,57.67491,59.325079,57.957344,50.220931,60.036345,60.305786,57.818517,52.221697,292.669813,-82.060495,281.63402
112,-0.671631,0.666158,-0.273377,0.388028,-13.64098,-32.840275,-48.377112,-56.856503,-57.058748,-61.882221,-47.824511,-34.261242,-58.663754,-60.629671,-40.027142,-19.514008,-56.481983,-57.262568,-35.835034,-17.109169,-51.74243,-53.331654,-39.079205,-26.760029,-22.08782,-29.902644,-22.413529,-13.990736,-9.872045,-0.626866,3.768646,5.624579,8.506137,18.184841,22.838297,24.20894,23.930791,30.774095,32.187494,31.898188,36.274834,41.618061,39.880453,37.856022,25.541714,51.204838,74.581364,94.446957,54.675636,89.733261,108.900662,123.288632,46.439083,86.191269,108.387783,124.401203,38.336838,74.697567,95.299542,110.072697,31.090725,59.83635,76.273556,88.735703,-16.921058,-16.906621,-9.273727,-5.610457,15.983575,28.40509,32.909622,35.544438,33.930221,46.368804,49.233529,50.494781,44.829687,57.406801,59.017746,57.743205,50.007015,59.605622,59.891391,57.522176,51.467594,293.20335,-82.416344,281.889427
113,-0.461678,0.302101,-0.181034,0.249348,-13.348457,-32.229286,-47.671715,-56.373047,-55.102489,-60.716909,-47.475763,-34.604667,-56.528623,-59.619587,-39.908649,-20.287983,-54.398574,-56.117935,-35.253353,-17.124561,-49.857187,-52.017603,-38.308616,-26.352276,-22.159111,-30.151911,-22.629112,-14.135379,-10.070856,-0.819545,3.192268,4.606951,8.187283,17.96979,22.293918,23.264375,23.520065,30.386279,31.736384,31.325107,35.792058,41.058269,39.536158,37.519143,25.546234,51.148201,74.591286,94.564018,54.580902,89.707615,108.922829,123.345383,46.357315,86.129505,108.309196,124.324242,38.283314,74.649925,95.272499,110.071655,31.065273,59.863483,76.319012,88.808063,-16.955379,-16.944363,-9.255164,-5.641715,15.922307,28.274933,32.707019,35.311022,33.848908,46.239709,49.016724,50.275259,44.706261,57.2895,58.871472,57.634339,49.842215,59.389508,59.658123,57.329613,50.904562,293.428775,-82.698732,282.062099
114,0.543709,-0.568956,-0.073872,-0.04509,-14.209946,-33.864464,-49.496979,-57.237385,-59.601345,-63.925569,-48.217363,-33.159279,-61.396139,-63.056225,-40.933399,-18.917393,-59.426308,-60.021446,-37.420361,-17.512928,-54.87565,-56.759794,-41.958641,-28.836628,-21.776023,-29.603345,-22.985535,-14.703125,-8.765737,1.314623,6.18841,8.396574,9.465702,19.773408,24.639927,26.081836,24.730336,32.167951,33.459455,33.141286,36.863946,42.87625,41.074509,39.056123,25.528462,51.126469,74.516293,94.459683,54.529152,89.652146,108.85175,123.225277,46.243893,85.962376,108.079823,124.002606,38.121014,74.494572,95.083523,109.80811,30.866307,59.720684,76.157421,88.557347,-16.940818,-16.846031,-9.143507,-5.620016,16.052958,28.468792,32.91623,35.549403,33.968173,46.393121,49.1752,50.452606,44.831095,57.458548,59.044459,57.847193,49.967408,59.490137,59.775868,57.502947,51.305923,292.814461,-82.914952,281.971651
