takenoko1/special-research/HandMotion_SimilarSearch_自分用/NewProject/handData/key/d4_feature_d3/21.csv
,vel_0x_L,vel_0y_L,vel_0x_R,vel_0y_R,posFromWrist_1x_L,posFromWrist_2x_L,posFromWrist_3x_L,posFromWrist_4x_L,posFromWrist_5x_L,posFromWrist_6x_L,posFromWrist_7x_L,posFromWrist_8x_L,posFromWrist_9x_L,posFromWrist_10x_L,posFromWrist_11x_L,posFromWrist_12x_L,posFromWrist_13x_L,posFromWrist_14x_L,posFromWrist_15x_L,posFromWrist_16x_L,posFromWrist_17x_L,posFromWrist_18x_L,posFromWrist_19x_L,posFromWrist_20x_L,posFromWrist_1y_L,posFromWrist_2y_L,posFromWrist_3y_L,posFromWrist_4y_L,posFromWrist_5y_L,posFromWrist_6y_L,posFromWrist_7y_L,posFromWrist_8y_L,posFromWrist_9y_L,posFromWrist_10y_L,posFromWrist_11y_L,posFromWrist_12y_L,posFromWrist_13y_L,posFromWrist_14y_L,posFromWrist_15y_L,posFromWrist_16y_L,posFromWrist_17y_L,posFromWrist_18y_L,posFromWrist_19y_L,posFromWrist_20y_L,posFromWrist_1x_R,posFromWrist_2x_R,posFromWrist_3x_R,posFromWrist_4x_R,posFromWrist_5x_R,posFromWrist_6x_R,posFromWrist_7x_R,posFromWrist_8x_R,posFromWrist_9x_R,posFromWrist_10x_R,posFromWrist_11x_R,posFromWrist_12x_R,posFromWrist_13x_R,posFromWrist_14x_R,posFromWrist_15x_R,posFromWrist_16x_R,posFromWrist_17x_R,posFromWrist_18x_R,posFromWrist_19x_R,posFromWrist_20x_R,posFromWrist_1y_R,posFromWrist_2y_R,posFromWrist_3y_R,posFromWrist_4y_R,posFromWrist_5y_R,posFromWrist_6y_R,posFromWrist_7y_R,posFromWrist_8y_R,posFromWrist_9y_R,posFromWrist_10y_R,posFromWrist_11y_R,posFromWrist_12y_R,posFromWrist_13y_R,posFromWrist_14y_R,posFromWrist_15y_R,posFromWrist_16y_R,posFromWrist_17y_R,posFromWrist_18y_R,posFromWrist_19y_R,posFromWrist_20y_R,posFromBody_0x_L,posFromBody_0y_L,posFromBody_0x_R,posFromBody_0y_R
7,0.247101,0.476626,0.872624,0.549554,-0.526989,-5.967785,-15.540619,-22.847248,-34.547928,-18.511379,0.980404,14.372601,-43.350632,-23.911881,-2.208813,16.53606,-46.432938,-31.291534,-10.73378,6.35519,-46.482594,-45.126343,-37.934715,-29.488518,-12.185801,-17.956081,-16.740722,-13.593748,-3.010406,13.400223,19.922709,23.720087,12.203574,26.638832,32.228874,34.700311,23.98002,35.117633,38.196471,39.546187,32.920504,42.671252,43.255769,42.43376,29.309475,55.178867,78.972301,99.28561,50.460388,81.627205,98.722034,111.657795,40.874565,76.260898,96.680042,110.880146,32.521293,65.19112,84.30225,97.52061,25.631023,49.647834,65.603954,78.619388,-10.41648,-10.144235,-4.47367,-0.750478,22.734377,40.410865,47.174412,50.768928,39.448756,57.280299,62.665441,62.909294,50.585814,69.923931,74.589236,73.392427,57.104076,75.071136,78.814656,77.114964,12.392149,335.993575,-78.739946,308.659966
8,-0.54641,-0.812264,0.976844,0.541081,-0.424083,-5.933132,-15.329864,-22.558799,-35.055965,-18.225631,1.503399,14.791455,-44.038089,-23.502674,-1.279918,17.423413,-47.210186,-31.17453,-10.143196,6.926159,-47.28994,-45.126892,-37.35506,-28.792476,-12.408499,-18.469524,-17.566017,-14.65546,-2.379651,14.271681,20.927967,24.889664,12.841763,27.544586,33.3532,36.116383,24.475825,36.062067,39.178993,40.713392,33.198614,43.385715,43.99986,43.472055,28.831959,54.433651,78.055653,98.219044,49.741826,80.735447,97.84393,110.801617,40.179646,75.436821,95.928669,110.010807,31.895771,64.472958,83.625905,96.790615,25.107056,49.22168,65.185559,78.137879,-10.7597,-10.646042,-5.019172,-1.179395,22.068103,39.83755,46.841578,50.55673,38.858225,56.821729,62.355616,62.59296,50.090206,69.469424,74.127838,72.859497,56.666637,74.598981,78.306229,76.518814,11.955082,335.261225,-77.653759,309.280961
9,0.462708,0.506056,0.686348,0.436489,0.053615,-5.010967,-14.7174,-22.594986,-35.195675,-18.989388,0.985073,14.486034,-44.184837,-23.985581,-1.765423,17.097828,-47.318871,-32.174263,-11.114674,6.328754,-47.391174,-47.878281,-42.616516,-35.679497,-12.564294,-19.581129,-19.350788,-16.861925,-3.107009,13.275993,20.155866,24.504095,12.195126,26.286435,32.28382,35.311443,23.835795,34.915289,38.224913,40.002597,32.668895,42.344963,43.698569,43.960415,28.526184,53.948719,77.379261,97.42677,49.526081,80.43219,97.418049,110.292378,39.872841,75.014134,95.399884,109.369572,31.516526,63.888382,82.989739,96.123402,24.664982,48.724114,64.645249,77.541951,-11.048667,-10.990177,-5.374768,-1.567596,21.596429,39.336853,46.432741,50.251831,38.430653,56.330344,61.886016,62.21464,49.650184,68.982954,73.662709,72.52313,56.179685,74.063333,77.781832,76.060897,12.486866,335.822125,-76.898335,309.772294
10,-1.373932,-2.157621,0.548676,0.304566,-0.304138,-5.443405,-14.621407,-22.221451,-35.010452,-17.562778,2.563557,15.41621,-43.964207,-22.402084,-0.079914,18.338184,-47.079723,-30.669296,-9.016537,8.260769,-47.108517,-47.084381,-41.279938,-34.29808,-12.189358,-18.344874,-16.805683,-12.764415,-1.09586,15.918812,22.76035,26.778845,14.11402,28.930834,34.925959,37.885829,25.592804,37.394716,40.341236,41.850959,34.036951,44.54303,45.825401,45.985964,28.298698,53.525185,76.762138,96.632435,49.456959,80.283749,97.113338,109.899273,39.681061,74.655006,94.855396,108.677708,31.185322,63.307594,82.319446,95.446644,24.173183,48.070106,63.866009,76.710102,-11.266264,-11.233376,-5.608988,-1.735261,21.2342,38.92368,46.087222,50.014536,38.041489,55.923532,61.624243,62.178317,49.180905,68.453295,73.281115,72.425699,55.610259,73.48467,77.344799,75.863123,11.159712,333.711193,-76.302881,310.123549
11,7.348011,-4.786657,0.663002,0.308307,-3.963764,-12.857758,-26.165405,-37.506889,-44.076347,-27.639107,-6.375389,7.256676,-52.611282,-31.676651,-8.537682,10.618355,-54.919075,-39.472698,-16.629387,1.704872,-54.218845,-54.464985,-46.79916,-38.088444,-9.144618,-12.709544,-8.107681,-1.28347,2.658034,20.938219,28.167982,32.893333,17.586036,32.634685,39.711381,43.411651,28.827636,40.616963,44.342329,46.453131,37.197843,48.114402,49.159021,49.396205,27.909382,53.020832,76.236248,95.972202,49.179851,80.103275,96.833233,109.485226,39.346687,74.344185,94.414364,107.974811,30.802494,62.930603,81.849426,94.864139,23.755566,47.729874,63.441135,76.206619,-11.563012,-11.548414,-5.824188,-1.788354,20.937935,38.52129,45.731713,49.724458,37.810481,55.567566,61.352777,62.014358,48.954825,68.123425,72.951937,72.170856,55.321737,73.144154,76.998824,75.588247,18.55204,328.957307,-75.595562,310.464627
12,-4.711956,3.479586,0.345852,0.122155,0.228424,-5.245583,-15.023117,-22.985413,-37.197819,-19.340721,0.534084,13.030575,-46.792511,-24.875256,-2.451427,15.635204,-50.105381,-33.471348,-11.923153,4.871555,-50.330498,-47.610729,-38.751789,-29.529053,-13.568356,-19.775705,-17.466721,-13.287169,-1.164686,16.183412,22.742986,26.8824,15.046032,29.600036,35.923105,39.250909,27.348085,38.681953,41.88176,43.77856,36.478044,46.79529,47.547855,47.532726,27.555759,52.623333,75.785293,95.329101,49.120136,79.999477,96.607727,109.160934,39.225712,74.194771,94.141456,107.613144,30.598617,62.629566,81.498092,94.524925,23.470447,47.435177,63.10405,75.876549,-11.876395,-11.874394,-6.15254,-2.02077,20.758562,38.323158,45.50662,49.486088,37.714904,55.390095,61.124905,61.818646,48.865744,67.982967,72.819062,72.186046,55.164422,72.964657,76.853315,75.563151,13.87476,332.460723,-75.215034,310.610612
13,3.93029,-3.56264,0.041759,0.287905,-3.482483,-12.018299,-24.841392,-36.000137,-43.401706,-26.183075,-4.932232,8.584408,-51.929718,-30.314312,-7.350849,11.856892,-54.129009,-37.922207,-15.205513,3.01965,-53.354084,-53.398762,-46.171303,-37.741756,-8.558126,-11.679399,-6.920875,-0.321263,2.239255,21.25627,28.668629,33.333304,16.878944,32.572391,39.931534,43.717599,27.972591,40.26506,44.378378,46.724425,36.339105,47.54447,49.13626,49.946364,27.389672,52.321667,75.445496,95.064961,49.037407,80.137104,96.864132,109.385044,39.107437,74.273529,94.171566,107.482991,30.431088,62.599881,81.409882,94.30592,23.29786,47.284058,62.904293,75.626976,-12.040935,-12.259099,-6.636638,-2.274651,20.525528,37.954742,45.012926,48.848886,37.532851,55.023026,60.721835,61.506362,48.681802,67.66357,72.483634,71.974514,54.960831,72.705898,76.584701,75.374035,17.833826,328.913137,-75.144499,310.913571
14,-3.478752,1.086918,-0.110378,0.348519,-2.732071,-10.174244,-20.244896,-28.71627,-40.124004,-21.578155,-1.341305,11.342846,-48.147114,-25.993172,-3.574619,14.880512,-49.92421,-33.152435,-11.250515,5.94746,-48.739826,-47.206524,-39.883598,-31.868282,-9.563768,-12.024522,-6.730721,-0.500796,2.407945,20.976294,27.596198,31.767833,16.389622,32.09511,38.728241,42.567931,26.818451,39.513978,43.181545,45.575867,34.347,45.676471,47.701057,49.356623,27.325218,52.176258,75.294411,94.990471,48.908352,80.32481,97.226326,109.767815,38.96125,74.452766,94.401741,107.617378,30.293907,62.807716,81.604603,94.368256,23.251556,47.444939,63.072258,75.743099,-12.151727,-12.566567,-7.102878,-2.672483,20.06408,37.424578,44.450503,48.235952,37.150654,54.534321,60.206306,61.030538,48.38524,67.239308,72.019506,71.570741,54.717497,72.348178,76.18877,74.981105,14.373745,330.009238,-75.236206,311.271273
15,6.95398,-3.317516,-0.170826,0.324622,-6.921971,-18.092354,-32.2496,-44.175511,-48.579541,-32.136189,-10.744732,3.589519,-55.382481,-35.139176,-12.053639,7.931591,-55.959938,-41.044476,-18.18528,0.610233,-53.643586,-55.259663,-49.183354,-41.348248,-4.557353,-3.740605,4.015827,12.505187,5.865943,25.713575,33.067877,38.036006,18.171368,34.457693,42.149609,46.743073,27.334326,40.528092,45.447859,48.783035,34.13175,46.112911,49.051711,51.858613,27.236664,52.022804,75.165871,94.973225,48.76664,80.46072,97.596371,110.223255,38.890617,74.655155,94.751186,107.936611,30.307194,63.173824,82.013626,94.646839,23.381046,47.849728,63.52763,76.124691,-12.272277,-12.89067,-7.593781,-3.098327,19.735617,36.964661,43.933702,47.653596,36.870319,54.124545,59.738868,60.495162,48.168335,66.92443,71.61609,71.07922,54.564887,72.092766,75.86521,74.582123,21.34932,326.697119,-75.385437,311.601292
16,-3.007943,1.423878,-0.272472,0.243927,-6.603584,-16.823719,-28.710685,-38.506725,-45.825313,-29.027401,-8.626808,5.048664,-51.602279,-31.60596,-9.227634,10.073719,-51.462021,-37.16613,-15.282028,2.748196,-48.572147,-51.16587,-47.996132,-42.795421,-4.417662,-2.655712,5.535023,13.484771,6.587855,25.630904,32.345656,37.083395,17.488779,33.166245,40.091134,44.853375,25.424164,38.800538,43.372538,46.931795,31.115835,42.805855,46.899067,51.334204,27.362491,52.08332,75.150226,95.082641,48.883461,80.672825,97.915558,110.576248,38.991279,74.885559,95.03199,108.196151,30.367538,63.437965,82.264068,94.765457,23.408169,48.00135,63.682949,76.191971,-12.248824,-13.030511,-7.891999,-3.344119,19.451626,36.57078,43.512267,47.211388,36.574089,53.749238,59.360794,60.122004,47.889383,66.544602,71.243327,70.719313,54.335509,71.766118,75.535598,74.234418,18.3542,328.124433,-75.645086,311.848655
17,3.964703,-3.326112,-0.142353,0.329203,-9.228527,-21.915962,-36.607624,-48.956268,-50.891945,-34.971817,-13.586987,0.864418,-56.269363,-37.106735,-14.395866,5.504997,-55.697914,-42.642025,-19.675518,-0.647553,-52.375969,-58.646965,-57.362366,-53.365185,-1.857489,2.147692,12.737011,23.207682,8.724259,28.830168,36.224916,41.554211,19.230919,35.309577,43.138838,48.656077,26.804113,40.356858,45.57504,49.727582,32.463377,44.324644,49.112017,54.351379,27.47921,52.090828,75.125564,95.28178,48.935337,80.921528,98.240467,110.886829,39.047493,75.112312,95.316455,108.376178,30.409824,63.774891,82.551841,94.841503,23.440109,48.203006,63.842685,76.204593,-12.247008,-13.194988,-8.129231,-3.534074,18.948707,36.028562,43.015844,46.742111,36.085583,53.293595,58.983772,59.761814,47.456353,66.047142,70.767059,70.210392,53.960598,71.282749,75.05439,73.736871,22.33128,324.801035,-75.775062,312.180572
18,-9.98917,2.986411,0.218193,0.097294,-3.986698,-11.45834,-20.437637,-27.893326,-38.542557,-20.528973,-0.729859,12.011272,-45.401768,-24.525673,-2.810406,15.738544,-46.561867,-31.498798,-9.729733,7.731251,-44.863884,-47.490852,-44.440086,-39.559845,-7.250264,-6.566971,1.338242,9.423001,4.200769,23.183438,30.134584,35.108567,16.893776,32.67833,39.638392,44.499668,26.19508,39.3453,43.646228,47.063447,32.855961,44.324618,48.182092,51.905334,27.525844,52.141914,75.19432,95.4314,48.984947,80.916675,98.136738,110.727161,39.118915,75.083187,95.230762,108.183849,30.473613,63.889858,82.555137,94.673412,23.458843,48.331066,63.924362,76.167137,-12.211749,-13.095162,-8.014363,-3.52459,18.757478,35.774114,42.859788,46.704912,35.898812,53.091584,58.839905,59.588802,47.303286,65.844489,70.559442,69.908778,53.834232,71.106353,74.860729,73.468331,12.351196,327.792497,-75.547783,312.282917
19,-3.716526,-0.323782,0.223468,-0.128762,-3.700688,-9.196346,-15.712967,-22.633759,-34.472695,-14.861298,4.969242,17.479935,-41.982651,-19.511593,2.289551,20.545029,-43.912628,-27.661068,-6.030945,11.441688,-42.584038,-45.026745,-41.753494,-36.360569,-7.272186,-6.72914,1.564125,9.876052,3.322246,22.778911,30.621337,36.308007,16.819676,32.96337,40.347286,44.999488,26.884449,40.108436,44.938812,48.43643,34.499708,45.512387,48.597043,51.459755,27.402707,52.069142,75.123528,95.375222,49.022896,80.832425,97.966599,110.513855,39.115082,74.942631,95.047097,107.890435,30.411381,63.783703,82.382618,94.396775,23.318631,48.190293,63.762303,75.946988,-12.255382,-13.036265,-7.865705,-3.342376,18.725973,35.768173,42.896196,46.780322,35.91325,53.153384,58.922268,59.623753,47.319353,65.890284,70.579103,69.858686,53.820906,71.133313,74.886195,73.485362,8.640152,327.469997,-75.318833,312.155437
20,-0.883003,0.200886,0.199322,-0.292388,-1.736653,-5.755841,-11.380543,-17.320816,-31.53336,-12.480664,6.799015,18.854393,-39.918343,-18.004807,3.158386,20.737587,-42.742859,-27.162918,-5.869744,11.099807,-42.345658,-46.510106,-45.130452,-41.310276,-10.024426,-10.723206,-2.747189,5.247179,1.226857,21.106933,29.042553,34.589728,15.931507,32.124812,39.524253,44.323606,26.941865,39.917455,44.795256,48.381645,35.459112,45.559392,49.302554,52.831059,27.28006,52.076077,75.219029,95.436848,49.157845,80.83778,97.835415,110.323277,39.208065,74.865704,94.825917,107.546986,30.44014,63.625534,82.109986,94.066578,23.264271,48.054966,63.557431,75.66663,-12.228137,-12.842319,-7.564796,-3.059399,18.891489,35.813276,42.98219,46.975799,36.096698,53.302153,59.099183,59.860887,47.459601,66.028073,70.731466,70.0635,53.86344,71.148405,74.911537,73.581309,7.751141,327.658844,-75.125519,311.85101
21,-4.166222,0.421261,0.044918,-0.222153,0.598595,-1.07214,-4.709633,-9.312824,-26.083328,-5.707775,13.445412,24.925301,-35.915291,-12.670818,8.589821,25.954994,-40.184132,-23.063461,-1.534813,15.348312,-41.15023,-42.695549,-38.185902,-31.861336,-13.418512,-16.551753,-9.769989,-2.212468,-2.591911,17.150696,25.764557,31.571047,14.502529,31.15622,39.20073,43.8494,27.678474,40.613555,45.539657,48.602008,37.872541,48.063446,50.767311,52.535509,27.205696,52.14814,75.429703,95.667595,49.172036,80.801205,97.768685,110.236496,39.230805,74.846432,94.758408,107.446518,30.480835,63.573807,82.052719,94.048027,23.315758,48.087261,63.583844,75.694313,-12.325543,-12.845407,-7.465316,-3.010123,19.016682,35.885536,42.98787,46.946739,36.28001,53.453923,59.200268,59.978669,47.64069,66.217671,70.886447,70.269993,53.991979,71.221628,74.960492,73.715332,3.57217,328.063213,-75.09335,311.611965
22,0.0065,-0.416235,0.170048,-0.317706,0.431763,-1.19997,-4.712539,-9.109874,-25.709839,-5.805427,13.312706,24.925667,-35.620651,-12.691166,8.519829,26.052178,-40.010399,-23.131954,-1.549221,15.626862,-41.23122,-43.027702,-38.655613,-32.169342,-13.117998,-15.919095,-8.732483,-0.916277,-2.540547,17.704819,26.502993,32.294317,14.441718,31.633279,39.711271,44.299623,27.61539,40.945797,46.021372,49.183574,37.864402,48.018492,51.008348,53.095252,27.150948,52.202431,75.57312,95.72691,49.12674,80.76836,97.661076,110.069744,39.169247,74.786682,94.601086,107.244907,30.408897,63.418224,81.862965,93.915539,23.231255,47.983578,63.463635,75.586189,-12.295878,-12.697787,-7.206187,-2.72491,19.352147,36.143924,43.187769,47.134015,36.605249,53.669037,59.367476,60.169527,47.893126,66.448717,71.136907,70.606273,54.158174,71.370793,75.134764,73.990319,3.563953,327.625474,-74.938019,311.272755
23,1.330044,-0.448023,0.045525,-0.302293,-0.24575,-2.266045,-6.178265,-10.706589,-27.271522,-7.368221,11.909077,23.70583,-37.094994,-14.187527,7.294888,25.008717,-41.299507,-24.419094,-2.40303,15.107197,-42.38657,-43.931202,-38.915131,-31.89069,-13.194915,-15.9239,-8.207433,0.364895,-2.288248,17.864999,26.775769,32.512172,14.714937,31.76619,40.180844,44.868343,27.985113,41.305838,46.459886,49.530511,38.3454,48.481335,51.397189,53.386973,27.092205,52.303985,75.817348,95.822124,49.322513,80.907783,97.741962,110.13557,39.328434,74.816974,94.529148,107.172214,30.489566,63.28815,81.711147,93.902149,23.205654,47.817752,63.265033,75.483364,-12.278798,-12.584734,-7.025949,-2.539251,19.63526,36.373203,43.390051,47.321675,36.83648,53.89529,59.577366,60.394348,48.031805,66.668771,71.392961,70.917779,54.201634,71.493973,75.337639,74.30884,4.868036,327.152936,-74.918455,310.945947
24,-0.582298,0.731421,0.145099,-0.249632,1.024452,-0.849495,-4.846047,-8.569268,-26.433335,-6.349549,13.034923,24.860607,-36.394615,-13.418427,8.366146,26.424557,-40.848004,-23.365677,-1.105477,16.472568,-42.480938,-42.287785,-35.490395,-27.368752,-14.04381,-17.86658,-11.373722,-3.470793,-3.39731,16.31683,25.340578,31.09211,13.810479,30.918703,39.455179,44.13192,27.369017,40.781244,45.707717,48.435702,37.852249,48.404802,51.179655,52.722316,27.087548,52.342072,75.937889,95.87249,49.52512,81.004738,97.713867,110.032402,39.573807,74.940674,94.482033,107.146088,30.692826,63.26516,81.561013,93.829857,23.298088,47.706471,63.030236,75.308201,-12.22258,-12.52922,-6.886764,-2.379281,20.053644,36.657366,43.533201,47.328961,37.169784,54.002526,59.634633,60.489827,48.24551,66.802954,71.583659,71.218047,54.305424,71.5864,75.512479,74.633129,4.249357,327.861173,-74.809737,310.673131
25,-1.119416,-0.295389,0.179478,-0.245322,0.96801,-1.01548,-5.131015,-9.129615,-25.765377,-4.980045,14.52776,26.422612,-35.960826,-12.169029,10.095143,28.46394,-40.622165,-22.166908,0.559811,18.449833,-42.300601,-40.432891,-31.301513,-21.158134,-13.621487,-17.089847,-10.547465,-2.594654,-2.702569,16.972397,25.850439,31.341322,14.582433,31.699672,40.197258,44.50325,28.091015,41.444134,46.384661,49.005238,38.459848,49.536081,51.749549,52.519046,27.05159,52.298424,75.923424,95.916103,49.721683,81.043373,97.669018,109.943562,39.731403,74.910313,94.340618,107.020054,30.752678,63.141403,81.326694,93.594486,23.241405,47.432968,62.700851,75.05199,-12.111071,-12.394185,-6.729387,-2.254891,20.426814,37.102216,43.928601,47.580446,37.467211,54.315193,59.966801,60.821488,48.445421,67.066752,71.899178,71.547782,54.438867,71.809986,75.8362,75.106026,3.071737,327.553372,-74.688463,310.415397
26,-1.810661,1.218236,0.201576,-0.251559,1.830563,0.70388,-1.867344,-4.313461,-23.610443,-1.824451,17.817112,29.69006,-33.857426,-9.273903,12.973675,31.348103,-38.802006,-19.259594,3.128197,20.723934,-40.684261,-38.5685,-29.932651,-20.260814,-13.78568,-18.148903,-12.83612,-5.780764,-2.873246,16.58605,25.354608,30.880183,14.426206,31.404815,39.337335,43.093476,27.763023,40.887887,45.502496,47.696908,37.99141,48.710343,50.65805,50.986229,26.905461,52.211415,75.921158,95.915005,49.863304,81.110504,97.725758,110.023533,39.864132,74.898468,94.278477,106.98151,30.838852,63.0649,81.125073,93.343632,23.2771,47.279091,62.466202,74.853791,-11.933675,-12.179207,-6.547977,-2.056919,20.804862,37.448723,44.311849,47.94675,37.756684,54.635369,60.340897,61.20197,48.638206,67.31037,72.182267,71.785027,54.562689,72.096545,76.209147,75.540032,1.18067,328.762957,-74.567293,310.155187
27,-7.442447,1.202614,0.114155,-0.175062,4.062767,6.776493,9.750755,10.936214,-16.321301,8.432418,27.616058,38.751091,-26.681901,0.296436,23.069183,41.026657,-31.923111,-10.151242,11.674312,28.43161,-33.763081,-28.173821,-17.211686,-6.186711,-15.482471,-20.830698,-16.441689,-10.484874,-2.833825,15.248943,23.791162,29.326926,14.664513,31.016899,38.393282,41.434922,28.068119,40.937831,45.146542,46.737986,38.230162,49.210237,50.252992,49.671167,26.817387,52.188755,76.018284,96.077339,50.167374,81.344044,97.999146,110.330841,40.186993,75.05975,94.408562,107.108299,31.115181,63.178722,81.132843,93.257332,23.470219,47.315128,62.452034,74.838341,-11.831688,-12.106119,-6.502035,-1.985214,20.986877,37.566505,44.47792,48.054961,37.886137,54.758845,60.499768,61.302832,48.726002,67.457076,72.304718,71.780852,54.645051,72.333901,76.474674,75.798433,-6.362743,329.960717,-74.554104,309.975271
28,-1.577511,0.477677,0.190178,-0.229897,4.153484,7.701942,11.966823,13.720184,-13.808419,11.236782,30.479679,41.873142,-24.044232,3.200534,26.244404,44.363674,-29.343796,-7.565941,13.606762,30.17371,-31.16589,-26.177513,-16.055638,-5.673809,-14.652212,-18.926538,-14.00387,-7.972312,-2.627628,15.037905,23.796657,29.916012,14.144722,30.289269,37.930017,41.087798,27.183482,39.812911,44.629085,46.636504,37.522625,48.118996,49.271629,49.287042,26.716324,52.060535,75.903202,96.083153,50.330051,81.396149,98.049728,110.396782,40.335297,75.115848,94.43296,107.171814,31.230835,63.227074,81.08931,93.133736,23.539467,47.283073,62.330898,74.612823,-11.784745,-12.028042,-6.347621,-1.888846,21.223419,37.687561,44.561802,48.047007,38.102066,54.940502,60.707521,61.528567,48.892,67.568918,72.406594,71.850173,54.783249,72.432813,76.586393,75.976941,-8.049093,330.429755,-74.472765,309.736735
29,-1.821259,0.43513,0.141495,-0.339899,4.617771,9.906784,15.733315,18.558952,-10.380798,13.936386,32.580746,43.988079,-20.746445,5.895161,28.595616,46.56538,-26.367199,-5.496334,15.101921,31.627522,-28.630966,-24.280483,-15.072956,-5.034038,-14.909167,-19.138564,-15.028716,-9.469043,-3.455701,13.099547,21.56627,27.812176,13.385575,28.861871,36.738334,39.987517,26.511527,38.566208,43.920648,46.136598,37.017643,47.351846,49.160479,49.728644,26.735939,52.087578,75.949894,96.152321,50.584156,81.582138,98.210838,110.554092,40.537124,75.193588,94.525657,107.271789,31.366905,63.278549,81.077888,93.023185,23.595051,47.306247,62.298053,74.389137,-11.703655,-11.858685,-6.1434,-1.843867,21.149022,37.580127,44.622342,48.300048,38.022507,55.07292,60.985633,61.840963,48.834016,67.615305,72.519177,71.924941,54.754918,72.473482,76.651243,75.993824,-9.985273,330.85273,-74.446191,309.384681
30,-6.937134,2.016991,0.194023,-0.641365,7.042145,16.322846,27.200398,33.569767,-2.673397,23.946156,41.457768,51.737469,-13.25497,15.631085,37.513264,53.907795,-19.074566,3.634713,22.808213,37.874462,-21.451698,-14.154018,-4.608833,5.158757,-17.408256,-23.621052,-21.800946,-18.032145,-5.508964,8.654925,16.766793,23.287118,11.948137,26.199267,33.651826,36.645671,25.559471,36.908851,41.65127,43.088894,36.340192,46.245995,47.459662,47.230778,26.843811,52.056164,75.750023,95.811378,50.504093,81.404159,98.10823,110.556084,40.46426,75.051441,94.43811,107.24572,31.292187,63.134147,81.011398,93.079056,23.467872,47.106582,62.063942,74.062797,-11.662541,-11.789574,-5.995051,-1.758207,21.027152,37.545301,44.575684,48.31025,37.922312,55.162063,61.177159,62.125052,48.792718,67.635819,72.599527,72.028657,54.811444,72.535109,76.697729,75.934284,-17.028437,332.861029,-74.358198,308.734624
31,2.338772,-2.027587,0.550621,-1.402549,5.880707,14.406979,24.061798,28.035736,-4.683998,20.90387,38.124184,48.370171,-14.957233,13.156483,35.058998,51.219521,-20.172409,0.846371,19.77364,34.903176,-21.658138,-16.329323,-7.829109,1.463001,-16.082944,-20.933736,-18.157499,-14.145784,-4.766947,9.034727,17.330698,24.134012,12.133079,25.976731,33.786034,37.063993,25.312778,36.335017,41.875264,44.183581,36.157274,45.704567,47.286687,48.187638,26.881485,51.883793,75.33419,95.244186,50.258846,81.010231,97.708465,110.182983,40.14386,74.658611,94.027748,106.859459,30.857654,62.69141,80.570526,92.69767,22.843094,46.48819,61.33231,73.159778,-11.831515,-11.718067,-5.686027,-1.524482,20.848384,37.580498,44.715832,48.610529,37.732774,55.290689,61.427618,62.494443,48.649864,67.6065,72.642234,72.137288,54.703986,72.331753,76.456433,75.62384,-14.836893,330.821497,-73.954805,307.32013
32,4.139385,-2.763986,0.51527,-2.349949,5.034611,11.186806,16.445847,17.146729,-9.138301,14.320095,32.12257,42.809933,-19.709873,6.75499,28.399304,44.578091,-25.119461,-5.744281,13.420258,28.672543,-26.865429,-24.385265,-17.744419,-9.661205,-16.074151,-20.284182,-16.709599,-11.979135,-5.43553,9.374009,17.819601,24.402429,11.843841,25.643082,33.758432,37.341697,25.221302,35.960106,41.754184,44.469918,36.291916,45.434138,48.054887,49.777526,27.131081,51.854736,74.787998,94.540066,50.174606,80.726887,97.196697,109.387425,39.807598,74.335785,93.498287,106.288731,30.251827,62.156342,79.965214,91.998402,21.941334,45.756844,60.487827,72.009533,-12.427147,-12.015753,-5.755299,-2.097896,20.05888,37.241093,44.530667,48.736599,37.017408,54.771356,61.115297,62.717139,48.149958,66.929851,72.070277,72.005908,54.422663,71.67647,75.669387,74.848946,-10.980109,328.047427,-73.722136,304.960097
33,-0.051097,-2.468114,0.907082,-4.544497,4.795887,10.126167,13.949192,13.769096,-9.549202,12.644187,30.225288,40.858772,-19.826386,5.41579,26.427932,41.842346,-25.312523,-7.272526,11.905723,26.639831,-27.274304,-27.825715,-23.218289,-17.011643,-16.703005,-21.516647,-19.200513,-16.208421,-6.98333,8.173173,17.120894,23.88827,10.29677,24.338295,32.692409,36.677756,23.693337,34.729345,40.512568,43.438068,34.910361,43.755625,47.529984,50.640858,27.36803,51.820003,73.988159,93.154575,50.430782,80.384617,96.213237,107.826404,39.666927,73.501442,92.099247,104.728306,29.36689,60.46297,77.995239,89.871654,20.102989,42.893223,57.045398,67.903896,-13.43726,-12.37913,-5.375571,-1.822773,18.574363,36.456875,44.380219,49.292427,35.609104,53.96886,61.009938,63.441756,47.018036,66.144411,72.02268,72.832178,53.46032,70.914309,75.4222,74.933508,-11.39146,325.574709,-73.175308,300.410996
34,4.101802,-6.368332,2.003734,-7.652074,0.07576,0.313248,-0.468258,-3.221386,-18.542072,-2.097484,11.375759,19.323189,-25.806495,-4.079166,15.380665,29.791993,-28.06414,-10.6249,9.212838,24.089321,-27.035225,-25.987632,-19.465725,-12.059852,-9.615293,-10.235107,-5.969598,-1.774571,-1.085474,13.715878,22.499837,29.389058,10.287952,24.736881,34.353927,40.01954,19.02624,31.789247,38.549658,42.533387,26.862627,37.120617,42.426917,46.958286,27.117325,50.848881,71.851456,90.292099,50.211914,78.697312,93.917038,105.554215,39.002953,70.771408,88.407738,101.174218,27.59634,55.906094,72.298165,83.819161,16.873936,36.307904,48.316784,57.333355,-13.813135,-12.00034,-4.353379,-0.541489,17.275011,35.756737,44.751833,51.052845,34.073136,53.349392,61.871801,66.424708,45.508028,65.352635,72.706849,75.639759,51.943434,69.742471,75.0783,75.613762,-7.679203,319.248676,-71.561119,292.801221
35,9.255204,-14.3381,4.082211,-12.034278,-8.629532,-16.086731,-22.541703,-28.185471,-30.470787,-23.577542,-14.832962,-9.947731,-32.419144,-20.912465,-7.583336,3.063675,-30.298966,-20.573777,-6.316212,4.266506,-25.563446,-26.950608,-22.936387,-18.207322,-7.868016,-7.276879,-3.200018,0.705325,6.012921,22.328022,31.455042,38.318576,15.722,31.787148,41.931308,48.22223,22.709702,37.075787,44.836653,49.992108,28.169735,39.310238,45.612917,51.153325,27.779754,50.035892,67.893677,83.288933,49.296821,73.910911,85.43977,94.047272,37.709839,63.700344,76.168842,84.729469,25.14624,46.5294,57.424736,64.927219,12.701786,26.819538,34.539379,40.20496,-8.133122,-1.672658,9.215742,15.42461,19.853807,39.304977,49.900038,57.974003,32.887318,53.956349,64.842255,71.866525,41.996084,63.679717,73.115612,78.328384,47.387352,66.189661,73.140003,75.75585,1.11707,305.063807,-67.937839,280.920174
36,7.442699,-15.236001,2.915989,-19.223706,-15.069809,-27.717602,-37.281567,-43.830574,-39.90406,-42.023495,-38.493942,-36.867176,-38.138031,-36.345211,-29.552296,-23.625881,-32.946796,-30.523281,-22.186398,-16.337368,-25.499908,-29.457355,-28.264629,-26.427395,-5.481855,-2.598556,2.739471,7.530093,9.813228,26.645303,36.288087,43.776053,18.044051,34.185362,45.134463,52.848473,24.060826,38.995027,47.463467,53.671161,28.633284,40.624436,48.065484,54.574212,28.306823,50.517551,67.154079,81.488514,53.406246,74.501987,81.867851,85.976429,41.39376,62.320003,68.78215,72.010299,27.511024,42.887581,47.892826,50.171722,13.201126,22.552471,25.722816,26.955219,-8.049574,-1.888822,7.613937,12.148059,20.890362,42.305145,54.893016,63.632663,32.960826,57.150216,70.355788,79.013913,41.40848,65.751443,77.541869,84.667336,46.27992,67.415061,76.55679,81.324255,8.187155,290.334215,-65.394464,262.202877
37,4.79805,-12.41823,2.915622,-24.826383,-19.843849,-35.415791,-45.308167,-52.015537,-44.071541,-53.989265,-57.126251,-59.957302,-38.798561,-45.707176,-45.981777,-45.516586,-30.509388,-34.622898,-33.135349,-32.609058,-20.098515,-24.453289,-25.440079,-26.182949,-0.087982,4.285121,8.653098,12.868255,12.533308,26.136727,34.80788,42.470032,17.042299,31.149526,41.554248,49.568032,20.321098,34.025984,42.177261,48.589041,22.813875,33.517395,40.535243,47.07928,28.25425,51.304413,67.135266,78.425972,54.943783,75.851258,79.205555,79.040062,44.123326,64.205487,65.868817,64.188916,30.889275,45.397797,46.221978,44.167901,16.885403,26.56802,27.362881,25.326748,-7.00493,-1.106172,6.78784,10.097205,17.407318,39.276201,51.543847,59.514652,28.21296,53.179183,66.180312,74.651061,36.430372,61.191213,72.767587,79.883457,41.805869,62.145133,71.150566,76.524136,12.856058,279.000069,-62.607989,238.460578
38,14.02985,-23.087429,0.560772,-29.405917,-28.192577,-50.860971,-65.703987,-76.281887,-59.865692,-78.727243,-87.324097,-93.467869,-51.285914,-68.043068,-74.218506,-77.795551,-39.75737,-51.665812,-55.976978,-59.14646,-26.151924,-32.22805,-34.538698,-36.011284,6.74451,14.463892,20.617647,26.730086,19.799078,31.211622,38.156611,44.907005,20.873504,32.865539,41.985377,49.438041,21.15776,33.393845,40.780491,46.908472,21.069259,30.899072,37.177873,43.081064,28.128994,51.895066,67.587479,76.859929,57.409184,77.768452,77.160279,73.411732,48.497727,67.28191,63.96119,57.933667,36.618611,50.250378,46.213555,40.139546,23.549378,33.42294,30.652611,25.119862,-8.267738,-5.921901,-2.980105,-3.609923,9.336669,28.816979,39.567021,45.845927,20.457331,43.475946,54.744729,61.861724,29.986396,52.717871,62.513166,68.381715,37.60815,55.67243,62.626367,66.837498,26.84737,257.562562,-62.085755,210.704583
39,12.733223,-27.795145,-0.038309,-31.135941,-33.82441,-61.659903,-79.665081,-92.839886,-71.6269,-94.985842,-104.678375,-110.949669,-62.290323,-86.825569,-97.396591,-104.052441,-50.828579,-71.14068,-81.481876,-88.362436,-37.370327,-49.755615,-56.20788,-60.395886,6.001208,12.563622,17.726481,22.601849,21.188437,31.34709,36.92101,42.190111,24.433033,34.794746,41.032605,45.719703,26.361368,36.109443,41.026208,45.239272,27.169002,34.732711,38.904353,43.157869,27.933266,52.359003,67.865639,75.238839,59.383725,79.519655,75.677176,68.292086,52.548518,70.905127,63.720034,53.424958,42.798157,57.354315,50.053854,40.550898,31.704747,44.006648,39.67495,32.122965,-11.085921,-12.889811,-14.75832,-19.22399,-0.502673,14.870914,22.754987,26.200435,10.635298,29.313702,37.341388,41.546527,21.252213,39.824196,46.594333,49.800494,31.123508,45.84907,50.33018,52.812077,39.574373,231.82482,-62.130284,181.626045
40,6.344856,-22.240164,-1.738506,-31.241818,-36.809681,-65.846941,-84.769901,-99.877235,-77.450638,-101.974027,-111.701431,-117.480812,-69.204649,-94.971577,-104.580791,-110.734177,-59.254818,-81.179197,-90.960548,-96.751345,-47.475849,-62.965141,-70.144071,-74.241485,8.988235,18.230173,25.125477,29.816223,22.93033,29.512634,31.626085,34.603974,23.553262,30.41322,32.462154,34.066276,23.473301,30.077156,31.419536,32.863279,23.235031,28.417669,30.678123,33.364377,26.420723,51.900152,68.877926,76.702709,61.438477,83.377619,80.022898,72.419535,56.669741,77.955511,71.826811,61.929611,49.463459,69.014322,63.437903,54.354132,41.131405,57.902716,54.561928,46.628546,-20.968136,-31.318284,-40.532708,-50.585907,-16.187765,-7.204217,-3.435271,-3.433922,-2.063588,9.355469,12.547437,13.164413,11.589385,23.156408,25.795231,26.014834,24.576846,34.414203,35.509624,35.256101,45.96421,212.045252,-63.823809,152.844823
41,5.767977,-24.248132,-1.769417,-25.539729,-40.842316,-72.073045,-93.011561,-110.143627,-83.892105,-109.588271,-119.336423,-124.567809,-75.709588,-102.677891,-111.557496,-116.739636,-66.250491,-89.483665,-98.769599,-103.5966,-55.424372,-72.177398,-79.27995,-83.036033,9.752561,19.347209,25.364728,28.635793,26.187178,29.563711,27.828084,27.766318,24.703062,29.056528,26.816294,24.690302,22.392742,26.470163,24.153603,22.382431,19.858695,22.851441,22.821111,23.295459,26.68808,51.506579,68.338028,74.977879,58.453629,81.129439,79.990649,75.038058,55.588022,78.816141,76.740057,70.859242,50.745907,73.588137,72.139212,67.102324,44.981221,64.340178,64.075859,59.417753,-17.145947,-28.202216,-39.256945,-50.139569,-24.654248,-23.419925,-25.033089,-28.314034,-15.52682,-13.928797,-16.679349,-20.102714,-5.556685,-3.476941,-6.365205,-9.87051,5.086261,6.311935,2.337444,-1.766785,51.793694,190.856294,-65.531719,130.364268
42,4.859218,-27.429554,1.752594,-22.279351,-45.482002,-79.286455,-101.745068,-119.587978,-91.276187,-118.378907,-128.076029,-132.50832,-82.685374,-111.52938,-119.926188,-123.99924,-73.222077,-98.49464,-107.552349,-111.451103,-62.61942,-81.683712,-89.226336,-93.033574,6.899277,15.941145,21.078072,22.654284,27.935446,30.036774,25.816283,23.522604,26.431064,29.753446,24.351881,19.529742,23.601293,26.594633,21.614679,17.400889,19.849648,22.195435,20.569156,19.327053,25.398537,48.188788,64.141537,71.618351,54.143692,74.031984,74.748041,71.957766,52.534739,73.401118,73.117796,69.252903,49.550331,71.160914,70.587576,66.949305,46.131409,63.796606,62.745529,58.256384,-22.15372,-37.90827,-52.144608,-64.732791,-35.733871,-42.060491,-46.658226,-51.398339,-25.960757,-31.829235,-37.463889,-42.24188,-14.795331,-18.904194,-24.204522,-29.006877,-2.193829,-4.71725,-10.544717,-16.097129,56.667549,166.824588,-63.764488,111.482765
43,1.258227,-21.902503,2.583985,-16.036675,-47.591355,-81.809721,-104.327746,-122.017799,-94.078583,-122.257971,-132.339895,-136.550646,-85.43704,-115.950668,-124.528639,-128.007877,-75.83246,-103.022278,-112.567697,-116.576477,-64.874439,-85.604593,-94.343371,-99.438864,3.225465,10.885953,14.694144,14.90537,26.60121,27.25134,20.881171,16.800327,25.220866,26.92619,18.878339,12.091648,22.000181,23.426236,16.257309,10.274231,17.189098,18.447189,15.519055,13.013359,23.63023,45.080045,60.599063,68.618442,48.220333,66.068933,69.351888,69.17225,47.210912,66.364763,69.678068,69.377883,45.808216,66.463205,69.121816,68.273386,44.58031,61.518602,62.875694,60.746709,-24.144819,-41.321851,-55.146443,-66.943807,-40.574072,-52.046872,-59.957183,-67.10618,-31.817345,-42.813293,-50.946968,-57.619572,-21.129966,-29.874507,-36.876102,-42.888054,-8.522246,-14.482682,-21.092743,-27.080575,58.025265,148.383615,-61.081014,98.90762
44,-2.342766,-16.375449,1.780225,-11.789525,-47.170372,-79.642839,-100.759592,-117.43309,-92.29929,-121.225462,-132.128019,-136.694784,-83.964586,-115.941753,-125.364847,-128.765545,-74.08164,-103.066578,-113.815641,-118.972721,-62.189426,-83.940039,-94.631052,-102.251902,-1.268879,4.181629,6.21294,5.389051,22.184468,21.207407,13.022745,7.599484,21.072467,20.574758,10.395666,2.376017,17.589404,16.964968,8.081492,1.002456,11.877043,11.6067,7.670806,4.354376,22.206951,42.925541,58.396981,67.467419,43.807835,60.190178,65.366352,66.850983,42.551377,60.017029,66.566483,68.991165,41.10846,60.441845,66.438275,68.102715,40.232907,56.223141,60.044449,60.044792,-24.446241,-42.542477,-56.402042,-68.992438,-42.611347,-56.464638,-66.781971,-76.208097,-33.604154,-45.445536,-55.331067,-64.068059,-22.416393,-31.282209,-39.574678,-47.272243,-9.715322,-15.302721,-21.945516,-28.538014,55.84699,135.444462,-59.136298,90.554391
45,-0.764214,-12.621334,1.844765,-5.483368,-44.76963,-75.89879,-95.80517,-111.239467,-90.73265,-120.236074,-132.799764,-138.649228,-83.22524,-117.084068,-128.656282,-133.641139,-73.345086,-104.305183,-117.359864,-124.614887,-60.385837,-83.242509,-95.821203,-105.555089,-3.389461,-0.135767,-0.164092,-1.847856,16.967664,14.684112,6.535722,1.141645,16.462892,14.275322,4.263943,-3.335223,13.267456,11.340778,2.323119,-4.665404,7.282498,6.112921,2.037712,-0.993166,20.77739,41.232376,56.894623,66.918732,39.427116,54.659122,61.065125,63.849758,38.005325,54.505096,63.401344,68.248421,36.481499,54.865459,63.351448,67.426003,35.701218,50.966377,57.131584,59.675228,-24.115679,-42.976441,-57.195128,-70.853121,-43.189838,-58.254518,-70.178269,-81.409483,-33.619648,-45.546839,-56.405494,-66.39705,-21.669535,-30.083943,-39.09095,-47.982046,-8.585067,-13.66407,-20.42164,-27.642801,55.352142,125.818487,-57.022167,88.066382
46,0.524123,-7.942839,3.33252,-1.729178,-42.194687,-72.377029,-91.440173,-106.452851,-88.521618,-117.743795,-131.617032,-138.813472,-81.80815,-116.119503,-129.234372,-135.747299,-72.254062,-103.807589,-118.379645,-127.284353,-58.930384,-82.116981,-96.183578,-107.736411,-3.626537,-1.954418,-3.558079,-6.09693,13.593786,10.324072,2.363504,-3.181982,13.120019,9.514542,0.015102,-7.098175,9.876174,6.579243,-2.098807,-8.79605,3.551917,1.546739,-2.112144,-4.778305,17.702499,37.654655,53.035034,63.482574,34.459167,48.828403,54.935211,57.539028,33.551216,49.091285,57.76482,62.347,32.913265,50.903835,59.252071,62.858963,33.284168,48.873687,54.921661,56.804431,-31.913855,-54.98752,-70.757352,-85.696407,-49.78233,-65.828786,-78.469262,-90.613098,-34.798019,-46.250114,-56.900523,-66.91623,-17.479115,-24.714973,-33.323147,-42.278198,0.687127,-2.342089,-8.350299,-15.309194,56.180935,119.932248,-53.384977,88.393804
47,1.524318,-2.228996,0.246002,2.210831,-39.8367,-68.677937,-87.00375,-101.81599,-85.613754,-114.437647,-129.208319,-137.484795,-79.28756,-112.564052,-125.528666,-132.375675,-69.850281,-100.383825,-113.829789,-122.26629,-56.598684,-79.736317,-94.292847,-106.534501,-4.99818,-4.830569,-8.039908,-11.963762,11.842875,8.088412,0.06488,-6.178479,11.658408,5.690281,-4.921241,-12.906137,8.373351,1.998321,-8.63607,-16.671623,1.853288,-0.921023,-4.549355,-7.29857,16.740509,36.238083,51.519424,61.911117,32.451565,46.420051,52.676113,55.857914,31.295974,46.201343,55.803028,61.523586,30.325767,47.51754,57.175186,61.888229,30.301391,45.411998,52.552196,55.390011,-31.67094,-55.016826,-71.131195,-87.068149,-48.138423,-62.937459,-75.375566,-88.02034,-32.603977,-42.511398,-52.984824,-63.63459,-15.001478,-21.165979,-29.685331,-39.058185,2.754846,0.753448,-5.044552,-12.462795,58.004276,118.743385,-52.839952,91.644768
48,1.818484,2.850604,1.834739,3.576473,-37.738152,-65.832985,-83.594948,-98.197724,-82.817036,-109.5466,-122.269879,-128.868141,-76.657494,-106.44754,-115.787373,-119.804123,-67.365189,-94.637329,-104.695324,-110.42054,-54.664227,-76.137486,-89.457756,-100.434185,-4.20947,-4.745346,-8.67542,-13.426336,11.916873,5.918605,-4.113954,-11.861599,11.314491,0.732953,-12.658995,-22.427397,7.551761,-3.742278,-17.05505,-26.754181,0.906793,-5.054901,-10.210109,-13.94491,16.178181,34.671341,48.94384,58.980469,31.064805,44.37703,50.199257,52.808167,29.999943,44.647637,53.706105,58.370831,28.93015,45.948258,55.207879,59.182114,28.78172,43.612015,50.393738,52.680256,-31.772841,-55.624611,-72.724436,-89.562347,-47.752181,-61.5697,-73.145444,-85.100102,-31.917634,-40.6974,-50.396716,-60.356249,-14.070202,-19.236643,-27.42208,-36.440697,3.716609,2.944321,-2.831152,-10.454376,60.06324,121.938041,-50.764733,95.565293
49,2.795746,6.263573,2.08421,4.559848,-35.739212,-63.024239,-80.320416,-95.205986,-78.586602,-103.47955,-116.376229,-124.283364,-72.829708,-100.396317,-110.410961,-116.215485,-64.286785,-89.50771,-99.858227,-106.488591,-52.792271,-72.665108,-85.59541,-96.496697,-3.307617,-3.315213,-6.576184,-11.211361,12.745532,8.216856,-0.177927,-6.902195,12.195342,3.256476,-8.345908,-17.156981,8.963406,-0.935512,-12.579269,-21.18806,3.368535,-1.47087,-5.742424,-8.899006,17.348945,34.656521,47.567676,56.255459,30.660644,43.290264,48.192375,50.213768,30.071297,45.138645,52.524353,56.004387,29.740059,47.102222,54.501366,57.289638,30.227634,44.866859,50.788914,52.724441,-29.03626,-51.915653,-68.57697,-84.39829,-47.29934,-61.898372,-73.149421,-84.541915,-33.906966,-45.067279,-54.536303,-63.808609,-18.377318,-26.415104,-34.569085,-42.869822,-2.169051,-5.659302,-12.025899,-19.356828,63.061581,128.097957,-48.477928,100.021484
50,2.333221,6.815918,3.950706,0.461362,-33.940338,-60.56242,-77.60012,-92.798504,-74.750038,-98.535335,-111.720062,-120.732468,-69.131664,-95.310871,-105.995521,-113.088478,-61.01017,-85.143539,-95.818222,-103.132748,-50.467426,-69.545631,-82.410232,-93.32737,-2.030866,-1.740818,-4.144471,-8.095071,12.647923,9.86913,3.053317,-2.791081,12.179157,4.881222,-4.898994,-12.852243,9.680612,1.140697,-8.614263,-16.093997,5.488074,1.721287,-1.486907,-4.127447,18.261074,33.852024,44.986107,51.866719,31.297394,42.975426,46.028584,46.383534,30.551308,44.714871,49.573632,50.994198,30.000481,46.468449,51.682721,52.722073,30.096531,43.769188,48.039139,48.59412,-27.861144,-50.75514,-67.45578,-83.182251,-46.691222,-61.994438,-73.328139,-84.220004,-35.119281,-48.419857,-58.643341,-68.237509,-21.80425,-33.032784,-42.534283,-51.199885,-7.631178,-14.54702,-22.432455,-30.395152,65.510725,134.672267,-44.411299,100.241238
51,0.863365,6.639417,8.078751,-7.673644,-32.492912,-58.511158,-75.358108,-90.489715,-71.775764,-94.739456,-108.593376,-119.013759,-66.016113,-91.168407,-103.178604,-112.333397,-57.63097,-81.117199,-92.730846,-101.287365,-47.081909,-65.574279,-78.358429,-89.231929,-1.169609,-0.23656,-1.539142,-4.181985,12.075324,11.147468,5.91291,1.008798,11.961715,6.61166,-1.623715,-8.564659,10.418912,3.773845,-4.484185,-10.864565,7.817608,5.412152,2.881793,0.858929,19.311172,32.061687,39.794506,43.65572,29.486732,39.371899,40.847408,39.965527,27.582813,38.824207,41.58514,41.390957,25.849068,39.08036,42.23711,41.979069,24.934193,35.842152,38.339344,38.047131,-26.49762,-49.875659,-66.896265,-81.81987,-51.921432,-69.398182,-79.973495,-88.663446,-41.921601,-58.550339,-68.127587,-75.97901,-29.869458,-44.137298,-52.441358,-58.658068,-16.807789,-26.450573,-33.702411,-39.809521,66.289198,140.870107,-36.41744,92.126017
52,-0.157951,5.062669,9.426822,-19.061415,-31.491852,-57.794781,-74.773796,-90.145855,-69.330151,-91.433189,-106.009518,-118.009609,-63.574036,-88.623974,-103.289108,-115.754208,-55.076088,-78.738407,-93.357525,-104.881245,-44.226425,-61.97057,-75.24115,-86.651711,1.640529,4.030814,4.539693,4.254449,10.885776,11.655643,8.384175,5.066232,10.778084,8.911116,4.066382,-0.432494,10.330862,7.955682,3.708835,0.17852,9.638523,9.048288,7.695657,6.707805,17.452108,26.618182,30.773257,32.134532,25.55571,32.946092,32.959053,30.705136,23.954844,31.725231,32.777232,31.44506,22.310274,31.793595,33.291469,32.258769,21.12668,29.10817,30.540976,30.008071,-23.048622,-44.626,-60.428518,-73.685642,-50.223825,-67.574354,-78.122896,-85.990361,-43.012107,-59.812088,-69.514293,-76.987749,-33.751869,-48.400399,-56.177084,-61.261248,-23.274117,-33.60998,-40.653901,-45.716249,65.917894,145.818831,-27.203971,72.950657
53,-0.274178,4.071631,10.733797,-30.598322,-31.061668,-57.275928,-74.582462,-90.774604,-66.655471,-89.362918,-107.329662,-123.733989,-60.78836,-87.34568,-107.644592,-126.553665,-52.036926,-77.121219,-96.376613,-112.816612,-40.564132,-58.43938,-73.3251,-86.637897,2.527494,6.27646,8.411135,10.080532,9.345122,14.041784,14.761596,13.862103,9.995576,14.551805,14.690781,13.367136,11.070935,15.250944,15.740056,15.350362,12.216158,16.108632,17.465783,18.34207,12.992654,17.302766,17.416806,16.345868,18.497085,23.308107,22.255108,18.9607,18.499325,22.780815,22.674542,20.571198,18.111826,23.688071,24.010425,22.522908,17.575727,22.893038,23.456746,22.738206,-17.735257,-35.379634,-48.91658,-60.283805,-40.950792,-54.229326,-63.968307,-71.149442,-36.851613,-49.306353,-59.265436,-67.101018,-31.378573,-42.570868,-50.271047,-55.180822,-25.091662,-33.177942,-39.804327,-44.30324,65.329359,149.995759,-16.784531,42.457632
54,-1.181465,4.718126,12.613263,-41.700906,-30.993553,-57.280929,-74.961067,-91.634388,-65.280716,-88.117378,-106.904468,-124.594848,-58.987129,-84.990074,-106.077816,-126.637573,-49.544632,-73.990516,-93.686416,-111.150398,-37.213806,-54.572147,-69.658905,-83.188648,3.53515,8.10137,11.129327,13.873132,8.748552,14.001882,14.999324,13.872416,9.652701,14.953579,15.417078,14.31277,11.161499,16.015019,16.862951,16.721728,12.884669,17.3985,19.056746,20.103724,4.183387,2.434347,-1.602968,-4.46683,7.059723,8.768326,7.231396,3.417131,10.551046,10.848186,10.608473,8.562784,13.144432,14.559328,14.542225,13.141531,14.785583,17.6,17.522169,16.572584,-14.172259,-27.103672,-38.210828,-48.045183,-25.277487,-30.328621,-38.477576,-45.131911,-22.918945,-25.788493,-35.723792,-44.241486,-20.39227,-23.762326,-31.433768,-36.757568,-18.08604,-20.394632,-26.790285,-31.724878,63.798568,155.083482,-4.520594,1.126323
55,-2.030823,5.037167,12.007404,-49.780635,-31.056953,-57.453552,-75.446788,-92.418914,-64.549507,-87.105709,-106.232402,-124.475852,-57.911418,-83.074447,-104.125259,-125.152439,-47.803985,-71.410903,-90.910137,-108.471656,-34.589126,-51.198944,-66.134216,-79.517166,3.649758,8.48095,11.885941,15.210534,7.266813,12.915345,14.14529,12.883519,8.391523,14.43322,15.067619,14.211709,10.293682,15.776082,16.743575,16.776438,12.583585,17.397771,19.225941,20.458035,-6.632652,-15.152578,-23.240576,-27.187643,-7.335605,-8.752327,-9.758892,-13.090181,1.619539,-1.260338,-0.355139,-1.305799,9.132672,7.149725,7.445297,6.614657,14.686833,15.580244,15.55604,14.915056,-6.901991,-11.526633,-18.260554,-25.389068,-1.94845,5.139448,-0.664381,-7.358156,-2.368337,9.361184,0.139702,-9.353605,-3.896614,5.313291,-1.466611,-7.314561,-6.716199,0.71625,-4.48951,-9.582808,61.530189,160.594788,7.249254,-48.180173
56,-1.786766,4.625032,7.43639,-41.499475,-30.892707,-56.935855,-74.803882,-91.432399,-63.408611,-86.146946,-105.144596,-123.336467,-56.825775,-81.859233,-102.586544,-123.277576,-46.768867,-69.906807,-88.956035,-106.160739,-33.55442,-49.553421,-64.197109,-77.205265,2.963427,7.741587,11.222334,14.433121,6.036621,11.804517,13.079379,11.834565,7.412766,13.945811,14.710244,13.825373,9.598595,15.605206,16.780773,16.811895,12.344277,17.533893,19.5104,20.670975,-17.380493,-31.015882,-41.533945,-45.336222,-18.293232,-21.457096,-22.191215,-25.52215,-3.526903,-6.902458,-5.332239,-5.686952,9.139866,6.685007,7.643654,7.406897,18.504749,20.048967,20.952818,20.818411,-0.457986,3.226042,0.992005,-4.867118,25.88639,46.138137,41.839551,33.527676,23.621462,51.072848,41.579961,29.383333,18.321094,40.487426,32.472071,23.335987,10.387368,27.694935,22.120946,14.60693,59.67798,165.839954,14.620201,-89.059514
57,-1.392242,4.525094,5.752282,-29.057853,-30.618828,-56.024906,-73.682922,-89.766071,-62.309956,-85.199604,-103.991283,-122.124744,-55.801449,-80.57761,-100.930058,-121.15321,-45.923904,-68.645485,-87.35741,-104.310059,-32.954338,-48.564079,-62.830399,-75.518955,1.715093,6.015182,9.479109,12.3404,5.066832,11.131537,12.46337,11.301289,6.782863,13.830611,14.584682,13.597688,9.181842,15.458685,16.640304,16.54506,12.139613,17.494337,19.481675,20.487799,-25.353636,-42.785954,-55.333337,-59.257733,-26.224891,-30.543039,-31.419456,-34.968306,-7.405675,-10.583015,-9.109105,-9.33611,8.889296,6.635866,7.835289,7.984683,20.976237,23.758367,25.389568,25.646499,3.275567,12.159716,12.908276,7.694643,44.606493,74.110856,71.13192,61.864968,41.99188,80.478532,71.369915,57.542385,34.853043,66.289161,57.843682,46.357772,23.898869,48.51692,43.044127,33.794502,58.254707,170.720518,20.341452,-117.761897
58,-1.488968,4.667615,4.068175,-16.616232,-29.65654,-54.188633,-71.224159,-86.09396,-61.350494,-84.341366,-102.720817,-120.457123,-55.216312,-79.964001,-100.01857,-119.677288,-45.823425,-68.400432,-86.937984,-103.640098,-33.37294,-48.844929,-62.75703,-75.207813,0.570475,4.358801,7.689853,10.138578,4.04937,10.06323,11.345897,10.331486,6.001696,13.107612,13.893942,12.936638,8.584382,14.870809,16.03988,15.844045,11.793699,17.298798,19.298671,20.152692,-30.552081,-50.462795,-64.638751,-68.952178,-31.130585,-36.010157,-37.443615,-41.428651,-10.016776,-12.30201,-11.685737,-12.253272,8.38096,7.002299,8.020202,8.348015,22.101293,26.708441,28.866288,29.399319,4.298668,15.27439,17.488258,12.296216,54.211861,89.057603,87.212726,77.653719,52.742919,97.578236,89.509567,75.12355,45.699236,82.718496,74.648222,61.750796,33.818306,63.182206,58.280034,47.979911,56.750215,175.516888,24.394103,-134.249374
59,-0.889023,4.500901,2.349116,-8.423895,-28.817276,-52.529297,-69.107105,-83.231861,-60.507339,-83.710556,-101.669826,-119.022365,-54.546364,-79.418976,-99.324783,-118.525657,-45.432266,-67.992817,-86.366432,-102.809761,-33.316131,-48.787204,-62.362186,-74.593631,-0.544996,2.662752,5.786175,7.992159,2.896749,8.881118,10.327053,9.738176,5.103499,12.04774,12.996103,12.271314,7.902472,13.969907,15.178783,15.038856,11.522998,16.913969,18.962959,19.789019,-32.916523,-53.641178,-68.302189,-72.445473,-33.822929,-38.229748,-39.710198,-43.699555,-11.846176,-12.625038,-12.530731,-13.375854,7.509567,7.526993,8.51397,8.893051,22.12571,28.428558,31.001656,31.697006,5.652904,18.281569,22.216629,17.821477,58.523368,95.802989,94.869467,85.711891,57.424604,105.349251,98.433623,84.274482,50.384306,90.644547,83.469658,70.251459,38.151733,70.238123,66.329419,55.888383,55.787298,179.719155,26.669325,-142.971903
60,-0.615394,3.935552,0.630058,-0.23156,-28.192726,-51.300213,-67.507222,-81.072087,-59.754158,-83.122513,-100.692032,-117.67733,-53.901879,-78.86451,-98.565434,-117.387371,-45.005013,-67.457165,-85.620804,-101.846535,-33.144448,-48.437062,-61.719624,-73.743485,-1.421804,1.440501,4.39348,6.407914,2.271353,8.099579,9.691542,9.500968,4.611768,11.398743,12.5772,12.129596,7.463043,13.400012,14.751692,14.774391,11.305364,16.689098,18.813065,19.719105,-32.446964,-52.321106,-66.32365,-69.737617,-34.301925,-37.201812,-38.219204,-41.781017,-12.893875,-11.552101,-11.644089,-12.703857,6.275116,8.209946,9.31659,9.619789,21.049485,28.918717,31.79567,32.539559,7.338277,21.181256,27.093391,24.270428,57.541016,94.347016,94.102144,86.039486,56.036937,103.791581,98.142085,84.995181,48.908253,90.067316,84.307992,71.859763,36.899153,69.684673,67.192284,57.519922,54.826138,183.035523,26.953617,-143.822647
61,0.160171,3.200277,0.595108,-4.480846,-28.028801,-51.023849,-67.230961,-80.756424,-59.163208,-82.661133,-100.122894,-117.013138,-53.239712,-78.201164,-97.880241,-116.548496,-44.372566,-66.811695,-84.923813,-101.026737,-32.60717,-48.128277,-61.351387,-73.271976,-1.672572,0.982473,3.943986,6.10446,1.704657,7.671463,9.553999,9.766704,4.118616,11.029401,12.522551,12.380438,7.108275,13.073612,14.620632,14.875143,11.217715,16.595139,18.796813,19.796824,-31.918102,-50.59581,-63.197113,-65.055679,-35.59354,-36.545177,-36.174717,-38.658851,-14.427543,-11.044761,-10.226044,-10.969276,4.935372,8.635582,10.434784,10.742684,20.219048,28.93824,32.208359,33.002243,12.065237,29.792449,39.454833,39.603257,60.37954,97.715652,98.12232,91.185042,56.199296,105.211203,100.285256,87.863535,46.956834,90.359204,85.730295,74.204469,33.65263,67.678554,66.555905,57.876691,54.488869,185.536857,27.051285,-149.002436
62,0.520661,2.301425,-0.192585,-5.780492,-27.596764,-50.458809,-66.568051,-79.976338,-58.650971,-82.346798,-99.990384,-116.931679,-52.845692,-78.044564,-97.965203,-116.663636,-44.066094,-66.687504,-84.87109,-100.894341,-32.423561,-48.183346,-61.442414,-73.287964,-1.109951,1.756725,4.684794,6.890605,1.780721,7.648283,9.697149,10.118892,3.992522,10.86543,12.582536,12.576818,6.864151,12.825104,14.641751,15.092665,11.013273,16.502699,18.905951,20.056843,-31.350712,-49.436153,-60.767395,-61.48629,-36.83904,-35.773573,-34.00439,-35.797554,-15.516643,-10.402931,-8.481674,-9.24678,4.307064,9.242112,11.763863,11.734944,20.20483,29.319901,32.768269,33.285919,15.991541,36.794568,48.667818,50.492591,63.523091,102.228196,103.245445,97.238315,56.727797,107.740856,103.019679,91.083352,45.389335,91.053419,86.870131,76.191397,30.71966,66.039762,65.737488,58.035381,54.445942,187.059464,26.295112,-155.561746
63,0.828163,1.288966,-0.980278,-7.080138,-27.797928,-51.118252,-67.677956,-81.856591,-58.547081,-82.193012,-100.210579,-117.620201,-52.534756,-77.706242,-97.9025,-116.991669,-43.516045,-66.219761,-84.504261,-100.694618,-31.639572,-47.660134,-61.053635,-72.97974,-0.234713,2.873234,5.684298,8.191118,2.213172,7.971336,10.18242,10.647179,4.10944,10.997316,12.83155,12.875319,6.733104,12.720585,14.688805,15.297269,10.757045,16.21278,18.751994,20.075096,-30.744793,-48.842136,-59.034496,-59.029449,-38.038427,-34.886999,-31.708225,-33.197124,-16.161175,-9.62661,-6.41098,-7.536369,4.390194,10.029534,13.303826,12.596569,21.006832,30.063698,33.475399,33.390587,19.117189,42.187614,54.732347,56.938432,66.971668,107.884648,109.471519,104.199306,57.62244,111.380539,106.345355,94.654634,44.205755,92.14996,87.727501,77.820549,28.100244,64.768299,64.737035,57.995993,54.664244,187.56549,24.704973,-163.424824
64,0.8936,0.44958,-1.317566,1.067202,-27.50029,-51.179523,-67.931328,-82.095932,-58.299099,-82.069187,-100.486038,-118.198826,-52.396923,-77.843033,-98.473903,-117.925255,-43.535545,-66.511253,-85.032429,-101.355171,-31.842911,-48.268158,-61.885505,-73.88285,0.826776,4.175884,6.952985,9.68491,2.152718,7.917811,10.154485,10.437907,3.71409,10.739459,12.680743,12.62665,6.248326,12.364149,14.411546,14.97051,10.294164,15.7529,18.226968,19.413428,-30.402012,-48.065967,-57.116542,-56.409404,-37.723261,-35.103494,-31.420944,-32.581966,-15.813839,-9.22528,-5.688926,-6.974647,4.886021,10.72297,14.291794,13.423031,21.668186,30.883103,33.925656,33.196762,18.667153,39.752902,50.372891,51.621756,63.256246,104.08315,105.204446,100.370811,54.304785,107.821035,102.575939,91.503469,41.964204,89.728829,85.587258,76.047663,27.162394,64.152503,64.529738,58.257596,54.869779,187.39961,22.699342,-162.973082
65,0.900833,-0.675179,-2.0304,6.376545,-27.459571,-51.691131,-68.770122,-83.068714,-58.196754,-82.026077,-100.99316,-119.243351,-52.315338,-78.001831,-99.182064,-119.13319,-43.472969,-66.810379,-85.654369,-102.236778,-31.826614,-48.84597,-62.734382,-74.816173,1.678808,5.170769,7.955194,10.970282,1.893959,7.866768,10.117743,10.17317,3.282454,10.631926,12.565591,12.365273,5.863486,12.219085,14.309732,14.81648,10.038344,15.542727,17.975495,19.005258,-29.68777,-46.881518,-55.113676,-54.278442,-35.814296,-33.983324,-30.457135,-31.80835,-14.157636,-7.636175,-4.43033,-6.223547,6.25036,12.187997,15.622415,14.475712,22.712965,32.235185,34.740602,33.306353,15.60664,32.636516,39.785739,38.910845,56.525068,96.272416,96.912705,92.396806,49.577414,101.486878,96.238745,85.921864,39.741921,85.899528,81.992714,72.705946,27.356589,63.840072,64.365557,58.342042,55.101637,186.378271,19.999967,-156.942697
66,0.226387,-1.320286,-2.743234,11.685889,-27.254722,-51.708503,-68.868679,-82.999122,-58.211231,-81.964347,-101.220829,-119.838867,-52.349487,-78.022613,-99.42184,-119.771782,-43.462326,-66.839229,-85.798519,-102.671402,-31.756439,-48.827087,-62.776039,-74.990135,1.692591,5.258554,8.031345,11.191213,1.614835,7.59046,9.765569,9.604425,3.117717,10.498126,12.322715,11.973875,5.841676,12.137748,14.07245,14.448065,10.082225,15.456857,17.734002,18.605461,-28.602068,-45.288789,-53.025898,-52.636562,-32.311533,-31.526489,-28.816799,-30.876276,-11.192568,-4.859293,-2.635191,-5.283067,8.48321,14.424616,17.295687,15.75461,24.141169,34.119944,35.920237,33.719359,9.935649,20.838456,22.97089,18.805699,46.778131,84.452444,84.596297,80.277291,43.440325,92.378067,87.333774,77.909819,37.538904,80.662057,76.943868,67.795398,28.682828,63.831006,64.244492,58.249331,54.635496,184.824374,16.564205,-145.490419
67,-0.440872,-1.76637,-2.703325,14.045591,-27.527298,-52.353985,-69.76688,-84.122211,-58.298504,-81.691246,-101.050815,-119.928119,-52.204376,-77.4753,-98.864754,-119.517917,-43.06002,-66.133301,-84.951874,-102.004543,-31.082268,-47.865372,-61.718193,-74.023075,1.594235,5.10519,8.008855,11.287963,1.234798,7.220994,9.315963,8.958972,2.936627,10.345219,12.064314,11.635445,5.871414,12.009022,13.74395,14.068176,10.151681,15.134754,17.177384,17.883178,-27.12413,-42.316917,-49.008388,-48.397133,-28.073704,-28.219257,-26.072281,-28.321247,-7.849171,-1.594723,-0.098431,-3.078541,10.767841,16.994617,19.416302,17.786518,25.382366,35.704609,36.936016,34.234921,5.496427,11.679304,10.561481,4.633691,37.531288,72.303941,71.939772,67.922513,37.077406,82.361867,77.704484,69.263524,34.495871,74.483208,71.307158,62.410198,28.833616,62.305309,62.849334,56.902773,53.552576,182.935191,13.218832,-131.567641
68,-0.96112,-1.984362,-2.663416,16.405296,-27.441422,-52.287644,-69.605221,-83.805085,-58.031136,-81.084034,-100.282174,-118.92508,-51.935738,-76.799275,-97.941891,-118.471333,-42.821,-65.434903,-83.97044,-100.92738,-30.877945,-47.099328,-60.739174,-72.980359,1.352161,4.769787,7.901225,11.055905,0.95828,6.988294,8.858479,8.182386,2.832602,10.178864,11.71409,11.082495,5.808874,11.860167,13.468765,13.68541,9.880313,14.823532,16.775833,17.332649,-25.253958,-37.965902,-43.061149,-41.560154,-23.100809,-24.061629,-22.223581,-24.143264,-4.127446,2.157535,3.17995,0.390033,13.104254,19.898001,21.984259,20.571435,26.436557,36.98918,37.787939,34.853038,2.288971,5.159058,2.55751,-3.605182,28.784536,59.826903,58.943128,55.332468,30.488655,71.438276,67.350872,59.982978,30.612818,67.362979,65.082581,56.550344,27.808951,59.262978,60.180082,54.302365,51.988627,180.909012,9.952587,-115.204162
69,-1.3694,-2.179333,-3.038963,13.567297,-27.998841,-52.94909,-70.360669,-85.155053,-57.608746,-80.121495,-99.274601,-117.992535,-50.939873,-75.076058,-95.856801,-116.2794,-41.212738,-62.954304,-81.193222,-98.16346,-28.727555,-44.058495,-57.403611,-69.580685,0.994911,4.387046,7.77108,10.814189,0.810376,7.025839,8.833261,7.977573,2.914805,10.394645,11.718092,10.919239,5.861745,12.138575,13.668652,13.914628,9.566708,14.56323,16.430686,16.967704,-22.749186,-33.388758,-37.21405,-35.375462,-18.048668,-17.464266,-15.689468,-17.82155,-0.08872,7.472563,8.343515,5.196676,15.896482,23.666963,25.446863,23.617735,28.014822,38.730822,39.261427,36.073065,0.046724,1.784898,-1.250171,-7.47577,24.186028,52.798581,52.414966,49.386402,26.702486,64.939221,61.524578,54.994441,27.807005,62.352254,60.401317,52.523699,26.234768,55.868348,56.760791,51.223811,50.156331,178.664183,6.450728,-101.702361
70,5.359634,-3.080567,-3.038963,13.567297,-28.841812,-54.616379,-72.324223,-87.178585,-62.754364,-85.735027,-103.834557,-120.988792,-57.608986,-82.7463,-102.066948,-120.678074,-49.915524,-72.787674,-90.559811,-106.519352,-39.62685,-56.500568,-69.810276,-81.89542,1.926341,5.547151,8.641106,11.432533,4.041626,9.618466,10.541684,9.051659,5.72866,12.451773,12.927708,11.4466,7.883947,13.34682,13.91485,13.293851,10.071294,14.478866,15.713788,15.748578,-20.244414,-28.811613,-31.366952,-29.190769,-12.996527,-10.866902,-9.155356,-11.499837,3.950005,12.78759,13.50708,10.003319,18.688711,27.435926,28.909467,26.664035,29.593086,40.472463,40.734914,37.293091,-2.195522,-1.589262,-5.057851,-11.346359,19.58752,45.770258,45.886805,43.440336,22.916317,58.440166,55.698283,50.005904,25.001193,57.34153,55.720054,48.497053,24.660584,52.473718,53.3415,48.145257,55.209234,175.580208,3.105034,-88.138472
71,5.793846,-3.02062,-3.038962,13.567297,-29.665443,-56.012993,-73.799023,-88.858246,-67.294464,-90.932991,-108.771046,-125.281883,-62.893043,-89.396187,-108.328937,-126.38958,-56.23534,-80.539078,-98.502514,-114.375389,-47.105953,-65.265438,-78.787548,-91.123844,3.435076,7.355548,10.357557,12.954297,5.961903,11.520725,12.114158,10.16881,7.302443,14.00671,14.091505,12.142737,9.139011,14.447151,14.519139,13.442113,10.750685,14.971338,15.789691,15.60344,-17.739643,-24.23447,-25.519855,-23.006077,-7.944387,-4.26954,-2.621244,-5.178125,7.988729,18.102617,18.670644,14.809961,21.480938,31.204888,32.37207,29.710334,31.17135,42.214104,42.208401,38.513116,-4.437769,-4.963422,-8.865532,-15.216947,14.989013,38.741935,39.358643,37.494269,19.130148,51.941111,49.871989,45.017367,22.19538,52.330806,51.03879,44.470407,23.086401,49.079088,49.922209,45.066704,60.852419,172.671362,-0.084589,-74.459401
72,5.603577,-2.762405,-3.038963,13.567297,-30.211647,-56.692509,-74.370999,-89.528012,-71.143994,-95.742268,-113.493473,-129.47295,-67.466423,-95.588986,-114.417309,-132.054726,-61.606396,-87.352078,-105.681748,-121.559819,-53.181416,-72.112988,-85.858853,-98.487934,5.373434,9.543588,12.318108,14.60275,7.986403,13.39138,13.685954,11.473436,8.711217,15.180314,15.045315,12.784509,9.997725,15.181932,14.992173,13.584979,10.901751,15.297269,15.973436,15.800164,-15.234871,-19.657326,-19.672756,-16.821385,-2.892246,2.327823,3.912868,1.143589,12.027454,23.417644,23.834209,19.616604,24.273167,34.97385,35.834675,32.756634,32.749615,43.955746,43.681888,39.733143,-6.680015,-8.337582,-12.673212,-19.087536,10.390505,31.713612,32.830481,31.548203,15.343979,45.442056,44.045694,40.02883,19.389568,47.320082,46.357527,40.443762,21.512217,45.684457,46.502918,41.98815,66.379498,170.083461,-3.20005,-60.7176
73,5.709503,-2.415479,-3.038963,13.567297,-30.86055,-57.342453,-74.88287,-90.086964,-74.621224,-100.250198,-118.205692,-134.04229,-71.455376,-101.140022,-120.387383,-138.080509,-66.097355,-93.303269,-112.304398,-128.481926,-58.142132,-77.965427,-92.184425,-105.329979,6.614828,11.031304,13.709209,15.868201,9.041582,14.857224,15.151909,12.884397,9.473403,16.159182,15.998581,13.56049,10.6712,15.993715,15.636637,13.971723,11.524109,16.021861,16.516927,16.280213,-12.730099,-15.080182,-13.825658,-10.636692,2.159894,8.925187,10.446981,7.465302,16.066179,28.732672,28.997774,24.423247,27.065395,38.742813,39.297279,35.802934,34.327879,45.697387,45.155376,40.953169,-8.922262,-11.711742,-16.480892,-22.958125,5.791997,24.685289,26.30232,25.602137,11.55781,38.943001,38.2194,35.040293,16.583755,42.309357,41.676263,36.417116,19.938034,42.289827,43.083627,38.909596,72.07885,167.827261,-6.249164,-46.991024
74,5.322281,-2.05225,-3.038963,13.567297,-31.109825,-57.874306,-75.44085,-90.47406,-77.828613,-104.478012,-122.56477,-138.267414,-75.476074,-106.691551,-126.434521,-144.285748,-70.841137,-99.644715,-119.274651,-135.643364,-63.442852,-84.17696,-98.91045,-112.488419,8.524212,13.155987,15.420659,17.322609,10.725874,16.439849,16.540972,14.103374,10.46178,17.113114,17.021304,14.53538,11.196659,16.484977,16.180461,14.376274,11.828452,16.680219,17.407565,17.327141,-10.225327,-10.503037,-7.97856,-4.451999,7.212035,15.52255,16.981094,13.787016,20.104905,34.047699,34.161339,29.229889,29.857623,42.511775,42.759883,38.849233,35.906144,47.439029,46.628864,42.173195,-11.164509,-15.085902,-20.288573,-26.828713,1.19349,17.656966,19.774158,19.656071,7.771641,32.443946,32.393105,30.051756,13.777942,37.298633,36.995,32.39047,18.363851,38.895197,39.664336,35.831042,77.373299,165.857701,-9.315959,-33.341037
75,-1.883629,-0.260154,-3.038962,13.567297,-30.655518,-56.776474,-73.965443,-88.99593,-74.967018,-101.59235,-120.686852,-137.743664,-71.420609,-102.248074,-123.551273,-143.283051,-64.980217,-93.273274,-113.600235,-131.15696,-55.554405,-74.738869,-89.677895,-103.698441,8.740153,13.238782,15.675169,17.477688,8.475713,14.952109,15.714949,13.606295,8.275148,15.900743,16.667375,14.783826,9.52158,15.874647,16.560979,15.536897,11.303758,17.093156,18.560704,19.081606,-7.720556,-5.925894,-2.131462,1.732693,12.264175,22.119913,23.515205,20.108728,24.143629,39.362726,39.324903,34.036531,32.649851,46.280737,46.222486,41.895532,37.484407,49.18067,48.10235,43.393221,-13.406755,-18.460062,-24.096253,-30.699302,-3.405018,10.628643,13.245996,13.710004,3.985472,25.944891,26.566811,25.063219,10.97213,32.287909,32.313736,28.363825,16.789667,35.500567,36.245045,32.752488,75.398071,165.464274,-12.44652,-19.907013
76,-2.406418,0.45636,-3.038963,13.567297,-30.482414,-56.379227,-73.692604,-88.944225,-72.282783,-98.822101,-118.317787,-135.96722,-68.122696,-98.36079,-120.315708,-140.703724,-60.751579,-88.399521,-108.862301,-126.598492,-50.256523,-68.36396,-83.386997,-97.38422,8.436242,12.70348,15.050638,16.716565,7.309297,13.805515,14.788618,12.993695,7.113635,14.893928,16.147325,14.781937,8.414272,15.160442,16.474998,15.922566,10.549218,16.78396,18.739348,19.516156,-5.215785,-1.34875,3.715636,7.917385,17.316316,28.717276,30.049318,26.430442,28.182354,44.677754,44.488468,38.843174,35.442079,50.049699,49.685091,44.941832,39.062672,50.922311,49.575838,44.613247,-15.649002,-21.834221,-27.903934,-34.569891,-8.003525,3.60032,6.717835,7.763938,0.199303,19.445836,20.740516,20.074682,8.166317,27.277185,27.632473,24.337179,15.215484,32.105937,32.825754,29.673934,72.754309,165.515613,-15.722827,-6.744737
77,-1.954834,0.993008,-3.038963,13.567297,-30.783234,-57.039734,-74.738571,-90.272587,-70.233627,-96.530056,-116.293842,-134.476021,-65.44313,-94.856598,-117.201164,-138.101646,-57.426338,-84.430469,-105.048191,-123.013138,-46.326668,-64.266563,-79.585304,-93.566048,6.477088,10.499781,12.978862,14.843058,5.560403,12.257791,13.556439,12.051828,5.868068,14.011169,15.61768,14.717532,7.625658,14.903129,16.642589,16.401861,10.463163,16.992812,19.155806,19.883213,-2.711013,3.228395,9.562734,14.102078,22.368457,35.31464,36.58343,32.752155,32.221079,49.992781,49.652033,43.649817,38.234307,53.818662,53.147695,47.988132,40.640936,52.663953,51.049325,45.833273,-17.891248,-25.208381,-31.711614,-38.440479,-12.602033,-3.428003,0.189673,1.817872,-3.586866,12.946781,14.914222,15.086145,5.360505,22.266461,22.951209,20.310533,13.6413,28.711306,29.406463,26.595381,70.326553,165.808103,-19.234712,6.122042
78,-1.723091,1.199403,-3.038962,13.567298,-30.452957,-56.661781,-74.504173,-89.700554,-67.964172,-94.631378,-114.573235,-132.913605,-62.93454,-92.337009,-115.01873,-136.030003,-54.785133,-81.718426,-102.574951,-120.505371,-43.645615,-61.896744,-77.396244,-91.148495,4.935871,8.733682,11.372178,13.537457,4.08064,10.855105,12.675223,11.942246,4.885829,13.165991,15.415694,15.356537,7.206841,14.777603,17.115029,17.36655,10.886573,17.668065,20.153593,20.991423,-0.206242,7.805538,15.409832,20.28677,27.420597,41.912002,43.117542,39.073868,36.259804,55.307808,54.815597,48.456459,41.026535,57.587623,56.610298,51.034431,42.2192,54.405594,52.522812,47.053299,-20.133496,-28.582542,-35.519295,-42.311069,-17.200542,-10.456326,-6.33849,-4.128196,-7.373036,6.447725,9.087926,10.097607,2.554691,17.255735,18.269945,16.283887,12.067116,25.316675,25.987172,23.516826,67.944471,166.066868,-22.932665,18.748702
79,-1.208817,1.634015,-3.038963,13.567297,-30.434875,-56.419487,-74.426399,-89.439823,-66.251976,-93.315845,-113.366706,-131.776382,-60.822303,-90.377071,-113.266834,-134.352184,-52.284965,-79.459384,-100.475612,-118.433898,-40.93293,-60.191093,-75.901371,-89.61977,3.606187,7.47096,11.044172,14.391687,2.308169,9.610538,12.506224,13.168411,4.095151,12.805442,16.216819,17.339145,7.558781,15.339914,18.614106,19.685908,12.642224,19.262436,22.247364,23.469615,2.29853,12.382682,21.25693,26.471462,32.472738,48.509366,49.651655,45.395581,40.298529,60.622835,59.979162,53.263102,43.818763,61.356586,60.072902,54.080731,43.797464,56.147235,53.996299,48.273325,-22.375742,-31.956702,-39.326976,-46.181658,-21.799049,-17.484649,-12.866652,-10.074262,-11.159205,-0.05133,3.261631,5.10907,-0.251121,12.245011,13.588681,12.257241,10.492932,21.922045,22.567881,20.438272,65.979566,166.316608,-26.727716,30.931724
80,-1.596153,2.092141,-3.038963,13.567297,-30.187431,-55.849136,-73.772918,-88.171497,-64.854721,-92.642051,-112.306423,-130.237621,-58.819336,-89.341656,-112.106472,-132.609432,-49.903015,-78.019821,-99.221889,-117.031608,-38.347641,-59.038193,-74.931667,-88.693119,1.973024,6.310645,11.797268,17.104975,0.754565,9.25924,14.152972,17.224993,3.841011,13.501468,19.042469,22.488561,8.889552,17.640759,22.585818,25.305652,15.769326,22.529378,26.482763,28.71162,4.803302,16.959827,27.104028,32.656155,37.524879,55.106729,56.185767,51.717294,44.337254,65.937863,65.142727,58.069745,46.610992,65.125548,63.535506,57.127031,45.375729,57.888877,55.469787,49.493351,-24.617989,-35.330862,-43.134656,-50.052246,-26.397557,-24.512972,-19.394813,-16.020328,-14.945374,-6.550385,-2.564663,0.120533,-3.056934,7.234287,8.907418,8.230595,8.918749,18.527415,19.14859,17.359718,63.637813,166.473769,-30.512279,42.564041
81,-1.554794,3.189421,-3.038962,13.567297,-30.534439,-56.531456,-75.063778,-89.780697,-64.140633,-92.331963,-111.245911,-128.159374,-57.39695,-88.561821,-110.793423,-130.330994,-47.892243,-76.934441,-98.218678,-115.716351,-35.782288,-57.854096,-73.88023,-87.842548,-0.722208,3.543078,9.77961,15.352215,-0.238097,10.476328,17.41253,22.756311,4.554958,16.169926,24.053589,29.990187,11.281726,21.985172,28.995511,33.740697,19.688637,27.75723,33.311927,37.068797,7.308073,21.53697,32.951126,38.840847,42.577018,61.704092,62.719879,58.039007,48.375978,71.252889,70.306291,62.876386,49.403219,68.89451,66.99811,60.17333,46.953993,59.630518,56.943273,50.713377,-26.860236,-38.705022,-46.942337,-53.922835,-30.996065,-31.541295,-25.922975,-21.966395,-18.731543,-13.04944,-8.390958,-4.868004,-5.862746,2.223563,4.226154,4.20395,7.344565,15.132785,15.729299,14.281164,61.420263,167.116421,-34.213997,53.584569
82,-1.632294,5.457267,-3.038963,13.567297,-29.96775,-55.929451,-74.870876,-89.748504,-63.474975,-92.217224,-110.478115,-126.358269,-56.532028,-88.462612,-110.234985,-128.779209,-46.894134,-77.063381,-98.346073,-115.299133,-34.682556,-58.050201,-73.886753,-87.770794,-3.264534,0.985092,8.166134,13.639641,-0.659939,12.257173,21.024916,28.48318,6.157887,19.947532,29.977775,38.033153,14.628388,27.271044,36.118149,42.446369,24.391968,33.672006,40.771549,45.841801,9.812845,26.114114,38.798224,45.025539,47.629159,68.301455,69.253991,64.36072,52.414703,76.567917,75.469856,67.683029,52.195447,72.663473,70.460714,63.21963,48.532257,61.372159,58.416761,51.933403,-29.102482,-42.079182,-50.750017,-57.793423,-35.594572,-38.569618,-32.451137,-27.912461,-22.517712,-19.548494,-14.217252,-9.856541,-8.668559,-2.787162,-0.455109,0.177304,5.770382,11.738155,12.310008,11.20261,59.415178,169.736782,-37.625751,64.31496
83,-2.030113,8.466969,-1.652697,13.547693,-29.608063,-55.814095,-75.46376,-91.022266,-63.418545,-92.166676,-109.773651,-124.893425,-56.251007,-88.285297,-109.394039,-127.078297,-46.33905,-77.130363,-98.154636,-114.702919,-33.891701,-58.125538,-73.72657,-87.586647,-5.768093,-1.883202,6.114563,11.433484,-0.615404,13.957335,24.208051,33.337232,8.205136,23.775477,35.467128,45.128128,18.173678,32.523745,42.957107,50.603574,28.812409,39.060125,47.355403,53.552378,12.291878,29.829399,43.321041,50.474018,49.555774,71.21669,73.619014,70.511963,52.353904,76.923568,77.378471,71.301704,50.056328,71.028519,70.947128,65.921325,44.772365,57.106209,55.787849,51.056122,-29.626148,-42.723215,-51.538023,-58.834038,-35.892636,-38.833452,-32.536229,-27.473653,-22.209321,-19.794305,-13.58582,-8.373332,-8.027853,-2.942929,0.44256,2.264424,6.439112,12.276574,13.78386,13.420276,57.186224,175.051596,-39.477289,74.710498
84,-2.134712,10.932528,-6.62018,21.448982,-29.004547,-55.220261,-75.510521,-91.755947,-62.781613,-91.964424,-109.098049,-123.287361,-55.65786,-88.082234,-108.646889,-125.403282,-45.942101,-77.510468,-98.379021,-114.448151,-33.814911,-58.627339,-74.134598,-87.880039,-9.211235,-6.00135,2.302352,6.963458,-0.737782,15.293045,26.644265,36.826315,10.259893,27.377551,40.085478,50.835273,21.708283,37.611139,49.09196,57.580481,32.916563,44.26456,53.35122,60.197698,16.357004,37.222959,52.734508,60.073219,58.682354,83.101595,83.505458,78.936014,59.618436,85.306863,84.269285,77.240404,55.137758,76.818235,75.581335,69.582712,47.824018,61.509656,59.345865,53.842203,-29.269445,-42.558962,-52.000717,-60.870938,-35.207352,-34.434282,-27.401196,-23.084524,-20.631515,-14.837482,-8.583926,-4.760803,-5.699744,1.303512,4.691182,5.55702,9.271238,15.901412,17.380712,16.508359,55.027525,182.929689,-46.121456,93.105045
85,-1.025711,14.881417,-5.866464,23.102393,-26.493279,-50.913826,-69.932614,-85.17326,-62.319924,-90.690548,-107.659539,-121.787075,-56.155587,-87.57042,-107.623032,-124.502083,-47.054352,-77.509461,-97.846836,-113.888867,-35.335579,-59.417301,-74.597546,-88.146504,-13.083912,-13.462479,-8.50602,-6.986071,-1.505599,13.440113,24.243854,34.304651,11.179665,27.713511,39.668069,50.291437,23.345657,38.956371,49.912055,58.541848,34.745203,46.553401,55.753447,63.026867,20.576728,43.933034,60.763007,68.160881,66.291303,91.057419,88.880483,82.394337,64.403677,89.03792,85.578233,76.914022,56.844781,77.061448,73.944032,66.492262,46.604042,59.761151,56.434815,49.713581,-25.494998,-36.154231,-43.804171,-51.805163,-29.956869,-22.17386,-13.058155,-8.831816,-16.027053,-3.141519,4.824274,8.065907,-1.44136,11.203486,16.726272,18.003591,12.969374,23.260144,26.616778,26.513334,54.07021,195.23625,-51.919524,113.632582
86,-2.089554,14.473531,-5.112748,24.755807,-24.073288,-47.584442,-65.450741,-77.936302,-60.891255,-87.99511,-105.002232,-119.62476,-55.299774,-85.893494,-105.971123,-123.577458,-47.037918,-75.912209,-96.110413,-112.464192,-36.237373,-59.681831,-74.729862,-88.047947,-16.254919,-18.895182,-15.164852,-14.077933,-3.10507,10.754365,21.640629,31.671761,11.277033,26.691653,38.259691,48.508579,24.499834,39.197494,49.37637,57.261392,36.283208,47.854704,57.00015,64.604886,24.95105,49.959623,67.406536,74.737003,72.382622,95.084164,89.744087,80.886932,66.709625,88.116737,81.305317,70.322559,55.177397,71.758158,66.035219,56.649977,41.112436,51.860693,47.054701,38.670256,-18.30281,-23.509025,-26.94839,-31.636716,-20.141188,-2.052189,10.492889,15.284468,-8.395939,15.293582,26.638775,30.106796,4.747297,26.75699,36.547827,39.604133,17.533517,34.352766,41.492053,43.435196,52.139002,207.765229,-56.873926,136.443837
87,-8.491951,14.284006,-6.595665,28.201085,-19.839953,-41.016981,-57.214491,-67.469708,-53.9599,-76.189573,-91.238062,-104.586697,-49.152701,-74.871706,-92.774683,-108.822081,-42.479771,-66.587666,-84.360254,-98.962074,-33.780625,-54.344656,-67.651898,-79.129984,-14.553967,-16.736955,-12.732891,-10.988393,-0.536308,12.262212,21.588247,29.888731,12.222747,26.282983,36.240811,45.008783,23.335815,36.90167,45.422393,52.024426,32.70644,43.037012,51.305762,58.749274,27.209576,53.919851,72.725063,81.287464,72.545174,96.645115,94.123855,88.509384,64.343445,86.732689,83.858608,77.090252,51.06534,69.331793,67.960459,62.721731,35.765093,48.924391,47.589952,42.640303,-14.775441,-18.101942,-19.85008,-23.679359,-11.487645,11.934299,25.048882,29.982802,0.746371,28.446717,40.523467,44.064798,13.947004,38.777728,49.455022,52.964212,25.960392,44.773118,52.938227,55.610378,43.705399,220.375197,-63.411243,162.970884
88,-14.452217,13.285762,-8.959076,29.079196,-13.743811,-31.313891,-45.436232,-54.165093,-41.452767,-55.458796,-66.713431,-77.053356,-37.783556,-54.663672,-68.262617,-80.414377,-33.637676,-50.014744,-63.037131,-73.526791,-28.311905,-43.982249,-53.766999,-61.497717,-8.36975,-6.954134,-0.835403,2.331047,6.449293,18.507475,24.576831,29.393369,14.522666,27.627412,34.805941,40.875197,20.500433,33.073984,38.947899,43.408934,24.732967,33.018131,39.765561,46.341875,29.655991,57.86725,77.938763,87.892742,73.952808,99.376636,98.398979,94.376335,64.356995,88.137176,87.880909,84.23045,50.724661,70.274683,71.139856,68.406034,35.319975,50.848612,51.276117,48.542971,-12.599394,-14.402166,-14.410191,-16.795757,-5.250243,20.664367,34.821946,40.91623,6.483293,36.831471,49.99309,54.541545,19.229924,46.777085,58.65545,63.010169,30.810615,51.290756,60.337025,63.927577,29.2164,232.290264,-72.407101,190.679385
89,-8.52507,13.098893,-4.416344,21.953506,-10.321249,-25.178622,-37.080305,-43.096138,-35.125019,-44.167391,-51.159136,-58.13197,-32.435652,-44.922987,-54.122778,-61.354369,-30.14407,-42.476212,-51.474043,-57.693295,-27.450863,-41.315867,-48.837891,-53.758215,-9.75911,-8.968358,-2.822519,1.682927,7.579671,19.620934,22.468659,23.460673,16.732626,29.279631,32.658471,34.523327,22.899066,35.457438,37.550586,38.21791,26.78781,36.045531,40.05764,43.706787,29.634213,56.874579,76.843907,88.925572,67.09124,91.339039,95.56762,96.690697,56.271561,80.283337,85.852993,87.809201,42.841879,63.049937,69.47346,72.194601,28.289686,44.079489,48.80234,50.89361,-10.977531,-10.490524,-7.953228,-7.845609,1.490001,26.850104,41.372047,49.57433,12.582715,42.298717,57.063871,64.4226,24.19199,51.889094,65.773915,72.888433,34.119869,55.179081,65.88588,71.63908,20.643191,244.278619,-76.871584,211.522353
90,-8.699135,8.323523,-5.384559,20.320313,-9.591414,-25.034689,-38.000479,-45.48444,-35.270188,-37.100115,-36.910143,-37.025608,-33.034476,-36.455973,-36.975661,-35.931925,-31.120182,-34.839672,-35.874567,-34.775288,-28.784809,-36.668707,-38.572827,-37.959681,0.248693,7.08665,16.492911,24.34954,17.088395,30.92468,33.908849,33.855207,20.953724,34.658722,38.202374,39.132699,21.929411,35.25964,37.859881,38.131867,20.761044,30.536764,34.74545,38.327758,28.984577,55.513126,75.649601,89.869274,60.357216,85.886421,96.137981,103.136798,49.561935,75.853809,88.182003,96.640949,37.519111,60.541877,73.344085,82.243148,24.912449,43.078376,52.641254,60.149425,-12.151715,-11.910222,-8.798754,-8.308592,5.355675,27.032429,40.154354,49.446198,17.257672,42.858479,57.112116,66.066494,28.613029,52.949077,66.481025,74.786208,37.654487,56.900461,67.363142,73.829633,11.904831,251.649413,-82.295368,230.889937
91,-9.732994,10.339563,-6.180291,18.167045,-5.410704,-17.789721,-29.700972,-37.915375,-32.350182,-25.867133,-17.908385,-11.553051,-33.030527,-26.390711,-17.619799,-8.00833,-32.89056,-28.228855,-20.622969,-12.207917,-31.89235,-34.006571,-30.025795,-23.971522,2.233809,10.609919,21.804361,31.060044,19.264776,34.307195,36.726681,35.951436,22.636386,37.181621,40.296763,40.229659,23.084786,36.846712,39.556857,39.708775,21.407349,31.70281,35.145815,37.665213,27.568337,53.862923,74.788536,91.68298,53.832173,83.146775,100.244168,113.607754,44.348008,75.557694,95.850712,111.326168,34.909275,63.520157,83.544445,99.011433,25.387574,48.446251,63.405144,76.817849,-16.081696,-18.941951,-17.68575,-19.414588,5.459441,20.886694,30.953321,40.117329,20.016903,38.071105,49.528252,58.659594,32.325699,49.981216,60.35079,67.761432,41.532932,56.601083,64.552152,69.959401,2.215313,261.159044,-88.432183,248.22705
92,4.870605,10.598495,-4.473667,13.529936,-6.891689,-21.238277,-34.759655,-44.420643,-41.816082,-34.551578,-20.990684,-8.88874,-44.391392,-35.983177,-19.750591,-2.837356,-44.587635,-38.009525,-23.461326,-8.860554,-43.258266,-43.657127,-34.978889,-24.709041,-0.708808,5.202472,15.073313,24.041127,15.905671,31.663734,35.741879,36.016582,22.417376,36.777212,41.374814,42.001086,26.020092,38.850704,42.331365,43.025279,27.559505,38.373077,40.503651,41.499043,27.60846,53.224938,74.13612,92.247368,52.232689,81.623165,99.283654,113.108666,42.910572,74.736786,95.720993,111.630135,34.05518,62.989872,83.315804,99.114052,25.322136,48.542118,63.951691,78.027523,-15.834461,-17.826344,-15.715233,-17.190031,8.278482,23.10919,32.632783,41.643033,22.678345,40.637563,51.564113,60.487282,34.170418,52.18862,62.305696,69.58476,42.338256,58.066049,65.994826,71.375263,7.255874,271.200316,-92.735894,261.199763
93,11.154946,9.088129,-3.388435,11.437226,-9.940773,-28.015389,-43.835381,-54.558918,-55.934956,-51.600495,-34.352589,-18.622078,-59.611462,-53.598656,-32.68895,-11.499779,-58.917069,-53.813656,-35.167134,-17.281403,-55.560734,-56.632863,-45.453907,-33.254426,-7.397168,-6.18812,1.033764,8.647343,8.789443,26.212914,33.689197,36.496074,20.427469,35.46383,42.755059,45.493505,29.559058,42.556667,48.320006,50.663756,36.671952,49.552705,52.301179,53.258965,26.937057,52.519878,73.931774,92.389881,51.537231,81.45853,99.512695,113.577095,42.417858,75.282646,96.559982,111.974693,33.899952,63.914463,84.093773,99.132683,25.725288,49.72633,65.251717,79.016235,-15.59461,-17.223265,-14.400159,-15.896742,9.900925,25.009139,33.832828,41.635573,25.538883,43.144766,52.721748,60.143048,37.295445,54.681978,63.366963,69.245924,45.027313,60.32352,67.102184,71.39979,18.816365,280.019695,-95.718784,272.368239
94,5.645278,6.86877,-2.199749,8.768361,-10.655822,-31.30973,-49.413208,-62.779518,-63.723163,-58.676719,-38.334137,-19.760948,-68.145927,-60.327564,-35.276527,-11.074012,-66.797424,-59.676807,-36.739276,-16.201355,-61.74131,-60.33451,-45.789516,-31.256137,-6.34357,-5.595773,1.098911,7.315534,8.674365,26.815475,37.24675,42.792048,19.26955,34.539093,45.131536,51.117201,28.149827,40.457771,49.255216,54.54488,35.668495,47.501492,52.012977,54.962967,26.446083,51.797069,73.581619,92.301212,51.086941,82.078812,100.375431,114.351894,42.034069,76.177723,97.670963,112.833012,33.533489,64.87516,85.025207,99.710667,25.48764,50.57103,66.280826,79.779911,-15.268358,-16.953687,-13.524304,-14.74942,11.59837,26.738261,34.753403,41.383076,28.070465,44.952941,53.300609,59.391583,39.992036,56.865386,64.294207,68.871803,47.611852,62.803133,68.643141,71.944429,25.002159,286.840386,-97.378017,281.088521
95,5.546814,7.201494,-1.256985,6.657003,-11.183532,-32.291324,-50.869457,-64.664634,-62.70148,-61.240608,-42.595573,-25.150039,-67.234863,-64.279232,-41.108734,-17.64093,-66.116249,-64.155738,-42.649646,-22.865181,-61.434379,-64.094032,-51.866294,-39.201919,-15.717592,-19.118397,-13.256406,-9.14531,1.829924,19.41218,29.621117,35.121992,17.645859,32.270271,42.754429,48.554942,31.681851,43.140147,51.355422,55.896399,43.919758,55.226505,59.058131,61.043456,26.024311,51.309002,73.616078,92.675228,51.176571,82.895828,101.161926,114.864739,42.031311,77.394539,99.123642,113.910851,33.448792,66.031105,86.139565,100.384873,25.537651,51.548859,67.375122,80.59005,-15.223218,-16.990478,-13.185553,-14.307287,12.481709,28.257853,35.949027,41.740141,29.800489,46.296778,53.811285,58.76431,41.997221,58.718467,65.143325,68.468029,49.675353,64.641171,69.496618,71.766094,31.235447,294.075494,-97.948528,287.779138
96,6.828736,4.50166,-0.609283,4.986531,-13.97731,-37.213246,-57.181166,-72.863062,-66.29682,-68.96061,-51.480904,-34.197567,-69.914417,-71.28558,-49.32197,-26.175579,-68.229744,-70.098604,-49.14885,-29.307335,-63.23445,-68.608029,-57.40436,-45.290789,-15.103879,-18.49473,-13.05965,-9.520981,3.34205,20.984069,31.257546,36.390759,18.642203,33.07985,43.82047,49.619161,32.156497,43.14355,51.235867,55.40105,44.087374,54.798909,58.250276,59.781612,25.829075,50.802795,73.343754,92.34153,51.50124,83.362369,101.285888,114.6996,42.246208,78.019649,99.635788,114.24559,33.58176,66.531303,86.500545,100.424286,25.880092,51.929764,67.626022,80.493908,-15.302703,-16.873337,-12.454466,-12.900513,13.683718,29.954297,37.667825,43.22614,31.372914,47.887259,55.178945,59.537981,43.512106,60.263153,66.287869,68.897886,50.931357,65.662584,69.980988,71.658537,38.796215,298.652653,-97.825779,292.841168
97,-2.322258,2.16886,0.018402,3.781126,-12.885819,-34.419583,-53.348059,-69.523035,-63.917559,-65.404358,-47.600933,-31.014759,-67.915363,-67.86541,-46.387785,-24.20715,-66.53088,-67.40637,-46.44429,-26.990204,-61.776587,-66.94225,-56.039309,-43.943648,-12.198275,-13.92909,-7.862081,-3.564758,6.504696,25.486958,35.708293,40.570311,20.062993,35.758546,46.677686,52.398757,31.808607,44.078463,52.751284,57.079833,42.074347,53.483008,57.766436,59.95986,25.707836,50.293636,72.708057,91.47258,51.751716,83.790974,101.798813,115.283295,42.332485,78.41494,100.014427,114.665108,33.504547,66.672832,86.645885,100.713318,25.825218,51.999218,67.853657,80.839954,-15.362774,-16.63981,-11.669655,-11.546092,15.030186,31.520917,39.239361,44.5475,32.845933,49.192255,56.147994,59.859898,44.761848,61.490714,67.28893,69.341513,51.854142,66.355881,70.327087,71.49748,37.232884,300.897824,-97.04845,296.698605
98,-1.337013,3.324667,0.386204,2.481181,-12.28537,-32.124676,-50.461688,-67.064902,-60.744879,-62.334103,-45.006455,-29.134312,-64.592881,-64.678391,-44.191344,-22.878491,-63.329338,-65.107275,-45.282452,-26.584145,-59.069968,-66.769398,-60.083113,-51.324114,-12.92714,-14.798128,-8.638049,-4.725123,7.122237,26.077403,35.656707,40.329583,20.891399,36.483879,46.468365,51.6352,32.416737,44.414632,52.362651,56.350548,42.221227,52.717006,56.597637,58.562251,25.601005,49.867309,71.973163,90.551033,52.250599,84.271247,102.117221,115.459774,42.714832,78.846267,100.244327,114.890087,33.642929,66.903762,86.887184,101.096683,25.731651,52.182746,68.238338,81.411941,-15.528586,-16.502712,-10.914089,-10.178988,16.314002,32.956763,40.551841,45.540657,33.944189,50.139914,56.89489,60.178382,45.577571,62.354158,67.960502,69.653588,52.388876,66.736609,70.616548,71.612471,36.696562,304.281735,-95.861555,299.23903
99,-2.631798,3.096993,0.205993,1.602744,-11.086785,-29.131474,-46.468008,-62.082327,-57.788344,-58.42004,-41.34953,-25.970776,-62.457665,-61.342289,-41.161612,-20.35207,-62.051754,-63.376036,-43.905739,-25.389817,-58.679518,-67.385868,-62.750994,-55.264899,-13.459997,-15.537354,-9.351007,-5.246692,6.189003,25.00833,34.239189,38.992057,20.367571,35.515039,45.302467,50.61664,31.978828,43.220244,51.124494,55.45823,41.660805,51.342491,54.838787,56.715913,25.784775,49.976887,71.828682,90.29385,52.464638,84.369644,102.032719,115.243138,42.895535,79.108761,100.322857,114.923481,33.761444,67.167195,87.067932,101.193341,25.796849,52.36781,68.565319,81.831574,-15.497773,-16.115758,-10.011878,-8.585765,17.191265,34.01803,41.652271,46.549931,34.68717,50.959663,57.560535,60.507574,46.165979,63.053803,68.400672,69.62459,52.860415,67.190537,70.960054,71.562923,34.885935,307.432864,-94.834391,300.89591
100,-4.788025,4.323999,-0.089172,0.800446,-8.360252,-24.227177,-41.190233,-56.232874,-55.194586,-53.26561,-34.688988,-18.922428,-61.657517,-57.157082,-35.822027,-14.566761,-62.668865,-61.069445,-40.494541,-21.451996,-60.651655,-68.197529,-63.443098,-55.685011,-13.837045,-16.90914,-11.59172,-7.669395,3.70771,23.250703,32.609534,37.58863,18.380529,33.556106,43.183959,48.705242,30.001802,40.733789,48.486368,53.223803,39.593771,48.68048,51.462867,52.780337,25.981911,50.153892,71.803585,90.137226,52.612312,84.456997,102.035236,115.152546,42.994171,79.221783,100.255794,114.857792,33.809955,67.259846,87.035705,101.015087,25.827278,52.427204,68.625904,81.816776,-15.231554,-15.495908,-9.050289,-7.143683,18.269415,35.012866,42.527039,47.282093,35.530224,51.884129,58.252621,60.973888,46.728945,63.638035,68.649736,69.50798,53.126386,67.461448,71.133881,71.506779,30.907322,311.81213,-94.114151,301.751623
101,-7.932701,5.15945,-0.211659,0.302799,-4.871979,-17.630265,-33.097344,-46.305577,-49.328293,-44.35714,-25.224335,-9.592186,-56.732449,-48.253613,-26.561955,-5.548943,-58.421757,-53.829758,-33.362721,-14.554596,-57.103844,-63.874077,-60.933655,-54.92149,-15.117279,-19.918336,-16.074818,-13.115553,0.408183,19.253532,28.234648,33.210422,15.767659,30.044552,38.994052,44.453393,27.629086,37.419737,44.686736,49.56529,37.317812,45.333892,47.607073,48.405926,26.079689,50.476067,72.031117,90.098477,53.049626,84.854245,102.318993,115.241158,43.346581,79.520153,100.379631,114.991631,34.011521,67.421082,87.017933,100.893311,25.839261,52.593796,68.812157,82.02697,-15.108461,-14.98081,-8.131776,-5.932448,19.169106,35.655874,42.887625,47.326467,36.190719,52.401894,58.412679,60.854216,47.141512,63.888483,68.596174,69.163314,53.367942,67.579589,71.08148,71.23961,23.828722,317.013481,-93.471709,302.096323
102,1.288971,0.837398,-0.647747,-0.010349,-5.154374,-17.916413,-33.778691,-47.013634,-50.650772,-46.120755,-26.915223,-11.092163,-57.991219,-49.680073,-27.855973,-6.77694,-59.527096,-55.400711,-35.160542,-16.405815,-58.198334,-65.257267,-62.310345,-56.537545,-16.056454,-21.810678,-18.43671,-15.73319,-0.45105,18.038431,26.999602,32.08229,15.591608,29.283811,38.132843,43.659134,28.230127,37.631059,44.651821,49.224131,38.470556,46.212687,48.258416,48.746281,26.288624,50.97971,72.600483,90.693215,53.573994,85.257225,102.511814,115.167332,43.963532,80.005062,100.603581,115.079441,34.608136,67.841103,87.168103,100.66483,26.373139,53.027974,69.012886,81.963662,-15.011451,-14.702897,-7.426574,-4.612595,19.360977,35.733049,42.990019,47.494094,36.309946,52.503065,58.626372,61.298794,47.192036,63.804193,68.554961,69.180789,53.38643,67.608599,71.081368,71.161594,26.123177,317.865121,-93.113972,302.100216
103,-0.009156,-0.434834,-0.487209,-0.205963,-4.90377,-16.998916,-32.682575,-45.69754,-52.228397,-46.836353,-26.900768,-10.764358,-60.143955,-50.529842,-27.893703,-6.370903,-61.838722,-56.300274,-35.191509,-15.683075,-60.355899,-65.365322,-60.063388,-52.081146,-15.168693,-21.013406,-17.613231,-14.001326,-0.64691,18.283617,27.586638,32.721308,15.586668,29.659501,38.810702,44.37744,28.475881,38.003846,45.169994,49.630732,38.909502,47.189047,49.169234,49.565783,26.468685,51.364735,72.981709,91.130528,53.654755,85.399269,102.625031,115.10495,44.0709,80.172329,100.767082,115.126076,34.737843,67.991901,87.240223,100.494255,26.516419,53.082378,68.977146,81.767361,-14.74291,-14.179845,-6.571503,-3.290988,19.803271,36.179369,43.482665,48.127074,36.704149,52.968788,59.176458,61.988695,47.480201,64.074377,68.854316,69.501584,53.56936,67.804843,71.278884,71.331051,27.230398,317.441245,-92.484804,301.905211
104,0.528305,-0.241852,-0.48967,-0.217509,-4.413917,-16.498283,-32.853,-46.874118,-53.376583,-48.228469,-27.842708,-11.388839,-61.34555,-51.597816,-28.801311,-7.197052,-62.854019,-57.193359,-36.073665,-16.372535,-61.088172,-65.468765,-59.495761,-50.93264,-14.5821,-20.707136,-17.603425,-14.091703,-0.804806,18.544637,28.339858,33.632078,15.420313,29.946159,39.325528,44.896613,28.324988,38.183725,45.53673,49.928234,38.828177,47.466492,49.624187,50.041793,26.607846,51.591923,73.153279,91.206791,53.879746,85.676125,102.84668,115.23674,44.219319,80.350777,100.837349,115.13546,34.820172,68.076611,87.233654,100.396775,26.563042,53.144108,68.926621,81.537678,-14.724102,-14.041266,-6.139053,-2.592752,19.966143,36.32794,43.619577,48.362466,36.933428,53.214418,59.473847,62.463493,47.708418,64.261468,69.09529,69.907691,53.703851,67.889947,71.328024,71.463381,28.899484,317.214475,-91.833693,301.702784
105,2.438004,-1.630186,-0.486717,-0.210236,-5.459473,-18.748329,-35.616486,-50.138981,-56.133854,-51.837856,-31.264137,-14.577393,-63.388859,-54.732559,-31.956745,-10.298721,-64.095566,-59.549961,-38.586834,-18.834274,-61.462086,-65.839909,-59.541183,-50.858013,-14.113773,-19.888005,-16.404775,-12.465025,-0.310839,19.459419,29.568345,34.879177,15.83735,30.688398,40.339284,45.943405,28.949507,39.114699,46.841985,51.160809,39.703143,48.594993,51.057846,51.647946,26.608166,51.609238,73.095429,91.063934,53.886955,85.741356,102.85659,115.206413,44.150642,80.352722,100.742683,114.969818,34.694527,67.945335,87.09082,100.270912,26.410343,52.921795,68.640541,81.163055,-14.781356,-14.03635,-5.848282,-1.895182,19.973517,36.354604,43.561866,48.307533,37.053039,53.448378,59.710895,62.76097,47.794498,64.435765,69.275219,70.097796,53.641039,67.829061,71.22789,71.305967,32.502148,315.606075,-91.15575,301.514334
106,6.353325,-2.616834,-0.577366,-0.443812,-7.783493,-23.344551,-41.529064,-57.717865,-59.527187,-58.473244,-39.047379,-22.700043,-65.755737,-61.52647,-39.914898,-18.708779,-65.856949,-64.878651,-44.769768,-25.583519,-62.714871,-67.85091,-60.308109,-50.577164,-13.699959,-18.387137,-13.838293,-9.262081,1.245234,21.215823,31.538726,36.884052,16.876535,32.352226,42.242888,47.686805,29.996053,40.747466,48.772266,52.759539,40.848058,50.180669,53.256716,54.367322,26.589878,51.557648,72.995922,90.958351,53.737908,85.787773,102.944607,115.379849,43.850292,80.197678,100.510769,114.70332,34.359215,67.706761,86.912121,100.17104,26.130821,52.666077,68.405731,80.917351,-14.785297,-13.984147,-5.689831,-1.609982,20.06503,36.506745,43.577994,48.28487,37.20345,53.604199,59.751292,62.797798,47.90965,64.534479,69.357816,70.220308,53.599382,67.764791,71.127545,71.182441,39.959496,313.008995,-90.629093,301.090276
107,-0.905113,-0.968655,-0.508621,-0.67755,-7.820618,-23.344437,-41.395626,-57.324749,-59.815018,-58.162674,-38.447766,-22.073548,-66.098774,-61.289292,-39.403782,-18.108559,-66.189904,-64.533703,-44.203286,-24.944046,-63.008229,-67.506604,-59.67445,-49.78624,-12.683151,-17.092748,-12.616239,-7.961443,1.960193,22.23478,32.583322,37.770986,17.256363,33.117364,43.015819,48.304186,30.084653,41.076375,49.208793,53.195412,40.631549,50.156526,53.373685,54.607532,26.571979,51.514675,72.897778,90.759155,53.442112,85.651428,102.843052,115.436954,43.390354,79.869427,100.125355,114.367939,33.875107,67.348915,86.563179,99.971867,25.747822,52.350815,68.136303,80.705944,-14.62319,-13.789596,-5.503555,-1.542007,20.160151,36.618179,43.540289,48.153613,37.380031,53.796711,59.791886,62.71893,48.119416,64.791162,69.535842,70.340771,53.717881,67.891218,71.237189,71.278673,40.075356,312.074105,-90.116741,300.446491
108,-0.488869,-0.482332,-0.671757,-0.682108,-8.095551,-23.86306,-41.882584,-57.745342,-59.774998,-58.270958,-38.527691,-22.104607,-65.906834,-61.410198,-39.552464,-18.217415,-65.923096,-64.519592,-44.33337,-25.155556,-62.713383,-67.212227,-59.125912,-49.008019,-12.955372,-17.430857,-12.989508,-8.240543,1.712425,22.301384,32.697967,37.78467,17.0968,33.173989,43.056253,48.217105,30.029225,41.152389,49.316053,53.21979,40.646739,50.298477,53.561332,54.710309,26.718121,51.6171,72.960434,90.664501,53.270748,85.540901,102.793305,115.619591,43.084442,79.505711,99.718964,114.108032,33.541397,66.930577,86.183956,99.827854,25.431839,51.969017,67.778755,80.461739,-14.452017,-13.648422,-5.450425,-1.53472,20.054842,36.550526,43.433202,47.979305,37.273747,53.770542,59.728234,62.62034,48.023604,64.812986,69.589121,70.395173,53.584464,67.850464,71.258457,71.338362,40.489128,311.623368,-89.885857,299.795978
109,-0.206017,-0.66662,-0.649143,-0.842597,-8.609642,-24.823104,-42.911602,-58.963199,-60.575683,-59.031452,-39.164966,-22.795463,-66.204277,-61.55516,-39.739963,-18.570282,-65.819892,-64.501693,-44.111206,-24.938415,-62.366272,-68.368732,-62.511886,-54.600288,-12.869836,-17.14005,-12.622847,-8.298774,2.44933,23.556522,33.394882,37.862722,17.698717,34.270404,43.316172,47.895422,30.485993,42.013844,49.490472,52.893328,40.96384,50.261241,53.681288,54.992545,26.772411,51.693169,73.118488,90.925873,52.6791,85.029442,102.428249,115.510952,42.391102,78.911877,99.282497,113.785137,32.879425,66.341068,85.752605,99.63216,24.887753,51.369266,67.319012,80.224686,-14.084762,-13.158518,-4.946578,-0.893652,20.158472,36.881842,43.683316,48.080687,37.320961,54.126509,60.058303,62.794525,47.989185,65.232382,70.011605,70.708187,53.444883,68.052672,71.583511,71.688116,41.132612,310.975418,-89.685499,298.972051
110,-0.598915,-0.558496,-0.573074,-0.691234,-8.497032,-24.595779,-42.841129,-59.153995,-60.881767,-59.139312,-38.93415,-22.558136,-66.780338,-61.754425,-39.619251,-18.454605,-66.643764,-65.073108,-44.249267,-24.935417,-63.413624,-69.672329,-63.923584,-55.978832,-12.974045,-17.404749,-12.981937,-9.145755,2.856945,24.410593,34.032394,38.232187,18.307281,35.156745,43.796912,48.036708,31.133669,42.781451,49.819874,52.961093,41.643169,50.969951,54.165498,55.364036,26.792472,51.763103,73.334324,91.29372,52.29261,84.635971,102.109188,115.361538,41.996944,78.46051,98.88335,113.474361,32.56921,65.996292,85.437961,99.482586,24.70388,51.109142,67.127975,80.249073,-13.770638,-12.779618,-4.661736,-0.706573,20.214171,37.096696,43.937073,48.289267,37.260891,54.310994,60.254904,62.905503,47.913713,65.529562,70.388468,71.082011,53.390617,68.37144,72.114737,72.408496,41.281923,310.422013,-89.510347,298.285908
111,-1.200119,0.205987,-0.418545,-0.622925,-7.860969,-24.083816,-42.920482,-59.219158,-62.520755,-59.38995,-37.807926,-20.777229,-69.184845,-62.107635,-38.644935,-16.740417,-69.332267,-66.12466,-44.056102,-23.933464,-66.179146,-71.771175,-65.837288,-57.521164,-13.604085,-18.817907,-14.662005,-11.25752,1.888513,24.136915,33.631078,37.563998,18.125265,35.174208,43.477811,47.629513,31.443681,42.86763,49.641601,52.836296,42.333452,51.636288,54.43242,55.280994,26.818817,51.816559,73.49477,91.617679,51.730465,84.122463,101.736259,115.174232,41.471947,77.994919,98.581673,113.230865,32.199543,65.707329,85.217926,99.329224,24.538708,50.951729,67.000648,80.194633,-13.462319,-12.426826,-4.331397,-0.259624,20.226853,37.274302,44.191324,48.557288,37.234769,54.722511,60.824933,63.445053,47.872093,65.988836,70.924127,71.5586,53.332521,68.667236,72.60848,73.02679,40.738867,310.631961,-89.271829,297.666944
112,-4.255966,4.39164,-0.38847,-0.354794,-5.42839,-20.351349,-39.002277,-55.293915,-56.834907,-53.588642,-32.919479,-16.484848,-63.209072,-56.158138,-33.79343,-12.794472,-63.360775,-60.227371,-39.275917,-20.233108,-60.255432,-65.842976,-61.432926,-54.569607,-17.070778,-23.942351,-20.293594,-18.484245,-2.353777,18.171282,26.791096,30.335483,14.793485,30.562811,37.643681,41.294452,28.707927,38.801069,44.844681,47.997756,40.155589,48.095445,50.703696,51.370427,26.79792,51.745583,73.527729,91.895966,51.181629,83.728729,101.453648,115.013752,40.958004,77.715248,98.455982,113.118153,31.866703,65.555638,85.183159,99.359436,24.430435,50.906101,66.970516,80.158768,-13.425367,-12.446129,-4.298359,-0.117078,20.004528,37.219407,44.237329,48.743812,37.072688,54.914382,61.111604,63.769429,47.759103,66.238506,71.194557,71.82146,53.223286,68.73531,72.778987,73.322304,36.987224,315.020171,-89.155976,297.30872
113,-1.084099,-0.916598,-0.108822,-0.477009,-6.261726,-21.410831,-39.853855,-55.930732,-57.747368,-53.452411,-32.590164,-16.050247,-64.407028,-56.116001,-33.353759,-12.147354,-64.683529,-59.992538,-38.164409,-18.860962,-61.728218,-65.943363,-59.480587,-51.433124,-14.524821,-20.543374,-17.011535,-14.977946,-0.179657,19.482786,27.91457,31.477692,16.056786,31.252908,38.6626,42.397363,29.120259,39.231926,45.164004,48.112228,39.809564,47.961014,50.264329,50.660606,26.668545,51.587586,73.439827,92.01067,50.72382,83.273896,101.068337,114.72361,40.455048,77.31316,98.146386,112.791527,31.420452,65.207428,84.901142,99.126927,24.104771,50.593048,66.681759,79.865101,-13.311821,-12.168351,-3.913939,0.257042,20.288406,37.595417,44.641139,49.189328,37.342141,55.432604,61.679806,64.326874,47.955975,66.743958,71.700824,72.314252,53.321011,68.94042,73.052404,73.678047,36.252891,314.105599,-88.915032,296.833737
114,-1.285286,0.023749,-0.133518,-0.276593,-6.468773,-21.249607,-38.718097,-53.554138,-57.84502,-52.545227,-31.496315,-15.038795,-65.012649,-55.79805,-32.49337,-11.058426,-65.533321,-59.761253,-37.450744,-17.883545,-62.517448,-65.218368,-56.867912,-46.923843,-13.563318,-18.738434,-14.450535,-11.408006,-0.19712,19.28842,27.86165,31.647222,15.714245,30.643098,38.432913,42.373837,28.632147,38.806219,44.963945,48.03998,39.277486,47.984837,49.795606,49.860222,26.625057,51.501526,73.326096,91.915844,50.823738,83.31007,101.01083,114.659008,40.566811,77.239266,97.91193,112.558216,31.522911,65.094452,84.699795,98.975727,24.152721,50.545498,66.532494,79.682922,-13.375052,-12.225618,-3.947271,0.143162,20.334572,37.588983,44.774137,49.474949,37.340227,55.463615,61.855524,64.660746,47.926273,66.751998,71.904749,72.695339,53.300474,68.955734,73.167347,73.904153,35.157852,314.144424,-88.858303,296.57222
115,-2.557159,1.258486,0.073952,-0.308616,-5.727608,-19.535351,-36.11451,-49.686997,-56.290318,-49.778034,-28.68322,-12.154472,-63.74873,-53.1362,-29.6246,-8.178383,-64.545994,-57.420044,-34.982918,-15.396057,-61.697846,-63.563049,-55.208931,-45.300819,-13.642136,-19.026932,-15.094839,-11.757353,-0.667263,18.211703,26.606079,30.465084,15.098309,29.519018,37.149566,41.222945,27.839,37.761414,43.675165,46.804058,38.21029,46.79792,48.53218,48.690953,26.556507,51.374359,73.060924,91.501293,50.713852,83.15427,100.824909,114.409298,40.515884,77.162613,97.835552,112.447803,31.497127,65.009365,84.590526,98.817226,24.093487,50.484878,66.44751,79.593876,-13.35407,-12.086532,-3.586773,0.625594,20.474967,37.669357,44.932181,49.750702,37.465667,55.498319,62.011653,64.957654,48.020134,66.704784,71.943071,72.830103,53.40472,68.94436,73.187774,73.992752,32.62991,315.448188,-88.755134,296.308882
