takenoko1/special-research/HandMotion_SimilarSearch_自分用/NewProject/handData/key/d4_feature_d3/28.csv
,vel_0x_L,vel_0y_L,vel_0x_R,vel_0y_R,posFromWrist_1x_L,posFromWrist_2x_L,posFromWrist_3x_L,posFromWrist_4x_L,posFromWrist_5x_L,posFromWrist_6x_L,posFromWrist_7x_L,posFromWrist_8x_L,posFromWrist_9x_L,posFromWrist_10x_L,posFromWrist_11x_L,posFromWrist_12x_L,posFromWrist_13x_L,posFromWrist_14x_L,posFromWrist_15x_L,posFromWrist_16x_L,posFromWrist_17x_L,posFromWrist_18x_L,posFromWrist_19x_L,posFromWrist_20x_L,posFromWrist_1y_L,posFromWrist_2y_L,posFromWrist_3y_L,posFromWrist_4y_L,posFromWrist_5y_L,posFromWrist_6y_L,posFromWrist_7y_L,posFromWrist_8y_L,posFromWrist_9y_L,posFromWrist_10y_L,posFromWrist_11y_L,posFromWrist_12y_L,posFromWrist_13y_L,posFromWrist_14y_L,posFromWrist_15y_L,posFromWrist_16y_L,posFromWrist_17y_L,posFromWrist_18y_L,posFromWrist_19y_L,posFromWrist_20y_L,posFromWrist_1x_R,posFromWrist_2x_R,posFromWrist_3x_R,posFromWrist_4x_R,posFromWrist_5x_R,posFromWrist_6x_R,posFromWrist_7x_R,posFromWrist_8x_R,posFromWrist_9x_R,posFromWrist_10x_R,posFromWrist_11x_R,posFromWrist_12x_R,posFromWrist_13x_R,posFromWrist_14x_R,posFromWrist_15x_R,posFromWrist_16x_R,posFromWrist_17x_R,posFromWrist_18x_R,posFromWrist_19x_R,posFromWrist_20x_R,posFromWrist_1y_R,posFromWrist_2y_R,posFromWrist_3y_R,posFromWrist_4y_R,posFromWrist_5y_R,posFromWrist_6y_R,posFromWrist_7y_R,posFromWrist_8y_R,posFromWrist_9y_R,posFromWrist_10y_R,posFromWrist_11y_R,posFromWrist_12y_R,posFromWrist_13y_R,posFromWrist_14y_R,posFromWrist_15y_R,posFromWrist_16y_R,posFromWrist_17y_R,posFromWrist_18y_R,posFromWrist_19y_R,posFromWrist_20y_R,posFromBody_0x_L,posFromBody_0y_L,posFromBody_0x_R,posFromBody_0y_R
6,0.886917,-2.177456,-0.405934,-0.338072,-2.772389,-11.227776,-22.137314,-30.38522,-38.394425,-32.023201,-16.278969,-3.52541,-45.184651,-35.795826,-15.9123,1.99419,-47.386917,-39.231365,-19.62212,-3.631954,-46.878868,-43.802101,-29.736363,-18.003914,-20.429321,-30.582571,-30.972463,-29.408745,-14.594487,-8.249596,-3.018348,-1.066639,3.019509,11.307649,16.580789,17.691147,18.261536,25.024602,27.610289,27.199636,30.616978,37.188581,36.289235,33.252498,25.310154,50.433312,73.548626,93.351162,48.850766,83.463742,102.471646,116.922947,40.132439,79.113591,100.585408,115.784489,32.837025,68.815636,89.117112,103.877896,27.353611,55.836285,72.144974,84.493492,-15.767152,-16.766842,-10.569682,-6.742255,16.049636,28.927253,33.44737,35.93816,33.926937,46.600678,49.843315,50.649529,45.529851,59.10847,60.861935,59.205048,51.377072,63.270078,63.959114,61.177542,27.519465,305.808356,-81.177412,284.433747
7,-1.199295,-0.641352,-0.206062,-0.019155,-1.461125,-9.722031,-21.115139,-29.679932,-41.643334,-33.950363,-15.489304,-0.264965,-49.467316,-37.741596,-15.042938,5.615078,-51.775189,-41.199017,-19.051609,-0.566105,-51.15192,-46.100853,-29.838787,-15.890248,-21.388021,-31.684396,-31.216673,-29.139155,-15.960258,-8.582381,-1.716427,1.564978,2.554318,11.948384,18.543229,20.544782,18.382196,26.003654,29.104686,29.010492,31.122084,38.328938,37.420997,34.272714,25.364685,50.542259,73.755272,93.619377,48.982899,83.516636,102.516827,116.962338,40.234531,79.091904,100.394497,115.561077,32.930088,68.780983,88.949226,103.661533,27.469688,55.88229,72.154289,84.416439,-15.699671,-16.794086,-10.665901,-6.793619,16.300874,29.045443,33.484026,35.903407,34.124032,46.683176,49.937917,50.817588,45.688612,59.068506,60.809027,59.181212,51.571512,63.374127,63.958447,61.116273,27.251667,305.14775,-80.451977,284.395338
8,-1.127632,0.394462,-0.186413,0.000593,-0.623326,-7.992714,-18.840054,-27.098706,-39.398117,-31.39999,-13.381371,1.382755,-47.582543,-35.780068,-13.538407,6.494098,-50.359326,-39.862427,-18.041886,-0.153202,-50.390728,-45.186367,-29.010556,-15.314484,-21.674938,-32.418843,-32.328836,-30.478028,-16.588248,-9.425719,-2.879459,0.195242,2.142109,11.511277,17.912683,19.449403,18.167354,25.670832,28.72245,28.353875,30.994211,38.106167,37.28417,34.060119,25.344132,50.571385,73.834557,93.748375,48.889,83.450066,102.504547,116.993866,40.17128,79.089237,100.423073,115.615059,32.886933,68.79459,89.031384,103.773171,27.451493,55.874623,72.171204,84.455681,-15.656261,-16.787924,-10.671286,-6.705205,16.378667,29.019409,33.340406,35.690343,34.149608,46.640593,49.879945,50.801286,45.666678,59.002927,60.756367,59.183534,51.528755,63.377326,64.000795,61.235278,26.757649,305.525404,-80.004776,284.379123
9,0.363327,-0.600325,-0.240978,0.06432,-0.66322,-8.185547,-19.154961,-27.512387,-40.085621,-31.958004,-13.929405,0.895511,-48.264027,-36.176674,-13.846184,6.317333,-50.929917,-40.347325,-18.334557,-0.314839,-50.831452,-45.490013,-29.138901,-15.405098,-21.751423,-32.388302,-32.034793,-29.910653,-16.196615,-8.860888,-2.36924,0.595459,2.715906,12.338485,18.597211,19.983063,18.904468,26.640683,29.503988,28.934761,31.861446,39.1002,38.151528,34.810782,25.358665,50.63863,73.976749,93.988895,48.857323,83.461304,102.544521,117.050709,40.190197,79.183777,100.548237,115.744389,32.95388,68.931438,89.225384,103.975262,27.58429,56.020672,72.330929,84.600094,-15.658472,-16.835102,-10.695567,-6.66576,16.380556,28.91116,33.157797,35.490666,34.146014,46.525613,49.755258,50.731088,45.654537,58.892886,60.629913,59.101455,51.510921,63.361937,64.012934,61.311366,27.60624,304.912429,-79.76049,284.430793
10,0.549671,-0.587729,-0.156143,0.021575,-1.265934,-9.326065,-20.638607,-29.238613,-41.8232,-33.38863,-14.826267,0.413383,-49.707104,-37.5882,-14.726269,5.843788,-52.042305,-41.463913,-19.00502,-0.722603,-51.529461,-46.767002,-31.051415,-17.988865,-21.847098,-32.645899,-32.107954,-29.798155,-16.411802,-9.274133,-2.557837,0.593447,2.799357,12.378118,18.632804,20.077332,19.193782,26.966652,29.785312,29.383934,32.283066,39.906377,38.880419,35.557753,25.347576,50.575321,73.914882,93.90786,48.809017,83.424396,102.525707,117.056911,40.171257,79.248962,100.647228,115.846447,32.955208,69.050056,89.390831,104.143535,27.613861,56.133533,72.460785,84.71426,-15.672835,-16.904793,-10.738705,-6.630277,16.345853,28.785103,33.008411,35.380664,34.140358,46.418501,49.652605,50.700201,45.673902,58.800681,60.544748,59.06338,51.551875,63.341066,64.009687,61.381194,28.537445,304.316688,-79.535099,284.444356
11,-0.155663,-0.68743,0.018917,0.058601,-1.923328,-10.296135,-21.300064,-29.898468,-42.794563,-34.67007,-15.420341,0.27681,-50.020431,-38.014892,-14.65171,6.167633,-51.7752,-41.561142,-18.753891,-0.096199,-50.67865,-46.443786,-30.67004,-17.300022,-18.993019,-28.388047,-27.617205,-25.779302,-13.166991,-5.551844,0.914425,3.946679,4.466445,13.906267,20.11453,21.595725,19.185273,26.830048,29.562639,29.157495,30.758078,38.12405,37.232646,34.254621,25.300598,50.414577,73.695625,93.661022,48.698433,83.317726,102.370354,116.823715,40.095611,79.263279,100.633301,115.734444,32.887733,69.115734,89.435726,104.133064,27.554157,56.145046,72.455715,84.663231,-15.709737,-17.025292,-10.804716,-6.608986,16.137544,28.534335,32.762225,35.170738,34.01871,46.238795,49.520027,50.640933,45.649066,58.703128,60.468844,59.033888,51.602881,63.350625,64.019135,61.406462,28.660062,303.624142,-79.237902,284.497841
12,-3.540218,0.527386,0.006775,0.1977,-1.754711,-9.05611,-18.515007,-25.735439,-39.24979,-30.412342,-11.824894,3.202824,-45.990875,-33.478008,-10.784237,9.175495,-47.583012,-36.940155,-14.89072,3.003033,-46.457485,-41.873508,-26.893375,-14.279366,-19.154669,-28.751955,-28.565395,-26.862084,-13.161718,-5.931387,0.173383,3.127213,4.374868,13.364716,19.493926,21.061052,19.033329,26.406872,29.139253,28.85777,30.51709,37.83943,37.010653,34.170825,25.265671,50.391254,73.672291,93.580192,48.694782,83.355091,102.378364,116.784187,40.111988,79.357464,100.738998,115.773651,32.894428,69.232075,89.577507,104.266044,27.551548,56.24398,72.572021,84.791611,-15.893049,-17.299378,-11.053348,-6.786567,15.809761,28.19325,32.46176,34.92607,33.755641,45.89839,49.212214,50.393499,45.463828,58.449482,60.243529,58.843524,51.458051,63.212588,63.916926,61.317085,25.364777,304.149836,-78.986194,284.693849
13,-3.140694,0.828826,0.120804,0.036655,-0.736896,-7.019611,-15.704406,-22.643692,-36.931583,-26.934631,-7.956298,7.064198,-43.562027,-29.655063,-6.854805,13.004025,-45.066387,-33.081207,-10.908622,6.926594,-44.010578,-38.162487,-22.915592,-10.289543,-19.900478,-29.900278,-30.090531,-28.861377,-13.713519,-6.732783,-0.949165,1.798172,3.942122,12.67957,18.516775,19.93312,18.57613,25.644749,28.136439,27.855747,29.939218,36.9306,35.884165,32.976536,25.193607,50.385383,73.686779,93.637653,48.418201,83.239402,102.267448,116.675651,39.821205,79.276165,100.701965,115.65644,32.655429,69.285781,89.688079,104.380943,27.404274,56.271228,72.643982,84.916271,-15.985366,-17.347666,-10.937517,-6.588522,15.590584,28.074566,32.428019,35.03564,33.658878,45.799701,49.10483,50.301367,45.456319,58.393512,60.172084,58.791209,51.467734,63.187567,63.893189,61.344305,22.43526,304.978449,-78.654213,284.730291
14,-5.018154,-0.228921,0.180679,0.120636,-0.175506,-4.806759,-10.993412,-16.191467,-33.863308,-21.645286,-2.317634,12.603584,-40.457954,-23.788948,-0.896976,18.813835,-41.701492,-27.176044,-4.940265,12.842674,-40.412109,-32.445087,-17.014915,-4.317203,-20.599283,-30.66008,-30.854878,-28.795452,-14.02153,-7.001422,-1.490371,0.912436,3.944653,12.762501,18.365956,19.586206,18.859971,26.134355,28.583253,28.247911,30.408521,37.700133,36.52774,33.348779,25.16177,50.347263,73.670895,93.616711,48.158844,83.162888,102.16777,116.543655,39.556183,79.274563,100.726593,115.647354,32.45311,69.374966,89.81131,104.492889,27.316372,56.385532,72.777718,85.028091,-16.153945,-17.561965,-11.084681,-6.702291,15.285648,27.834171,32.166543,34.817686,33.487323,45.613362,48.880403,50.074014,45.389319,58.242976,59.999356,58.61501,51.458113,63.100832,63.805972,61.272056,17.594696,304.748518,-78.295944,284.849917
15,-7.195358,-0.288523,0.0672,0.050228,1.163521,-0.817371,-4.010742,-7.23436,-28.082016,-14.28281,5.009079,19.614784,-34.594196,-16.072586,7.16431,27.049232,-36.022717,-19.295746,3.422047,21.576965,-35.092735,-24.585548,-7.795967,6.143074,-21.201658,-31.70318,-31.635785,-27.976715,-14.093963,-6.869264,-1.362769,0.841658,4.359826,13.525984,19.066564,20.130079,19.678572,27.464398,29.860326,29.313057,31.662092,38.874157,37.54887,34.30685,25.213039,50.452079,73.77555,93.717773,47.99255,83.106697,102.09169,116.452903,39.356506,79.269481,100.752411,115.651725,32.30603,69.433857,89.911766,104.605613,27.267894,56.421924,72.828643,85.099388,-16.255833,-17.694754,-11.145307,-6.698944,14.938487,27.667223,32.078956,34.84924,33.271912,45.473757,48.762583,49.990898,45.283504,58.155636,59.951746,58.614652,51.409293,63.048319,63.796178,61.301264,10.551888,304.460443,-78.076194,284.900593
16,-12.760403,4.926942,0.04375,0.032024,4.87191,7.07396,7.496693,6.388092,-16.885174,1.538269,20.332203,34.092968,-23.658233,-0.36351,21.942662,41.297482,-25.271061,-3.99876,17.538506,34.923466,-24.761123,-10.791389,5.252507,18.68367,-23.266814,-36.562394,-38.906069,-37.563072,-18.294239,-12.02735,-6.620261,-4.052506,0.615467,9.527447,14.756731,16.132197,16.467156,24.172236,26.418914,26.245543,29.112047,35.91467,34.413492,30.929966,25.259068,50.61541,74.00663,94.011612,47.792405,83.036705,102.055539,116.457333,39.149609,79.206986,100.747754,115.652356,32.174939,69.468258,89.995858,104.67603,27.257653,56.516774,72.941014,85.194397,-16.306518,-17.721973,-11.117829,-6.735513,14.893495,27.645992,32.052329,34.884993,33.28073,45.493949,48.727892,49.918057,45.297755,58.159156,59.920562,58.577984,51.391644,62.991138,63.756275,61.30613,-2.076468,309.386795,-77.900397,284.932027
17,2.556805,-2.4621,0.055745,-0.081844,4.042992,5.672367,5.71027,4.676136,-20.250366,-1.986488,17.362907,31.480225,-27.412262,-4.32106,19.003738,39.105583,-29.441197,-8.438267,14.281895,32.472633,-29.197586,-15.409069,1.91724,16.117538,-23.24199,-35.714882,-37.347279,-35.651995,-17.278556,-10.204638,-4.914505,-2.676917,2.249172,11.947952,16.894234,17.540242,18.768112,27.064576,28.835343,27.906839,31.892248,39.059643,37.223976,33.422337,25.242118,50.56018,73.929966,93.95755,47.620594,83.026874,102.056922,116.504814,38.97631,79.176281,100.721397,115.652206,32.058116,69.451835,90.026413,104.738136,27.245132,56.535209,72.941677,85.174301,-16.312743,-17.740634,-11.040159,-6.672503,14.950046,27.671656,31.994543,34.850709,33.362302,45.56164,48.745392,49.938743,45.350243,58.198516,59.974161,58.690592,51.37554,62.974984,63.810949,61.472955,0.592346,306.917968,-77.732643,284.843456
18,-4.616787,1.758553,0.06792,-0.020996,4.824726,7.486507,9.108879,8.871746,-17.77668,2.621166,22.445286,36.782192,-24.526154,0.898521,24.129673,44.133007,-25.624283,-2.761528,19.550148,37.44833,-24.213993,-9.348152,7.211506,21.006592,-21.392615,-33.704783,-35.841964,-35.365745,-16.37674,-9.424928,-3.963005,-1.497349,1.757454,11.071923,16.396488,17.716761,17.047325,25.136876,27.344836,26.93348,29.254814,36.121114,34.668225,31.151181,25.232563,50.511017,73.833161,93.814739,47.77739,83.101605,102.054211,116.455067,39.18433,79.268692,100.743885,115.682225,32.247139,69.482025,90.003365,104.725033,27.384373,56.574497,72.944607,85.164334,-16.345013,-17.809942,-11.085903,-6.764152,14.987962,27.593271,31.784963,34.566362,33.396513,45.482711,48.652829,49.855937,45.376327,58.154661,59.963911,58.720814,51.392966,62.98379,63.858893,61.556701,-3.935549,308.671602,-77.575831,284.817541
19,-7.911564,1.81624,-0.144172,-0.089031,6.325745,11.624428,15.139046,15.970825,-9.169819,12.41375,31.189636,44.771278,-15.577675,10.029671,32.213173,51.409172,-17.585083,6.086208,27.296986,44.388245,-17.279011,-2.24168,13.398525,26.482956,-20.576966,-33.291154,-36.552353,-38.111366,-16.433093,-9.625185,-4.427405,-2.074999,1.024699,10.320964,15.547111,16.98166,15.691731,23.937091,26.070271,25.707475,27.428644,34.236232,33.135914,30.154505,25.20354,50.556198,73.864116,93.794311,48.183242,83.354885,102.284282,116.691936,39.561046,79.345378,100.763065,115.689869,32.52174,69.442932,89.914466,104.629634,27.496101,56.486251,72.833107,85.082725,-16.321807,-17.730408,-11.002923,-6.819852,15.177115,27.711003,31.912304,34.681081,33.507935,45.525565,48.734499,49.970681,45.411623,58.191451,60.061612,58.898271,51.371217,63.032696,63.969376,61.748497,-11.780508,310.483347,-77.653398,284.724015
20,8.756401,-1.673609,-0.141598,-0.092453,4.525326,6.818642,7.183788,6.465065,-16.389587,2.950802,21.734837,35.381035,-23.065533,-0.223869,22.315189,41.671005,-25.387207,-4.418323,17.291691,34.646759,-25.234955,-11.9198,4.148083,17.224869,-21.126644,-33.216275,-35.990733,-38.248897,-15.780231,-8.543071,-3.527393,-1.231748,2.103404,11.376155,16.515555,17.670325,17.186325,24.992121,26.761604,26.221139,29.161311,35.565051,34.258017,31.464787,25.276131,50.695255,74.027412,93.971752,48.393036,83.475735,102.399902,116.820099,39.796406,79.380524,100.789947,115.715011,32.701103,69.42905,89.881153,104.601791,27.551754,56.43338,72.784836,85.090988,-16.223661,-17.567474,-10.851005,-6.815615,15.252031,27.811929,32.043425,34.805941,33.52809,45.588748,48.85537,50.079325,45.408647,58.266478,60.205676,59.081078,51.38789,63.158902,64.155825,61.982643,-2.970875,308.786683,-77.741764,284.608507
21,3.734711,-1.523049,-0.163307,-0.007509,4.151493,5.533619,4.759666,2.860485,-19.642651,-1.588852,17.435818,31.385147,-26.563797,-4.534126,18.295566,37.678711,-28.725414,-8.513363,13.506695,30.94043,-28.249878,-15.1703,1.246925,14.476616,-21.105006,-32.457597,-33.83515,-33.948228,-15.044648,-7.516878,-2.122164,0.035445,3.021238,12.409746,18.029996,19.167637,18.167897,26.095502,28.350269,27.800011,30.117504,36.707644,35.58885,32.67218,25.325397,50.844154,74.199669,94.085735,48.60149,83.606666,102.540939,116.961273,40.009243,79.528198,100.997314,115.980629,32.851822,69.542106,90.018299,104.753311,27.572868,56.475574,72.859886,85.235149,-16.21057,-17.514207,-10.811781,-6.847034,14.966435,27.755872,32.13526,34.951178,33.185709,45.45974,48.925716,50.282397,45.104613,58.1164,60.215223,59.188696,51.221201,63.088655,64.13793,62.019842,0.796852,307.196283,-77.872055,284.533647
22,4.947784,-2.467843,-0.172406,-0.205863,-0.149196,-2.264328,-5.270004,-9.80151,-26.81971,-11.146316,8.846901,24.000206,-32.128681,-11.89579,11.498795,32.212303,-32.613395,-14.0671,8.282078,27.047447,-30.489704,-19.655239,-4.212616,9.354698,-11.657267,-19.215938,-19.632802,-18.780918,-6.623324,1.451616,7.317115,9.704806,6.258688,15.649555,22.446757,24.361377,16.505898,24.516519,28.41008,28.905924,24.163801,30.148589,30.359627,28.716943,25.394383,50.974984,74.27377,94.050568,49.092831,83.925488,102.845204,117.173436,40.437504,79.70414,101.248249,116.2561,33.043477,69.434555,89.972798,104.739613,27.368351,56.056973,72.489579,85.121739,-16.245101,-17.453458,-10.695357,-6.950849,14.566774,27.615167,32.366441,35.412095,32.666425,45.362285,49.335207,51.017622,44.604607,58.0711,60.619922,59.896281,50.909398,63.181033,64.650384,62.908331,5.753059,304.624421,-78.036038,284.223765
23,11.05045,-4.224148,-0.291687,-1.176692,-3.850411,-10.064873,-16.793702,-24.763001,-36.051979,-23.924481,-3.56091,12.396961,-40.605252,-24.540047,-1.064221,20.497432,-40.378189,-26.230156,-4.011887,15.314197,-37.385044,-30.950524,-17.705178,-5.345227,-9.887031,-15.959406,-15.06983,-12.772863,-1.522197,9.073482,15.763028,18.830838,10.622973,21.096794,28.806827,31.610493,20.076973,28.711299,33.894925,35.519677,27.158473,33.996257,35.404463,35.112346,25.52488,50.913311,73.983605,93.523751,49.321186,83.829232,102.608769,116.823338,40.440205,79.304261,101.036396,116.125019,32.67651,68.485028,89.055039,103.850842,26.471592,54.358635,70.555733,83.176323,-16.112893,-17.048152,-10.330337,-7.13111,13.898388,27.845237,33.567265,37.408079,32.080216,46.097325,51.320434,53.813348,44.240799,58.980487,62.672593,62.830687,50.91655,64.110748,66.493474,65.467157,16.781353,300.233992,-78.349881,282.880792
24,19.350277,-8.252578,-0.986103,-2.480514,-8.920968,-21.767075,-33.994635,-45.522721,-50.441883,-45.975089,-27.615046,-12.457564,-54.71188,-47.058552,-25.395482,-4.334547,-53.689826,-48.169894,-27.213112,-7.991621,-49.701731,-50.178961,-39.312052,-27.839562,-3.589595,-4.815118,-1.258233,2.954776,9.040365,21.627699,28.627621,32.101143,17.821632,28.969316,36.873184,39.67199,23.903887,32.436855,38.095793,40.180178,27.738303,34.520765,36.88575,37.645688,25.867791,51.199356,73.701783,92.659218,49.967274,83.574875,101.746811,115.432984,40.98674,78.849644,100.187725,115.227631,32.802452,67.662117,87.893475,102.459069,25.833481,53.340145,69.19558,81.673565,-16.76268,-17.718403,-11.564814,-8.825986,11.732591,27.338674,34.41679,39.432813,29.667307,45.643101,52.501547,56.206979,42.124995,58.543763,63.878579,65.415312,49.555175,63.844171,67.452297,67.434414,36.054829,291.782692,-79.412785,280.201556
25,11.821472,-9.15808,-0.875496,-4.785088,-12.246529,-29.214272,-44.49959,-58.285881,-54.820404,-58.756331,-45.683939,-33.397631,-59.002808,-60.800469,-44.147026,-25.550394,-58.135969,-61.449675,-44.50296,-27.010477,-54.465288,-61.764925,-54.364947,-44.023316,8.154469,13.929948,20.460375,26.147749,24.005861,37.845901,44.832954,48.254384,26.102732,37.901291,45.422985,47.721576,25.503593,34.262592,39.906327,41.923528,22.877731,29.550227,33.41797,35.376026,25.255909,50.30634,71.777001,90.214165,48.713059,80.901993,98.071404,110.557423,40.605778,77.224423,97.0444,110.233647,33.026574,66.869351,85.246914,97.473439,26.090928,53.184746,67.834774,78.418259,-18.025921,-19.458642,-14.196099,-12.382823,7.142472,23.444779,31.508678,37.475942,25.524668,42.942718,51.164637,55.843071,39.246203,56.757014,63.032906,65.642157,48.638774,63.408398,67.492162,68.109247,47.767439,282.432911,-80.397143,275.224767
26,16.573414,-14.757793,-3.506424,-12.18826,-19.777405,-42.650116,-60.804228,-75.259312,-64.041001,-77.981375,-70.029345,-60.108645,-64.658032,-78.40297,-67.986855,-53.026171,-61.409163,-75.587923,-64.667416,-50.722372,-55.892332,-70.809397,-68.445631,-61.317536,10.746702,22.08924,32.429705,40.620242,31.890636,50.314779,57.925548,60.85048,33.15153,49.865755,57.729954,59.650336,31.689379,44.854814,51.10227,52.975543,27.985071,38.201423,43.28581,45.967643,25.386143,50.723969,71.374695,88.263217,51.610131,81.793574,95.323906,104.574492,44.054696,77.825621,93.420033,102.942027,36.265378,67.213257,81.47231,90.005488,28.428778,53.805937,65.318837,72.68985,-18.974709,-21.376535,-17.882635,-17.953117,1.644846,19.406037,28.009987,33.925899,20.229114,39.530749,48.220687,52.807236,35.135417,53.973164,60.341601,62.991552,46.580973,61.895692,65.79822,66.460308,64.239327,267.514749,-84.005093,262.876138
27,5.071609,-12.336201,-6.204036,-19.200339,-21.04248,-43.194889,-59.682478,-71.364899,-63.138576,-80.19631,-76.234594,-69.22526,-62.694019,-80.3596,-73.837051,-62.464582,-58.292261,-75.783079,-68.310253,-57.683699,-51.502848,-67.18606,-66.631388,-61.320888,4.697657,15.565494,27.438691,36.324279,30.019957,49.890739,55.709573,57.175775,34.796981,53.830761,58.487273,57.903528,36.494265,51.707307,54.614954,53.92745,35.672923,47.718211,50.789103,51.074167,26.247299,52.61317,72.822887,87.165636,58.428863,86.121271,93.423992,97.464105,51.137008,80.726354,89.418617,93.476194,42.485744,69.074753,76.91803,80.292326,33.076177,55.856489,62.312095,64.905418,-19.650877,-23.603737,-22.900783,-25.733385,-5.01874,15.072195,23.683493,28.43352,13.589005,35.160116,43.221311,46.540359,29.685905,49.850496,55.185948,56.640386,43.352574,58.899685,61.527931,61.30558,68.952833,255.18974,-90.567232,243.686991
28,13.270821,-26.419741,-10.275295,-24.728719,-25.872071,-50.489033,-67.346861,-77.708176,-68.441403,-91.534991,-91.997412,-87.693724,-66.054097,-89.836567,-87.311715,-79.653952,-60.099066,-82.297159,-78.462879,-70.603255,-51.919424,-69.62142,-69.969321,-65.207714,4.288214,17.092014,30.659,41.316812,27.49024,48.430935,54.561979,55.241493,32.44676,53.677102,57.615296,55.191623,34.851754,52.63507,54.16924,51.069431,34.740109,48.502219,50.830772,49.405572,27.561813,55.070285,75.262241,87.790506,63.40892,89.702505,92.711585,92.509649,56.808437,84.151227,87.374359,86.489496,47.992446,72.523864,74.813449,73.25358,37.955514,59.635316,62.006492,60.496776,-20.89695,-27.456937,-30.261264,-35.782369,-13.728228,4.023046,11.133303,13.899462,3.790463,23.273261,29.539607,31.211721,20.175762,38.430968,42.33922,42.658006,35.593401,49.103144,50.076652,48.903912,81.412754,229.471827,-101.653427,219.6601
29,13.017849,-30.52999,-10.380295,-31.085293,-29.831864,-56.566773,-73.923031,-83.569554,-73.317204,-99.984124,-101.891899,-97.858898,-68.858586,-95.664677,-94.930001,-88.883915,-61.217514,-85.555264,-83.678799,-77.06139,-51.451172,-70.236649,-71.02002,-66.416828,-1.392966,8.667788,20.68929,30.282229,17.628372,37.436879,42.541625,41.878598,24.995183,45.773308,48.239521,44.449503,30.336174,48.308236,48.227936,43.432621,33.287251,47.287897,47.987678,44.644943,28.262615,56.280384,76.259914,87.502149,66.631679,91.525766,91.522945,87.9862,60.686531,86.088358,85.379688,80.214449,52.277321,74.5723,72.794849,67.462663,42.54495,61.636957,60.910583,56.247253,-21.482202,-31.59156,-37.402675,-45.06127,-24.249745,-11.893246,-6.136237,-4.50145,-7.139187,7.151105,11.771352,12.193397,9.442317,23.193745,25.456743,24.442678,25.748409,35.774762,35.365097,33.342549,93.417607,200.022018,-113.046718,189.654988
30,9.783439,-33.743142,-7.572636,-37.906923,-32.622047,-59.945594,-76.842842,-86.389949,-76.182872,-102.398494,-104.361957,-100.462532,-69.579311,-95.766369,-96.292396,-91.727165,-60.059097,-83.465778,-83.744487,-78.953613,-48.197754,-66.185577,-68.966331,-66.470775,-11.282529,-8.072848,-0.157921,6.605256,0.37848,15.335962,18.304866,16.426875,11.422023,27.910791,28.701505,24.553977,21.218238,36.00317,34.882128,29.712106,29.21709,41.195787,40.034811,35.365313,29.342571,56.472439,75.595711,85.212656,69.750973,92.428167,90.847607,86.094767,63.888771,86.109438,83.384548,77.19821,55.348652,74.767307,71.515698,65.643488,45.688173,62.254435,60.328011,55.270008,-19.896903,-32.95969,-41.808579,-51.259443,-33.355498,-27.376149,-24.027993,-24.070959,-19.300733,-12.155896,-9.921371,-10.487449,-5.13861,2.600853,3.131728,1.238565,9.423749,15.016126,13.37743,10.90395,101.894479,167.46546,-121.925921,152.934649
31,9.382164,-37.267973,-4.931419,-37.41919,-32.902427,-59.686294,-76.988182,-87.131756,-79.140964,-103.803337,-104.675125,-100.303356,-73.878948,-98.324283,-97.062893,-91.794513,-65.267486,-87.025612,-85.548477,-79.98864,-53.827858,-70.849434,-72.174957,-68.940536,-13.629792,-16.38951,-13.991693,-12.146214,-11.060246,-6.665895,-7.163715,-9.552375,-2.423661,2.417362,0.133189,-4.336441,5.554184,9.836427,6.239243,1.104641,12.51398,16.31386,13.119418,8.386799,29.383032,54.844322,72.584181,81.513216,68.663893,89.562761,89.020054,85.046734,63.404577,84.082054,81.99464,76.514253,55.52306,73.945244,71.516189,66.52387,46.716333,61.872671,60.616579,56.428899,-18.685341,-34.305158,-45.478546,-55.969444,-41.379038,-43.560603,-43.256176,-44.565949,-30.453642,-32.262858,-32.613162,-33.968738,-18.836439,-18.657261,-20.045913,-22.500631,-6.232827,-5.908221,-8.754924,-11.545237,109.90238,131.592407,-128.231603,116.910379
32,8.716999,-41.264133,-2.290203,-36.931458,-32.965313,-59.886429,-77.753883,-88.602859,-78.890487,-103.651451,-105.974933,-102.576004,-74.023658,-99.558586,-100.341007,-96.583854,-66.279979,-89.258159,-90.182315,-86.409324,-55.92889,-74.457984,-77.573764,-76.028595,-16.488119,-24.090851,-26.65923,-29.006302,-22.752226,-26.74866,-28.929854,-31.358143,-16.327633,-20.771214,-23.947362,-27.647962,-9.909443,-14.047743,-17.910185,-21.987598,-4.035954,-6.390707,-10.016704,-13.826189,28.383997,51.396034,67.225324,76.403829,63.370439,82.929548,86.040287,84.842102,59.233949,80.006206,81.209964,78.16258,52.800544,72.106109,72.796325,70.103811,45.62943,60.491666,61.776289,59.723928,-17.847518,-35.627962,-48.412573,-59.191271,-48.320364,-60.446605,-63.820786,-65.986419,-40.597913,-53.169782,-56.304023,-58.25047,-31.651168,-40.580596,-44.076178,-46.774909,-21.22132,-26.998278,-31.031966,-34.00501,117.563055,91.302306,-131.57813,80.952953
33,-0.778633,-34.486499,-0.991391,-31.49066,-31.15591,-55.418289,-71.445762,-81.304412,-74.173919,-95.781726,-98.644031,-96.253521,-69.746063,-93.044059,-95.077869,-92.585312,-62.568821,-84.034984,-86.535862,-84.654373,-52.913257,-70.594597,-74.966846,-75.177635,-17.307678,-29.244504,-36.310357,-43.241131,-29.493408,-43.299068,-50.130427,-54.214874,-25.708176,-40.520324,-47.667042,-52.473055,-22.054768,-35.982558,-42.886597,-47.362776,-18.67221,-28.365506,-34.485416,-38.939705,28.183703,48.946118,62.677924,71.759451,59.957194,76.953146,82.630715,84.402947,55.93075,74.84729,78.980965,79.371031,49.883698,68.034726,72.212014,73.094897,43.127066,56.453608,60.74655,62.085795,-16.027968,-34.859059,-48.138414,-58.836781,-52.323156,-70.123357,-76.831968,-81.089959,-47.370748,-66.563045,-72.976628,-76.955966,-40.826094,-56.110701,-62.729132,-67.374421,-32.492937,-42.794848,-48.425914,-52.482932,116.132435,56.938345,-133.221508,49.584831
34,-1.669807,-27.200544,5.534523,-31.963174,-29.029667,-50.689682,-64.472214,-73.545364,-68.470047,-87.309998,-92.06519,-92.549778,-64.231201,-85.642708,-89.843662,-90.193085,-57.047344,-77.164547,-82.162892,-83.623925,-47.017994,-63.54863,-69.908467,-73.111336,-16.298373,-30.629523,-40.563781,-49.684076,-33.942309,-54.997214,-65.380722,-71.70222,-32.452821,-55.157395,-65.928059,-73.201347,-30.999044,-52.237298,-62.147507,-68.529694,-29.549601,-44.650948,-52.593187,-58.234912,26.062037,44.646653,56.40568,64.792757,55.929469,70.820418,77.247048,80.120625,52.954428,70.282162,75.421235,77.206038,47.813759,65.229538,70.771798,72.883066,41.796587,54.910784,60.427283,62.980723,-15.692669,-34.546213,-48.255394,-58.723839,-55.027231,-76.476129,-87.12231,-93.437868,-52.70386,-77.097097,-87.264716,-93.044604,-48.151984,-68.657001,-78.780596,-84.933382,-41.408005,-55.800065,-64.315018,-69.931091,114.027489,29.679388,-128.122124,17.563244
35,-3.373512,-25.407998,0.107495,-21.909016,-27.825909,-47.481148,-59.836556,-67.683472,-65.835068,-81.941185,-86.93842,-88.028973,-62.131966,-80.906456,-85.724911,-86.993088,-55.061543,-72.767636,-78.421704,-80.984231,-44.907177,-60.179009,-66.566494,-70.536988,-16.961801,-33.116823,-44.377758,-54.436918,-39.439028,-64.398121,-76.727452,-84.212927,-38.752629,-66.808159,-80.241526,-89.252977,-37.955832,-64.595321,-77.600263,-86.22202,-37.111074,-56.795407,-66.908779,-74.431896,26.009199,44.124321,55.090055,63.036363,54.80797,68.999925,75.771332,79.201092,51.438703,68.51073,74.685184,77.557302,45.802047,63.130199,69.938839,73.477026,39.125948,51.957761,58.374716,62.246732,-15.128227,-34.162013,-47.964666,-58.68333,-55.364585,-79.020276,-92.346913,-100.724187,-54.022909,-81.126768,-94.430394,-102.934673,-49.866514,-73.219813,-86.371264,-94.940035,-42.791973,-59.695911,-70.271999,-77.656574,110.525757,4.151125,-128.142849,-4.466037
36,-1.184807,-17.881567,4.797226,-19.85854,-26.743023,-45.908524,-57.385185,-65.155724,-62.724289,-77.576225,-84.077786,-87.04057,-58.390045,-76.041527,-82.76405,-86.168312,-50.548702,-67.588612,-75.174717,-79.911759,-39.462902,-54.633339,-62.857602,-69.057953,-15.74499,-32.48151,-44.577107,-55.204266,-41.08609,-67.220763,-81.833995,-92.196625,-40.391515,-70.199924,-86.549072,-99.274927,-39.332761,-67.606648,-83.42455,-95.560368,-38.203402,-58.406809,-70.305268,-80.523531,24.897537,42.532859,52.915855,60.83765,51.982074,66.023254,74.201809,78.96603,48.861797,66.417743,74.565708,79.160774,43.835289,61.219288,69.749851,74.947677,37.7532,50.126106,57.44363,62.505638,-16.302578,-34.938081,-48.346534,-58.232442,-56.805204,-80.941372,-94.583409,-102.791737,-55.860145,-83.871673,-97.691461,-106.212184,-51.847628,-76.431461,-90.241144,-98.96339,-44.652186,-62.701029,-74.348817,-82.660194,109.091378,-13.906026,-123.595195,-24.500161
37,0.172505,-11.039555,3.900444,-11.971274,-26.190849,-45.682535,-57.020688,-65.163902,-61.058128,-75.955809,-83.737806,-88.067877,-56.241014,-73.912294,-82.096481,-86.911631,-47.809817,-65.017085,-74.001594,-80.117203,-35.91579,-51.482975,-61.024731,-68.728881,-14.639759,-31.720873,-44.460367,-55.44196,-42.34242,-69.209465,-85.446408,-98.07376,-41.518208,-72.536977,-90.953823,-106.531048,-40.023854,-69.280776,-87.028711,-101.773568,-38.38351,-58.839098,-71.773875,-83.810487,24.814693,41.989357,51.85366,59.293796,49.317318,62.922638,71.659298,77.260288,46.020824,63.286686,72.706638,78.734173,41.417621,58.651314,68.428711,75.08765,36.00856,48.082329,56.197494,62.626842,-15.666228,-33.604217,-46.179595,-55.210957,-56.766475,-80.455131,-94.242652,-102.540654,-56.181211,-83.892847,-98.1648,-106.921043,-52.412861,-77.120738,-91.41205,-100.443739,-45.08024,-63.832007,-76.106235,-84.989223,108.931317,-24.885582,-120.027317,-36.411436
38,1.529818,-4.197545,6.753869,-10.387109,-26.169387,-46.803182,-58.743064,-67.708009,-60.836585,-77.079938,-85.918483,-91.110897,-55.684873,-74.518759,-83.722204,-89.223046,-46.844887,-65.053055,-74.902336,-81.600564,-34.265841,-50.727917,-61.067884,-69.549772,-13.646106,-30.834911,-44.027536,-55.149998,-43.208015,-70.364225,-87.564689,-101.84433,-42.132703,-73.819316,-93.455779,-111.021339,-40.029109,-69.617704,-88.412745,-104.861619,-37.651395,-58.092271,-71.3146,-84.292761,23.42381,40.055135,49.361415,56.126229,46.82821,60.418608,69.054909,74.370257,44.106794,61.419699,70.947708,76.79992,40.452441,57.682124,67.532617,74.133399,36.173749,48.36668,56.148433,62.277406,-15.63446,-33.155953,-45.225128,-53.504754,-57.325066,-80.744694,-93.931188,-100.671274,-56.588224,-84.500735,-98.144805,-105.682195,-52.620274,-77.618798,-91.523072,-99.673311,-44.952319,-64.146014,-76.651799,-85.405971,110.217216,-28.79566,-113.517367,-46.511078
39,-0.177472,-3.326446,1.17768,-1.798462,-26.942161,-48.334018,-60.859114,-70.15169,-62.240728,-78.784372,-87.649305,-92.565848,-56.825602,-76.050992,-85.442753,-90.668762,-47.738496,-66.431527,-76.416825,-82.840602,-35.042813,-52.133629,-62.831844,-71.432162,-13.816129,-31.322465,-44.578213,-55.947025,-44.520247,-71.771938,-89.104137,-103.354658,-43.149086,-75.002,-94.464023,-112.047602,-40.506542,-70.181443,-88.715483,-105.11362,-37.439396,-57.789765,-70.918373,-83.877455,24.455146,40.987476,50.179662,56.755443,46.1738,59.990473,69.519209,75.882977,43.00364,60.60827,71.210195,78.36175,39.274641,56.829009,67.778703,75.758614,35.150725,47.329649,55.699057,62.863339,-14.05528,-30.939379,-42.478933,-50.701358,-55.916091,-78.711681,-91.165025,-97.530884,-55.436207,-82.318419,-95.253971,-102.51039,-51.594267,-75.674842,-88.94055,-96.855296,-43.606981,-62.306385,-74.229881,-82.718857,109.86941,-31.776452,-112.510021,-47.963886
40,1.909206,2.140964,3.734338,-2.183629,-27.569654,-49.977014,-62.933664,-72.696269,-62.797465,-80.509404,-89.78636,-95.126785,-56.538484,-77.034627,-86.571114,-92.090174,-46.733158,-67.123325,-77.400284,-84.275554,-33.482966,-51.687355,-62.965894,-72.146215,-12.711589,-29.946954,-43.466657,-55.115984,-42.883145,-69.304971,-86.674397,-101.551781,-41.356069,-71.750704,-90.808998,-109.066507,-38.513302,-66.464994,-84.120662,-100.490984,-35.207302,-53.503747,-65.791423,-78.417516,23.889821,40.253821,49.292937,55.710885,44.838527,58.869426,68.646643,75.114742,42.21439,60.302785,71.091998,78.328323,39.265354,57.206715,68.233472,76.198979,36.087517,48.321014,56.558963,63.580978,-14.438098,-30.69144,-41.655617,-49.236831,-55.723737,-77.459307,-88.94947,-94.107192,-55.178982,-81.025085,-92.740917,-98.684728,-51.4268,-74.810177,-87.013947,-93.813056,-43.665081,-61.828174,-73.319556,-81.269987,112.001638,-29.344412,-108.552661,-49.856439
41,-0.364795,2.183607,-0.916243,3.024485,-27.873455,-50.511271,-63.825373,-73.818401,-62.881272,-81.224997,-90.75208,-96.06546,-56.507288,-77.641899,-87.426098,-92.838744,-46.70498,-67.602693,-78.107528,-84.873739,-33.545429,-52.096538,-63.574512,-72.713456,-12.898085,-29.906885,-43.053155,-54.32478,-42.987943,-68.758101,-85.369599,-99.572782,-41.219336,-70.616796,-88.694194,-106.084717,-38.059823,-65.058876,-81.898677,-97.54637,-34.369024,-51.970397,-63.706205,-75.818991,24.742956,41.13723,50.132133,56.142282,45.36225,59.246291,68.215489,74.033172,42.425074,60.204292,70.227386,76.928718,39.133549,57.246648,67.827488,75.477073,35.756652,48.307393,56.468976,63.53906,-12.997041,-29.064679,-39.745868,-47.532983,-54.315208,-75.703696,-87.464276,-93.009865,-53.930453,-79.094458,-91.039242,-97.503303,-50.32279,-73.163284,-85.492412,-92.629034,-42.531791,-60.557775,-71.805234,-79.517814,112.35155,-27.048305,-108.754197,-46.719454
42,-0.364795,2.183606,0.019692,2.395806,-28.177256,-51.045527,-64.717082,-74.940533,-62.965078,-81.940591,-91.717801,-97.004134,-56.476092,-78.24917,-88.281083,-93.587315,-46.676802,-68.08206,-78.814773,-85.471923,-33.607892,-52.505722,-64.18313,-73.280696,-13.08458,-29.866814,-42.639651,-53.533574,-43.092741,-68.21123,-84.064799,-97.593782,-41.082603,-69.482887,-86.579388,-103.102926,-37.606344,-63.652757,-79.676692,-94.601755,-33.530744,-50.437046,-61.620987,-73.220466,24.926904,41.520612,50.726668,56.952451,45.87943,60.088832,69.104925,74.793415,42.838574,61.029303,70.972525,77.445211,39.375085,57.794295,68.336871,75.800267,35.827913,48.622273,56.865624,63.868178,-13.281601,-29.329292,-39.971086,-47.750029,-54.273114,-75.229132,-86.298584,-91.338762,-53.724974,-77.965502,-89.032064,-94.922207,-49.9647,-71.905368,-83.354126,-89.862934,-42.115512,-59.478598,-70.126148,-77.415067,113.026714,-24.78174,-107.694546,-44.240689
43,-0.364794,2.183607,0.019691,2.395807,-28.481058,-51.579784,-65.608793,-76.062666,-63.048885,-82.656185,-92.683522,-97.94281,-56.444897,-78.856443,-89.136068,-94.335886,-46.648625,-68.561429,-79.522019,-86.070108,-33.670357,-52.914906,-64.791749,-73.847938,-13.271077,-29.826744,-42.226149,-52.742369,-43.19754,-67.66436,-82.760001,-95.614783,-40.945871,-68.348979,-84.464584,-100.121136,-37.152866,-62.246639,-77.454707,-91.65714,-32.692465,-48.903696,-59.53577,-70.621942,25.110853,41.903995,51.321203,57.762621,46.396611,60.931374,69.994362,75.55366,43.252075,61.854316,71.717665,77.961705,39.616622,58.341943,68.846255,76.123461,35.899175,48.937153,57.262272,64.197298,-13.566162,-29.593906,-40.196305,-47.967075,-54.231021,-74.754569,-85.132893,-89.66766,-53.519495,-76.836547,-87.024887,-92.341112,-49.606611,-70.647454,-81.215841,-87.096835,-41.699233,-58.399423,-68.447063,-75.312321,113.867927,-22.590665,-106.468848,-41.837414
44,-0.364795,2.183606,0.019691,2.395806,-28.784859,-52.114041,-66.500502,-77.184799,-63.132691,-83.371779,-93.649242,-98.881484,-56.413701,-79.463714,-89.991052,-95.084456,-46.620448,-69.040797,-80.229263,-86.668292,-33.73282,-53.324089,-65.400367,-74.415178,-13.457572,-29.786674,-41.812645,-51.951164,-43.302337,-67.11749,-81.455202,-93.635783,-40.809138,-67.215071,-82.349778,-97.139345,-36.699387,-60.84052,-75.232721,-88.712525,-31.854185,-47.370345,-57.450551,-68.023416,25.294802,42.287378,51.915739,58.572791,46.913792,61.773916,70.883798,76.313904,43.665577,62.679328,72.462804,78.478199,39.858159,58.889591,69.355639,76.446655,35.970436,49.252034,57.658921,64.526417,-13.850723,-29.858519,-40.421524,-48.18412,-54.188926,-74.280005,-83.967201,-87.996557,-53.314015,-75.70759,-85.017709,-89.760016,-49.248521,-69.389539,-79.077555,-84.330735,-41.282953,-57.320246,-66.767977,-73.209573,114.757427,-20.711389,-105.194862,-39.745938
45,-0.364795,2.183607,0.019691,2.395807,-29.08866,-52.648297,-67.392211,-78.306931,-63.216498,-84.087372,-94.614962,-99.820159,-56.382504,-80.070986,-90.846036,-95.833026,-46.59227,-69.520164,-80.936508,-87.266476,-33.795283,-53.733272,-66.008985,-74.982419,-13.644069,-29.746604,-41.399143,-51.159959,-43.407136,-66.57062,-80.150404,-91.656784,-40.672405,-66.081163,-80.234974,-94.157555,-36.245909,-59.434402,-73.010736,-85.767911,-31.015907,-45.836995,-55.365334,-65.424892,25.478752,42.67076,52.510274,59.382961,47.430973,62.616458,71.773235,77.074148,44.079078,63.50434,73.207944,78.994693,40.099696,59.437239,69.865023,76.769849,36.041698,49.566915,58.05557,64.855537,-14.135284,-30.123133,-40.646743,-48.401166,-54.146833,-73.805441,-82.80151,-86.325455,-53.108536,-74.578635,-83.010532,-87.178921,-48.890432,-68.131625,-76.939271,-81.564636,-40.866674,-56.24107,-65.088893,-71.106827,115.262898,-18.865467,-104.304905,-37.687816
46,-0.364794,2.183606,0.019692,2.395806,-29.392462,-53.182555,-68.283921,-79.429064,-63.300305,-84.802967,-95.580683,-100.758834,-56.351309,-80.678258,-91.701022,-96.581598,-46.564093,-69.999533,-81.643753,-87.864662,-33.857747,-54.142456,-66.617604,-75.54966,-13.830564,-29.706533,-40.98564,-50.368754,-43.511934,-66.023749,-78.845604,-89.677785,-40.535672,-64.947254,-78.120168,-91.175765,-35.79243,-58.028282,-70.78875,-82.823296,-30.177627,-44.303644,-53.280116,-62.826367,25.6627,43.054142,53.104809,60.19313,47.948153,63.458998,72.662671,77.834391,44.492578,64.329351,73.953083,79.511187,40.341232,59.984886,70.374407,77.093043,36.112959,49.881794,58.452218,65.184655,-14.419845,-30.387746,-40.871961,-48.618212,-54.104739,-73.330877,-81.635818,-84.654352,-52.903056,-73.449679,-81.003354,-84.597825,-48.532342,-66.87371,-74.800985,-78.798535,-40.450394,-55.161894,-63.409807,-69.004079,115.364897,-16.969245,-103.81842,-35.579394
47,-0.364795,2.183606,0.019691,2.395806,-29.696263,-53.716811,-69.17563,-80.551196,-63.384111,-85.51856,-96.546403,-101.697509,-56.320113,-81.28553,-92.556006,-97.330168,-46.535915,-70.478901,-82.350998,-88.462846,-33.92021,-54.55164,-67.226222,-76.116901,-14.017059,-29.666462,-40.572136,-49.577548,-43.616731,-65.476878,-77.540805,-87.698785,-40.398939,-63.813345,-76.005363,-88.193974,-35.338951,-56.622163,-68.566764,-79.878681,-29.339347,-42.770293,-51.194897,-60.227841,25.846649,43.437525,53.699344,61.0033,48.465334,64.30154,73.552108,78.594635,44.906079,65.154363,74.698223,80.027681,40.582769,60.532534,70.883791,77.416237,36.184221,50.196675,58.848866,65.513774,-14.704405,-30.652359,-41.097179,-48.835257,-54.062645,-72.856313,-80.470127,-82.983249,-52.697576,-72.320723,-78.996176,-82.016729,-48.174252,-65.615795,-72.662699,-76.032435,-40.034114,-54.082717,-61.730721,-66.901332,115.031573,-14.976698,-103.767258,-33.374647
48,-0.364795,2.183607,0.019691,2.395807,-30.000064,-54.251068,-70.067339,-81.673329,-63.467917,-86.234153,-97.512123,-102.636183,-56.288917,-81.892801,-93.41099,-98.078738,-46.507738,-70.958269,-83.058243,-89.06103,-33.982673,-54.960823,-67.83484,-76.684141,-14.203556,-29.626393,-40.158634,-48.786343,-43.72153,-64.930008,-76.236007,-85.719786,-40.262206,-62.679437,-73.890558,-85.212184,-34.885473,-55.216045,-66.34478,-76.934066,-28.501069,-41.236943,-49.10968,-57.629317,26.030598,43.820908,54.29388,61.81347,48.982514,65.144082,74.441545,79.354879,45.31958,65.979376,75.443363,80.544175,40.824306,61.080182,71.393175,77.739431,36.255483,50.511556,59.245515,65.842894,-14.988966,-30.916973,-41.322399,-49.052303,-54.020551,-72.381749,-79.304436,-81.312147,-52.492097,-71.191767,-76.988998,-79.435634,-47.816163,-64.357881,-70.524415,-73.266336,-39.617835,-53.003542,-60.051636,-64.798586,114.451057,-13.009767,-103.963288,-31.195516
49,-0.364795,2.183606,0.019691,2.395806,-30.303865,-54.785324,-70.959048,-82.795461,-63.551724,-86.949747,-98.477844,-103.574858,-56.257721,-82.500073,-94.265974,-98.827309,-46.47956,-71.437636,-83.765487,-89.659214,-34.045136,-55.370006,-68.443458,-77.251381,-14.390051,-29.586322,-39.74513,-47.995138,-43.826328,-64.383137,-74.931208,-83.740786,-40.125473,-61.545528,-71.775753,-82.230393,-34.431994,-53.809926,-64.122794,-73.989451,-27.662789,-39.703591,-47.024462,-55.030792,26.214548,44.204291,54.888415,62.623639,49.499695,65.986624,75.330982,80.115123,45.733081,66.804388,76.188502,81.060669,41.065843,61.62783,71.902559,78.062626,36.326745,50.826437,59.642164,66.172013,-15.273527,-31.181586,-41.547617,-49.269349,-53.978457,-71.907185,-78.138744,-79.641044,-52.286617,-70.062811,-74.98182,-76.854539,-47.458073,-63.099966,-68.386129,-70.500236,-39.201555,-51.924365,-58.372551,-62.695838,113.755608,-10.984341,-104.274251,-28.95789
50,-0.364794,2.183607,0.019691,2.395807,-30.607667,-55.319581,-71.850758,-83.917594,-63.635531,-87.665341,-99.443565,-104.513533,-56.226526,-83.107345,-95.12096,-99.57588,-46.451383,-71.917005,-84.472733,-90.257399,-34.1076,-55.77919,-69.052077,-77.818623,-14.576548,-29.546252,-39.331628,-47.203933,-43.931127,-63.836268,-73.626409,-81.761787,-39.988741,-60.411621,-69.660949,-79.248603,-33.978515,-52.403808,-61.900809,-71.044837,-26.82451,-38.170241,-44.939244,-52.432267,26.398497,44.587674,55.482951,63.433809,50.016876,66.829166,76.220419,80.875368,46.146582,67.6294,76.933642,81.577164,41.30738,62.175478,72.411943,78.38582,36.398006,51.141317,60.038813,66.501132,-15.558088,-31.4462,-41.772836,-49.486395,-53.936364,-71.432622,-76.973053,-77.969942,-52.081138,-68.933856,-72.974643,-74.273444,-47.099984,-61.842052,-66.247844,-67.734137,-38.785277,-50.84519,-56.693466,-60.593092,113.022246,-8.920347,-104.623128,-26.681696
51,-0.364795,2.183606,0.019692,2.395806,-30.911468,-55.853838,-72.742467,-85.039727,-63.719337,-88.380935,-100.409285,-105.452208,-56.19533,-83.714617,-95.975944,-100.32445,-46.423205,-72.396373,-85.179978,-90.855584,-34.170063,-56.188374,-69.660695,-78.385863,-14.763043,-29.506182,-38.918124,-46.412727,-44.035924,-63.289397,-72.32161,-79.782787,-39.852008,-59.277712,-67.546143,-76.266812,-33.525036,-50.997689,-59.678823,-68.100222,-25.986231,-36.63689,-42.854026,-49.833742,26.582445,44.971055,56.077486,64.243978,50.534056,67.671707,77.109855,81.635611,46.560082,68.454411,77.678781,82.093657,41.548916,62.723125,72.921326,78.709013,36.469267,51.456197,60.43546,66.830251,-15.842649,-31.710813,-41.998055,-49.70344,-53.894269,-70.958058,-75.807361,-76.298839,-51.875658,-67.804899,-70.967465,-71.692348,-46.741893,-60.584137,-64.109558,-64.968037,-38.368997,-49.766013,-55.01438,-58.490345,112.363996,-6.868495,-104.896891,-24.417644
52,-0.364795,2.183607,0.019691,2.395807,-31.215269,-56.388094,-73.634176,-86.161859,-63.803143,-89.096528,-101.375005,-106.390883,-56.164133,-84.321889,-96.830928,-101.073021,-46.395027,-72.87574,-85.887222,-91.453768,-34.232526,-56.597557,-70.269313,-78.953104,-14.949539,-29.466112,-38.504622,-45.621523,-44.140723,-62.742527,-71.016812,-77.803788,-39.715275,-58.143804,-65.431339,-73.285022,-33.071558,-49.591571,-57.456838,-65.155608,-25.147952,-35.10354,-40.768809,-47.235217,26.766394,45.354438,56.672021,65.054148,51.051237,68.514249,77.999291,82.395855,46.973583,69.279423,78.423921,82.610151,41.790453,63.270773,73.43071,79.032208,36.540529,51.771078,60.832109,67.15937,-16.12721,-31.975427,-42.223274,-49.920487,-53.852176,-70.483494,-74.64167,-74.627737,-51.670179,-66.675944,-68.960288,-69.111253,-46.383804,-59.326223,-61.971274,-62.201937,-37.952718,-48.686838,-53.335295,-56.387598,111.813589,-4.818574,-105.062812,-22.155523
53,-0.364795,2.183606,0.019691,2.395806,-31.51907,-56.922351,-74.525885,-87.283991,-63.88695,-89.812122,-102.340725,-107.329557,-56.132937,-84.92916,-97.685912,-101.821591,-46.36685,-73.355108,-86.594467,-92.051952,-34.294989,-57.00674,-70.877931,-79.520344,-15.136035,-29.426041,-38.091118,-44.830317,-44.245521,-62.195656,-69.712013,-75.824788,-39.578542,-57.009895,-63.316533,-70.303231,-32.618079,-48.185452,-55.234853,-62.210992,-24.309672,-33.570189,-38.683591,-44.636692,26.950343,45.737821,57.266557,65.864318,51.568418,69.356791,78.888728,83.156099,47.387084,70.104435,79.169061,83.126645,42.03199,63.818421,73.940094,79.355402,36.611791,52.085958,61.228758,67.48849,-16.41177,-32.24004,-42.448492,-50.137532,-53.810082,-70.00893,-73.475979,-72.956634,-51.4647,-65.546988,-66.95311,-66.530157,-46.025714,-58.068308,-59.832988,-59.435837,-37.536438,-47.607661,-51.65621,-54.284851,111.293767,-2.641162,-105.198148,-19.765911
54,-0.364794,2.183607,0.019691,2.395806,-31.822872,-57.456608,-75.417595,-88.406124,-63.970757,-90.527716,-103.306446,-108.268233,-56.101742,-85.536433,-98.540898,-102.570162,-46.338673,-73.834477,-87.301712,-92.650137,-34.357453,-57.415924,-71.48655,-80.087586,-15.322531,-29.385971,-37.677616,-44.039113,-44.350319,-61.648786,-68.407215,-73.845789,-39.44181,-55.875987,-61.201729,-67.321442,-32.164601,-46.779333,-53.012868,-59.266378,-23.471393,-32.036839,-36.598373,-42.038168,27.134293,46.121204,57.861092,66.674488,52.085599,70.199333,79.778165,83.916343,47.800586,70.929448,79.9142,83.64314,42.273527,64.366069,74.449479,79.678596,36.683053,52.400839,61.625407,67.817609,-16.696331,-32.504653,-42.67371,-50.354577,-53.767988,-69.534366,-72.310287,-71.285531,-51.25922,-64.418031,-64.945932,-63.949061,-45.667624,-56.810392,-57.694702,-56.669737,-37.120158,-46.528485,-49.977124,-52.182103,110.743218,-0.430811,-105.364212,-17.343361
55,-0.364795,2.183606,0.019692,2.395807,-32.126673,-57.990865,-76.309304,-89.528257,-64.054563,-91.243309,-104.272167,-109.206907,-56.070546,-86.143704,-99.395882,-103.318732,-46.310495,-74.313844,-88.008957,-93.248321,-34.419916,-57.825108,-72.095168,-80.654826,-15.509027,-29.345901,-37.264113,-43.247907,-44.455117,-61.101915,-67.102415,-71.86679,-39.305077,-54.742078,-59.086923,-64.339651,-31.711122,-45.373214,-50.790882,-56.321763,-22.633114,-30.503488,-34.513155,-39.439642,27.318241,46.504586,58.455627,67.484657,52.602779,71.041874,80.667601,84.676586,48.214086,71.754459,80.659339,84.159633,42.515063,64.913716,74.958862,80.001789,36.754314,52.715719,62.022054,68.146727,-16.980892,-32.769267,-42.89893,-50.571623,-53.725894,-69.059802,-71.144596,-69.614429,-51.053741,-63.289076,-62.938754,-61.367966,-45.309535,-55.552478,-55.556417,-53.903638,-36.703879,-45.449309,-48.298039,-50.079357,110.199111,1.791732,-105.523832,-14.908617
56,-0.364795,2.183607,0.019691,2.395806,-32.430475,-58.525121,-77.201013,-90.650389,-64.138369,-91.958903,-105.237887,-110.145582,-56.03935,-86.750976,-100.250866,-104.067303,-46.282317,-74.793212,-88.716202,-93.846506,-34.482379,-58.234291,-72.703786,-81.222067,-15.695523,-29.305831,-36.85061,-42.456702,-44.559916,-60.555046,-65.797617,-69.887791,-39.168344,-53.608171,-56.972119,-61.357861,-31.257644,-43.967096,-48.568897,-53.377149,-21.794835,-28.970138,-32.427938,-36.841118,27.50219,46.887969,59.050162,68.294827,53.119959,71.884416,81.557038,85.436831,48.627587,72.579471,81.404479,84.676127,42.7566,65.461364,75.468246,80.324984,36.825575,53.0306,62.418703,68.475847,-17.265453,-33.033881,-43.124148,-50.788669,-53.6838,-68.585238,-69.978904,-67.943326,-50.848261,-62.16012,-60.931576,-58.78687,-44.951445,-54.294563,-53.418132,-51.137538,-36.287599,-44.370133,-46.618953,-47.97661,109.630039,3.993595,-105.708418,-12.494555
57,-0.364794,2.183606,0.019691,2.395807,-32.734277,-59.059378,-78.092723,-91.772522,-64.222177,-92.674497,-106.203608,-111.084257,-56.008155,-87.358248,-101.105851,-104.815874,-46.254141,-75.272581,-89.423447,-94.444691,-34.544843,-58.643475,-73.312405,-81.789308,-15.882018,-29.26576,-36.437107,-41.665497,-44.664713,-60.008175,-64.492818,-67.908791,-39.031611,-52.474262,-54.857313,-58.37607,-30.804165,-42.560977,-46.346911,-50.432534,-20.956555,-27.436787,-30.342719,-34.242593,27.686139,47.271351,59.644698,69.104997,53.63714,72.726958,82.446475,86.197075,49.041088,73.404483,82.149619,85.192621,42.998137,66.009012,75.97763,80.648178,36.896837,53.34548,62.815352,68.804966,-17.550014,-33.298495,-43.349367,-51.005715,-53.641707,-68.110675,-68.813213,-66.272224,-50.642782,-61.031164,-58.924399,-56.205775,-44.593356,-53.036649,-51.279847,-48.371438,-35.871321,-43.290957,-44.939868,-45.873863,109.041782,6.162347,-105.91219,-10.113602
58,-0.364795,2.183607,0.019691,2.395806,-33.038078,-59.593635,-78.984432,-92.894654,-64.305983,-93.390091,-107.169328,-112.022932,-55.976958,-87.96552,-101.960836,-105.564444,-46.225963,-75.751949,-90.130692,-95.042875,-34.607306,-59.052658,-73.921023,-82.356549,-16.068515,-29.225691,-36.023604,-40.874292,-44.769512,-59.461305,-63.18802,-65.929792,-38.894879,-51.340354,-52.742509,-55.39428,-30.350687,-41.154859,-44.124926,-47.487919,-20.118277,-25.903437,-28.257502,-31.644068,27.870089,47.654734,60.239233,69.915167,54.154321,73.5695,83.335912,86.957319,49.454589,74.229495,82.894759,85.709116,43.239674,66.55666,76.487014,80.971372,36.968099,53.660361,63.212001,69.134085,-17.834575,-33.563108,-43.574585,-51.22276,-53.599612,-67.63611,-67.647521,-64.601121,-50.437302,-59.902208,-56.917221,-53.624679,-44.235266,-51.778734,-49.141561,-45.605338,-35.455041,-42.211781,-43.260783,-43.771116,108.452763,8.23995,-106.116723,-7.8238
59,-0.364795,2.183606,0.019691,2.395807,-33.341879,-60.127891,-79.876141,-94.016787,-64.389789,-94.105684,-108.135048,-112.961606,-55.945762,-88.572791,-102.81582,-106.313015,-46.197785,-76.231316,-90.837936,-95.641059,-34.669769,-59.461842,-74.529641,-82.923789,-16.25501,-29.18562,-35.610101,-40.083086,-44.87431,-58.914434,-61.88322,-63.950792,-38.758145,-50.206445,-50.627704,-52.412489,-29.897207,-39.74874,-41.902941,-44.543304,-19.279997,-24.370086,-26.172284,-29.045543,28.054038,48.038117,60.833769,70.725337,54.671502,74.412042,84.225349,87.717563,49.86809,75.054508,83.639898,86.22561,43.481211,67.104308,76.996398,81.294567,37.039361,53.975242,63.608649,69.463205,-18.119136,-33.827722,-43.799805,-51.439807,-53.557519,-67.161547,-66.481831,-62.930019,-50.231823,-58.773253,-54.910044,-51.043584,-43.877177,-50.52082,-47.003277,-42.839239,-35.038762,-41.132605,-41.581698,-41.66837,107.882501,10.227801,-106.302499,-5.623748
60,-0.364795,2.183607,0.019692,2.395806,-33.64568,-60.662148,-80.767851,-95.138919,-64.473595,-94.821278,-109.100768,-113.900281,-55.914566,-89.180063,-103.670804,-107.061585,-46.169607,-76.710684,-91.545181,-96.239243,-34.732232,-59.871025,-75.138259,-83.491029,-16.441507,-29.14555,-35.196598,-39.291882,-44.979108,-58.367564,-60.578422,-61.971793,-38.621413,-49.072537,-48.512899,-49.430699,-29.443729,-38.342622,-39.680956,-41.59869,-18.441718,-22.836736,-24.087066,-26.447018,28.237986,48.421499,61.428304,71.535506,55.188682,75.254583,85.114785,88.477806,50.28159,75.879519,84.385037,86.742103,43.722747,67.651955,77.505781,81.61776,37.110622,54.290121,64.005297,69.792323,-18.403696,-34.092335,-44.025023,-51.656852,-53.515425,-66.686983,-65.316139,-61.258915,-50.026343,-57.644296,-52.902866,-48.462488,-43.519087,-49.262905,-44.864991,-40.073139,-34.622482,-40.053429,-39.902612,-39.565622,107.300508,12.201991,-106.500005,-3.437359
61,-0.364794,2.183606,0.019691,2.395806,-33.949482,-61.196405,-81.659561,-96.261052,-64.557403,-95.536872,-110.066489,-114.838956,-55.883371,-89.787335,-104.525789,-107.810156,-46.141431,-77.190053,-92.252427,-96.837429,-34.794696,-60.280209,-75.746878,-84.058271,-16.628002,-29.105479,-34.783095,-38.500676,-45.083906,-57.820694,-59.273623,-59.992793,-38.48468,-47.938628,-46.398094,-46.448908,-28.99025,-36.936503,-37.45897,-38.654075,-17.603439,-21.303385,-22.001848,-23.848493,28.421935,48.804882,62.022839,72.345676,55.705863,76.097125,86.004221,89.23805,50.695091,76.704531,85.130177,87.258597,43.964284,68.199603,78.015166,81.940954,37.181884,54.605002,64.401946,70.121443,-18.688257,-34.356948,-44.250241,-51.873897,-53.473331,-66.212419,-64.150447,-59.587812,-49.820863,-56.51534,-50.895688,-45.881392,-43.160997,-48.00499,-42.726705,-37.307039,-34.206202,-38.974252,-38.223526,-37.462875,106.751916,14.200016,-106.664112,-1.227134
62,-0.364795,2.183607,0.019691,2.395807,-34.253283,-61.730662,-82.55127,-97.383185,-64.641209,-96.252465,-111.03221,-115.777631,-55.852175,-90.394607,-105.380774,-108.558726,-46.113253,-77.66942,-92.959671,-97.435613,-34.857159,-60.689392,-76.355496,-84.625511,-16.814498,-29.06541,-34.369592,-37.709472,-45.188705,-57.273824,-57.968825,-58.013794,-38.347948,-46.804721,-44.283289,-43.467119,-28.536772,-35.530384,-35.236985,-35.709461,-16.76516,-19.770035,-19.916631,-21.249969,28.605885,49.188265,62.617375,73.155846,56.223044,76.939667,86.893658,89.998295,51.108592,77.529543,85.875317,87.775091,44.205821,68.747251,78.52455,82.264148,37.253146,54.919883,64.798595,70.450562,-18.972818,-34.621562,-44.47546,-52.090944,-53.431237,-65.737855,-62.984756,-57.91671,-49.615384,-55.386385,-48.88851,-43.300297,-42.802908,-46.747076,-40.58842,-34.54094,-33.789923,-37.895077,-36.544442,-35.360129,106.216473,16.22004,-106.815069,1.00509
63,-0.364795,2.183606,0.019691,2.395806,-34.557084,-62.264918,-83.442979,-98.505317,-64.725015,-96.968059,-111.99793,-116.716305,-55.820979,-91.001878,-106.235758,-109.307297,-46.085075,-78.148788,-93.666916,-98.033797,-34.919622,-61.098575,-76.964114,-85.192752,-17.000994,-29.025339,-33.956089,-36.918266,-45.293502,-56.726953,-56.664025,-56.034794,-38.211214,-45.670812,-42.168484,-40.485328,-28.083293,-34.124265,-33.014999,-32.764845,-15.92688,-18.236684,-17.831412,-18.651443,28.789834,49.571647,63.21191,73.966016,56.740225,77.782209,87.783095,90.758539,51.522093,78.354555,86.620457,88.291586,44.447358,69.294899,79.033934,82.587343,37.324407,55.234764,65.195243,70.779681,-19.257379,-34.886175,-44.700679,-52.307989,-53.389143,-65.263291,-61.819064,-56.245607,-49.409905,-54.257428,-46.881332,-40.719201,-42.444818,-45.489161,-38.450135,-31.774839,-33.373643,-36.8159,-34.865356,-33.257381,105.597459,18.328471,-107.049597,3.325721
64,-0.364795,2.183607,0.019692,2.395807,-34.860885,-62.799174,-84.334688,-99.627449,-64.808821,-97.683652,-112.96365,-117.65498,-55.789783,-91.60915,-107.090742,-110.055867,-46.056897,-78.628156,-94.37416,-98.631981,-34.982085,-61.507759,-77.572732,-85.759992,-17.18749,-28.985269,-33.542587,-36.127061,-45.398301,-56.180083,-55.359227,-54.055796,-38.074482,-44.536904,-40.053679,-37.503538,-27.629815,-32.718147,-30.793014,-29.820231,-15.088601,-16.703334,-15.746195,-16.052919,28.973782,49.955029,63.806445,74.776184,57.257404,78.62475,88.672531,91.518782,51.935594,79.179566,87.365595,88.808079,44.688894,69.842546,79.543317,82.910536,37.395668,55.549643,65.591891,71.1088,-19.54194,-35.150789,-44.925898,-52.525035,-53.34705,-64.788728,-60.653373,-54.574505,-49.204426,-53.128473,-44.874155,-38.138106,-42.086729,-44.231247,-36.31185,-29.00874,-32.957364,-35.736725,-33.186271,-31.154635,104.927724,20.569027,-107.334845,5.778477
65,-0.364794,2.183606,0.019691,2.395806,-35.164687,-63.333432,-85.226398,-100.749582,-64.892629,-98.399247,-113.929371,-118.593656,-55.758587,-92.216422,-107.945727,-110.804438,-46.02872,-79.107524,-95.081406,-99.230166,-35.044549,-61.916943,-78.181351,-86.327234,-17.373986,-28.945198,-33.129083,-35.335856,-45.503099,-55.633212,-54.054428,-52.076796,-37.937749,-43.402995,-37.938874,-34.521747,-27.176336,-31.312028,-28.571029,-26.875616,-14.250322,-15.169983,-13.660977,-13.454394,29.157731,50.338412,64.40098,75.586354,57.774585,79.467291,89.561968,92.279026,52.349095,80.004579,88.110735,89.324573,44.930431,70.390194,80.052701,83.23373,37.46693,55.864524,65.98854,71.437919,-19.8265,-35.415402,-45.151116,-52.74208,-53.304955,-64.314163,-59.487681,-52.903402,-48.998946,-51.999517,-42.866977,-35.55701,-41.728638,-42.973332,-34.173564,-26.24264,-32.541085,-34.657548,-31.507185,-29.051887,104.243286,22.952269,-107.634798,8.373919
66,-0.364795,2.183607,0.019691,2.395807,-35.468488,-63.867688,-86.118107,-101.871715,-64.976435,-99.11484,-114.895091,-119.53233,-55.727391,-92.823694,-108.800712,-111.553009,-46.000543,-79.586892,-95.788651,-99.828351,-35.107012,-62.326126,-78.789969,-86.894474,-17.560482,-28.905129,-32.715581,-34.544651,-45.607897,-55.086342,-52.74963,-50.097797,-37.801017,-42.269087,-35.824069,-31.539957,-26.722858,-29.90591,-26.349044,-23.931002,-13.412043,-13.636633,-11.575759,-10.855869,29.34168,50.721795,64.995516,76.396524,58.291766,80.309833,90.451405,93.03927,52.762596,80.829591,88.855875,89.841067,45.171968,70.937842,80.562085,83.556925,37.538192,56.179405,66.385189,71.767039,-20.111062,-35.680016,-45.376335,-52.959127,-53.262862,-63.8396,-58.321991,-51.2323,-48.793467,-50.870561,-40.8598,-32.975916,-41.370549,-41.715417,-32.035279,-23.476541,-32.124806,-33.578372,-29.828101,-26.949141,103.477003,25.337182,-108.016595,10.971032
67,-0.364795,2.183606,0.019691,2.395806,-35.772289,-64.401945,-87.009816,-102.993847,-65.060241,-99.830434,-115.860811,-120.471005,-55.696195,-93.430965,-109.655696,-112.301579,-45.972365,-80.06626,-96.495895,-100.426535,-35.169475,-62.735309,-79.398587,-87.461715,-17.746977,-28.865058,-32.302077,-33.753445,-45.712695,-54.539472,-51.44483,-48.118797,-37.664283,-41.135178,-33.709264,-28.558166,-26.269379,-28.499791,-24.127058,-20.986387,-12.573763,-12.103282,-9.490541,-8.257344,29.52563,51.105178,65.590051,77.206694,58.808947,81.152375,91.340842,93.799514,53.176097,81.654603,89.601015,90.357562,45.413505,71.48549,81.071469,83.880119,37.609454,56.494285,66.781837,72.096158,-20.395622,-35.944629,-45.601554,-53.176172,-53.220768,-63.365036,-57.156299,-49.561197,-48.587987,-49.741605,-38.852622,-30.39482,-41.012459,-40.457502,-29.896994,-20.710441,-31.708526,-32.499196,-28.149015,-24.846394,102.488173,27.838914,-108.620939,13.684964
68,-0.364795,2.183607,0.019691,2.395806,-36.07609,-64.936201,-87.901525,-104.115979,-65.144047,-100.546027,-116.826531,-121.409679,-55.664999,-94.038237,-110.51068,-113.050149,-45.944187,-80.545628,-97.20314,-101.024719,-35.231938,-63.144493,-80.007205,-88.028955,-17.933474,-28.824988,-31.888575,-32.962241,-45.817494,-53.992602,-50.140032,-46.139798,-37.527551,-40.001271,-31.59446,-25.576376,-25.8159,-27.093673,-21.905073,-18.041772,-11.735485,-10.569932,-7.405324,-5.65882,29.709579,51.488561,66.184587,78.016864,59.326128,81.994917,92.230279,94.559759,53.589598,82.479615,90.346155,90.874056,45.655042,72.033138,81.580853,84.203313,37.680716,56.809166,67.178486,72.425277,-20.680183,-36.209242,-45.826772,-53.393217,-53.178673,-62.890472,-55.990607,-47.890094,-48.382507,-48.612649,-36.845444,-27.813724,-40.654369,-39.199587,-27.758708,-17.944341,-31.292246,-31.420019,-26.469929,-22.743646,101.257066,30.50176,-109.46756,16.560009
69,0.169533,7.119764,1.629931,4.541211,-35.786374,-64.822519,-87.879816,-104.416487,-65.315634,-101.791432,-118.052883,-122.379762,-56.119184,-95.386985,-111.982777,-114.445412,-46.487659,-81.866794,-98.802206,-102.765252,-35.768214,-63.910091,-80.876424,-89.121797,-17.939644,-28.057599,-30.132764,-29.88803,-43.878105,-49.594101,-44.187184,-39.238906,-35.343339,-35.533165,-25.853311,-18.970581,-23.401753,-22.909048,-16.513409,-11.875617,-9.055917,-6.678166,-2.751687,-0.497148,30.433188,51.745713,65.390573,76.036234,59.164051,80.798207,90.043028,92.04311,52.526519,79.65681,86.831903,87.002903,43.888848,68.442833,76.878321,78.423027,35.199105,52.79366,61.880612,65.70533,-18.579539,-34.263256,-44.377928,-51.365514,-51.994743,-62.667099,-56.307173,-48.707857,-48.275249,-50.951672,-39.644075,-30.461256,-41.521389,-41.950108,-30.649499,-20.746891,-33.038402,-34.278667,-28.74124,-24.124683,100.482811,38.168478,-108.781417,21.648174
70,0.703861,12.055921,0.176678,10.452677,-34.903142,-64.060897,-86.944688,-103.89537,-65.575003,-103.566648,-119.539867,-123.381254,-57.058749,-97.477209,-114.071986,-116.487366,-47.602779,-84.029759,-101.293093,-105.648135,-36.778303,-65.032105,-82.006244,-90.740241,-17.765489,-26.562891,-27.034646,-24.530813,-39.894528,-41.343969,-33.586285,-27.416122,-31.111647,-27.73086,-16.485818,-8.740781,-19.026938,-15.945917,-7.952067,-2.487921,-4.53506,-0.427983,4.470369,7.227672,30.245519,51.852651,65.399646,75.134145,60.060761,82.796271,90.859702,91.913954,53.146805,80.694673,86.838035,85.898596,44.15605,68.787323,75.886083,75.997466,34.813006,52.282805,60.117963,62.56317,-18.372397,-34.356329,-44.894113,-51.660405,-50.496826,-60.801134,-54.361965,-47.160338,-46.736834,-50.385789,-39.622903,-30.605237,-39.936403,-41.173154,-30.560815,-21.180673,-31.291706,-32.945009,-27.574396,-22.88479,100.268346,50.701155,-109.523065,32.577607
71,1.561266,15.822118,-1.276574,16.364142,-33.543317,-62.593989,-84.987354,-101.618652,-66.334973,-103.970737,-120.430428,-126.219881,-58.374152,-98.442229,-116.000325,-120.823824,-48.950632,-85.194734,-103.392512,-110.43528,-38.3541,-65.72152,-82.8335,-93.572122,-18.479198,-26.617511,-26.64267,-23.671853,-35.587631,-33.139064,-23.391855,-15.800879,-26.010913,-19.628409,-7.264101,1.523873,-13.396085,-8.053918,1.446243,8.22614,1.270048,7.222397,13.519923,17.443836,29.146572,51.809371,66.211805,75.310596,62.016256,87.989108,94.680302,94.172291,55.450454,85.593205,90.364549,87.561134,46.456648,73.066609,78.604138,76.926628,36.522419,55.276601,61.890537,62.998796,-20.058757,-36.488458,-47.375324,-54.277891,-48.684922,-57.292575,-50.154984,-43.247536,-43.76726,-46.915,-36.781928,-28.245664,-35.899407,-36.868725,-27.492656,-19.245684,-26.052157,-27.419046,-22.969396,-19.023966,100.864961,67.034351,-111.76429,49.452827
72,2.221169,19.838182,-1.828272,19.423101,-32.039806,-61.430157,-83.326218,-99.423843,-68.863667,-104.97674,-121.423502,-129.066067,-61.292427,-99.597279,-118.004116,-125.617813,-51.700664,-86.794659,-105.718054,-115.32177,-40.895073,-67.222401,-84.229363,-96.55941,-18.712301,-26.191761,-26.017177,-23.06347,-29.603215,-22.387612,-11.161128,-2.476686,-19.546383,-9.514757,3.736206,13.827912,-7.310017,0.841106,11.795703,20.100951,6.177906,14.20709,22.038762,27.709077,29.008141,52.884682,68.463192,76.784523,63.624727,92.532967,99.355305,98.61997,56.61319,89.044848,94.761784,92.003357,47.219181,76.278837,82.715761,81.204889,36.726631,57.13868,64.146246,65.20384,-21.304321,-37.766725,-48.86387,-56.374588,-46.924453,-52.575248,-44.139957,-36.698785,-40.262293,-42.081405,-31.660477,-23.449623,-30.635871,-30.944206,-22.30424,-15.428547,-18.784957,-19.820628,-15.972389,-13.079978,102.274012,87.315962,-114.40468,69.319357
73,-1.184692,26.186423,-1.541931,22.447559,-30.963421,-60.929673,-82.685978,-97.995884,-70.741597,-105.829726,-121.210236,-128.999291,-63.335473,-100.254004,-118.178753,-126.606354,-53.427075,-87.512833,-106.305142,-116.809805,-42.305535,-67.565919,-84.05139,-96.995511,-17.40816,-22.683813,-20.711412,-16.226418,-22.106005,-11.890968,-0.806343,7.636074,-12.045233,-0.166775,12.313783,21.88066,-0.504541,9.172101,20.077162,28.24446,11.372104,20.911808,29.328522,35.482948,29.848469,55.093128,71.560066,79.363827,64.899199,95.334068,103.14933,104.388422,56.956604,89.944788,97.669453,97.534733,46.897007,76.867544,85.158205,86.0249,35.640129,56.675171,64.525091,67.064386,-21.770506,-37.489175,-48.3583,-55.886691,-41.944585,-43.869045,-34.602266,-26.902731,-33.674302,-33.733787,-23.218281,-15.442398,-22.872164,-22.113687,-14.166313,-8.58549,-10.094611,-9.68068,-6.124495,-4.1225,100.624592,113.737664,-116.411339,92.002195
74,-5.124882,27.598507,-2.241783,23.160468,-30.907677,-61.740475,-83.980053,-98.156399,-71.880982,-105.999882,-119.529997,-125.988144,-64.017906,-99.670927,-115.907124,-123.142754,-53.558212,-86.507458,-104.261954,-113.757036,-42.111672,-66.395657,-82.038981,-94.35482,-14.747101,-16.820985,-12.067682,-5.443703,-15.140188,-5.500764,3.024449,9.615509,-5.554944,5.081336,14.842286,22.058112,5.059674,14.160561,23.120941,29.435125,15.011352,24.978134,32.820782,38.2023,30.351539,56.832447,75.417618,85.004459,66.098219,98.212875,107.952335,111.890413,57.398002,91.213194,101.263641,104.749489,46.235618,77.118707,87.892198,92.581999,33.865253,54.588089,63.761965,68.984625,-22.807796,-36.447897,-46.58121,-54.863475,-35.88259,-32.908088,-21.941098,-13.114228,-25.464567,-19.996414,-8.612914,-0.798127,-13.277046,-7.920991,0.550477,5.690205,0.256233,4.76581,8.585434,9.773028,95.207239,141.455074,-118.945593,115.281566
75,-6.617455,26.198174,1.408115,23.830784,-28.777656,-59.851456,-82.887514,-96.895557,-73.472803,-105.026361,-115.910808,-120.470615,-66.639312,-100.09782,-112.359295,-116.653513,-56.821312,-87.771326,-101.604681,-107.761121,-45.997266,-69.152824,-82.16839,-91.570375,-8.520973,-6.91746,-0.514044,6.739721,-6.28077,1.25488,7.046346,11.726045,0.078775,7.660472,15.115278,20.433347,7.041702,13.605339,20.708458,25.723493,12.691186,20.523096,27.378398,32.442703,30.664021,57.453352,77.02109,87.852339,67.403298,99.241139,109.273608,114.084263,58.548758,91.587342,102.058869,106.695391,46.895016,77.407179,88.660189,94.632803,33.817337,54.1791,63.60668,69.583981,-22.694975,-34.228303,-43.218373,-51.328101,-29.202949,-21.291116,-9.010219,0.365013,-17.006552,-5.857774,6.695677,14.381683,-3.654359,6.569126,16.310426,21.414833,10.423049,18.949046,23.952281,25.144212,88.358013,167.72922,-117.769249,139.188322
76,-8.433105,25.967802,5.058014,24.5011,-24.456436,-55.319962,-79.517149,-95.147335,-75.104239,-104.810103,-111.209725,-110.640976,-71.309235,-103.401363,-108.313248,-105.49082,-63.55529,-93.144224,-99.616614,-98.060148,-53.870424,-76.626435,-85.002783,-87.95434,2.338411,9.30341,17.997951,27.105118,6.193116,12.27282,16.313866,19.097118,6.034362,10.604682,16.904879,20.595516,6.146173,9.35607,15.172422,19.004739,4.968642,8.504909,13.742289,18.275961,30.785912,56.955843,76.370482,87.907465,68.814434,98.418858,107.113146,110.969971,60.408869,91.06723,100.055134,103.372438,48.875198,77.732958,87.462175,92.177313,35.49638,55.448204,64.059237,68.862454,-21.432043,-30.830394,-38.269787,-45.280568,-21.905662,-9.018129,4.19037,13.534992,-8.300256,8.682132,22.707491,30.097033,5.995897,21.356664,33.113535,38.588394,20.405837,32.869028,39.976043,41.991052,79.911347,193.727394,-112.724796,163.719794
77,-9.951233,24.556768,4.096928,22.800191,-19.711029,-50.303055,-75.872869,-93.200203,-74.382414,-102.453455,-104.384388,-98.901009,-73.884853,-103.587318,-100.010822,-89.431086,-68.56216,-95.128,-93.566591,-84.447058,-60.809126,-81.566872,-84.370897,-81.017046,12.640337,25.021755,36.120444,48.293272,15.776434,18.382147,21.853138,24.49482,9.948658,10.149989,15.930828,18.690368,4.660606,3.546814,8.454212,11.408698,-1.443076,-2.160647,1.783494,5.427985,30.821537,57.160497,76.814112,89.73551,67.80122,96.114166,105.630152,111.283825,58.953981,87.991916,98.286506,103.935396,47.181347,74.539495,85.242307,91.897493,33.686657,53.407528,62.473291,68.527244,-19.409612,-26.905618,-32.554175,-37.263654,-13.466462,2.594184,15.003306,23.382911,0.563787,20.353121,33.797112,40.740581,14.529489,32.601303,44.461248,50.106612,27.549384,42.641154,50.465969,53.32308,70.056061,218.222238,-108.531921,186.458061
78,-5.884209,20.589607,3.263729,22.493538,-15.905079,-45.852527,-72.107254,-91.284925,-74.74958,-101.511509,-99.883999,-90.841593,-77.306648,-105.015043,-94.433,-77.909672,-74.351595,-98.633966,-89.959499,-74.762335,-68.357065,-87.814275,-85.46854,-76.612461,21.86574,38.244086,50.314025,63.360535,25.312019,26.880738,30.921704,33.746069,14.306453,12.541515,18.916115,21.492348,3.748139,0.43011,5.607931,8.478585,-7.108566,-10.421025,-6.880268,-3.420893,30.484966,56.495538,76.541296,90.82493,66.870975,94.515564,104.015196,109.585556,58.157678,86.910107,97.50396,103.481764,46.749172,73.48459,84.289472,91.070394,33.608002,53.501827,62.599623,68.838547,-18.100768,-23.996908,-27.824735,-31.53876,-6.890691,10.223893,21.941793,30.114176,7.348046,28.670988,41.481037,48.802851,21.011443,40.912439,52.834419,59.16546,33.324654,50.087526,58.532796,62.484285,64.28762,238.713008,-105.152424,208.852762
79,-1.817184,16.622445,2.929321,21.728488,-13.038586,-41.96838,-68.220303,-89.401503,-76.205738,-101.984265,-97.708557,-86.462729,-81.57462,-107.684538,-91.579783,-70.926579,-80.923594,-103.662123,-88.795338,-69.00598,-76.514242,-95.368647,-88.295712,-74.740586,30.014621,48.970405,60.578698,72.30691,34.799871,37.768596,43.519566,46.850865,19.107745,17.779259,25.860739,29.001458,3.408771,0.005959,6.633581,10.214401,-12.027826,-16.276223,-12.248997,-8.270671,29.396278,55.917383,76.325667,91.386469,65.9893,94.247235,104.591555,110.352184,58.018999,88.371975,100.046139,105.88769,47.893112,76.269682,88.109018,94.867132,35.998764,58.990734,69.303846,76.159481,-18.126481,-23.27202,-25.097874,-27.483234,-1.83973,16.643465,28.298442,36.667253,13.475256,35.762579,48.729893,56.482034,27.807162,48.638268,60.729246,67.773788,40.274786,57.36533,65.957085,70.72221,62.559265,255.22273,-102.134274,230.468527
80,0.821983,12.800064,-0.05785,17.260642,-16.632763,-46.263462,-71.938482,-92.483328,-76.052393,-101.726538,-99.500227,-90.685827,-80.364429,-106.542435,-94.554136,-78.546015,-79.16894,-102.425972,-91.827427,-77.15391,-74.138557,-93.168691,-88.390915,-78.445547,24.903978,42.175877,53.533173,64.484139,36.700054,40.606855,44.709805,46.658043,25.25225,25.224302,30.886673,32.124126,12.834199,11.361816,17.05295,19.472443,-0.121124,-1.348265,3.383688,7.570891,30.841667,58.265064,79.406903,94.714463,69.006615,99.562741,109.292233,112.792614,61.130688,94.264286,104.957691,108.267472,51.377415,82.456696,93.266556,97.598591,40.036137,66.020645,76.444062,82.022084,-17.752305,-21.900413,-21.87512,-21.973859,4.974762,26.108581,35.344096,41.163134,21.064758,44.826588,54.311982,59.165454,35.069924,57.117686,66.614381,71.484451,46.551647,64.994482,72.142611,75.476356,63.420536,267.85198,-102.152836,247.558355
81,1.791435,10.480243,-3.707874,10.688811,-21.283367,-51.681781,-76.836668,-96.287035,-74.511365,-100.061102,-101.65365,-97.704626,-76.474857,-102.106441,-97.013494,-88.77186,-74.0375,-97.334804,-93.46487,-86.55586,-67.973774,-87.109045,-86.48077,-82.597704,15.384843,28.28238,37.392653,45.566839,33.62129,38.434228,42.029602,43.539832,29.214218,31.345781,35.588114,35.954702,23.028525,25.064171,30.039272,31.502868,15.44208,19.170471,24.733596,28.717134,33.805332,62.992241,85.626881,102.488251,69.348392,101.943855,115.309914,122.287571,59.876141,95.265701,111.029182,119.182514,49.47385,82.336967,97.662666,105.956211,38.499687,64.974735,77.976883,86.397423,-15.657397,-18.288372,-16.455669,-15.500255,10.83863,31.505122,39.262394,44.708077,27.316011,49.207261,56.687706,60.669681,40.440666,61.20507,68.443663,71.598331,50.253572,67.961973,73.594944,75.792752,65.086555,278.147547,-105.986126,258.06249
82,2.134232,8.608452,-1.353195,9.497411,-26.220463,-56.510502,-80.830336,-99.416971,-74.931742,-99.051001,-98.417605,-93.097372,-74.216709,-99.216408,-95.339544,-88.093374,-70.190546,-94.301834,-92.473377,-87.522669,-62.889267,-84.148516,-87.763229,-88.47072,5.815221,13.750198,20.824005,25.431536,28.992331,37.554346,41.451359,42.494151,31.13867,37.336929,41.22195,40.881298,30.905519,37.007787,41.520192,42.092853,28.720036,36.670476,42.85281,47.064429,35.895824,65.744682,89.351166,107.318184,71.603531,104.777595,118.488144,125.820362,62.127273,98.604378,114.575935,123.124111,51.932453,85.023548,100.2407,108.458507,41.310299,66.919143,79.763878,87.887581,-14.071511,-15.309088,-11.598012,-10.234118,16.038274,35.93711,43.49683,48.982885,32.879168,54.54782,61.733246,65.622706,45.501396,66.434354,73.340014,75.932654,54.548178,72.615126,77.909445,79.42611,67.002073,286.611688,-107.558035,267.41559
83,0.495872,6.072418,0.662658,7.169285,-29.334343,-59.297504,-82.367088,-99.689392,-74.155517,-95.398326,-92.901672,-86.792461,-71.64822,-94.299499,-90.800331,-83.903251,-66.514835,-89.290844,-88.266048,-84.330642,-58.531208,-80.888134,-89.005039,-94.558513,-2.832504,1.257436,7.459536,10.43782,23.790556,35.636805,40.04839,41.1854,31.086923,40.946957,45.106243,45.274834,35.739261,45.424332,50.191933,51.222127,38.36973,49.070212,55.805836,61.096524,36.361153,66.819466,91.279221,110.031201,73.261162,107.804478,121.717679,128.97218,63.681164,101.814366,117.926857,126.313237,53.337903,87.732136,102.843316,110.766324,42.854737,68.852383,81.551629,89.035813,-12.700763,-13.004044,-7.965309,-5.494317,19.213171,39.700982,47.359787,52.467979,36.763528,58.677081,65.590534,68.677474,49.422794,70.56432,77.019214,78.682511,58.003977,75.674228,80.211278,80.675308,67.159195,292.601496,-107.234127,274.502265
84,-0.528762,3.420664,1.224839,5.429639,-30.132637,-59.898938,-82.044114,-98.369133,-72.340016,-89.723328,-85.286168,-78.848465,-68.736466,-87.29076,-83.604401,-77.056023,-62.834038,-82.166302,-80.575413,-77.04467,-54.481934,-75.724045,-86.104351,-94.34063,-6.336321,-4.154518,1.978001,5.258171,19.463606,33.833853,39.112946,40.945105,29.328531,42.240023,47.029669,48.357353,36.660096,48.95259,54.407312,56.727683,42.101023,54.299311,61.787265,68.430868,37.106907,67.889888,92.999565,112.048725,75.216167,110.908699,124.374904,130.83633,65.653862,105.194412,120.999424,128.961124,55.262787,90.5293,105.054931,112.456135,44.83612,70.570312,82.62418,89.152427,-11.80485,-11.632703,-5.61331,-2.752401,21.296124,41.938213,49.149389,53.471522,39.282574,61.292471,67.437749,69.486998,51.933949,73.208263,78.72896,79.01994,60.351259,78.020189,81.626265,80.630354,66.224705,295.957016,-106.415016,279.86676
85,-2.932915,4.23467,3.071788,3.684536,-26.701515,-54.829491,-76.198403,-92.98185,-72.247879,-84.24559,-73.755215,-63.051361,-69.507156,-80.934494,-69.410969,-56.155827,-64.103233,-76.344612,-66.060265,-55.167446,-56.250847,-73.810352,-79.90955,-83.638367,1.703373,5.619312,11.631382,15.79662,19.874531,36.327805,44.790612,49.103175,24.959653,39.631798,48.200272,52.977222,28.368189,41.788147,49.69667,54.789227,31.010872,42.373318,50.156624,57.694003,36.218445,66.914166,92.341427,112.386017,71.880925,106.820584,123.165505,133.909081,61.829052,100.81548,120.636567,133.912583,51.345772,85.604805,103.801026,116.002305,41.06987,65.245022,78.952687,88.61895,-10.769407,-10.308268,-3.535594,-1.945422,20.425826,38.141266,46.792425,53.501619,38.274659,57.605391,66.07241,70.760674,50.92081,70.213035,77.161265,79.118469,59.276963,75.054625,79.097746,78.921596,62.84162,300.169824,-103.793398,283.529434
86,-3.97419,2.667198,5.130215,3.865576,-24.048843,-50.956718,-71.329307,-88.048702,-72.682079,-79.682957,-62.313789,-45.79422,-70.187336,-74.805073,-54.871731,-33.516472,-64.415657,-69.540447,-50.881485,-32.252769,-56.272774,-69.377483,-70.611271,-69.229431,10.842508,18.657714,27.040493,34.573512,22.133756,40.468985,50.018167,55.327937,21.983122,38.016184,48.355957,54.768886,20.774518,34.800396,44.416664,51.34133,19.700382,30.152714,38.271708,46.66948,34.604496,64.417271,89.615788,109.77554,69.479462,103.722542,120.550266,132.217289,59.54377,97.90725,118.071659,132.471188,49.250702,83.024174,101.668968,115.021145,39.152138,63.376751,77.449688,88.192635,-10.799801,-10.362262,-3.333583,-2.295707,19.530495,35.904567,44.544845,51.687244,36.862798,54.775493,63.462356,68.996218,49.241569,67.266527,74.700684,77.831232,57.440493,72.57479,76.777424,77.151187,58.467504,302.836679,-99.063109,287.394667
87,-4.318657,2.028909,4.43771,3.478302,-21.603035,-47.259155,-66.32127,-82.708637,-70.984955,-74.506325,-56.627586,-40.675072,-68.74189,-68.22203,-47.009537,-24.952743,-62.52816,-61.685039,-40.432686,-20.246223,-53.750198,-62.174194,-60.33118,-56.378769,19.62559,31.644147,42.212396,52.697097,26.90027,45.157483,53.906282,58.679737,21.579595,37.547931,47.866746,54.635628,15.606836,29.822917,40.157701,48.101335,10.226856,19.998636,28.013581,36.594689,32.860909,61.834087,86.473846,106.48391,67.571022,101.930065,118.897774,130.513184,57.866524,96.200615,116.477806,130.955795,47.676212,81.737022,100.473827,113.87693,37.562359,62.578789,76.757423,87.916534,-11.636124,-11.286592,-4.259963,-3.611176,17.992144,33.87372,42.187709,49.251005,35.272515,52.169527,60.27969,65.631191,47.584534,64.700439,71.887755,75.175335,55.65099,70.240143,74.387856,74.942894,53.8108,304.876935,-94.963446,290.884316
88,-4.672989,2.735704,3.034813,2.611721,-18.488685,-42.299034,-60.309768,-76.41505,-68.746673,-67.780941,-48.429737,-32.47776,-66.973056,-60.732662,-38.574142,-16.74559,-60.424427,-54.132202,-31.263176,-10.695305,-50.977443,-54.715564,-49.733596,-43.457107,23.558597,37.181046,48.408049,60.34869,28.229262,46.295197,53.972614,58.2791,21.210389,36.315454,45.656167,52.036578,13.480769,27.068441,36.917496,44.772,6.216537,15.944067,23.536935,31.545753,31.907249,60.342728,84.666664,104.607353,66.308235,100.58931,117.763412,129.494202,56.951855,94.896343,115.286499,129.881103,46.920513,80.768978,99.510292,112.815308,36.727341,61.785301,76.017963,87.466942,-12.301373,-12.06335,-4.891843,-4.484376,16.98991,32.093974,39.913812,46.582967,34.219658,50.257142,57.89195,62.974602,46.440633,62.880112,69.731628,72.779407,54.476387,68.937296,73.107672,73.714419,48.896393,307.615353,-92.170051,293.498751
89,-6.266098,0.549331,2.139645,1.667422,-16.56459,-38.70702,-56.25777,-72.461631,-65.166057,-60.399845,-39.931057,-23.715843,-64.286407,-53.284801,-30.498504,-9.141426,-58.258266,-47.999622,-24.492141,-4.14981,-49.425625,-51.902904,-47.03857,-40.782119,23.726139,37.632912,49.017564,61.427556,29.145651,46.693995,53.49022,57.722371,22.186096,36.423715,44.956177,50.941879,14.09594,27.201588,36.202871,43.616391,6.462391,16.262255,23.776712,31.936844,31.104034,59.159088,83.329536,103.237964,65.132686,99.394466,116.704685,128.527668,56.001056,93.711078,114.260021,128.931324,46.071075,79.871063,98.687656,111.835544,35.886646,61.364215,75.901336,87.748477,-12.991916,-12.629318,-5.07045,-4.369348,16.562165,31.263554,38.693537,44.954819,33.797754,49.145004,56.320896,60.9884,45.810346,61.731529,68.219274,70.898489,53.635828,67.977904,72.154084,72.81206,42.458954,308.155523,-90.201747,295.157012
90,-7.110832,1.779116,1.221244,0.796222,-12.49839,-31.493351,-47.842632,-62.988819,-59.029118,-50.270771,-29.458591,-13.81057,-59.034496,-44.507515,-21.679413,-1.180092,-53.544502,-40.759872,-17.529556,2.037026,-45.387451,-46.988136,-43.724911,-39.382931,17.365117,28.827402,38.696908,48.962457,24.996147,42.742388,48.735092,52.430249,21.344475,35.256941,42.559446,47.537468,16.190933,29.20797,36.935725,43.296203,11.164734,21.427257,29.316453,37.758055,30.4338,58.235344,82.299752,102.245556,63.865517,98.13271,115.564259,127.406697,54.855698,92.498165,113.206501,127.941662,45.04366,78.904324,97.839283,110.924893,35.053185,60.892559,75.602085,87.614113,-13.387106,-12.888595,-5.140413,-3.888201,16.411222,30.98038,38.105204,43.877694,33.733707,48.811552,55.712716,59.993378,45.660354,61.376217,67.563818,69.829021,53.396199,67.78654,71.916506,72.479435,35.223392,309.910627,-89.105233,295.929222
91,-3.144699,1.415122,0.837799,0.170271,-10.502884,-27.071377,-43.158909,-58.847672,-54.9104,-43.597263,-22.29158,-6.925163,-56.973873,-39.819283,-17.011848,2.963562,-53.308468,-39.742504,-16.503021,2.476181,-47.163528,-52.213966,-52.405746,-51.111591,8.069383,15.269802,23.929569,32.898569,19.086669,37.195694,42.741165,46.370286,20.966018,34.256337,40.45451,44.355802,20.280552,32.661028,38.344474,42.878733,19.383825,29.625266,37.010122,44.836134,29.89682,57.449753,81.344101,101.200001,62.770649,97.044606,114.567296,126.519047,53.832425,91.425328,112.226223,127.0845,44.038205,77.791638,96.780568,109.991948,34.070744,59.82803,74.581021,86.652203,-13.674666,-13.192321,-5.240177,-3.561344,16.116709,30.678111,37.67736,43.145161,33.563275,48.60717,55.480386,59.509551,45.474041,61.208169,67.300539,69.252445,53.148098,67.710105,71.806084,72.097978,31.990677,311.296711,-88.35545,296.070455
92,-8.943832,3.155372,0.93924,-0.060133,-6.151749,-18.438755,-32.231873,-46.314526,-45.20715,-29.96109,-8.756791,5.898285,-50.248055,-29.406544,-6.841668,12.568885,-49.390137,-33.769101,-10.667611,7.724716,-45.905503,-52.430912,-54.899437,-55.682843,-2.165427,0.269639,6.503776,13.5266,10.827453,28.798268,34.718342,38.525279,18.549787,31.731832,37.150838,39.96972,22.567997,34.549504,38.505988,41.492831,25.803879,35.979865,42.64481,49.44395,29.310448,56.593048,80.451073,100.415989,61.685383,95.933247,113.617069,125.812672,52.87587,90.507008,111.472446,126.39909,43.197922,77.062408,96.201519,109.569843,33.401356,59.217625,74.158298,86.418995,-13.791497,-13.309227,-5.355193,-3.448451,16.045573,30.546805,37.502532,42.775622,33.588841,48.534873,55.411658,59.236504,45.476919,61.239428,67.163886,68.874384,53.062203,67.701238,71.674827,71.763587,22.984051,314.395795,-87.479004,295.954034
93,-11.654183,3.733319,1.067345,-0.092576,-2.878452,-11.458763,-22.739376,-33.924442,-33.166649,-14.295147,6.341446,20.023613,-39.636429,-16.505894,5.188133,23.297905,-40.909572,-23.925796,-1.623253,15.605759,-39.672649,-47.276207,-51.657245,-54.345508,-7.745293,-8.907781,-6.358119,-2.395163,4.418217,21.140735,28.313403,33.192365,14.771192,28.336177,34.161291,37.219159,21.369458,33.530424,37.141279,39.710467,26.771928,36.426284,43.165341,49.544146,28.911644,55.944431,79.757,99.798671,60.496376,94.901928,112.811771,125.263698,51.7038,89.580333,110.744419,125.713245,42.147022,76.252876,95.581272,109.129863,32.6021,58.679226,73.826133,86.242183,-13.869883,-13.413955,-5.509742,-3.473485,16.134901,30.740491,37.755968,43.02208,33.802645,48.663054,55.487759,59.101603,45.709396,61.504695,67.280791,68.807064,53.164968,67.899086,71.746346,71.61383,11.281162,318.061593,-86.460365,295.793937
94,1.847626,2.075036,1.070583,0.018649,-2.286793,-10.171635,-21.399777,-32.763462,-33.84264,-13.944054,6.648193,19.978432,-40.624466,-17.592842,3.905067,22.080551,-42.057724,-25.721134,-4.020699,12.626083,-40.919129,-50.183601,-56.151455,-60.883793,-14.535022,-19.008321,-17.84419,-14.649532,-0.136938,16.424214,23.240459,28.055213,13.920803,26.619293,31.794324,34.550615,23.703908,34.897702,37.32122,38.957791,31.975956,41.121674,47.286465,52.927142,28.568859,55.381954,79.176041,99.367104,59.420528,94.020813,112.055534,124.66246,50.663315,88.825218,110.083511,124.983055,41.241302,75.7015,95.13961,108.765358,31.982368,58.335171,73.632236,86.167122,-13.925262,-13.600726,-5.846826,-3.657403,15.963729,30.640418,37.749015,43.006457,33.717676,48.535144,55.437926,59.006186,45.694885,61.4764,67.199169,68.67924,53.121767,67.94052,71.724561,71.489971,13.086554,320.063606,-85.432016,295.739563
95,-2.406189,1.829615,0.845329,0.097899,-1.143025,-7.579914,-17.338566,-27.942238,-30.078873,-9.538719,10.839546,23.866722,-38.368298,-14.42561,6.936493,25.245506,-41.369373,-24.86166,-3.412994,12.855698,-41.484364,-52.598511,-59.959259,-66.026596,-18.264475,-25.248879,-25.515036,-23.763732,-3.814459,12.682028,20.107046,25.373355,12.586031,25.64665,30.850247,33.455447,23.822531,34.878831,36.904998,38.228297,33.17142,41.553557,46.934957,51.968764,28.39777,54.992558,78.81752,99.167336,58.536301,93.215309,111.406357,124.212616,49.921223,88.219231,109.650101,124.5439,40.692044,75.454376,95.067604,108.784447,31.701771,58.365418,73.790669,86.42545,-14.001165,-13.780568,-6.130013,-3.910098,15.578258,30.414931,37.670727,43.014312,33.378012,48.20005,55.187022,58.758864,45.493257,61.223656,66.889368,68.340638,53.050767,67.910065,71.623957,71.317872,10.64558,321.8125,-84.621472,295.756741
96,-11.039864,3.946704,0.817852,-0.022193,2.158093,-0.558712,-5.509803,-10.63837,-19.131054,3.837948,23.714974,36.080246,-27.350589,-2.481044,17.857361,35.105988,-31.176933,-13.436885,6.750069,22.049652,-31.902797,-40.711486,-47.768463,-53.882103,-18.707769,-27.238453,-30.800649,-32.468318,-7.59167,7.279027,15.755333,21.916505,8.579589,22.113526,27.803221,31.205039,20.087087,31.611135,34.451975,36.742841,29.282761,37.579794,43.371772,48.808513,28.262226,54.649075,78.426579,98.784977,57.95081,92.534489,110.811276,123.744038,49.390904,87.604328,109.114025,123.992054,40.209687,75.002735,94.732556,108.503849,31.306206,58.114872,73.606236,86.241268,-14.025223,-13.811357,-6.150107,-3.781213,15.445778,30.350414,37.669221,43.045582,33.234689,48.070633,55.152479,58.733744,45.385033,61.08946,66.792876,68.277393,52.985249,67.801829,71.532257,71.259852,-0.429634,325.663806,-83.83897,295.63915
97,-3.338859,0.850772,0.632378,0.158278,2.099705,-0.547222,-4.660938,-8.557183,-17.086338,7.187519,26.991943,39.359047,-23.708382,1.718181,21.91777,38.594261,-26.609825,-7.532318,12.202125,27.045433,-26.356144,-33.493893,-39.711628,-44.667286,-16.551716,-24.930457,-28.692082,-29.421737,-7.215029,7.214881,15.768289,21.816346,7.256921,21.082332,27.225658,31.302087,17.644575,29.990298,33.382754,35.952387,25.800644,34.772991,41.351299,47.471308,28.037796,54.299446,78.076023,98.347835,57.463714,92.0461,110.370197,123.431522,48.965,87.191563,108.772556,123.676357,39.815575,74.748207,94.58028,108.396229,30.935039,57.938553,73.504051,86.214901,-14.12059,-14.118194,-6.571763,-4.167448,14.988369,29.872145,37.212132,42.606229,32.748195,47.583793,54.733898,58.373171,45.000786,60.561211,66.295873,67.791715,52.734309,67.429462,71.193829,70.951631,-3.817331,326.396255,-83.25543,295.679105
98,11.584648,-3.943332,0.458725,0.087143,0.210503,-5.388382,-12.496342,-19.520863,-27.601936,-6.303932,13.797913,27.072212,-34.413975,-11.090286,9.872131,28.174095,-36.738945,-19.636047,0.857941,16.892235,-36.005379,-45.361805,-51.9608,-56.69624,-16.407443,-24.647417,-26.777671,-26.158166,-4.143218,11.791105,19.059993,24.028654,11.022486,24.348175,29.295544,32.592744,21.366087,33.06085,35.414998,37.386676,29.761216,39.043229,45.694033,52.427001,27.806511,53.97036,77.725582,97.873112,57.150398,91.582111,109.969196,123.119671,48.74239,86.775066,108.436191,123.430149,39.587688,74.455295,94.384037,108.287716,30.665382,57.687881,73.331177,86.176563,-14.125642,-14.243931,-6.847071,-4.41886,14.547322,29.472841,36.76969,42.047658,32.158367,47.077093,54.301422,57.963815,44.432928,59.947979,65.781466,67.33602,52.319444,67.002939,70.872504,70.735986,7.701782,322.329308,-82.86224,295.642633
99,-7.05661,0.377777,0.341675,0.087438,2.412437,-0.803341,-5.666004,-10.269608,-21.568222,1.724945,21.316154,33.869751,-28.935105,-2.842621,17.826576,35.632644,-31.832291,-11.741924,8.895584,24.656708,-31.553192,-38.335613,-43.997429,-48.165562,-17.384273,-25.204555,-27.507586,-27.691157,-5.107266,10.742497,18.270563,23.229257,10.269069,24.055885,29.255147,32.806302,20.627935,32.687049,35.318778,37.728168,28.815348,38.319564,45.438003,52.627406,27.53033,53.585987,77.303054,97.30402,56.941486,91.142017,109.641002,122.961216,48.646385,86.389125,108.133426,123.260913,39.50235,74.17448,94.160099,108.167026,30.498447,57.528648,73.215076,86.150951,-14.069337,-14.342966,-7.026727,-4.490601,14.234829,29.044788,36.282381,41.488892,31.734599,46.609779,53.855585,57.525313,44.045223,59.41285,65.289526,66.862679,52.088387,66.656655,70.546524,70.431952,0.580187,322.56723,-82.58555,295.590216
100,-3.686314,0.308357,0.445758,0.023428,2.2981,-0.135876,-3.45504,-6.282051,-18.20002,6.448986,25.795178,37.695362,-24.938244,1.510929,21.865528,39.022946,-27.671551,-6.697517,13.506489,29.07803,-27.39584,-32.732632,-37.630691,-40.883068,-15.557943,-21.401014,-22.229371,-20.899193,-4.050506,10.131526,17.737213,23.411767,9.692085,22.59697,28.62444,33.162564,19.4785,31.187169,34.738126,37.781075,27.521417,37.088964,44.556293,51.82843,27.152928,53.163804,76.849686,96.670533,56.77311,90.870553,109.422043,122.778214,48.425606,86.041008,107.785355,122.939255,39.168801,73.772622,93.743729,107.758484,30.048489,57.164544,72.860104,85.756875,-14.051924,-14.492908,-7.186723,-4.497801,14.001548,28.776656,35.977989,41.108312,31.498737,46.383279,53.666246,57.339827,43.83684,59.110273,65.005956,66.577467,51.917289,66.296712,70.183876,70.080222,-3.177223,322.727744,-82.210888,295.465801
101,11.781029,-4.478943,0.242707,0.153574,-1.877232,-8.91917,-17.129139,-24.616814,-31.079327,-8.622322,11.459507,24.418728,-36.798843,-11.535748,9.929615,28.585018,-37.837406,-18.145409,3.28973,20.351177,-36.25985,-43.647938,-48.976959,-51.970173,-13.730995,-16.674859,-12.815545,-6.406358,0.105618,15.595042,21.978923,26.736595,13.355811,25.685813,31.134088,35.212049,22.483103,33.470872,36.2324,38.723807,30.441607,40.293317,47.670873,55.202299,26.804065,52.834694,76.562015,96.30883,56.501598,90.679298,109.312797,122.729713,48.157253,85.899376,107.706115,122.881874,38.926529,73.73648,93.767921,107.834381,29.868507,57.247158,72.986927,85.898666,-14.125864,-14.782987,-7.519422,-4.699355,13.702947,28.474251,35.65733,40.756704,31.249043,46.1055,53.365558,57.061764,43.648501,58.777203,64.576901,66.115882,51.733902,65.898273,69.713843,69.610115,8.517019,318.096753,-82.054968,295.467327
102,5.181473,-1.16029,0.238426,-0.070964,-1.728779,-8.903012,-17.904305,-25.984967,-34.230938,-13.605675,6.46812,19.585933,-41.235707,-16.940243,4.733814,24.126514,-42.938851,-24.833771,-3.152676,14.415973,-41.979492,-50.788868,-57.268444,-61.401306,-15.339914,-18.539833,-14.651619,-9.386359,-0.247496,15.547605,21.444448,25.876312,14.447978,26.050053,30.844182,34.416518,24.608021,34.576822,36.828378,39.289897,33.427708,42.868939,50.0999,57.68101,26.663189,52.718937,76.441566,96.131424,56.603302,90.697357,109.289062,122.649445,48.203911,85.787933,107.501266,122.628319,38.865143,73.515942,93.445244,107.457893,29.680904,57.065826,72.74374,85.565002,-14.161654,-14.876934,-7.530475,-4.544966,13.702552,28.421677,35.60672,40.714307,31.256688,46.05878,53.362928,57.162566,43.630112,58.674142,64.506642,66.115425,51.681279,65.792372,69.587132,69.508252,13.599438,316.809581,-81.915596,295.269481
103,-9.569138,3.585043,0.182693,-0.078139,0.725361,-3.113891,-7.997177,-12.094459,-24.903374,-2.167911,17.310116,29.750874,-31.838699,-5.892013,15.066616,33.20509,-34.166931,-14.14032,7.024624,24.045605,-33.601524,-39.616505,-45.372333,-49.032726,-14.7283,-18.296498,-16.16706,-12.661279,-3.483859,10.767568,18.061712,23.317586,10.345998,21.985271,28.006307,32.04487,20.372165,30.803848,34.48474,37.569766,28.858907,38.105352,45.799738,53.341167,26.703198,52.766213,76.46584,96.185441,56.667458,90.701821,109.191559,122.503991,48.219155,85.722954,107.331963,122.40001,38.843045,73.392483,93.235978,107.163918,29.605603,57.052563,72.668187,85.370728,-14.225109,-15.032113,-7.584865,-4.524181,13.768897,28.382453,35.573412,40.75999,31.388574,46.080319,53.383552,57.284178,43.755045,58.64076,64.465862,66.134802,51.754416,65.692571,69.418479,69.346861,3.927074,320.269573,-81.836129,295.066291
104,7.57029,-1.376997,0.022683,-0.042373,-1.918087,-8.836613,-16.102215,-22.313473,-31.876179,-11.201329,8.864971,22.191112,-37.988709,-14.529957,6.844448,25.780094,-39.536373,-22.312306,-0.820004,17.422153,-38.428322,-46.787087,-53.540188,-57.381569,-11.428334,-13.805799,-10.190016,-4.809319,-1.374749,13.165139,20.189075,25.628916,11.098785,22.550609,28.434682,32.730115,20.310464,30.684163,34.343505,37.557206,28.4085,37.616956,45.06392,52.849424,26.775341,52.849262,76.533702,96.277473,56.86417,90.91777,109.342209,122.617401,48.2994,85.80487,107.346199,122.391197,38.818622,73.303321,93.109863,106.995048,29.471443,56.956146,72.519252,85.141548,-14.369506,-15.240558,-7.681603,-4.560898,13.620029,28.268313,35.511661,40.800115,31.343299,46.024904,53.374302,57.389869,43.732099,58.568747,64.416436,66.15266,51.68034,65.566723,69.273946,69.22877,11.377116,318.796024,-81.933694,294.927366
105,6.869785,-1.316444,0.124717,0.015153,-2.854866,-11.592831,-21.5522,-30.2719,-39.129501,-20.17448,0.437096,14.651344,-45.311336,-22.320087,-0.246803,19.48645,-46.297279,-29.745323,-7.325249,11.48346,-44.490269,-53.894245,-61.138447,-65.412975,-11.622021,-14.219354,-10.436709,-4.658526,-0.322671,15.542702,21.925212,26.426261,12.497727,24.006226,28.896204,32.65321,21.379351,31.585397,34.131799,37.098943,29.014159,38.58509,46.195705,54.72482,26.787896,52.741185,76.401913,96.239823,56.970383,90.927636,109.261299,122.471192,48.49775,85.928032,107.406807,122.39225,39.067372,73.455609,93.22007,107.03183,29.703999,57.149025,72.657315,85.301583,-14.491487,-15.398638,-7.762039,-4.658117,13.537173,28.156756,35.393608,40.73056,31.27504,45.883545,53.196091,57.274681,43.674968,58.430883,64.274522,66.077486,51.671757,65.540554,69.246184,69.26692,18.117628,317.407526,-81.93825,294.870465
106,-6.693123,3.492504,0.254094,-0.046918,-0.105308,-6.622101,-14.610729,-21.580444,-31.999168,-12.010734,7.747605,21.055756,-38.741581,-14.267315,7.176018,25.86953,-40.221565,-21.597381,0.17173,18.220505,-38.389057,-44.62183,-50.506977,-53.69244,-10.276318,-13.403902,-12.170784,-8.56577,-2.224484,12.890176,19.978197,24.709452,9.045979,20.781237,26.677808,30.912158,17.021958,28.133068,31.951565,35.53551,23.717815,33.672685,41.417311,49.586692,26.860599,52.647857,76.282527,96.199481,57.155399,90.913387,109.188182,122.395969,48.739757,85.945186,107.348476,122.322406,39.253749,73.456203,93.146495,106.868831,29.732791,57.066558,72.546844,85.210544,-14.508148,-15.457326,-7.828519,-4.750595,13.370088,27.987288,35.235687,40.566057,31.073771,45.686018,53.006813,57.119514,43.504005,58.246595,64.109612,65.93036,51.652429,65.616359,69.339464,69.364658,11.30591,320.83832,-81.802751,294.761837
107,4.494072,-2.558431,0.216648,-0.002507,-2.142906,-10.849136,-20.972935,-29.710773,-37.084041,-18.202457,2.051514,15.927246,-43.00399,-19.706806,2.047302,21.143715,-43.736275,-26.315334,-4.017883,14.690621,-41.543449,-48.998268,-54.550941,-57.154518,-8.959355,-10.597852,-7.407283,-1.887648,0.686591,16.199394,22.843763,27.623578,11.338488,22.909465,28.637186,32.989158,18.721614,29.609101,33.231244,36.770679,25.2812,35.308775,43.086017,51.463609,26.970188,52.616935,76.193138,96.237373,57.065094,90.687973,108.990165,122.255264,48.695903,85.834236,107.286712,122.348899,39.241619,73.402427,93.1753,106.958862,29.715019,56.992916,72.498996,85.201812,-14.484102,-15.411655,-7.820047,-4.790448,13.194248,27.97143,35.202972,40.519472,30.847011,45.510881,52.761763,56.813541,43.307219,58.12281,63.985963,65.852455,51.551875,65.583631,69.342959,69.425173,15.69326,318.217138,-81.692825,294.696579
108,2.001228,-1.9709,0.438331,0.117956,-1.926795,-10.966243,-22.369503,-32.830089,-38.780879,-19.953586,0.152298,13.639641,-45.330413,-21.409687,0.651467,20.296555,-46.288753,-28.294658,-5.716255,13.225823,-44.104099,-52.046607,-58.181007,-61.301525,-10.429348,-11.541955,-6.837067,0.038261,1.495225,18.070764,24.138026,28.597505,13.25028,25.388534,30.658771,34.789528,21.13482,32.291946,35.162315,38.420625,28.121854,38.354416,45.808679,54.218653,26.865624,52.321106,75.818367,95.963219,56.832173,90.436867,108.789597,122.049156,48.48452,85.679329,107.201088,122.272019,39.051407,73.303345,93.136734,106.924805,29.53751,56.795883,72.300511,85.027794,-14.559475,-15.491388,-7.899323,-4.849766,12.883087,27.876137,35.142616,40.488115,30.533245,45.272043,52.464138,56.466874,43.075815,57.965149,63.768835,65.613752,51.426101,65.523683,69.281653,69.375168,17.581689,316.192889,-81.367293,294.761186
109,-10.101242,5.025903,0.47469,0.110546,2.062386,-2.405078,-9.104118,-15.27507,-27.613918,-6.158569,13.20282,25.769165,-35.207508,-9.958831,11.333634,29.770111,-37.612049,-17.914375,3.775223,21.402214,-36.446422,-42.343254,-47.940605,-51.267356,-13.462034,-18.178407,-18.309553,-16.741636,-4.481585,10.943297,18.215742,23.272286,8.459844,21.111355,26.976755,31.332098,17.828839,29.490379,33.030419,36.598296,25.790838,35.800728,43.249841,51.089167,26.854557,52.119518,75.618679,95.90823,56.444229,90.073368,108.491008,121.81731,48.217495,85.442928,106.997966,122.082767,38.91259,73.296089,93.206577,107.038982,29.533756,56.804271,72.363281,85.20457,-14.52534,-15.490733,-8.065728,-5.14318,12.781544,27.753858,35.027044,40.36675,30.323725,44.92361,52.01846,55.996483,42.913708,57.669981,63.40825,65.271692,51.397362,65.451571,69.183296,69.252234,7.364072,321.162691,-81.008978,294.815631
110,-7.177528,0.201615,0.390701,0.151325,2.219776,-1.686871,-6.864235,-12.396458,-22.2896,0.944756,19.803658,32.289368,-28.203644,-1.683071,18.363876,36.056305,-29.365929,-7.576012,12.903511,29.648209,-27.125381,-30.200569,-33.551628,-34.524776,-10.428582,-13.616274,-13.540803,-11.367065,-2.896502,12.624032,19.982693,24.767757,7.431588,21.593008,28.004442,32.259082,14.886259,28.374525,32.850874,36.227744,21.458997,32.277867,39.625474,46.766984,26.863037,51.980782,75.492954,95.842129,56.019379,89.710796,108.196575,121.61578,47.823704,85.106289,106.733219,121.855488,38.565022,73.054859,93.080212,106.9781,29.241955,56.582726,72.211418,85.086834,-14.521548,-15.536737,-8.279458,-5.472408,12.545078,27.558888,34.87415,40.238224,30.015282,44.551403,51.616182,55.565083,42.650689,57.334825,63.066375,64.953171,51.199082,65.213029,68.928663,68.989808,0.076263,321.310923,-80.728558,294.913573
111,6.670647,-3.537063,0.370537,0.174976,0.543766,-4.875527,-11.772583,-19.197956,-28.614647,-6.862072,12.990623,26.412574,-34.474182,-9.693192,11.350937,30.088508,-35.494583,-15.989903,5.456955,23.101364,-33.502247,-39.507695,-43.930287,-45.712063,-11.509981,-14.214822,-11.857771,-8.032741,-0.854342,15.466749,22.241881,26.900307,10.92266,24.873868,30.529033,34.517949,19.160831,31.730832,35.227436,38.250934,26.484455,36.793254,44.095833,51.82712,26.830467,51.814064,75.320801,95.657535,55.606384,89.332958,107.860279,121.341831,47.415447,84.71117,106.400631,121.550228,38.202061,72.711262,92.865543,106.834179,28.938835,56.29771,71.969204,84.886654,-14.531835,-15.537799,-8.419533,-5.81963,12.468322,27.472635,34.786551,40.180944,29.824634,44.250209,51.232292,55.184948,42.438527,57.037151,62.798181,64.786421,50.954032,64.892014,68.633891,68.778498,6.605461,317.730379,-80.49947,295.045068
112,-3.158959,2.463532,0.418236,0.130997,2.21259,-1.423462,-6.644966,-12.58342,-24.414413,-2.276619,17.181198,30.27887,-31.096584,-5.861332,15.113137,33.609101,-32.907303,-12.920677,8.380074,25.73758,-31.377514,-36.723037,-41.303959,-43.505928,-12.649856,-16.556508,-15.639625,-13.167312,-3.417206,12.484069,19.738013,24.411803,8.637364,22.705429,28.653587,32.675972,17.316397,30.164842,34.031393,37.210292,24.749973,34.94052,42.408306,50.184177,26.777858,51.625866,75.134582,95.472919,55.122173,88.949901,107.533802,121.077037,46.915718,84.288906,106.05051,121.197589,37.745624,72.351482,92.603954,106.614795,28.563228,56.034267,71.761985,84.721836,-14.592264,-15.625707,-8.62137,-6.216858,12.407461,27.392471,34.693284,40.085737,29.686696,44.02918,50.982499,54.96382,42.286868,56.801722,62.602259,64.681865,50.774252,64.616669,68.351013,68.536449,3.2994,320.150006,-80.228336,295.13216
