takenoko1/special-research/HandMotion_SimilarSearch_自分用/NewProject/handData/key/d4_feature_d3/30.csv
,vel_0x_L,vel_0y_L,vel_0x_R,vel_0y_R,posFromWrist_1x_L,posFromWrist_2x_L,posFromWrist_3x_L,posFromWrist_4x_L,posFromWrist_5x_L,posFromWrist_6x_L,posFromWrist_7x_L,posFromWrist_8x_L,posFromWrist_9x_L,posFromWrist_10x_L,posFromWrist_11x_L,posFromWrist_12x_L,posFromWrist_13x_L,posFromWrist_14x_L,posFromWrist_15x_L,posFromWrist_16x_L,posFromWrist_17x_L,posFromWrist_18x_L,posFromWrist_19x_L,posFromWrist_20x_L,posFromWrist_1y_L,posFromWrist_2y_L,posFromWrist_3y_L,posFromWrist_4y_L,posFromWrist_5y_L,posFromWrist_6y_L,posFromWrist_7y_L,posFromWrist_8y_L,posFromWrist_9y_L,posFromWrist_10y_L,posFromWrist_11y_L,posFromWrist_12y_L,posFromWrist_13y_L,posFromWrist_14y_L,posFromWrist_15y_L,posFromWrist_16y_L,posFromWrist_17y_L,posFromWrist_18y_L,posFromWrist_19y_L,posFromWrist_20y_L,posFromWrist_1x_R,posFromWrist_2x_R,posFromWrist_3x_R,posFromWrist_4x_R,posFromWrist_5x_R,posFromWrist_6x_R,posFromWrist_7x_R,posFromWrist_8x_R,posFromWrist_9x_R,posFromWrist_10x_R,posFromWrist_11x_R,posFromWrist_12x_R,posFromWrist_13x_R,posFromWrist_14x_R,posFromWrist_15x_R,posFromWrist_16x_R,posFromWrist_17x_R,posFromWrist_18x_R,posFromWrist_19x_R,posFromWrist_20x_R,posFromWrist_1y_R,posFromWrist_2y_R,posFromWrist_3y_R,posFromWrist_4y_R,posFromWrist_5y_R,posFromWrist_6y_R,posFromWrist_7y_R,posFromWrist_8y_R,posFromWrist_9y_R,posFromWrist_10y_R,posFromWrist_11y_R,posFromWrist_12y_R,posFromWrist_13y_R,posFromWrist_14y_R,posFromWrist_15y_R,posFromWrist_16y_R,posFromWrist_17y_R,posFromWrist_18y_R,posFromWrist_19y_R,posFromWrist_20y_R,posFromBody_0x_L,posFromBody_0y_L,posFromBody_0x_R,posFromBody_0y_R
6,0.127762,-0.76011,0.527469,0.019884,11.936211,22.427124,26.584374,24.649807,19.96431,47.712078,61.720997,65.550694,12.611801,47.531513,60.147183,65.001743,4.139614,34.772472,48.730099,54.493572,-5.139038,12.413452,22.483544,26.313801,-19.00427,-25.318521,-22.318205,-17.670782,-4.915444,10.529186,12.834008,12.945727,13.851741,29.525651,31.032496,28.341191,28.167475,43.005494,39.995692,35.390038,39.309102,53.537842,48.625708,41.517395,28.033951,53.93319,77.043846,97.06485,50.814686,82.867493,99.819741,112.177025,42.170586,78.440506,97.529572,110.524979,34.134384,68.373688,86.662743,99.145294,27.308476,54.003159,69.040169,79.959618,-12.760809,-13.906946,-8.96022,-5.144007,15.027605,28.401015,32.765843,35.097662,32.021034,44.745472,48.057307,48.574739,43.881572,57.197603,59.362066,58.127527,50.873781,62.886039,63.08164,60.356989,-30.148401,303.322241,-69.451475,292.003267
7,-1.874096,0.131491,0.433491,-0.030604,13.162228,24.799736,29.772114,28.319126,22.298504,50.5066,63.807312,67.081398,14.85941,50.558808,62.358971,66.119248,6.249081,37.88562,51.038361,55.579788,-3.097721,15.763378,25.332905,28.311974,-19.598333,-26.314172,-23.856839,-19.941233,-5.171029,9.587381,11.863662,12.330187,13.817519,29.098511,30.484178,27.895107,28.290124,42.991415,39.795757,35.192597,39.49733,53.598629,48.583693,41.426585,27.908283,53.636684,76.652172,96.754841,50.343235,82.284931,99.32349,111.898991,41.769161,77.840229,97.018719,110.175808,33.817223,67.783184,86.192081,98.857922,27.063938,53.654377,68.762936,79.817471,-12.67211,-13.819174,-8.895134,-5.136275,15.234556,28.442635,32.745318,35.0585,32.136483,44.775125,48.078538,48.703489,43.900542,57.278386,59.476453,58.301886,50.752293,62.913432,63.183726,60.499942,-31.356079,303.82698,-68.351566,292.345911
8,7.301514,-1.47644,0.357685,0.085092,9.199768,17.05822,18.835098,14.988499,14.785251,41.147438,54.377609,57.584862,8.463032,42.364128,53.733787,57.144653,1.000511,30.823952,43.3526,47.386093,-7.177643,9.18742,17.243168,19.130195,-16.62552,-20.91705,-16.143509,-10.772693,-1.56951,13.291221,15.086589,15.256452,16.029975,31.00608,32.028593,29.228236,29.394234,43.863998,40.525462,35.949299,39.710653,53.469571,49.079314,42.755207,27.738705,53.245045,76.224838,96.354767,49.940449,81.774239,98.88485,111.703102,41.43314,77.431183,96.670555,110.010292,33.525387,67.303047,85.77887,98.604607,26.816517,53.338085,68.475815,79.59977,-12.683584,-13.954086,-9.147397,-5.349648,15.263739,28.331559,32.569786,34.87378,32.095271,44.616735,47.809911,48.429502,43.822959,57.19091,59.353126,58.18566,50.639969,62.824487,63.070735,60.321273,-23.595938,302.623804,-67.535254,292.704267
9,5.789394,-0.749465,0.3307,-0.063121,6.205685,11.011425,10.090279,4.215603,9.37603,34.586872,47.430714,50.220028,3.955902,36.688328,47.305699,50.161045,-2.732872,25.589779,37.149983,40.478543,-10.251114,3.72591,10.010994,10.492401,-14.171485,-16.599696,-10.055338,-3.623205,1.019104,16.046141,17.256783,17.095355,17.371071,32.150982,32.574565,29.576027,29.844641,44.160659,40.350721,35.711832,39.551534,53.133871,49.171631,43.500103,27.576942,52.906231,75.876057,96.09795,49.727863,81.409939,98.533161,111.456333,41.254681,77.06908,96.339878,109.763981,33.294662,66.869831,85.357693,98.270977,26.478516,52.896011,68.012043,79.19846,-12.709927,-14.026075,-9.238751,-5.371014,15.430539,28.420726,32.615827,34.901456,32.185019,44.548773,47.685657,48.300666,43.828923,57.155391,59.34569,58.206358,50.553963,62.826327,63.133448,60.395966,-17.445935,302.077541,-66.843945,292.844348
10,1.952763,-1.055215,0.453369,-0.129244,4.32114,7.304375,4.91074,-2.471604,7.650467,32.416191,44.569382,46.917755,3.364803,36.03099,45.953934,48.002884,-2.593998,25.683311,36.794174,39.535583,-9.564354,4.46569,10.567051,10.6562,-9.597867,-9.223659,-0.980819,6.158492,5.431801,20.285986,20.911925,20.18989,18.686465,33.21956,33.244853,30.187133,28.562159,42.832901,38.921309,34.330141,36.271216,49.823801,46.339559,41.309025,27.363945,52.563,75.5453,95.815395,49.489575,81.122532,98.236004,111.121044,40.956127,76.776844,96.039654,109.370304,32.896729,66.564366,85.026821,97.864735,25.985756,52.5378,67.685063,78.88155,-12.770738,-14.077871,-9.259437,-5.276609,15.594326,28.640422,32.878316,35.153905,32.354759,44.65964,47.773824,48.324712,43.989487,57.314337,59.470241,58.253981,50.680194,63.005156,63.273585,60.466918,-15.138141,301.174445,-66.035545,292.867223
11,4.222835,-1.090019,0.296276,0.047202,1.639092,1.776513,-2.756435,-12.078266,2.884015,26.182766,38.56168,41.248822,-0.396217,30.845158,41.214466,43.939602,-5.549812,21.213536,32.776944,36.209164,-11.735481,0.460614,6.472916,6.847641,-5.74033,-2.975443,6.684013,14.417758,9.26786,24.318474,24.55683,23.300679,19.919263,34.687269,34.523939,31.292627,27.693171,42.333749,38.650127,34.305244,33.796384,47.705553,44.900565,40.501639,27.16008,52.415337,75.556229,95.877068,49.442906,81.138268,98.159935,110.914513,40.79393,76.72387,95.897942,109.10598,32.608258,66.387223,84.753731,97.510094,25.586197,52.257214,67.329117,78.434899,-12.975539,-14.354661,-9.503561,-5.422328,15.528908,28.605027,32.89221,35.258559,32.334653,44.523196,47.627303,48.18833,43.958612,57.208052,59.382309,58.217499,50.595188,62.915186,63.205302,60.442329,-10.576504,300.197151,-65.400467,293.02715
12,2.176987,-1.057401,0.264485,0.046795,-0.436912,-1.983719,-7.835598,-18.26041,-0.002964,22.920513,35.526638,38.482304,-2.52689,28.337048,39.036976,42.307583,-6.940441,19.086971,30.892719,34.808682,-12.484898,-1.510219,4.430706,5.021954,-3.725082,1.114866,12.871638,22.07613,12.057397,27.544463,27.301067,25.6631,21.393516,36.242539,35.702976,32.372406,28.10297,42.91703,39.057074,34.757615,33.412085,47.279573,44.810903,40.909351,27.010711,52.268085,75.478809,95.802784,49.226143,81.018276,98.016803,110.721027,40.550514,76.66444,95.813198,108.921398,32.34962,66.342876,84.654201,97.34547,25.32938,52.178993,67.188961,78.22285,-13.154653,-14.596377,-9.668707,-5.415635,15.38367,28.632023,32.938398,35.339897,32.240446,44.465644,47.56244,48.137768,43.887203,57.146264,59.322089,58.230194,50.508848,62.824597,63.135251,60.466732,-8.104534,299.226862,-64.840999,293.161057
13,-6.240269,0.954834,0.030681,0.156945,2.782288,4.350346,0.694828,-8.245124,6.859108,31.243698,43.526734,46.221497,3.516014,35.874802,46.633278,49.942589,-1.871086,25.922356,38.088959,42.101143,-8.496059,5.064366,12.635525,14.22052,-6.324453,-3.285801,7.004324,15.380126,9.279173,24.47853,24.599018,23.335839,19.779077,34.725517,34.520851,31.504418,27.434053,42.301317,38.523884,34.197193,33.493572,47.469221,44.270957,39.450844,26.926815,52.228306,75.532837,95.906685,49.115078,80.999085,97.983788,110.637131,40.512818,76.762161,95.910874,108.975197,32.409348,66.610657,84.880554,97.498879,25.506855,52.56847,67.552254,78.549111,-13.330074,-14.908612,-9.99118,-5.7542,15.049477,28.326643,32.670043,35.141542,31.984997,44.159473,47.259665,47.844058,43.716192,56.871154,59.059588,58.026059,50.427696,62.639964,62.958608,60.378404,-14.098212,300.281247,-64.563727,293.417553
14,-4.791641,-0.065418,0.020256,0.260093,3.325951,6.067795,3.494591,-4.748257,10.348023,35.830673,48.280998,51.315766,7.424091,41.331413,52.768318,56.575882,2.259052,31.95314,45.054199,49.703476,-4.293411,12.23354,22.060467,25.172127,-6.247882,-2.700618,7.991207,16.764001,8.795074,23.940214,24.503156,23.607911,19.053126,34.146891,34.546626,31.835091,26.660653,41.762322,38.421291,34.018771,32.825802,46.662353,43.129303,37.871046,26.905724,52.180481,75.538193,95.868668,48.989422,81.031906,97.990013,110.555992,40.482617,76.923203,96.026276,108.961922,32.520401,66.986618,85.210511,97.707756,25.79908,53.148308,68.140572,79.100144,-13.466049,-15.249549,-10.391965,-6.15869,14.531786,27.815152,32.198048,34.726875,31.599254,43.726602,46.847678,47.416227,43.477563,56.54726,58.717775,57.701165,50.320472,62.401804,62.732762,60.235909,-18.684357,300.330295,-64.337975,293.792112
15,-0.488342,0.978361,-0.323215,0.183732,4.57291,8.576008,6.716549,-0.710232,11.369762,37.293457,50.001297,52.951858,7.313484,41.164352,52.580978,56.547546,1.331966,30.724045,43.672256,48.299126,-5.678444,9.332714,18.382244,21.201427,-11.19325,-10.124474,-0.856355,7.316226,4.501778,19.96455,20.821177,20.124755,17.965591,33.557668,33.89648,30.906661,28.213664,43.339032,39.825767,35.167526,36.318159,50.151684,46.078021,40.057541,27.038795,52.385238,75.793682,96.178013,49.139351,81.109691,98.032322,110.642887,40.714004,77.072925,96.17593,109.156345,32.854271,67.225353,85.469433,98.003574,26.224571,53.551655,68.523411,79.486805,-13.501345,-15.392402,-10.62711,-6.710541,14.011316,27.237724,31.628795,34.221399,31.127012,43.270551,46.469111,47.105832,43.088684,56.160579,58.423522,57.511406,50.011671,62.01316,62.489465,60.187669,-19.002302,301.432049,-64.490793,294.099237
16,-2.664322,1.353248,-0.103523,0.195551,6.571472,12.952148,12.484016,6.262665,15.040375,42.113686,54.432678,56.833008,10.075012,44.768074,55.520851,58.674293,3.322769,33.495964,45.824844,49.669373,-4.29911,11.30571,20.007259,22.353802,-15.477741,-16.772215,-8.791357,-1.039112,0.628631,15.743144,16.782465,16.335454,16.700003,31.927507,32.196035,29.239067,29.015123,43.569127,39.718297,34.722726,38.602924,52.056042,47.243708,40.455016,27.123218,52.347347,75.641887,96.008022,49.211631,81.07307,97.941638,110.492099,40.93951,77.244289,96.367733,109.295208,33.19289,67.624385,85.902866,98.360172,26.642509,54.102756,69.176639,80.239986,-13.540729,-15.558547,-10.764554,-7.005597,13.421341,26.658233,31.096865,33.662879,30.682125,42.823071,46.123247,46.761389,42.868297,55.942032,58.248744,57.320289,50.036532,61.902651,62.447586,60.249976,-21.517199,302.911827,-64.444891,294.421318
17,-2.136074,0.32046,-0.128129,0.418273,7.736606,15.180141,15.40345,9.811867,17.068497,45.446239,57.37183,59.191257,11.924023,48.02219,58.193264,60.354206,4.994064,36.654796,48.609569,51.641178,-2.665318,14.657455,23.539169,25.651749,-16.894394,-18.823169,-11.364892,-3.923251,-0.245594,14.782283,15.921565,15.448434,16.484371,31.899324,32.152995,29.092434,29.194088,43.716834,39.766771,34.476292,38.909922,52.368029,47.233248,39.994074,27.073758,52.242051,75.522023,95.893673,49.637433,81.36739,98.096478,110.480427,41.450421,77.625447,96.627858,109.403149,33.688557,68.121335,86.298855,98.550511,27.044037,54.670498,69.769398,80.785504,-13.802687,-15.992369,-11.241391,-7.694423,12.681521,25.809054,30.297073,32.85832,30.095471,42.092563,45.46521,46.077292,42.478738,55.355946,57.657446,56.664018,49.86631,61.475474,61.984371,59.781327,-23.528108,303.363099,-64.447855,294.970403
18,1.679523,0.722714,0.092148,0.260932,7.810879,15.076252,14.897427,8.944188,15.601376,44.453133,56.212532,57.678818,10.498318,47.038193,56.59742,58.059037,3.766114,35.639099,46.845452,49.056885,-3.439842,13.503125,21.137261,22.190289,-17.293067,-19.664863,-13.121333,-6.659523,0.586407,15.664289,16.409802,15.537626,17.242901,32.303567,31.871561,28.455047,29.510683,43.617157,39.188503,33.642205,38.636751,51.757886,46.636801,39.421414,26.871003,52.062184,75.296299,95.711277,49.923798,81.566403,98.178578,110.366146,41.74664,77.928715,96.849919,109.398045,33.896942,68.48132,86.562916,98.559506,27.094483,54.952366,70.064267,80.9679,-14.105758,-16.313211,-11.397039,-7.94009,12.216665,25.329686,29.810975,32.324538,29.833131,41.637241,45.032031,45.628256,42.372244,55.029522,57.233789,56.172065,49.838128,61.233981,61.647301,59.416852,-21.727667,304.190236,-64.234789,295.335758
19,7.985562,0.590186,0.063664,-0.044658,7.663685,13.593647,12.225403,5.577724,8.603462,36.274646,48.682148,50.497982,2.145721,37.23682,46.836467,48.661297,-4.825745,25.145038,36.277599,38.477245,-11.548485,2.348671,8.366844,8.56501,-19.384961,-23.869881,-19.657762,-14.846084,0.665311,15.842327,16.247101,14.649371,18.632112,33.332971,32.118056,28.069526,31.297937,44.651402,39.757472,34.116596,40.253624,53.155767,48.005351,40.662992,26.723259,51.925472,75.063858,95.508385,50.313354,81.716881,98.205116,110.338074,42.056717,78.053856,96.892204,109.391853,33.992855,68.534385,86.561714,98.488266,26.870521,54.722122,69.866546,80.780914,-14.309139,-16.444406,-11.387702,-7.886627,11.974047,25.134073,29.601517,32.044327,29.695674,41.493523,44.870085,45.417329,42.326647,54.986013,57.149908,55.999362,49.871695,61.22772,61.613783,59.323238,-13.6142,304.854464,-64.04322,295.365142
20,3.426201,3.152432,0.318271,0.131393,7.035862,12.558082,12.543308,7.425579,4.691928,30.873195,44.013988,47.30714,-1.849892,31.350071,43.18127,47.628124,-7.739663,20.198764,32.511394,36.787365,-12.809372,-0.855092,5.170703,6.502681,-19.01221,-23.440802,-18.75024,-13.308226,-1.416616,11.328805,12.724093,12.730774,15.804636,28.786993,28.771172,26.148237,28.297633,39.99841,36.531038,32.340494,37.413352,48.310522,43.92975,37.992386,26.424397,51.559651,74.617184,95.042805,50.55914,81.820553,98.198742,110.218403,42.317643,78.310582,97.080517,109.489552,34.10067,68.830662,86.744214,98.495167,26.729554,54.80975,69.975392,80.857235,-14.647149,-16.789073,-11.463717,-7.688334,11.727218,24.91634,29.36852,31.759212,29.609829,41.202431,44.532087,45.048667,42.368946,54.827215,56.881478,55.639702,50.050302,61.211454,61.440227,59.018993,-10.073873,308.056305,-63.610823,295.545944
21,0.578922,0.197725,0.269108,0.012621,7.985596,14.004364,14.290638,9.23061,4.836445,31.823387,44.841522,47.764229,-2.458477,31.680862,42.998222,46.999443,-8.873612,19.41806,31.106392,34.827278,-14.135273,-3.229443,1.000923,1.085976,-19.503139,-24.721938,-21.274857,-17.220609,-1.455506,11.648042,12.818188,12.407906,16.227873,29.709433,29.084568,25.91077,28.872702,40.938967,37.025239,32.641231,37.838553,49.008412,44.915966,39.094754,26.050576,51.138085,74.222603,94.654724,50.928475,82.133148,98.519005,110.546562,42.692734,78.645172,97.346787,109.714577,34.283901,69.117028,86.942551,98.586846,26.622837,54.829468,69.997811,80.821816,-14.922468,-16.99191,-11.484798,-7.543998,11.549316,24.68642,29.1211,31.508568,29.451205,40.865015,44.125165,44.627369,42.245952,54.55565,56.557894,55.3156,50.00189,61.117434,61.254791,58.745897,-9.401104,308.292584,-63.247868,295.597119
22,0.963226,0.652764,0.410832,-0.139691,8.079392,14.357723,14.586056,9.462284,5.500202,32.459496,45.215332,47.948044,-2.145859,31.806999,42.337349,45.89225,-8.943363,18.83487,29.782562,33.104622,-14.527714,-4.770527,-1.714622,-2.352127,-20.170575,-26.339688,-23.990085,-20.989113,-2.942975,9.966763,11.260756,10.859538,15.2741,28.862476,28.149345,24.746008,28.28816,40.606367,36.697047,32.139385,37.403459,48.730584,44.958227,39.12516,25.707699,50.69363,73.737499,94.150554,51.179638,82.547962,98.960231,110.87511,42.894699,78.947101,97.595936,109.853107,34.27922,69.26469,87.105709,98.746135,26.361786,54.639038,69.877201,80.788822,-15.26695,-17.139445,-11.294126,-7.209176,11.495185,24.571415,28.938552,31.321538,29.420662,40.698696,43.842607,44.337117,42.164762,54.541841,56.512544,55.313845,49.844031,61.080346,61.271611,58.84093,-8.355583,308.976835,-62.754741,295.488915
23,-2.029793,-0.234738,0.207035,-0.148115,9.448265,17.173382,19.395527,15.776562,7.621045,33.783692,47.730263,52.286614,-0.646957,31.709587,44.038971,50.258492,-7.775161,18.516587,30.947274,36.646065,-13.510173,-4.933067,-1.076168,0.108994,-20.314799,-26.630088,-24.55704,-21.453415,-4.733441,7.878414,9.914498,10.137973,13.578706,27.591838,27.835628,25.080572,27.025142,39.760473,37.067228,33.453372,36.687192,48.207213,45.332595,40.14498,25.583462,50.391346,73.30307,93.635284,51.347225,83.376434,100.100532,112.228203,43.081489,79.38034,98.175064,110.603554,34.443706,69.429909,87.527847,99.519539,26.443645,54.473522,69.782318,81.06752,-15.6222,-17.458928,-11.400818,-7.18492,10.897244,23.67144,28.08079,30.609815,28.874233,39.981539,43.247099,43.93112,41.674563,54.070526,56.326552,55.311351,49.43696,61.073022,61.70037,59.477256,-10.31737,308.770804,-62.4797,295.369507
24,-6.89217,-0.213039,0.013115,-0.556062,12.642243,23.78135,29.227868,28.111302,14.921654,41.256993,55.563733,60.784001,6.199723,37.994854,51.33878,58.672612,-1.739742,24.563874,38.103024,45.197674,-8.352367,1.650879,7.276543,10.148335,-20.426184,-26.332241,-23.627881,-19.990263,-7.389375,5.129409,8.425387,9.793838,10.907679,25.856021,27.5136,25.851341,24.940275,38.488044,37.220715,34.625531,35.408724,47.150231,45.172081,40.782393,25.335342,49.937633,72.733658,93.059395,51.19931,83.949829,101.154075,113.76004,43.054573,79.683998,98.940628,111.880348,34.53368,69.471176,88.04631,100.608787,26.604858,54.477539,69.855766,81.630226,-15.964161,-17.787219,-11.369659,-7.0383,9.768124,21.746358,26.207665,29.005848,27.95015,39.042204,42.904124,44.424876,40.978882,53.486193,56.461884,56.303692,49.061875,61.135736,62.417415,60.833986,-17.204888,308.581326,-62.461933,294.837006
25,-2.142059,-5.414017,-0.672753,-1.782068,11.349449,20.139244,22.167,18.941368,14.174835,39.394272,51.564926,55.142796,6.396183,36.341995,46.455608,51.204861,-1.463997,23.650543,35.123005,40.23642,-8.507126,2.267601,7.533589,9.529965,-11.32258,-13.307918,-9.752502,-6.700611,1.055006,15.80613,17.97042,17.409207,13.902624,30.818606,31.750308,28.934625,22.947083,38.801205,37.455009,34.168084,29.287603,42.849587,41.909461,37.781718,25.461754,50.467781,73.113991,92.790963,50.997162,84.362389,101.936783,114.748032,42.971123,80.032082,99.128975,111.409859,34.59169,69.534783,87.842263,99.723816,26.736225,53.985798,68.640393,79.14283,-16.733188,-18.252038,-10.864565,-5.549497,7.364144,18.822106,23.470937,26.599929,25.883315,37.600629,41.406875,42.968308,39.488487,52.610054,55.499208,55.243265,48.182834,61.113024,62.217159,60.208023,-19.371809,303.192794,-63.159548,293.080423
26,11.106182,-3.906936,1.793175,-3.73196,2.197701,2.626969,-0.179981,-5.084129,-2.877674,12.939263,23.932389,28.901482,-6.290531,11.182286,19.135323,24.931973,-10.234531,3.072396,11.488003,16.755306,-13.779327,-9.681347,-6.656605,-5.444343,-10.173739,-10.68828,-5.881665,-0.468599,2.624664,15.914909,17.036605,15.668191,14.952356,30.275239,31.040215,27.752982,24.004151,38.751928,37.991669,34.362906,30.257541,43.306083,43.731172,40.661522,24.363361,48.574539,69.630409,88.04702,48.723999,79.830872,96.811318,108.669937,40.601212,73.743347,89.232891,97.945953,32.324776,62.455261,76.155132,83.887299,24.601582,47.736477,58.929131,66.051064,-17.216793,-18.691282,-10.452999,-3.952014,5.882875,18.644018,23.809551,27.312812,24.423288,38.251268,41.871423,43.430053,38.070734,53.140503,55.722831,55.307497,46.662341,61.054262,62.423146,60.623084,-8.296011,299.335613,-61.396757,289.398218
27,13.986328,-1.615366,0.241528,-11.249246,-3.58382,-9.587207,-16.516273,-23.227604,-17.363216,-14.29208,-8.437729,-5.790229,-18.787548,-16.102329,-13.00803,-9.567295,-19.97533,-19.588211,-16.183227,-13.420337,-20.628215,-24.624447,-24.794712,-25.341304,-9.857317,-10.775583,-6.627079,-0.755986,3.710471,16.014809,18.021734,17.603437,15.843254,29.6905,31.463329,29.533271,25.055094,38.706344,39.918924,38.089889,31.449386,43.656306,45.558589,44.246862,24.357948,49.315658,70.176944,85.938457,48.34584,77.453716,90.439556,98.023132,40.733928,71.35683,81.957962,85.976143,32.907749,60.888782,70.15155,73.233833,25.372089,47.170372,55.438305,58.746711,-18.176456,-20.663206,-12.659069,-4.522587,1.955389,14.089963,18.095341,20.816373,21.033031,34.435278,36.755488,38.14591,35.931021,50.212249,51.573994,51.134232,46.135326,60.2243,60.739336,58.563894,5.680235,297.733351,-61.165311,278.162076
28,13.567223,-1.782055,-4.219941,-18.226128,-11.285236,-24.580708,-37.378166,-47.415894,-31.195416,-38.909248,-40.080196,-42.274155,-29.646584,-39.000561,-43.404751,-46.002377,-27.675201,-37.870079,-41.676624,-44.507561,-25.211414,-35.806309,-40.505104,-45.032696,-9.151732,-8.761359,-2.06339,5.355292,6.382708,17.740288,19.952052,20.036255,18.290892,30.268928,32.286116,31.196839,27.237131,39.674676,41.761853,40.780639,33.141693,44.58376,47.450486,47.447435,23.897152,49.362454,70.760766,85.170514,46.810467,76.701325,83.982102,86.463341,40.424286,70.980069,75.308041,74.405354,34.007824,61.744515,64.555367,62.69941,27.785099,49.403859,52.561387,51.305523,-20.722413,-25.596237,-19.836603,-12.025435,-6.109993,3.805382,6.808934,8.760235,13.645088,25.067988,26.382098,27.589689,30.008651,41.529351,41.745453,41.785257,42.355818,52.911434,52.349703,50.993565,19.255125,295.959061,-65.377585,259.943713
29,13.330479,-1.120931,-5.372371,-24.90273,-18.902172,-39.505509,-58.225079,-71.629429,-44.641823,-62.991555,-71.142884,-77.744706,-40.02705,-61.425728,-73.265156,-81.311886,-34.669842,-55.723446,-67.053521,-75.329407,-28.904663,-47.086865,-57.192055,-65.870396,-9.379406,-8.553741,-0.657716,7.923504,9.067406,19.202501,21.028708,21.292691,20.792043,30.482387,32.125899,31.564699,29.333224,40.186748,42.752515,42.532548,34.584405,45.179133,48.643356,49.684098,21.598526,46.675289,68.325187,81.197136,42.540756,72.578556,74.448005,71.746067,38.375335,68.636902,66.520969,60.401973,34.355598,61.973682,58.074497,50.995777,30.456699,51.499031,49.531265,43.683849,-23.640652,-32.430255,-30.657067,-25.667411,-15.526401,-8.851391,-6.659041,-5.754879,4.623092,11.962388,12.4135,13.123543,22.000745,28.825339,28.157582,28.353306,35.829034,41.580949,40.091059,39.177079,32.583699,294.920687,-70.751861,235.12354
30,12.139972,0.650244,-6.095501,-31.152997,-23.410858,-47.505535,-68.450351,-83.130535,-53.819824,-81.402832,-93.908432,-103.153495,-47.418571,-78.963421,-95.655624,-107.132824,-39.925895,-70.018089,-86.517528,-98.405491,-31.931282,-56.598541,-70.602791,-82.212833,-18.733062,-21.020408,-12.976071,-3.09824,4.570321,13.610569,16.171976,17.571525,22.230569,29.87091,31.632773,31.994778,35.670645,44.64561,47.499381,48.053677,44.387296,54.121939,57.392365,58.66609,19.033047,42.299595,62.80727,73.825035,38.676864,66.186172,64.671879,58.575405,36.89122,64.371837,57.559742,48.37754,35.222786,60.773289,51.743511,41.62405,33.778473,53.697269,48.007038,40.011898,-26.988017,-41.293414,-45.676347,-45.438003,-26.627908,-25.303596,-24.543634,-24.390863,-6.892791,-5.408002,-4.63958,-3.0089,10.954517,12.474973,12.685937,14.262937,26.202701,26.929157,26.035444,26.515899,44.54607,295.665591,-77.024963,204.065203
31,2.548462,2.127944,-9.576851,-35.85944,-21.610222,-44.269249,-65.233646,-80.564197,-51.286651,-82.314262,-99.282348,-112.468643,-46.282127,-80.574714,-100.424595,-115.755066,-39.28379,-70.851894,-89.763828,-104.638092,-31.470199,-57.468624,-72.251015,-84.596443,-19.687661,-21.952209,-12.796315,-3.01589,4.693452,13.806355,18.28058,21.614114,22.507964,30.014443,33.112498,35.473858,35.738385,44.531853,48.791965,51.322571,44.260485,53.438436,56.713246,58.674834,16.121853,37.786148,58.558559,69.074535,33.97435,61.971828,57.424793,48.909553,35.594501,64.701897,56.751858,47.401028,37.301468,65.454689,55.887211,46.228615,39.178505,60.61655,53.8423,45.848637,-30.657955,-50.735657,-61.53318,-65.810754,-38.620603,-45.648337,-45.687357,-45.58182,-19.227454,-26.907902,-25.408399,-22.336637,-0.918945,-8.464759,-6.946581,-3.145337,15.687075,8.793889,8.309173,10.312825,46.734432,297.978913,-86.961914,168.391141
32,0.735832,-0.440799,-8.578777,-33.028128,-22.751792,-45.796966,-67.326416,-83.215358,-52.867057,-84.222129,-101.22496,-114.392795,-47.573375,-82.323314,-101.835285,-116.800438,-40.26844,-72.255958,-91.062789,-105.724823,-32.144714,-58.747375,-73.727222,-86.006881,-19.835405,-20.770418,-9.504129,1.505525,5.850271,14.988949,19.283851,22.490599,23.711825,31.039993,33.984451,36.259299,36.687847,45.164042,49.199295,51.655875,44.894316,53.83317,56.815393,58.707018,11.334491,29.381675,48.320251,58.970798,23.805416,51.061946,49.135334,43.770835,28.740783,58.331016,51.517685,43.550102,34.317878,62.875923,53.207565,44.427921,40.473381,61.048519,52.9972,45.289192,-33.647565,-58.858973,-75.169795,-84.44622,-49.002638,-64.098767,-67.246859,-69.204471,-30.921827,-46.192068,-43.032503,-38.338212,-13.437186,-27.617297,-23.744225,-17.930683,2.892871,-10.209362,-8.961318,-4.770867,47.108076,297.828795,-95.902879,135.653694
33,0.839516,-0.481752,-4.617783,-27.738124,-23.394104,-46.75708,-68.620697,-84.521644,-54.253738,-86.08041,-102.99844,-115.955212,-48.862221,-84.102814,-103.368988,-118.069874,-41.483597,-74.030022,-92.719139,-107.262165,-33.449409,-60.460144,-75.505108,-87.779514,-20.092855,-20.829501,-9.61097,1.796517,6.350622,15.530513,19.763318,22.868092,24.311298,31.821334,34.570462,36.561678,37.292383,45.81205,49.499106,51.582243,45.481661,54.296001,56.844033,58.455632,6.342155,20.779095,37.571342,47.865212,14.824745,37.26281,38.985638,37.208805,23.03429,49.175514,44.982765,38.460125,31.772186,56.92614,48.774891,40.576355,40.893883,58.423679,51.105629,44.082619,-34.459688,-62.236715,-81.731079,-94.480273,-54.621055,-76.16917,-83.315045,-88.478201,-38.92725,-60.292547,-57.064149,-51.626827,-23.37108,-42.796864,-37.282231,-30.015597,-8.510621,-25.726457,-23.298838,-17.905477,47.48802,297.740322,-100.980234,108.308849
34,0.503792,-0.53834,-2.808552,-21.916358,-23.956787,-47.408386,-69.373558,-85.533337,-55.359112,-87.361919,-104.170178,-116.994736,-49.980835,-85.391979,-104.208527,-118.512577,-42.676895,-75.466015,-93.846794,-108.087524,-34.825447,-61.824967,-76.714989,-88.792797,-19.963142,-20.520415,-9.176074,2.177604,6.801783,16.088687,20.38144,23.472777,24.869126,32.637353,35.360781,37.145145,37.832897,46.546213,49.962518,51.669423,45.966809,54.784286,57.005831,58.23816,2.644467,14.134838,28.872265,38.819779,8.415493,26.311569,31.137017,32.692681,18.900513,41.861149,39.800022,34.334702,29.83453,51.556538,45.095307,37.652367,41.000015,55.983502,49.565014,43.328167,-34.777677,-63.328283,-84.283341,-98.231079,-58.545825,-85.317796,-96.733613,-104.804231,-45.083821,-70.96474,-67.240789,-60.589967,-30.976612,-54.089427,-47.463682,-39.094365,-17.072982,-37.305653,-34.068492,-27.680295,47.369288,297.659803,-104.41131,86.850312
35,0.830521,-0.422904,-0.566093,-14.544519,-24.498505,-48.103936,-70.334061,-86.834404,-56.185685,-88.152249,-104.88921,-117.749875,-50.947701,-86.324593,-104.84832,-118.986752,-43.757012,-76.659703,-94.845761,-108.91824,-36.040696,-63.014706,-77.803402,-89.739933,-19.825884,-20.27655,-8.76552,2.647981,7.100729,16.415606,20.726427,23.805599,25.187005,33.028912,35.765221,37.464963,38.131571,46.877801,50.137247,51.622838,46.294457,55.163323,57.237618,58.286832,-1.469856,7.777107,21.770141,32.327579,1.286064,17.553486,23.444916,26.777035,14.062088,35.763817,34.228878,28.970787,27.407261,47.044842,41.310276,34.224163,40.581779,53.445968,47.262497,41.502056,-33.59943,-61.967687,-83.068821,-96.727982,-58.906953,-89.626388,-104.8053,-116.026955,-46.973513,-76.586171,-72.464985,-64.866881,-34.198125,-61.053077,-54.097628,-44.667982,-21.689097,-45.113832,-41.429932,-33.810246,47.714173,297.643037,-105.463039,72.711931
36,0.729286,-0.443899,1.294029,-6.444007,-24.832535,-48.54982,-70.890255,-87.372151,-56.753792,-88.570988,-105.164017,-118.007332,-51.69817,-86.871609,-105.259461,-119.431423,-44.604698,-77.362839,-95.427109,-109.525269,-36.905297,-63.672684,-78.401814,-90.366371,-19.63626,-20.192298,-8.686047,2.801061,7.048081,16.503242,20.879161,23.971189,25.172729,33.017958,35.73174,37.345241,38.22437,46.940193,50.120105,51.486073,46.577397,55.512003,57.545987,58.452187,-4.014656,3.998245,17.525894,28.270592,-2.680572,11.477142,18.903397,24.225277,11.476353,31.526413,30.003651,25.084259,26.259579,43.707264,38.196339,31.718639,40.608101,51.824421,45.889973,40.895599,-32.534384,-60.405883,-81.027298,-94.304371,-59.017561,-92.551407,-112.493684,-127.70323,-48.233895,-80.179656,-75.860795,-67.53256,-36.218025,-64.850505,-57.790506,-48.026593,-24.34137,-49.245861,-45.31118,-37.30679,48.138148,297.425852,-104.474321,66.494638
37,0.525078,-0.088772,2.033146,-1.142259,-24.810494,-48.600083,-71.010155,-87.461174,-57.04216,-88.825024,-105.283791,-117.9986,-52.143952,-87.301014,-105.56123,-119.663041,-45.118424,-77.872754,-95.799557,-109.817437,-37.395379,-64.015229,-78.691372,-90.688672,-19.521059,-20.180862,-8.757987,2.872555,6.977685,16.451816,20.834576,23.959271,25.07925,32.807426,35.423766,37.027498,38.157716,46.686041,49.734276,51.028379,46.583856,55.499183,57.570996,58.452903,-5.836029,1.132519,14.430679,25.811634,-3.007198,9.730373,16.619144,21.875324,12.042389,29.938534,27.925106,23.19667,27.382828,42.083336,36.400623,30.471622,41.802315,51.394707,45.470615,40.917595,-31.125925,-57.768962,-77.66705,-90.361113,-58.065123,-92.643217,-113.336182,-129.545578,-48.241417,-81.410144,-76.826535,-68.035555,-37.016421,-67.172605,-60.327775,-50.256709,-25.773671,-51.819884,-48.212907,-40.015638,48.29468,297.46716,-102.809721,65.482459
38,0.735122,0.196057,2.344849,-1.150565,-24.711914,-48.645057,-71.223324,-87.831127,-57.218044,-89.213791,-105.694439,-118.294075,-52.469661,-87.861545,-106.134464,-120.15525,-45.494957,-78.447212,-96.379314,-110.281608,-37.755043,-64.377697,-79.06493,-91.040233,-19.565655,-20.300843,-8.933852,2.770111,6.821173,16.263392,20.531432,23.616322,24.888109,32.424709,34.891552,36.466385,37.991398,46.317231,49.23905,50.491558,46.440966,55.311376,57.427846,58.367811,-6.713883,-0.301472,12.796852,23.743721,-3.490105,8.461521,15.023048,20.180614,11.81409,28.274597,25.548145,20.602787,27.355922,40.451213,34.894065,29.565216,41.93573,50.698791,44.879356,40.748233,-30.717631,-57.034848,-76.840582,-89.573721,-57.455973,-92.539655,-113.317224,-129.394073,-47.970517,-81.724046,-76.951548,-68.024711,-37.024003,-67.697693,-60.943587,-50.808758,-26.128532,-52.307397,-48.657429,-40.385782,48.679264,297.771527,-100.81541,64.440204
39,0.836655,0.032395,0.551765,-2.008031,-24.765106,-48.848785,-71.602043,-88.544518,-57.384625,-89.438496,-105.954918,-118.558617,-52.789158,-88.311504,-106.6264,-120.681221,-45.920471,-78.99107,-96.993725,-110.911125,-38.241966,-64.956093,-79.705891,-91.726593,-19.511896,-20.28753,-9.024551,2.620971,7.045647,16.290956,20.30766,23.232876,25.023564,32.244595,34.416703,35.857896,38.117084,46.314686,49.011907,50.09475,46.554722,55.451758,57.500007,58.349903,-7.380043,-1.45998,11.29985,22.069256,-3.391708,7.55928,13.499588,18.18306,12.308224,26.798229,24.2402,19.671192,27.986343,39.230518,33.657669,28.814701,42.495518,50.085423,44.274479,40.362968,-31.149093,-57.276878,-76.991846,-89.81895,-57.561684,-92.23496,-112.623192,-128.472393,-48.801653,-82.330015,-80.298136,-73.735636,-38.691678,-69.625133,-63.954914,-54.198417,-28.597752,-54.507274,-51.434888,-43.387229,49.224146,297.938884,-100.555418,62.567135
40,0.415649,-0.077966,-1.027073,-8.072007,-24.795822,-48.897079,-71.643207,-88.573894,-57.570808,-89.789886,-106.344371,-118.95243,-52.997635,-88.659107,-106.982494,-121.05653,-46.193275,-79.415176,-97.411331,-111.309391,-38.592933,-65.459381,-80.201408,-92.183555,-19.426618,-20.261793,-9.194859,2.430706,7.260638,16.366205,20.285763,23.144548,25.242222,32.287697,34.286743,35.603237,38.332803,46.413141,48.796373,49.62452,46.750347,55.569677,57.361587,57.973077,-8.649822,-3.53088,8.933247,19.400013,-3.490368,6.203842,11.427258,15.644955,12.746452,25.119576,22.415028,18.330814,28.636986,38.115944,32.229332,27.494785,43.337998,49.798954,43.605274,39.45044,-32.002794,-58.611688,-77.770211,-89.070906,-60.380998,-96.057348,-115.901732,-130.079201,-52.072554,-85.601336,-83.22276,-76.175753,-42.052957,-72.93884,-66.94009,-56.759497,-31.852771,-57.444519,-54.316293,-46.431302,49.299602,298.035239,-101.922684,54.669449
41,0.373307,-0.116672,-3.045502,-16.310402,-24.933815,-49.072976,-71.856171,-88.989235,-57.734288,-90.171822,-106.869084,-119.559014,-53.158814,-89.044362,-107.391312,-121.483052,-46.466904,-79.95361,-98.033638,-111.929421,-39.062737,-66.217324,-81.044049,-93.023449,-19.312688,-20.110565,-9.237775,2.242121,7.707057,16.628287,20.387677,23.12038,25.629855,32.464316,34.211766,35.328856,38.629662,46.668306,48.679085,49.141435,46.92977,55.729673,57.199765,57.473406,-9.458553,-4.964893,7.090531,16.92326,-4.820869,3.662053,8.434033,12.194138,11.584031,22.814782,20.717869,16.998894,27.536282,36.446686,30.918526,25.98769,42.430539,48.689999,42.609307,38.092736,-31.5198,-57.351875,-76.061299,-87.089373,-62.121069,-97.812437,-117.653746,-131.419604,-54.490669,-86.945778,-84.197644,-77.013669,-44.754964,-74.231041,-67.604277,-57.218315,-34.695568,-58.731706,-55.201096,-47.182558,49.111971,298.241735,-105.529124,38.682215
42,0.26445,-0.209556,-5.815155,-19.07703,-25.049561,-49.222618,-72.111134,-89.437214,-57.759476,-90.475548,-107.302872,-120.101349,-53.143868,-89.348271,-107.773373,-121.878685,-46.528839,-80.357849,-98.560662,-112.482251,-39.304139,-66.763756,-81.634049,-93.542942,-19.245331,-20.093485,-9.360942,1.936876,7.939794,16.779637,20.465383,23.101583,25.951821,32.71275,34.357398,35.315901,38.972093,47.038401,48.853135,49.053268,47.244932,56.048811,57.236161,57.206965,-9.687984,-5.694992,5.637761,14.441265,-5.602775,1.422089,5.158345,8.131691,10.627076,20.532807,18.624836,14.743035,26.470528,34.63464,29.441517,24.307881,41.452206,47.352734,41.477669,36.725224,-32.010537,-56.928477,-75.122359,-86.683654,-64.346171,-99.702475,-119.838222,-133.687845,-57.722026,-89.446244,-87.600376,-81.021722,-48.588676,-77.064255,-70.257124,-59.916333,-38.88831,-62.104292,-58.493967,-50.322968,47.896357,298.334308,-112.824343,19.907314
43,0.07521,-0.176347,-7.23349,-19.920109,-25.243286,-49.403045,-72.280391,-89.79348,-57.753742,-90.606479,-107.533287,-120.48127,-53.07843,-89.441597,-107.874527,-122.020031,-46.578117,-80.61034,-98.834793,-112.737144,-39.566986,-67.262317,-82.13491,-93.956497,-19.105157,-19.943716,-9.244642,1.822057,8.15786,16.942535,20.659329,23.299715,26.211284,32.938325,34.516208,35.341737,39.22464,47.285267,48.890099,48.857346,47.475928,56.281722,57.223712,56.928619,-10.59827,-7.346134,2.958161,11.33194,-6.580043,-1.140632,1.786881,4.23959,9.49078,18.124249,16.7528,13.521675,25.232266,33.454731,28.404488,23.273186,40.272835,46.302052,40.576802,35.689682,-32.367232,-56.745541,-74.221445,-85.637114,-67.036173,-101.730985,-121.988038,-135.836744,-61.212035,-92.462331,-91.993291,-86.410692,-52.550033,-80.219287,-73.067194,-62.474961,-43.213204,-65.683345,-61.940881,-53.79841,45.094551,298.337982,-122.934849,0.167226
44,-0.316154,-0.005743,-7.255668,-19.942709,-25.329643,-49.48494,-72.408497,-89.9007,-57.625935,-90.896141,-107.892506,-120.826962,-52.805695,-89.569645,-108.054886,-122.128762,-46.283867,-80.690941,-98.979344,-112.84195,-39.347466,-67.269024,-82.175354,-93.903637,-19.146727,-20.007541,-9.301341,1.668694,8.057948,16.941732,20.755907,23.457006,26.282149,33.069149,34.712241,35.538276,39.366938,47.322503,48.839266,48.715691,47.608839,56.337211,57.095691,56.641542,-11.47427,-8.827091,1.004883,9.057747,-8.891087,-4.153656,-1.735039,0.419346,6.87775,15.611995,14.053425,10.728767,22.702423,31.57323,26.843399,21.66592,38.210964,44.763645,39.211109,34.243366,-31.686489,-55.569937,-72.528125,-83.331539,-68.27635,-103.538741,-124.431168,-138.739588,-62.909647,-94.684849,-91.463355,-83.380174,-54.382106,-81.866338,-73.233661,-61.961568,-45.04356,-67.606358,-62.83068,-54.181671,41.102154,298.183035,-133.86676,-19.924687
45,-0.051979,0.079486,-8.157978,-14.012892,-25.297142,-49.611512,-72.741303,-90.399971,-57.530503,-91.032841,-108.136059,-121.102032,-52.727806,-89.775673,-108.364128,-122.425598,-46.282677,-80.963791,-99.391972,-113.312027,-39.491272,-67.531712,-82.503708,-94.231087,-19.259608,-20.231844,-9.671782,1.175937,7.914513,16.892146,20.687647,23.328021,26.290892,33.156229,34.71271,35.414466,39.448559,47.437605,48.919516,48.681814,47.672861,56.330763,56.944686,56.333171,-11.742634,-9.574459,-0.317036,7.313873,-11.013405,-6.651032,-4.162125,-2.013783,4.543361,13.968589,13.05138,9.552749,20.442226,29.871414,26.04919,20.951454,36.036598,43.02515,38.355789,33.882591,-30.597162,-53.43959,-70.721425,-82.918292,-66.395673,-101.138261,-123.009704,-139.572517,-61.67297,-93.255629,-89.86957,-82.177491,-54.004631,-81.068225,-72.387173,-61.623193,-45.514561,-67.936253,-62.871984,-53.996295,36.60886,298.065417,-146.466053,-34.134683
46,-0.163193,0.071655,-8.937355,-1.771199,-25.187073,-49.688072,-73.07785,-91.015789,-57.626324,-91.528301,-108.662922,-121.508366,-52.718227,-90.186436,-108.811787,-122.720043,-46.234634,-81.223492,-99.719044,-113.621807,-39.468864,-67.710686,-82.736183,-94.443741,-19.512081,-20.492912,-9.853242,0.85922,7.677972,16.843746,20.668357,23.321513,26.222868,33.28835,34.853575,35.52022,39.458624,47.521079,49.033767,48.796571,47.646161,56.244831,56.803142,56.186144,-12.512284,-11.081417,-2.533001,5.534671,-12.275357,-7.89338,-5.441334,-3.20588,3.443172,13.433097,12.469814,8.763256,19.655857,29.324478,25.563457,20.603382,35.558235,42.463256,37.87532,33.624961,-31.813757,-55.442546,-73.640225,-86.466163,-67.09688,-102.561991,-124.896331,-142.238196,-62.492436,-95.348672,-91.676196,-83.958306,-55.190641,-83.642712,-75.188271,-64.52865,-47.022284,-71.049203,-66.082426,-57.092628,32.072308,297.747955,-159.776767,-36.294999
47,0.19844,0.025564,-6.089024,2.976049,-25.382537,-50.005691,-73.505825,-91.60651,-58.209491,-92.186267,-109.229976,-121.974037,-53.189128,-90.700321,-109.169094,-122.943855,-46.603408,-81.615955,-100.022483,-113.820865,-39.810081,-68.079425,-83.104808,-94.805763,-19.739223,-20.666677,-9.953116,0.613466,7.410902,16.680812,20.528715,23.142326,26.008138,33.377308,34.963454,35.589925,39.271805,47.56002,49.109683,48.919961,47.453105,56.038067,56.554893,55.963596,-13.788517,-13.104504,-5.254303,2.674152,-15.645023,-11.422703,-8.986141,-6.730053,0.287212,10.366814,9.590515,6.528557,16.975628,26.814468,22.774635,18.08392,33.716595,40.058418,35.022869,30.930874,-32.426858,-57.015138,-75.68548,-88.603728,-65.111141,-101.062809,-123.142156,-139.670219,-59.525946,-93.030686,-88.029322,-79.404824,-51.902586,-81.185237,-71.901211,-60.833536,-44.084706,-68.11591,-62.618889,-53.751134,28.869432,297.342377,-169.267107,-33.750092
48,0.309083,-0.374232,-6.659649,19.830644,-25.624009,-50.379845,-73.936284,-92.04229,-58.884659,-92.922398,-109.734135,-122.215119,-53.729531,-91.192978,-109.411103,-122.967808,-46.981064,-81.927899,-100.200474,-113.897313,-40.115868,-68.262829,-83.197884,-94.873478,-19.782806,-20.591033,-9.791367,0.68769,7.270469,16.774401,20.646139,23.173534,25.853008,33.659248,35.332055,35.998119,39.136374,47.79251,49.491795,49.465748,47.314438,55.989333,56.551694,56.099891,-15.222553,-15.189056,-7.218281,1.197716,-17.613979,-12.974007,-10.652435,-8.471432,-0.922108,9.877888,8.192665,4.905201,16.522499,26.304234,21.723953,17.227627,33.694531,39.235394,33.768917,29.844841,-32.799651,-58.900389,-78.937496,-91.826302,-63.271287,-102.014601,-124.864702,-141.789656,-57.072293,-94.197095,-86.801492,-75.763921,-49.557126,-82.648597,-73.791217,-62.573316,-42.271127,-69.095889,-64.183557,-55.350377,27.343335,296.485634,-177.761936,-14.401959
49,0.7042,-0.472168,-5.243614,27.3684,-25.837166,-50.731521,-74.322841,-92.463009,-59.788662,-93.447933,-109.909504,-122.154247,-54.592907,-91.580841,-109.374824,-122.672527,-47.76876,-82.389919,-100.421104,-113.983623,-40.853943,-68.786613,-83.628399,-95.345489,-19.750573,-20.509831,-9.62947,0.789257,7.225169,17.062849,20.985618,23.384226,25.778512,34.074976,35.80179,36.329212,39.033954,48.148735,49.958405,49.92569,47.176623,56.056382,56.726682,56.309904,-16.046001,-16.721031,-8.56049,-0.044701,-19.109699,-14.123577,-11.83263,-9.965183,-1.602024,9.173435,6.912266,3.766399,16.530201,25.79322,20.403694,16.161564,34.054333,38.297939,32.279537,28.741196,-32.504731,-60.543494,-81.925531,-94.99989,-60.157208,-101.024328,-124.087598,-140.672319,-52.903337,-93.163457,-85.71474,-74.132098,-45.016989,-81.473154,-72.785031,-60.990672,-37.947851,-67.181052,-62.392721,-53.360433,27.211206,295.66992,-183.841879,12.622895
50,0.730431,-0.506353,-3.016903,30.247902,-26.147942,-51.163582,-74.690117,-92.849545,-60.381054,-93.927796,-110.094692,-122.044418,-54.984936,-91.842945,-109.270718,-122.27544,-48.0187,-82.633827,-100.516262,-113.935009,-41.083672,-69.098797,-83.959087,-95.785641,-19.639435,-20.129931,-8.924071,1.401623,7.249214,17.52163,21.52071,23.842241,25.751737,34.535869,36.349454,36.847915,38.961545,48.485188,50.415185,50.474799,47.048169,56.178659,57.086032,56.878032,-16.04488,-17.414509,-9.720577,-1.637169,-20.471329,-15.863846,-13.915752,-12.40971,-2.978222,7.785164,5.661037,2.761093,15.327221,25.076191,19.504211,15.431694,33.284203,37.45182,31.075161,27.311886,-32.656087,-61.67008,-83.574532,-96.325054,-56.455172,-98.284524,-121.207818,-136.769777,-47.986461,-91.29757,-84.442663,-72.270687,-39.443316,-79.381303,-70.982907,-58.751188,-32.477005,-64.058216,-59.60619,-50.591637,28.313656,294.926708,-186.486763,42.633938
51,0.786941,-0.461276,-0.983517,26.968882,-26.561576,-51.552658,-74.879436,-92.826839,-60.658516,-94.005375,-109.903804,-121.636104,-55.236648,-91.842098,-108.941894,-121.738048,-48.289558,-82.792694,-100.571743,-113.950927,-41.439766,-69.35099,-84.254367,-96.250064,-19.433114,-19.799109,-8.416729,1.929009,7.413903,17.957588,21.88442,24.007239,25.834594,34.870803,36.600198,36.979876,38.9921,48.761089,50.747612,50.825344,47.083244,56.42287,57.511444,57.438862,-16.149662,-17.664299,-9.50489,-1.757011,-21.619262,-17.401909,-15.820896,-14.817856,-3.804165,6.185955,4.377034,1.852101,14.834965,23.846077,18.319313,14.462918,32.909958,36.425022,30.04723,26.36324,-31.082317,-60.557228,-83.074633,-96.043423,-51.532905,-93.938037,-116.684326,-131.848344,-42.697971,-87.928462,-82.470454,-70.625429,-34.277815,-76.774306,-69.026883,-56.516867,-27.982403,-61.398614,-57.424277,-48.263381,30.143686,294.417711,-186.427191,69.555099
52,0.607888,-0.508082,-1.193184,25.188944,-26.668465,-51.755608,-75.04224,-93.061432,-60.523693,-93.909897,-109.732373,-121.334679,-55.086663,-91.673733,-108.651249,-121.261574,-48.177544,-82.753121,-100.5313,-113.930603,-41.402115,-69.391857,-84.37888,-96.488732,-19.213728,-19.360953,-7.754222,2.579487,7.861445,18.644672,22.49896,24.527374,26.259387,35.452368,37.065227,37.302855,39.376261,49.364847,51.313999,51.285816,47.371631,56.963532,58.188364,58.180682,-16.503398,-18.010849,-9.110893,-0.841037,-20.87392,-16.768249,-15.361393,-14.60543,-2.385372,7.291878,5.231026,2.467106,16.582158,24.491948,18.950821,15.087113,34.214802,37.094227,30.949826,27.571404,-29.156316,-59.181503,-82.452504,-95.830669,-50.001544,-93.350494,-116.696997,-132.788025,-41.780965,-89.07137,-86.129487,-75.647256,-34.10718,-79.167487,-73.026871,-60.796881,-28.30726,-64.247686,-61.112685,-51.779481,32.070351,294.010138,-186.301598,94.844552
53,0.641189,-0.062751,0.981732,9.604177,-26.732185,-51.887832,-75.288025,-93.513691,-60.413944,-93.870872,-109.80772,-121.555858,-54.971523,-91.608787,-108.677295,-121.371185,-48.086471,-82.750145,-100.615791,-114.135841,-41.334228,-69.445759,-84.509891,-96.693557,-19.175072,-19.273168,-7.695448,2.580858,8.017451,18.926674,22.76377,24.793321,26.427781,35.646475,37.20697,37.41245,39.543494,49.552532,51.477144,51.392324,47.531527,57.277879,58.603487,58.635733,-16.324047,-17.667126,-8.767822,-0.628807,-21.055847,-17.113037,-15.608288,-14.842438,-2.369682,6.775394,5.076404,2.215233,16.622841,23.329513,17.972603,14.057911,34.196789,36.395691,30.34996,27.212974,-28.074726,-57.743323,-81.255774,-95.217629,-48.067206,-90.660911,-113.606136,-129.384632,-40.114519,-86.660689,-85.297845,-75.961355,-32.718888,-77.265438,-71.392689,-59.270275,-27.138682,-62.717158,-59.40347,-49.927147,34.164459,294.173387,-183.866947,104.674729
54,0.482643,0.166084,1.087074,0.680094,-26.740883,-51.868995,-75.33815,-93.568187,-60.004051,-93.847549,-110.131485,-122.137161,-54.607429,-91.682407,-109.132427,-122.059444,-47.806251,-82.815914,-100.925491,-114.57637,-41.130272,-69.460739,-84.618061,-96.827568,-19.148124,-19.277738,-7.698844,2.752537,7.963036,18.818944,22.765672,24.98681,26.379096,35.487196,37.149616,37.567505,39.52981,49.380088,51.386976,51.463127,47.58872,57.305111,58.753355,58.984265,-16.059746,-17.422176,-8.788078,-0.786346,-21.137329,-17.588642,-16.045544,-15.088177,-2.836899,6.150467,4.677887,2.074059,16.001713,22.556351,17.690643,14.184059,33.555771,35.88961,30.301426,27.439556,-27.326082,-56.614562,-80.118115,-94.17396,-47.276726,-89.248994,-111.942585,-127.655577,-39.554782,-85.395966,-83.583116,-74.138693,-32.30792,-76.137461,-69.825371,-57.654352,-26.761084,-61.812057,-58.262044,-48.817393,36.313345,294.642653,-181.11363,105.658005
55,0.242615,0.093107,0.06942,-1.698686,-26.703689,-51.838737,-75.418648,-93.642895,-59.831978,-93.90184,-110.441643,-122.684006,-54.456413,-91.78101,-109.566616,-122.731739,-47.66423,-82.807892,-101.04895,-114.734802,-40.929039,-69.235371,-84.350464,-96.458656,-19.063007,-19.172713,-7.57848,3.060363,8.24967,18.960106,23.032669,25.494831,26.605029,35.561852,37.454972,38.186801,39.715358,49.410395,51.565176,51.834062,47.756781,57.458264,59.021847,59.410677,-16.449932,-17.196384,-8.012192,0.51194,-20.289917,-16.891148,-15.487759,-14.537613,-1.664864,6.731312,5.164741,2.790768,17.327133,22.735382,17.713337,14.197529,34.600536,36.197834,30.693615,28.159161,-26.633415,-55.935912,-79.539106,-94.495185,-48.589787,-90.418034,-113.471161,-130.031405,-41.68727,-87.01177,-86.765226,-78.678385,-35.200346,-78.682387,-72.82339,-60.743775,-29.908083,-64.67706,-61.461111,-52.016299,38.224005,294.998987,-179.376165,104.222546
56,-0.071068,0.224179,-0.04224,-4.232391,-26.711906,-51.784698,-75.453632,-93.70729,-59.809135,-94.031204,-110.743641,-123.146827,-54.362823,-91.940563,-109.948906,-123.32658,-47.469658,-82.743026,-100.960258,-114.580513,-40.614601,-68.997184,-83.968105,-95.833328,-19.004307,-19.133131,-7.562499,3.369633,8.425152,19.094684,23.375655,26.086412,26.773805,35.769037,37.955854,38.975637,39.893656,49.58789,51.840582,52.229548,47.962866,57.727496,59.291115,59.696432,-16.452187,-16.808499,-8.223965,0.039985,-19.725483,-15.913811,-14.57127,-13.526047,-1.048634,7.389862,5.457733,2.786178,17.819458,22.946983,17.760532,13.946022,34.802822,36.42905,30.746578,28.06501,-27.132304,-56.436505,-80.238226,-95.923905,-50.201721,-91.924016,-115.284666,-132.170946,-43.547329,-88.858189,-88.118999,-79.725963,-37.168654,-80.230816,-74.116605,-62.044968,-31.667149,-65.911377,-62.687635,-53.28427,39.486379,295.381278,-178.084963,100.148267
57,-0.072372,0.339219,-0.274727,-4.894054,-26.897324,-51.879158,-75.548149,-93.58469,-60.043339,-94.277996,-111.09248,-123.641041,-54.510246,-92.170647,-110.343613,-123.993199,-47.550682,-82.859287,-101.066345,-114.634838,-40.656441,-69.035442,-83.8923,-95.5509,-18.949534,-19.142183,-7.577133,3.703877,8.412716,19.1666,23.687076,26.570721,26.768569,35.913175,38.418056,39.677394,39.898893,49.606193,51.962527,52.444811,48.040759,57.842266,59.337923,59.648786,-16.092728,-16.021008,-7.467144,0.769043,-19.560288,-15.161888,-13.706028,-12.566986,-0.975746,7.751862,5.836636,3.108238,17.887093,23.354919,18.244011,14.535473,34.949867,36.731655,31.023033,28.418907,-28.088058,-57.796237,-82.26501,-98.381534,-51.151905,-93.16946,-116.29021,-132.908536,-44.207694,-89.533997,-86.456091,-76.505469,-37.461554,-80.129508,-72.98598,-60.465929,-31.629592,-65.619532,-61.784782,-52.111512,40.576681,295.778977,-177.197016,95.312693
58,-0.066193,0.250905,-0.310398,-3.148795,-27.043854,-51.979912,-75.588684,-93.425983,-60.433502,-94.567852,-111.364952,-123.944916,-54.81768,-92.421203,-110.592087,-124.375156,-47.824951,-83.095733,-101.271343,-114.840706,-40.893173,-69.255066,-84.111477,-95.752109,-18.795257,-18.973037,-7.295231,4.327827,8.679551,19.456023,24.136754,27.097797,26.983003,36.273834,39.053208,40.452176,40.009438,49.825851,52.30024,52.817795,48.102113,57.940572,59.402118,59.640375,-15.862438,-15.66845,-7.026158,1.14624,-19.211586,-14.595257,-13.22041,-12.170918,-0.896713,8.074196,6.095856,3.607498,17.872913,23.887756,18.745708,15.298542,34.894215,36.999298,31.361297,28.884121,-28.322636,-58.647041,-83.220246,-99.138743,-51.727283,-94.346893,-117.417767,-134.000204,-44.377533,-89.996644,-85.092192,-73.962223,-37.196997,-79.948469,-71.83084,-58.862531,-30.949418,-64.934671,-60.461218,-50.599362,41.570022,296.016362,-176.44788,92.150378
59,-0.188461,-0.014944,-0.657452,0.913461,-27.280884,-52.31028,-75.871136,-93.73169,-60.849873,-94.88855,-111.577263,-124.077965,-55.114265,-92.616806,-110.671246,-124.499977,-48.04747,-83.204395,-101.283428,-114.875153,-41.092461,-69.375938,-84.199253,-95.859856,-18.609722,-18.591443,-6.819308,4.822892,9.057229,20.031327,24.730583,27.61208,27.303204,36.801578,39.634934,41.017649,40.264517,50.336132,52.81845,53.259088,48.322933,58.357634,59.812808,59.987635,-15.747997,-15.097091,-6.458931,1.741413,-18.338653,-13.341785,-11.932125,-10.853302,0.139824,9.104141,7.286797,4.79084,18.904518,24.772328,19.583222,15.888829,35.789761,37.992417,32.21299,29.484352,-29.438002,-60.084602,-84.939643,-101.377238,-53.238531,-96.409356,-119.695504,-136.493259,-45.878765,-91.890442,-86.996975,-75.76108,-38.760974,-81.770093,-73.914749,-61.02474,-32.483199,-66.637321,-62.339431,-52.382232,42.261801,295.890888,-176.225092,92.953309
60,-0.132866,0.195391,-0.313007,0.962559,-27.497452,-52.554016,-76.119816,-94.129246,-61.187015,-95.168163,-111.802391,-124.296684,-55.397804,-92.817146,-110.750084,-124.626766,-48.313889,-83.413101,-101.434696,-115.110432,-41.382065,-69.754086,-84.612854,-96.338425,-18.581823,-18.510526,-6.742268,4.863573,8.972137,20.132487,24.897408,27.758959,27.205601,36.95604,39.820025,41.157106,40.203939,50.511577,52.95614,53.285122,48.375025,58.584073,59.965825,60.018745,-15.535606,-14.789784,-6.141815,2.120705,-18.138886,-12.534336,-11.003117,-9.900616,0.241104,9.529438,7.388008,4.669578,18.967472,25.102638,19.765434,16.159286,35.926472,38.378803,32.427887,29.64077,-30.603794,-61.615271,-86.954954,-103.626898,-54.241296,-97.833999,-120.938497,-137.558225,-46.686374,-92.964862,-86.329607,-73.995704,-39.336315,-82.244095,-73.710596,-60.547279,-32.857659,-67.062534,-62.262965,-51.968974,42.758978,295.90594,-175.908056,93.735529
61,-0.144859,0.048857,-0.532482,1.672201,-27.601021,-52.798622,-76.456581,-94.527855,-61.342587,-95.384045,-112.054299,-124.569134,-55.466606,-92.913883,-110.900929,-124.732464,-48.309059,-83.398407,-101.466774,-115.14489,-41.304474,-69.630982,-84.524472,-96.287785,-18.476316,-18.283828,-6.514348,5.036264,9.023637,20.320776,25.192636,28.111566,27.255483,37.249133,40.216351,41.569846,40.219142,50.770509,53.328458,53.71446,48.308014,58.599078,60.061995,60.174553,-15.393151,-14.713211,-5.87225,2.331253,-17.756596,-12.288803,-10.691071,-9.569916,0.533226,9.649086,7.681125,5.219661,19.20734,25.190963,19.980766,16.731651,36.21738,38.540783,32.738491,30.188587,-31.183871,-62.439126,-87.733886,-104.442041,-55.210407,-99.111455,-122.123172,-138.617219,-47.595889,-93.852129,-86.969484,-74.608317,-40.183753,-82.954768,-74.158434,-61.017385,-33.629447,-67.977212,-62.980517,-52.644918,43.14176,295.765871,-175.912897,95.218804
62,-0.264015,0.053648,-0.683281,1.437896,-27.598389,-52.98333,-76.750306,-95.119149,-61.546109,-95.691754,-112.311745,-124.710984,-55.557816,-93.108765,-111.098294,-124.86327,-48.257401,-83.377179,-101.457791,-115.166749,-41.080513,-69.456608,-84.329842,-96.103306,-18.467868,-18.154757,-6.379002,4.953952,9.013782,20.375549,25.367971,28.487022,27.243516,37.306475,40.379385,41.888294,40.231061,50.888873,53.563642,54.102513,48.348078,58.636907,60.125253,60.357817,-15.333138,-14.588127,-5.588093,2.592933,-17.46611,-11.859741,-10.167526,-8.969582,0.936825,10.092109,8.082149,5.654468,19.604782,25.548351,20.315586,17.165188,36.563095,38.767708,32.880363,30.380894,-31.7361,-63.248508,-88.712414,-105.58745,-55.819989,-100.047357,-123.057641,-139.499312,-48.150075,-94.726793,-87.921299,-75.563887,-40.687371,-83.597696,-74.811297,-61.698381,-34.08477,-68.572085,-63.587888,-53.239594,43.367924,295.642073,-176.105999,96.479254
63,-0.258408,-0.042978,-0.561379,1.01677,-27.696396,-53.234963,-77.074471,-95.555855,-61.58622,-95.792965,-112.371426,-124.727074,-55.585831,-93.217884,-111.234295,-124.934132,-48.211418,-83.310883,-101.370838,-114.992626,-40.932495,-69.218273,-84.009167,-95.693436,-18.439673,-18.042593,-6.288526,4.883309,9.087191,20.426246,25.487248,28.757031,27.318691,37.394988,40.502256,42.107581,40.311311,51.075297,53.858709,54.520822,48.397219,58.699201,60.28757,60.642486,-15.188186,-14.339653,-5.323826,2.712353,-17.407539,-11.600452,-9.881893,-8.745289,1.042179,10.317536,8.42981,6.051236,19.734879,25.701908,20.71661,17.724037,36.782925,38.885193,33.14518,30.816204,-32.071201,-63.593211,-89.108562,-106.324817,-56.39575,-100.554069,-123.580649,-140.114513,-48.876797,-95.388134,-88.610304,-76.292912,-41.454515,-84.072198,-75.259544,-62.27568,-34.79067,-69.132069,-64.074457,-53.743977,43.545885,295.425401,-176.231009,97.32233
64,-0.369461,0.175223,-0.455715,0.593483,-27.809029,-53.422188,-77.330841,-95.778694,-61.559841,-95.806286,-112.333706,-124.654255,-55.531723,-93.244732,-111.284294,-124.907032,-48.094437,-83.165989,-101.134049,-114.624664,-40.712174,-68.931999,-83.622082,-95.149304,-18.455642,-18.005889,-6.254699,4.883235,9.098997,20.381403,25.526904,28.938479,27.349887,37.495443,40.681826,42.405688,40.33343,51.160142,53.979518,54.71972,48.358291,58.582616,60.118126,60.447219,-15.279693,-14.352047,-5.23962,2.680802,-17.35263,-11.491962,-9.717888,-8.456383,1.213085,10.538967,8.557881,6.173287,19.940804,25.89402,20.898399,17.942185,36.993691,38.980488,33.232865,31.02071,-32.233802,-63.734792,-89.207776,-106.542765,-56.731166,-100.746334,-123.810453,-140.460797,-49.348589,-95.58739,-88.900537,-76.656029,-41.993868,-84.277629,-75.48484,-62.59362,-35.345893,-69.507851,-64.452579,-54.169048,43.60512,295.455912,-176.258028,97.771101
65,-0.498779,0.043374,-0.492496,0.087463,-27.890305,-53.518639,-77.4119,-95.659081,-61.529904,-95.723477,-112.161805,-124.393914,-55.485718,-93.184811,-111.238278,-124.774167,-47.959832,-82.901185,-100.750283,-114.054612,-40.464203,-68.484341,-83.019413,-94.374951,-18.427398,-17.897863,-6.083737,5.034955,9.260585,20.476078,25.627273,29.089038,27.555578,37.68614,40.89521,42.659778,40.529969,51.393954,54.242624,55.037425,48.494191,58.681959,60.204194,60.517009,-15.318856,-14.169743,-4.876454,2.994621,-17.35936,-11.22377,-9.393334,-7.993389,1.316871,10.706588,8.534328,6.074283,20.077079,26.051067,20.959385,17.985157,37.10305,38.966697,33.110859,30.946815,-32.411445,-64.027878,-89.598872,-107.160887,-56.884424,-100.73935,-123.859439,-140.580623,-49.518779,-95.684585,-88.953809,-76.611155,-42.173518,-84.425354,-75.705844,-62.822887,-35.546742,-69.751999,-64.750555,-54.401137,43.546881,295.39619,-176.309984,97.755468
66,-0.269394,0.102925,-0.362915,-0.141204,-27.946862,-53.525185,-77.363491,-95.596093,-61.585511,-95.588368,-111.957802,-124.199501,-55.587456,-93.084275,-111.082547,-124.666878,-48.050881,-82.798634,-100.556797,-113.784314,-40.556923,-68.453408,-82.893425,-94.159127,-18.4848,-17.897171,-6.022666,4.912665,9.256659,20.357938,25.495214,28.98673,27.570756,37.566234,40.776391,42.582479,40.581852,51.367994,54.195731,54.99651,48.631969,58.777451,60.245011,60.49247,-15.330929,-14.103436,-4.759724,3.078895,-17.42157,-11.010167,-9.155194,-7.74226,1.291523,10.983032,8.649936,6.083805,20.093467,26.308879,21.090282,18.010666,37.170147,39.236972,33.310478,31.080768,-32.511975,-64.03582,-89.496132,-107.062155,-56.842514,-100.515012,-123.664741,-140.528099,-49.47348,-95.423418,-88.877727,-76.673727,-42.118474,-84.293042,-75.749274,-62.860753,-35.471178,-69.554936,-64.682662,-54.340233,43.740452,295.409043,-176.209934,97.524192
67,-0.478569,0.157525,-0.329544,-0.031956,-27.958832,-53.357186,-77.139073,-95.181828,-61.236397,-95.161869,-111.570694,-123.928093,-55.311013,-92.784645,-110.804936,-124.388306,-47.819413,-82.524731,-100.253266,-113.440739,-40.366928,-68.266972,-82.720597,-93.9879,-18.496644,-17.938544,-6.036942,4.992694,9.20059,20.233523,25.351966,28.793057,27.574832,37.580597,40.763127,42.509515,40.609566,51.426657,54.20797,54.926621,48.654533,58.840288,60.32562,60.509155,-15.365319,-14.164582,-4.659737,3.416336,-17.355034,-10.871235,-8.984082,-7.539769,1.351867,11.151969,8.767787,6.189765,20.165668,26.440029,21.093933,17.936428,37.26123,39.478042,33.523693,31.248092,-32.498081,-63.785965,-88.960423,-106.313165,-56.711097,-100.28165,-123.520813,-140.550366,-49.357055,-95.146684,-88.845289,-76.844615,-42.043633,-84.201454,-75.787843,-62.899643,-35.41351,-69.491246,-64.774842,-54.46332,43.748503,295.504645,-176.052858,97.430313
68,-0.550164,0.207618,-0.22633,-0.159341,-27.773002,-53.00354,-76.770366,-94.716087,-60.833027,-94.867607,-111.338401,-123.68399,-54.883941,-92.505294,-110.569187,-124.075332,-47.365127,-82.134052,-99.874179,-112.998596,-39.90438,-67.930641,-82.401466,-93.61433,-18.574747,-18.034332,-6.006389,5.147613,9.097577,20.196126,25.302849,28.745323,27.589306,37.662502,40.845798,42.571129,40.683209,51.556728,54.294309,54.965264,48.715332,58.949858,60.371562,60.461051,-15.368134,-14.146809,-4.532421,3.743694,-17.341908,-10.718479,-8.708073,-7.142899,1.365165,11.214626,8.712192,5.980156,20.204281,26.525333,21.071571,17.803734,37.308105,39.530708,33.50235,31.195873,-32.435929,-63.849815,-89.097632,-106.241874,-56.432516,-100.113924,-123.347751,-140.304766,-48.914971,-94.774267,-88.260488,-76.060119,-41.490225,-83.794821,-75.321115,-62.315478,-34.803063,-69.022653,-64.276516,-53.891721,43.683162,295.692271,-175.794365,97.25098
69,-0.322036,0.095367,-0.027054,0.072501,-27.566643,-52.579811,-76.323269,-94.226807,-60.621563,-94.687661,-111.182156,-123.478993,-54.655484,-92.342778,-110.428425,-123.905331,-47.045517,-81.849953,-99.633397,-112.724545,-39.514069,-67.59343,-82.101105,-93.310158,-18.590789,-18.111729,-6.118737,5.132793,9.102838,20.203376,25.256104,28.711904,27.629234,37.647608,40.821098,42.528139,40.738624,51.631508,54.396901,55.075304,48.767845,59.084511,60.517763,60.578611,-15.391102,-14.12439,-4.343742,4.176933,-17.541332,-10.787018,-8.682987,-7.060696,1.203014,11.204052,8.728947,5.940857,20.135433,26.61478,21.14566,17.810383,37.337162,39.723701,33.671883,31.317112,-32.505966,-64.050485,-89.388013,-106.4338,-56.413632,-100.003471,-123.339038,-140.351394,-48.795496,-94.486195,-87.866396,-75.590519,-41.30222,-83.558089,-75.137728,-62.076652,-34.5843,-68.810182,-64.164186,-53.787807,43.899285,295.793776,-175.28326,97.329619
70,-0.194504,0.178459,0.303898,-0.252053,-27.46946,-52.298355,-76.044079,-93.888233,-60.448357,-94.607197,-111.154152,-123.456127,-54.500931,-92.273506,-110.397778,-123.840065,-46.866921,-81.701477,-99.534096,-112.625279,-39.280701,-67.383351,-81.931309,-93.124901,-18.501115,-18.12566,-6.283858,5.163866,9.083337,20.115678,25.101048,28.562517,27.584094,37.61472,40.777156,42.483517,40.670896,51.604856,54.391924,55.100806,48.678504,59.033319,60.450751,60.496854,-15.509754,-14.312794,-4.666352,3.96223,-17.538082,-10.848404,-8.656494,-6.958729,1.207008,11.187847,8.76725,6.068184,20.13826,26.622814,21.228573,17.956386,37.333706,39.697563,33.605392,31.281429,-32.343624,-63.719651,-88.922143,-105.793078,-56.555862,-99.875808,-123.175572,-140.214135,-49.067847,-94.372228,-87.632343,-75.377153,-41.538946,-83.434075,-74.96495,-61.980321,-34.701971,-68.700816,-63.93285,-53.636821,44.201414,295.990133,-174.482729,97.095464
71,-0.144287,0.198317,0.607921,-0.991298,-27.444283,-52.207421,-75.985817,-93.772122,-60.306439,-94.58273,-111.153706,-123.437519,-54.338105,-92.299713,-110.434628,-123.826882,-46.686379,-81.616185,-99.406117,-112.453903,-39.092423,-67.24934,-81.792607,-92.941464,-18.447145,-18.200193,-6.428057,5.264507,9.049622,19.997192,24.855937,28.250727,27.587553,37.602827,40.602613,42.196712,40.714702,51.727295,54.400446,55.042465,48.723459,59.161032,60.46504,60.388803,-15.591556,-14.308685,-4.584262,4.030472,-17.345844,-10.397724,-8.131942,-6.356552,1.417992,11.513558,8.928177,6.17212,20.417771,27.083622,21.649441,18.322335,37.690922,40.087326,33.831711,31.479618,-32.197702,-63.284644,-88.387502,-105.253169,-56.538473,-99.640106,-122.88989,-139.8617,-49.12909,-94.165308,-87.045017,-74.580505,-41.574298,-83.182609,-74.554823,-61.578048,-34.66586,-68.6053,-63.576939,-53.143232,44.563877,296.198667,-173.368058,96.114383
72,0.260559,0.095269,1.300187,-1.512977,-27.450371,-52.223419,-76.059574,-93.82703,-60.141335,-94.475155,-111.140854,-123.502224,-54.255776,-92.267716,-110.464554,-123.834549,-46.66951,-81.539326,-99.33458,-112.386635,-39.154587,-67.179943,-81.733761,-92.865475,-18.330388,-18.152201,-6.450992,5.34225,9.095156,19.884954,24.503638,27.79407,27.662073,37.521316,40.149377,41.494572,40.839475,51.940223,54.433173,54.940441,48.841451,59.430412,60.674324,60.439957,-15.445965,-13.937142,-4.278672,4.285675,-16.496167,-9.160458,-6.665978,-4.652756,2.140388,12.500392,9.747127,6.960205,21.032821,27.991172,22.525405,19.216506,38.228485,40.719703,34.338535,31.992633,-31.899856,-62.785466,-87.98405,-105.07531,-56.692473,-99.171205,-122.539272,-139.751563,-49.458023,-93.85568,-86.500484,-73.941741,-41.734893,-82.588503,-73.957203,-61.123158,-34.476503,-67.939434,-62.756246,-52.301877,45.338436,296.294646,-171.553871,94.602116
73,0.426681,0.242136,1.628849,-1.382098,-27.677215,-52.581848,-76.442516,-94.044468,-59.91719,-94.23365,-110.917625,-123.362125,-54.244697,-92.198581,-110.436161,-123.868675,-46.877609,-81.614399,-99.428203,-112.629181,-39.577491,-67.529491,-82.160923,-93.453838,-18.36172,-18.342145,-6.718223,5.251465,8.432932,19.165796,23.718432,26.948571,27.117261,36.932489,39.267099,40.37584,40.529426,51.685428,53.954768,54.265249,48.821629,59.58154,60.804358,60.473722,-14.87875,-12.824215,-2.920464,5.711288,-14.75235,-6.762875,-3.876664,-1.397496,3.696762,14.372406,11.117054,8.218425,22.381187,29.618213,23.846557,20.513889,39.415878,42.158626,35.519851,33.106784,-31.588016,-62.067494,-86.87219,-103.922837,-56.848176,-98.63079,-122.008996,-139.375472,-49.605761,-93.099577,-85.708491,-73.279584,-41.699837,-81.767493,-73.307551,-60.66994,-34.153511,-67.162076,-62.005626,-51.566497,46.602544,296.552445,-169.087595,93.235681
74,0.323365,0.256906,2.239791,-0.741839,-27.802849,-52.871476,-76.77784,-94.093049,-59.194474,-93.694989,-110.622288,-123.269452,-53.720639,-91.865056,-110.342675,-123.800995,-46.674797,-81.506379,-99.456334,-112.806908,-39.706147,-67.69209,-82.414158,-93.861798,-18.253298,-18.454493,-6.819184,5.487586,7.738673,18.427138,23.000201,26.197353,26.670892,36.415441,38.44451,39.248327,40.367121,51.539734,53.527184,53.562604,48.873006,59.778104,60.955585,60.435635,-13.691242,-10.606681,0.156155,9.485402,-12.259735,-3.18148,0.31604,3.419495,5.838479,17.249772,13.257763,9.944916,24.187935,32.189644,25.912709,22.418862,40.896664,43.978226,37.077313,34.669419,-31.308922,-61.515031,-85.79483,-102.343601,-56.72394,-98.050885,-121.285379,-138.58577,-49.135735,-91.885601,-84.332173,-71.871854,-40.753116,-80.097817,-71.712877,-59.256473,-32.709347,-65.157206,-60.00264,-49.692248,47.958985,296.678345,-165.814728,92.362836
75,0.592941,0.325215,2.939885,1.58827,-27.863388,-53.006355,-76.960888,-94.184406,-58.212444,-92.998364,-110.202404,-123.046063,-52.886696,-91.326771,-110.060772,-123.612854,-46.157021,-81.175266,-99.298771,-112.822403,-39.615303,-67.753658,-82.619717,-94.243698,-18.291559,-18.623776,-6.882825,5.610667,6.834251,17.551603,22.241992,25.547294,26.079446,35.802222,37.622809,38.190765,40.098568,51.347542,53.136192,52.97017,48.833164,59.965714,61.168389,60.544315,-12.259369,-7.9128,4.315452,14.47459,-9.566655,1.131351,5.587371,9.559639,8.244678,21.253498,16.43851,12.519722,26.34581,35.871013,28.850051,25.01802,42.81055,46.834602,39.648491,37.137245,-31.215568,-61.683042,-85.285031,-100.830951,-56.707187,-97.510359,-120.460443,-137.477523,-48.203705,-90.129845,-82.530963,-70.202456,-38.92854,-77.755612,-69.449107,-57.135019,-30.117528,-62.147695,-56.973109,-46.88303,49.991839,296.561072,-161.43493,93.508618
76,0.690719,0.239233,3.597782,4.650572,-27.984649,-53.230819,-77.345581,-94.600971,-57.125747,-92.16917,-109.63179,-122.67097,-51.948188,-90.670475,-109.701885,-123.373157,-45.518806,-80.707031,-99.091346,-112.843586,-39.313018,-67.559886,-82.611957,-94.419616,-18.372909,-18.820402,-7.008906,5.733464,6.048774,16.793173,21.604234,24.996962,25.574106,35.22141,36.918781,37.341808,39.857433,51.007347,52.669495,52.352234,48.761732,59.964059,61.259817,60.606424,-10.49762,-4.171578,10.060535,21.071502,-6.368386,6.417686,12.186607,17.229126,11.111847,26.138649,20.336883,15.651008,28.744961,40.200187,32.208229,27.907871,44.759056,49.708271,42.000377,39.319851,-31.815813,-63.18375,-86.564049,-101.73552,-56.173849,-95.810815,-118.146612,-134.670245,-46.238492,-87.222951,-79.769324,-67.524224,-35.807551,-74.415285,-66.226983,-53.859265,-26.064997,-57.847477,-52.951256,-43.15317,52.410867,296.392246,-156.108839,97.751131
77,0.653962,0.325462,4.096058,8.223809,-28.016213,-53.180214,-77.3275,-94.619202,-56.238877,-91.42162,-109.014794,-122.128624,-51.129822,-90.073689,-109.287152,-123.098751,-44.893341,-80.236771,-98.785172,-112.659588,-38.927353,-67.279324,-82.459923,-94.384896,-18.50855,-19.038801,-7.164765,5.669046,5.48235,16.157773,21.039366,24.43244,25.14541,34.595137,36.376278,36.834664,39.534133,50.400167,52.048632,51.714933,48.541307,59.646254,60.989597,60.356829,-8.334298,0.264587,16.8876,28.910797,-3.210686,12.935623,19.683746,25.107719,13.716282,31.998596,25.148483,19.366687,30.680523,45.182773,36.291664,31.348034,46.153175,53.208286,44.978862,41.833889,-32.243583,-64.534991,-87.482111,-102.081138,-55.040754,-93.051128,-112.904194,-127.342787,-43.302563,-83.28916,-75.742833,-63.719343,-31.584224,-69.884528,-61.658225,-49.483384,-20.96471,-52.429922,-47.717767,-38.374855,54.923321,296.378108,-150.154289,105.63534
78,0.567855,0.114423,5.36087,11.084767,-27.703147,-52.654701,-76.847854,-94.3637,-55.309227,-90.751029,-108.614112,-121.799503,-50.112304,-89.456829,-108.893829,-122.732391,-43.927413,-79.62862,-98.373584,-112.283866,-38.106308,-66.645217,-81.939491,-93.859313,-18.555393,-19.12199,-7.415248,5.281797,5.602591,16.058491,20.814459,24.130728,25.340801,34.448184,36.164018,36.588663,39.695956,50.364797,52.034244,51.715637,48.568083,59.602017,60.919239,60.2171,-5.288956,6.092274,25.151333,38.21125,-0.040169,20.909351,26.003208,28.869392,15.217976,37.921726,30.76815,23.569176,30.96476,49.707939,40.596863,34.596336,45.462055,55.527225,47.229126,43.037727,-33.168561,-65.591072,-87.657952,-101.79343,-52.961649,-88.062065,-101.757886,-111.407426,-39.240016,-76.897924,-69.158584,-57.555812,-26.009551,-62.513629,-54.23577,-42.589241,-14.207084,-43.765351,-39.117392,-30.467518,57.059469,296.101305,-143.225126,116.328881
79,0.82045,-0.071,6.564674,13.61215,-27.432701,-52.209045,-76.507679,-94.308735,-54.838417,-90.372551,-108.290645,-121.449371,-49.625427,-89.066082,-108.546261,-122.536365,-43.447632,-79.164642,-97.993526,-111.956875,-37.675575,-66.214897,-81.568004,-93.47034,-18.743461,-19.375736,-7.978425,4.61856,5.842972,15.93042,20.405695,23.6057,25.503463,34.247717,35.941494,36.466113,39.730104,50.161786,51.969776,51.83642,48.503849,59.428707,60.793354,60.215803,-1.674156,12.388871,33.362515,47.305802,3.178952,28.677166,32.426262,32.722607,15.92466,43.369023,36.602223,27.866742,29.69402,53.407963,44.61731,37.187508,42.667809,56.235981,48.235623,42.94019,-34.407731,-65.514112,-85.680309,-98.33994,-51.441286,-81.595865,-89.271632,-94.503411,-36.019905,-69.097334,-61.171718,-50.529128,-21.087964,-53.848126,-45.570075,-35.059711,-7.690335,-33.784787,-29.086458,-21.372201,59.259962,295.595619,-135.280409,129.506345
80,0.585297,-0.634103,9.788453,11.538811,-27.257904,-52.091194,-76.478657,-94.578278,-54.610611,-90.148521,-108.154118,-121.392769,-49.379906,-88.767849,-108.322174,-122.447731,-43.233788,-78.937534,-97.935803,-112.102604,-37.407761,-65.8465,-81.280907,-93.251164,-18.973876,-19.680955,-8.353781,4.156445,6.12905,15.966582,20.20681,23.274471,25.722604,34.099924,35.610611,36.116668,39.907105,50.083153,51.935036,51.87247,48.65541,59.51259,60.885449,60.379343,2.219879,17.238407,37.682842,50.940582,8.263309,32.551837,34.677429,33.29663,16.806827,42.11618,36.428398,28.199134,26.008815,48.15533,41.131725,34.189521,34.938938,47.621292,41.6674,36.485126,-32.592726,-60.159511,-77.161079,-88.189536,-45.582734,-68.589801,-70.773345,-71.90263,-30.399252,-55.418006,-46.967981,-36.869738,-15.674403,-40.654458,-32.224316,-22.760603,-2.346447,-21.961225,-17.367606,-10.416627,60.950895,294.7399,-124.38632,140.82354
81,0.352135,-0.904915,4.781993,19.548674,-26.904786,-51.621689,-75.816422,-93.969612,-54.530869,-89.881588,-107.905426,-121.205899,-49.325226,-88.463322,-108.039322,-122.344391,-43.200325,-78.759018,-97.782441,-112.006302,-37.37732,-65.683903,-81.147858,-93.244549,-19.032749,-19.706261,-8.648602,3.432619,6.816294,16.350175,20.183258,22.904611,26.104184,34.006112,35.384159,35.851869,40.011389,49.884169,51.802272,51.80946,48.595363,59.382345,60.863466,60.512835,6.350087,23.948365,46.113179,60.925301,15.525628,44.317921,43.96605,39.513462,22.108647,51.926503,45.3051,35.776451,29.332959,56.169445,48.198464,39.933575,36.388676,53.503991,47.066769,40.697148,-32.19023,-57.942511,-72.260443,-79.211107,-42.296612,-61.568989,-59.447406,-56.496026,-25.660112,-47.753032,-41.230824,-32.147135,-9.76705,-31.681049,-25.520445,-17.085845,4.411165,-13.330376,-10.368697,-3.868404,62.216366,293.426611,-118.690991,159.96384
82,0.046783,-1.251619,3.921387,19.906134,-26.664047,-51.361015,-75.283596,-93.259849,-54.675957,-89.781898,-107.806148,-121.209228,-49.487869,-88.020664,-107.575607,-122.024036,-43.332573,-78.411701,-97.45396,-111.841701,-37.353401,-65.318161,-80.718738,-92.994942,-19.177183,-20.090064,-9.366957,2.443797,7.017909,16.429771,20.067315,22.580038,26.112224,33.682799,35.059722,35.48932,39.925791,49.443876,51.549923,51.594309,48.524252,59.090439,60.776262,60.616637,10.005455,29.780068,52.497288,68.015991,24.299595,55.731812,57.405487,54.751591,28.554337,61.429184,56.137241,46.783413,33.292042,63.317196,56.725376,48.262814,37.781387,58.150395,53.18969,46.550835,-31.663721,-54.43857,-66.064592,-70.487033,-37.392122,-52.277515,-48.802752,-44.538373,-20.094473,-37.354151,-33.924583,-27.17073,-4.004563,-20.959318,-18.430515,-12.56096,10.34932,-3.890028,-3.548734,0.941991,62.988459,291.621699,-114.044294,179.316681
83,-0.698135,-1.138394,2.974651,20.367312,-26.177422,-50.685723,-74.254429,-91.93134,-54.577286,-89.332215,-107.225132,-120.720543,-49.588257,-87.566288,-107.131245,-121.779591,-43.508721,-78.193268,-97.213486,-111.715096,-37.390709,-65.015797,-80.342182,-92.798287,-19.28511,-20.594553,-10.411712,0.949252,6.978908,16.264157,19.760601,22.048442,25.855861,33.079325,34.393041,34.752638,39.527773,48.458673,50.557891,50.6076,48.044167,58.276717,60.143951,60.242998,13.077393,34.202717,56.90522,73.00692,32.484707,64.727875,71.560891,73.933857,35.372876,70.423245,68.588791,61.770138,38.135228,70.537823,67.096608,60.295819,40.57251,63.526772,61.451935,56.432991,-30.553598,-50.524181,-59.682465,-61.798219,-32.441975,-43.569973,-42.273227,-39.531694,-14.751618,-27.823754,-28.155162,-24.677021,1.052832,-11.975653,-13.666861,-11.323223,14.575468,2.800653,0.055143,1.47728,62.962813,289.921463,-110.397154,199.122151
84,-1.204605,-1.579859,1.352601,19.192398,-25.884728,-49.608307,-71.630333,-87.713345,-54.826012,-88.71999,-106.324986,-119.74395,-50.096489,-86.977158,-106.527741,-121.362122,-44.014962,-77.946133,-96.984055,-111.701912,-37.58535,-64.562096,-79.795624,-92.444859,-18.870445,-20.245058,-10.893415,-0.691704,7.41783,16.634054,19.87227,21.741455,25.597361,32.706192,33.802682,33.956527,38.890829,47.559401,49.501328,49.445012,47.330542,57.259798,59.201923,59.567757,16.033195,38.516784,60.989204,77.221458,41.507675,73.841594,85.199146,92.365173,43.234245,78.617179,81.521072,79.554325,44.158378,76.561821,77.931095,75.446125,44.452068,68.527496,70.420543,68.91711,-28.475251,-46.096818,-53.525084,-54.681725,-25.677315,-33.99039,-34.190215,-32.338332,-7.818973,-17.615552,-20.356925,-18.81246,7.160442,-2.227868,-6.66177,-6.6212,19.250592,10.168922,5.665255,5.016863,62.403277,287.969298,-108.399484,217.942243
85,-1.233559,-1.159932,-1.769486,21.554846,-26.277466,-50.270611,-71.917923,-88.26281,-55.134979,-87.475616,-104.950024,-118.496841,-50.126083,-85.246136,-104.991303,-120.22348,-43.691437,-75.884399,-94.935757,-109.608776,-36.783989,-62.121906,-76.97073,-89.481743,-16.430636,-16.94335,-8.66903,0.513318,9.272713,18.522172,21.45255,22.701464,25.334279,33.224624,34.660296,34.7444,37.12452,46.075798,48.124553,47.983441,44.569841,54.189963,56.474852,57.269061,18.642963,44.071724,68.436379,87.080441,48.741955,86.353191,102.827156,114.237396,50.696102,92.564678,99.984215,101.224526,52.182278,90.501263,95.414234,95.527737,52.866509,82.270454,86.439411,87.20557,-29.185764,-45.742075,-52.648895,-53.782015,-21.115072,-28.513833,-30.049455,-29.302102,-1.705744,-11.255704,-16.776438,-17.375911,13.628501,4.228693,-3.043258,-5.086999,25.123093,15.824766,9.629779,7.166704,61.650152,286.600848,-109.688536,239.288571
86,-1.602333,-0.117462,3.384075,12.210996,-25.177734,-49.369709,-70.971542,-87.439259,-54.961006,-84.849461,-101.82637,-115.14996,-50.648518,-82.635452,-100.944637,-115.107239,-44.582382,-74.287296,-91.43256,-104.498474,-37.583908,-61.515015,-74.846706,-85.929005,-6.808514,-4.360234,2.685525,10.973974,14.378744,22.441643,24.858505,25.154475,23.463699,30.762647,31.65336,30.391614,29.255036,36.78535,38.201423,36.933564,31.668081,39.450745,41.454682,41.682405,20.727745,46.571869,70.176441,89.274113,53.398133,89.767651,111.160103,127.11541,53.005051,93.821869,107.557183,113.521649,52.156311,89.368538,100.60857,105.083542,50.709492,79.720837,89.043102,93.471554,-27.060043,-40.035163,-45.252629,-47.732945,-12.758105,-16.140483,-18.127476,-18.699877,6.079464,1.741349,-4.306696,-7.118785,19.948594,15.851541,8.174791,3.622711,29.422132,25.402872,19.434509,14.785568,60.308075,286.480539,-106.044205,251.49672
87,-2.325737,1.382579,4.224415,9.684589,-23.812889,-47.461338,-68.408558,-84.565086,-51.029915,-79.77792,-95.111996,-106.651291,-47.957577,-79.039822,-97.017449,-110.012959,-43.341019,-72.797333,-89.933178,-102.292202,-37.69915,-61.221417,-74.876141,-85.976555,-6.942228,-5.95185,-1.124005,5.532281,11.040184,17.136011,18.067035,17.043707,20.270228,26.649342,26.145668,23.360737,26.446837,33.348002,33.372455,30.715631,29.219011,36.385838,38.162002,37.955027,22.950199,49.336224,73.076214,92.922157,55.658524,91.312168,112.895668,128.65099,53.386494,93.463074,111.408749,120.913399,50.857235,87.44307,102.890305,111.013126,48.14637,76.793289,89.348042,96.766239,-25.038434,-35.026501,-38.095534,-40.215845,-6.433183,-6.224886,-6.941512,-7.001731,12.531505,12.055434,7.362551,4.384563,25.827925,25.581874,19.31128,14.302692,33.863333,33.705363,28.947938,23.858988,58.165569,287.998271,-101.636559,261.316462
88,-2.769127,1.15745,4.531689,7.079326,-22.279839,-45.597233,-66.049576,-81.679779,-48.672249,-73.937542,-84.448803,-91.773777,-46.31789,-73.789215,-87.585526,-96.054176,-42.568405,-69.732845,-83.120739,-91.661522,-37.60849,-60.097275,-72.989399,-83.451279,-7.042437,-7.734338,-4.413104,0.657074,7.959937,12.996251,12.499099,10.1594,17.151609,22.597946,20.827056,16.711181,23.78721,29.521365,28.361236,24.779675,27.338698,33.45909,34.71434,34.082745,24.413097,51.268009,75.324394,95.852165,57.73835,92.810165,114.117405,129.427231,53.708244,92.766254,112.821396,124.539161,49.588943,85.119484,102.868389,113.696434,45.528991,73.510631,87.794174,97.460918,-22.882516,-30.196038,-31.328096,-32.665227,-0.145224,2.78955,3.135007,3.742742,18.685144,21.211897,18.525914,16.69378,31.460378,34.854353,30.955865,27.120263,38.708629,42.305825,39.493872,35.561939,55.479246,289.424165,-97.022066,268.664232
89,-14.280487,1.987462,5.303844,5.553845,-17.264488,-35.920109,-53.138569,-67.123558,-35.78262,-49.692089,-56.841923,-62.483082,-34.240906,-49.150486,-60.028404,-66.274303,-32.317944,-47.662697,-58.30719,-65.292767,-29.818943,-43.958336,-54.374004,-63.483673,-8.394783,-9.086413,-5.602603,-0.401761,5.316031,10.901455,9.828047,6.819419,14.877675,20.732392,17.923403,12.684461,21.74253,27.11342,23.878872,18.674164,25.500524,30.921716,30.190641,27.828268,24.786907,51.582825,76.020172,97.261769,58.1838,93.522263,114.528546,129.472355,53.152645,92.293144,112.868969,125.197186,48.037285,83.750508,102.080235,113.931713,43.184155,71.337456,86.096077,96.674927,-21.289146,-26.803063,-26.060774,-26.648329,4.569604,9.737607,10.759737,11.755055,23.377187,28.081061,26.5127,25.181546,35.768432,41.69205,39.24976,36.198215,42.433129,48.335369,46.499357,43.325571,41.086596,291.766174,-91.830385,274.572624
90,-18.818687,2.575893,4.984234,3.689686,-8.190789,-18.745171,-29.628777,-39.232911,-18.139824,-20.289311,-21.802781,-24.148533,-19.055272,-20.248936,-25.123341,-27.413773,-20.407723,-23.488999,-28.244214,-31.840783,-21.501938,-26.919148,-32.925305,-39.227498,-12.215194,-15.175966,-13.145884,-9.264513,0.376098,6.044785,4.723919,1.805595,12.323123,18.071987,14.725992,8.987205,21.055792,26.219794,21.77143,15.67717,26.415048,31.79819,29.465506,25.488681,25.245827,51.814259,76.541084,97.701393,58.225605,93.786186,113.751411,127.516686,52.319149,91.577522,112.31987,124.959183,46.175457,82.087109,100.93919,113.429627,40.38493,68.529888,83.77438,95.183418,-19.643609,-23.744429,-21.093855,-20.303067,7.518804,14.828657,16.892344,18.805112,26.395275,32.886095,32.68863,32.116809,38.688127,46.764562,45.860536,43.571239,45.363655,53.434521,52.580735,49.964382,22.075425,294.67546,-87.038635,278.595703
91,-14.188305,2.237761,4.379997,2.726367,-1.454029,-5.357975,-11.349003,-18.177956,-4.915387,2.350685,6.142547,6.671047,-7.398846,2.471489,2.224331,2.638549,-11.015419,-3.829457,-4.434391,-6.168435,-14.804066,-12.363945,-15.142502,-20.006527,-22.396244,-29.559835,-28.363162,-25.733446,-6.923456,0.771164,-0.510342,-3.131993,12.020126,19.370314,15.894989,10.655997,26.828936,33.591335,28.317109,22.379128,37.579893,44.827243,41.149166,36.385047,25.702687,52.24672,76.88229,97.556946,57.81395,93.544133,113.078202,126.659821,51.207207,90.66473,112.006852,125.52269,44.339539,80.511784,100.146973,113.642807,37.909401,66.200878,81.863743,93.998108,-18.509155,-21.156926,-16.586853,-14.609012,8.886378,18.553109,21.920766,24.896506,27.702371,36.406425,38.14502,38.778567,40.079339,50.40302,51.127019,49.719764,47.030991,56.862521,56.778997,54.533752,7.64066,297.216669,-82.905098,281.625518
92,-11.705727,1.518912,3.870449,2.35148,4.37867,6.179455,4.741596,0.841873,3.624172,20.275154,28.986397,31.985985,0.36002,21.745171,28.706028,33.147102,-4.491234,13.378715,20.258709,23.067078,-9.754246,-0.084297,3.243599,2.856342,-20.491306,-26.634583,-25.097973,-22.896102,-4.518166,5.509002,5.572814,4.086667,12.25952,21.111935,19.372834,15.775749,24.900496,32.165209,27.915731,23.315758,34.081263,41.233727,37.110825,32.642293,25.767998,52.162674,76.613423,97.071247,57.629368,93.282338,112.677922,126.304722,50.490349,89.844487,111.54926,125.852452,42.999173,79.172745,99.14526,113.163037,35.972523,64.357693,80.290078,92.998204,-17.771139,-19.321284,-13.321046,-10.330449,10.594654,21.519179,25.548875,28.968279,29.011011,39.049923,41.872646,43.180557,41.125194,52.750611,54.569222,53.827797,48.118058,58.930308,59.539167,57.728262,-4.379528,298.990666,-79.34911,284.232083
93,-5.560616,1.114904,2.937539,1.619281,6.946976,12.090306,13.166451,10.295495,7.337208,29.339871,40.433453,44.234059,3.352501,32.10561,42.902401,48.886242,-2.348281,22.768616,33.656285,38.51936,-8.662571,5.762661,13.760365,17.349358,-17.50534,-21.777184,-19.94295,-17.617701,-1.581527,10.026229,11.53268,11.101674,13.105809,23.621805,23.873351,21.731761,23.415855,32.088984,29.251368,25.610502,30.628772,38.519388,34.718675,30.64484,25.920879,52.260692,76.403205,96.699108,57.534862,92.893329,111.739711,125.020694,49.836673,89.007923,110.506862,125.102085,41.605808,77.747097,97.65707,111.718196,33.864372,62.358158,78.250476,90.896587,-17.306183,-18.129044,-10.988757,-7.390116,11.318332,23.704785,28.388863,32.079685,29.475892,40.903115,44.663937,46.553241,41.497389,54.093843,56.689398,56.302235,48.649679,59.856144,60.71776,58.899346,-10.297606,300.250961,-76.769033,285.996755
94,8.531617,0.756689,2.030399,0.932555,6.111282,9.133724,8.688148,4.317558,-0.885876,18.180782,32.735927,39.378833,-5.602284,20.821941,36.4762,45.950626,-11.184643,11.048423,26.885158,35.928554,-16.76849,-5.071003,5.882549,12.578762,-13.784309,-18.030058,-17.305466,-16.140853,0.209902,11.94048,14.331864,14.725942,13.035871,23.792051,25.983993,25.38557,21.606074,30.542804,30.005724,28.161239,27.423062,35.687725,33.562313,31.142018,26.163048,52.566547,76.395229,96.440849,57.344742,92.212486,110.586113,123.571426,49.141765,88.070618,109.119713,123.619812,40.36298,76.297531,95.875625,109.560837,32.174698,60.530296,76.234005,88.371185,-16.754245,-16.835608,-8.905212,-4.623328,12.355047,25.556359,30.668169,34.63341,30.355033,42.466228,46.663576,48.928507,42.186251,55.038574,57.873412,57.594177,49.182845,60.29078,61.086064,59.081337,-2.110462,301.02892,-75.083107,286.95058
95,15.11174,0.107669,1.22747,0.555593,1.133537,-1.391178,-6.349766,-13.682945,-15.798214,-1.19315,15.088657,23.51984,-20.400067,1.179279,18.84177,30.21928,-24.829319,-7.774601,9.823093,21.045376,-28.719532,-22.796425,-11.808575,-4.086457,-10.274256,-13.353786,-11.628912,-9.743536,2.149334,14.511087,17.414171,18.01199,13.430899,24.057762,27.169539,27.417652,20.705221,29.140278,29.855286,29.192013,25.587234,33.725061,32.712478,31.708132,26.212967,52.728058,76.20805,96.075119,57.215607,91.64756,109.622589,122.4497,48.60949,87.24701,107.863014,122.228279,39.441914,75.128872,94.457726,107.967499,30.88583,59.076416,74.644478,86.46991,-16.530474,-15.960061,-7.454102,-2.792798,13.138648,26.738225,32.028,36.011494,31.013527,43.617873,47.999929,50.318373,42.687368,55.877479,58.772844,58.446148,49.480494,60.632544,61.272822,59.039384,12.661881,301.096908,-74.195034,287.466492
96,10.2346,-0.860011,0.881058,0.414308,-3.37872,-10.221222,-17.955048,-26.738297,-27.124066,-15.289673,2.733879,13.093368,-31.175022,-12.462113,6.995453,20.174698,-34.383419,-20.335499,-1.030655,12.26271,-36.760277,-34.191925,-22.238514,-12.842159,-6.339285,-7.714034,-4.968105,-2.101317,3.56185,16.39944,20.155792,21.476584,12.977862,24.002916,28.724847,30.140895,18.796776,27.503979,29.970353,30.479176,22.578421,30.688053,31.084367,31.490302,26.129333,52.652424,75.903957,95.755829,57.144562,91.185287,108.788361,121.32225,48.37603,86.820831,107.049614,121.259079,39.009293,74.480507,93.49118,106.719475,30.246986,58.335674,73.749641,85.361458,-16.522422,-15.643639,-6.815467,-1.917103,13.87454,27.296646,32.420374,36.246381,31.614519,44.265301,48.536763,50.891911,43.068825,56.121121,58.9505,58.639772,49.642453,60.511773,61.04852,58.803658,22.571388,300.182853,-73.639069,287.826756
97,11.308319,-2.221026,0.410534,-0.156599,-10.313713,-23.170509,-35.052555,-46.776856,-41.035641,-32.288258,-13.285217,-1.453926,-43.381313,-27.670899,-7.820915,6.674652,-43.930618,-32.7243,-13.222847,1.129188,-43.415337,-43.845509,-32.91679,-23.455021,-0.211644,1.27233,5.469468,9.611217,7.263602,20.653388,25.022156,26.58412,14.095248,26.282222,31.859359,33.325524,17.719219,27.722501,31.385882,32.271024,19.535199,28.47393,30.05621,31.048539,26.173542,52.608559,75.623646,95.581707,57.015495,90.870014,108.172268,120.588192,48.120598,86.492901,106.561237,120.78709,38.663761,74.043251,93.033291,106.23856,29.734383,57.779743,73.202213,84.821743,-16.480715,-15.381669,-6.196357,-1.199366,14.113724,27.457642,32.545777,36.349393,31.928347,44.484515,48.681888,51.022785,43.394287,56.274979,59.106667,58.783737,49.883724,60.628234,61.154904,58.826925,33.608631,297.873314,-73.499611,287.581644
98,1.614693,1.485937,0.579712,-0.268972,-9.307274,-21.875908,-33.383709,-43.956505,-42.311383,-32.945767,-13.726456,-1.314331,-45.363957,-30.123368,-9.881173,5.115028,-45.671311,-34.884831,-15.479874,-1.0513,-44.463341,-44.472107,-34.064015,-25.001164,-3.169328,-3.126954,0.51879,4.782508,4.766984,17.421854,21.840886,23.72399,13.179489,24.656643,30.165175,31.94744,18.347072,27.669631,31.185354,32.358426,21.468988,29.968302,31.271644,31.985194,26.163402,52.438614,75.32967,95.116321,56.610328,90.545048,107.69022,120.053272,47.662765,86.102886,106.11169,120.246265,38.212532,73.678963,92.687427,105.880977,29.271606,57.321693,72.782902,84.463703,-16.31336,-15.055627,-5.565305,-0.187586,14.314289,27.743188,32.720469,36.40603,32.200827,44.658379,48.681518,50.809634,43.642165,56.459525,59.265736,58.863086,49.956701,60.769865,61.411303,59.136134,35.009303,299.261553,-73.13392,287.214974
99,3.565292,-0.989439,0.450233,-0.231996,-12.802071,-28.01508,-41.405766,-53.349758,-48.322678,-40.086502,-19.785095,-6.023552,-50.307049,-36.184227,-14.965942,1.49572,-49.288868,-39.423752,-19.278969,-3.687813,-46.694801,-47.875797,-37.727062,-28.203632,1.005235,2.88141,7.382447,12.413129,7.400651,20.413661,25.188993,27.211813,13.604653,25.760641,31.887912,33.794543,16.882031,27.194387,31.574887,33.089798,18.44239,27.640213,29.887804,31.076858,26.032803,52.25465,75.047356,94.63876,56.490372,90.302639,107.304188,119.58585,47.444939,85.762997,105.689793,119.771244,37.851826,73.252259,92.244862,105.431385,28.706177,56.64695,72.05579,83.709423,-16.238432,-14.813616,-5.057606,0.565189,14.300852,27.907839,32.820776,36.330212,32.216881,44.785708,48.770685,50.752787,43.669829,56.558733,59.419864,59.009212,49.959047,60.910556,61.649832,59.44454,38.395334,298.178624,-72.862948,286.889488
100,2.055542,-0.869298,0.526039,-0.111534,-16.214813,-33.743374,-48.427506,-61.474857,-53.446003,-45.515041,-24.524208,-9.561745,-53.718384,-39.385849,-17.395042,0.654716,-50.69268,-40.268417,-19.36306,-2.572266,-46.082268,-46.93293,-36.861935,-26.764824,7.881773,12.240698,16.839893,21.868686,12.263212,25.063875,29.957916,31.93635,13.796907,26.652775,33.38226,35.408193,12.809592,24.323697,29.64683,31.531292,10.641115,19.706866,22.931102,24.779181,25.944191,52.180539,74.990662,94.385136,56.300492,90.146725,107.055691,119.313206,47.150757,85.495732,105.364895,119.422268,37.450333,72.988129,91.967228,105.133587,28.188515,56.224972,71.599251,83.122502,-16.14031,-14.735452,-4.927238,0.867383,14.302816,28.028314,32.845797,36.19966,32.300097,44.778669,48.605404,50.442232,43.825749,56.552571,59.328277,58.834681,50.099665,60.862132,61.539942,59.28641,40.290155,297.203507,-72.49763,286.672135
101,-1.482468,1.740423,0.545552,-0.166973,-14.068107,-29.628811,-43.193161,-54.937431,-51.093773,-43.267811,-22.034088,-6.24488,-52.073215,-38.567001,-15.710426,3.503128,-49.236877,-39.746772,-18.608436,-1.153518,-44.509609,-45.714615,-36.795845,-27.397487,4.74111,7.119341,10.416023,15.023085,10.498052,21.896412,26.835704,29.027239,13.256208,24.701523,31.338618,33.607835,13.233336,23.590028,28.811866,30.985628,11.804024,20.029821,23.197617,24.933409,25.830745,52.104103,74.998329,94.140609,56.004993,90.0111,106.883949,119.191085,46.783458,85.272766,105.142639,119.23233,37.091514,72.781757,91.79338,105.007461,27.85009,55.894111,71.214111,82.62902,-16.05612,-14.762943,-4.970316,0.986549,14.145352,27.92981,32.713713,35.970553,32.297676,44.679708,48.455363,50.213817,43.949571,56.503553,59.269922,58.704721,50.242222,60.914459,61.591059,59.269651,38.685922,298.827639,-72.073843,286.388871
102,0.015107,0.451618,0.425136,-0.044621,-13.999146,-29.870064,-43.802674,-55.824212,-51.953579,-42.989983,-21.200135,-5.021828,-52.936718,-38.230134,-15.06482,4.403205,-49.859002,-39.268433,-17.821312,-0.230393,-44.585003,-45.766171,-37.304192,-28.208783,6.062952,8.661891,11.412551,15.481174,11.560542,22.449251,26.964318,28.95173,12.921372,23.944105,30.621412,33.24452,11.589095,21.683324,27.10664,29.711137,9.076989,16.446358,19.673434,21.81479,25.824646,52.295197,75.292729,94.176029,55.747055,89.88683,106.752423,119.127262,46.465931,85.118649,104.973095,119.072079,36.827225,72.736233,91.738873,104.967625,27.691944,55.748497,70.985699,82.260601,-16.082376,-14.945823,-5.202596,0.961417,13.743641,27.706656,32.462537,35.663123,31.994617,44.522689,48.337222,50.11803,43.768346,56.337803,59.123092,58.544738,50.141853,60.790811,61.484651,59.159155,38.611743,299.153054,-71.737993,286.218047
103,0.406517,-0.761247,0.282418,-0.102197,-14.571534,-30.679345,-44.907578,-57.341629,-52.844239,-44.029198,-22.08783,-5.734589,-53.682953,-38.859513,-15.49173,4.065055,-50.381676,-39.789666,-17.958962,-0.181984,-44.834095,-46.561032,-38.474923,-29.756024,6.733277,9.914844,12.663911,16.790011,12.913432,23.875921,28.442252,30.571863,13.892065,24.882563,31.531638,34.226031,12.101661,22.308263,27.663259,30.296247,9.078608,16.79878,20.28075,22.67942,25.850006,52.45063,75.516735,94.284221,55.581459,89.701778,106.59058,119.079975,46.301685,84.965984,104.843021,118.992107,36.730499,72.734104,91.764942,105.0069,27.674663,55.787544,71.016529,82.196102,-16.027826,-14.957333,-5.33216,0.807658,13.461824,27.42048,32.195726,35.458359,31.741824,44.388493,48.297146,50.196404,43.625752,56.256231,59.03001,58.462548,50.157291,60.756008,61.421208,59.067418,38.949589,298.27475,-71.524246,285.998793
104,-9.389683,0.645638,0.411701,-0.088303,-9.782593,-21.331742,-32.759045,-43.340035,-41.17305,-29.824356,-8.814709,6.243084,-43.172974,-25.864826,-3.563061,14.429844,-41.974858,-29.274285,-8.293728,8.218059,-38.788044,-38.969799,-30.84018,-22.635704,2.580241,4.326332,6.750147,10.37586,9.876867,21.283169,25.646317,27.570423,12.997523,24.115648,30.162693,32.656816,13.197434,23.493883,28.002799,30.163952,12.145194,19.932489,22.762103,24.762162,25.894523,52.51839,75.609329,94.293503,55.399223,89.601745,106.519592,119.067489,46.111358,84.825119,104.678489,118.774017,36.627537,72.808662,91.785118,104.928749,27.719124,56.012935,71.246132,82.337814,-15.917922,-14.992716,-5.476224,0.706931,13.210438,27.110456,31.933361,35.30087,31.53533,44.128586,48.070226,50.006768,43.529792,56.084108,58.836398,58.23096,50.180225,60.650427,61.306834,58.911622,29.516505,298.802519,-71.155946,285.792621
105,-7.150475,0.363179,0.373066,-0.17195,-5.867477,-13.824726,-23.168999,-32.277145,-31.630714,-18.800228,1.425122,15.243794,-34.615665,-16.030872,5.447857,22.168934,-35.402321,-21.67503,-1.477215,13.967686,-34.541977,-33.840214,-25.659668,-17.948868,-1.665891,-0.978744,1.751896,5.241362,6.892395,19.086484,23.414719,25.02906,12.447327,23.883318,29.32506,31.428946,14.877539,25.384902,29.068747,30.57337,15.995369,24.596634,26.917992,28.367126,26.030307,52.583976,75.609501,94.241443,55.161667,89.330074,106.280697,118.92612,45.852207,84.533146,104.377498,118.464718,36.43626,72.630809,91.565242,104.649501,27.650631,55.917366,71.118118,82.204502,-15.852368,-15.054528,-5.630996,0.573093,12.897672,26.797925,31.740341,35.249037,31.20499,43.997428,48.123775,50.177989,43.254101,56.009538,58.79127,58.180262,50.010621,60.641732,61.370647,59.004013,22.340555,299.049521,-70.808355,285.504494
106,-3.006706,-1.58191,0.411449,-0.015981,-6.992867,-15.464905,-25.076683,-35.114857,-29.395248,-15.539669,4.372341,17.347675,-31.311722,-11.00552,9.495632,25.233913,-32.172981,-16.766235,2.940777,17.818554,-31.892052,-30.869465,-22.532318,-14.602432,1.715476,4.642594,8.436218,11.81257,9.204294,22.939525,27.0873,28.132364,12.647905,25.762297,31.089529,32.788765,13.203905,25.432228,29.154148,30.228815,12.984074,22.592203,25.396561,27.357199,26.098068,52.4939,75.362366,94.020401,55.068707,89.090355,106.043472,118.701119,45.798397,84.257149,104.031075,117.989708,36.375137,72.514458,91.353996,104.263046,27.600403,55.945587,71.137997,82.186707,-15.768215,-15.15039,-5.900326,0.230045,12.607297,26.3922,31.408655,35.009124,30.857619,43.695122,47.94933,50.062405,42.954389,55.788385,58.568277,57.933829,49.850996,60.509525,61.256989,58.907806,19.294281,297.343702,-70.436474,285.364604
107,-1.442551,0.115918,0.468842,-0.145484,-5.420425,-12.965229,-22.030243,-31.800499,-27.110206,-13.009872,6.840351,19.445286,-29.71986,-9.209278,11.466763,27.029904,-31.352634,-15.921604,3.837124,18.657475,-31.816646,-30.88084,-22.631515,-14.833236,0.038285,2.423901,5.991544,9.020834,7.655087,21.982443,26.371711,27.465533,12.365619,25.652529,30.853,32.491202,14.031163,26.397696,29.890546,30.835772,14.89126,25.2193,28.193978,30.282118,26.122787,52.325912,75.001648,93.497062,54.866123,88.758865,105.68161,118.336303,45.573578,83.883018,103.576011,117.420639,36.086483,72.182453,90.964714,103.742729,27.258751,55.622188,70.805248,81.794105,-15.642763,-15.126381,-6.006216,0.08566,12.408844,26.118547,31.242682,34.980299,30.619621,43.529705,47.923692,50.140791,42.764074,55.704948,58.481555,57.82726,49.781379,60.507104,61.265461,58.913005,17.79487,297.364664,-70.024492,285.124164
108,0.800949,-1.682649,0.505039,-0.083215,-7.511261,-17.339698,-27.868389,-39.39394,-29.286335,-15.009304,5.134655,17.41515,-31.00082,-9.358646,11.044934,26.366581,-32.22591,-15.761707,3.951863,18.79398,-32.455501,-31.907203,-23.763977,-15.69754,5.970264,11.135427,15.747096,18.674127,10.834122,26.637979,31.083008,31.738106,12.276587,27.320345,32.853244,34.31295,11.062722,25.046918,29.191284,30.235484,9.657146,20.585401,24.501847,27.52406,26.002453,52.050339,74.554058,92.900173,54.561001,88.374241,105.272678,117.873859,45.281753,83.530437,103.136272,116.8335,35.769607,71.920074,90.614513,103.255657,26.948009,55.390217,70.555618,81.509914,-15.627572,-15.242682,-6.169138,-0.038063,12.121877,25.810771,30.989037,34.777523,30.34866,43.287199,47.78232,50.071952,42.57576,55.520808,58.300182,57.655816,49.720234,60.511464,61.274032,58.937915,18.519167,295.597185,-69.596105,284.956119
109,1.492665,1.19918,0.2089,0.018006,-6.519127,-15.999127,-26.248673,-37.279621,-29.614666,-15.495896,4.656944,16.797111,-32.363789,-11.139679,8.851135,23.90435,-34.051415,-18.141758,0.875816,15.153785,-34.520348,-35.32227,-28.741471,-21.940922,2.560234,5.830412,9.319545,11.617982,8.187549,23.709034,27.998724,28.311193,11.926191,26.905643,31.609147,32.366985,12.574187,26.223646,29.548066,30.163916,12.362816,23.153947,26.45694,28.795971,26.028775,51.915985,74.335339,92.735813,54.220597,88.118718,105.129032,117.802128,44.91972,83.247059,102.907322,116.586789,35.43393,71.721257,90.471073,103.109883,26.706025,55.290036,70.508114,81.56004,-15.697337,-15.305407,-6.247462,-0.191142,11.807976,25.486273,30.697686,34.533708,30.023792,43.052585,47.640653,50.019168,42.311086,55.383809,58.150894,57.558535,49.546382,60.456655,61.251432,59.009225,19.925972,296.721542,-69.473065,284.899302
110,-2.728363,1.466165,0.436913,0.033494,-5.492844,-14.054478,-23.172821,-33.456402,-28.843678,-12.520294,7.367248,19.647949,-31.746414,-8.972946,11.836876,27.361473,-32.644295,-14.511898,4.902214,19.462349,-31.699116,-29.997425,-22.785485,-15.605221,1.387581,4.953556,8.973891,12.039799,8.953711,22.671503,26.410713,27.04773,12.635233,25.859628,30.217959,31.201989,13.306572,25.435674,28.54829,29.538087,13.136881,22.566577,25.232342,27.52884,25.824211,51.540344,73.84663,92.144131,53.774586,87.778049,104.827778,117.408062,44.563534,82.993824,102.679767,116.206272,35.149074,71.66922,90.406391,102.955273,26.504619,55.364056,70.634582,81.703319,-15.815503,-15.389129,-6.279795,-0.191711,11.653636,25.363574,30.52203,34.275727,29.924225,42.9411,47.483992,49.787332,42.269379,55.343646,58.049957,57.414409,49.548073,60.47755,61.291742,59.068678,17.099957,298.120093,-69.133804,284.865182
111,-1.893608,1.278839,0.171936,-0.068667,-3.140808,-9.6969,-17.595635,-26.986771,-25.078835,-8.140641,11.334709,23.030479,-29.196843,-6.19851,14.083717,28.946502,-31.217274,-12.934594,6.036346,19.958244,-31.330765,-29.565663,-22.430535,-15.665406,-2.736877,-1.391694,1.588776,4.352119,5.805489,18.984447,22.401271,22.74774,12.162707,25.032159,28.558589,28.97864,15.144597,26.871914,28.8996,29.317267,16.617048,25.991131,27.570324,28.771863,25.789307,51.491386,73.751713,91.996433,53.510399,87.620647,104.693035,117.266773,44.212223,82.794834,102.494213,116.000942,34.74876,71.481628,90.257549,102.81197,26.106285,55.091434,70.425533,81.585766,-15.900916,-15.356067,-6.105127,0.066654,11.401139,25.374146,30.590809,34.371515,29.662045,42.856602,47.448671,49.798089,42.074459,55.31928,58.055033,57.479914,49.430007,60.570646,61.455888,59.297513,15.114436,299.344626,-69.053781,284.742209
112,-10.231007,3.631702,0.178608,-0.12791,1.554371,0.598331,-1.743484,-6.831871,-14.064056,5.297287,23.528973,34.124874,-19.641151,5.191898,25.448627,39.940533,-22.865604,-2.695152,15.573017,28.626148,-24.138107,-19.871098,-12.428822,-5.995857,-10.587676,-12.637951,-9.377109,-5.208339,-1.163044,9.515195,13.199546,14.620805,9.782994,21.093113,24.288598,24.521422,17.190178,27.037233,28.178108,28.072639,22.568763,30.526427,30.386365,30.070845,25.682247,51.307651,73.537697,91.76873,53.327602,87.374496,104.45462,116.974571,44.042988,82.560928,102.255844,115.688278,34.554703,71.330269,90.074547,102.592941,25.889591,54.97348,70.353744,81.597862,-15.820628,-15.185352,-5.946317,0.259204,11.483305,25.583912,30.815333,34.543453,29.669789,42.98219,47.604789,49.936793,42.073298,55.4803,58.222784,57.643528,49.462365,60.76621,61.714116,59.610662,4.802593,302.917819,-68.956009,284.55579
113,2.569862,1.146643,-0.044472,-0.035185,2.05782,1.612564,-0.777248,-5.519039,-15.069854,3.312985,21.63081,32.44598,-21.412056,1.843426,22.038906,36.29504,-25.22311,-6.720279,11.526913,24.454663,-26.989391,-24.741531,-18.164428,-12.667637,-15.433589,-20.007726,-17.304034,-12.939947,-4.954062,5.713013,9.363289,10.76143,9.464832,20.137489,22.807885,22.763981,20.06345,28.985187,29.4063,28.87968,28.059363,35.556591,34.661519,33.728656,25.772656,51.347237,73.566536,91.932861,53.210175,87.316361,104.439926,117.010941,43.866772,82.398766,102.11483,115.560196,34.37558,71.157292,89.936257,102.510475,25.737866,54.787285,70.160534,81.436684,-15.82074,-15.075338,-5.823965,0.330142,11.425716,25.638178,30.88211,34.605388,29.543929,42.973038,47.628896,49.945907,41.949056,55.496503,58.255697,57.656557,49.350472,60.772928,61.775656,59.695865,7.296724,303.996012,-69.076212,284.452155
