takenoko1/special-research/HandMotion_SimilarSearch_自分用/NewProject/handData/key/d4_feature_d3/33.csv
,vel_0x_L,vel_0y_L,vel_0x_R,vel_0y_R,posFromWrist_1x_L,posFromWrist_2x_L,posFromWrist_3x_L,posFromWrist_4x_L,posFromWrist_5x_L,posFromWrist_6x_L,posFromWrist_7x_L,posFromWrist_8x_L,posFromWrist_9x_L,posFromWrist_10x_L,posFromWrist_11x_L,posFromWrist_12x_L,posFromWrist_13x_L,posFromWrist_14x_L,posFromWrist_15x_L,posFromWrist_16x_L,posFromWrist_17x_L,posFromWrist_18x_L,posFromWrist_19x_L,posFromWrist_20x_L,posFromWrist_1y_L,posFromWrist_2y_L,posFromWrist_3y_L,posFromWrist_4y_L,posFromWrist_5y_L,posFromWrist_6y_L,posFromWrist_7y_L,posFromWrist_8y_L,posFromWrist_9y_L,posFromWrist_10y_L,posFromWrist_11y_L,posFromWrist_12y_L,posFromWrist_13y_L,posFromWrist_14y_L,posFromWrist_15y_L,posFromWrist_16y_L,posFromWrist_17y_L,posFromWrist_18y_L,posFromWrist_19y_L,posFromWrist_20y_L,posFromWrist_1x_R,posFromWrist_2x_R,posFromWrist_3x_R,posFromWrist_4x_R,posFromWrist_5x_R,posFromWrist_6x_R,posFromWrist_7x_R,posFromWrist_8x_R,posFromWrist_9x_R,posFromWrist_10x_R,posFromWrist_11x_R,posFromWrist_12x_R,posFromWrist_13x_R,posFromWrist_14x_R,posFromWrist_15x_R,posFromWrist_16x_R,posFromWrist_17x_R,posFromWrist_18x_R,posFromWrist_19x_R,posFromWrist_20x_R,posFromWrist_1y_R,posFromWrist_2y_R,posFromWrist_3y_R,posFromWrist_4y_R,posFromWrist_5y_R,posFromWrist_6y_R,posFromWrist_7y_R,posFromWrist_8y_R,posFromWrist_9y_R,posFromWrist_10y_R,posFromWrist_11y_R,posFromWrist_12y_R,posFromWrist_13y_R,posFromWrist_14y_R,posFromWrist_15y_R,posFromWrist_16y_R,posFromWrist_17y_R,posFromWrist_18y_R,posFromWrist_19y_R,posFromWrist_20y_R,posFromBody_0x_L,posFromBody_0y_L,posFromBody_0x_R,posFromBody_0y_R
7,1.032944,0.900703,0.785717,0.58711,-9.344284,-22.049515,-34.947888,-47.857418,-45.897778,-30.708721,-9.310524,4.798988,-48.951153,-26.633743,-3.322151,13.721672,-47.445019,-28.204079,-4.773377,11.22876,-43.316174,-43.510792,-36.286537,-30.040741,8.740277,21.592996,37.148987,49.707081,24.210954,44.435362,50.015154,52.237848,27.023018,46.164114,52.914114,53.992795,28.014989,45.50772,50.642822,52.643005,29.650325,43.503289,49.831558,55.120839,28.461056,54.433354,78.343792,98.469395,52.382355,82.106015,98.353833,110.302746,42.324669,76.738095,95.674405,108.542851,32.695187,64.749951,82.656887,95.078053,23.803379,47.044167,62.092965,74.915738,-10.482453,-10.147161,-3.403139,1.315716,20.575868,38.666738,45.807432,49.73377,37.091917,54.598443,61.733925,64.121109,48.249376,66.8703,72.995842,73.602305,54.990866,72.726721,78.076246,78.60804,20.142088,303.560474,-69.957625,293.064386
8,-0.287842,2.327065,0.610566,0.654567,-8.515823,-21.242294,-34.15234,-46.913452,-44.42791,-30.343483,-10.452347,2.223885,-47.290283,-26.213367,-3.372391,13.948837,-45.605919,-27.016319,-4.263725,11.84127,-41.325371,-42.185257,-36.134628,-30.378754,9.730803,22.350845,36.602519,48.617705,23.639774,42.621838,48.317017,51.215038,25.07,43.062415,50.614071,52.745991,24.813452,41.327933,47.900708,50.949042,25.298118,37.999363,45.102192,50.996269,28.080757,53.880878,77.688205,97.801677,51.878574,81.630581,97.812664,109.664234,41.75156,76.196193,95.130489,107.929538,32.068805,64.235653,82.150966,94.501087,23.159786,46.527969,61.594082,74.420299,-10.811027,-10.68392,-4.006243,0.647194,19.708669,37.848408,45.040343,49.004781,36.3395,53.688538,60.835185,63.265742,47.630575,65.999384,72.081688,72.703675,54.469149,72.04654,77.356853,77.864491,19.641129,305.559684,-69.560176,293.391098
9,-0.258224,0.305936,0.581131,0.609699,-8.495041,-21.257378,-34.049481,-46.339154,-44.461796,-30.059865,-10.44207,2.002326,-47.161297,-26.067662,-3.623452,13.32946,-45.381169,-26.677758,-4.498971,11.033775,-40.951195,-41.431572,-35.112454,-29.235569,9.302872,21.599924,35.450183,47.221861,23.647073,42.237405,47.620917,50.286114,25.017216,42.717391,50.172654,52.443118,24.705389,41.011622,47.579693,50.748674,25.071248,37.68787,44.613252,50.368181,27.69334,53.343395,77.001514,97.121692,51.557727,81.340931,97.413745,109.156597,41.332168,75.778621,94.657917,107.318195,31.547767,63.771354,81.644771,93.893955,22.573814,46.041858,61.079269,73.843448,-11.173033,-11.262028,-4.572038,0.038804,19.011482,37.078591,44.259608,48.268321,35.812522,52.964069,60.082052,62.603605,47.221738,65.326848,71.290085,71.967956,54.108601,71.449191,76.61733,77.103244,19.221468,305.545417,-69.140482,293.680594
10,-0.613427,-0.118289,0.472183,0.488223,-8.13462,-20.084461,-32.201648,-43.998584,-43.936695,-29.468753,-9.834343,2.888764,-46.968452,-26.031246,-3.445312,13.85186,-45.34489,-26.823429,-4.432434,11.479637,-41.044841,-41.638275,-35.266948,-29.109546,8.898222,21.132609,35.150323,47.082651,23.308039,42.219942,47.70675,50.459966,25.02323,42.852797,50.4572,52.919671,24.93184,41.287597,47.921938,51.13706,25.430758,38.289936,45.464704,51.379677,27.47731,52.835483,76.414455,96.533535,51.365787,81.086323,97.085918,108.819866,41.201809,75.516369,94.396076,107.06583,31.363186,63.545334,81.399547,93.600162,22.26408,45.884823,60.898739,73.653362,-11.440844,-11.708964,-5.078329,-0.616565,18.372279,36.35148,43.580119,47.674221,35.199217,52.118867,59.289399,61.919164,46.70863,64.525501,70.519761,71.337473,53.74131,70.976714,76.111348,76.624185,18.466432,305.125804,-68.809908,293.867493
11,0.504204,-0.507873,0.463028,0.372701,-8.464416,-20.563305,-32.872661,-44.849922,-44.251316,-30.555794,-10.875481,2.200722,-47.391632,-27.06776,-4.210258,13.53875,-45.881195,-27.923458,-5.312485,11.089302,-41.783203,-42.60458,-36.099163,-29.44947,9.9998,22.867993,37.471385,49.800423,23.499922,42.600807,48.502701,51.777177,24.869275,42.937396,51.033468,53.961178,24.643083,41.151142,48.287452,52.05456,25.077547,38.140797,45.451935,51.542526,27.194618,52.406662,75.897686,96.068928,51.141746,80.808895,96.745731,108.455166,40.938778,75.168651,94.051838,106.664142,31.027885,63.179203,81.034069,93.170482,21.862404,45.570511,60.523247,73.192234,-11.663109,-12.035192,-5.410793,-1.092266,18.084819,36.043036,43.366956,47.595983,34.969728,51.689232,58.906707,61.692206,46.52491,64.133953,70.072219,70.987224,53.595443,70.70852,75.725667,76.258301,18.849066,304.352667,-68.46845,293.97493
12,-2.666153,0.998492,0.31105,0.256203,-6.299835,-15.816982,-26.116276,-36.870449,-39.257343,-23.978588,-4.580566,8.095688,-44.208813,-23.517574,-0.659065,16.98111,-44.549137,-27.212311,-4.854812,11.327065,-42.10207,-45.465237,-41.046444,-35.872043,4.890411,15.856851,30.597984,43.399783,19.555145,38.69019,45.04826,48.7788,23.969769,41.063345,49.370146,52.62091,26.429782,41.936965,49.113721,53.045741,29.1633,41.484927,49.280213,55.870958,27.121525,52.190083,75.654888,95.805874,51.019421,80.645085,96.573246,108.365536,40.824612,74.947186,93.840763,106.50935,30.852825,62.910496,80.755062,92.899052,21.587345,45.347077,60.257595,72.902058,-11.846212,-12.257716,-5.673344,-1.502894,17.754392,35.672731,43.064638,47.432171,34.622702,51.232155,58.523236,61.466347,46.208759,63.721497,69.741829,70.829525,53.326865,70.45922,75.473267,76.051066,16.084602,305.123945,-68.255711,294.003919
13,-8.872684,-1.838038,0.390919,0.239554,-1.112892,-5.619301,-13.141217,-21.732502,-28.078114,-9.801144,10.040371,22.548946,-35.458214,-12.986573,9.020588,25.659198,-38.970234,-21.266304,0.627216,15.810459,-39.811959,-44.909363,-42.156601,-38.42918,-4.298841,3.576251,18.982126,32.290822,13.368446,34.141951,41.16942,44.605373,23.779269,42.053216,49.791729,51.971308,31.305594,47.246735,53.251975,56.076414,38.223036,50.926886,58.734781,65.0363,26.92305,51.945888,75.317894,95.566429,50.508671,80.383163,96.428101,108.236847,40.308861,74.71225,93.788177,106.391853,30.427597,62.692921,80.623215,92.685471,21.370731,45.180244,60.069363,72.655838,-12.040997,-12.459467,-5.792682,-1.512243,17.577872,35.57892,43.02292,47.503765,34.570104,51.134355,58.410407,61.428878,46.241203,63.758894,69.63899,70.714991,53.352159,70.503792,75.396389,75.870286,7.136336,303.095954,-67.940374,294.05352
14,-6.656605,-0.611588,0.164818,0.199355,1.16962,-0.528637,-5.744351,-12.976112,-21.442028,-2.044762,17.796158,30.301002,-29.321537,-5.616886,16.628563,33.358246,-33.537541,-14.343098,7.621239,22.62751,-35.096798,-38.34874,-34.709416,-30.38102,-5.194902,3.233017,19.076629,32.415212,13.614706,34.391212,41.464574,44.689045,24.152648,42.399339,50.259784,52.390408,31.507073,47.561056,53.757241,56.646938,38.197076,51.132873,59.124167,65.299912,26.848297,51.91737,75.28585,95.548897,50.201603,80.276161,96.411758,108.281639,39.974853,74.621269,93.861099,106.527694,30.176273,62.571396,80.595245,92.699547,21.294204,45.208614,60.148693,72.728439,-12.30041,-12.652696,-5.906772,-1.456593,17.556964,35.566447,43.06312,47.649644,34.611032,51.11751,58.335899,61.339426,46.291061,63.818631,69.65675,70.703259,53.351381,70.520082,75.34027,75.671302,0.408331,302.348549,-67.846956,294.117058
15,-3.684723,-0.839509,-0.030281,0.239703,5.349094,5.657284,1.441898,-4.691986,-14.19603,5.448841,24.511047,36.07972,-24.241333,-1.17382,20.049568,36.097343,-31.190392,-13.103703,8.114937,22.473953,-35.57967,-40.956253,-38.839645,-35.623421,-11.60872,-5.071957,11.402621,25.419421,9.270107,30.511915,37.928103,40.841932,24.276853,42.757195,50.478553,52.142801,35.379034,51.251532,57.019046,59.349321,45.190828,57.670377,65.598129,71.356046,26.914249,52.067791,75.397613,95.747841,49.900039,80.31427,96.642013,108.554306,39.668621,74.700737,94.148552,106.900039,30.029411,62.633274,80.777733,92.906959,21.442829,45.383297,60.35535,72.884147,-12.501099,-12.822584,-6.030261,-1.372057,17.510984,35.465065,42.893331,47.425761,34.642142,51.146113,58.277927,61.205316,46.340276,63.906255,69.648388,70.57073,53.344267,70.490973,75.228489,75.342233,-3.341652,301.404521,-67.942497,294.252242
16,-7.575165,-1.064639,0.069626,0.389102,3.957573,6.072636,4.358162,-0.890716,-9.611709,13.521103,32.731568,44.39724,-17.879036,8.895905,30.408966,45.725945,-23.214123,-1.254822,19.776215,33.216316,-26.065063,-24.945213,-19.344932,-14.116997,-6.705268,2.283592,19.150383,33.325746,13.862523,35.081137,42.076113,44.360211,25.906545,44.630999,52.050657,53.255543,34.232884,50.544515,56.117502,58.059898,41.243853,54.940082,61.75182,66.205753,26.907085,52.079097,75.36779,95.813804,49.678699,80.449607,96.878013,108.693969,39.489624,74.934928,94.52362,107.221069,30.024387,62.918804,81.117027,93.151794,21.746944,45.766983,60.788429,73.244247,-12.782212,-13.141612,-6.269532,-1.390064,17.437575,35.255125,42.546836,46.94685,34.696865,51.139554,58.082832,60.802135,46.436939,63.962583,69.511784,70.211021,53.382156,70.472102,75.103827,74.966754,-10.993401,300.257559,-67.949455,294.559021
17,-10.520782,-0.46056,-0.272988,0.339973,9.271774,16.351421,17.78104,15.199768,2.733753,27.878425,45.807861,55.736366,-6.339936,22.451786,42.093132,55.748039,-13.273281,10.814403,30.3097,41.977386,-17.976689,-14.635964,-9.319725,-4.791218,-10.245702,-2.635865,13.251058,26.771941,10.691331,32.300122,39.227098,40.898249,24.700474,44.895699,51.869149,52.339711,34.457545,51.789243,56.768648,57.745342,42.353212,56.247537,62.677928,66.460017,27.043007,52.380043,75.616676,96.11673,49.573689,80.792931,97.430077,109.285744,39.427769,75.341835,95.197678,108.021172,30.203808,63.299206,81.650551,93.725647,22.302246,46.345848,61.437985,73.866165,-13.073896,-13.4268,-6.485276,-1.330536,17.471871,35.114693,42.215607,46.480498,34.834074,51.164637,57.926703,60.499793,46.563837,63.983097,69.417182,70.025584,53.385219,70.333744,74.879686,74.544455,-21.639599,299.731584,-68.347859,294.833579
18,-0.485161,0.699583,-0.124088,0.170962,9.58326,17.386619,20.553211,19.379539,2.984642,29.06591,47.229355,57.424873,-5.870316,23.883648,44.014961,58.262878,-12.541832,12.416325,32.035469,43.79377,-16.859585,-12.38118,-6.702473,-2.045082,-10.822463,-4.174426,10.181803,22.628784,10.339798,31.672379,38.085246,39.656028,24.744366,45.147727,51.47129,51.818624,34.626383,52.039197,56.468652,57.363848,42.310246,56.746529,62.390307,65.415435,27.370079,52.741344,75.985233,96.310238,49.755249,81.017704,97.870525,109.987827,39.702816,75.671986,95.795803,109.051609,30.57082,63.615898,82.097454,94.372043,22.687637,46.753303,61.888893,74.359119,-13.019988,-13.506297,-6.717827,-1.580576,17.432265,34.761172,41.92974,46.300829,34.671732,50.95003,57.868361,60.610018,46.386033,63.71405,69.391396,70.160448,53.293829,70.147665,74.810044,74.475208,-22.292232,300.379673,-68.639419,294.953047
19,4.665035,3.155619,-0.04723,-0.6014,8.311146,15.423443,17.997585,16.329128,-1.167549,24.750492,43.541371,54.572605,-10.325775,18.372608,38.469876,53.262348,-16.523655,5.780056,23.205494,33.879502,-20.072719,-16.855373,-12.336113,-8.526455,-12.446635,-9.465387,1.08435,11.224521,7.512395,28.132957,34.717576,36.673545,22.669404,41.862321,47.851617,48.064779,33.05481,49.327514,53.461654,54.41471,40.951737,54.711384,59.258795,61.448193,27.490654,53.11908,76.393959,96.586189,49.238365,80.585655,97.78656,110.187698,39.241596,75.534714,96.180496,109.923294,30.23687,63.614159,82.17762,94.23674,22.622944,47.038044,62.135376,74.172363,-12.880432,-13.154369,-6.365689,-1.412911,16.605761,34.398117,42.282879,47.392589,33.826765,50.843178,58.403219,61.881274,45.743915,63.460738,69.168699,69.974431,52.970022,69.872543,74.377038,73.821704,-17.844624,303.502058,-68.904076,294.318413
20,2.836899,2.303068,0.844483,-1.981237,5.743,12.18734,15.912529,15.596992,-5.512539,17.06599,33.518955,43.279541,-12.864327,11.257336,28.274563,40.505905,-16.956379,0.576359,14.399219,22.471172,-18.191231,-16.343948,-13.559292,-11.757683,-13.264396,-12.859869,-5.042366,3.5464,4.871589,22.329752,29.266336,32.323117,20.071268,36.814151,44.001911,46.004403,30.778431,45.622217,50.616047,52.64766,38.868525,51.771928,56.48309,59.212063,27.464241,53.470905,76.150497,95.582038,47.522621,77.527061,94.47203,106.887176,37.709953,72.569355,92.689727,106.300415,28.779865,60.21873,77.115909,87.633888,21.086483,43.358345,56.305274,65.726303,-13.798154,-13.877985,-6.405259,-0.746958,13.623759,31.590597,40.663486,47.109562,31.155689,49.387374,58.191081,63.141192,43.803383,62.81352,69.854413,72.148811,51.811584,69.359878,74.554298,74.618642,-15.244366,305.807769,-68.296234,292.339819
21,9.601593,2.316666,1.862411,-6.874834,2.343384,4.873672,6.673176,6.885555,-12.78146,-1.062275,9.122887,14.876209,-18.349628,-7.027931,2.769356,11.290752,-21.126766,-14.340271,-7.276497,-3.264542,-21.232269,-25.874313,-28.262627,-30.253738,-20.940924,-26.885784,-25.352027,-20.902885,0.492422,16.41216,23.353326,26.558284,19.295793,36.240674,42.800828,44.477253,32.759828,48.108745,52.409896,53.89608,42.643056,55.991963,61.097957,63.706838,26.361076,51.312069,71.118382,87.53389,48.794312,73.110947,85.414787,93.678143,39.379601,67.538509,80.912212,88.433865,29.663189,54.541283,65.006001,70.217835,20.434994,38.524773,47.24889,52.575165,-8.983413,-5.079873,5.600763,13.79808,15.387548,37.516735,49.809327,58.590322,29.5772,52.575771,64.564366,71.648484,40.550582,63.17655,73.105498,77.521369,47.860781,67.334675,74.356413,76.471562,-5.867437,308.203093,-66.658487,285.543643
22,17.483505,-3.062388,-0.588501,-15.735647,-6.83567,-12.932888,-16.91241,-20.161148,-29.990455,-30.159336,-25.573059,-22.643795,-31.499874,-33.654613,-30.256016,-25.764324,-29.900333,-34.844238,-34.103428,-33.622844,-25.951252,-35.75655,-40.753029,-44.617607,-18.562483,-23.699302,-21.411314,-16.794655,5.183304,20.799502,28.419762,32.705327,23.026987,39.848022,47.282907,50.276012,35.504313,51.021475,56.469158,59.274072,44.142096,58.311556,63.656696,66.490348,27.440907,53.143158,72.837902,85.385376,49.919003,73.054939,81.470787,85.47234,40.634846,66.787983,75.741051,78.797241,30.953407,54.101864,60.928219,61.879063,21.539646,39.107769,45.741703,47.792404,-8.536377,-4.276402,6.979896,17.026342,14.341063,36.638606,47.049009,54.372596,27.86202,50.876572,60.695332,66.807931,38.761425,60.7288,68.760071,72.528872,46.416364,64.75988,70.649622,72.656028,11.445476,305.23509,-67.41758,269.902381
23,16.987004,-3.261386,-1.986374,-22.52024,-16.14473,-30.349835,-41.03698,-48.691636,-45.322712,-57.415547,-59.385956,-60.352295,-42.970494,-58.043095,-62.276597,-63.614994,-37.350243,-53.549984,-59.944142,-64.130448,-29.816014,-45.250042,-53.486779,-59.95625,-16.51038,-20.088829,-15.734153,-10.003122,9.327622,24.884922,33.225192,38.539025,26.105518,42.62794,51.284063,55.93193,37.77521,53.654489,60.433486,64.356552,45.656427,60.249297,66.329366,70.05052,27.665543,53.102394,71.888477,81.479107,52.58907,74.163506,77.54718,77.0163,44.467667,67.410519,70.516297,68.807007,35.125797,55.446236,56.911263,53.364762,25.472443,41.104225,44.267098,42.864796,-2.56752,2.508932,10.774731,17.727728,12.532629,29.912567,38.711383,45.581092,19.240589,37.335584,45.862241,52.43414,24.699967,41.560621,48.620694,53.2911,28.329731,40.905227,45.624724,48.419807,28.17021,302.318698,-69.666224,247.727135
24,8.141464,-4.814679,-0.946598,-31.026507,-22.456215,-41.462643,-55.151104,-64.704621,-51.780052,-73.709587,-82.982094,-89.149761,-45.339764,-70.467568,-82.110157,-89.706757,-36.4991,-59.986256,-71.502674,-79.651028,-26.331471,-44.54377,-54.777443,-63.354904,-14.941747,-15.438616,-7.529858,0.037952,13.313302,29.065437,37.955261,44.157855,29.537371,47.376558,56.908266,62.961263,40.91607,58.376443,66.215609,71.050876,48.19774,64.261653,71.357442,75.957737,28.201069,51.614525,67.288193,72.845924,50.710053,67.713719,68.0793,64.678722,42.743591,59.806183,59.129265,54.23132,33.561527,49.183125,47.863358,42.338997,24.02227,36.302239,37.354351,34.161266,-1.054301,1.430288,6.254311,10.662456,1.95098,11.924598,17.282743,21.65206,5.074643,15.236587,20.399033,24.980265,8.379902,18.026551,22.852482,26.776591,11.368257,17.700385,20.491813,22.688781,35.779295,297.999022,-71.145201,217.195631
25,8.356865,-3.569088,-3.021137,-36.378828,-27.15239,-50.015522,-67.863991,-80.635918,-56.489319,-84.817921,-98.351498,-107.714196,-48.041142,-79.524319,-95.615227,-106.490399,-37.672371,-66.138977,-81.552029,-92.452767,-26.569176,-47.675354,-59.947174,-70.024727,-14.978451,-14.050478,-4.273795,4.075565,17.198231,35.253484,44.208133,50.308852,33.621642,53.502138,62.269659,67.803225,44.805939,63.695711,71.369163,76.117906,51.417914,68.712364,75.743822,80.108464,28.514522,49.844673,62.273002,62.177296,48.146175,60.127476,57.240188,51.020576,39.053947,49.507015,45.547039,38.215668,29.204132,41.84198,39.651512,33.458427,20.019722,31.946079,33.591911,30.806557,-1.325399,-3.051144,-3.341988,-3.409543,-13.977929,-13.962343,-14.635064,-15.020634,-13.907484,-14.466455,-14.704379,-14.204911,-11.463433,-7.816794,-3.515414,-0.080696,-7.419053,-4.926578,-1.896819,1.102609,43.637787,294.918698,-74.664711,181.305567
26,3.535812,-3.145862,-3.555439,-39.668755,-28.362968,-52.327022,-72.354824,-87.728439,-57.707714,-86.697292,-101.121517,-111.618839,-48.855778,-80.667114,-97.83902,-110.800472,-38.05172,-67.540054,-84.13829,-96.362343,-26.659767,-49.462807,-62.273701,-73.209881,-13.310733,-8.700547,6.8529,18.652478,18.683526,37.585092,47.066016,54.0428,34.806645,54.247885,63.983035,71.07402,46.017543,64.532145,73.401443,79.663429,52.858279,69.59984,77.003023,82.330528,28.997703,48.794197,59.124756,55.861542,40.237896,50.544342,48.191276,43.168613,29.268642,38.174126,37.101002,33.410786,19.340195,34.139133,37.425991,35.216972,11.358135,24.868446,29.976024,29.685608,-7.330917,-17.623111,-25.911801,-31.845954,-35.152182,-49.273198,-57.981581,-64.618571,-34.465542,-50.12142,-58.55213,-63.384168,-30.751718,-36.311225,-32.295256,-28.28243,-24.726329,-29.172889,-26.253886,-22.989629,46.715383,292.285121,-78.678366,142.149097
27,1.089867,-0.25146,-0.811695,-38.218343,-28.784203,-52.513436,-72.673325,-88.608925,-57.892903,-86.938385,-101.537487,-112.434609,-49.182701,-80.870476,-98.00988,-111.376717,-38.583641,-68.119515,-84.649704,-97.027909,-27.308716,-50.401039,-63.247135,-74.281483,-13.458132,-8.745143,6.837586,18.51102,18.526062,37.527738,46.998127,54.255629,34.612304,53.642657,63.433988,70.950507,45.860006,64.160098,73.17041,79.716102,52.739965,69.327188,76.827281,82.37216,26.555614,42.229488,47.04919,41.081165,30.895317,34.720814,31.854103,27.582779,18.348896,20.603828,19.571857,17.362221,7.398491,19.369343,25.26186,25.746128,-0.920254,10.979427,17.506222,18.782913,-8.782594,-24.535353,-38.370014,-49.838974,-54.043479,-78.154742,-89.928947,-99.130468,-55.314494,-81.370747,-93.098416,-100.593298,-51.550843,-61.971392,-53.390135,-45.970372,-44.393279,-52.407538,-46.562756,-40.749548,47.415293,292.589702,-79.880018,104.486795
28,-0.259209,-0.558125,-0.496994,-34.364259,-29.002693,-52.557163,-72.501743,-88.621937,-57.78883,-86.500717,-100.980503,-111.882408,-49.008911,-80.42815,-97.482582,-110.849842,-38.394791,-67.77277,-84.233311,-96.638683,-27.023941,-50.044922,-62.92456,-74.028969,-13.22637,-8.292117,7.276767,18.765111,18.728925,37.783064,47.394491,54.760969,34.808769,53.852609,63.636702,71.053495,46.036847,64.330715,73.356106,79.954681,52.83143,69.38511,76.907557,82.526684,25.079876,37.262798,36.895614,27.296928,20.118553,18.436283,16.385547,13.123604,5.329113,2.734474,3.006237,2.127113,-6.843476,2.729301,12.979751,16.878147,-15.5247,-5.128647,4.659164,8.718693,-17.990772,-39.613346,-55.437704,-67.433296,-72.929731,-101.04738,-116.814736,-130.052005,-69.960981,-100.723246,-117.319342,-129.678996,-60.919757,-73.4657,-62.222827,-52.840741,-48.320951,-56.810101,-49.109936,-41.809919,46.860832,292.490512,-80.672264,70.581471
29,-0.153671,-0.030134,-1.308552,-31.903084,-29.010132,-52.412293,-72.247879,-88.295334,-57.488331,-86.161572,-100.627213,-111.519036,-48.663117,-80.12059,-97.125756,-110.405102,-38.083328,-67.459751,-83.899475,-96.254391,-26.787667,-49.843941,-62.726807,-73.757206,-13.193136,-8.298947,7.23332,18.711783,18.459779,37.500371,47.174882,54.604728,34.5426,53.676286,63.480461,70.91379,45.799675,64.13751,73.175041,79.839726,52.613883,69.224175,76.672498,82.241224,23.014194,33.527836,30.461082,18.594463,14.136578,9.679195,6.434063,2.630848,-1.84869,-7.159229,-7.96637,-9.227325,-14.965107,-6.511494,5.702465,10.936741,-24.482883,-13.874863,-2.033295,3.47089,-20.22838,-44.675985,-62.070403,-74.460259,-80.396771,-111.151045,-129.512289,-145.205838,-76.538753,-110.229531,-130.001009,-145.395044,-65.590461,-78.342143,-63.18459,-50.590081,-51.232212,-59.218769,-48.44184,-38.111966,46.638079,292.933185,-82.049898,39.151194
30,0.049759,-0.169097,0.435963,-27.731604,-28.799172,-52.11549,-71.828522,-87.855904,-57.18219,-85.900521,-100.407395,-111.246231,-48.346894,-79.796059,-96.789574,-109.977768,-37.727417,-67.109402,-83.577839,-95.883271,-26.383026,-49.529801,-62.424477,-73.42273,-13.136388,-8.215769,7.368553,18.82276,18.206899,37.291333,47.024037,54.574174,34.245457,53.430495,63.323417,70.858844,45.504965,63.857299,73.020306,79.825152,52.383887,69.02088,76.487123,82.070558,21.322883,29.571544,24.114727,11.861309,9.860813,4.881305,1.30878,-2.637555,-6.250054,-11.493176,-12.906887,-14.688137,-19.49897,-11.553887,2.189644,8.734336,-29.748745,-19.92334,-6.825016,0.237648,-20.090423,-46.053396,-64.182032,-76.092767,-80.473761,-110.913781,-130.043892,-147.016153,-76.622307,-110.557425,-132.47382,-150.074805,-65.697134,-81.057895,-64.837988,-50.428536,-51.740065,-62.926733,-52.411366,-41.283016,46.209544,293.259725,-82.092229,11.915227
31,0.48191,-0.019761,0.439693,-22.183743,-28.730186,-52.053051,-71.687095,-87.716365,-56.892242,-85.603386,-100.196319,-111.05413,-48.063148,-79.469879,-96.470935,-109.674602,-37.442573,-66.817543,-83.315368,-95.64252,-26.069206,-49.26931,-62.148662,-73.104263,-13.228815,-8.310864,7.432638,18.965664,17.984055,37.12073,46.89293,54.457738,34.031418,53.222656,63.13256,70.732998,45.323889,63.605592,72.857224,79.814903,52.272762,68.866839,76.401241,82.070275,20.490933,27.167656,20.427075,7.92263,7.846962,3.011295,-0.489818,-4.467613,-7.878628,-12.820015,-14.761562,-17.051823,-21.01767,-14.138523,-0.357731,6.776939,-31.447231,-22.385342,-8.860599,-0.783646,-19.419294,-46.118431,-64.473006,-76.60803,-79.860357,-109.797188,-129.624205,-147.308627,-76.032368,-109.371524,-132.350714,-151.494138,-64.862664,-81.838895,-66.148406,-51.612964,-50.731996,-63.297266,-53.816052,-42.812481,45.943559,293.753165,-82.400431,-9.755315
32,0.743432,0.112448,1.556614,-16.749472,-28.655571,-51.92426,-71.50771,-87.487668,-56.577244,-85.365887,-100.077771,-111.052002,-47.804947,-79.276234,-96.376488,-109.705296,-37.211312,-66.647679,-83.203045,-95.633412,-25.813546,-49.087899,-61.968567,-72.904393,-13.309375,-8.492707,7.315831,19.076295,17.902247,36.920868,46.564405,53.952866,34.00668,53.022312,62.829043,70.359025,45.302609,63.399704,72.673986,79.695921,52.22278,68.721737,76.29319,82.001682,19.93047,25.830929,18.682022,6.688614,7.210751,2.718418,-0.637447,-4.607403,-8.127617,-12.24789,-14.376102,-17.027264,-21.190212,-15.08662,-1.397266,6.291893,-31.912445,-24.170357,-10.485775,-1.506626,-18.648106,-45.114369,-63.596329,-75.686727,-78.229621,-107.713757,-127.978677,-146.120926,-74.633654,-107.613959,-131.278579,-151.665252,-63.635337,-82.251709,-67.082554,-52.575628,-49.423362,-63.671078,-55.292517,-44.527957,45.620739,294.41404,-81.910069,-25.95636
33,0.944572,0.249076,3.426773,-14.231389,-28.508698,-51.759647,-71.318996,-87.250763,-56.364521,-85.305244,-100.103336,-111.157974,-47.686798,-79.300152,-96.525787,-109.931717,-37.154892,-66.739346,-83.357792,-95.852108,-25.756027,-49.090279,-61.994854,-72.907208,-13.528687,-8.823331,7.052169,18.856143,17.823343,36.716005,46.265854,53.607805,33.968779,52.81225,62.513055,70.009258,45.235487,63.173377,72.411794,79.44587,52.093908,68.4643,75.971989,81.661129,19.492928,25.091686,17.720238,6.385986,7.244911,2.781212,-0.538994,-4.446224,-8.197952,-12.124306,-14.426857,-17.071918,-21.431133,-15.819534,-2.385269,5.56786,-32.444504,-24.870415,-11.466946,-2.456303,-15.664418,-41.377945,-59.65711,-71.595021,-75.765316,-105.351921,-125.619292,-143.774404,-72.288484,-105.671553,-129.339023,-150.139665,-61.223977,-79.460381,-64.130983,-50.229712,-46.83502,-60.727949,-52.090604,-41.474269,45.215275,295.136952,-79.833332,-39.713913
34,0.898796,0.08713,5.120693,-5.895133,-28.437675,-51.741325,-71.308285,-87.209518,-56.301075,-85.345905,-100.223591,-111.367619,-47.666061,-79.392288,-96.757393,-110.305458,-37.162971,-66.92419,-83.652512,-96.311932,-25.75312,-49.111885,-62.077995,-73.09457,-13.605801,-9.005136,6.864349,18.671275,17.895208,36.723464,46.159384,53.384405,34.056699,52.700581,62.261039,69.62254,45.27907,63.027139,72.188504,79.14533,52.086905,68.322867,75.801373,81.500627,18.806317,23.555489,16.251377,6.250157,7.466114,3.166638,-0.310993,-4.469696,-7.813625,-11.299095,-13.772781,-16.646312,-21.256736,-15.858959,-3.031688,4.916451,-32.915886,-26.318092,-13.598179,-4.768009,-15.105046,-39.803963,-57.608626,-69.689242,-75.134245,-104.753605,-125.079871,-143.513709,-71.660575,-105.152612,-128.661664,-149.536486,-60.668155,-78.146894,-61.953367,-47.833882,-46.19184,-60.091586,-50.976434,-40.164956,44.892157,295.775671,-75.934553,-45.057457
35,0.928276,0.058478,5.486538,3.457165,-28.456192,-51.885246,-71.527061,-87.466988,-56.399563,-85.502323,-100.430649,-111.619823,-47.79966,-79.659187,-97.186111,-110.90142,-37.321175,-67.247669,-84.096416,-96.900638,-25.901985,-49.253517,-62.277271,-73.386783,-13.820977,-9.332846,6.597105,18.385234,17.913819,36.606175,45.991484,53.200487,34.111693,52.485355,61.926302,69.235328,45.318393,62.844666,71.880826,78.735604,52.087695,68.153399,75.546961,81.251315,18.294041,23.676518,17.772724,9.448322,10.11044,6.173935,2.750252,-1.594223,-5.067455,-8.274685,-10.687534,-13.66774,-18.918278,-14.191757,-2.432281,5.040413,-31.419567,-25.666748,-13.971603,-5.803756,-12.742974,-34.454365,-50.183218,-61.499767,-71.304714,-99.629388,-117.933838,-134.410199,-68.567478,-99.72943,-119.982953,-138.424086,-58.245265,-72.77235,-55.968846,-42.296239,-44.319094,-56.025789,-46.086492,-35.371171,44.986805,296.387281,-71.281643,-41.04716
36,0.631783,-0.358548,5.721531,12.737986,-28.448777,-51.990532,-71.684487,-87.642723,-56.452881,-85.586277,-100.602002,-111.883507,-47.920235,-79.893139,-97.624363,-111.505978,-37.483155,-67.558709,-84.558689,-97.502095,-26.064263,-49.438614,-62.550316,-73.763832,-13.909478,-9.503055,6.3566,18.114904,18.079446,36.685821,46.046492,53.267709,34.267082,52.422963,61.809236,69.059833,45.460999,62.81058,71.771961,78.523813,52.211011,68.133911,75.500438,81.25486,18.23719,25.3843,21.775269,14.811493,14.902908,12.266407,9.522663,5.440556,-0.249195,-2.980739,-5.03841,-7.928364,-14.604973,-10.837875,-0.806259,5.670857,-27.945076,-23.294002,-13.107902,-5.963699,-9.404693,-26.667033,-39.072326,-48.633939,-64.787254,-90.255109,-104.855846,-117.789331,-63.530652,-89.39739,-103.852232,-117.93223,-54.49304,-64.200755,-47.023525,-34.172258,-41.649733,-49.648264,-38.839755,-28.520045,44.988837,296.505511,-66.189863,-27.832396
37,0.405441,-0.353434,5.505386,21.558075,-28.453217,-52.12397,-71.827389,-87.816204,-56.833283,-85.905842,-100.851631,-112.098335,-48.345818,-80.296063,-98.053356,-111.95517,-37.92746,-67.909264,-84.929134,-97.888023,-26.484352,-49.821991,-62.99754,-74.229172,-14.146106,-9.764136,6.161925,17.817204,18.159301,36.719796,46.102857,53.467458,34.2748,52.395792,61.799009,69.18153,45.465951,62.814038,71.744321,78.535038,52.246949,68.110136,75.445727,81.232346,18.803696,28.439999,27.746293,21.871983,21.934582,21.284134,19.675427,16.486462,6.685685,4.514214,3.117531,0.688489,-8.251773,-5.805095,1.946274,7.048543,-22.272399,-18.95882,-10.689102,-4.782749,-4.87107,-16.566394,-24.147461,-31.217043,-55.832863,-77.06941,-86.2803,-94.149568,-56.682401,-74.09142,-79.977454,-87.668751,-49.512925,-52.504251,-35.211801,-23.614963,-38.361875,-41.12302,-29.447209,-19.910802,44.752035,296.754199,-61.32672,-5.672199
38,0.318947,-0.619653,2.644627,23.809341,-28.565644,-52.396637,-72.149849,-88.140827,-57.231732,-86.185684,-101.164444,-112.507645,-48.816033,-80.573925,-98.343624,-112.373303,-38.432968,-68.188946,-85.163086,-98.126633,-26.974114,-50.181748,-63.324532,-74.581055,-14.138412,-9.723492,6.270408,17.919833,18.259967,36.797391,46.205795,53.63453,34.336835,52.457049,61.922633,69.456875,45.548104,62.91001,71.901994,78.797737,52.382343,68.206158,75.611712,81.45787,20.295044,32.591664,33.83765,28.334038,31.172287,32.334801,29.798744,26.801193,15.073792,15.259403,13.662415,10.61982,-1.189728,2.275051,7.59383,10.911507,-16.867344,-12.440254,-6.064361,-2.062488,-0.244012,-2.880409,-2.27465,-3.847371,-41.329062,-48.136008,-49.17142,-51.787229,-44.021214,-44.585686,-41.701368,-43.855859,-38.49512,-28.708797,-10.966465,-1.238071,-28.645633,-21.886692,-9.933949,-2.237161,44.538311,296.79443,-59.214764,18.797026
39,0.139663,-0.531881,0.934994,25.683868,-28.711074,-52.667381,-72.489898,-88.553878,-57.602863,-86.499893,-101.440887,-112.811313,-49.188697,-80.887275,-98.610591,-112.696643,-38.816093,-68.397651,-85.259101,-98.180946,-27.375686,-50.496322,-63.597118,-74.800735,-14.15443,-9.753577,6.323489,18.084102,18.334586,36.904368,46.370187,53.855436,34.409577,52.563062,62.087581,69.783016,45.65035,63.034079,72.090407,79.101388,52.489863,68.268168,75.746007,81.67391,23.12063,38.405931,40.903787,34.33996,40.438282,43.079429,39.486357,36.794535,23.061848,24.836763,23.093216,20.038759,5.455827,9.348026,12.409567,14.228845,-11.361323,-6.10877,-1.396334,1.256756,3.612424,9.65908,18.326324,22.432572,-25.86981,-17.425741,-11.049292,-8.75711,-30.08172,-13.180897,-2.732181,-0.371009,-26.096823,-3.891273,12.739554,19.622657,-17.57104,-1.360535,9.749686,14.89758,44.023721,296.702218,-58.934023,44.920563
40,-0.037788,-0.359734,0.27119,22.296975,-28.763237,-52.738335,-72.539211,-88.582752,-57.890488,-86.744911,-101.681511,-113.08049,-49.550514,-81.129764,-98.749775,-112.785232,-39.251221,-68.627129,-85.333054,-98.125385,-27.860458,-50.819595,-63.82275,-74.88921,-14.063224,-9.626839,6.487276,18.282667,18.394238,36.996389,46.474991,53.965489,34.461609,52.711436,62.293618,70.10612,45.709619,63.152653,72.290985,79.428197,52.541018,68.337786,75.898729,81.826608,26.318881,43.794409,46.584059,38.328455,47.572556,50.494748,45.239729,42.5003,28.817494,31.058836,28.849675,25.963633,10.03871,14.026219,15.413493,16.356761,-7.650865,-1.661886,1.869265,3.764248,5.313942,18.329553,33.981749,43.559259,-12.340462,10.379288,21.789573,26.888745,-16.953891,14.96671,29.305968,33.483215,-13.808315,19.172853,33.789432,37.590938,-6.24311,18.096345,27.632152,30.117202,43.257305,296.712174,-59.391461,67.587228
41,0.22197,-0.065381,-0.073986,15.391796,-28.855912,-52.866234,-72.650208,-88.515473,-58.336212,-87.022374,-101.928818,-113.374077,-50.052246,-81.381169,-98.891922,-112.923478,-39.819649,-68.865807,-85.386361,-98.049397,-28.465302,-51.124741,-63.967507,-74.861344,-13.90187,-9.426583,6.675442,18.503832,18.360423,37.010097,46.482561,53.954287,34.375874,52.808792,62.406708,70.321011,45.610867,63.246834,72.44173,79.652882,52.445675,68.33886,75.951512,81.821939,28.856638,46.985888,49.436537,40.563544,51.722912,54.094975,47.992236,44.977587,32.029152,35.001441,32.701859,29.613379,12.423953,17.328095,18.061781,18.378943,-5.877107,1.737139,5.024695,6.444569,6.128352,24.285165,45.487842,59.416493,-0.827338,33.929746,48.417164,54.692266,-4.933345,38.632246,54.605482,59.20204,-2.075104,39.107478,52.218612,54.048654,4.720452,35.579692,44.124708,44.958934,42.670304,296.98655,-60.274418,83.318781
42,0.498962,0.106297,0.955845,7.784553,-28.918831,-52.977699,-72.81776,-88.597446,-58.558079,-87.205032,-102.198692,-113.742462,-50.314201,-81.555748,-99.055115,-113.105587,-40.144409,-69.11919,-85.543888,-98.119846,-28.858108,-51.372162,-64.08221,-74.857864,-13.654004,-9.234144,6.737094,18.554776,18.230525,36.906678,46.425491,53.905146,34.251435,52.719205,62.362519,70.327174,45.521564,63.193828,72.435926,79.65876,52.396139,68.277381,75.931444,81.754557,30.591425,47.995863,49.06386,39.265177,52.380822,53.410469,46.016905,42.603888,32.040436,35.168936,32.164776,28.619139,11.89337,17.506932,18.133444,18.285971,-6.880102,2.077395,5.624548,7.022438,6.146383,27.947768,53.232925,70.613245,9.012232,54.025275,69.557332,75.033797,6.078322,58.207924,72.463158,74.963333,8.995269,56.496758,67.643205,67.440349,15.210501,50.904329,58.220635,57.581676,42.534107,297.2046,-59.953732,91.215087
43,0.496399,0.327253,5.106926,4.58679,-28.958359,-53.10894,-72.934685,-88.687111,-58.846035,-87.406254,-102.371075,-113.895504,-50.569908,-81.753925,-99.19622,-113.199097,-40.398308,-69.308407,-85.64193,-98.167385,-29.138077,-51.530548,-64.163074,-74.844051,-13.712507,-9.364549,6.585669,18.386716,18.133354,36.902799,46.434543,53.850879,34.180162,52.62559,62.244785,70.156211,45.470373,63.088457,72.315166,79.494887,52.339056,68.157807,75.820626,81.601996,30.172434,45.928568,45.953505,35.971064,48.552452,48.549294,41.004759,37.095629,28.395607,29.576357,26.099156,23.176443,8.408038,12.202149,12.462874,12.66778,-9.891832,-2.804586,0.827231,2.907704,6.804438,28.893456,54.876504,72.501875,15.280016,59.585844,73.052732,76.549726,13.049455,64.476653,75.604012,75.563071,15.208423,61.83723,69.439864,67.088081,19.622882,54.937959,60.692584,59.143801,42.55061,297.53406,-55.326702,95.804084
44,0.36042,0.347049,0.322598,1.777665,-28.952041,-53.077217,-72.879856,-88.622749,-58.832828,-87.415386,-102.404217,-113.874012,-50.556518,-81.832912,-99.259254,-113.178692,-40.409889,-69.447773,-85.746551,-98.180134,-29.204109,-51.650574,-64.244785,-74.839828,-13.726215,-9.431819,6.489808,18.194352,18.022179,36.854437,46.436347,53.85535,34.096725,52.518084,62.161534,70.060857,45.428852,62.980369,72.195136,79.362568,52.370796,68.123376,75.730965,81.428972,30.961761,47.056263,46.474239,35.426502,49.767528,49.280308,41.311363,37.456466,29.304817,29.429477,25.764816,23.529808,9.095123,11.44186,11.529819,12.234443,-9.379772,-3.169384,0.131332,2.278106,6.284599,28.474208,55.020488,73.045136,16.542608,60.738514,73.463989,76.391404,14.533126,66.084408,76.68063,76.136868,16.4871,63.136147,70.33312,67.642951,20.582906,55.615848,61.125751,59.36369,42.458679,297.867429,-55.456455,97.568069
45,0.214943,0.299576,0.673256,-2.567409,-28.943161,-53.043434,-72.836998,-88.59272,-58.780552,-87.416324,-102.403255,-113.817203,-50.408478,-81.837375,-99.274784,-113.124492,-40.198883,-69.438618,-85.744984,-98.128418,-28.991318,-51.609329,-64.259308,-74.860359,-13.794856,-9.565176,6.293417,18.025575,18.013164,36.957696,46.570518,53.956325,34.153721,52.544574,62.159657,69.982681,45.540114,63.023866,72.235262,79.374906,52.536806,68.250718,75.849847,81.540209,31.023216,46.77602,46.255542,35.5368,50.110439,49.673916,41.775226,37.324745,29.88612,30.564251,26.749294,24.097492,9.648571,12.333961,12.059623,12.148281,-8.935387,-2.305424,1.026855,2.836933,6.715641,28.949099,55.516763,72.846633,18.540363,62.248855,74.203784,76.502628,16.700553,68.012169,78.205519,77.59482,18.315944,64.487764,70.675872,67.731797,21.771225,56.603015,61.611096,59.818704,42.235302,298.176928,-55.221519,95.010583
46,-0.083244,0.319509,1.764656,-4.043189,-29.005165,-52.99308,-72.74778,-88.630577,-58.650982,-87.42366,-102.350578,-113.642258,-50.162293,-81.804234,-99.18845,-112.901493,-39.869156,-69.367024,-85.659073,-97.967709,-28.665802,-51.518463,-64.246857,-74.890114,-13.937451,-9.771743,6.098977,17.823429,17.925317,36.917879,46.573433,53.937441,34.222906,52.517874,62.094696,69.828725,45.728774,63.081949,72.242487,79.322776,52.798097,68.45626,75.993775,81.632279,31.109058,46.756222,45.715748,34.633838,49.852306,50.081371,41.145916,36.048763,29.712353,30.443802,25.481437,22.536484,9.353794,11.622791,10.357807,10.118156,-9.555222,-3.559376,-0.68145,1.109813,7.511678,30.546441,57.493462,74.556941,21.818069,65.306347,76.403204,77.535793,20.208323,71.137401,79.812988,77.945124,21.403656,67.438119,71.238338,66.511406,24.10184,58.769065,62.233597,59.235861,41.731425,298.491886,-53.877496,90.962843
47,-0.340508,0.247076,-2.23304,-1.180476,-29.009193,-52.915764,-72.615875,-88.536312,-58.546234,-87.415661,-102.245853,-113.384731,-49.946457,-81.742698,-99.078151,-112.65604,-39.574974,-69.290359,-85.587673,-97.827026,-28.361183,-51.40464,-64.222515,-74.902816,-14.091691,-9.940013,5.926261,17.714724,17.864678,36.887609,46.549634,53.858215,34.2965,52.528766,61.996389,69.579994,45.860549,63.110675,72.180674,79.168956,52.945396,68.574154,76.023958,81.593117,31.954662,49.003544,47.881084,35.688824,53.031361,54.105503,44.034038,38.678135,32.253754,33.214291,27.759521,25.11906,11.452,13.869301,12.07711,12.059715,-7.852696,-1.659496,0.755642,2.507023,6.106368,29.052877,56.072764,73.738507,19.550501,64.061723,75.082146,75.887878,18.124801,69.801115,78.160207,75.90402,19.879229,66.456985,69.743095,64.235687,23.392346,58.327605,60.824791,56.891228,41.011682,298.747959,-56.489771,89.791364
48,-0.279258,0.182633,-4.204067,-0.426301,-28.907662,-52.68908,-72.433159,-88.302132,-58.298378,-87.380024,-102.233025,-113.282319,-49.652642,-81.687321,-99.064511,-112.53693,-39.221123,-69.246827,-85.643979,-97.841137,-27.976639,-51.312699,-64.265076,-75.030705,-14.029385,-9.925354,5.77233,17.570166,17.697471,36.763775,46.442275,53.754808,34.163675,52.426174,61.908851,69.457432,45.786906,63.034166,72.07907,79.021051,52.95808,68.589777,75.959182,81.450498,33.707657,52.448524,52.548523,40.349876,57.262642,58.693107,48.453872,42.812885,36.197399,38.178371,32.987423,30.050056,15.277038,18.85168,16.954776,16.513412,-4.120858,3.601158,5.856926,7.14331,4.086908,26.383871,53.225416,70.957677,17.170882,62.748589,74.019287,75.43904,16.16477,69.046415,78.547161,77.626054,18.574259,65.98788,70.106484,65.468991,22.919858,58.27224,60.612704,56.808941,40.350592,298.880037,-61.07567,89.314508
49,-0.183861,-0.124266,1.699321,-2.104768,-28.858681,-52.555275,-72.225723,-88.043541,-58.078652,-87.166798,-102.063881,-113.117581,-49.435639,-81.423798,-98.8843,-112.390709,-38.973679,-68.993168,-85.533909,-97.805042,-27.681221,-51.051888,-64.0616,-74.943466,-13.921371,-9.682181,5.971388,17.680563,17.56588,36.695503,46.411387,53.748435,34.008446,52.436856,62.027202,69.63069,45.663392,63.080194,72.246327,79.268917,52.908148,68.69322,76.143432,81.706724,33.550793,51.691327,52.316998,41.370919,55.205647,57.268467,47.691983,41.423527,34.506123,37.66119,32.471352,28.8937,13.892865,19.109036,17.002373,15.609856,-5.114914,3.639061,6.326443,7.597207,4.873231,27.484626,54.467358,71.716557,21.025342,66.004076,76.611735,77.299091,20.849514,72.65856,80.888741,79.246341,23.148784,69.533088,71.307609,65.439295,26.620645,61.637766,62.559762,57.947389,39.799994,298.677289,-59.743086,87.131258
50,-0.171547,-0.049314,-1.083,0.779611,-28.828766,-52.391007,-71.998249,-87.903717,-57.686566,-86.790722,-101.734314,-112.80217,-49.095863,-81.104244,-98.630013,-112.196938,-38.678307,-68.695439,-85.332001,-97.69455,-27.402786,-50.750061,-63.745686,-74.653462,-13.901611,-9.665656,6.001535,17.607599,17.367155,36.50956,46.272115,53.599024,33.803694,52.346713,62.023237,69.652884,45.474078,62.996943,72.250402,79.336361,52.745423,68.642412,76.165415,81.819333,33.333802,52.083126,52.775791,41.719128,56.176609,58.886387,49.186558,43.522934,35.380406,38.465538,33.068035,29.960541,14.779026,19.718731,17.660797,16.862206,-4.210087,4.039982,6.388996,7.873169,4.281841,26.8113,53.83207,71.888113,19.332004,64.47668,75.411727,76.228426,19.301493,71.089235,79.638568,77.959327,22.039401,68.592629,71.195384,65.442506,26.073982,60.937319,62.155359,57.483187,39.299303,298.53443,-61.15523,87.817324
51,-0.128906,0.134974,-2.155597,1.394133,-28.661019,-52.163704,-71.745678,-87.726735,-57.44228,-86.504837,-101.459885,-112.520565,-48.904427,-80.849476,-98.369591,-111.944435,-38.515892,-68.417279,-85.069256,-97.470749,-27.221581,-50.47966,-63.422917,-74.284195,-13.943132,-9.789256,5.826336,17.342838,17.187177,36.274736,46.061583,53.410488,33.587148,52.199932,61.957362,69.646869,45.20797,62.805109,72.167249,79.341956,52.433287,68.384617,75.992502,81.736884,33.747928,53.068039,54.288185,43.120765,57.753707,60.609123,50.832275,44.94762,36.881034,40.137394,35.103103,32.051971,16.31607,21.566734,19.932094,19.135345,-2.583218,6.149551,8.708839,10.156551,3.521971,25.850958,52.828274,70.923997,17.300464,62.915327,74.388517,75.835563,17.095305,69.369406,78.779168,77.901127,20.0593,66.841776,70.921033,66.373992,24.638284,59.521673,61.664177,57.873579,38.90411,298.594096,-63.577114,89.136149
52,0.058159,0.054674,-0.919625,1.010693,-28.562623,-52.057847,-71.651082,-87.695057,-57.18837,-86.20435,-101.252198,-112.386624,-48.705391,-80.57214,-98.120911,-111.774617,-38.341507,-68.126942,-84.800732,-97.24141,-27.071045,-50.266274,-63.148522,-73.955018,-13.984592,-9.814055,5.804637,17.244345,17.008471,36.206823,46.048776,53.414699,33.366069,52.179283,62.088816,69.88036,44.943518,62.699207,72.206967,79.468778,52.130599,68.197019,75.926441,81.762794,33.024914,51.928391,53.134026,43.202637,58.38485,60.817383,51.073677,45.219532,38.117581,41.092747,35.94215,32.874962,17.884472,22.185276,20.289345,19.603604,-0.972095,6.930989,8.93224,10.132942,4.675908,26.789602,53.739241,71.684924,17.199781,61.96862,74.240119,76.416487,16.501372,68.149009,78.912056,79.372986,19.065897,65.706916,71.164923,67.828709,23.508123,58.19341,61.575912,58.753078,38.727236,298.576874,-64.731772,90.074946
53,0.029823,-0.084092,-0.639061,1.150688,-28.498146,-51.967255,-71.541619,-87.732285,-56.929848,-85.894684,-100.991684,-112.195782,-48.453346,-80.281735,-97.87286,-111.608322,-38.114525,-67.804104,-84.524815,-97.014588,-26.887688,-50.036156,-62.882424,-73.629902,-14.009366,-9.75764,5.967004,17.432079,16.994677,36.283591,46.165707,53.560788,33.347087,52.281641,62.272907,70.133327,44.897168,62.768528,72.404692,79.765391,52.027637,68.211666,76.082472,82.068841,32.929665,51.761444,52.724396,42.195271,58.196457,60.45678,51.048569,45.644154,37.807297,40.523495,35.902359,33.201416,17.502594,21.865998,20.583241,20.190583,-1.357006,6.867028,9.276215,10.59383,4.678502,26.828121,53.883805,72.04533,15.535342,60.668817,73.531465,76.223919,14.697228,66.655309,77.734692,78.249283,17.573921,64.308201,70.459765,67.422842,22.544829,57.215561,61.065094,58.437614,38.557034,298.44512,-65.570858,91.177972
54,0.031494,0.117499,-3.331009,3.772352,-28.369995,-51.819489,-71.461773,-87.83424,-56.719288,-85.771454,-100.925251,-112.20932,-48.215126,-80.153915,-97.75074,-111.49482,-37.863052,-67.601795,-84.301334,-96.772751,-26.64949,-49.845085,-62.666542,-73.320053,-14.012206,-9.86784,5.824731,17.393127,17.046769,36.498062,46.362468,53.712533,33.358498,52.419208,62.384082,70.189754,44.845026,62.790301,72.467121,79.826239,51.874051,68.084584,76.014423,82.066198,32.189141,51.37785,52.784375,43.137509,61.209732,63.541237,52.960259,47.665078,41.312806,43.862606,38.413559,35.687325,21.214909,24.801018,22.65493,22.39333,2.13929,9.288231,10.309307,11.16948,5.110723,25.852828,51.890544,69.985428,11.113765,56.6619,69.58946,72.077026,9.156511,61.840351,73.383059,74.107243,12.081455,59.895065,67.811011,65.567655,17.92817,52.909401,58.42627,56.854005,38.432779,298.528162,-69.057616,94.915867
55,0.205284,0.132034,-0.609054,0.056896,-28.308952,-51.833382,-71.580036,-87.950466,-56.795746,-85.934029,-101.068394,-112.341316,-48.217186,-80.209408,-97.731365,-111.40987,-37.815514,-67.613239,-84.241047,-96.630867,-26.595451,-49.875664,-62.698929,-73.272091,-14.015874,-9.844856,5.846517,17.555679,17.102962,36.573176,46.444511,53.859994,33.406232,52.481441,62.43904,70.298905,44.866454,62.851743,72.53117,79.897833,51.846881,68.030688,75.912709,81.918393,32.55487,51.842411,53.557331,43.874416,61.108703,63.270149,52.972,47.334526,41.097885,44.17844,39.151737,36.231159,21.019192,25.360382,23.293007,22.565517,2.031956,10.051986,11.338062,11.966663,5.201454,25.763501,51.733785,69.355451,11.467367,57.302055,70.180585,72.694469,9.532097,62.621717,73.870481,74.55344,12.406097,60.298358,67.233349,64.610154,18.356027,53.560128,58.421837,56.559852,38.508957,298.64524,-69.795776,94.957807
56,0.133301,-0.080794,-1.330651,2.440562,-28.292793,-51.805023,-71.615524,-88.016968,-56.659172,-85.933308,-101.094166,-112.3904,-48.048271,-80.196442,-97.726959,-111.399822,-37.641541,-67.630394,-84.271076,-96.657578,-26.470001,-49.882073,-62.730812,-73.31345,-13.96204,-9.67251,6.077142,17.890638,17.187597,36.744138,46.617683,54.03124,33.478258,52.632111,62.576188,70.414859,44.945815,63.019309,72.672454,80.032115,51.93616,68.170849,76.035542,82.066273,31.560505,50.878727,52.591198,43.400048,62.288109,64.634354,53.511212,48.327759,42.557637,45.658608,39.739209,36.978379,22.680531,26.578297,23.471261,22.993515,3.629174,10.914517,10.626034,10.619305,5.91254,25.352743,50.810419,68.562909,9.173734,55.534189,67.631367,68.884814,6.738508,60.339977,70.47028,70.001607,9.751415,58.596145,65.002318,61.212856,16.312687,51.76692,56.389087,53.762261,38.542706,298.536763,-71.225979,97.370686
57,-0.096794,-0.005916,0.011605,-0.615398,-28.246582,-51.655289,-71.449562,-87.824353,-56.522484,-85.897831,-101.009194,-112.258301,-47.884163,-80.148251,-97.621777,-111.211212,-37.484642,-67.575829,-84.181801,-96.556835,-26.342766,-49.755524,-62.590702,-73.177025,-13.871822,-9.58727,6.163222,18.059538,17.328648,36.866293,46.703912,54.076392,33.596028,52.742139,62.623106,70.400608,45.046457,63.132732,72.736922,80.070401,52.023957,68.276752,76.102838,82.132087,32.407402,52.12698,54.208614,44.132332,61.324219,64.166313,53.404552,47.835331,41.164387,45.007965,39.610725,36.681507,21.173458,26.549114,23.89357,22.897911,2.292446,11.043102,11.4986,11.455192,5.137615,25.091273,50.980411,68.583021,10.343607,57.493968,68.78098,69.336017,8.423324,62.546226,71.287652,69.588898,11.677892,60.363658,64.709195,59.641573,18.264987,53.742186,56.687594,53.091855,38.367428,298.505854,-71.292858,96.730295
58,-0.123596,0.084944,-1.226074,1.425384,-28.227173,-51.550187,-71.311558,-87.607544,-56.46888,-85.885598,-100.939625,-112.128491,-47.824379,-80.087449,-97.462349,-110.956433,-37.417237,-67.545594,-84.087159,-96.427632,-26.257393,-49.640923,-62.447537,-73.052559,-13.838934,-9.579934,6.114044,18.027415,17.320237,36.825723,46.665281,54.023237,33.560435,52.735383,62.573397,70.310254,45.001119,63.144193,72.693524,79.996202,52.00285,68.279604,76.050992,82.043512,31.615436,51.602314,53.675239,44.064731,62.805152,66.025726,54.322551,48.713516,42.966705,46.909446,40.457668,37.597881,23.122043,27.587768,23.893009,23.185798,3.994651,11.36483,10.426792,9.962871,6.296498,25.885606,51.588641,69.034824,10.021975,56.866054,67.4325,66.884552,7.575961,61.232228,69.585823,67.427387,10.490475,59.404724,63.820039,58.364662,17.055236,52.256225,55.457786,51.777449,38.196454,298.569824,-72.56631,98.134705
59,-0.068093,0.119216,0.753593,-1.320606,-28.158371,-51.434669,-71.17345,-87.40456,-56.468353,-85.88372,-100.885059,-112.0158,-47.853927,-80.057648,-97.336864,-110.772228,-37.469833,-67.534458,-83.989803,-96.304516,-26.324226,-49.617966,-62.370071,-72.951496,-13.915826,-9.599571,6.100298,18.011211,17.221424,36.634395,46.468518,53.833428,33.487161,52.64808,62.481388,70.251035,44.946148,63.140487,72.656535,79.960682,51.955042,68.291015,76.008001,81.922196,32.365517,52.432571,54.440723,43.40966,60.99099,63.911224,53.269169,47.902805,40.482891,44.435841,39.470627,36.993885,20.327557,25.623665,23.450352,22.926052,1.457233,10.24498,10.932278,11.062374,4.739955,24.990966,51.132329,68.735482,10.833424,58.446221,69.469682,69.732344,9.004358,63.461219,72.546743,71.127792,12.261649,60.985793,65.887133,61.343822,18.925408,54.334879,57.180931,53.615215,38.093742,298.668295,-71.847336,96.793354
60,-0.091965,0.051536,0.942867,-0.204345,-28.003166,-51.24298,-70.921337,-87.181377,-56.394401,-85.764003,-100.795085,-111.958591,-47.866676,-79.995941,-97.269058,-110.709377,-37.518104,-67.47512,-83.921814,-96.26968,-26.382637,-49.538841,-62.24271,-72.843429,-13.956013,-9.590962,6.104646,17.939718,17.170728,36.653625,46.477028,53.797305,33.372442,52.683451,62.517081,70.244033,44.795034,63.137463,72.664007,79.977788,51.78271,68.231427,75.97977,81.912033,32.114548,51.562191,53.686112,43.52686,59.412724,61.890461,51.849015,46.681618,39.110756,42.557087,38.003186,35.734268,19.050442,24.101979,22.487835,22.322491,0.286091,8.808838,9.903054,10.409169,5.245846,25.44075,51.593346,69.072121,12.115746,59.533807,70.499717,70.814743,10.257793,64.348227,73.672737,72.652361,13.174358,61.584872,67.366328,63.693574,19.17228,54.49769,58.415618,55.795091,37.986654,298.697833,-70.919592,96.567011
61,0.10183,0.26549,-0.401825,-0.064585,-27.987968,-51.297775,-70.97081,-87.186264,-56.61216,-85.887371,-100.894398,-112.039455,-48.142593,-80.108768,-97.332733,-110.75853,-37.821968,-67.605423,-84.010597,-96.334843,-26.630333,-49.668526,-62.384068,-73.024212,-14.12043,-9.872285,5.839996,17.679452,17.216114,36.51686,46.277216,53.583056,33.499586,52.604028,62.346798,70.03712,44.927056,63.054556,72.489216,79.741407,51.907594,68.188053,75.846858,81.657547,32.438164,52.121601,54.190304,43.583588,59.165577,61.389553,51.804943,46.900612,38.644661,41.692257,37.625862,35.615651,18.364655,23.181462,22.422123,22.726834,-0.517593,7.991215,9.94154,11.06408,3.799454,24.085088,50.38486,68.471729,11.824395,58.548462,70.610071,72.327461,10.273102,63.63966,74.751387,75.28091,13.295161,60.953678,68.697957,66.8955,19.357612,54.042893,58.9912,57.595752,38.072565,298.950547,-71.337336,96.48965
62,0.231743,0.207543,-0.783336,0.536006,-27.992088,-51.414986,-71.108185,-87.321064,-56.824745,-85.974003,-100.999981,-112.199341,-48.464447,-80.255139,-97.482227,-110.961296,-38.203743,-67.833309,-84.216248,-96.53096,-26.969055,-49.883469,-62.576065,-73.253609,-14.233284,-10.031045,5.766241,17.545145,17.299897,36.436547,46.166473,53.499322,33.634956,52.578661,62.254604,69.924265,45.074763,63.040218,72.388514,79.56842,52.067886,68.20627,75.795889,81.50411,32.400055,51.973869,54.434028,44.878898,59.065178,61.100738,52.023674,47.356807,38.649192,41.448795,37.98769,36.260032,18.342716,23.123714,22.971794,23.640243,-0.5388,7.956184,10.287243,11.831073,3.553428,23.448404,49.080543,66.960881,11.221316,57.256977,70.24052,73.059167,9.535684,62.494054,75.277451,77.391711,12.552322,59.950666,70.04319,70.068681,18.577105,53.094135,59.649361,59.463887,38.282513,299.115439,-72.142467,96.983005
63,0.229477,0.265576,0.410305,-1.472611,-28.030083,-51.548996,-71.268379,-87.488308,-57.161293,-86.202084,-101.190239,-112.405174,-48.848809,-80.520321,-97.708191,-111.201462,-38.61509,-68.114937,-84.464894,-96.804348,-27.350556,-50.192047,-62.88786,-73.613812,-14.37962,-10.232129,5.672517,17.471687,17.447567,36.389481,46.035921,53.354172,33.856195,52.564112,62.114258,69.727985,45.295533,63.024657,72.244994,79.340388,52.252705,68.25136,75.79684,81.459934,33.10168,52.454475,55.384414,46.401832,57.348049,59.182468,51.258213,46.388626,36.853283,39.708961,37.072632,35.035366,16.533016,22.238331,23.04364,23.477291,-2.056423,7.546337,11.183601,13.334644,2.512624,22.797634,48.940135,67.067252,12.906991,58.776382,72.332574,76.160222,11.799164,64.731802,77.954356,80.759504,14.857452,61.815972,72.081978,72.945521,20.415754,55.192425,61.852491,62.220277,38.490813,299.295395,-71.753339,95.424774
64,0.25621,0.417112,0.768951,-1.419512,-28.141914,-51.744667,-71.542934,-87.731163,-57.587437,-86.589867,-101.518421,-112.682876,-49.295151,-80.941131,-98.092804,-111.557556,-39.069878,-68.55463,-84.860824,-97.133823,-27.773346,-50.615913,-63.339867,-74.078854,-14.618508,-10.555257,5.457563,17.330377,17.498832,36.225509,45.798626,53.091955,34.03968,52.442501,61.867293,69.441364,45.512734,62.939984,72.000672,78.986237,52.471277,68.245407,75.717466,81.325009,32.900757,51.713539,54.143921,45.757851,56.11845,58.014095,50.185124,45.138176,35.827915,38.542523,35.335808,33.03582,15.59008,21.059258,21.447292,21.71188,-3.091976,6.037377,9.583408,11.739452,3.61624,24.762366,51.804631,69.897057,15.886689,60.840136,73.523078,76.445083,15.038114,66.97504,79.131263,81.082675,17.723807,64.236384,72.940031,72.664006,22.422019,57.083402,62.883371,62.482809,38.724666,299.607065,-71.006745,93.89982
65,0.199608,0.323572,-2.460766,1.29787,-28.332596,-52.044136,-71.958492,-88.185333,-58.067368,-87.088978,-101.969788,-113.101605,-49.725174,-81.346172,-98.438038,-111.835705,-39.464035,-68.973347,-85.253941,-97.463162,-28.12912,-51.048157,-63.80904,-74.546093,-14.798362,-10.759231,5.360554,17.323905,17.613737,36.125733,45.649215,52.975926,34.314124,52.450294,61.754216,69.282073,45.862599,63.037291,71.90922,78.744867,52.846559,68.427645,75.796939,81.312424,32.024254,51.369656,53.634888,45.122956,57.911019,61.024407,52.303494,47.172959,37.972481,41.458672,37.226773,34.704689,17.874001,23.2095,22.805661,23.171986,-0.954643,7.471653,9.943314,11.81242,2.808341,23.654378,50.775894,69.39284,13.396603,57.713627,71.127113,74.50118,12.574446,63.986987,77.024327,79.509608,15.758538,62.564714,72.375361,72.509137,21.346345,55.787236,61.835776,61.311329,38.902393,299.818381,-73.489392,95.085434
66,0.096565,0.046029,-0.923893,-1.245271,-28.44152,-52.267021,-72.284649,-88.617416,-58.466503,-87.497623,-102.343838,-113.482475,-50.062454,-81.691257,-98.78215,-112.170055,-39.743751,-69.290222,-85.597343,-97.831867,-28.366791,-51.347557,-64.116234,-74.872627,-14.789224,-10.633643,5.554795,17.576304,17.759184,36.284172,45.802343,53.181703,34.443355,52.603929,61.899897,69.430261,45.987434,63.229384,72.068992,78.878198,52.955671,68.579971,76.001296,81.599193,32.830765,52.41251,55.1525,46.536816,57.249825,60.824307,52.862652,47.244747,37.184899,41.623879,38.096203,35.371491,17.20768,23.884564,23.610478,23.235684,-1.227539,8.61002,11.676888,13.364891,2.837098,24.364495,52.037529,70.453675,14.657658,59.212346,72.425131,75.784045,14.353037,65.976511,78.232263,80.186034,17.717317,64.204015,71.84112,70.665442,23.165129,57.935385,62.456206,60.849164,39.011375,299.757226,-74.400868,93.732979
67,-0.026756,-0.01356,-0.193737,-1.916641,-28.648728,-52.554726,-72.615772,-89.057842,-58.871727,-87.975082,-102.763481,-113.835102,-50.339172,-82.029591,-99.092011,-112.425007,-39.877487,-69.505417,-85.826283,-98.053825,-28.387848,-51.45623,-64.295014,-75.085167,-14.798845,-10.493026,5.773317,17.922402,17.957551,36.606422,46.107118,53.476709,34.637745,52.858883,62.160348,69.680782,46.159309,63.48214,72.3433,79.179416,53.055299,68.751908,76.257967,81.937103,32.99104,52.18277,54.10112,44.916436,56.844212,60.61068,52.604622,46.877152,36.951599,41.514542,37.368382,34.447071,17.02454,23.635907,22.668938,21.94241,-1.435844,8.149166,10.91161,12.327427,3.575924,26.267736,55.331192,73.958747,17.124211,61.757421,74.032279,76.319514,17.136647,68.639517,78.84749,79.027949,20.329922,66.857943,71.357387,67.789498,25.236875,60.408409,63.190376,60.087739,39.043539,299.68919,-74.535685,91.761862
68,-0.18116,-0.036347,-1.222114,0.326981,-28.786835,-52.739273,-72.816971,-89.278221,-59.105953,-88.281956,-103.035736,-114.068585,-50.512047,-82.288021,-99.342442,-112.657986,-39.991928,-69.695881,-85.957512,-98.1194,-28.475807,-51.566025,-64.396042,-75.162952,-14.806785,-10.378688,5.954469,18.223597,18.098787,36.854721,46.350662,53.680918,34.82948,53.140602,62.438645,69.904826,46.382242,63.805355,72.665452,79.459591,53.262201,69.020115,76.525594,82.16458,32.784507,52.469822,54.050594,44.017193,57.451,61.265854,52.645706,47.550167,37.144363,41.476776,37.214767,34.774852,17.011253,22.988159,22.087131,22.096573,-1.643406,7.460849,9.671859,10.928226,2.446928,24.951625,53.953589,72.886574,14.503214,59.388416,72.337736,75.128015,14.515775,66.397643,77.190442,77.764881,18.18554,65.474796,70.861099,67.478584,24.058967,59.247649,62.022787,58.474979,38.946499,299.660861,-75.673679,92.096861
69,-0.097595,-0.186634,-1.641026,0.744883,-28.955658,-53.00734,-73.078411,-89.482533,-59.406761,-88.503708,-103.235047,-114.299092,-50.771691,-82.461685,-99.51582,-112.869828,-40.211151,-69.897183,-86.152073,-98.322968,-28.660881,-51.733177,-64.549588,-75.363545,-14.634243,-10.095056,6.240805,18.556715,18.353729,37.17297,46.670492,53.991979,35.069331,53.43026,62.696119,70.082938,46.624241,64.104325,72.929126,79.642433,53.497716,69.314776,76.819624,82.44542,32.640553,52.231075,54.089733,44.103687,57.787399,61.374458,53.161297,48.246391,37.543236,42.001259,38.384903,35.98209,17.611599,23.634762,23.123783,23.272579,-0.722236,8.643048,10.9651,12.181973,1.707887,23.479501,51.402531,70.036792,11.018472,56.333326,70.754073,75.199201,10.783407,63.452432,75.785781,77.685717,14.882282,62.740598,69.56124,67.157927,21.582813,56.975321,60.839674,58.125756,38.943775,299.510932,-77.219834,92.878449
70,-0.048821,-0.170295,2.019951,-2.480922,-29.095001,-53.24247,-73.305004,-89.599113,-59.576374,-88.65406,-103.364582,-114.431659,-50.89801,-82.617691,-99.716377,-113.130832,-40.298515,-70.019748,-86.310413,-98.511657,-28.719246,-51.8004,-64.653602,-75.533478,-14.467393,-9.839262,6.474814,18.835407,18.486332,37.420218,46.919445,54.218146,35.173244,53.611115,62.899068,70.258927,46.731452,64.281549,73.148858,79.840257,53.614832,69.504164,77.029526,82.625571,32.45834,50.620216,51.380585,41.208904,54.834709,57.238964,49.878433,44.987881,34.541107,38.437534,35.494732,33.023541,14.51651,20.624519,20.691067,20.585415,-3.687916,6.346081,9.83313,11.277191,3.039288,26.380882,55.282569,72.960255,12.635246,57.940208,71.851415,75.957138,12.177756,64.673621,75.172525,75.252122,16.107188,63.476985,68.568825,64.883597,22.467135,57.953633,61.261788,58.184592,39.008142,299.386607,-75.086695,90.443497
71,-0.006065,-0.066283,-0.200855,1.182607,-29.211685,-53.402985,-73.500527,-89.794235,-59.694626,-88.783676,-103.491955,-114.546227,-50.98645,-82.748097,-99.883793,-113.347984,-40.365257,-70.09227,-86.406944,-98.625034,-28.802216,-51.882225,-64.742764,-75.645916,-14.328467,-9.65832,6.606281,18.971011,18.390717,37.432309,46.969413,54.260223,35.063329,53.612053,62.930166,70.283565,46.663749,64.324848,73.227627,79.898512,53.599728,69.622651,77.173219,82.72862,30.567203,48.486362,49.05883,39.65142,54.204403,56.661884,49.479755,45.05674,34.081386,37.825859,34.947658,32.642921,13.850475,19.325878,19.94688,20.511989,-4.687477,4.575359,8.226436,9.926296,4.654678,26.304731,52.772205,69.085046,7.686068,50.892177,66.61577,72.108247,6.257077,55.914041,68.297098,69.89016,10.048478,55.449098,63.365859,61.429872,16.880643,50.781643,56.23029,54.752936,39.108513,299.365516,-75.181114,91.671296
72,0.164223,-0.036421,-0.660702,2.760639,-29.266709,-53.523079,-73.800602,-90.170815,-59.780388,-88.876271,-103.588372,-114.694233,-51.086403,-82.857251,-100.023446,-113.53703,-40.539437,-70.193997,-86.582417,-98.880227,-29.082665,-52.098587,-64.925881,-75.838852,-14.192578,-9.60561,6.520708,18.941556,18.1729,37.138662,46.637579,53.85456,34.863406,53.446575,62.656414,69.883423,46.553154,64.300457,73.162741,79.743593,53.602359,69.727516,77.304575,82.89195,29.318436,47.42831,48.729023,39.770554,53.101227,56.177559,49.69899,46.045303,33.072887,37.936672,36.386021,34.605354,13.025253,19.274174,21.090649,22.262112,-5.238956,4.75581,8.929333,10.65588,4.619116,23.473876,45.9289,60.014812,-0.504013,38.352761,55.362795,62.503477,-2.345941,43.232056,58.220493,62.475578,1.893051,44.351653,55.674832,56.326805,9.78904,41.268183,48.759379,48.942543,39.351019,299.326048,-75.763533,94.428888
73,0.364242,-0.107235,-0.787388,2.508203,-29.214157,-53.475036,-73.968773,-90.603756,-59.598118,-88.904972,-103.722404,-114.950649,-50.942573,-82.838653,-100.095989,-113.676544,-40.510506,-70.129829,-86.695942,-99.193806,-29.277969,-52.264252,-65.131805,-76.208553,-13.893855,-9.47034,6.399998,18.500127,17.903618,36.695182,46.106908,53.39274,34.540549,52.912347,61.931081,69.082384,46.322232,64.015602,72.737144,79.231039,53.518588,69.734555,77.296312,82.965235,28.112847,45.965183,48.326969,41.013336,49.975502,54.410477,51.743672,50.42339,30.912586,37.171189,37.664017,36.728554,11.910874,20.373242,23.919914,25.572293,-5.382328,6.562958,12.092297,14.431297,5.901314,21.862276,40.541189,52.215858,-5.9766,23.829953,37.986099,44.337463,-8.62045,27.361095,41.036378,45.80845,-4.611305,32.604242,45.030852,47.502091,3.841561,31.994568,40.693762,42.742258,39.788057,299.137635,-76.478125,96.855913
74,0.525719,-0.021131,-2.018051,4.319596,-29.009125,-53.202301,-73.998425,-90.77298,-59.002178,-88.674294,-103.662632,-115.161541,-50.419167,-82.809414,-100.282505,-114.010952,-40.164894,-70.112286,-87.024239,-99.880211,-29.270416,-52.636849,-65.843559,-77.283875,-13.906662,-9.965097,5.298704,17.059193,17.119832,35.535793,44.738544,51.926007,33.804163,51.737977,60.34391,67.143285,45.809716,63.239745,71.69802,77.965749,53.289765,69.404425,76.708905,82.218425,27.239033,45.723278,49.847065,44.594616,48.362846,54.730568,54.956165,56.708782,29.612503,36.908352,39.576347,41.260208,11.053333,21.879421,27.543182,30.920563,-5.584808,8.238133,14.90593,18.318054,5.036709,17.138641,32.719233,43.118386,-14.237027,6.208763,17.462886,22.428713,-17.68806,8.291487,19.610763,23.926679,-13.776233,19.753129,34.292856,38.913417,-3.936243,21.715576,31.621188,35.055795,40.406599,298.880396,-78.403353,100.939401
75,1.04528,0.279383,-4.780975,6.045044,-28.544288,-52.718925,-73.891811,-90.853157,-58.376896,-88.511844,-103.755947,-115.580097,-50.073028,-83.088627,-100.85313,-114.778301,-40.191559,-70.683941,-87.972164,-101.143158,-29.798835,-53.622551,-67.101677,-78.773391,-14.42786,-11.283467,3.158966,14.557141,15.7025,33.483951,42.346753,49.248819,32.554225,49.603859,57.609071,63.865265,44.832763,61.476586,69.459593,75.313149,52.604855,68.19103,75.074014,80.309807,27.520729,47.144291,54.720531,53.820808,47.782081,56.942093,60.819305,66.182842,29.530563,38.832412,44.64529,49.410976,11.949623,26.088466,34.105877,39.444957,-3.299755,13.000431,21.234192,26.172157,3.024621,9.574414,20.10665,29.172253,-23.919022,-13.333693,-4.463956,-0.010041,-27.570417,-11.608726,-0.367316,5.894774,-23.251216,6.856698,24.528745,32.117612,-11.66553,11.264763,22.85279,28.194275,41.572185,298.765264,-83.064022,106.58993
76,1.406067,-0.058144,-3.325562,4.011584,-27.933998,-52.163772,-73.774784,-90.85683,-57.564846,-88.337951,-103.965362,-116.222751,-49.610596,-83.460594,-101.609447,-115.733459,-40.12603,-71.42601,-89.234299,-102.799118,-30.22451,-54.718941,-68.607422,-80.619266,-15.122355,-12.857967,0.680885,11.668926,14.036634,31.109018,39.542123,46.042194,31.185712,47.144241,54.365026,59.848746,43.81146,59.433536,66.815946,72.047935,51.902728,66.736708,73.101385,77.956301,28.566204,48.660278,58.632454,62.027207,45.810562,57.623921,65.650475,74.11052,28.325215,39.825108,49.081616,56.605225,12.101944,29.828774,41.17543,49.205452,-1.316883,17.675743,27.917999,34.888115,0.413055,3.872517,11.810366,19.949737,-28.422695,-25.743765,-20.732336,-17.429269,-31.018627,-22.94749,-13.833543,-7.725939,-25.461553,1.616669,19.629018,28.569526,-12.201696,8.659162,20.304975,26.272596,43.151756,298.069276,-86.21608,109.96367
77,1.910774,-0.11908,-4.593292,4.747032,-27.31501,-51.708046,-73.737487,-90.889469,-56.922981,-88.357372,-104.381904,-117.056888,-49.446945,-84.05722,-102.636554,-117.071285,-40.406089,-72.449421,-90.716503,-104.686603,-30.984695,-56.059547,-70.366516,-82.760273,-16.084413,-14.762374,-2.152199,8.29339,12.178454,28.353554,36.266857,42.345765,29.608483,44.18531,50.594954,55.377893,42.545318,56.89026,63.614818,68.26103,50.920452,64.800327,70.573447,74.984403,27.425983,48.986847,61.936317,69.416313,44.536159,60.871754,72.4422,82.91581,28.199158,44.161297,56.534798,66.431969,13.759586,35.710064,50.029564,60.4132,2.527862,23.818302,35.528469,44.294277,-3.577331,-2.797089,5.28717,14.262049,-31.486683,-32.072206,-28.128263,-24.768683,-31.922832,-27.853974,-20.472546,-14.931663,-24.348687,-0.014072,17.464734,27.035146,-9.252706,9.065072,20.557478,27.24716,45.342075,297.133173,-90.529827,113.893679
78,2.016015,-0.497597,-3.564434,5.203189,-26.69172,-51.251313,-73.712723,-90.976307,-56.684075,-88.602883,-105.023232,-118.004517,-49.634652,-84.918595,-103.90614,-118.584698,-40.952775,-73.692902,-92.368104,-106.619294,-31.815354,-57.555382,-72.320607,-84.949551,-17.279408,-16.76804,-4.821447,5.498899,10.612476,25.794827,33.237641,38.880258,28.365707,41.725458,47.423082,51.582219,41.547234,54.811197,61.048211,65.288612,50.086241,63.080022,68.324917,72.321564,26.935821,49.690372,65.197872,75.750435,43.812939,63.283779,76.272777,88.084957,28.865444,48.208351,63.36343,76.080482,15.912403,39.984821,56.416752,69.104187,6.538273,28.460758,41.603565,52.099159,-8.707395,-10.578957,-3.616234,4.961763,-31.550484,-31.322032,-25.887174,-21.23207,-28.091596,-23.509728,-15.537293,-9.568974,-18.329659,2.941413,18.529298,27.479514,-2.718309,13.576223,23.732215,29.757894,47.674456,295.678003,-93.777895,118.139295
79,2.011001,-0.768051,-3.539686,10.44302,-26.294128,-51.012863,-73.719726,-91.29134,-56.786476,-89.049694,-105.794403,-118.993217,-50.13842,-85.741665,-104.991611,-119.882343,-41.801628,-74.827743,-93.688785,-108.064934,-32.906479,-58.777862,-73.669247,-86.348144,-18.150225,-18.163168,-6.552015,3.59401,9.543798,24.018872,31.102978,36.412279,27.526888,39.940586,45.206772,49.01555,40.828977,53.253234,59.204022,63.218194,49.399292,61.757822,66.762742,70.579696,26.454305,50.459312,67.842023,80.88137,45.231022,67.895055,81.838995,93.277662,32.280246,55.495708,71.824138,84.463663,20.937732,46.672153,63.822092,76.847013,12.67777,34.91407,48.685238,59.555448,-12.063484,-15.299443,-9.494376,-1.936138,-27.737097,-25.89941,-18.952925,-12.933241,-20.504799,-15.059166,-5.903377,0.856138,-8.829043,8.135394,21.056754,28.713373,6.548223,19.603841,27.843384,32.816842,50.096712,293.923742,-96.906326,127.596105
80,1.312637,-1.114027,-2.546986,16.196182,-26.042793,-50.713783,-73.491108,-91.275993,-57.027099,-89.306911,-106.223499,-119.531215,-50.664962,-86.123874,-105.504627,-120.569675,-42.519561,-75.346344,-94.226852,-108.6805,-33.630111,-59.401657,-74.378654,-87.17926,-18.447639,-18.685304,-7.132358,2.799541,9.312197,23.250512,30.147206,35.346578,27.389691,39.202286,44.29257,48.053738,40.693262,52.671014,58.531079,62.524033,49.235048,61.325124,66.306987,70.081827,25.90959,51.322197,69.709986,83.216423,49.140003,74.777807,88.387327,97.641146,38.113232,64.803337,80.855312,91.480768,27.855846,54.804016,71.688006,83.327711,19.570101,41.98645,55.501728,65.381704,-14.221488,-17.719689,-12.538844,-6.088829,-21.442828,-16.662481,-8.292185,-1.454618,-11.196739,-3.968551,5.503227,11.995758,1.586683,14.431917,24.437836,30.454562,16.004305,25.949104,31.963989,35.407013,51.987161,291.77229,-98.8755,142.754862
81,0.832398,-0.798692,-1.385033,18.176691,-25.993561,-50.393829,-73.143379,-91.234898,-57.20414,-89.553909,-106.547127,-119.894703,-51.142708,-86.415791,-105.858811,-121.093105,-43.209778,-75.673966,-94.504223,-108.968434,-34.404442,-59.957771,-74.947941,-87.720863,-18.406427,-18.69248,-7.410778,2.344058,9.583861,22.905747,29.504705,34.563373,27.586181,38.986555,43.96864,47.809416,40.746021,52.542561,58.391239,62.452662,49.099259,61.216221,66.272629,69.972084,27.146227,53.616932,73.109362,86.320267,50.188546,76.629633,90.250002,99.878626,39.335518,67.330834,84.124443,95.860949,29.106263,55.737282,72.662871,84.638518,20.454661,41.829976,55.209629,65.026217,-14.536421,-16.934217,-11.348791,-4.999515,-15.117857,-7.19744,3.045073,11.031377,-3.811816,6.333752,16.72671,23.96526,8.814161,20.435508,29.52707,35.18142,21.836347,30.565428,35.794552,38.562162,53.473549,289.991563,-99.606543,159.949518
82,0.49704,-0.512516,1.340344,25.495102,-25.837349,-49.297394,-70.647606,-87.289627,-57.808983,-89.341668,-106.473107,-119.950837,-52.269585,-86.562676,-106.196045,-121.669133,-44.625252,-76.103566,-94.882393,-109.502037,-35.791375,-60.506928,-75.334923,-88.194054,-18.056784,-18.878151,-9.519419,-1.654776,10.169033,22.992617,29.332606,34.189745,27.422073,39.065373,44.277972,48.279374,40.17541,52.281529,58.419409,62.682262,48.52913,61.007616,66.373331,70.264348,26.795465,52.532501,71.802618,84.443127,58.348755,78.992575,86.47891,90.869024,50.909191,71.539982,79.715057,83.901071,41.826462,61.485157,69.63925,74.090258,32.349237,49.810375,57.675339,62.084833,-14.061634,-15.92306,-10.856985,-4.414454,-5.641045,9.577109,20.3641,27.298178,7.411976,24.305635,34.545706,40.458994,20.134494,35.849202,44.670866,48.817356,31.947002,44.137861,50.362648,52.858334,54.642832,288.535423,-97.593956,184.500996
83,0.309814,-0.066296,-1.802857,27.620058,-24.377563,-47.442695,-69.037365,-86.084061,-56.814972,-88.012688,-105.980358,-120.223858,-52.829407,-87.144115,-107.282112,-123.270813,-46.623916,-77.997642,-96.856132,-111.656879,-39.136116,-63.730568,-77.892803,-89.889118,-8.222079,-5.279376,3.828921,11.26472,16.598449,27.584687,32.777576,36.711448,26.693802,35.626345,39.166632,41.329823,33.174446,42.146064,46.01821,48.407025,36.431879,45.972009,50.097912,52.996748,27.280352,52.826649,72.512782,85.551396,59.254578,83.030108,90.852339,93.660033,53.095505,77.295914,84.723256,86.085131,45.308693,67.935116,74.77299,76.093867,36.790507,56.426457,63.50021,65.187613,-13.625337,-14.417808,-8.258991,-1.090719,-0.69167,16.98483,26.893873,32.738722,13.841243,32.69922,41.64152,46.19368,27.178474,44.424815,51.987721,54.643964,38.727296,51.670596,57.479185,59.188159,55.663771,287.627413,-98.685688,211.27934
84,0.266853,-0.257005,-2.789709,22.934066,-24.775795,-47.818359,-68.982776,-85.52005,-55.717781,-87.720027,-106.45903,-121.28556,-52.560791,-87.314415,-108.444625,-125.236232,-47.249839,-78.872394,-98.644489,-114.251529,-40.524719,-64.88681,-79.409797,-91.889556,-7.568908,-5.241955,2.46888,8.931777,16.63566,25.570179,29.026448,31.240163,26.791935,34.201911,36.131636,36.682141,33.273876,41.414532,44.27759,45.381983,36.518613,46.424775,50.777796,53.461062,27.895043,53.536847,73.983158,87.927098,58.925995,84.538296,93.647553,97.389153,52.973729,79.81976,88.621937,90.812062,45.92997,70.767918,78.817532,80.789132,38.38012,59.200299,66.986103,69.308339,-13.369644,-13.112095,-5.74532,2.320383,3.490664,22.669947,31.677702,36.810174,19.141392,38.887211,46.659611,50.263427,32.595436,51.072703,57.964111,59.795567,43.324422,57.608219,63.344746,64.616718,56.696903,286.572436,-100.709118,233.415434
85,-0.101715,-0.982486,-1.733722,18.280345,-25.463127,-48.444168,-68.046444,-82.906253,-56.390739,-86.353798,-105.108936,-120.387268,-53.533722,-86.357254,-107.616886,-124.832245,-48.692459,-78.868068,-98.832435,-114.959678,-42.198715,-65.389869,-79.895816,-92.900436,-6.812577,-4.161669,2.627579,8.136259,18.273775,26.436858,28.781558,29.609878,27.55317,34.692061,35.607313,34.771608,33.687777,41.850971,43.916053,43.741053,37.258717,47.283217,51.605215,53.990954,27.801326,53.266502,74.541641,89.420334,56.244369,83.01313,94.208095,100.407131,50.442043,79.04734,90.392921,95.118347,44.268058,70.6413,80.960209,85.517772,38.157154,59.930706,68.889816,73.110992,-13.840602,-12.972514,-4.597565,4.362617,6.419276,25.801792,33.84424,38.631823,23.240904,43.179543,50.070593,53.295817,37.011282,56.404234,62.947431,64.593858,47.205287,63.02147,69.035244,70.383762,57.338808,284.973977,-101.69922,251.079806
86,-0.275825,-1.097861,-1.162194,16.248373,-26.509667,-49.463631,-67.164997,-80.135719,-56.92012,-84.1054,-101.601746,-115.627018,-54.238907,-83.988327,-103.781033,-119.417095,-49.725632,-77.494835,-95.910393,-110.419281,-43.294853,-64.459419,-78.151051,-90.317322,-5.42234,-1.986609,4.358048,9.069827,20.834911,29.354244,31.039537,30.652028,28.600988,36.179839,36.262028,33.977263,33.632066,42.219461,43.026885,41.082389,36.668605,46.659402,50.10158,51.566732,25.567635,50.644146,72.441971,88.361275,56.095482,85.593407,97.952855,104.440052,51.782559,83.734967,96.09692,100.425339,47.125019,76.452484,87.482243,91.786709,42.402466,66.480217,76.265808,81.123619,-15.943524,-15.568415,-6.39055,2.441463,9.40276,28.906863,35.557431,39.151095,28.669333,48.253452,53.241737,54.657352,43.178914,62.430531,67.011226,66.912142,52.824872,69.471647,74.593979,75.226242,57.879313,283.430423,-102.045084,266.882486
87,-0.797264,-0.63409,-2.063564,8.5242,-26.760544,-50.070763,-67.43684,-79.943756,-57.048294,-81.038899,-94.048039,-103.621239,-54.272118,-80.561337,-94.959481,-105.154267,-50.075798,-75.140568,-88.712712,-98.193363,-44.067765,-63.393448,-74.738503,-83.884712,-4.521106,-0.267873,6.948589,12.468952,21.875812,30.945775,32.571552,31.65031,29.148319,36.694688,36.777866,33.945832,33.825851,42.09654,42.300391,39.463861,36.641719,46.123235,48.86446,49.63361,26.519074,52.175251,75.042801,92.821163,49.539951,86.44289,105.711067,118.368256,42.94796,83.948227,105.642769,118.103714,37.734638,75.105068,95.214466,107.388634,33.778622,62.601917,78.527596,89.58886,-16.618617,-16.470082,-7.433515,-0.165219,8.933617,22.50658,27.223707,30.632502,28.250554,41.379705,45.491035,47.219577,42.112336,56.543642,60.006914,60.064243,50.887564,64.643802,67.996479,68.015918,57.960268,282.505723,-103.230429,275.116076
88,-1.44635,-0.098529,1.658981,4.867155,-27.660668,-50.609345,-65.838078,-75.920746,-57.138565,-77.091477,-84.656147,-89.129025,-53.278519,-74.341095,-82.373303,-86.57507,-48.233872,-68.642269,-76.396523,-80.46008,-41.364647,-56.968415,-65.344883,-71.750519,-12.96398,-12.369595,-6.411817,-2.191065,16.661002,27.026587,29.674087,29.434458,29.468989,39.794127,42.261995,41.702351,39.252699,50.365847,52.938171,51.792763,46.611743,58.554297,62.572162,64.124222,26.448304,52.326977,75.359276,93.845868,51.637322,87.742997,107.094338,120.846383,44.068932,84.080246,106.851975,121.656212,37.569146,74.127926,95.624852,110.412255,32.149704,60.471394,77.263722,91.141617,-16.125725,-15.652247,-6.572467,-0.185794,11.186285,24.030235,28.798206,32.378804,29.664528,41.641119,45.876555,47.766797,42.383186,56.301926,60.114496,60.306132,50.132838,64.15154,67.468229,67.479665,57.451962,282.207179,-100.633404,279.783216
89,-6.028759,1.204053,3.989468,3.304499,-24.271237,-44.881234,-58.194695,-66.823809,-55.494656,-67.710846,-68.209557,-67.069176,-52.653677,-65.093359,-64.693589,-61.69162,-48.289192,-60.989611,-60.41993,-57.59879,-41.955923,-52.377016,-55.153387,-56.414841,-12.707883,-11.801146,-5.833876,-1.671837,16.367379,28.824178,33.203573,34.463547,28.324661,40.436714,45.176348,46.390886,37.612201,49.37319,52.726503,52.47001,44.972485,56.215636,59.447152,60.515712,26.084221,51.632366,74.530907,93.159874,52.488007,88.66555,107.773899,121.374058,44.588276,84.110344,106.748692,121.720356,37.316837,73.561752,94.846058,109.852695,30.91349,59.505157,76.143242,90.341057,-16.186092,-16.006435,-7.290105,-1.923723,11.950965,24.972991,30.211081,34.10805,30.191975,42.386521,47.169658,49.408654,42.64507,56.640455,60.773163,61.146234,50.356029,64.460206,67.911436,68.03143,52.31297,283.377244,-95.754169,283.053727
90,-9.863411,2.975419,3.884502,1.835111,-18.341252,-35.144669,-47.239083,-55.679507,-50.271962,-55.133938,-47.677048,-40.487515,-50.326258,-53.705218,-44.181187,-33.514824,-48.086495,-52.180968,-42.38554,-32.189564,-43.764948,-48.324103,-44.289522,-39.358715,-13.060712,-13.259135,-7.755006,-2.994802,12.807468,26.733667,32.278848,34.609488,25.709296,38.560724,44.873178,47.247969,35.586219,47.29067,50.907175,51.291578,43.204275,54.179095,56.254347,56.421586,26.157887,51.549614,74.239415,92.757454,53.470002,89.465985,108.046326,121.223145,45.079743,84.115689,106.304261,121.238549,36.956509,72.892445,93.73565,108.388665,29.553418,58.204869,74.504002,88.46933,-16.216337,-16.511702,-8.03505,-3.377574,11.773507,25.844302,31.87807,36.223496,29.902625,43.116497,48.76645,51.508971,42.26775,56.670391,61.372006,62.038725,50.092392,64.248562,67.976287,68.296203,43.242131,286.381118,-91.077095,284.917293
91,-13.237839,7.136199,3.089264,1.09796,-10.704861,-22.71492,-32.537178,-39.223268,-41.643883,-38.048389,-24.546307,-13.079865,-44.33864,-38.541372,-21.963901,-5.890354,-43.885105,-39.738459,-23.730698,-8.786305,-41.188036,-41.269072,-33.38415,-24.945122,-15.000812,-18.097996,-15.011433,-11.533353,6.130605,19.669741,26.194061,29.923446,20.28924,32.570489,39.937258,43.718637,31.252217,41.847371,46.303348,48.078938,39.856686,49.692347,51.473383,51.394287,26.295204,51.514687,74.062535,92.532555,54.368363,89.668351,107.939988,120.731873,45.741028,84.119431,105.991265,120.716378,37.003052,72.522961,93.062325,107.40493,28.908383,57.588044,73.718422,87.292809,-16.365378,-16.774882,-8.64223,-4.540298,12.096881,27.149519,33.767064,38.370829,30.066856,44.14285,50.476355,53.547648,42.336008,57.048958,62.113282,62.996066,50.144558,63.994928,67.71402,68.071345,30.663569,293.572892,-87.328554,286.070828
92,-5.988808,2.032663,2.123761,0.831173,-6.753971,-16.781204,-26.595314,-34.742757,-40.350437,-31.567726,-14.256271,-1.201652,-45.666017,-33.329241,-12.788143,5.568501,-46.703991,-36.425119,-16.195724,1.166165,-45.145357,-41.668642,-29.855856,-18.507225,-13.060441,-16.149129,-12.879142,-8.455663,4.731341,19.402164,26.464441,30.74611,19.064309,31.852653,39.886832,44.237908,29.989964,40.832626,45.564777,47.786414,38.569918,48.63455,50.07439,49.817256,26.556415,51.601547,74.040699,92.374752,55.084568,89.651493,107.669162,120.240062,46.323165,84.08369,105.627742,120.168926,37.144237,72.251369,92.441585,106.361629,28.548912,57.018573,73.038288,86.278324,-16.279261,-16.889812,-9.052314,-4.815236,12.393678,28.101847,35.097822,39.917109,30.270854,44.9893,51.615638,54.827301,42.543922,57.475431,62.64783,63.634923,50.356831,63.916431,67.456002,67.664508,25.195541,295.66628,-84.684013,286.962726
93,-10.204513,5.425329,0.91658,0.490286,-1.095028,-7.359581,-15.670738,-23.275858,-34.834626,-20.067021,-0.119133,13.928878,-42.596609,-23.631151,-0.620075,19.014507,-45.188839,-29.583098,-7.502426,10.786228,-44.826113,-38.823584,-26.268076,-14.492478,-14.520739,-19.418578,-17.337916,-13.307492,0.040422,15.461426,22.821946,27.481243,15.766788,28.36851,36.054701,40.135458,27.705175,38.045534,42.33896,44.577888,37.153179,46.615794,46.969136,45.883137,26.863334,51.865574,74.274627,92.572963,55.570301,89.381115,107.134495,119.519863,46.754665,83.94215,105.161739,119.469829,37.334209,72.101967,92.059582,105.652942,28.456913,56.73294,72.755321,85.727566,-16.0063,-16.605798,-8.976843,-4.576422,12.890052,29.213057,36.410093,41.24284,30.677061,46.02578,52.775384,55.939451,42.934024,58.261056,63.366815,64.277609,50.658062,64.135793,67.489754,67.534338,15.444529,301.164037,-83.313932,287.52544
94,-0.052792,1.159531,-0.1054,0.353064,-0.62796,-7.295723,-16.585785,-25.544128,-37.234142,-21.123756,0.419747,15.350807,-46.175136,-25.522144,-0.865631,19.861244,-49.400207,-32.507377,-8.837219,10.610825,-49.513126,-43.4477,-29.61034,-16.648762,-13.195137,-17.877201,-15.523634,-10.648451,-0.817378,15.744774,23.580555,28.36473,14.918245,28.022732,35.964452,39.986998,26.994798,37.826091,42.122241,44.231437,36.624601,46.468025,46.355824,44.915249,27.03725,52.2327,74.599262,92.724003,55.906459,89.050106,106.613765,118.936695,47.154682,83.91251,104.966182,119.149326,37.68964,72.201244,92.054454,105.475376,28.740463,56.884872,72.916649,85.699939,-15.779861,-16.118772,-8.335355,-3.594763,13.449832,29.974502,37.14207,41.878018,31.16789,46.893164,53.693539,56.822618,43.371896,58.914586,63.879171,64.63428,50.970025,64.290256,67.46971,67.40344,15.829565,302.374354,-82.981504,287.92929
95,0.209107,2.646561,-0.527802,0.199565,-0.039803,-6.910012,-16.472283,-25.198357,-37.959149,-21.220219,-0.054314,14.913665,-46.498398,-25.376336,-0.948418,19.700454,-48.985909,-32.172284,-9.385735,9.712646,-48.19281,-43.11438,-31.520371,-19.896264,-13.758289,-19.250308,-17.669844,-13.91243,-2.112852,14.313362,22.194518,27.288976,13.463664,26.258634,33.926454,38.21775,25.294389,35.61518,40.011043,42.501376,34.706621,43.941161,44.091263,43.094315,27.045548,52.466469,74.859306,92.936772,55.865284,88.880573,106.333431,118.641529,47.107819,83.905163,104.84689,118.881603,37.691963,72.350304,92.161892,105.484486,28.884865,57.144814,73.298607,86.048161,-15.639354,-15.657719,-7.580666,-2.433732,13.992483,30.732303,37.815421,42.388632,31.734179,47.691943,54.373473,57.322981,43.892514,59.624802,64.335889,64.800722,51.351037,64.603059,67.597805,67.346864,16.472208,305.047866,-83.07577,288.155806
96,6.866592,-3.747658,-0.918457,0.299452,-2.642578,-12.129364,-24.348495,-35.697178,-45.406322,-30.855228,-8.989426,6.283813,-54.282795,-34.738861,-9.751534,11.444664,-56.911617,-41.463867,-17.444115,2.534386,-56.106377,-52.148289,-39.031872,-26.037884,-11.767986,-15.486287,-11.992424,-6.284598,-0.001741,18.10306,26.178408,30.994755,15.582902,29.46311,37.737517,42.060367,27.457865,38.676791,43.235342,45.620501,36.940888,47.146687,47.40405,46.738727,27.100617,52.765263,75.215572,93.297604,56.049282,89.187184,106.553616,118.84972,47.199818,84.142834,104.976048,119.018063,37.727211,72.484245,92.221905,105.451801,28.919449,57.172726,73.349281,86.08231,-15.52272,-15.605663,-7.397094,-1.87762,14.073796,30.69035,37.590551,42.026281,31.843379,47.771885,54.280848,57.221674,43.964095,59.688986,64.283192,64.671466,51.340219,64.606208,67.560373,67.253856,23.782213,301.312324,-83.550814,288.467374
97,-4.193138,4.086989,-1.03157,-0.207222,-1.038574,-9.05262,-19.893837,-29.320633,-41.290146,-26.137047,-5.003265,10.001999,-49.687019,-29.680218,-5.353546,15.395187,-52.022507,-37.150784,-14.320175,4.864174,-50.998787,-49.777851,-41.454529,-32.636501,-14.672948,-20.647597,-19.067416,-15.633266,-2.884918,13.750063,21.50731,26.416888,13.319563,25.869853,33.213768,37.497591,25.548393,35.545747,39.517904,42.132034,35.380256,44.059314,44.330978,43.920733,27.035122,52.977012,75.501377,93.739986,55.975364,89.291141,106.763157,119.174846,47.041969,84.162449,105.108616,119.23534,37.60651,72.510372,92.365596,105.639621,28.918579,57.240966,73.516102,86.294826,-15.53754,-15.223069,-6.769957,-1.147273,14.370927,31.069399,37.751868,41.926109,32.162851,48.300716,54.616214,57.386017,44.142097,60.180025,64.658758,64.847356,51.318359,64.889544,67.889181,67.53545,20.157063,305.419267,-84.014396,288.280106
98,5.652466,-3.507844,-0.899231,-0.342875,-4.936089,-15.872223,-28.932209,-40.47908,-48.549397,-35.299759,-13.429116,2.257667,-56.496929,-38.230145,-13.282448,8.154419,-58.343468,-44.502938,-20.386254,-0.133942,-56.819138,-56.328278,-46.153084,-35.686261,-10.225707,-13.818976,-10.540103,-5.227703,0.37937,17.908731,25.840337,30.432789,15.146993,28.663825,36.622231,40.70749,26.399289,37.576126,41.986155,44.200859,35.507673,45.3734,46.161002,46.010813,27.164646,53.307415,75.79121,94.139019,55.816292,89.367679,106.906711,119.38615,46.710193,84.115345,105.135074,119.364269,37.239853,72.412994,92.362667,105.723026,28.648407,57.036243,73.422363,86.319477,-15.423351,-14.703848,-5.930201,-0.344654,14.606269,31.470307,37.941244,41.883921,32.468811,48.886208,54.98274,57.54101,44.380935,60.758268,65.112561,65.116414,51.41406,65.299739,68.32052,67.895751,26.427532,301.927645,-84.295624,287.953453
99,-3.365822,2.942444,-0.594361,-0.27411,-3.541443,-13.05146,-24.984844,-35.100495,-45.354172,-31.249466,-9.746269,5.827766,-52.465862,-33.710404,-9.242088,11.795883,-53.586708,-39.690663,-16.592377,2.817055,-51.22435,-50.742817,-42.857826,-34.385456,-12.260149,-17.455643,-15.574429,-12.456886,-1.596742,14.54589,21.942997,26.376084,13.538877,25.757518,33.053539,36.985817,24.922603,34.637573,39.08916,41.827914,34.082585,42.66152,43.908977,44.378391,27.308579,53.587441,76.101517,94.610768,55.593533,89.323758,106.886044,119.436871,46.300541,83.917981,104.958081,119.282193,36.793145,72.130371,92.119366,105.580845,28.282872,56.673317,73.071877,85.999478,-15.322118,-14.413571,-5.490279,0.068382,14.882788,31.896533,38.217169,42.010164,32.817367,49.474776,55.425058,57.850305,44.665444,61.34213,65.599426,65.482162,51.546502,65.695781,68.705916,68.244036,23.704188,304.883554,-84.247507,287.692808
100,3.661766,-2.604237,-0.50156,-0.345716,-7.118591,-18.736794,-31.963612,-43.556946,-49.342632,-37.287117,-15.570969,0.179741,-55.869324,-39.210102,-14.853928,6.244125,-56.688778,-44.483242,-21.091896,-1.365486,-54.199585,-54.908787,-45.930576,-36.507088,-7.766448,-10.410366,-7.039905,-2.42936,1.784735,18.34485,25.657198,29.674976,15.112129,27.935034,35.556443,39.173622,25.175026,35.780758,40.567094,42.979522,33.382384,42.772251,44.417541,45.064623,27.562729,54.018299,76.564293,95.161217,55.323567,89.236473,106.921555,119.604675,45.76482,83.697807,104.885216,119.372681,36.196633,71.772961,91.950508,105.614525,27.78114,56.234551,72.737332,85.725861,-15.193491,-13.985937,-5.006736,0.342962,15.184216,32.389474,38.601788,42.309369,33.169197,50.093441,55.938105,58.288079,44.956115,62.028474,66.219759,66.052119,51.678413,66.119266,69.137873,68.677919,28.043163,302.292581,-84.071858,287.360356
101,-3.470993,3.521453,-0.168022,-0.267812,-5.840744,-16.176338,-28.022404,-38.086041,-45.407799,-32.747109,-11.710556,3.774147,-50.953892,-34.230137,-10.670975,9.782455,-51.124569,-39.250145,-17.200653,1.494392,-48.117954,-49.062309,-42.927807,-36.097298,-9.579662,-13.79724,-11.778335,-9.417209,-0.064097,14.306904,21.084987,24.989244,13.3197,24.293625,31.090061,34.502413,23.385412,32.247103,36.864836,39.677481,31.49134,39.463911,41.315114,42.244075,27.694096,54.271397,76.855408,95.538597,55.002892,89.151535,106.951447,119.718704,45.265686,83.546196,104.836281,119.377258,35.694809,71.61985,91.903679,105.651787,27.408268,55.976681,72.552692,85.581573,-15.098556,-13.7223,-4.712421,0.563831,15.378484,32.787543,38.9283,42.555754,33.399094,50.600635,56.353612,58.593694,45.179603,62.594343,66.677144,66.352646,51.839224,66.535563,69.529915,68.990302,25.25627,305.844606,-83.55578,287.123116
102,4.52243,-3.433063,-0.031849,-0.049425,-8.148033,-20.349083,-33.850433,-45.684322,-49.729316,-38.553039,-17.316284,-1.716339,-55.48249,-40.336921,-16.718742,3.756821,-55.909137,-44.629097,-22.04441,-3.009567,-53.13731,-52.888756,-42.992511,-32.583618,-6.382683,-8.098406,-4.007565,0.538352,2.084508,17.73205,24.75343,28.418725,14.62204,26.965935,34.513589,37.726253,24.270233,34.424978,39.648865,42.06091,32.121514,41.551704,43.663815,44.454233,27.79628,54.443539,77.03952,95.659184,54.912483,89.038639,106.823307,119.63348,45.065964,83.467655,104.723614,119.290981,35.447514,71.538323,91.842098,105.68755,27.147331,55.744343,72.335186,85.363987,-15.039597,-13.637887,-4.637258,0.664546,15.55073,33.075238,39.16573,42.758505,33.59509,50.850291,56.502455,58.686616,45.404535,62.894512,66.874499,66.484569,52.064169,66.767794,69.65034,69.001924,30.420164,302.456757,-82.946165,287.118905
103,-3.839653,2.783177,-0.02615,0.066407,-5.24002,-15.265846,-27.392521,-37.716842,-45.781082,-33.239364,-12.320892,3.014672,-51.751762,-35.082939,-11.707145,8.494446,-52.235149,-40.251686,-18.375938,0.116753,-49.403022,-49.930389,-43.221004,-35.45153,-10.002838,-13.881678,-11.140009,-8.129083,-0.082066,14.573048,21.027386,24.649344,13.481881,24.539886,31.212734,34.602646,23.82799,32.622409,37.246577,40.09663,32.104966,40.664709,42.931381,44.30087,27.744164,54.350315,76.957501,95.544869,54.859257,89.01796,106.843346,119.706574,45.016869,83.566429,104.834496,119.411362,35.427487,71.63625,91.922814,105.767784,27.155045,55.774956,72.324246,85.289177,-15.122837,-13.761228,-4.827005,0.489668,15.590163,33.058799,39.137744,42.707264,33.629447,50.76736,56.412039,58.621111,45.466124,62.907207,66.867199,66.476554,52.152101,66.864371,69.681178,68.949201,27.179558,305.301802,-82.373268,287.24718
104,2.734383,-2.764319,-0.074535,0.097158,-6.955216,-18.283882,-31.491737,-43.170387,-48.777008,-36.834,-15.665199,-0.331856,-55.21938,-38.638115,-15.3181,4.959663,-56.129986,-44.164066,-21.889916,-2.945343,-53.802406,-55.655365,-48.663254,-40.199307,-6.318808,-8.088204,-3.810222,1.19308,3.021287,18.886179,25.287412,28.670087,15.320241,27.692108,34.497535,37.699393,24.637192,34.897072,39.302174,41.535143,32.185031,41.949698,44.371364,45.822906,27.718174,54.285816,76.86787,95.432819,54.947205,89.080204,106.901539,119.71281,45.147263,83.756458,105.02013,119.574886,35.579464,71.864513,92.110279,105.886196,27.299377,55.950645,72.472115,85.377125,-15.19653,-13.792794,-4.817607,0.525002,15.510567,32.995011,39.076562,42.615231,33.550876,50.564226,56.160616,58.338541,45.449588,62.788819,66.724358,66.309222,52.213863,66.868298,69.627801,68.806829,30.459429,302.60338,-81.902315,287.410235
105,-3.714203,3.074541,-0.112129,0.049931,-4.064758,-13.378052,-25.066727,-35.083328,-45.169739,-31.50816,-10.506844,4.719269,-52.122425,-33.757896,-10.341454,9.758354,-53.279983,-40.005741,-18.117256,0.383148,-51.046692,-51.703148,-45.460384,-37.734032,-10.402845,-14.584607,-11.770456,-8.06674,-0.063035,14.673009,20.783954,24.357969,13.681532,24.824827,31.007722,34.372441,24.189649,33.284818,37.06261,39.334852,32.590101,41.460659,43.312295,44.477883,27.615989,54.082546,76.629833,95.189266,55.284794,89.255115,106.984897,119.679348,45.596351,84.002117,105.171718,119.645382,35.997722,72.114349,92.210415,105.823139,27.57922,56.126426,72.543445,85.346065,-15.28193,-13.847283,-4.782816,0.587839,15.544308,32.923455,39.053678,42.577058,33.528226,50.294957,55.923915,58.105631,45.430099,62.515302,66.511715,66.112906,52.26687,66.830643,69.565767,68.658628,27.234037,305.749656,-81.525633,287.531901
106,2.286232,-3.512722,-0.284352,0.019662,-5.712891,-16.276222,-29.104591,-40.617359,-48.454857,-35.894623,-14.254051,1.335869,-55.892635,-38.203869,-14.15332,6.491547,-57.478752,-44.298111,-21.261383,-1.822563,-55.71389,-56.187092,-47.219009,-36.862816,-6.839117,-8.70803,-4.136524,1.993242,2.300944,19.098254,25.848785,29.564406,15.094493,28.273242,35.433733,38.89309,24.931618,36.135971,40.446459,42.3903,33.04866,43.666471,45.914396,47.084554,27.649773,54.082787,76.607357,95.153275,55.491017,89.378678,107.07914,119.754937,45.855721,84.152321,105.324692,119.829209,36.231434,72.247502,92.300583,105.865151,27.736714,56.19793,72.551709,85.293801,-15.308656,-13.756609,-4.59759,0.710413,15.613974,32.897495,38.991457,42.457767,33.585839,50.097849,55.718248,57.9135,45.485835,62.341388,66.368922,66.031988,52.342983,66.832026,69.539732,68.623146,29.99782,302.295097,-81.332434,287.609726
107,-5.573685,4.070884,-0.421096,0.170505,-3.15699,-11.527153,-22.597126,-32.226894,-43.25711,-29.39043,-8.125969,7.230629,-50.397846,-31.522613,-7.841217,12.505738,-51.720794,-37.962513,-15.662613,3.2333,-49.766636,-50.697223,-45.021114,-37.949489,-10.090561,-14.355254,-11.927808,-8.165665,-0.372145,14.751161,21.211353,24.986501,13.192741,24.790963,31.245795,34.691406,23.485448,33.078325,37.044381,39.383264,31.793743,41.034026,43.271725,44.514378,27.746109,54.133621,76.723583,95.331253,55.496086,89.571601,107.296257,119.978393,45.939651,84.362136,105.564079,120.100891,36.415203,72.489875,92.526626,106.088905,27.997718,56.512367,72.843692,85.580749,-15.297035,-13.861165,-4.74053,0.576144,15.489831,32.575059,38.584004,42.001457,33.499327,49.745984,55.310535,57.501539,45.443141,62.05394,66.089132,65.793088,52.335302,66.756382,69.444921,68.497027,24.874483,306.42323,-81.303182,287.83748
108,-0.47763,-2.197784,-0.422425,0.184757,-3.791336,-12.521279,-23.473915,-33.193257,-42.633293,-29.432717,-8.095986,6.999435,-50.010281,-31.965191,-8.342011,11.79142,-52.060456,-38.394631,-15.609215,3.315582,-50.976563,-50.681523,-41.860371,-32.318127,-8.921563,-11.826488,-8.332143,-3.286702,0.456385,16.429945,23.299666,26.965862,14.018764,26.826541,33.872263,37.013,24.368504,35.129427,39.320835,41.204877,32.86683,42.980671,44.796491,45.258903,27.825268,54.251667,76.930973,95.575585,55.422879,89.65123,107.42878,120.140625,45.910057,84.446984,105.730225,120.324921,36.468567,72.608082,92.672356,106.224472,28.157238,56.712513,73.039467,85.743439,-15.244312,-13.899388,-4.852804,0.504056,15.4626,32.489152,38.454254,41.84797,33.477393,49.573046,55.060447,57.214931,45.425764,61.887807,65.859247,65.533539,52.301685,66.667709,69.314306,68.317111,24.81851,304.292133,-81.30395,288.088924
109,-5.10656,-0.195674,-0.281936,0.235244,-1.965523,-9.252457,-18.848236,-27.561218,-38.512161,-23.800243,-2.640427,11.667801,-46.015366,-26.476673,-2.982719,16.603958,-48.503723,-33.213902,-10.269928,8.253021,-47.89056,-45.07505,-34.582409,-24.291527,-9.785279,-12.57173,-9.063973,-4.07186,0.800223,16.699954,23.34625,26.933492,14.52156,27.271143,34.162044,37.109614,24.777167,35.396904,39.407594,41.245557,33.028307,43.173652,44.502287,44.416935,27.737537,54.205124,77.012615,95.682838,55.408058,89.735183,107.555465,120.286308,45.876194,84.483009,105.766571,120.298599,36.414631,72.576267,92.616851,106.138252,28.10836,56.66748,72.960273,85.600158,-15.250696,-13.998423,-4.965869,0.448518,15.456215,32.517125,38.486093,41.933446,33.488817,49.48026,54.932179,57.069373,45.437028,61.761046,65.686976,65.343051,52.265561,66.55436,69.174257,68.160476,20.094229,304.162621,-81.203607,288.39033
110,-2.101387,-3.202426,-0.237191,0.198664,-1.949089,-9.162323,-18.773106,-28.184532,-37.27628,-22.323464,-0.976433,12.890762,-45.048866,-24.916477,-1.39531,18.143326,-48.180611,-31.930824,-8.229744,10.600433,-48.265835,-44.859821,-33.036541,-21.843281,-6.86057,-7.529055,-2.673595,3.29904,3.745051,21.027892,27.782115,31.080131,16.460029,30.704639,37.936069,40.499032,25.592162,37.415266,41.708871,43.466893,32.970422,43.926687,45.630973,45.715485,27.743454,54.275002,77.132115,95.720375,55.19878,89.636719,107.479386,120.244744,45.575112,84.323914,105.60965,120.102379,36.080063,72.341481,92.39486,105.900925,27.80262,56.346486,72.636807,85.225594,-15.172484,-14.017615,-5.052999,0.487581,15.497982,32.671093,38.6059,42.073001,33.562275,49.6231,55.001759,57.114463,45.497148,61.826278,65.672082,65.269728,52.246949,66.518853,69.097834,68.023414,18.342854,301.011408,-81.090786,288.640207
111,-1.809219,-0.200602,-0.283126,0.19581,-1.413598,-8.210564,-17.562928,-26.772709,-36.275895,-20.407242,0.924041,14.536102,-44.108002,-22.775895,0.703697,20.083145,-47.281128,-30.015198,-6.269234,12.346733,-47.41634,-43.418209,-31.51141,-20.522393,-7.10441,-7.78548,-2.981471,2.81031,4.83975,21.9138,28.159805,31.204273,17.515973,31.47458,38.265211,40.616234,26.328202,37.910171,41.681219,43.200995,33.265897,44.066032,45.376734,45.229867,27.657726,54.202011,77.101924,95.675331,55.047741,89.571258,107.430519,120.25708,45.431968,84.265525,105.53627,120.035019,35.98946,72.215572,92.242904,105.779296,27.751762,56.194027,72.394146,84.904129,-15.137668,-14.098347,-5.153714,0.507737,15.418337,32.576208,38.52323,42.062269,33.525164,49.580481,54.964326,57.13221,45.459987,61.72407,65.536256,65.125468,52.160771,66.384287,68.946225,67.832248,16.828846,300.860809,-81.078701,288.88602
112,-2.978211,0.368909,-0.165928,0.139729,-0.826172,-6.938393,-15.337795,-23.879974,-33.71624,-16.681663,4.386521,17.706551,-41.547077,-19.490604,3.873711,23.350159,-44.877113,-26.744728,-3.191322,15.521645,-45.182442,-40.073959,-27.436409,-15.522079,-7.347262,-8.315039,-3.666246,1.708918,4.269991,20.978998,27.133316,30.222825,17.027108,31.048502,37.782953,40.066001,26.0421,37.753979,41.497191,42.762407,33.146756,44.058338,45.003787,44.22772,27.53833,54.072063,76.959217,95.552936,54.889332,89.439388,107.306453,120.141369,45.243416,84.145672,105.408748,119.834736,35.803013,72.049381,92.068325,105.559971,27.607223,56.018795,72.173481,84.580524,-15.152526,-14.086887,-5.031868,0.703708,15.41394,32.638736,38.627723,42.275308,33.602586,49.722469,55.107463,57.330812,45.552822,61.797861,65.542209,65.136298,52.186928,66.298738,68.823774,67.733237,14.071855,301.263557,-81.023409,289.059588
113,1.649712,-0.627273,-0.036667,0.126342,-2.304291,-9.491043,-18.72258,-28.266312,-36.3597,-19.63353,1.781387,15.480308,-43.893162,-22.04995,1.700042,21.632652,-46.787831,-28.87571,-5.025856,14.135444,-46.652539,-41.975968,-29.384697,-17.290947,-5.026336,-5.053259,-0.017253,5.537851,6.135978,23.037263,29.097967,32.14619,17.747377,31.816196,38.71883,41.093726,25.688443,37.567073,41.596609,42.969703,31.909587,42.830184,44.236179,43.947484,27.387016,53.84293,76.708351,95.264774,54.710964,89.246647,107.044544,119.868839,45.044494,83.987949,105.169132,119.514141,35.619461,71.866871,91.830448,105.327404,27.435104,55.859379,71.946544,84.265331,-15.17057,-14.165496,-4.994238,0.856552,15.4069,32.651728,38.640826,42.372651,33.708697,49.854466,55.233014,57.50102,45.692785,61.865477,65.585075,65.200098,52.276379,66.217226,68.709436,67.63446,15.910715,300.644669,-80.870928,289.194315
114,-1.139923,4.124544,-0.146988,0.047263,-1.495285,-8.255242,-17.388737,-26.547615,-35.063095,-18.267826,2.810485,16.876487,-42.188839,-20.536171,3.247215,23.368194,-44.415253,-26.729863,-3.619286,15.282577,-43.710629,-39.30177,-28.181443,-17.175373,-8.064159,-10.547587,-7.32203,-4.261358,2.311627,17.845252,23.897793,27.141641,14.971067,27.631272,34.247495,36.865466,24.017156,34.56162,38.615954,40.267234,31.180365,40.887147,42.069284,41.471058,27.269886,53.69157,76.454098,94.8773,54.449638,89.045254,106.814815,119.667835,44.800152,83.888191,105.050159,119.418285,35.466877,71.80172,91.777691,105.316395,27.399055,55.875412,71.942001,84.211224,-15.166296,-14.199606,-4.976935,1.012966,15.522868,32.524757,38.407979,42.099221,33.919205,49.894901,55.159099,57.433466,45.900119,61.897971,65.559277,65.189305,52.399659,66.15807,68.596409,67.515134,14.955729,304.763937,-80.832979,289.236302
115,4.659965,0.491657,-0.160709,0.142533,-3.780487,-12.272713,-22.835804,-32.921333,-39.07053,-24.154758,-2.952576,11.74189,-46.004825,-26.538483,-2.559082,18.053948,-47.89809,-32.29105,-9.220184,10.152397,-47.044693,-44.419567,-33.572021,-22.433338,-8.346185,-11.390888,-8.452199,-5.130385,1.541278,16.669326,23.010698,26.5704,14.646753,26.757726,33.717553,36.771667,24.304938,34.511083,38.810196,40.573108,32.024307,41.698275,42.806226,42.111632,27.041141,53.399299,76.18317,94.709816,54.258682,88.96186,106.75447,119.705566,44.72367,83.951339,105.104141,119.519943,35.551574,71.935798,91.891822,105.511459,27.619686,56.129837,72.132568,84.382392,-15.26984,-14.405779,-5.122876,0.945139,15.460883,32.174632,37.956446,41.64801,33.951772,49.707476,54.902921,57.205754,45.951087,61.770431,65.376742,65.031223,52.403462,65.985168,68.378096,67.334551,19.784168,305.255545,-80.825214,289.378786
