takenoko1/special-research/HandMotion_SimilarSearch_自分用/NewProject/handData/key/d4_feature_d3/54.csv
,vel_0x_L,vel_0y_L,vel_0x_R,vel_0y_R,posFromWrist_1x_L,posFromWrist_2x_L,posFromWrist_3x_L,posFromWrist_4x_L,posFromWrist_5x_L,posFromWrist_6x_L,posFromWrist_7x_L,posFromWrist_8x_L,posFromWrist_9x_L,posFromWrist_10x_L,posFromWrist_11x_L,posFromWrist_12x_L,posFromWrist_13x_L,posFromWrist_14x_L,posFromWrist_15x_L,posFromWrist_16x_L,posFromWrist_17x_L,posFromWrist_18x_L,posFromWrist_19x_L,posFromWrist_20x_L,posFromWrist_1y_L,posFromWrist_2y_L,posFromWrist_3y_L,posFromWrist_4y_L,posFromWrist_5y_L,posFromWrist_6y_L,posFromWrist_7y_L,posFromWrist_8y_L,posFromWrist_9y_L,posFromWrist_10y_L,posFromWrist_11y_L,posFromWrist_12y_L,posFromWrist_13y_L,posFromWrist_14y_L,posFromWrist_15y_L,posFromWrist_16y_L,posFromWrist_17y_L,posFromWrist_18y_L,posFromWrist_19y_L,posFromWrist_20y_L,posFromWrist_1x_R,posFromWrist_2x_R,posFromWrist_3x_R,posFromWrist_4x_R,posFromWrist_5x_R,posFromWrist_6x_R,posFromWrist_7x_R,posFromWrist_8x_R,posFromWrist_9x_R,posFromWrist_10x_R,posFromWrist_11x_R,posFromWrist_12x_R,posFromWrist_13x_R,posFromWrist_14x_R,posFromWrist_15x_R,posFromWrist_16x_R,posFromWrist_17x_R,posFromWrist_18x_R,posFromWrist_19x_R,posFromWrist_20x_R,posFromWrist_1y_R,posFromWrist_2y_R,posFromWrist_3y_R,posFromWrist_4y_R,posFromWrist_5y_R,posFromWrist_6y_R,posFromWrist_7y_R,posFromWrist_8y_R,posFromWrist_9y_R,posFromWrist_10y_R,posFromWrist_11y_R,posFromWrist_12y_R,posFromWrist_13y_R,posFromWrist_14y_R,posFromWrist_15y_R,posFromWrist_16y_R,posFromWrist_17y_R,posFromWrist_18y_R,posFromWrist_19y_R,posFromWrist_20y_R,posFromBody_0x_L,posFromBody_0y_L,posFromBody_0x_R,posFromBody_0y_R
6,2.577931,0.173704,0.414883,0.35304,15.045776,29.590393,38.36348,40.542732,16.186993,42.685455,59.479889,66.3498,7.661533,37.244385,54.297249,65.91259,-2.822674,21.443642,38.28511,48.040512,-12.324978,-13.509327,-16.731445,-20.141155,-22.558549,-30.635515,-33.01881,-33.928158,-5.407619,17.136728,21.466395,20.898513,16.419879,37.811432,38.974329,35.686934,31.456858,49.504206,48.614729,45.49963,42.980189,55.592896,58.128713,58.513369,25.981876,50.999222,73.750225,93.634151,52.253666,85.043323,102.196071,114.462078,43.399246,80.093479,99.482883,112.221004,34.404258,69.426578,87.249447,98.955196,26.326847,53.610672,68.099498,78.341686,-14.688015,-15.759026,-8.647046,-2.568373,12.974576,28.156076,33.814822,37.38118,31.004165,44.381318,49.022417,51.140147,43.434301,57.274668,60.364621,60.186508,50.949721,63.752632,64.536677,62.255407,-28.245792,296.529226,-69.879455,289.457137
7,0.113296,0.306529,0.253006,0.207123,14.887173,29.687828,38.91774,41.493874,15.165871,41.112648,58.596932,66.183449,6.87006,35.616234,53.482361,66.061959,-3.309013,20.354828,37.900429,48.410271,-12.534278,-13.980983,-17.196544,-20.461933,-22.582953,-31.129914,-33.990341,-35.115347,-5.511138,16.649826,21.066796,20.614251,16.388127,37.382304,38.641617,35.383295,31.329022,49.053885,48.335444,45.262435,42.742141,55.012998,57.759261,58.263688,25.661556,50.631752,73.367397,93.189663,52.253906,84.782055,101.856525,114.127018,43.362591,79.858761,99.250431,112.022701,34.25196,69.158512,86.952404,98.661129,25.998939,53.324844,67.732727,77.840778,-14.89452,-15.982871,-8.842894,-2.767579,13.000302,28.125411,33.782218,37.301831,31.017825,44.303315,48.934114,50.999159,43.441687,57.18492,60.244912,60.02518,50.934741,63.640271,64.399962,62.102044,-28.044812,296.690969,-69.538765,289.519474
8,-0.907585,0.155685,0.070598,0.177903,15.426338,31.22168,41.668648,45.140671,15.291344,40.831513,59.090515,67.598351,7.02554,34.957398,53.947907,67.800041,-2.975303,20.162453,38.658074,50.226288,-11.952244,-13.432308,-16.477249,-19.360714,-22.36033,-31.450423,-34.898615,-36.352356,-5.720805,15.863434,20.505361,20.461358,16.229491,36.727231,38.296149,35.305811,31.109117,48.545223,48.172929,45.352714,42.512664,54.592342,57.654372,58.365514,25.444187,50.400467,73.128914,92.940468,52.217915,84.625397,101.699089,114.076767,43.326245,79.715973,99.170151,112.022621,34.169609,68.916344,86.786293,98.592842,25.816899,53.030308,67.41148,77.542878,-14.997001,-15.996815,-8.778525,-2.75087,13.070759,28.048445,33.682046,37.15484,31.080514,44.302191,48.899101,50.879783,43.468461,57.177411,60.20349,59.913411,50.88539,63.543632,64.33521,62.019323,-28.859539,296.725861,-69.375309,289.576584
9,2.264168,0.199553,0.027397,0.163873,14.685665,29.677437,39.670441,42.713562,12.657337,37.102707,55.944855,65.038971,4.397427,30.811935,50.720284,65.744865,-5.335453,16.361607,35.583115,47.997322,-13.919655,-16.717197,-19.843288,-22.578472,-22.267581,-31.36196,-34.665014,-35.79349,-5.447066,15.914378,20.723957,20.73795,16.34857,36.458098,38.206338,35.366968,31.048453,48.131433,47.915911,45.408017,42.27784,53.792291,57.146277,58.234628,25.353413,50.311913,73.054413,92.807786,52.283078,84.59063,101.613419,114.048203,43.350689,79.612931,99.041268,111.979683,34.092534,68.663315,86.598702,98.557984,25.591668,52.648304,67.06675,77.372223,-15.089615,-16.058182,-8.734472,-2.705261,13.058273,27.933787,33.521668,36.940455,31.041883,44.262177,48.885875,50.837237,43.390916,57.165185,60.207763,59.877263,50.745353,63.502679,64.41535,62.131079,-26.516167,296.848004,-69.268708,289.663047
10,1.830128,-0.256598,-0.080394,0.155599,14.206318,28.110386,37.267216,39.747768,10.961815,34.59724,53.8988,63.497211,2.37569,27.928859,48.640743,64.472751,-7.424046,13.321358,33.166569,46.222606,-15.944939,-19.563286,-22.16201,-24.184468,-21.915122,-30.303212,-32.909869,-33.302775,-5.410941,16.151018,21.498703,21.687054,16.245311,36.545438,38.727846,35.95277,31.029891,48.145821,48.29648,45.984371,42.30937,53.672483,57.260565,58.506503,25.361549,50.298511,72.993496,92.64513,52.502163,84.623691,101.560261,114.009212,43.582855,79.624706,98.980465,111.998348,34.251571,68.492763,86.44788,98.556072,25.621273,52.365955,66.767841,77.239711,-15.24835,-16.160478,-8.744846,-2.712091,12.994917,27.806099,33.42225,36.864008,30.881035,44.092845,48.802091,50.855194,43.17117,57.016267,60.171688,59.925996,50.484049,63.420575,64.507345,62.301942,-24.626587,296.549317,-69.28965,289.776557
11,-0.394673,-0.204245,-0.058972,0.042509,14.712582,28.992394,38.607651,41.294381,12.014637,35.381195,54.649979,64.36361,2.940823,28.275971,49.176407,65.161675,-7.244075,13.077404,32.967133,46.192772,-16.032806,-19.959205,-22.399555,-24.115608,-21.591341,-29.660403,-32.016354,-32.335418,-5.391231,16.317867,21.967524,22.295505,16.135382,36.553255,39.018776,36.404412,30.976933,48.067076,48.542246,46.53138,42.373478,53.708866,57.468194,58.853045,25.35228,50.258927,72.910538,92.514954,52.752777,84.669754,101.55803,113.991577,43.806107,79.652138,98.989746,112.061394,34.369698,68.344574,86.296074,98.455239,25.590535,52.072975,66.417916,76.874977,-15.330046,-16.149845,-8.635536,-2.692219,13.01942,27.776101,33.445789,36.954349,30.843726,44.046618,48.864879,51.069381,43.102207,56.998569,60.233698,60.060315,50.421311,63.462936,64.617644,62.4403,-24.980645,296.331024,-69.308007,289.805018
12,1.121773,0.038248,-0.020862,0.105531,14.776177,28.678528,37.845108,40.09861,11.552742,34.363518,53.417038,63.101395,2.106136,26.870934,47.893845,64.170799,-8.311169,11.358559,31.34951,44.840813,-17.223198,-21.950031,-24.614044,-26.445968,-21.412795,-29.289591,-31.3319,-31.629833,-5.236262,16.412654,22.206152,22.638627,16.045721,36.533977,39.113143,36.694244,30.806539,47.95663,48.571614,46.886211,42.255053,53.464149,57.39413,59.091674,25.3843,50.265793,72.941608,92.553005,52.837944,84.737514,101.57809,113.947826,43.869072,79.712322,99.033016,112.070926,34.378086,68.283039,86.246189,98.41325,25.51165,51.887649,66.198269,76.650364,-15.474011,-16.257031,-8.589408,-2.6804,12.703505,27.563655,33.349027,36.958721,30.600355,43.946669,48.907549,51.195674,42.929233,56.965879,60.283717,60.144,50.309642,63.460639,64.697105,62.539484,-23.82363,296.362556,-69.293627,289.903833
13,1.898632,-0.153289,0.244171,-0.111632,14.599388,27.447682,35.480473,37.021534,10.657517,33.095936,51.678601,60.861935,0.592449,25.118122,46.054768,62.179058,-10.319629,8.703312,28.561032,41.891636,-19.633632,-25.15749,-27.853203,-29.721382,-21.110885,-28.509647,-29.974589,-30.233187,-4.748298,17.13191,23.085638,23.531316,16.189241,37.085716,39.752111,37.478338,30.822471,48.219167,49.069434,47.8272,42.239319,53.566778,57.688692,59.741103,25.471607,50.192676,72.768825,92.373814,52.736069,84.674206,101.56319,113.853413,43.734341,79.675632,99.029354,112.009357,34.168384,68.220692,86.176037,98.220463,25.25338,51.654728,65.956341,76.324596,-15.437825,-16.178917,-8.469983,-2.579747,12.637333,27.713165,33.578898,37.269646,30.498751,44.035096,49.132876,51.591852,42.827393,57.002707,60.401474,60.382393,50.25088,63.612582,64.898448,62.760266,-21.894196,296.206399,-69.018654,289.789333
14,1.484871,-0.306431,0.137077,0.070074,14.276711,26.233326,33.491055,34.69891,9.722111,31.953106,50.257107,59.005039,-0.512272,23.902485,44.574085,60.454319,-11.600109,7.131981,26.772663,39.859852,-21.101967,-27.111202,-29.973289,-32.138443,-20.983148,-27.927636,-28.959041,-29.131572,-4.196706,17.840547,23.746492,24.119538,16.608786,37.914395,40.509543,38.215762,31.171596,48.833288,49.660052,48.556066,42.505279,54.071391,58.29355,60.536535,25.532936,50.204579,72.782696,92.400707,52.522579,84.610531,101.600544,113.908734,43.492012,79.716488,99.18536,112.098988,33.942009,68.306454,86.303066,98.212338,25.104653,51.662739,65.980671,76.218144,-15.433774,-16.20742,-8.497264,-2.536645,12.412833,27.62091,33.561115,37.306981,30.368841,44.074592,49.204482,51.683774,42.763778,57.04035,60.411737,60.378318,50.234627,63.6729,64.886407,62.66995,-20.375055,295.892095,-68.847307,289.851534
15,1.342655,0.161255,0.177876,0.037927,13.955246,25.272377,31.866143,32.606209,9.286171,31.550858,49.06881,56.878876,-0.855434,23.436516,43.137886,58.203736,-12.078827,6.450497,25.352967,37.78949,-21.840671,-28.116863,-31.631584,-34.601589,-21.167584,-28.386256,-29.63548,-30.340039,-3.572458,18.28447,23.664685,23.747925,17.129836,38.463789,40.590152,38.192754,31.50243,49.151822,49.679998,48.677504,42.672302,54.266497,58.421176,60.784327,25.5275,50.146179,72.720405,92.469497,52.278671,84.555519,101.631614,113.913505,43.209697,79.782531,99.353164,112.186523,33.660221,68.423103,86.453453,98.196762,24.895202,51.696396,66.04517,76.150978,-15.470516,-16.24578,-8.48994,-2.537979,12.249603,27.582427,33.558558,37.31265,30.315834,44.189349,49.328403,51.824701,42.78202,57.135273,60.440612,60.385555,50.295168,63.775542,64.892385,62.601531,-19.002085,296.038851,-68.639116,289.874962
16,1.58955,0.141495,0.229763,-0.013646,13.424607,23.771542,29.460514,29.585507,8.621487,30.835339,47.70718,54.737217,-1.448833,22.588383,41.65028,56.15466,-12.802517,5.507721,24.041165,36.107838,-22.799606,-29.36008,-33.215789,-36.675991,-21.389256,-28.600481,-29.70338,-30.466047,-3.228064,18.323744,23.399714,23.343731,17.447159,38.785372,40.603144,38.130472,31.754767,49.45015,49.665042,48.642986,42.858071,54.542991,58.637339,61.005591,25.623642,50.21236,72.716755,92.529957,52.04076,84.493343,101.643459,113.895572,42.906177,79.768581,99.399318,112.15813,33.338905,68.458477,86.527233,98.124653,24.636223,51.612545,65.999977,75.96793,-15.380657,-16.097999,-8.359697,-2.347022,12.282898,27.727515,33.698965,37.370188,30.37357,44.45669,49.531388,51.9369,42.825689,57.343803,60.568966,60.457667,50.302614,63.926014,64.952529,62.542571,-17.386837,296.153293,-68.383655,289.834263
17,0.602921,-0.366229,0.117233,-0.0587,13.27961,22.913029,27.826183,27.622639,8.817032,30.719089,47.50304,54.448597,-1.505963,22.241741,41.341152,55.699665,-13.237621,4.80954,23.535358,35.713154,-23.666027,-30.221649,-33.382576,-36.117062,-21.221221,-28.026832,-28.843531,-29.187962,-3.303375,18.623739,24.085267,24.223834,17.413974,39.020271,41.261329,38.954581,31.893705,49.592262,50.140248,49.313632,43.177975,55.078638,59.322151,61.691996,25.730907,50.304291,72.722729,92.561565,52.002228,84.518635,101.737644,114.03455,42.806717,79.773045,99.424427,112.190174,33.202423,68.459003,86.554104,98.122593,24.519287,51.472046,65.872696,75.796108,-15.211461,-15.935942,-8.302899,-2.187706,12.45428,27.924944,33.877017,37.452958,30.513694,44.765022,49.795285,52.150853,42.903889,57.593818,60.797627,60.660677,50.319027,64.15785,65.153168,62.66244,-16.764604,295.752067,-68.24711,289.740566
18,1.130665,-0.314273,-0.054623,0.014499,12.65332,21.306472,25.42884,24.927383,7.879074,29.048561,45.9673,53.14524,-2.209511,21.026138,40.082382,54.458107,-13.800145,4.060856,22.835586,35.185753,-24.224121,-30.756535,-33.536991,-35.913552,-21.196705,-27.571237,-27.839222,-27.41659,-3.452095,18.743054,24.47837,24.703352,17.395697,39.130817,41.595856,39.279722,32.098532,49.721506,50.384767,49.494401,43.512502,55.423737,59.755146,62.105885,25.780667,50.42347,72.890969,92.805565,52.0425,84.631417,101.864937,114.158959,42.838452,79.910752,99.583924,112.329575,33.274281,68.628502,86.731133,98.277718,24.656125,51.681897,66.055607,75.893052,-15.176424,-15.910933,-8.268059,-2.099551,12.590563,28.005281,33.958379,37.461468,30.708936,44.963772,49.956392,52.204033,43.092833,57.792556,60.961192,60.73768,50.478541,64.315437,65.253018,62.678483,-15.63042,295.403704,-68.298214,289.720975
19,0.364769,0.019896,0.069352,-0.085759,12.462684,20.786018,24.457145,23.739395,7.827461,28.550033,45.530388,53.003219,-2.314408,20.670478,39.960571,54.529037,-14.039772,3.611698,22.566513,35.234573,-24.663414,-31.252453,-33.712761,-35.662938,-21.195483,-27.366041,-27.377946,-26.707831,-3.749583,18.608537,24.69856,25.066395,17.103432,38.828005,41.632845,39.56155,31.945922,49.521435,50.509343,49.821357,43.509625,55.428788,59.948597,62.490541,25.754963,50.404495,72.908317,92.873176,52.169632,84.722625,101.95745,114.212631,42.977497,80.007042,99.63581,112.316619,33.408451,68.757843,86.798492,98.2798,24.748237,51.794597,66.107505,75.815277,-15.108474,-15.846008,-8.203234,-2.014039,12.891781,28.26278,34.213458,37.675408,31.000547,45.229287,50.179051,52.376007,43.340872,58.031617,61.147234,60.872889,50.688653,64.527352,65.387128,62.755041,-15.280002,295.393945,-68.243213,289.605561
20,1.427272,-0.262822,-0.065552,-0.036235,12.001088,19.467328,22.116589,20.87447,5.852704,25.541234,43.313931,51.79604,-4.325042,17.995549,38.288029,53.862706,-15.876709,1.287632,21.046681,34.626194,-26.239013,-33.236457,-35.198261,-36.491775,-20.909665,-26.658233,-26.296561,-25.063664,-3.836985,18.888303,25.514147,26.068023,16.890998,38.734404,42.013882,40.111537,31.793151,49.436701,50.857776,50.421805,43.469944,55.354403,60.303094,63.276487,25.905018,50.580185,73.12809,93.048637,52.36734,84.835945,102.050171,114.312607,43.175434,80.069412,99.638534,112.308266,33.611206,68.846512,86.854431,98.339584,24.913696,51.866581,66.140064,75.785431,-14.963002,-15.723915,-8.159848,-1.883326,13.166114,28.460604,34.364104,37.734404,31.206534,45.421688,50.340936,52.473005,43.479416,58.19565,61.305537,60.982397,50.794975,64.65772,65.502354,62.840751,-13.875819,295.094909,-68.331854,289.533112
21,0.418156,-0.238344,-0.092777,-0.064987,11.393738,18.113663,19.392975,17.469395,5.315701,25.009987,42.646843,50.895928,-4.605629,18.411987,38.206146,53.184334,-15.933792,1.658066,20.920189,33.947479,-26.214168,-32.934849,-34.876408,-36.422481,-20.859413,-25.888403,-24.256809,-21.854026,-3.31454,19.862341,26.439254,26.831678,17.236047,39.15711,42.61948,40.910574,32.003905,49.637328,51.153214,50.752503,43.563088,55.344548,60.388062,63.635578,26.02209,50.681476,73.313358,93.261005,52.399372,84.907116,102.1581,114.432209,43.262798,80.172695,99.807186,112.513424,33.780395,69.036495,87.075084,98.571315,25.146022,52.17033,66.475479,76.15385,-14.876501,-15.663782,-8.088723,-1.772953,13.297495,28.550909,34.464461,37.862871,31.339335,45.481995,50.39214,52.497718,43.605276,58.261638,61.364695,61.007802,50.925466,64.740553,65.604342,62.957818,-13.493466,294.817323,-68.460434,289.428883
22,2.211102,0.220029,0.034572,0.024738,10.130802,15.584278,15.871891,13.276565,2.879745,22.673092,40.084591,47.867786,-6.501355,16.927539,36.010631,50.456829,-17.168324,0.704212,19.194637,31.513263,-26.865475,-33.740376,-36.466599,-39.073563,-21.390861,-26.356533,-24.553828,-22.292417,-2.578277,20.362779,26.233242,26.131848,17.987327,39.716,42.410158,40.348547,32.626448,50.145583,50.987636,50.260303,43.896244,55.560119,60.37612,63.592859,26.040116,50.713211,73.427628,93.385071,52.284462,84.840546,102.137352,114.419106,43.260967,80.221024,99.92553,112.612084,33.923927,69.295006,87.34742,98.765167,25.416287,52.701073,67.027542,76.631882,-14.891384,-15.668822,-8.036076,-1.698717,13.444707,28.568914,34.448381,37.850026,31.539751,45.479684,50.271096,52.247307,43.853796,58.308011,61.290198,60.82975,51.2058,64.821507,65.544122,62.82477,-11.339178,294.995874,-68.482676,289.412143
23,1.776477,0.417927,0.063297,0.130577,9.227395,13.733712,13.230973,10.111016,0.730259,20.792885,38.145539,45.798523,-8.136119,15.61139,34.321862,48.513543,-18.261268,-0.143234,18.000481,29.970314,-27.49728,-34.553878,-37.805019,-41.043159,-22.025433,-27.238971,-25.685442,-23.653014,-2.509154,20.260458,25.726975,25.37974,18.127686,39.710838,41.942152,39.662425,32.776649,50.304603,50.695668,49.678355,44.015126,55.58693,60.252606,63.41545,25.94291,50.619748,73.373623,93.266797,52.293229,84.754681,102.040524,114.345646,43.382813,80.165692,99.857747,112.585934,34.120228,69.366566,87.397419,98.827801,25.612164,52.97271,67.312123,76.983387,-14.943526,-15.799806,-8.165949,-1.717477,13.42386,28.444265,34.299081,37.698367,31.51047,45.349713,50.081078,52.015669,43.852685,58.200233,61.152298,60.634039,51.242357,64.76955,65.483373,62.761834,-9.649212,295.367368,-68.50589,289.496287
24,4.695374,-0.684565,0.060219,0.043164,2.140778,2.02232,-1.062126,-7.135231,-8.546391,11.861286,29.710579,39.015221,-14.653358,9.885635,28.902603,43.08165,-21.281342,-1.546658,16.813705,28.716637,-26.866894,-30.70752,-30.898899,-31.684055,-15.513815,-16.247917,-11.354159,-6.979933,4.601616,24.298379,28.746595,28.257532,21.437409,40.329589,42.280878,39.995989,33.002285,48.166136,48.035571,46.724548,41.794618,52.77678,55.880208,57.607083,25.970627,50.629727,73.314778,93.175679,52.145394,84.539395,101.854168,114.22086,43.309342,80.006504,99.790066,112.630474,34.120125,69.297283,87.368695,98.827458,25.663124,53.036156,67.395779,77.105358,-14.941636,-15.77108,-8.129183,-1.671745,13.366654,28.383984,34.231946,37.613867,31.421339,45.263706,50.017685,51.974148,43.801567,58.125242,61.103662,60.582958,51.246691,64.753346,65.496784,62.760821,-5.058901,294.6326,-68.550734,289.489248
25,1.456181,-0.176199,0.083531,0.125995,1.528049,0.84407,-2.716267,-9.099667,-10.938801,9.820312,27.970035,37.322033,-16.648556,8.350788,27.389545,41.500064,-22.64526,-2.448555,15.921924,27.585834,-27.597359,-31.540661,-32.096684,-33.450234,-15.406937,-15.970435,-10.508796,-5.510915,5.074217,24.732806,28.969749,28.415761,21.855706,40.498786,42.430758,40.018973,33.308148,48.345336,47.966695,46.308697,41.9897,52.807594,55.873737,57.60223,25.788688,50.605716,73.331131,93.24131,52.016063,84.383926,101.699547,114.093612,43.258724,79.912582,99.785957,112.697685,34.151973,69.305832,87.397659,98.8889,25.784294,53.31023,67.721145,77.54203,-15.134495,-15.873721,-8.098764,-1.787823,13.173438,28.176861,34.052042,37.478153,31.307274,45.086458,49.844945,51.746611,43.767297,58.018921,60.97579,60.362646,51.246383,64.6748,65.415768,62.643002,-3.741577,294.394064,-68.60606,289.552906
26,0.819065,1.566966,0.104953,0.079843,-2.108563,-4.041893,-7.010731,-14.151627,-14.247151,7.417705,26.205619,37.132232,-19.261093,6.547508,26.591858,41.089576,-23.582211,-2.515938,16.713089,29.035423,-26.518376,-27.889744,-25.242131,-23.481686,-12.639259,-11.413489,-4.044528,2.944655,5.938488,23.079143,27.654725,28.132858,21.43878,37.646682,40.567959,38.759993,32.153687,45.143281,45.245836,43.698606,40.629857,50.587556,52.304304,52.526062,25.651017,50.555706,73.27319,93.187855,51.932065,84.243382,101.538426,113.958355,43.233136,79.795773,99.68089,112.634343,34.180996,69.268422,87.313992,98.802784,25.85986,53.43853,67.809117,77.636181,-15.253735,-15.959739,-8.121735,-1.948423,13.036686,28.091646,33.989774,37.448982,31.189294,44.995661,49.853343,51.820341,43.706275,57.90188,60.912138,60.300994,51.243246,64.599453,65.359168,62.599073,-3.072075,295.889705,-68.65067,289.561424
27,-4.257294,0.320324,0.146977,0.006126,-0.825691,-0.668518,-2.764172,-9.651398,-9.761124,13.347095,31.769737,42.348312,-14.985535,12.577515,32.164352,45.6343,-19.645741,3.020256,21.869728,33.371635,-22.976978,-22.722725,-19.727074,-17.908321,-12.434606,-11.087385,-2.873456,4.852224,5.322886,22.395529,26.939742,27.684624,20.791661,36.684475,39.949306,38.389836,31.581705,44.36262,44.595617,42.945448,40.341014,50.297428,51.893404,52.029379,25.522579,50.471981,73.220215,93.13385,51.903007,84.225883,101.463203,113.795059,43.216827,79.739571,99.606308,112.56887,34.131203,69.214348,87.227989,98.713737,25.757835,53.413971,67.812927,77.692497,-15.36601,-16.082771,-8.23464,-2.104232,12.810703,28.060523,33.995615,37.467445,30.949072,44.898725,49.889912,51.942409,43.492791,57.763867,60.888055,60.31516,51.080669,64.478323,65.352845,62.660687,-7.49671,296.101401,-68.671034,289.458922
28,-4.922974,-0.17395,0.210651,-0.321028,-0.597255,0.868985,-1.09061,-8.127491,-4.854412,19.545834,37.33413,47.328873,-9.826584,19.584389,38.718544,50.964547,-14.690517,9.83527,28.399338,38.997002,-18.527801,-15.790157,-11.680172,-9.334293,-10.460619,-7.60565,2.939924,12.653968,7.092602,23.454733,27.757427,28.96697,21.243784,36.333584,39.920196,38.929127,30.851197,43.312418,43.732012,42.187943,39.014021,49.100012,50.599497,50.736818,25.532902,50.507527,73.190609,93.019673,51.916123,84.18726,101.312542,113.543278,43.143483,79.621548,99.45615,112.463505,33.930588,68.995777,87.05325,98.617344,25.44944,53.083294,67.583416,77.571957,-15.324624,-15.929766,-8.067654,-2.046199,12.817496,28.323839,34.308158,37.837182,30.903154,45.00123,50.158341,52.383196,43.447429,57.871498,61.140021,60.698963,51.063651,64.556314,65.575331,62.991583,-12.595688,295.772022,-68.636387,288.982465
29,-1.438247,-0.324845,0.192765,-0.443109,5.384754,10.050705,9.349147,3.99163,0.027626,23.920807,41.798813,50.431183,-7.423748,21.63446,40.778778,53.21466,-14.886395,8.448269,26.972282,37.50666,-21.363854,-22.046963,-21.245156,-21.798603,-16.394932,-17.196971,-8.726667,-0.21231,1.1513,20.645275,25.933234,27.305551,18.754317,36.501583,40.412743,39.171349,31.17267,46.208612,47.061891,45.511647,41.557311,52.245357,55.5534,57.429081,25.487594,50.406955,73.106449,92.720157,51.894767,84.371807,101.453601,113.643642,43.045074,79.59637,99.336856,112.389988,33.772899,68.768978,86.932285,98.709217,25.23777,52.785724,67.435009,77.683628,-15.443667,-16.085117,-8.288325,-2.227139,12.537582,28.184901,34.320138,38.121185,30.608074,44.798566,50.159452,52.64445,43.15083,57.665042,61.11547,60.896355,50.724679,64.278079,65.55651,63.189617,-14.222986,295.231313,-68.632673,288.323492
30,1.781021,-0.725505,0.700435,-1.775929,1.001289,3.160023,1.094066,-6.022545,-5.369717,19.563217,37.897224,48.090248,-11.243317,19.730758,39.815826,52.841629,-16.044617,9.449375,28.82872,40.168579,-19.558125,-17.043091,-13.279175,-11.070305,-8.111744,-4.754288,5.675826,15.687445,6.972115,24.728051,30.032967,32.036706,19.212356,35.900627,40.668537,40.617741,27.21211,41.446444,43.342268,42.96259,33.852403,44.772025,47.456735,48.918404,25.646782,50.177284,72.574539,92.120865,51.885521,84.166374,101.079483,113.199143,42.929135,79.019852,98.722138,111.937821,33.39592,67.737442,86.063462,98.105118,24.459595,51.375813,66.037354,76.363312,-15.732918,-16.370393,-8.539576,-2.566483,11.84552,28.13555,34.828727,39.130359,29.849,44.968181,51.06191,54.065548,42.494349,57.768733,61.918188,62.314181,50.29345,64.354254,66.197479,64.232778,-12.596174,294.261684,-68.086447,286.303439
31,10.411377,-5.434815,0.565796,-4.051482,0.966945,0.6492,-4.717003,-13.490513,-14.823693,5.100769,23.443565,34.148849,-20.739201,5.129905,25.37416,39.882316,-24.934994,-3.431877,16.056976,28.553993,-27.414494,-27.955628,-25.398239,-23.639294,-1.672423,3.96413,14.599552,23.669292,12.136179,30.43479,36.028019,38.260704,20.935317,38.086852,43.707448,44.494433,25.948549,41.433823,44.696085,45.502385,29.945542,41.508121,46.334286,50.343271,26.054386,50.609951,72.308853,90.950592,51.738865,83.016838,99.598595,111.756249,42.586876,77.2099,96.611298,110.342446,32.651196,65.039074,82.919655,95.024071,23.120407,48.11443,62.013519,71.700749,-16.269035,-16.495474,-8.529769,-2.902195,10.029317,27.054029,34.947251,40.547507,27.918226,44.513069,52.034059,56.475914,40.907722,57.562116,63.121938,64.951146,49.369146,64.531391,67.536574,66.354449,-2.344488,288.605253,-67.680342,282.030341
32,20.125923,-9.838841,1.417111,-7.421646,-8.206238,-15.836563,-25.110718,-35.595337,-31.131981,-23.13073,-10.436051,-0.772568,-34.28262,-22.819828,-7.427891,6.448849,-35.56992,-26.727917,-10.294865,2.578525,-35.175018,-41.933533,-39.01244,-34.917606,6.374112,15.887912,26.437723,34.84225,26.584787,44.589849,47.863275,48.628351,30.114799,47.002672,50.493633,50.080103,28.985804,41.145016,41.894901,41.888367,26.019623,33.703437,36.300696,39.546952,26.189952,49.852752,69.249435,85.64851,51.242546,80.746227,95.850505,106.824474,42.347671,74.196521,91.247417,102.781047,32.337787,60.958122,75.546787,84.86214,22.142944,43.843746,54.695228,61.449989,-12.533259,-10.199599,-0.556149,6.767191,10.593716,27.91357,37.260001,44.548884,26.350469,44.365411,54.026856,60.717859,38.437421,56.860792,64.325664,68.053326,47.174326,63.112824,66.96479,66.768769,17.637056,278.554642,-66.40761,274.396925
33,16.258163,-11.151717,-1.265351,-15.942598,-15.840946,-29.53854,-41.561142,-52.325981,-45.607933,-46.768089,-37.43597,-28.498478,-44.89373,-44.008426,-32.248008,-19.193733,-41.383712,-41.342273,-28.990642,-17.520206,-36.117862,-45.614742,-44.093364,-40.275112,7.505775,16.512876,23.955443,29.335707,29.636357,49.886651,53.445834,53.386442,33.097431,53.547784,56.610938,54.608187,31.827299,47.018592,47.601516,46.578237,27.704434,37.9696,40.641503,42.908484,26.626751,50.700062,69.000881,82.991604,58.105568,86.125798,97.737568,104.428356,50.102314,79.159756,91.07198,97.081455,39.791554,64.847489,74.35548,78.299938,28.338753,47.432179,54.548847,57.333756,-13.271188,-11.213368,-2.635396,5.357046,10.912644,31.080316,43.920487,53.842432,25.382742,47.61972,61.117853,70.630146,36.94127,58.812463,69.995957,76.560433,45.847261,64.13919,70.813199,73.075351,33.78848,267.260056,-67.7797,258.311458
34,20.426056,-25.808918,-4.165317,-25.878041,-25.358837,-45.26128,-59.535026,-70.252681,-59.573467,-69.36898,-64.749092,-57.353885,-54.77536,-63.820827,-57.208992,-47.085205,-46.894214,-55.266002,-48.120289,-39.374622,-37.426975,-49.07254,-48.538971,-44.827572,10.674769,23.732474,33.663126,40.965125,35.300969,58.118068,63.278315,63.852297,37.208699,61.632728,66.406319,65.049502,35.191115,54.089248,56.552695,55.860843,30.286045,43.599088,47.173066,49.17998,26.45264,50.67374,67.520153,78.652942,60.456402,88.286682,97.927231,101.622184,52.582123,81.542221,91.496429,94.98175,42.03638,67.13784,74.648094,75.973961,29.932686,49.538028,55.03046,55.460815,-14.195494,-14.628599,-9.912349,-5.652608,7.283535,29.684497,44.518441,55.174857,21.809714,46.741455,62.783891,73.989195,33.987822,57.199369,70.298435,78.730454,43.934059,61.319752,68.47287,71.831018,53.927335,241.581033,-72.232218,232.563312
35,22.653076,-35.762133,-4.500996,-33.321591,-29.300239,-53.791694,-70.281669,-80.831188,-68.08525,-88.77507,-90.660621,-87.641166,-61.470348,-83.584247,-83.836601,-77.803276,-52.321689,-72.690754,-72.143131,-66.998462,-41.842861,-60.051693,-63.384819,-62.140812,2.950051,14.380571,25.306652,33.096108,30.40844,56.353784,63.882196,66.030468,36.764157,64.725596,71.036006,70.112936,39.211758,61.117161,65.002089,64.260208,38.260555,53.503965,58.543676,60.65428,22.027817,44.595623,59.334332,66.433273,59.441528,84.969475,89.376412,88.651692,54.910172,80.165337,83.53363,82.066692,46.799194,68.248867,69.503815,66.382427,36.55077,54.028313,55.273544,52.158749,-16.970612,-22.09376,-22.883344,-23.116631,-2.297893,17.602165,31.194839,40.797145,12.598146,34.647835,49.110492,59.607827,26.073278,46.329821,58.070995,66.035477,37.971545,52.141535,57.876852,61.010636,76.072912,206.217397,-77.240713,199.640218
36,18.188668,-42.314044,-7.289085,-42.141229,-33.905342,-62.030731,-79.786812,-89.222065,-72.166031,-99.869088,-105.864144,-104.762947,-63.304779,-92.658406,-97.672234,-94.355873,-52.560997,-79.854893,-83.68697,-80.670971,-40.808327,-62.830433,-68.37125,-68.191384,-5.625333,1.749617,10.857112,17.952876,20.028598,46.177995,54.840454,57.043604,29.444819,58.442597,64.99392,63.905291,35.254909,57.432632,61.025116,59.279278,37.251874,53.072225,57.641255,57.857758,23.050815,44.880169,58.029682,62.248787,58.731594,81.026241,82.446968,78.345291,53.820991,75.186035,75.242614,70.068683,45.18592,63.527584,62.291187,56.57048,34.159767,48.004223,47.44907,43.091331,-13.227037,-21.039674,-25.908503,-27.884806,-11.876963,0.757103,13.495917,22.985782,-2.030841,11.710719,25.304572,35.869826,7.94269,19.927068,30.735551,38.817297,17.652368,23.823772,25.879894,27.043741,93.761038,164.434178,-85.03034,158.029814
37,13.557724,-46.856917,-11.359246,-49.774315,-32.876541,-61.107788,-79.230927,-88.192566,-72.493424,-99.241722,-102.520958,-99.675637,-64.18071,-90.763253,-93.291104,-89.17313,-53.357071,-77.942803,-80.670365,-77.307747,-41.243408,-61.191788,-65.819001,-65.43599,-14.900325,-12.985698,-4.944862,3.018638,-4.982122,17.74043,30.629612,35.352179,8.173519,35.147285,45.656563,46.504013,20.141614,44.018392,51.700156,51.201756,29.766626,48.192195,54.967024,55.245185,23.053986,42.745572,53.601609,54.143086,54.655575,75.255764,76.049538,70.74107,49.690556,69.615921,68.959752,63.420182,41.591092,59.705441,58.747525,53.186188,31.825161,44.75037,44.307278,40.330353,-19.357889,-34.549331,-46.351187,-53.55113,-30.20614,-24.706216,-12.860196,-3.921886,-20.768676,-14.702402,-2.584366,7.61248,-10.586163,-6.593054,2.965656,11.13247,-0.45029,-0.189271,0.345543,1.126569,107.167322,119.320142,-96.541026,109.99838
38,18.774612,-54.681723,-11.705314,-51.664828,-30.781372,-58.179184,-75.967155,-85.244163,-70.629532,-97.635406,-100.536701,-96.880352,-64.204147,-90.622551,-92.442383,-88.089088,-55.364685,-80.075592,-81.443169,-76.867424,-44.865837,-65.676071,-68.850189,-67.027244,-19.586829,-20.992985,-13.677388,-5.457883,-21.042433,-4.178794,8.853669,14.274246,-7.981308,12.874346,24.37691,26.857424,5.191928,23.834478,32.480666,33.16782,17.073049,31.152678,37.522922,38.142691,18.618416,34.104721,42.003078,41.148479,41.615032,60.02623,61.263187,57.483478,36.867519,55.251228,55.464191,52.387253,29.833259,47.057052,47.273094,44.454517,21.805755,32.606048,32.266651,29.772594,-22.539969,-42.135462,-58.18109,-70.615091,-49.948402,-56.267896,-50.399896,-44.479106,-41.614572,-48.92449,-42.508761,-35.409801,-31.774391,-39.69855,-35.567283,-30.420933,-21.375467,-29.776351,-33.89096,-36.240514,125.861088,66.6889,-108.327186,60.384033
39,9.479729,-48.441737,-11.243649,-49.508393,-25.039078,-48.881882,-65.48925,-74.747177,-58.812973,-83.664299,-86.236679,-82.481815,-53.445465,-77.608795,-78.837936,-74.587235,-46.508629,-68.708382,-68.866104,-63.649636,-37.930756,-56.249451,-57.822533,-55.062012,-26.112544,-35.758891,-34.902688,-31.889305,-39.578719,-30.282544,-20.474417,-16.413432,-25.921433,-13.119961,-4.018401,-1.963218,-11.901552,-0.310468,6.488697,6.957154,1.196374,10.091068,14.532361,14.547583,13.819782,24.343426,28.363415,25.085907,32.545166,46.534916,45.831242,42.007141,28.826214,41.772366,39.391617,35.862717,22.474503,33.640835,32.065075,29.691399,14.653794,18.598057,16.134018,13.656761,-26.156388,-48.476793,-66.1999,-78.863483,-63.883953,-82.18843,-82.097543,-78.524856,-57.617389,-77.317715,-77.235347,-73.053402,-48.674342,-67.013171,-68.57507,-67.097365,-38.081584,-52.378888,-59.85418,-64.71081,134.547363,20.069263,-120.364289,12.69774
40,8.068634,-47.946193,-12.727936,-47.01112,-19.494232,-38.349609,-51.976181,-60.020027,-44.676178,-65.019173,-66.106636,-61.69471,-39.390656,-58.728012,-59.019218,-55.163658,-33.694428,-50.673363,-49.720368,-44.789978,-26.664231,-40.128411,-40.661957,-38.243866,-30.459608,-47.167861,-53.64593,-56.921654,-53.286444,-50.962751,-46.533295,-46.086933,-39.780579,-34.188097,-29.228033,-28.84552,-25.943998,-20.262836,-16.39035,-16.893931,-13.025639,-8.650733,-6.14534,-6.274898,11.183751,17.512459,17.763531,12.480298,23.259453,35.510983,37.007126,34.95076,18.216156,31.024338,31.38152,29.696743,11.320736,21.913788,23.025124,22.470715,2.976334,4.459546,3.101944,1.859471,-26.53358,-48.875583,-65.744055,-77.426195,-71.264214,-97.157863,-100.678927,-98.863335,-67.749026,-95.096928,-98.67064,-96.377011,-60.81392,-85.980863,-90.916014,-91.819299,-51.425866,-70.032321,-79.490351,-85.924061,141.739506,-25.716169,-133.968716,-32.152619
41,6.651855,-39.927792,-12.124992,-42.369103,-11.61074,-23.627563,-32.190788,-37.157981,-27.846428,-43.74337,-46.100189,-44.554618,-24.622993,-39.920036,-41.463363,-40.457656,-21.744392,-34.216347,-34.314377,-32.150688,-18.147377,-26.828911,-26.993225,-25.793014,-31.927038,-52.125042,-62.692137,-69.290292,-60.871092,-66.033393,-67.854363,-71.570904,-49.433984,-52.283904,-54.091231,-58.082598,-37.288947,-39.505332,-41.092281,-44.675392,-25.396537,-27.826875,-29.31854,-31.669548,1.418461,1.504223,-1.983295,-9.496811,10.306469,23.454758,26.346085,26.014595,9.202503,23.561749,24.956795,24.507191,7.031742,18.729023,20.412609,20.451714,3.791016,7.224506,6.40781,5.645863,-30.978629,-55.260058,-72.504549,-85.311257,-75.354337,-104.237743,-112.371063,-114.43934,-69.611999,-100.106816,-108.977226,-111.052188,-60.814384,-88.953901,-98.669264,-103.807642,-49.761526,-69.880762,-80.128279,-87.432066,147.562603,-63.258447,-146.922466,-72.136208
42,6.007004,-31.591393,-8.744728,-33.393752,-5.617813,-11.803573,-15.410545,-17.618431,-14.194176,-25.490387,-28.959869,-30.243828,-11.693916,-22.594299,-25.959846,-28.004104,-10.233215,-18.311028,-20.438141,-21.331421,-8.601151,-12.821823,-14.025993,-14.838547,-31.69155,-53.6075,-67.240685,-77.671027,-61.286278,-71.30632,-78.971142,-86.411949,-52.427323,-61.616994,-69.464867,-76.796567,-42.84854,-51.311073,-57.925397,-64.201768,-33.13961,-40.4315,-45.431452,-49.947491,-7.168373,-11.665707,-17.474842,-25.284725,-0.77869,11.939152,15.404537,16.636677,1.890816,15.615131,18.066101,19.129154,3.816467,14.564678,17.284275,18.846359,4.635487,7.52916,7.448421,7.807526,-30.095209,-53.192469,-69.604438,-81.51444,-73.327935,-103.928089,-117.119148,-123.669729,-68.381702,-101.626664,-116.266464,-123.851377,-60.966092,-91.85736,-106.679567,-116.612467,-51.384025,-74.112987,-86.713041,-96.491182,152.38785,-93.37277,-156.848951,-104.05289
43,4.350338,-25.227531,-5.189518,-25.242229,0.615845,-0.189541,0.567928,1.105221,-2.147968,-10.958576,-15.610428,-19.180717,-1.405037,-9.987243,-14.918705,-19.287769,-2.241726,-8.058929,-11.842064,-15.084114,-3.257198,-5.210991,-7.130958,-9.217495,-30.75114,-53.352656,-68.886326,-81.193642,-62.798552,-77.965638,-89.85395,-99.789261,-56.969861,-72.421869,-84.64348,-94.24739,-50.098084,-64.647982,-75.175223,-83.550342,-42.489831,-54.879554,-62.991674,-69.664101,-12.144573,-20.942104,-29.717171,-40.015434,-10.817036,0.929604,5.919834,9.231663,-5.235786,7.127964,12.022533,15.331799,0.533947,10.202511,14.854992,18.149837,5.607079,8.255299,9.501995,11.008415,-27.874157,-49.673566,-64.948327,-75.008213,-69.960993,-99.783975,-115.103221,-124.883032,-66.186512,-99.004948,-116.996841,-128.015007,-60.19055,-91.271379,-109.050259,-121.944894,-51.965163,-76.044672,-90.022035,-101.11486,155.666151,-116.817112,-163.110506,-127.51193
44,2.693672,-18.863669,-2.432293,-19.813647,7.090233,11.214535,15.744633,19.012974,8.292195,-0.147937,-6.051864,-11.365288,6.243645,-2.098869,-8.339939,-14.308651,2.230076,-3.460052,-8.526146,-13.408767,-2.11552,-3.996414,-6.30812,-8.929859,-29.105809,-51.360509,-67.629061,-79.858136,-65.407916,-86.011349,-100.502786,-111.702839,-63.061597,-84.698527,-99.627069,-110.435066,-59.037577,-79.516059,-92.841758,-102.721115,-53.447201,-71.171039,-81.999207,-90.819376,-16.684399,-28.693176,-39.197971,-50.31839,-19.739353,-8.365265,-1.035644,4.324974,-11.171471,0.750046,8.145252,13.373383,-1.381748,8.758747,14.868828,19.053772,8.563568,12.665989,15.217861,17.562779,-24.554135,-44.272363,-57.91101,-66.665301,-68.541698,-96.751137,-112.591773,-124.212592,-66.493468,-98.2758,-117.24296,-130.388756,-62.537656,-92.831562,-111.062189,-124.989315,-56.411527,-81.125642,-95.217506,-106.716888,158.473789,-133.324543,-165.428833,-144.969339
45,0.075119,-11.038781,-0.258602,-15.95485,12.810883,21.486065,28.884854,35.201855,15.820416,8.04292,1.591233,-4.838768,10.067002,2.539444,-4.103542,-10.698086,2.696034,-2.707512,-8.024391,-13.319687,-5.145458,-7.267021,-9.386787,-11.715053,-25.946952,-46.471813,-62.127323,-72.964302,-67.134739,-91.908974,-107.251307,-119.007279,-68.500996,-94.6229,-111.192097,-123.404231,-67.158905,-92.094515,-107.724231,-119.299425,-63.071012,-84.869785,-97.964744,-109.038763,-19.489174,-33.641098,-45.157642,-56.704228,-25.15424,-14.517918,-5.957954,0.862392,-14.161594,-3.909794,4.840198,11.628708,-1.422318,7.741035,14.690334,19.761646,12.013985,16.374149,19.484974,22.320248,-21.684688,-39.759055,-52.84908,-60.147686,-67.058227,-93.713853,-109.180621,-121.384104,-66.531311,-96.866568,-115.555912,-129.332193,-64.289135,-93.301979,-111.191537,-125.010135,-60.014561,-84.678411,-98.592094,-110.23635,159.196071,-141.843432,-165.040272,-158.404297
46,-1.547218,-11.490495,2.985626,-11.40355,15.698524,26.593815,34.975651,41.966595,19.775997,13.591404,7.628769,1.656509,12.590263,6.43586,0.365238,-5.857739,3.743626,-0.808868,-5.658073,-10.412544,-5.586124,-7.476173,-9.378593,-11.469029,-25.211094,-44.830657,-60.685,-71.525783,-69.05547,-94.070209,-108.176414,-118.424701,-71.533602,-97.450877,-112.187418,-122.236052,-70.882548,-95.316733,-109.440582,-119.364429,-67.342563,-88.938448,-101.468404,-111.801469,-21.06459,-36.623829,-49.066887,-61.084247,-27.042835,-18.001087,-9.54182,-2.28297,-14.97599,-6.955547,1.766853,9.113835,-1.360931,5.843331,12.60846,18.172669,12.877384,15.845558,18.425137,20.868221,-20.687283,-37.517145,-50.339526,-56.672642,-67.662387,-92.501887,-107.478258,-119.685064,-68.112975,-96.39101,-114.167516,-127.456773,-66.746074,-93.518714,-110.447049,-123.423596,-63.33396,-86.424265,-99.585711,-110.666333,158.366541,-150.259414,-161.336958,-166.733334
47,-3.684036,-11.948445,3.545506,-11.15712,19.702125,32.36626,41.468662,49.060283,24.630581,18.068447,11.848617,6.086494,15.327141,8.72168,2.706356,-3.248349,4.288318,-0.716767,-5.37751,-9.763069,-7.094799,-9.953637,-11.872101,-13.855397,-23.266997,-41.336418,-56.775087,-66.661055,-70.156681,-95.571473,-108.525223,-117.122729,-73.737707,-99.733667,-112.782994,-120.600891,-73.640271,-97.773758,-110.417456,-118.605795,-70.436454,-92.198142,-103.862236,-113.079357,-22.377732,-38.685002,-51.248669,-63.401001,-26.350216,-18.16103,-10.125847,-3.223549,-13.717255,-6.665566,1.489563,8.35532,0.006557,6.235233,12.325481,17.329353,14.043548,16.505012,18.567936,20.475608,-19.287556,-35.223423,-47.464958,-53.489362,-67.538484,-91.447962,-105.418594,-116.493168,-68.41307,-95.418351,-111.665683,-123.198807,-66.990225,-92.252431,-107.814376,-119.371731,-63.481446,-85.513561,-97.945049,-108.24509,155.436974,-158.740493,-157.036983,-174.423088
48,-4.549954,-10.091444,4.24205,-9.963494,22.156494,36.069489,45.716835,53.728752,27.099221,20.759926,14.334458,8.872696,16.211243,9.932144,3.952767,-1.602699,3.727112,-0.854782,-5.368103,-9.295738,-8.952095,-11.951385,-13.802627,-15.515831,-20.429874,-37.033494,-52.244532,-61.825488,-68.7889,-93.899721,-105.672392,-112.872751,-73.057413,-98.640111,-110.315217,-116.482498,-73.249761,-96.649726,-108.056629,-114.89773,-70.090123,-91.637466,-102.453479,-110.531055,-23.206925,-39.727329,-52.191673,-64.320889,-24.961247,-16.484665,-8.626785,-2.039715,-11.699696,-4.450104,3.004864,9.067932,2.148159,8.208435,13.671158,17.796627,15.907162,18.424187,20.156902,21.400463,-17.585863,-33.011353,-44.905128,-50.427903,-66.852791,-90.04885,-102.816075,-112.485321,-67.844529,-93.466813,-107.983382,-117.711093,-66.124981,-89.889703,-103.786639,-113.53166,-62.364673,-83.224527,-94.679758,-104.059724,151.471372,-165.631876,-152.210581,-181.186521
49,-5.611496,-7.830243,5.301372,-8.378046,23.001915,37.627373,47.605751,55.875298,27.840111,22.359421,16.086205,11.488426,15.908799,10.71238,5.024826,0.253052,2.674073,-0.78717,-5.062523,-8.327224,-10.693886,-13.087555,-14.721061,-15.960869,-17.006514,-31.959558,-47.053511,-56.968373,-64.90654,-88.197584,-98.208259,-103.855037,-69.70197,-93.783277,-103.754167,-108.169706,-70.067643,-92.124765,-101.877253,-107.149313,-66.800081,-87.318028,-97.101968,-103.799697,-23.388897,-40.135322,-52.574272,-64.7127,-23.830719,-14.741489,-6.913593,-0.187305,-9.961315,-2.301773,4.861061,10.559967,4.186867,10.169209,15.361977,18.982636,18.028988,20.631501,22.034947,22.568768,-16.083938,-31.224503,-43.132402,-48.550011,-65.221421,-87.598592,-99.465428,-107.978439,-66.042014,-90.281161,-103.452229,-111.756686,-63.775107,-86.416245,-98.951697,-107.19208,-59.447902,-79.438244,-90.229092,-98.969662,145.992428,-170.52548,-146.776657,-186.627928
50,-5.433265,-6.441534,6.008744,-6.548637,23.169044,37.740806,48.092239,56.373321,27.541236,20.977981,14.301361,10.516525,14.970977,8.949462,3.210983,-0.776299,1.171623,-2.737702,-7.148598,-9.997307,-12.476509,-15.348175,-16.935105,-17.780709,-14.229944,-28.083825,-43.147464,-53.167911,-61.348534,-83.175636,-91.338773,-95.161772,-66.298285,-89.510921,-97.407931,-99.379179,-66.629567,-88.012757,-95.565163,-98.762358,-63.202163,-83.260869,-91.980874,-97.293636,-23.389412,-40.171784,-52.583748,-64.599312,-22.455494,-12.238495,-4.01286,2.988155,-8.25697,0.072578,7.28968,12.869201,5.974983,12.298805,17.452697,20.843467,19.785438,22.498729,23.857235,24.117633,-15.020565,-30.072574,-42.142145,-47.89958,-63.73239,-84.996044,-95.639537,-102.889122,-64.25751,-87.09209,-98.61073,-105.328663,-61.48851,-83.111718,-94.069843,-100.818789,-56.641819,-76.004595,-85.875557,-93.668055,140.37802,-174.205328,-140.949056,-190.414879
51,-7.288697,-5.173996,6.28062,-4.895897,23.599823,38.612046,49.469353,57.769913,28.579834,21.465271,14.683571,11.786431,15.449272,9.353073,3.698136,0.33815,1.058304,-2.586227,-6.947982,-9.488594,-12.935669,-15.716194,-17.087906,-17.646331,-11.035333,-24.017727,-39.29318,-49.369275,-57.847879,-76.783655,-81.591499,-82.662865,-63.327953,-84.101792,-88.819242,-88.178571,-64.089743,-83.760625,-88.32948,-89.02957,-60.986928,-80.361024,-86.839589,-89.641122,-23.052944,-39.555988,-52.275696,-64.324264,-20.90356,-8.82035,-0.009121,6.997055,-6.568565,3.113205,10.585694,15.762371,7.632317,14.765179,19.946846,22.887486,21.28632,24.428433,25.875595,25.95298,-14.307746,-29.280449,-41.37721,-47.283765,-62.125225,-82.392019,-91.359526,-96.930948,-62.264612,-84.091432,-93.952204,-98.697263,-58.974056,-79.993569,-89.121839,-93.828794,-53.687766,-72.711511,-81.460055,-87.744699,132.940241,-177.682009,-134.817518,-193.613461
52,-7.202934,-3.141846,6.684323,-2.895267,23.915085,39.180817,50.05735,58.34642,28.531883,21.327828,14.733215,12.64975,14.907738,9.139298,3.721664,1.025322,0.179878,-3.025703,-7.283295,-9.480171,-13.983673,-16.391533,-17.521133,-17.843628,-8.716323,-21.258162,-36.865338,-47.310244,-55.241372,-71.137907,-72.629443,-71.38884,-60.799463,-78.96897,-80.796898,-78.204639,-61.579878,-79.474293,-81.330019,-79.956066,-58.471352,-76.743978,-81.090523,-81.785842,-22.750134,-38.881268,-51.885613,-63.986927,-19.908909,-6.225998,2.859466,9.58097,-5.559472,5.336677,12.842685,17.477291,8.696571,16.608467,21.659225,24.077076,22.310611,26.160781,27.791862,27.810493,-13.619757,-28.5953,-41.059998,-47.392742,-60.56651,-79.963284,-87.268419,-91.364748,-60.47789,-81.549562,-89.817121,-92.77003,-56.854768,-77.545925,-84.986902,-87.773122,-51.221874,-70.092111,-78.072379,-83.192176,125.610912,-179.884443,-128.25959,-195.569316
53,-6.588776,-1.262709,6.872348,-1.328155,24.066811,39.234673,49.78656,58.403527,28.407692,21.266671,14.943192,13.434632,14.339974,8.753472,3.70475,1.595742,-0.643501,-3.747253,-7.758819,-9.562545,-14.978096,-17.186805,-18.199745,-18.41423,-7.533807,-19.677899,-35.460356,-46.048968,-53.658311,-66.627889,-65.389057,-62.343804,-59.235078,-74.773012,-74.124248,-69.885825,-59.902054,-76.201202,-75.821315,-72.695748,-56.679729,-73.819579,-76.556009,-75.701405,-22.508766,-38.167488,-51.55363,-63.781356,-19.293113,-4.075126,4.882073,10.714188,-5.058357,7.185288,14.583859,18.436226,9.250283,18.107529,22.952774,24.6549,23.002613,27.462273,28.972641,28.62648,-13.137079,-28.003803,-40.941285,-47.829379,-59.755993,-77.920269,-82.514347,-84.403838,-59.678448,-79.995391,-85.380452,-85.55071,-55.774987,-76.094081,-80.755872,-80.973462,-49.821562,-68.488795,-74.943695,-78.077979,118.826379,-180.636992,-121.582999,-196.387311
54,-5.667549,-0.513628,6.086483,0.139204,24.31968,39.412972,49.505448,58.408219,28.416138,21.34774,15.245728,13.90741,13.85273,8.555031,3.764145,1.876305,-1.276062,-4.124588,-7.915992,-9.535377,-15.617775,-17.537636,-18.518486,-18.814865,-6.767416,-18.62586,-34.360405,-45.07671,-52.691524,-63.187879,-60.505215,-56.695765,-58.154815,-71.291949,-69.538301,-64.814331,-58.702976,-73.298771,-71.876471,-68.074611,-55.408224,-71.213218,-72.930722,-71.296801,-21.993965,-37.068077,-50.686489,-63.264049,-18.031368,-1.190059,7.188721,11.506726,-3.934421,9.822293,16.53098,18.931492,10.208256,20.170246,24.376465,24.916672,23.804547,29.013588,30.238964,29.387341,-13.045905,-27.895811,-41.112472,-48.264684,-59.831119,-77.027136,-78.906256,-78.455609,-59.673653,-79.420193,-81.762066,-79.030188,-55.596302,-75.579289,-77.365035,-74.860483,-49.552977,-67.781208,-72.399906,-73.255913,113.129917,-180.977886,-115.525429,-196.075373
55,-4.522545,-0.313685,5.723671,0.87935,24.834252,40.104424,49.726777,58.438958,29.029953,22.62497,16.928971,15.868378,13.976281,9.529999,5.110245,3.248909,-1.432914,-3.506767,-6.993301,-8.586593,-16.090438,-17.294654,-18.034744,-18.392005,-6.221268,-17.632976,-33.350348,-44.086074,-52.20014,-59.915905,-55.297408,-50.074569,-57.969513,-68.185509,-64.999003,-59.461859,-58.747973,-71.220823,-68.581439,-63.806178,-55.713448,-70.330503,-70.560801,-67.377209,-21.780166,-36.361942,-50.050037,-63.043281,-17.737049,0.446846,8.160153,10.907044,-3.697414,11.501988,17.736203,18.887387,10.47773,21.525376,25.354946,24.896256,24.169339,30.042401,30.987751,29.650887,-12.966657,-27.725009,-41.301978,-48.788474,-60.069225,-76.353313,-75.766729,-73.238009,-59.911758,-79.046611,-78.7288,-73.552583,-55.702672,-75.241291,-74.417854,-69.623437,-49.620467,-67.209647,-69.961108,-68.801145,108.683309,-181.742648,-109.725821,-195.6471
56,-2.370712,0.343625,4.598603,1.315917,24.853043,39.837937,48.893212,57.46106,28.651062,22.052399,16.409111,15.482231,13.297119,8.809525,4.395905,2.583641,-2.146042,-4.218796,-7.679855,-9.210686,-16.835174,-18.047195,-18.78202,-19.176567,-6.436122,-17.537975,-33.112639,-43.949151,-52.310213,-59.08871,-54.498017,-49.384285,-57.929536,-67.104628,-64.088494,-58.683851,-58.529248,-70.209945,-67.656967,-63.080482,-55.18981,-68.850135,-69.012392,-66.020924,-21.909645,-36.248955,-49.724533,-62.753323,-17.712387,0.710838,7.558445,8.952083,-3.464734,12.284408,17.81092,17.99382,10.806976,22.340904,25.705776,24.487323,24.513542,30.727443,31.196388,29.315631,-12.974642,-27.491951,-41.401404,-49.329948,-60.691687,-76.028776,-73.586794,-69.435246,-60.613672,-79.127262,-76.654814,-69.653346,-56.372163,-75.28187,-72.475627,-66.051944,-50.188447,-67.138333,-68.326922,-65.501578,106.264154,-181.738076,-105.175661,-194.670236
57,-1.227081,0.345626,3.637779,1.012101,24.811409,39.664924,48.336662,56.896705,28.785667,21.962059,16.250519,15.279121,13.288948,8.367508,3.815941,1.87548,-2.164925,-4.653511,-8.207886,-9.739334,-16.884133,-18.4525,-19.326187,-19.812447,-6.501688,-17.44584,-32.931646,-43.696339,-52.464199,-58.519979,-54.022029,-48.949562,-58.310166,-66.342902,-63.156617,-57.613061,-58.990543,-69.713746,-66.917207,-62.279404,-55.616748,-68.700922,-68.638459,-65.481605,-22.160076,-36.419758,-49.682785,-62.87804,-18.228459,0.503094,6.776871,7.152466,-3.75444,12.486511,17.576076,17.090435,10.60849,22.692089,25.874725,24.161705,24.4258,30.957184,31.053142,28.682384,-12.995352,-27.407256,-41.503134,-49.619423,-61.739105,-76.091716,-71.909503,-66.27577,-61.822905,-79.538752,-74.961616,-66.402541,-57.607694,-75.606409,-70.801856,-63.021476,-51.369595,-67.515591,-66.769845,-62.157847,104.940325,-181.678493,-101.63463,-193.944178
58,-0.469345,-0.290131,2.058906,0.874507,24.822075,39.920036,48.514778,56.682998,29.123703,21.861877,16.255394,15.560531,13.650718,8.411361,3.879661,1.945862,-1.70913,-4.34848,-7.921829,-9.434166,-16.370842,-18.018906,-18.813927,-19.29673,-6.544543,-17.22872,-32.570918,-43.179889,-52.368946,-58.134686,-53.444785,-47.899274,-58.571013,-65.805882,-62.409147,-56.507413,-59.516487,-69.372333,-66.137127,-61.095556,-56.352726,-68.760306,-68.130061,-64.377353,-22.260017,-36.422596,-49.364112,-62.614311,-18.352295,0.443299,6.433228,6.323502,-3.626072,12.744152,17.56881,16.774693,10.818432,23.187905,26.186325,24.231354,24.614949,31.43858,31.310212,28.716076,-13.120614,-27.423364,-41.566149,-49.777316,-62.374746,-76.516992,-71.972681,-65.783259,-62.411253,-79.987305,-74.919254,-65.966161,-58.171428,-75.914558,-70.499674,-62.239491,-51.841057,-67.688899,-66.155281,-60.807338,104.426937,-182.236223,-99.619767,-193.33727
59,0.176582,-0.156281,1.818867,0.289164,24.73819,39.94162,48.507202,56.451462,29.036339,21.763161,16.205704,15.655632,13.573723,8.343979,3.907654,2.030571,-1.776787,-4.377891,-7.811439,-9.179489,-16.466331,-18.037147,-18.701981,-19.117035,-6.666472,-17.311623,-32.661929,-43.088659,-52.570497,-58.086442,-52.611936,-46.233583,-58.990451,-65.582531,-61.48691,-55.025131,-60.025366,-69.318785,-65.473566,-59.864755,-56.913516,-69.07662,-67.737,-63.185504,-22.839661,-37.089214,-49.765331,-62.855221,-19.665367,-0.956543,4.995953,4.68932,-4.772358,11.634613,16.581413,15.822247,9.913342,22.460793,25.604416,23.638001,23.948216,30.946827,30.888542,28.252087,-12.880601,-26.885897,-41.095393,-49.492919,-62.710132,-76.347451,-71.384973,-64.807844,-62.993381,-80.139794,-74.745857,-65.610076,-58.90329,-76.201478,-70.287097,-61.731979,-52.595567,-68.203129,-65.998758,-60.053848,104.569925,-182.647817,-97.834494,-193.303419
60,0.169327,-0.106482,0.668862,0.132609,24.532471,39.762794,48.373947,56.267464,28.790062,21.452934,15.855652,15.353554,13.374504,7.996925,3.469185,1.629547,-1.931168,-4.720505,-8.187035,-9.447098,-16.559349,-18.327461,-19.026077,-19.364319,-6.701825,-17.349958,-32.73218,-43.199563,-52.399933,-58.210792,-52.725807,-46.328531,-58.817669,-65.543047,-61.381869,-54.886135,-59.846707,-69.156536,-65.289995,-59.700604,-56.709576,-68.746635,-67.414762,-62.952767,-23.169354,-37.432377,-49.935837,-62.756115,-20.15054,-1.636231,4.337207,4.003223,-5.113141,11.155666,16.058223,15.26802,9.676197,22.219871,25.430671,23.400707,23.765544,30.882076,30.901016,28.172699,-12.814408,-26.681377,-40.764784,-49.200968,-63.068003,-76.488813,-71.387781,-64.587812,-63.472136,-80.457719,-74.945564,-65.649672,-59.478995,-76.573459,-70.420495,-61.576089,-53.140601,-68.632256,-65.994922,-59.52463,104.659464,-182.941919,-97.24542,-193.35843
61,0.152389,0.138194,0.761467,-0.108189,24.55513,39.776322,48.29805,56.081818,28.824601,21.166329,15.636864,15.250786,13.480317,7.80098,3.303223,1.567017,-1.773033,-4.752159,-8.187881,-9.37944,-16.386154,-18.232086,-18.874328,-19.165031,-6.734009,-17.397799,-32.763172,-43.123712,-52.679631,-58.53759,-52.770554,-46.119048,-59.089269,-65.496743,-60.926115,-54.17704,-60.02858,-69.062684,-64.836319,-58.969791,-56.838421,-68.891785,-67.276323,-62.520645,-23.491185,-37.910958,-50.451142,-63.359551,-20.893422,-2.471787,3.557613,3.191802,-5.75639,10.437526,15.393184,14.653793,9.139663,21.666515,24.874214,22.782348,23.386173,30.579185,30.660346,27.925884,-12.777167,-26.656264,-40.760842,-49.209984,-63.12219,-76.316857,-71.026524,-64.131028,-63.737906,-80.430323,-74.801558,-65.482281,-59.926557,-76.671076,-70.325672,-61.43063,-53.745324,-68.883176,-65.839589,-59.171462,104.684864,-183.053209,-96.610942,-193.716103
62,0.419014,0.170913,0.36676,0.149053,24.580582,39.712143,48.081299,55.780014,28.325615,20.916367,15.60022,15.242066,12.870072,7.668892,3.44085,1.767998,-2.311821,-4.794639,-8.038261,-9.246048,-16.766922,-18.200592,-18.630523,-18.856178,-7.084585,-17.73993,-33.028122,-43.334494,-53.429862,-58.743362,-52.800009,-46.115906,-59.48191,-65.460315,-60.792161,-53.993024,-60.098138,-68.820788,-64.554359,-58.682687,-56.609899,-68.403395,-66.737536,-62.009196,-23.514954,-37.95147,-50.518685,-63.585869,-20.905941,-2.734474,3.28957,2.912739,-5.653816,10.434551,15.381935,14.691021,9.309871,21.756855,24.980232,22.866955,23.6571,30.788166,30.888897,28.160167,-12.945928,-26.88081,-40.976848,-49.385385,-63.267442,-76.30458,-70.894395,-63.95941,-64.019409,-80.523765,-74.882675,-65.516834,-60.29426,-76.802135,-70.378848,-61.442262,-54.171032,-69.077509,-65.826501,-59.067019,104.966348,-183.225588,-96.381712,-193.910342
63,-0.0363,0.075709,0.561779,-0.009714,24.771835,39.781402,47.986061,55.764816,28.735588,21.33966,16.110855,15.811958,13.083481,8.057258,3.922508,2.309669,-2.243569,-4.560356,-7.743531,-8.954956,-16.789604,-18.036713,-18.417389,-18.626313,-6.867631,-17.581516,-32.882243,-43.244342,-53.817324,-58.230561,-51.909582,-45.292782,-59.649038,-64.888986,-59.900008,-53.121732,-60.060572,-68.255549,-63.814532,-58.051264,-56.373043,-67.795453,-65.848494,-61.120578,-23.738972,-38.331207,-50.90625,-63.997982,-21.335644,-3.283928,2.7812,2.371124,-5.920819,10.15155,15.115734,14.399368,9.172348,21.59127,24.799072,22.606991,23.644661,30.749073,30.877739,28.110626,-12.891652,-26.878067,-41.02007,-49.463288,-63.346814,-76.033515,-70.406254,-63.387177,-64.250885,-80.316307,-74.549355,-65.15563,-60.602354,-76.5953,-69.983264,-60.998884,-54.522148,-68.895269,-65.206716,-58.265507,104.755194,-183.649118,-95.994787,-194.419295
64,0.112747,0.099677,0.249023,0.142218,24.800629,39.763252,47.885422,55.473312,28.757057,21.072121,15.930611,15.762978,13.074509,7.819359,3.750961,2.219353,-2.262177,-4.748612,-7.922424,-9.057701,-16.828034,-18.009064,-18.29567,-18.40622,-6.870279,-17.433496,-32.574388,-42.836779,-54.052763,-58.137253,-51.582289,-44.76408,-59.859188,-64.745432,-59.568754,-52.641434,-60.22915,-68.104143,-63.439838,-57.494374,-56.4635,-67.531581,-65.17594,-60.183475,-23.743721,-38.406852,-51.018814,-64.124325,-21.246197,-3.358543,2.701458,2.295765,-5.673752,10.239372,15.190876,14.471466,9.454376,21.729653,24.892834,22.662129,23.900482,30.905846,31.026856,28.25782,-13.040014,-27.054934,-41.180908,-49.58354,-63.465524,-76.187487,-70.60249,-63.570286,-64.409686,-80.424527,-74.675176,-65.242132,-60.778677,-76.50642,-69.833106,-60.824301,-54.696392,-68.735944,-64.775139,-57.710734,104.701429,-184.373828,-95.912276,-195.101464
65,0.140236,0.301012,0.351906,0.051043,24.648285,39.448311,47.511795,55.160568,28.732956,20.462333,15.266922,15.213661,13.097122,7.363907,3.272667,1.874313,-2.211456,-5.071198,-8.306809,-9.349091,-16.751129,-18.038681,-18.344559,-18.375,-6.971093,-17.518586,-32.604949,-42.743789,-54.394681,-58.330764,-51.636642,-44.75228,-60.218818,-64.806364,-59.497226,-52.493704,-60.542242,-68.065577,-63.279313,-57.218615,-56.710437,-67.411842,-64.787047,-59.644287,-23.727505,-38.510925,-51.212116,-64.408779,-21.438435,-3.572285,2.580151,2.273609,-5.795448,10.09417,15.083714,14.394848,9.357285,21.539978,24.662521,22.452438,23.799511,30.733189,30.80167,28.055935,-13.045787,-27.031879,-41.191687,-49.545064,-63.295225,-76.042127,-70.684812,-63.800622,-64.278831,-80.297277,-74.765346,-65.472222,-60.692825,-76.317266,-69.741576,-60.808507,-54.663013,-68.572352,-64.639425,-57.655094,104.676533,-185.024637,-95.725502,-196.002242
66,-0.132019,-0.063133,0.174488,0.195678,24.764969,39.585045,47.591675,55.171715,28.918533,20.772102,15.560989,15.439132,13.290687,7.536255,3.451996,2.011802,-2.022789,-4.962342,-8.205139,-9.248818,-16.566239,-17.854431,-18.111946,-18.103752,-6.834116,-17.340612,-32.447131,-42.484312,-54.155979,-57.909338,-51.104509,-44.091944,-60.086196,-64.476891,-59.081575,-52.048833,-60.499876,-67.794396,-62.923244,-56.776823,-56.782223,-67.258253,-64.361053,-59.003248,-23.524212,-38.269558,-50.99485,-64.247211,-21.11491,-3.192844,2.950745,2.598782,-5.523548,10.46434,15.450646,14.688709,9.564137,21.839562,25.009312,22.751553,23.941395,30.928803,31.05296,28.291248,-13.118656,-27.09249,-41.162161,-49.396137,-63.387237,-76.224917,-70.868551,-63.991099,-64.394832,-80.308838,-74.736509,-65.468071,-60.833218,-76.209214,-69.579191,-60.635944,-54.803835,-68.448302,-64.342164,-57.268703,104.419447,-186.013427,-95.676081,-196.732221
67,0.049186,0.058934,0.400395,0.105333,24.666001,39.461426,47.451348,54.925416,29.147828,20.76503,15.408577,15.252617,13.684937,7.508927,3.197503,1.678208,-1.633346,-5.044212,-8.43251,-9.462638,-16.256195,-17.842208,-18.247489,-18.237442,-6.675482,-17.097417,-32.196492,-42.194838,-53.71476,-57.657311,-50.931304,-43.844731,-59.991467,-64.349053,-59.002546,-51.969076,-60.677722,-67.853075,-62.969536,-56.696375,-57.208499,-67.48818,-64.391428,-58.785387,-23.630093,-38.423138,-51.137089,-64.274392,-21.430092,-3.178894,3.13718,2.843765,-5.945755,10.258483,15.351562,14.542144,9.111545,21.519241,24.726425,22.442951,23.434398,30.546752,30.711742,27.925323,-12.894125,-26.778983,-40.84999,-49.048576,-63.246539,-76.227221,-71.121674,-64.448218,-64.3233,-80.247809,-74.75097,-65.627343,-60.855111,-76.135653,-69.499111,-60.634521,-54.904662,-68.369071,-64.193644,-57.149314,104.377195,-186.833248,-95.367124,-197.505643
68,0.124535,0.129849,0.234661,0.201591,24.482117,39.268662,47.259705,54.487679,29.125969,20.738594,15.278503,15.014534,13.803841,7.424767,3.023094,1.44104,-1.492973,-5.204613,-8.603577,-9.568314,-16.141273,-17.966743,-18.410545,-18.335289,-6.79353,-17.147636,-32.223462,-42.237831,-53.631545,-57.694434,-51.054185,-43.912774,-60.166303,-64.343564,-59.018696,-52.01457,-61.024071,-67.790444,-62.899536,-56.578781,-57.712804,-67.593227,-64.427791,-58.695803,-23.62476,-38.491391,-51.241265,-64.419995,-21.519219,-3.203007,3.113399,2.763771,-6.101624,10.048221,15.152046,14.307575,8.922615,21.238323,24.523452,22.247532,23.261455,30.301368,30.520351,27.74826,-12.821757,-26.704333,-40.8261,-49.054571,-63.205812,-76.326027,-71.195176,-64.487601,-64.351072,-80.284243,-74.762905,-65.64083,-60.973726,-76.258793,-69.613146,-60.74008,-55.110698,-68.58455,-64.397645,-57.331567,104.458586,-187.468039,-95.175607,-198.068692
69,-0.116226,0.170144,0.185074,0.281504,24.453712,39.167221,47.071586,54.225151,29.275108,21.283356,15.773186,15.277954,14.017136,7.963966,3.510887,1.728126,-1.27636,-4.78775,-8.197403,-9.288323,-15.943955,-17.71653,-18.258385,-18.32824,-6.760151,-17.207889,-32.438918,-42.537401,-53.71468,-57.463149,-50.891158,-43.865758,-60.418675,-64.052495,-58.744935,-51.870707,-61.356582,-67.572638,-62.701273,-56.441502,-58.147963,-67.70914,-64.556967,-58.801977,-23.650738,-38.619862,-51.438126,-64.710881,-21.795193,-3.382794,3.007953,2.635116,-6.453049,9.780258,14.967247,14.13264,8.570537,20.93708,24.354183,22.093471,22.97945,30.101165,30.392269,27.602108,-12.713884,-26.724028,-41.009103,-49.342066,-63.240173,-76.24694,-71.036448,-64.347767,-64.54951,-80.253121,-74.666926,-65.586819,-61.315355,-76.439028,-69.790754,-60.947295,-55.597367,-68.946363,-64.784371,-57.757125,104.314585,-187.73782,-95.018308,-198.227113
70,-0.31453,-0.14018,0.019145,0.342481,24.535836,39.194527,46.998185,53.950402,29.66343,22.259697,16.854149,16.162011,14.447274,8.835755,4.423485,2.410264,-0.885749,-4.03569,-7.356971,-8.570938,-15.663253,-17.225029,-17.790939,-18.024787,-6.572071,-17.021254,-32.320666,-42.355197,-53.652855,-56.731023,-50.027859,-42.986975,-60.552352,-63.267136,-57.741282,-50.89552,-61.592037,-66.926838,-61.864664,-55.605562,-58.521518,-67.550887,-64.148061,-58.22677,-23.665752,-38.651927,-51.465797,-64.751575,-21.958248,-3.531932,2.868645,2.459691,-6.639564,9.56194,14.81424,14.040928,8.370095,20.725537,24.222874,21.970482,22.795922,29.975556,30.315468,27.511757,-12.798965,-26.881143,-41.197319,-49.556245,-63.500032,-76.278748,-70.85945,-64.08105,-64.924797,-80.393118,-74.683595,-65.539066,-61.786302,-76.692768,-69.972151,-61.057266,-56.169756,-69.390866,-65.116299,-57.976788,104.007333,-188.19197,-94.991885,-198.198602
71,0.014695,-0.24179,-0.131847,0.312417,24.346161,38.872696,46.572761,53.39962,29.596412,22.551796,17.221801,16.434402,14.390281,8.995742,4.616501,2.491974,-0.982201,-3.978974,-7.242783,-8.486435,-15.837662,-17.25737,-17.853287,-18.201966,-6.418115,-16.779671,-32.054401,-42.106652,-53.515732,-55.951447,-49.304289,-42.384207,-60.521566,-62.612335,-57.111807,-50.357624,-61.591756,-66.349678,-61.275806,-55.1322,-58.501071,-67.060623,-63.59985,-57.751364,-23.76178,-38.759365,-51.537414,-64.761772,-22.182518,-4.018387,2.54084,2.321652,-6.877167,9.115391,14.535599,13.960419,8.160439,20.336506,24.003056,21.925324,22.631424,29.803299,30.199322,27.439121,-12.62645,-26.836541,-41.337983,-49.860892,-63.490514,-75.939451,-70.627062,-63.985362,-65.083584,-80.335443,-74.924579,-65.914193,-62.050674,-76.807032,-70.341431,-61.498852,-56.539365,-69.677129,-65.617132,-58.552681,104.041775,-188.686699,-95.103985,-198.139124
72,-0.310593,-0.364321,-0.357605,0.344576,24.382851,38.906227,46.547722,53.235466,29.770294,22.681549,17.437775,16.76255,14.576752,9.046165,4.754311,2.769951,-0.822556,-3.85833,-7.087303,-8.215393,-15.714409,-17.131828,-17.659973,-17.947815,-6.23949,-16.543207,-31.824742,-41.846581,-53.094999,-55.658198,-48.99529,-42.015045,-60.155156,-62.295251,-56.715751,-49.943863,-61.292948,-65.944268,-60.782633,-54.650365,-58.286621,-66.753182,-63.210666,-57.355255,-23.669929,-38.631409,-51.367309,-64.536896,-22.139648,-4.091881,2.505364,2.326389,-6.86277,9.116375,14.614838,14.12439,8.130478,20.310894,24.068173,22.004002,22.602928,29.879906,30.348244,27.574459,-12.638957,-26.939306,-41.477986,-50.072355,-63.643073,-75.561044,-70.063152,-63.343699,-65.360812,-80.185741,-74.78551,-65.77275,-62.361562,-76.73732,-70.279102,-61.396701,-56.881458,-69.820862,-65.762172,-58.638648,103.787807,-189.213982,-95.404965,-197.95751
73,0.315514,-0.42789,-0.616539,0.263724,24.334808,38.628822,46.035896,52.712265,29.265129,22.344085,17.304039,16.664154,13.955841,8.655349,4.434013,2.430954,-1.461823,-4.224747,-7.389771,-8.525711,-16.367913,-17.687302,-18.181824,-18.510109,-6.267281,-16.415341,-31.553979,-41.56629,-53.088571,-55.06486,-48.480903,-41.623755,-59.989675,-61.73501,-56.215812,-49.54532,-60.986569,-65.49213,-60.370976,-54.291916,-57.877381,-66.276881,-62.96524,-57.349459,-23.699158,-38.406944,-51.096496,-64.300094,-21.920734,-4.01754,2.761036,2.901249,-6.707142,9.089813,14.725777,14.497456,8.157475,20.2076,24.082867,22.228214,22.438648,29.712399,30.192307,27.465626,-12.638102,-27.00796,-41.59543,-50.176637,-63.68617,-75.23283,-70.037035,-63.604887,-65.426124,-79.875674,-74.767467,-65.95822,-62.447795,-76.540133,-70.435615,-61.754085,-57.05283,-69.82832,-66.035196,-59.081783,104.204996,-189.845463,-95.919829,-197.897377
74,0.510978,-0.387925,-1.035175,-0.033358,24.239365,38.408501,45.677697,52.286202,29.076668,21.783188,16.887543,16.527397,13.683998,8.02121,3.857025,2.131989,-1.792923,-4.804092,-7.90464,-8.852325,-16.74234,-18.314529,-18.741325,-18.931137,-6.282728,-16.430454,-31.441106,-41.434116,-53.216181,-54.805972,-48.12704,-41.304169,-59.994089,-61.540296,-55.883654,-49.205949,-60.855698,-65.305933,-60.060714,-54.021816,-57.576287,-65.87616,-62.578875,-57.114922,-23.797783,-38.239723,-50.746445,-63.827053,-21.701077,-4.339634,2.4967,2.866653,-6.519802,8.796123,14.448589,14.399483,8.237961,19.926819,23.849235,22.199158,22.375099,29.494125,29.855781,27.146187,-12.446299,-26.801695,-41.301615,-49.869279,-63.445802,-74.524426,-69.405542,-62.98801,-65.166878,-79.314137,-74.346773,-65.589717,-62.181204,-76.268739,-70.514739,-61.930587,-56.805822,-69.81136,-66.441841,-59.633245,104.836612,-190.480597,-96.834366,-198.177944
75,1.085129,-0.20424,-1.535546,-0.023206,24.128815,38.262428,45.415146,51.920998,28.68132,20.911492,16.160774,16.13308,13.178925,7.052994,2.960816,1.569306,-2.391014,-5.711151,-8.763405,-9.523796,-17.362541,-19.162216,-19.525268,-19.575302,-6.322501,-16.520869,-31.304411,-41.304764,-53.551333,-54.768995,-48.069244,-41.271882,-60.157801,-61.699221,-55.991661,-49.255417,-60.841103,-65.502449,-60.219499,-54.1922,-57.297905,-65.746398,-62.523539,-57.173468,-23.974136,-38.234104,-50.532772,-63.457054,-21.988597,-5.182285,1.782441,2.450444,-6.854862,8.161423,13.992657,14.217511,7.892464,19.415612,23.577507,22.258633,22.03941,29.180592,29.662251,27.145215,-12.026865,-26.399375,-40.858932,-49.548391,-62.802226,-73.569357,-68.536706,-62.106217,-64.631859,-78.654466,-73.833902,-65.206775,-61.756451,-76.085137,-70.720039,-62.301977,-56.463923,-69.818483,-66.904924,-60.250757,106.079973,-190.950484,-98.21168,-198.466797
76,1.464752,0.210859,-2.450145,0.335941,24.347351,38.511269,45.530045,51.958649,28.951699,20.482727,15.776368,15.972107,13.431588,6.677536,2.56778,1.402108,-2.219581,-6.041702,-9.168914,-9.852813,-17.25563,-19.529503,-19.963623,-19.924255,-6.595126,-16.932383,-31.554605,-41.399875,-54.257881,-55.442749,-48.694149,-41.845136,-60.770536,-62.243634,-56.32499,-49.49473,-61.315462,-65.841051,-60.46785,-54.375821,-57.644635,-66.054521,-62.770041,-57.245556,-23.94999,-38.056652,-50.158058,-62.714768,-22.14069,-4.931637,2.206592,2.949463,-7.176293,8.231941,14.220417,14.459301,7.467544,19.316723,23.664356,22.439426,21.577938,28.993515,29.608818,27.205822,-11.923949,-26.207903,-40.547343,-49.288308,-62.409968,-73.608055,-68.594687,-62.025553,-64.163717,-78.610541,-73.516968,-64.890022,-61.337933,-76.361501,-70.935197,-62.526023,-56.096666,-70.249458,-67.430297,-60.701434,107.799213,-191.031828,-100.407337,-198.423059
77,2.964753,0.880425,-3.230027,0.661035,24.31089,38.176345,44.989128,51.452751,28.666259,19.409088,14.570686,14.881164,13.17057,5.764755,1.544059,0.549888,-2.484948,-6.838074,-10.115777,-10.817505,-17.470025,-20.331963,-20.983521,-20.979012,-7.166188,-17.70087,-32.049248,-41.824993,-55.204014,-56.520317,-50.348751,-43.954246,-61.424107,-63.342512,-57.601985,-50.865318,-61.676124,-67.014182,-61.934655,-56.049696,-57.644298,-66.645745,-64.066965,-59.123988,-24.080795,-38.037494,-49.984462,-62.120704,-22.410873,-5.090812,2.406819,3.596993,-7.560882,7.823296,14.105931,14.695485,7.083046,18.808835,23.522233,22.803498,21.224522,28.626481,29.471421,27.444615,-11.616493,-25.707842,-39.837404,-48.647922,-61.690744,-73.761004,-69.560928,-63.448114,-63.301361,-78.703467,-74.25719,-66.087952,-60.491523,-76.764788,-72.080045,-64.017712,-55.293623,-70.589096,-68.573993,-62.129544,110.983618,-190.388907,-103.417712,-197.999528
78,3.157791,1.141657,-4.251319,1.361412,24.323364,38.222191,45.226844,51.734962,29.350204,19.497985,14.250091,14.443725,14.202118,6.04866,1.648933,0.836586,-1.291947,-6.40123,-9.92997,-10.651039,-16.150635,-19.663582,-20.595658,-20.65194,-7.167762,-17.898307,-32.170899,-41.775444,-55.002578,-57.704363,-52.070877,-45.924105,-61.43954,-64.582996,-58.883246,-52.063155,-61.859787,-68.253417,-63.244756,-57.316778,-57.887737,-67.680555,-65.25746,-60.191208,-23.894108,-37.863259,-49.706475,-61.397965,-22.616913,-5.155976,2.750244,4.386715,-7.870251,7.63813,14.192298,14.947231,6.867588,18.600368,23.624244,23.258491,21.148773,28.629947,29.858425,28.273693,-11.329027,-25.16015,-38.931483,-47.717721,-61.010249,-74.337964,-71.305583,-65.857553,-62.397053,-79.074432,-75.714039,-68.364687,-59.428438,-77.184883,-73.540065,-66.090085,-53.968843,-70.522447,-69.956967,-64.384694,114.271992,-189.003234,-107.538448,-196.3941
79,4.067665,1.819708,-4.754609,2.525326,24.311165,38.022995,45.142433,51.848991,29.673568,19.588531,13.979301,13.81858,14.902794,6.216522,1.532776,0.605758,-0.415856,-6.194069,-10.100121,-11.001641,-15.188965,-19.166085,-20.364281,-20.530426,-6.887799,-17.836381,-32.128273,-41.720746,-54.270438,-59.131096,-54.723512,-49.212059,-60.598034,-66.119441,-61.069335,-54.419184,-61.077703,-69.403778,-65.034931,-59.373301,-57.233118,-68.385313,-66.789587,-62.104503,-24.032936,-37.946113,-49.592319,-60.854129,-22.818592,-4.895073,3.561253,5.922467,-8.121929,7.791756,14.722538,15.8825,6.733132,18.624768,24.082867,24.313603,21.114968,28.70842,30.493584,29.544583,-10.918782,-24.546814,-38.22939,-47.275771,-60.028585,-75.29233,-74.149767,-69.937135,-61.284119,-79.609727,-78.035891,-71.939693,-58.349278,-77.650765,-75.478299,-69.038237,-52.880802,-70.615192,-71.397647,-66.740346,118.478199,-186.765297,-112.154515,-193.450545
80,4.873466,2.989615,-5.370414,3.770844,24.29345,37.419113,44.375313,51.000527,29.679451,18.78328,12.686165,12.104279,15.366303,5.693825,0.63723,-0.395416,0.411804,-6.466919,-10.867515,-11.883728,-14.133934,-18.973778,-20.666816,-21.018974,-6.692139,-18.063629,-32.560424,-42.311435,-53.521166,-61.261713,-58.425946,-53.909857,-59.414798,-67.986166,-63.950791,-57.842164,-59.731152,-70.608752,-67.169398,-62.111162,-55.885469,-68.803421,-68.560351,-64.84853,-24.112793,-37.973236,-49.420887,-60.272187,-22.211026,-4.036377,4.747352,7.736171,-7.434117,8.380245,15.419037,16.938137,7.416469,19.068832,24.595035,25.338352,21.649933,28.879955,30.951473,30.53952,-10.552318,-24.128797,-37.696375,-46.9145,-59.190209,-76.741999,-78.131251,-75.656025,-59.946943,-80.307983,-81.260712,-77.0104,-56.745794,-77.775638,-77.821938,-73.044926,-51.069526,-70.094387,-72.787371,-69.870108,123.217478,-183.372322,-117.659116,-189.276341
81,5.413948,4.364142,-5.5528,5.086416,23.886063,36.371384,42.870117,49.484825,28.602608,17.896729,11.325028,9.835419,14.704308,4.905373,-0.674011,-2.155769,0.270447,-6.874008,-11.787254,-13.298904,-13.777107,-18.847549,-20.998169,-21.74263,-6.13917,-18.062119,-32.765213,-42.806089,-52.070034,-62.878332,-62.190785,-59.10461,-57.286717,-69.254022,-66.992773,-61.978354,-57.273678,-70.904759,-69.25562,-65.593611,-53.277699,-68.116524,-69.86999,-67.944852,-24.51456,-38.238109,-49.347999,-60.099964,-21.730361,-4.386417,4.588212,8.455811,-6.58588,8.387009,15.542382,17.8018,8.479386,19.42915,24.823597,26.269822,22.737317,29.2958,31.417637,31.51933,-9.45188,-22.984121,-36.546342,-46.19256,-57.347305,-77.5111,-82.036892,-81.758983,-57.700337,-80.462973,-84.707349,-82.736581,-54.264441,-77.192092,-80.342635,-77.783527,-48.377085,-68.672377,-73.847508,-73.103022,128.258697,-178.809872,-123.584645,-183.991617
82,5.202462,5.617843,-5.796409,6.461254,23.501907,35.342582,41.346267,47.426559,27.666641,17.243042,10.37471,8.251556,14.095184,4.133697,-1.80201,-3.45179,0.021011,-7.535729,-12.818024,-14.57119,-13.740006,-19.172539,-21.693123,-22.594597,-5.410732,-17.803271,-32.890458,-43.173807,-50.079433,-63.648975,-63.742804,-60.978146,-54.743574,-69.402452,-68.205933,-63.790803,-54.493761,-70.092514,-69.354944,-66.255716,-50.5172,-66.744379,-69.4309,-68.089331,-25.128559,-38.551735,-49.13475,-59.902313,-20.799809,-5.042507,3.584198,7.897613,-5.333599,8.252678,15.162414,17.914341,9.722042,19.918568,24.768631,26.491173,23.705749,29.725822,31.690304,32.03175,-8.406605,-21.719306,-35.24226,-45.261261,-55.101053,-77.553327,-84.499997,-85.933715,-55.204365,-79.955732,-86.875765,-87.103842,-51.678917,-75.914179,-81.790543,-81.653979,-45.767778,-66.821101,-74.084056,-75.594217,132.942267,-173.654221,-129.899946,-177.992555
83,5.452171,6.186141,-5.21648,7.161807,22.33818,33.171593,38.533928,43.531311,24.940681,15.032158,8.35112,6.181206,11.452286,1.601784,-4.065994,-5.317772,-2.247482,-9.789597,-14.880203,-16.252052,-15.445702,-21.154816,-23.774986,-24.40773,-5.143989,-17.617843,-32.254565,-42.34236,-46.829459,-62.453252,-62.746968,-59.740862,-50.531554,-67.50531,-66.359756,-61.717694,-49.711817,-67.26337,-66.442647,-63.140798,-45.587622,-62.788983,-65.760725,-64.733351,-25.778252,-38.921837,-48.759911,-59.535679,-20.326378,-5.946694,2.036178,6.432746,-4.464295,7.729866,14.310836,17.616062,10.508045,19.895473,24.176982,26.301372,24.168663,29.62841,31.429058,32.100505,-7.370474,-20.116352,-33.305505,-43.264741,-50.825341,-75.310973,-84.134239,-87.178682,-50.656912,-77.444675,-86.701639,-88.841954,-47.311773,-72.768216,-81.033309,-83.253741,-41.901138,-63.718369,-72.196486,-75.4118,137.922215,-169.176427,-135.588649,-172.539095
84,2.855049,17.52213,-4.720288,6.323968,22.564819,32.391655,36.499077,39.785774,23.677483,13.415497,6.82592,4.669991,9.993668,-0.09375,-5.576477,-6.531807,-3.784401,-11.433426,-16.196205,-17.319397,-16.824371,-23.109604,-25.882439,-26.393166,-8.72801,-23.329216,-38.642114,-48.950694,-51.554928,-68.790092,-68.180819,-64.228953,-54.637836,-72.939852,-71.329571,-66.0915,-53.220037,-71.873389,-70.819843,-66.850215,-48.63728,-66.363801,-69.595231,-68.601176,-25.875274,-38.823681,-48.30051,-59.094703,-19.923763,-7.165146,0.005974,4.430844,-3.916603,7.137257,13.580143,17.39542,10.786835,19.824932,23.698735,26.100003,23.965348,29.591927,31.452359,32.351658,-6.009199,-16.96843,-28.820236,-37.984834,-43.187229,-68.611776,-78.707567,-83.16594,-42.525166,-70.583469,-81.775525,-85.664289,-39.414612,-65.535333,-75.929922,-80.496853,-34.754312,-56.646756,-66.126689,-71.149009,140.400307,-153.426738,-140.685894,-167.987568
85,1.491417,17.457051,-2.053653,5.813498,22.43811,31.318657,33.904678,35.137299,20.699341,10.897774,4.45388,2.201523,6.699028,-3.35527,-8.395432,-8.965141,-6.921227,-14.302689,-18.626679,-19.498856,-19.393341,-25.726524,-28.385765,-28.69503,-10.538467,-26.994989,-42.906332,-52.765464,-53.756669,-72.015627,-70.393722,-65.120897,-56.118197,-75.166491,-72.733713,-66.26943,-54.009963,-72.806789,-70.923426,-65.697946,-48.897993,-66.040305,-68.571844,-66.592527,-25.929074,-38.876347,-48.411667,-59.347733,-19.642731,-9.713826,-4.165123,0.021915,-3.409596,5.674839,10.52631,14.373573,11.167957,19.059127,21.383113,23.61343,23.968505,29.371158,29.959064,30.257789,-3.268628,-11.421961,-21.291147,-29.317246,-33.498379,-55.070731,-63.567066,-67.957767,-33.742108,-58.601226,-68.656417,-72.087631,-31.88502,-54.754407,-64.371525,-69.089884,-28.711394,-47.251869,-55.533581,-60.243733,141.804388,-138.130303,-142.826883,-164.334686
86,-0.750115,24.056674,-1.124062,17.500762,21.898694,29.116162,29.78579,28.264824,16.887314,5.885617,0.183953,-1.096962,2.506897,-8.99002,-12.790557,-12.137798,-11.153137,-19.658512,-22.729385,-22.333248,-23.235523,-30.589599,-32.527622,-31.892807,-14.539243,-33.431036,-50.075926,-59.321148,-59.299756,-78.551685,-74.724051,-67.392622,-60.430329,-80.431797,-75.70783,-67.063308,-57.098201,-76.592935,-72.312663,-64.731955,-50.779626,-67.849232,-68.432445,-64.434564,-25.318159,-37.743084,-46.879452,-57.835047,-18.43844,-8.860777,-4.45784,-1.130253,-2.241108,6.920231,10.434122,13.529303,12.089355,20.224245,21.537174,23.175367,24.44458,30.267632,30.111425,29.874819,-4.030876,-12.415677,-22.317269,-29.95584,-30.682772,-51.411118,-58.38248,-62.043227,-30.955791,-55.363996,-64.626939,-67.556479,-29.440846,-51.911945,-61.043511,-65.627234,-26.905833,-44.843676,-52.68657,-57.235094,141.488582,-116.237607,-143.516636,-148.997902
87,-3.211624,30.352995,-0.225471,29.01298,21.017315,26.144291,24.232705,19.756256,12.131951,-0.895008,-5.324066,-5.3199,-2.622345,-16.362213,-18.413589,-16.395778,-16.3106,-26.668521,-27.865905,-25.795612,-27.948314,-36.611366,-37.213451,-35.297058,-20.321021,-42.385664,-59.934598,-68.393942,-68.03899,-88.528891,-82.588654,-73.427276,-67.353819,-88.818053,-81.339187,-70.376002,-62.201163,-82.606242,-75.712743,-66.008766,-53.998635,-71.343614,-69.502771,-63.488016,-23.947535,-35.434159,-43.738209,-54.669634,-16.618315,-4.612399,-0.612958,1.483394,-0.508095,11.188922,13.887434,15.67682,13.747856,23.692617,24.652896,25.49624,25.967113,32.794372,32.309503,31.594133,-7.795554,-19.688109,-31.889284,-40.244949,-34.461526,-58.214957,-64.352959,-66.945385,-33.774632,-61.274409,-70.525826,-72.951125,-31.571544,-57.194735,-66.560199,-70.710411,-28.62677,-49.207142,-57.576377,-62.027599,139.609193,-86.708113,-142.409872,-120.808423
88,-5.841957,35.697002,1.726409,28.281167,19.909035,22.30735,16.949387,9.809166,6.073631,-10.77309,-15.111385,-14.52951,-8.801514,-26.562572,-27.906441,-25.054996,-22.153839,-36.127052,-36.439075,-33.319496,-33.178665,-44.473434,-44.541115,-41.848514,-25.876909,-51.365655,-70.212404,-78.69128,-76.224426,-98.199885,-92.216744,-82.841043,-73.004692,-96.127277,-88.590911,-77.258749,-65.595814,-87.175707,-80.443586,-70.613768,-55.212539,-73.335361,-71.351979,-65.147237,-22.65949,-32.823108,-40.676742,-50.665506,-10.820474,1.246611,3.505543,3.983597,5.214913,16.941079,17.520625,17.71522,18.671128,28.279158,27.552578,27.107924,29.57967,35.738606,33.740679,31.909464,-10.294859,-24.789206,-38.607627,-47.869159,-39.956581,-61.551076,-64.846474,-65.481384,-38.783816,-63.783819,-69.896303,-69.793885,-35.507015,-59.03001,-65.436459,-66.69648,-31.179298,-50.043557,-56.270755,-58.320953,135.754143,-50.766965,-138.696556,-92.28311
89,-6.199539,29.62066,2.865681,37.107885,16.469948,15.488686,6.588593,-2.868576,-3.569115,-24.980244,-30.059704,-29.24279,-18.069649,-41.013828,-41.952965,-38.029598,-30.148407,-48.991859,-48.921741,-44.569176,-39.658676,-54.726517,-54.864807,-51.389751,-27.701417,-54.162396,-72.683502,-80.899314,-74.172278,-97.483963,-93.429991,-85.214019,-67.561449,-92.184362,-86.133523,-75.701255,-57.543085,-80.313637,-74.987295,-66.27721,-45.115004,-63.905508,-62.623061,-57.224098,-20.76349,-28.903988,-35.297493,-43.802908,-3.507374,9.852482,10.297337,8.8104,12.625111,24.959427,23.049557,21.429165,25.433396,35.127846,32.344643,30.348313,35.174074,40.883297,37.022936,33.895466,-14.889482,-33.656022,-50.167375,-60.852982,-50.59439,-70.947231,-71.589987,-69.976672,-48.345796,-71.61228,-74.910266,-72.503002,-43.177342,-65.507393,-69.063441,-67.244388,-36.585265,-54.844797,-59.523102,-59.344096,131.87241,-21.527892,-133.513069,-55.556812
90,-8.05941,35.779754,2.026566,45.37734,11.904831,6.648662,-6.03606,-17.634956,-13.545548,-41.030434,-45.832031,-43.600216,-27.335026,-56.561371,-56.761116,-51.478272,-38.244083,-63.220396,-62.147244,-56.108528,-46.332859,-66.312498,-66.108044,-61.334713,-32.059097,-59.305764,-76.877176,-84.469658,-73.125049,-97.081193,-94.696147,-87.433353,-62.904087,-88.416133,-84.390806,-75.304672,-50.369221,-74.355321,-71.258731,-63.943674,-36.258908,-55.968823,-56.229982,-52.15898,-18.005488,-23.188191,-26.919834,-33.177206,5.106731,22.308586,21.666526,18.214868,21.097149,36.232338,33.220939,30.023449,33.126537,44.943592,41.277305,37.888035,41.670827,48.637401,44.253519,40.412578,-22.516022,-46.91633,-67.035754,-79.567368,-64.88329,-88.841325,-89.116881,-86.048113,-59.691725,-85.599036,-88.744486,-85.903308,-51.210923,-76.500443,-79.533634,-76.230518,-41.30321,-62.824627,-67.976092,-67.165697,126.095072,12.523932,-129.204431,-11.907402
91,-8.855919,34.889683,3.012457,38.918765,6.338871,-3.631439,-20.048984,-33.592392,-24.447212,-58.318462,-62.398453,-58.306744,-37.173992,-73.001244,-72.524757,-65.982777,-46.580875,-78.026945,-75.99329,-68.417759,-52.834831,-78.077974,-77.68618,-71.714138,-35.238406,-62.366125,-78.157554,-84.295644,-67.994446,-91.213947,-90.979975,-84.870985,-54.190225,-79.133793,-78.341265,-71.184429,-39.517546,-63.61025,-63.914748,-58.396209,-24.537044,-44.083779,-46.938843,-44.707406,-14.722184,-16.684611,-17.161583,-20.192334,13.486141,34.550542,32.434616,27.21389,28.762504,47.262027,42.968067,38.560123,39.72999,54.703748,49.896818,45.407489,47.030971,56.490566,51.664632,47.264545,-27.174865,-54.126635,-75.278918,-87.604405,-70.393068,-94.305458,-93.899125,-89.917718,-62.397569,-88.007969,-90.302599,-86.753707,-51.316473,-76.755176,-78.755546,-73.931033,-39.16636,-61.425235,-66.245595,-64.398918,119.171854,45.458538,-124.259273,25.056286
92,-8.700027,31.505481,3.998348,32.460191,1.676113,-12.587174,-31.862446,-46.667519,-33.789414,-69.986996,-73.424309,-68.188557,-45.423878,-85.776661,-88.714783,-83.91449,-52.963978,-89.397601,-89.929699,-83.501656,-56.878258,-85.668062,-88.056301,-83.727562,-35.938045,-62.287036,-76.239081,-79.790545,-60.605486,-81.381492,-83.843364,-80.01373,-43.681028,-65.858286,-69.746523,-66.435286,-27.300642,-49.1039,-53.493422,-51.360615,-12.369071,-29.576595,-34.81467,-35.275704,-10.913578,-9.393248,-6.02274,-4.84829,21.630855,46.578352,42.601604,35.807464,35.621177,58.048496,52.290939,47.039188,45.243753,64.408315,58.20318,52.906677,51.254505,64.442791,59.256277,54.451366,-28.866012,-55.286938,-74.896868,-84.964094,-67.123723,-87.339632,-85.936718,-81.585488,-56.46333,-78.839079,-79.584604,-75.054199,-43.493993,-66.271592,-66.729178,-60.345933,-30.174716,-50.64662,-54.331613,-51.043761,111.491324,73.820145,-119.241428,54.372603
93,-8.350892,32.365425,3.991402,37.608625,-5.686614,-25.733196,-47.955516,-63.550163,-45.542404,-85.729476,-93.172347,-91.735942,-54.583362,-99.103134,-106.905635,-106.762699,-59.233394,-99.454874,-100.676845,-94.291007,-60.292156,-92.702939,-95.540428,-90.68716,-36.285527,-59.830727,-69.026697,-68.370689,-51.936091,-68.445712,-73.265962,-72.375225,-32.376963,-50.540362,-58.082558,-58.269949,-14.542972,-33.320698,-41.152654,-41.768908,0.758755,-14.075386,-21.770058,-24.277387,-5.867478,0.158197,8.783065,13.855865,26.247573,57.348947,55.696758,49.051414,38.752933,67.941009,64.50682,59.336128,47.501878,73.651628,68.922769,63.101154,52.985618,72.217758,69.005888,64.302017,-31.703887,-57.790429,-75.198599,-82.457477,-61.302925,-81.050865,-81.709581,-78.351075,-47.644685,-70.261619,-73.788957,-71.332242,-33.299339,-56.9791,-60.059158,-55.447915,-19.58699,-40.728676,-46.582436,-44.86709,103.150754,102.619709,-115.239704,88.415367
94,-7.896045,31.72717,2.019538,35.468893,-13.553948,-39.406271,-64.057657,-80.183859,-55.89069,-98.880615,-106.294092,-105.143109,-61.596268,-108.892468,-117.97225,-119.33075,-63.306919,-106.16486,-106.429281,-98.991577,-61.584847,-96.309912,-98.555145,-92.748534,-35.942744,-56.220264,-61.000947,-56.09404,-44.537688,-55.425835,-60.857504,-61.765658,-23.175522,-35.803071,-45.110031,-47.685674,-4.174121,-18.319454,-27.756933,-30.214461,11.585968,0.7731,-7.920465,-11.567145,4.907936,18.690096,31.895119,37.868649,35.587469,72.374943,71.962624,64.958033,42.252034,78.590435,77.569949,72.175844,46.465422,79.84726,76.973998,70.298052,48.502001,73.876786,73.083281,68.367102,-23.759311,-45.362485,-62.401561,-70.77625,-46.913971,-67.955288,-68.301439,-64.287946,-38.424496,-61.55943,-64.021632,-61.411578,-29.579537,-52.25665,-53.399268,-48.513615,-20.822983,-40.053074,-43.591904,-41.484208,94.753527,131.157195,-113.721348,120.694576
95,-7.216393,29.836883,0.590618,26.995459,-21.444236,-52.768346,-79.365389,-95.509271,-64.95924,-109.708717,-114.965864,-112.001243,-66.6347,-115.522865,-123.320989,-123.435493,-65.128441,-109.670957,-108.474752,-99.41399,-60.650631,-96.774135,-98.433185,-91.830065,-33.928789,-50.425217,-51.427547,-43.495953,-37.083161,-42.172444,-48.080474,-50.85362,-14.640696,-21.115134,-31.428601,-36.23316,5.443286,-3.143868,-13.449197,-17.852773,22.015763,16.296168,7.076239,2.156546,13.21629,32.507178,49.271462,57.956898,43.844702,83.713738,87.884823,84.310713,45.843132,86.704663,91.185225,89.453745,46.469588,84.708676,87.597651,84.759802,45.670962,74.824425,78.418036,76.792117,-20.681473,-37.958735,-51.434175,-57.240406,-33.000171,-49.33095,-49.563079,-46.198293,-25.173729,-43.597959,-45.508316,-43.328668,-17.683969,-35.274244,-36.365429,-32.718268,-10.473151,-25.978865,-28.999368,-27.784787,86.950063,159.341112,-113.717801,146.037069
96,-5.226493,26.908791,3.953247,25.936966,-26.293088,-61.071362,-88.631396,-104.414143,-70.91759,-115.73457,-120.758194,-118.030844,-70.155562,-119.205632,-127.530516,-127.921624,-66.703114,-111.634203,-110.681935,-101.453425,-60.763625,-97.065234,-99.468356,-93.539006,-26.479015,-37.266426,-34.549139,-24.691192,-27.173911,-27.44271,-33.684976,-38.468882,-6.999038,-8.23538,-18.274071,-24.864735,11.367016,7.941214,-1.798116,-7.827408,26.434771,24.601222,15.947075,10.153114,18.796389,41.322871,59.786093,69.993016,48.894528,89.933402,97.021048,95.334138,48.231749,91.175995,98.478087,97.814925,46.664303,86.985718,93.076327,91.513018,43.841486,74.239054,80.400439,80.016741,-16.034519,-28.582771,-38.474316,-42.226777,-19.080883,-30.37307,-30.021568,-26.996217,-13.111927,-25.556087,-26.405908,-24.500408,-7.850045,-18.726751,-18.631044,-15.939041,-2.713973,-12.294883,-13.354662,-12.574112,81.02932,184.948622,-110.458804,170.672754
97,-4.188996,26.474835,7.315876,24.878476,-30.004543,-67.079761,-95.443411,-110.971836,-76.250433,-123.815506,-130.005741,-128.405725,-74.32152,-124.497551,-131.129934,-130.417763,-70.225742,-116.068502,-113.581009,-103.105093,-64.210161,-101.538088,-103.203569,-96.675819,-14.894724,-17.800338,-10.651285,-0.26649,-12.984926,-9.737373,-16.10913,-22.124636,2.010612,4.357128,-3.884823,-10.485646,15.909648,15.961265,7.734381,1.58743,27.262646,27.014478,18.757064,12.828883,21.648234,45.137175,63.439013,73.977002,50.736947,91.033934,99.371298,98.028306,49.417883,92.004433,99.448535,97.259383,47.049569,86.678387,93.410025,90.5577,43.013575,72.120673,79.03049,78.040976,-9.818452,-17.234596,-23.521986,-25.735367,-5.15611,-11.081649,-9.676907,-6.681722,-2.239095,-7.433817,-6.714413,-4.9268,-0.077769,-2.614173,-0.196113,1.824064,2.454548,0.998868,3.34221,4.147812,76.280651,210.531852,-103.702601,194.659625
98,-0.917106,22.202422,3.305403,21.61278,-32.369855,-69.642003,-97.349688,-111.914658,-77.915961,-125.048813,-126.558987,-119.676814,-74.793131,-124.224427,-126.602355,-120.202206,-70.005559,-115.393839,-112.916794,-101.869258,-63.561327,-99.524993,-102.166781,-96.898156,-11.262874,-10.96729,-1.82126,9.289399,-5.672467,-0.573883,-6.911572,-12.752417,8.924164,13.787416,6.232562,-0.553845,22.236422,25.723079,18.370865,11.828971,32.797287,35.992889,28.994246,23.059024,24.904009,49.206168,66.951502,77.428912,54.997324,95.590874,103.370579,101.571957,52.135603,95.195086,101.667469,98.088295,48.494305,87.852202,94.951721,91.774578,43.294636,71.745003,79.361121,78.487656,-5.584399,-8.569809,-11.983761,-12.870317,5.989771,5.358559,8.679045,12.014389,7.48452,9.282686,12.597448,14.817227,7.829946,12.994997,18.62154,20.994868,8.429481,13.650095,19.505226,20.941553,75.118138,231.998193,-100.642605,215.536324
99,1.669086,17.442825,1.867596,17.217213,-33.398792,-68.891985,-95.162739,-109.121904,-77.39982,-122.894417,-126.547102,-121.978472,-73.988325,-121.562244,-126.867519,-123.443298,-68.674038,-112.132507,-114.639113,-109.433584,-61.668348,-94.784804,-100.636522,-100.295752,-7.949236,-5.158148,5.627129,16.898537,2.230097,8.286423,2.62123,-2.875396,16.242062,22.655719,16.533493,10.317005,28.331712,35.005666,30.508457,25.345938,37.059849,43.789705,40.541998,37.024534,23.295736,45.698221,63.507231,76.390394,55.670236,96.999836,106.395916,105.285175,54.651632,97.849691,104.734703,101.035789,52.648293,91.465868,99.968159,97.947864,48.81459,76.762802,85.914465,86.246773,-12.517846,-14.308509,-11.765399,-6.647383,10.135212,18.57411,21.18417,22.6362,19.319036,30.217323,32.191459,32.300634,25.225012,37.538847,41.654061,42.216336,29.416852,39.587899,44.301166,44.382034,76.635567,248.894996,-98.926666,232.207515
100,2.67469,12.302719,1.35561,17.960934,-32.783718,-65.535353,-89.553589,-102.155119,-74.757562,-117.009224,-125.702345,-127.139837,-72.320554,-116.379867,-127.266803,-130.425453,-67.461742,-107.259659,-115.54949,-117.433874,-60.681112,-89.810411,-98.872736,-103.63587,-4.117857,1.49005,14.133434,25.870959,12.46187,17.995293,12.223717,6.718766,24.868534,31.529995,26.432171,20.569205,34.666922,43.642524,41.975683,38.444769,40.665641,49.433928,50.008843,49.287685,24.019346,47.220194,66.450033,79.999941,57.229048,99.588066,108.676575,106.574432,55.978472,100.133005,106.189236,100.744663,53.809067,92.871752,100.264938,96.783783,49.964172,78.333664,87.523355,87.441204,-12.294951,-11.94779,-6.146419,1.69973,16.761267,28.219031,29.905725,30.206048,28.45012,42.524872,43.476508,42.093768,34.995608,50.270634,54.215331,53.965834,38.667225,51.976391,56.763486,56.367049,79.2388,260.872146,-97.642513,249.84288
101,2.045174,9.52179,-2.077063,12.956731,-33.356392,-64.575714,-86.611588,-97.770825,-71.682919,-111.618382,-124.738003,-131.095848,-68.920223,-110.423573,-126.065312,-134.531857,-63.765312,-100.729466,-114.248154,-122.297962,-56.758885,-82.874085,-94.5149,-103.393147,-5.495379,0.648466,14.128309,25.051105,19.321988,24.000669,17.925169,12.313699,32.818442,39.38282,34.455125,28.807049,42.50397,53.161943,53.161819,50.849069,47.773886,59.536005,63.234559,65.084082,27.010723,52.172596,73.042568,87.532831,61.135443,103.196955,113.845236,113.822102,57.976982,102.242541,110.437163,107.443251,54.196576,93.015524,102.087176,100.88043,49.277064,77.839617,88.402645,90.077345,-12.691247,-10.408254,-1.639782,7.86696,21.679687,35.781956,37.827,38.413746,35.915534,52.640744,53.82174,52.332968,43.649915,60.78082,64.778393,64.516553,47.533813,62.087619,66.138415,65.40017,81.288935,270.176296,-99.714615,262.581971
102,1.330765,5.498035,-4.764084,8.309556,-35.667275,-65.514519,-85.230824,-94.924519,-67.964127,-104.578492,-121.511044,-132.202801,-63.250626,-101.926209,-121.273957,-133.927884,-57.037537,-91.206105,-109.169941,-122.375187,-49.546349,-73.292679,-86.971802,-98.932881,-11.501237,-6.306582,7.483322,17.716131,23.838129,30.261592,24.976633,20.083543,40.381188,48.227195,42.788811,36.780398,51.715673,63.765933,63.851161,61.469904,58.011078,73.095049,78.474967,81.507864,31.265591,59.56667,82.769806,98.905627,66.888811,108.44842,122.264265,126.147446,60.270985,104.750479,118.012373,120.63719,53.545636,92.431303,105.79743,109.65045,46.754568,76.010668,89.225499,94.346335,-14.513379,-10.879879,0.136554,10.112599,23.407203,40.40548,43.228505,44.399262,40.72289,59.80494,61.552891,60.254421,50.485266,68.710671,72.285674,71.929121,55.475224,70.131585,72.677561,71.368705,82.643155,275.489803,-104.455244,270.706999
103,-0.921204,2.803505,-0.614061,6.242954,-36.169785,-64.279129,-82.082336,-91.731995,-63.675957,-95.832985,-116.000324,-131.291657,-58.450676,-93.706169,-116.354908,-134.023613,-52.363747,-83.857716,-104.708965,-121.763603,-45.453438,-67.274483,-82.240631,-96.119671,-8.275617,-1.098527,11.804765,19.809335,32.467984,41.264207,38.993583,35.627753,45.655872,55.286663,52.285346,47.305793,53.254136,66.029074,67.773474,65.720495,55.987802,71.14927,77.802247,81.425403,33.46693,63.554009,88.045441,105.283379,69.718391,109.641323,125.568272,132.944859,60.690491,103.996433,120.888783,128.260151,51.696156,89.463776,105.70118,113.512997,43.354569,71.678673,86.057716,93.576702,-14.389303,-10.045211,2.078988,11.849484,24.761396,43.229105,47.223368,49.280595,43.364721,63.390552,66.474306,66.235418,54.088606,72.80896,76.604264,76.471117,59.565991,74.498933,76.518418,75.027059,81.795319,278.176182,-104.995937,276.832827
104,-3.074364,1.643339,3.294331,4.112528,-35.088249,-62.277397,-78.256828,-87.002289,-62.644706,-88.723057,-103.218292,-113.739692,-57.598846,-86.113723,-101.595646,-113.316856,-52.225158,-78.029331,-92.148891,-102.798443,-46.413116,-64.313163,-75.105972,-84.325161,-2.190805,7.815651,20.392419,27.975963,38.277327,49.436503,50.017649,48.578346,47.130978,59.57749,59.473872,56.114181,51.146508,65.534885,68.149027,65.919603,51.117201,66.172989,72.843368,75.991428,34.156654,64.722564,89.640518,107.919765,69.69469,106.733757,123.71054,133.894958,59.282604,100.224563,119.344139,130.639114,48.870872,84.322116,102.083873,113.008232,39.363155,65.40208,79.755077,89.107807,-12.368929,-7.81244,4.44561,13.590537,25.54312,43.980891,49.557645,53.016817,43.62858,63.23872,68.258695,69.849003,54.154815,72.866524,77.665556,78.271747,59.467351,74.567562,76.854563,75.572846,78.787479,279.725457,-101.635082,280.851291
105,-3.445701,1.502092,5.764686,3.030117,-32.706276,-58.148094,-72.60981,-81.243988,-61.39238,-82.76627,-91.170388,-95.914021,-56.811081,-79.956173,-88.059185,-92.495808,-52.143792,-72.926113,-80.081921,-83.68467,-47.382019,-61.985321,-68.683342,-73.085518,3.392678,15.48478,27.928414,35.186236,40.259626,54.714088,58.855231,59.478947,45.564455,61.141268,64.568725,63.359788,46.714841,62.593996,66.641242,64.992049,44.495482,59.897541,66.674624,69.587971,33.777123,63.610199,87.699841,106.028481,68.140137,103.196068,119.77121,130.678826,57.234764,96.301243,115.672737,128.533173,46.297497,79.840084,97.756954,109.778504,36.43277,60.658905,74.64513,84.651627,-11.249492,-6.837536,5.175611,13.379277,25.822948,44.494803,52.052103,57.221193,43.22004,63.222011,70.620007,74.260243,53.632209,72.731056,79.237388,81.182118,59.009213,74.753407,78.422443,78.253025,75.410574,281.154375,-95.8016,283.808234
106,-3.065369,0.070716,5.55074,2.061266,-30.631325,-53.943397,-66.759476,-75.111969,-60.842445,-76.995758,-79.457405,-78.907642,-56.610558,-73.746746,-74.343693,-72.079422,-52.329117,-67.477547,-67.343868,-64.165569,-48.160171,-58.575943,-60.940075,-60.728027,8.740919,22.755842,35.204429,43.303699,41.360031,59.25183,66.884243,69.704063,43.386741,62.366879,69.230956,70.008344,42.260562,59.962009,65.511049,64.49707,38.508706,53.876518,60.577006,63.027744,32.706378,62.0041,85.606739,103.900783,66.063617,100.263462,116.225978,126.685604,54.94123,93.059143,112.238857,125.315151,43.786399,76.360485,94.096595,106.188571,33.776195,56.961341,70.634925,80.701148,-11.090818,-7.113314,4.48597,12.28585,25.011733,44.109468,52.182766,57.585409,42.227921,62.326568,70.409413,74.440653,52.688008,72.145118,79.289233,81.384968,58.098863,74.602525,79.245415,79.411079,72.432381,281.160636,-90.163684,285.805045
107,-2.141647,0.086574,4.411502,0.894813,-28.277253,-50.183716,-62.061402,-70.103691,-61.157135,-73.304215,-69.727467,-63.755162,-57.489098,-68.923256,-62.060257,-53.485577,-53.29509,-62.888741,-55.445355,-45.840672,-49.049149,-54.990624,-52.868317,-48.287064,13.197125,27.852165,39.697488,48.450806,40.624954,59.225586,68.632249,72.490266,40.375396,61.286284,71.10045,73.932163,37.87811,57.323747,64.652484,65.000003,33.385756,48.862076,55.936969,58.734646,31.864964,60.698628,83.686879,101.554253,64.169701,97.708489,113.289826,123.481133,53.002842,90.264542,109.052422,122.075455,41.833912,73.729214,91.175949,103.255303,31.68948,54.193085,67.775345,78.1031,-11.133982,-7.473566,3.945506,12.015704,24.424795,43.584787,51.493842,56.568923,41.385373,61.166043,69.217321,73.120281,51.714019,71.203622,78.636494,80.743616,56.992987,73.888345,79.107811,79.374535,70.397581,281.204951,-85.645335,286.657599
108,-1.896332,0.785935,3.156865,0.508935,-25.706223,-46.49144,-58.058487,-65.556839,-59.681053,-69.079388,-61.203873,-51.34552,-56.592178,-63.811226,-51.58445,-38.376892,-52.609726,-57.942261,-45.617638,-32.137207,-48.300179,-50.612526,-45.432541,-38.384194,13.400234,27.076889,37.831797,46.225469,37.900525,55.98506,65.353141,69.461692,37.66827,59.082942,69.69501,73.7303,35.924623,56.504937,64.673121,66.339505,32.551322,48.903337,56.731647,60.465126,31.298378,59.655841,82.24245,100.117,62.268848,95.188419,110.608371,120.626552,51.066696,87.926822,106.486644,119.410457,40.058532,71.858539,89.255641,101.39661,29.969696,52.627326,66.513061,77.386081,-11.157386,-7.611134,3.728749,12.048604,23.571552,42.643043,50.403279,55.322379,40.465353,59.908928,67.709524,71.368866,50.765087,70.193298,77.569743,79.54031,56.060531,72.883011,78.176626,78.464396,68.608189,281.977146,-82.38153,287.152794
109,-9.021217,1.819797,2.076999,0.083165,-20.417084,-38.777001,-50.933464,-59.992756,-56.649868,-61.900647,-50.404633,-38.942254,-55.8154,-58.019051,-42.630066,-27.076973,-52.980881,-54.285817,-38.705521,-23.481789,-49.464306,-53.87035,-50.760384,-45.66972,14.024655,27.758465,39.983503,49.196467,35.628765,54.279452,62.961276,67.002778,35.532891,56.241485,66.635697,70.934946,33.892751,53.831156,62.034723,64.785692,31.280795,47.011922,55.90718,62.073663,30.450691,58.366196,80.633858,98.397949,60.477699,92.896637,108.382553,118.580315,49.226189,85.769394,104.237938,117.09494,38.273014,70.223339,87.695137,99.874764,28.221371,51.201073,65.334629,76.520462,-11.302993,-7.785998,3.446995,11.765961,22.917072,41.893764,49.434502,54.067389,39.887679,58.940991,66.403701,69.707459,50.300255,69.395978,76.352458,77.895267,55.715977,72.39338,77.580439,77.833307,59.668568,283.793584,-80.222935,287.2326
110,-9.89399,4.013468,1.023903,-0.035124,-17.741936,-35.18375,-47.773018,-57.714134,-54.116558,-54.844814,-41.524841,-29.430153,-53.135422,-50.273861,-33.108673,-16.665985,-49.734352,-46.361218,-29.087883,-13.460815,-45.381237,-47.965897,-43.789375,-38.413799,16.315088,30.58183,42.10873,51.090253,36.298362,53.295644,60.52805,64.318389,33.674451,52.039023,61.640261,65.926382,29.279822,46.912146,54.956533,58.227057,24.10431,37.647633,46.001994,52.304167,29.92115,57.431145,79.408333,97.136673,58.740315,91.127564,106.87104,117.375549,47.440395,84.08709,102.765907,115.770767,36.519116,68.898113,86.522873,98.857796,26.540279,49.895634,64.161392,75.428146,-11.382786,-7.880229,3.400855,11.784017,21.998165,41.073534,48.478063,52.929502,39.223356,58.156588,65.460575,68.514725,49.913254,68.93427,75.584333,76.757825,55.487488,72.215489,77.218434,77.205071,49.858023,287.808994,-79.115587,287.199418
111,-6.322037,1.035764,0.859428,0.204938,-16.269768,-34.515289,-49.641826,-62.397629,-55.635212,-52.351089,-36.019455,-22.333259,-54.93885,-47.801628,-28.089683,-9.858513,-51.19376,-44.318458,-24.387176,-7.386978,-46.329986,-50.890331,-47.885021,-43.270225,19.971701,35.543908,47.658338,56.833906,38.296371,54.282194,60.434029,64.336976,33.183856,49.747046,58.993071,63.7306,26.09423,42.201763,50.041595,54.073613,18.906754,31.214043,39.912465,47.729203,29.413239,56.434628,78.155926,95.939118,57.507981,89.950768,105.894722,116.589432,46.275708,83.032425,101.930764,115.011429,35.402836,68.252667,86.008759,98.416214,25.489403,49.426266,63.841015,75.341584,-11.538201,-8.126787,3.184184,11.563011,20.881037,40.08281,47.419623,51.735631,38.256838,57.149364,64.493266,67.589864,49.201345,68.10301,74.571872,75.696483,55.016381,71.783866,76.65727,76.596569,43.621702,288.867313,-78.170443,287.426911
112,-7.078811,1.431017,0.741017,0.260117,-14.232857,-32.122033,-47.96521,-61.6348,-56.571522,-49.49374,-30.711068,-15.488457,-56.14634,-45.097527,-23.048035,-2.789612,-51.984238,-41.739556,-19.375855,-0.951874,-46.349648,-51.361679,-48.295361,-43.387814,24.725494,42.153251,54.852606,64.382943,40.490424,55.866277,61.468126,65.513185,32.434576,47.743887,56.8611,62.105254,22.298345,37.387947,45.825413,51.225782,12.334978,23.623225,32.490559,41.287017,29.05743,55.725105,77.229904,94.95908,56.612022,89.078281,105.068699,115.806347,45.458507,82.238651,101.20364,114.27206,34.659519,67.825184,85.686298,98.145985,24.818172,49.274597,63.786758,75.388893,-11.71677,-8.410641,2.894427,11.187248,19.951373,39.147872,46.503815,50.862876,37.435817,56.176943,63.570147,66.794223,48.580074,67.288473,73.677504,74.857727,54.551389,71.103624,75.867026,75.793209,36.624854,290.328587,-77.347463,287.717285
113,-9.864029,2.41412,0.66037,0.250941,-10.221497,-25.480431,-39.736794,-53.006424,-54.340268,-42.787571,-21.140923,-4.090371,-55.074246,-38.984974,-14.0915,8.499664,-51.473648,-36.655335,-11.814652,8.245651,-45.93235,-49.721901,-45.755677,-39.90057,29.755658,49.297836,63.59397,74.655136,41.413346,56.793694,62.224395,66.599634,30.796992,45.771023,55.36495,61.099414,18.303859,32.963012,42.597719,49.223501,6.250673,17.006804,26.439056,36.231856,28.719532,55.182827,76.565414,94.176487,55.898746,88.490421,104.510776,115.231327,44.802784,81.611881,100.633175,113.741832,34.054069,67.33089,85.230777,97.820629,24.273662,48.903362,63.407203,75.090053,-11.971836,-8.774165,2.557332,10.783302,19.415824,38.542422,45.900984,50.282546,36.96003,55.462257,62.894265,66.202704,48.216303,66.609281,73.009649,74.29102,54.233992,70.700888,75.478455,75.394166,26.833958,292.775892,-76.61396,288.001411
