takenoko1/special-research/HandMotion_SimilarSearch_自分用/NewProject/handData/key/d4_feature_d3/58.csv
,vel_0x_L,vel_0y_L,vel_0x_R,vel_0y_R,posFromWrist_1x_L,posFromWrist_2x_L,posFromWrist_3x_L,posFromWrist_4x_L,posFromWrist_5x_L,posFromWrist_6x_L,posFromWrist_7x_L,posFromWrist_8x_L,posFromWrist_9x_L,posFromWrist_10x_L,posFromWrist_11x_L,posFromWrist_12x_L,posFromWrist_13x_L,posFromWrist_14x_L,posFromWrist_15x_L,posFromWrist_16x_L,posFromWrist_17x_L,posFromWrist_18x_L,posFromWrist_19x_L,posFromWrist_20x_L,posFromWrist_1y_L,posFromWrist_2y_L,posFromWrist_3y_L,posFromWrist_4y_L,posFromWrist_5y_L,posFromWrist_6y_L,posFromWrist_7y_L,posFromWrist_8y_L,posFromWrist_9y_L,posFromWrist_10y_L,posFromWrist_11y_L,posFromWrist_12y_L,posFromWrist_13y_L,posFromWrist_14y_L,posFromWrist_15y_L,posFromWrist_16y_L,posFromWrist_17y_L,posFromWrist_18y_L,posFromWrist_19y_L,posFromWrist_20y_L,posFromWrist_1x_R,posFromWrist_2x_R,posFromWrist_3x_R,posFromWrist_4x_R,posFromWrist_5x_R,posFromWrist_6x_R,posFromWrist_7x_R,posFromWrist_8x_R,posFromWrist_9x_R,posFromWrist_10x_R,posFromWrist_11x_R,posFromWrist_12x_R,posFromWrist_13x_R,posFromWrist_14x_R,posFromWrist_15x_R,posFromWrist_16x_R,posFromWrist_17x_R,posFromWrist_18x_R,posFromWrist_19x_R,posFromWrist_20x_R,posFromWrist_1y_R,posFromWrist_2y_R,posFromWrist_3y_R,posFromWrist_4y_R,posFromWrist_5y_R,posFromWrist_6y_R,posFromWrist_7y_R,posFromWrist_8y_R,posFromWrist_9y_R,posFromWrist_10y_R,posFromWrist_11y_R,posFromWrist_12y_R,posFromWrist_13y_R,posFromWrist_14y_R,posFromWrist_15y_R,posFromWrist_16y_R,posFromWrist_17y_R,posFromWrist_18y_R,posFromWrist_19y_R,posFromWrist_20y_R,posFromBody_0x_L,posFromBody_0y_L,posFromBody_0x_R,posFromBody_0y_R
6,5.168003,0.070111,0.567032,-0.145743,-1.350265,-3.581714,-6.037353,-5.656929,-25.513664,-12.428146,5.911824,18.772053,-29.724849,-12.766525,9.186917,27.314587,-31.380706,-17.393051,3.147435,19.154515,-31.897098,-23.575,-8.335292,2.998524,-21.936587,-31.86283,-29.893794,-23.268691,-5.78074,4.147429,7.471726,8.375604,12.838886,22.335655,24.919342,24.676243,27.079149,34.635275,33.13059,30.475026,37.280379,44.811397,40.683098,35.819315,22.706817,47.803768,69.243255,84.683601,47.27108,81.696785,99.679504,112.911254,39.286045,77.479751,98.043525,112.072563,32.076587,67.840976,87.381065,100.635864,26.266594,54.838417,70.105613,81.206016,-17.371416,-17.380827,-7.482211,1.765296,12.22258,23.679047,27.013471,28.776902,30.427231,40.523189,42.123117,42.082584,42.491076,53.11043,53.941492,51.818105,48.964878,58.836879,58.571105,55.459996,8.239631,307.847917,-72.494602,295.71984
7,-5.215702,4.654017,0.564228,0.155154,0.110241,-0.261497,-0.75951,1.042202,-20.576248,-6.522937,11.206581,23.966217,-24.822269,-6.702026,15.450898,33.754555,-26.206066,-10.887462,9.445427,25.424309,-26.132595,-16.80915,-2.164043,9.068116,-21.92767,-32.958084,-31.3432,-24.650146,-9.601015,-1.989894,1.364993,2.689972,8.5191,16.310063,19.118867,19.255607,22.741245,29.022793,27.96386,25.656284,33.172421,39.203398,35.443934,30.886877,22.56594,47.54631,68.947597,84.315227,46.873455,81.456859,99.528591,112.771579,38.86568,77.212062,97.794399,111.753971,31.725093,67.628414,87.183231,100.458789,26.053081,54.67828,69.96865,81.084606,-17.401205,-17.507279,-7.707044,1.48695,12.058756,23.535478,26.912015,28.757438,30.320144,40.17152,41.730965,41.707562,42.462831,52.850868,53.645497,51.523136,48.990146,58.870076,58.534487,55.348994,3.024633,312.478916,-71.92967,295.851976
8,-6.384979,0.711069,0.509891,0.057699,2.08564,4.09219,5.737633,8.903069,-14.023361,1.660492,19.025734,31.275581,-18.019615,1.672451,23.283234,40.985596,-19.715149,-2.912441,16.728813,32.081795,-20.298191,-9.695526,4.691139,15.589142,-22.69487,-33.958404,-32.447038,-25.6107,-10.842125,-3.35611,-0.029146,1.388606,7.341914,15.111042,17.759653,17.939038,21.723782,27.986028,26.787057,24.532339,32.291476,38.319502,34.421322,29.744,22.413185,47.203549,68.490212,84.173996,46.496075,81.157036,99.239456,112.46949,38.4287,76.960899,97.581825,111.505943,31.312603,67.375603,86.981712,100.340035,25.740875,54.428799,69.802082,81.013207,-17.498313,-17.58643,-7.862408,0.95402,11.809507,23.46097,26.927219,28.87106,30.106908,39.861769,41.488546,41.542207,42.303713,52.649093,53.476561,51.400562,48.859853,58.809957,58.5088,55.360517,-3.348667,313.17958,-71.4081,295.89927
9,-10.408573,1.451715,0.466507,-0.01766,5.209602,11.137024,15.942387,20.971333,-3.346161,14.692772,31.305004,42.649349,-6.879078,15.410397,36.018528,52.517292,-8.9347,10.456329,28.959606,43.240688,-10.523483,2.712193,16.808201,27.18639,-23.864558,-35.475229,-34.551739,-27.996291,-12.36657,-5.435889,-2.41885,-1.022278,5.837093,13.263112,15.436911,15.574899,20.282898,26.325917,24.740648,22.445521,30.898091,36.620341,32.443395,27.625479,22.17794,46.801987,67.982437,83.95063,46.145187,80.906044,99.008949,112.163155,38.042667,76.724007,97.364571,111.196129,30.907723,67.014393,86.670181,100.088379,25.353813,53.974617,69.381077,80.652649,-17.551653,-17.609464,-7.945673,0.546219,11.65392,23.433577,26.963441,28.981741,29.945899,39.720187,41.431402,41.579146,42.140951,52.58239,53.451119,51.472019,48.655558,58.77272,58.535883,55.46958,-13.739038,314.626778,-70.923391,295.877093
10,1.110741,-4.419971,0.321533,-0.029406,4.492904,10.042694,14.250995,18.796749,-5.231896,12.666938,29.829311,40.900234,-8.250836,14.012935,34.740749,51.269245,-10.374401,8.633468,27.532344,41.828762,-12.342465,0.708446,15.390575,25.798496,-23.227874,-32.674699,-30.556413,-23.632476,-7.796805,0.977484,3.688401,4.526009,10.114705,18.683316,20.441202,20.216974,23.772044,30.836563,28.661441,25.992724,33.291944,40.233728,35.969109,31.322254,22.003899,46.428772,67.469021,83.639534,45.894425,80.646515,98.7071,111.776184,37.791138,76.564064,97.217469,111.035019,30.645298,66.792515,86.495499,99.994744,25.123284,53.74395,69.202812,80.537064,-17.619232,-17.670399,-7.974213,0.326512,11.51392,23.374902,26.920994,28.965637,29.785843,39.549237,41.334899,41.631091,41.976251,52.428237,53.354011,51.533584,48.482064,58.672092,58.49419,55.529923,-12.606222,310.204649,-70.579783,295.845529
11,-2.329319,-1.190128,0.276306,-0.037742,5.376274,11.988315,16.958747,21.2807,-3.65799,14.90562,32.445282,43.311744,-6.682686,16.416343,37.337906,53.672538,-8.891636,10.701587,29.9011,44.180557,-10.834225,2.55582,17.354049,27.83805,-21.589006,-28.975232,-26.208493,-19.704174,-5.373373,3.847927,6.442519,7.257513,11.142047,19.585131,21.685226,21.81789,23.35797,30.421575,28.603952,26.30307,31.592832,38.472409,34.95035,31.06084,21.890889,46.207982,67.162171,83.469178,45.764031,80.544823,98.544754,111.515259,37.649518,76.422043,97.039261,110.782128,30.476132,66.557557,86.246018,99.763001,24.916558,53.431069,68.866562,80.222237,-17.59473,-17.620159,-7.882748,0.298144,11.42521,23.337013,26.903408,29.023336,29.659291,39.498553,41.43386,41.912561,41.825839,52.372624,53.43667,51.812252,48.301593,58.579788,58.518507,55.695673,-14.918586,309.013048,-70.286522,295.806314
12,6.057529,-5.679581,0.150147,-0.076904,3.773861,8.202095,11.241108,13.946743,-10.136341,7.558491,26.278874,37.458492,-13.336441,8.963928,30.16753,46.765926,-15.791759,2.568558,22.574444,37.319676,-17.999908,-5.954933,9.634564,20.511005,-20.823437,-26.000134,-22.171646,-15.329169,-0.155117,11.748905,14.415066,14.903203,16.446976,26.468487,28.673718,28.659478,28.17496,36.40834,34.394659,31.945057,35.61623,43.9194,40.397713,36.457122,21.824993,46.049641,66.937077,83.440018,45.81744,80.524818,98.457138,111.359962,37.679569,76.400391,96.955421,110.652534,30.432369,66.465523,86.141487,99.691223,24.779926,53.282638,68.725124,80.132286,-17.58464,-17.515183,-7.773339,0.189364,11.415033,23.284191,26.845152,28.972701,29.574064,39.460218,41.499167,42.053599,41.686518,52.356668,53.522825,51.999504,48.12012,58.536439,58.59299,55.891113,-8.851227,303.332263,-70.126545,295.728206
13,5.782768,-0.819712,0.024021,0.04225,2.146546,4.20306,5.33955,7.02792,-15.557212,0.973858,19.852398,31.362591,-19.026111,1.973729,23.580128,40.810994,-21.202526,-3.976432,16.687512,32.095265,-22.796516,-11.922489,3.964199,15.270184,-20.66291,-25.686146,-21.473261,-14.353327,0.47533,12.488898,15.33143,15.906808,17.151955,27.086744,29.50841,29.567444,28.895043,36.962093,35.101009,32.748183,36.3879,44.51502,41.01166,37.052149,21.765381,46.034248,67.034763,83.670307,45.881401,80.705532,98.689304,111.607098,37.741276,76.533154,97.053875,110.674061,30.502705,66.544785,86.161617,99.663242,24.914692,53.411362,68.832539,80.264706,-17.521074,-17.448382,-7.914513,-0.009324,11.498137,23.196863,26.643586,28.724254,29.57641,39.44851,41.449087,41.973249,41.624248,52.409328,53.543819,52.000442,47.974673,58.501748,58.581616,55.894102,-3.076584,302.508886,-70.110649,295.766791
14,3.146473,2.923302,0.054005,0.060701,1.207421,1.793244,2.592339,4.372467,-19.669498,-4.057422,14.985329,27.512581,-23.554115,-3.087684,19.583885,38.151833,-25.031582,-8.070659,13.286087,29.699936,-25.048965,-15.169098,0.465729,12.349846,-19.978333,-25.779994,-21.346278,-13.720905,-1.913621,8.05192,11.358692,12.56716,14.461267,22.878169,25.962059,26.406044,26.166749,33.078288,31.999409,29.942738,33.841041,40.818405,37.827574,34.079842,21.800709,46.184074,67.317718,83.887092,45.976158,80.837974,98.788009,111.653457,37.811508,76.685302,97.148277,110.687759,30.568359,66.705745,86.257072,99.666527,25.025333,53.604206,69.041736,80.449585,-17.496436,-17.459089,-8.040237,0.018414,11.48859,23.061691,26.382443,28.382391,29.582856,39.411558,41.360994,41.85974,41.639896,52.434967,53.506435,51.930009,48.002992,58.514381,58.531091,55.78694,0.035591,305.419162,-70.090942,295.814466
15,3.678486,0.39272,0.04216,0.015981,0.055847,-1.186169,-1.654049,-0.179455,-22.449451,-7.639515,11.078304,23.827206,-26.424534,-7.047031,15.426602,34.238995,-27.701214,-11.352985,9.943371,26.514645,-27.521473,-18.002506,-2.286632,9.645641,-21.408596,-28.443438,-24.277508,-16.481518,-3.700183,5.974402,9.480059,10.733173,13.761993,22.271287,25.11824,25.286411,26.59552,33.311902,32.010475,29.842418,35.291361,42.055217,38.524304,34.252151,21.844082,46.360222,67.628094,84.204689,46.226166,81.044128,98.963127,111.786575,38.007957,76.864952,97.280456,110.755165,30.68993,66.83844,86.317657,99.617065,25.082874,53.671039,69.114441,80.49163,-17.444627,-17.396796,-8.170617,-0.158551,11.608793,23.03672,26.214223,28.083754,29.69045,39.473827,41.379852,41.836262,41.726408,52.532471,53.516167,51.855748,48.084527,58.58043,58.539958,55.716668,3.662538,305.800971,-70.100321,295.819536
16,0.44521,4.107193,0.077694,-0.027232,0.170471,-1.572945,-1.491097,0.98854,-22.550022,-7.586094,10.730758,24.138588,-27.02908,-7.218087,15.702324,35.35794,-28.038884,-10.777199,10.668617,27.837501,-27.108502,-17.43932,-1.9189,10.441108,-22.841552,-32.79142,-29.68183,-21.368878,-8.670956,-1.157042,2.948409,4.858596,9.810671,17.195637,20.386071,20.661811,24.009351,29.822423,28.915618,26.73473,34.185695,39.957666,36.233425,31.361157,21.82735,46.340652,67.680862,84.353496,46.350506,81.159107,99.079776,111.872005,38.122352,77.098583,97.529354,110.975704,30.789058,67.08744,86.528789,99.734424,25.218464,53.918129,69.390129,80.702877,-17.419483,-17.375553,-8.376456,-0.549307,11.687117,23.01428,26.057031,27.749536,29.801934,39.46985,41.268405,41.626941,41.851811,52.603805,53.429074,51.6321,48.220378,58.677612,58.523014,55.563922,4.043433,309.900383,-70.086942,295.784523
17,-3.86324,4.113108,-0.0248,-0.076287,1.357796,0.628762,2.135685,5.012982,-18.925151,-2.181266,15.600666,28.97826,-23.196911,-1.207592,21.513371,40.891125,-23.780193,-3.542999,17.330967,34.099423,-22.218074,-10.418472,4.734021,16.937382,-22.573702,-34.437649,-33.08592,-25.460905,-11.972392,-5.960767,-1.631483,0.439713,6.222701,13.203856,16.289006,16.606946,20.55938,26.239973,25.431636,23.306718,31.362195,36.48144,32.855085,28.027747,21.741211,46.260247,67.686951,84.42492,46.417351,81.32872,99.321442,112.168969,38.277295,77.411362,97.961266,111.49498,30.998749,67.417191,86.917603,100.151505,25.51212,54.255455,69.760701,81.082787,-17.42851,-17.496176,-8.67818,-0.887847,11.692478,22.990123,25.971334,27.577487,29.837738,39.42155,41.161985,41.479271,41.910116,52.650699,53.412143,51.55106,48.2752,58.737239,58.590693,55.605666,0.098802,314.011781,-70.193133,295.706526
18,6.165047,-1.961044,-0.020679,-0.363265,-1.796379,-4.992004,-5.750061,-5.648174,-26.162476,-10.973087,8.142162,22.646313,-30.434853,-9.716217,14.034107,34.354992,-30.569778,-11.875717,9.739277,27.433079,-28.105545,-18.388618,-3.806328,8.50684,-17.351138,-26.429276,-23.784061,-15.93278,-7.383127,-1.375157,2.846323,5.021914,8.535314,14.869437,18.569892,19.349923,20.726809,26.355965,26.250137,24.534599,29.761117,35.012644,32.180696,28.274686,21.908981,46.370853,67.695991,84.374119,46.294968,81.228138,99.501743,112.680988,38.144623,77.54813,98.425701,112.294567,30.913525,67.575966,87.270458,100.592663,25.445068,54.302524,69.861843,81.134159,-17.428053,-17.500301,-8.607711,-0.894183,11.585983,23.11192,26.441391,28.33509,29.755943,39.698722,41.557842,41.9413,41.913611,52.842285,53.594899,51.693246,48.388623,58.934951,58.770942,55.678309,6.174196,312.043493,-70.303465,295.336017
19,3.007805,-2.11615,-0.100617,-1.083386,-1.509911,-5.016815,-6.813286,-7.933399,-27.184055,-12.104599,7.077999,21.239582,-31.438591,-11.826393,11.511623,31.274403,-31.756245,-14.506783,6.919247,24.207447,-29.560192,-20.335133,-6.325974,5.2729,-16.72526,-24.417681,-21.479461,-14.653435,-4.448512,3.245145,7.235938,9.302601,10.695826,17.838916,21.519055,22.724596,22.039216,28.186223,28.400645,27.505634,30.517585,36.33845,33.948388,30.878652,22.083527,46.477524,67.717221,84.406117,46.277001,80.91631,99.339535,112.79813,37.973408,77.398053,98.552731,112.82127,30.55267,67.172265,86.987469,100.441945,24.809636,53.368287,68.860886,80.084599,-17.248496,-17.191228,-8.20337,-0.664373,11.445241,23.716036,27.809532,30.383006,29.584202,40.444346,42.963256,43.879274,41.83846,53.545005,54.693698,53.143442,48.488486,59.368587,59.443392,56.553201,9.073454,309.916518,-70.512629,294.241806
20,9.503563,-3.22799,-0.655723,-2.474413,-5.739441,-14.336472,-20.160599,-25.720825,-37.465462,-26.813095,-6.546959,9.180828,-40.893276,-25.529366,-1.872574,19.166805,-39.93821,-26.426159,-4.840702,13.704014,-36.01133,-30.497372,-17.807831,-5.64172,-4.032488,-6.270767,-2.726442,3.462172,4.272017,11.919089,16.528745,18.969948,12.231682,19.224941,24.572983,26.522394,17.109507,23.382855,26.364103,27.139491,20.303659,25.446616,26.022043,25.674154,22.693577,47.145973,68.166103,84.536373,45.274681,80.032276,98.873119,112.746082,36.825188,76.521446,98.131542,112.816875,29.524052,66.199825,86.209934,99.732204,23.978016,52.219242,67.628448,78.714603,-17.041348,-17.032122,-7.777934,0.679279,10.316925,23.970608,29.303596,32.886552,28.807209,41.616739,45.042022,46.393899,41.659866,55.075414,56.806031,55.457057,48.97456,61.145887,61.644942,58.644662,18.393271,306.659953,-71.352098,291.738818
21,16.140118,-10.086893,-0.195831,-4.362976,-12.206669,-26.837002,-37.605366,-47.16675,-49.43343,-45.824833,-27.754481,-13.47559,-50.40687,-43.327229,-23.563746,-5.039429,-47.317881,-41.481572,-23.547398,-7.296965,-41.556164,-41.650647,-32.169892,-22.229497,3.759575,7.688037,13.566825,19.89229,14.426458,26.146353,31.977951,34.77877,18.653854,29.543064,36.599512,39.359058,20.037088,29.733404,35.209523,37.642909,20.176613,27.74144,31.033114,33.213953,24.912048,49.858726,69.722602,84.943393,46.149044,79.198894,96.379726,108.374507,36.992065,74.505661,93.571163,105.153637,28.854858,63.524677,81.190704,91.894649,22.362762,49.67165,63.551548,72.265308,-15.121107,-13.313203,-2.449317,7.603279,7.854159,24.140484,32.453139,38.208846,25.379383,42.371552,49.635204,53.59674,38.57631,55.191308,59.907286,61.018201,47.291492,60.820476,62.749361,61.107628,34.286454,296.568682,-71.794864,287.371464
22,20.024562,-13.019494,-3.295853,-11.212714,-19.593647,-40.025699,-54.829376,-65.881948,-60.340519,-66.242626,-53.923261,-43.54486,-58.153295,-62.501404,-50.170629,-36.972416,-52.195982,-57.489349,-46.697158,-35.437963,-44.085891,-52.109459,-48.176502,-42.717384,5.976439,14.999508,25.139284,33.394474,22.299525,39.551441,47.588863,51.729802,26.431282,42.853588,52.532329,56.701995,27.625769,42.20506,50.79771,55.056784,27.305476,38.725999,44.759403,49.015983,27.059641,52.943642,72.20018,85.983147,48.228247,80.839828,95.093227,103.893905,38.459026,74.97258,90.15584,97.839764,29.39649,62.475614,76.213428,83.075054,21.757994,48.140179,59.229326,64.780317,-13.238244,-9.933282,2.267593,13.733514,4.790004,22.759683,33.540101,40.519157,21.480369,41.598468,51.289436,56.360188,35.173369,54.441893,60.542951,62.514716,45.454046,60.211555,62.494888,61.111648,54.013515,283.548713,-75.388218,276.158275
23,11.778603,-10.365066,-6.409458,-17.743697,-22.517017,-44.980946,-60.283779,-71.12808,-61.444931,-74.247917,-68.349833,-62.091682,-56.112825,-68.558647,-63.854147,-55.910088,-47.248278,-59.231987,-55.760788,-49.665876,-36.639633,-48.315937,-49.34919,-47.942459,5.154418,15.342853,25.72332,33.808511,24.077331,45.708847,56.145531,61.126498,28.7776,50.830803,62.646379,67.737732,30.775769,50.127687,61.54285,67.393714,31.136521,45.807437,54.349217,60.048669,28.895044,56.140995,75.439384,87.559215,51.753153,85.158954,95.007316,99.062954,41.653759,78.170917,87.960108,90.819237,31.615316,63.412153,71.570331,73.653099,22.656686,48.149551,55.147081,56.808683,-11.520249,-7.229849,5.964491,18.757812,1.085091,19.601039,32.102428,39.111125,17.073094,38.762309,49.393649,54.049426,31.389612,52.402734,58.350651,59.648768,43.355545,59.077719,60.73799,58.66312,65.470253,273.252106,-82.119541,258.483037
24,19.197052,-16.137532,-9.75634,-23.871227,-29.811321,-57.31358,-75.371304,-87.58576,-69.836575,-91.537811,-89.730509,-85.216347,-61.361487,-83.694626,-84.146215,-78.578041,-49.786955,-70.143723,-71.793915,-68.098394,-37.039307,-54.716274,-59.346703,-59.772331,6.646308,19.489739,31.259121,40.182932,29.042497,54.757468,65.797479,69.999662,34.071685,61.306131,72.96869,76.703102,36.19296,60.39919,71.774573,76.574593,36.323334,54.404775,63.630861,69.112457,30.794191,60.151542,80.512539,91.699264,53.740488,88.969791,95.070751,94.858509,43.750969,81.204849,85.180944,82.739261,33.863783,66.438783,68.876964,65.97068,25.102483,51.746166,54.461637,52.034368,-11.261935,-7.39718,6.274046,20.624922,-5.297185,12.037737,25.196052,31.539449,10.545445,31.725108,42.309456,45.940905,26.141766,46.715595,52.319957,53.298985,40.364318,55.223307,56.215711,53.973386,84.373993,257.5501,-92.169193,235.047336
25,5.29953,-12.418316,-10.43129,-28.930055,-29.387157,-53.206616,-67.493877,-75.349474,-61.92905,-84.744885,-86.747,-85.045898,-51.709711,-76.435295,-80.599909,-78.476372,-38.738703,-61.343765,-66.608162,-66.383657,-25.03093,-42.530033,-48.867371,-51.537026,-2.240244,7.48142,18.902122,28.101427,24.091373,50.863672,59.737268,62.385873,34.388489,63.338348,71.759147,73.386351,41.109849,67.090587,74.735825,76.960446,45.006034,64.968738,71.430913,74.189612,31.293612,62.201363,83.978039,95.191235,55.84017,92.457333,95.912922,91.917561,46.500183,84.138737,82.231573,74.562492,36.90711,69.644754,66.215584,58.386589,28.202688,55.327767,53.738691,47.453722,-11.884096,-9.317996,3.555866,17.617553,-12.219073,2.545895,15.695639,21.291758,3.231788,22.205787,32.418694,35.28487,19.53988,38.127137,43.139338,44.046389,35.311182,47.896744,48.1269,46.143903,89.424791,246.485214,-102.849215,207.470711
26,16.421757,-23.654224,-12.732788,-30.459614,-30.13179,-53.832733,-67.955292,-75.193199,-61.316597,-87.865666,-90.913708,-88.771317,-51.070908,-80.043572,-84.920288,-82.974278,-38.186737,-64.846047,-70.811554,-70.569752,-24.544419,-44.357506,-51.266442,-53.701401,-7.96421,0.143668,11.695145,21.621981,17.653615,43.580328,51.77977,53.416144,31.540208,60.09203,66.98571,67.106877,41.873794,67.561249,72.921234,72.962767,48.886751,69.257261,73.849923,74.220735,31.594854,63.511745,87.295178,100.395401,57.046434,94.74432,99.630775,97.02412,49.632774,88.326576,84.25189,75.551788,41.739035,75.984072,69.170288,59.096661,34.614344,62.6731,58.269739,49.905092,-14.122344,-14.701421,-5.012027,5.625426,-16.827228,-7.780687,1.746635,4.977355,-1.129532,11.480933,17.663811,18.183249,15.502985,29.095399,30.747389,29.422707,31.710529,41.213781,39.320958,36.131766,105.546616,224.732301,-115.881935,178.912408
27,14.800461,-23.232975,-9.613426,-31.474703,-30.475434,-53.876885,-68.655945,-76.6512,-62.101777,-90.350533,-90.866765,-85.980034,-53.158516,-83.550316,-84.727547,-79.238102,-41.609688,-69.536065,-71.504883,-67.357224,-29.15625,-50.030571,-54.316979,-53.147645,-8.20642,-1.091377,9.856613,19.126906,12.840393,34.260487,39.575752,39.410953,25.676463,49.505367,52.928254,51.052264,35.696579,57.275532,58.904076,56.743318,42.76195,60.25767,61.887633,59.92791,29.999141,62.699421,88.188514,103.162285,55.887691,94.044994,101.720901,101.821872,50.334984,90.017681,88.759918,83.108299,44.371742,80.299198,71.781921,60.907516,38.948707,68.193249,61.978729,52.864254,-17.133943,-21.146126,-13.930307,-5.681267,-22.494002,-17.843961,-11.457308,-9.710389,-6.085985,0.446023,3.465741,2.806846,11.548321,19.467292,19.443475,17.95492,28.880309,33.670498,30.858119,28.274618,120.051585,204.422985,-125.790853,150.361364
28,14.69522,-23.566539,-7.598374,-26.548337,-30.8871,-53.776657,-68.727378,-76.477867,-63.058982,-91.994911,-91.99459,-86.293418,-55.777908,-87.623794,-86.844612,-79.45166,-45.947067,-75.455085,-75.381088,-69.332862,-35.051811,-57.63977,-60.158111,-56.37815,-8.209038,-2.554911,7.332047,15.608343,7.221452,21.790399,23.765709,22.192691,19.016163,35.641609,35.26156,31.730425,28.715189,43.578995,41.428352,37.43231,35.87988,49.062123,48.005882,44.288779,28.742089,59.833683,84.951016,100.163372,53.363789,89.585953,97.6917,99.28751,49.103657,88.934521,93.065667,92.778626,44.945378,82.677361,78.838005,71.829369,41.753243,72.811936,70.443352,65.073418,-12.944887,-18.227116,-14.214642,-9.747747,-20.561077,-21.141525,-17.918129,-16.756789,-8.744803,-8.469668,-8.414,-9.907767,4.194947,6.077951,5.02833,3.906091,17.217028,17.360116,14.661425,13.095762,134.281665,184.500252,-133.854367,127.456833
29,14.48108,-24.394327,-3.851829,-21.918784,-31.084969,-53.979744,-69.646683,-78.351906,-63.904152,-92.16092,-93.911911,-90.592003,-58.003144,-89.161286,-90.28061,-85.824807,-49.489014,-78.689782,-79.925446,-76.412384,-39.526909,-62.150506,-65.350777,-63.051659,-5.617997,-0.813259,7.686839,14.383672,2.529674,9.849191,9.564225,7.567013,11.784819,20.44382,18.178432,14.826725,19.882385,27.3159,23.445767,19.40448,26.277289,34.849679,32.832144,29.284812,25.690315,54.573234,79.211815,94.925537,51.309563,86.894325,99.133438,105.37587,49.440731,88.585487,99.143635,104.927021,47.161583,83.954647,80.016723,72.651787,45.22903,75.547725,72.85096,67.087406,-14.848319,-21.879906,-19.328811,-16.462085,-22.444805,-25.863845,-25.064078,-24.502539,-9.904766,-13.629582,-15.679726,-17.681384,3.107942,0.162416,-2.155818,-3.092306,15.577894,11.695732,8.513227,7.530444,148.065102,163.878523,-138.403839,109.310647
30,17.675903,-26.695148,-1.778057,-15.305401,-32.730377,-57.437119,-75.317162,-86.332581,-67.217125,-97.277985,-102.868973,-103.207901,-62.995651,-96.093819,-101.769791,-101.835182,-56.349037,-87.16555,-91.942909,-91.832474,-47.886521,-72.361519,-77.688583,-77.587509,-7.096085,-3.207081,4.771875,10.81895,-3.866773,-0.764513,-1.153664,-2.842488,4.907769,9.075465,7.280775,4.814797,13.852371,17.213625,14.016288,10.699574,22.019296,27.70951,26.24789,23.498249,23.874767,51.756317,76.057251,91.300186,50.187263,85.183845,100.221863,110.566715,49.905716,88.99704,105.761123,117.149654,48.876938,85.295002,81.250694,73.471,47.864364,78.07465,75.22594,69.111351,-16.158762,-24.260471,-21.770108,-18.926162,-21.92081,-26.940686,-28.206798,-28.232097,-8.669647,-15.500935,-19.801079,-22.369766,4.555019,-2.98998,-6.469721,-6.932034,16.790919,8.767774,4.896721,4.72051,164.697235,140.613036,-141.225666,97.434907
31,3.31723,-14.404679,0.848453,-9.931325,-31.682693,-55.555092,-73.210281,-84.593582,-64.144409,-92.096214,-101.297287,-106.490684,-61.126144,-91.851173,-101.490394,-106.249557,-55.73497,-84.025062,-92.1763,-96.209038,-48.298599,-71.180855,-78.111946,-80.777779,-9.031572,-7.301572,-1.25136,2.758348,-8.828493,-9.863757,-12.267596,-14.384839,-1.013374,-1.493631,-4.760815,-6.976351,7.628257,7.29152,3.316257,0.461418,16.38252,19.020918,17.035302,14.730061,21.113983,47.979916,71.723809,85.044525,48.832821,84.596627,100.39769,112.021912,49.165821,89.162281,111.528099,128.019768,48.654843,84.831826,81.174202,73.702687,47.737656,77.450569,74.653668,68.976815,-17.616862,-26.283909,-22.413362,-17.025632,-21.434445,-25.431679,-26.389842,-26.099818,-6.810441,-14.129779,-19.482848,-22.805909,7.030019,-2.590825,-7.058251,-7.270308,19.292348,8.519266,4.147886,4.587401,166.729093,129.341808,-141.662585,90.637033
32,1.461937,-12.438904,1.38152,0.632633,-29.273827,-53.015396,-70.796516,-82.63662,-60.369507,-87.046394,-100.292885,-110.046501,-58.436668,-87.64666,-101.989403,-111.752632,-53.960175,-80.733742,-93.30249,-102.201141,-47.071999,-68.521477,-78.00293,-84.563072,-11.973337,-12.745118,-8.628984,-5.788076,-14.448436,-18.284649,-21.193427,-23.407506,-5.645692,-9.147576,-12.363174,-14.048552,4.050988,0.982338,-2.516379,-4.734157,14.255984,14.544939,12.908689,11.173323,20.623889,46.098197,68.725776,80.148044,48.778221,84.425365,100.483028,112.815445,49.611248,89.213298,112.935035,130.978557,49.381794,84.565452,81.878059,74.874618,48.610302,77.243579,75.516059,70.412567,-17.128478,-25.406831,-21.59131,-15.476957,-17.248471,-20.852065,-21.554364,-20.825024,-2.722977,-9.70861,-15.36304,-18.797851,9.788533,-0.494133,-6.263561,-7.121823,20.389418,8.812716,3.616579,3.401144,166.518007,119.148,-141.954088,93.514762
33,-0.087685,-10.033621,3.520111,4.205561,-26.860084,-50.478584,-68.33329,-80.298408,-57.461814,-83.545028,-98.88771,-111.613334,-56.139061,-83.714172,-101.183029,-115.06842,-52.122024,-77.222717,-92.559059,-104.91893,-45.357215,-65.120224,-76.475944,-86.369659,-15.297219,-17.603906,-13.604109,-10.452943,-18.68715,-22.670756,-25.26909,-27.366387,-8.271233,-11.831292,-14.513637,-15.854424,2.977062,0.279884,-2.622676,-4.687813,14.966448,14.589838,13.255529,11.655267,19.308963,45.59626,69.05516,80.722915,49.39571,86.131393,106.329139,122.176689,50.812065,89.529132,113.190776,130.790645,50.496345,83.423618,76.877426,66.845741,49.025013,75.259288,70.302395,62.3279,-23.855876,-33.196614,-28.066347,-18.977248,-16.718424,-17.960361,-18.124512,-17.120592,2.827409,-2.227683,-7.218524,-9.752922,18.991512,8.69694,1.63081,0.544632,32.310761,20.236833,13.682576,12.981449,164.746227,110.601508,-140.118072,99.207452
34,-1.231201,-6.140887,3.336078,5.510712,-24.429748,-47.393944,-65.220634,-77.129951,-55.089203,-82.059746,-98.364738,-112.388397,-54.59095,-82.547539,-101.197632,-116.499367,-51.162094,-76.554062,-92.924537,-106.177665,-44.79808,-64.718307,-76.526596,-87.253898,-19.653557,-23.316171,-18.691454,-14.200341,-22.574024,-25.332618,-26.896639,-28.438399,-9.861263,-12.102105,-13.522883,-14.290737,3.7802,2.60793,1.01761,-0.592828,18.162062,17.872848,16.91321,15.107195,20.053448,46.726696,69.863446,80.862992,51.458519,87.364117,107.460949,123.006043,51.81268,89.831246,112.920479,129.748352,50.174115,81.166031,75.593422,66.448918,47.519188,71.997242,67.957283,60.84557,-23.403956,-31.949169,-26.457693,-16.803337,-10.056487,-10.066935,-9.559353,-7.887479,8.864753,4.819959,0.626482,-1.318112,23.584631,12.951895,4.981053,3.010579,35.278862,22.943964,15.372962,13.662254,161.845648,105.56416,-138.451372,105.821703
35,-1.45198,-1.956839,3.138771,2.069182,-22.866692,-45.585732,-63.409653,-75.095787,-53.92891,-81.900284,-98.647751,-113.187584,-53.446427,-82.134522,-101.074219,-116.603875,-49.960282,-76.144799,-93.318215,-107.002076,-43.618241,-64.428589,-77.07724,-88.561821,-21.153172,-25.330149,-20.062296,-14.844997,-23.048965,-25.027943,-25.563436,-26.398956,-9.017253,-10.450653,-11.094493,-11.218877,5.551738,5.029503,4.325412,3.336103,20.497499,20.411209,19.744651,17.939099,20.110154,46.008419,67.266472,77.778614,53.142678,87.6904,107.469521,122.714608,52.476368,88.56934,109.265431,124.246685,49.556866,78.270058,74.028935,66.439225,45.679379,67.910351,65.459668,59.942379,-19.047205,-25.228897,-20.813353,-13.281081,-2.238008,-2.495976,-2.998236,-1.851975,13.337039,9.410293,4.942781,3.002737,24.384663,15.424821,6.905647,3.80858,32.695157,22.723268,14.999076,12.078504,158.984454,104.272657,-136.721815,108.556221
36,-1.361229,0.948721,-0.892112,-11.493092,-21.817223,-43.942772,-61.569557,-72.788681,-53.311203,-81.970619,-98.718727,-113.095528,-52.729752,-82.180825,-101.185982,-116.567116,-49.094673,-76.059334,-93.30938,-106.84536,-42.72107,-64.08149,-76.934578,-88.638634,-20.911777,-25.318923,-19.560036,-13.609483,-22.373842,-23.556671,-23.269266,-23.580655,-7.828452,-8.426628,-8.429957,-8.144133,7.0212,6.74433,6.63996,6.019356,21.992798,21.756436,21.373694,19.700178,23.327304,50.961731,72.054828,82.093139,61.409546,96.987362,114.720268,126.258636,58.976211,94.333534,110.177444,119.971344,54.011318,80.871334,76.970832,69.379669,48.163501,69.017326,66.984066,61.501991,-11.23516,-15.655205,-13.422779,-9.232384,-0.748767,-1.490315,0.029109,2.548273,9.358028,8.609033,7.567272,6.970208,16.659891,12.534315,7.029389,4.327519,22.488685,17.520154,12.865909,10.26755,156.533284,105.531028,-138.703868,97.372779
37,-0.714684,1.975661,-3.066903,-18.549632,-22.036102,-43.579399,-60.834709,-71.693207,-53.242058,-82.193138,-98.756378,-112.91288,-52.410026,-82.234932,-101.41571,-116.838135,-48.567215,-75.864532,-93.280174,-106.819244,-42.102859,-63.858467,-76.996879,-88.838196,-20.277773,-24.499791,-18.612976,-12.283664,-20.90496,-21.205981,-20.270777,-20.091707,-6.323878,-6.069806,-5.582651,-5.056235,8.458559,8.852082,9.219571,8.747403,23.238606,23.493247,23.540331,22.014201,27.081059,56.56778,78.150307,88.691311,69.499329,105.246815,121.740967,130.888916,65.807133,100.83577,114.09565,120.220437,59.440922,85.83553,82.144009,74.034462,52.454464,72.595139,70.599118,64.920845,-8.222506,-11.541078,-9.745141,-6.772069,-2.927612,-4.877221,-2.333814,1.177031,4.684071,5.095718,6.174461,6.703273,10.492,10.335827,7.316078,5.075137,15.640657,15.706594,13.068363,10.652249,155.183733,107.477111,-142.405638,78.793569
38,-0.04113,2.373494,0.160965,-24.890072,-22.40197,-43.821396,-60.841095,-71.179115,-53.047211,-82.257088,-98.952507,-113.07914,-52.030701,-82.058533,-101.410606,-116.890526,-48.139824,-75.655357,-93.245544,-106.751495,-41.77137,-64.014404,-77.241142,-88.99601,-20.143966,-23.998161,-17.390169,-10.535503,-20.167147,-19.729905,-18.269625,-17.648725,-5.409861,-4.481548,-3.469008,-2.601372,9.457255,10.245394,10.988968,10.781468,24.173385,24.572237,24.873159,23.659874,30.581009,60.8298,81.9959,92.676651,76.056641,111.254612,125.81865,132.219399,71.730263,106.256508,116.773629,119.602929,64.67944,91.139984,87.905526,79.455925,57.01896,76.958447,75.225998,69.36649,-6.207197,-9.266938,-8.85221,-8.232314,-9.149565,-13.014029,-10.375856,-6.687504,-4.108119,-3.909163,-1.637572,-0.614139,0.608003,3.190565,2.723901,1.224375,5.696041,9.030232,8.365987,6.421775,154.709118,109.631005,-142.678158,53.683897
39,0.246025,1.783593,4.209076,-28.558744,-22.896194,-44.310951,-61.287758,-71.260757,-53.065773,-82.256378,-99.054977,-113.154945,-51.898865,-81.794266,-101.12661,-116.462219,-47.887802,-75.249138,-92.758117,-106.077278,-41.446998,-63.715713,-76.826568,-88.366173,-19.989677,-23.511889,-16.611213,-9.525149,-19.520201,-18.718372,-16.936545,-16.060646,-4.669387,-3.290772,-2.006067,-0.928523,10.183143,11.296799,12.207352,12.145979,24.683869,25.314161,25.726846,24.69491,32.83928,63.199963,83.675366,94.407132,81.190419,115.14386,127.442963,131.388153,76.804676,110.461098,117.904026,117.455521,69.518818,96.492382,94.131569,86.232823,61.395653,81.285325,80.443543,75.334431,-5.130342,-8.573539,-10.525902,-12.794247,-15.793249,-22.168868,-20.780471,-17.957588,-13.710914,-14.559759,-12.790851,-11.922844,-10.625227,-6.059074,-5.158901,-6.190442,-5.946466,-0.097628,0.76137,-0.70519,154.615127,110.686919,-138.809098,24.397474
40,-0.005012,0.804404,7.860512,-29.96834,-22.835953,-44.256798,-61.139237,-70.693657,-52.825859,-82.128708,-98.993729,-113.0178,-51.479874,-81.521233,-100.841538,-116.038445,-47.255104,-74.704125,-92.201546,-105.469849,-40.633988,-62.951866,-76.017105,-87.601296,-19.80797,-22.97258,-15.5913,-8.145645,-19.414385,-18.353834,-16.315848,-15.2458,-4.493911,-2.862274,-1.280555,0.069895,10.412885,11.765077,12.79605,12.88552,24.896185,25.556174,25.918192,24.988039,34.588223,64.608845,85.108566,95.946613,85.486588,118.186684,128.051582,129.470695,81.572662,115.256172,121.311287,118.984463,74.386963,102.083302,100.633152,93.081471,65.872868,86.196076,85.783596,80.83152,-8.787423,-14.316777,-18.034356,-21.635683,-25.325307,-33.677285,-33.145929,-31.214246,-23.743552,-25.895585,-24.482927,-24.056342,-20.283294,-16.754992,-15.713176,-16.76013,-14.622584,-9.773719,-8.683244,-9.957007,154.284359,110.14479,-131.274342,-6.917399
41,-0.219567,0.238702,5.353501,-10.04945,-22.690452,-43.991455,-60.771286,-70.046402,-52.340355,-81.744209,-98.770317,-112.686676,-51.021721,-81.323135,-100.769645,-115.907982,-46.84481,-74.549858,-92.134987,-105.34497,-40.299133,-62.790046,-75.766708,-87.082695,-19.697171,-22.610957,-14.924469,-7.142126,-19.552539,-18.763474,-16.729341,-15.666116,-4.608884,-3.267263,-1.721132,-0.434766,10.362819,11.530371,12.485193,12.489009,24.858808,25.309191,25.556433,24.620909,33.625654,62.247127,81.987951,92.652299,83.172426,114.902212,124.559108,126.615589,80.005291,114.166208,121.171857,119.859254,73.496023,102.454273,101.89429,95.059947,65.630722,86.405994,86.804523,82.68687,-13.190533,-20.183462,-24.572289,-28.156499,-28.491603,-38.129966,-40.073273,-40.204211,-25.563615,-30.377837,-31.231528,-31.817962,-21.198426,-20.245305,-20.673174,-22.348604,-14.881652,-12.202129,-12.570735,-14.521663,153.783903,109.026376,-126.20173,-18.323965
42,-0.565384,0.224352,1.274723,2.468553,-22.267204,-43.244728,-59.725204,-68.703094,-52.066818,-81.414138,-98.520561,-112.398651,-50.997734,-81.291984,-100.62648,-115.583313,-46.947509,-74.651138,-92.22116,-105.214759,-40.513549,-62.954132,-75.840522,-86.877044,-19.899367,-22.794714,-14.858279,-6.849146,-20.226934,-19.90695,-18.002579,-17.033166,-5.243623,-4.301991,-2.921937,-1.785458,9.807614,10.661561,11.332399,11.106614,24.358889,24.35766,24.344309,23.282814,32.795087,61.37582,80.347246,89.480947,81.516637,115.355135,124.870239,126.587356,77.856926,113.333719,119.573312,117.647546,70.980337,100.335994,99.495471,92.544994,62.80569,83.940902,84.224109,79.908393,-11.092989,-18.595581,-24.043138,-28.664538,-28.94981,-37.68619,-39.167122,-39.912317,-27.025049,-30.081003,-29.854413,-30.409182,-22.672476,-20.875159,-20.281738,-21.460238,-16.241186,-13.772812,-13.02578,-14.529326,152.695301,108.053665,-125.450225,-17.052475
43,-0.747894,0.249799,-2.45863,13.223181,-21.921615,-42.613083,-59.007797,-68.013016,-51.710518,-81.169281,-98.296371,-112.08284,-50.755577,-81.403107,-100.817528,-115.750213,-46.767242,-74.797096,-92.497742,-105.480903,-40.460953,-63.056969,-76.002914,-86.962623,-20.098234,-23.189688,-15.472486,-7.406443,-20.823313,-20.973169,-19.197987,-18.298506,-5.812783,-5.32341,-4.11025,-3.145362,9.314216,9.847678,10.302204,9.841768,23.962531,23.629375,23.402251,22.120844,31.943775,60.640057,79.495193,87.582008,79.571289,115.127262,125.321562,127.869354,75.547377,112.105616,118.920881,117.815468,68.543642,97.465023,95.668144,88.350092,60.288795,81.618523,81.14649,76.311958,-10.624333,-18.37578,-23.305886,-26.935785,-26.104626,-33.273568,-34.049892,-34.583017,-23.206796,-25.193201,-24.494824,-25.011542,-17.967835,-17.262537,-16.800942,-17.600952,-11.04301,-10.111282,-9.55761,-10.734205,151.205292,107.869229,-128.65097,-4.263529
44,-0.663231,0.319459,-6.191982,23.977808,-21.715118,-42.635696,-59.22686,-68.49575,-51.657463,-81.112221,-98.212051,-112.028183,-50.672447,-81.414894,-100.949341,-116.007934,-46.657905,-74.765877,-92.58197,-105.753639,-40.298149,-62.866951,-75.911522,-87.084205,-20.066203,-23.308594,-15.653661,-7.617444,-21.146552,-21.528138,-19.904282,-19.064433,-6.146067,-5.920975,-4.790979,-3.794871,8.977195,9.226654,9.604511,9.187875,23.736945,23.158325,22.811455,21.468649,31.071716,60.039837,79.431793,86.955482,77.33638,114.218593,125.913076,130.461582,73.076643,110.481897,119.214563,120.363018,66.185938,93.841358,90.412308,82.47524,58.080036,79.438854,77.571664,71.897564,-11.784563,-19.524057,-22.360534,-22.970236,-19.95605,-24.892097,-24.72158,-24.21631,-14.108855,-15.71443,-15.152758,-15.62504,-7.084501,-9.407437,-10.230787,-10.770744,0.712878,-1.217536,-2.166223,-3.1363,149.777109,108.579173,-135.607904,20.104764
45,-0.436935,0.570698,-10.153336,28.653321,-21.38443,-42.505921,-59.222557,-68.621224,-51.844597,-81.35685,-98.497284,-112.30378,-50.923714,-81.744187,-101.429283,-116.569359,-47.008644,-75.245682,-93.181755,-106.397553,-40.685875,-63.358956,-76.464592,-87.627045,-20.079394,-23.335555,-15.448533,-7.379687,-21.19234,-21.373034,-19.705409,-18.827516,-6.132761,-5.816407,-4.702887,-3.726255,8.951914,9.159803,9.512175,9.041946,23.635069,23.003868,22.623474,21.254078,30.379944,60.67963,81.641224,88.958405,74.817169,113.98011,128.259115,135.258328,70.435312,109.352881,121.392992,125.822697,63.725218,91.015881,86.160462,77.198496,56.225098,77.618569,74.344236,67.474743,-11.712932,-18.346964,-18.222849,-15.28118,-11.795764,-14.491636,-12.241167,-9.653074,-3.016319,-3.37721,-1.387559,-0.964226,5.393565,1.969965,0.426192,-0.199858,13.51803,10.332076,8.29652,6.909164,148.5821,110.174409,-146.519314,49.782623
46,-0.297798,0.202862,-4.100029,17.41349,-21.466713,-42.689896,-59.408364,-68.770249,-52.2025,-81.915161,-99.005883,-112.868271,-51.107918,-82.081398,-101.777184,-116.883957,-47.062523,-75.488526,-93.523545,-106.855431,-40.599289,-63.317551,-76.623047,-88.15036,-19.719191,-22.651514,-14.199896,-5.992315,-20.467334,-20.359049,-18.635644,-17.602856,-5.433659,-4.844215,-3.551754,-2.346318,9.556167,9.947059,10.457593,10.23137,24.126924,23.704668,23.411953,22.126988,29.077772,59.755703,81.556795,88.90761,72.489584,111.355597,127.971686,137.983658,68.290678,106.207844,121.048702,128.793039,61.647183,86.863381,80.858414,71.2227,54.228344,74.256466,69.950735,62.349678,-14.001955,-20.326288,-17.639546,-10.353426,-4.99053,-6.480632,-4.739675,-2.361117,6.30798,5.027403,5.664828,5.409756,15.702138,9.65242,6.168684,4.715919,23.681981,18.101982,13.893367,11.728385,147.480927,111.762824,-151.422718,68.581666
47,-0.489968,0.347007,2.037403,5.443774,-21.604271,-42.973617,-59.709594,-68.935386,-52.700775,-82.635864,-99.722648,-113.528801,-51.35131,-82.556511,-102.24765,-117.225746,-47.081154,-75.71244,-93.761764,-107.096466,-40.378418,-63.118927,-76.462898,-88.069702,-19.468281,-22.053827,-13.036074,-4.605,-19.727874,-19.064471,-17.161094,-15.990313,-4.646867,-3.621291,-2.07595,-0.693741,10.266419,11.052823,11.804091,11.759254,24.711261,24.63432,24.486514,23.322081,26.496683,55.280709,76.767752,85.478789,69.026419,104.399077,121.926791,134.476216,65.928526,100.352932,115.876923,125.750296,59.927113,82.123375,75.723278,66.766016,52.679169,70.486988,66.159445,59.088101,-18.43724,-24.636318,-20.26061,-10.641356,-0.777188,-2.43422,-3.570239,-2.97352,13.057066,9.059199,5.654207,3.309285,23.243791,14.214818,7.160173,4.017917,31.263264,23.6065,16.233177,12.705258,146.468713,113.352487,-149.907561,75.268096
48,-0.686416,0.480282,0.670006,-8.690336,-21.79287,-43.326187,-60.132981,-69.35392,-53.20839,-83.305298,-100.398285,-114.1539,-51.716812,-83.139771,-102.854805,-117.769089,-47.29438,-76.139786,-94.175858,-107.453293,-40.440148,-63.217324,-76.535134,-88.080574,-19.347559,-21.595589,-12.228872,-3.700671,-19.162524,-17.972729,-15.829984,-14.533052,-4.009973,-2.42237,-0.625705,0.874201,10.864238,12.079986,13.108223,13.25354,25.204536,25.579238,25.650849,24.663683,26.462196,54.713345,75.546112,84.348862,69.846828,104.54623,122.056503,133.995209,67.070286,100.614132,115.876019,125.360275,60.816135,82.044205,75.471497,66.684322,53.113655,69.518269,64.914059,57.690662,-18.68297,-24.236271,-19.478315,-9.690177,-3.421726,-4.489971,-4.285911,-2.696986,10.090678,7.145893,5.338416,3.908758,20.568315,14.44444,8.089588,4.555501,29.458411,23.863947,17.114028,13.245951,145.637307,114.512712,-149.382545,67.257703
49,-0.947754,-0.191167,-1.426689,-17.231792,-22.011727,-43.550469,-60.212219,-69.211418,-53.73896,-84.006409,-101.144486,-114.817131,-52.013924,-83.716622,-103.44635,-118.227722,-47.340798,-76.502243,-94.595627,-107.77993,-40.323647,-63.389328,-76.731835,-88.135369,-19.154607,-20.947975,-11.084329,-2.319994,-18.103899,-16.516698,-14.182155,-12.776012,-2.87999,-0.89748,1.115305,2.659183,11.990701,13.564361,14.72299,14.859539,26.18357,26.854266,26.982849,26.031831,27.076778,55.250461,75.545288,84.726963,70.73679,105.261303,123.218296,135.215034,68.897163,101.501037,116.782322,125.941658,63.442211,83.485828,76.610046,67.308609,56.757374,71.299209,65.985672,58.217754,-19.189725,-24.548142,-19.633723,-10.616971,-10.254922,-12.121575,-12.430976,-11.69722,3.227509,0.214885,-2.043216,-4.190507,14.679166,12.107885,6.818456,2.890475,24.954397,22.253916,16.361389,12.028721,144.768906,114.147174,-150.729881,49.85154
50,-0.909668,-0.374442,-2.360413,-18.812967,-22.498696,-44.257851,-60.929283,-69.753914,-54.08757,-84.653572,-101.897255,-115.686974,-52.095337,-84.070221,-103.866806,-118.716934,-47.180214,-76.605835,-94.760262,-108.019707,-39.96286,-63.269303,-76.716683,-88.219437,-18.837828,-20.196559,-9.980769,-0.909553,-17.228902,-15.468836,-13.09352,-11.630758,-2.04103,0.187357,2.333931,4.022811,12.801336,14.667619,15.992295,16.342104,26.918264,27.908383,28.227947,27.535132,27.224705,54.517891,74.31118,84.164212,71.555489,105.675408,122.903378,134.298752,70.811348,102.571461,117.027169,125.047474,66.238587,85.047421,77.316387,67.015595,60.199082,73.933766,67.874771,59.33194,-21.193476,-28.245046,-24.578566,-16.717776,-18.018548,-21.713088,-23.385777,-23.906493,-4.008176,-9.370286,-13.569894,-17.237479,8.777864,5.593834,1.515454,-1.29453,20.502724,17.246229,12.186598,8.990625,144.184576,112.834002,-152.764956,30.099843
51,-0.824272,0.184337,-1.982025,-16.586642,-22.269631,-44.121712,-60.712418,-69.290703,-54.59816,-85.345963,-102.736931,-116.571762,-52.703019,-84.787148,-104.644249,-119.538185,-47.76043,-77.282021,-95.440087,-108.728073,-40.473633,-63.876435,-77.304337,-88.6997,-18.860996,-20.01555,-9.445003,-0.056569,-16.768083,-14.925747,-12.550876,-11.130987,-1.478058,0.807035,2.863558,4.45428,13.34445,15.225435,16.452002,16.696114,27.344126,28.437541,28.818133,28.265381,26.005406,52.199169,72.334671,83.336071,71.089783,105.325024,121.576309,132.121491,72.090866,103.966564,117.912998,125.034039,68.941498,87.575867,79.268326,68.57658,64.0551,77.461933,70.673046,61.584091,-23.772254,-32.821771,-30.897344,-25.200955,-25.482512,-31.002091,-33.015704,-33.535513,-10.212617,-18.395566,-23.638293,-28.200253,3.97772,-1.360634,-4.761093,-6.609579,16.983456,11.408221,6.936714,4.897851,143.777996,111.266264,-154.329289,11.761126
52,-0.399605,0.14102,-2.150802,-11.493018,-22.237976,-44.406143,-61.151253,-69.831253,-55.016007,-85.90416,-103.404671,-117.441994,-53.205849,-85.38533,-105.5037,-120.72789,-48.290108,-77.937287,-96.330162,-109.973305,-40.935105,-64.634903,-78.267197,-89.968804,-18.609679,-19.56936,-8.939922,0.572716,-16.293186,-14.435295,-12.160503,-10.749981,-1.046837,1.24645,3.203531,4.908484,13.77459,15.708903,16.924392,17.266743,27.762849,29.035439,29.449957,29.012258,24.763046,50.673099,72.15343,83.742874,70.209434,105.773574,121.978088,132.26168,72.649692,106.852134,122.583938,130.581974,71.069675,90.634563,81.517501,69.971477,67.774486,81.572708,73.509922,63.490322,-26.623628,-38.04567,-37.383656,-31.994988,-31.36238,-38.321793,-40.100477,-40.014884,-14.682976,-25.969117,-31.814269,-36.9141,0.853156,-8.960911,-11.832429,-12.454255,14.740719,4.052093,-0.16843,-0.694439,143.721388,109.81408,-156.137094,-1.325096
53,-0.328949,0.239239,-1.008912,-1.238874,-22.328362,-44.645714,-61.259468,-69.781838,-55.586426,-86.456589,-103.982803,-118.229942,-53.815796,-85.845085,-106.040634,-121.49009,-48.93457,-78.479347,-96.937615,-110.828888,-41.458099,-65.240181,-78.964348,-90.90715,-18.215735,-18.863855,-7.908752,1.812338,-15.493981,-13.646767,-11.496852,-10.092956,-0.327036,1.824904,3.679633,5.529725,14.408786,16.319134,17.474459,17.898487,28.314127,29.739338,30.20653,29.912153,22.17865,47.18256,70.017483,82.866154,66.116146,101.361946,118.013707,129.974179,70.172413,105.000561,122.472359,132.455635,70.646531,90.552899,80.893902,69.001236,69.408783,83.445546,74.766781,64.685841,-30.979329,-44.975215,-44.711991,-38.565979,-33.08148,-41.560898,-46.02575,-47.699346,-13.654739,-29.651547,-39.946002,-47.744227,3.264979,-13.264859,-18.014874,-18.130415,17.324628,0.267274,-5.729716,-5.47079,143.589289,108.42924,-156.949156,-4.188049
54,-0.537163,1.020216,0.65157,3.19932,-22.061439,-44.089027,-60.386009,-68.522873,-56.019081,-86.87471,-104.401314,-118.744766,-54.473648,-86.390373,-106.592743,-122.054031,-49.674316,-79.166496,-97.650673,-111.636589,-42.137604,-65.843696,-79.594643,-91.666351,-17.961787,-18.442341,-7.211837,2.73952,-15.056158,-13.175895,-11.077085,-9.670825,0.129972,2.287964,4.070914,5.91966,14.826187,16.830692,17.92625,18.258306,28.673921,30.291251,30.869803,30.642981,19.88063,44.359176,68.438896,81.930759,63.432987,98.868267,115.064174,126.859897,67.953083,103.978191,121.814907,132.289856,68.984413,90.474678,80.867225,69.160389,68.099842,83.099647,74.608589,64.900612,-32.015119,-47.898288,-49.174317,-43.07952,-32.475388,-41.21727,-45.691162,-47.126945,-12.627527,-30.318508,-41.175829,-49.21498,4.065591,-16.247355,-21.267991,-20.495085,17.630156,-3.540855,-9.765797,-8.507286,143.183784,108.234964,-156.165928,-2.203221
55,-0.896232,1.703262,1.182838,6.480977,-21.915505,-43.487481,-59.632714,-67.735039,-56.193032,-87.051384,-104.442765,-118.685143,-54.845582,-86.814377,-106.950371,-122.322945,-50.059617,-79.610093,-98.055771,-112.01207,-42.496674,-66.242936,-80.005829,-92.073853,-17.936389,-18.482998,-7.503367,2.266215,-14.919493,-13.135912,-10.980175,-9.514103,0.38326,2.516341,4.292141,6.075345,15.164487,17.19668,18.181921,18.308398,29.043077,30.724232,31.23119,30.797295,18.902973,43.378796,68.284779,81.775578,61.594368,95.81892,108.217667,116.969776,66.170632,103.14616,121.305142,132.412228,67.513161,90.599648,81.395016,70.303379,66.961876,82.571915,74.209671,65.042004,-31.635026,-47.91756,-49.780113,-43.420994,-31.157615,-39.153379,-41.76633,-41.512585,-11.40674,-29.138654,-39.777077,-47.470042,4.952173,-15.73808,-21.029035,-20.039904,18.339342,-3.653895,-10.080619,-8.605729,142.316157,109.364565,-154.954485,3.704095
56,-0.904839,1.700254,0.740227,8.28304,-21.963112,-43.315155,-59.321091,-67.476906,-56.25499,-87.121559,-104.53244,-118.825356,-54.822189,-86.893639,-107.049591,-122.424934,-49.921074,-79.558502,-98.077263,-112.04924,-42.25676,-66.03717,-79.841881,-91.969803,-17.829968,-18.411929,-7.654698,1.974809,-14.894558,-12.749293,-10.43238,-8.826548,0.35622,2.926074,4.926368,6.863688,15.145678,17.583664,18.772471,19.002905,29.072477,31.003128,31.648346,31.274027,18.806408,43.122105,68.224388,81.680122,60.50592,94.759243,106.654564,115.059746,64.817917,102.875553,121.441852,133.045681,66.303177,90.867325,82.099274,71.243317,66.052505,82.684902,74.671543,65.658657,-30.866382,-46.985648,-49.157058,-42.663014,-29.279909,-37.282879,-39.57595,-38.643494,-9.883771,-27.335808,-37.931265,-45.365848,6.130402,-14.512996,-20.063345,-19.060209,19.47127,-2.289711,-8.960818,-7.700746,141.4172,111.061407,-154.208376,11.983723
57,-1.000237,2.019152,0.810104,7.483248,-21.958854,-43.138984,-59.073165,-67.262809,-56.222923,-87.144836,-104.537818,-118.742294,-54.722442,-86.986885,-107.073143,-122.371627,-49.77111,-79.55413,-97.959411,-111.738281,-42.172439,-65.944198,-79.646072,-91.614051,-17.996904,-18.678654,-8.011795,1.483943,-15.086138,-12.602586,-10.067991,-8.354417,0.235467,3.150839,5.376053,7.330509,15.053917,17.679816,19.003195,19.247931,28.981197,30.955086,31.707614,31.346497,18.909943,43.364285,68.457836,81.807839,60.266911,94.735806,106.997589,115.596428,64.383065,102.674938,121.55016,133.398091,65.595681,90.983174,82.875264,72.299996,65.061413,82.603981,75.259289,66.397934,-30.356761,-46.277135,-48.676954,-42.145588,-27.111876,-35.536275,-38.046892,-37.239956,-7.899316,-25.060145,-35.480767,-42.697933,7.781176,-12.855274,-18.846151,-18.19805,20.815607,-0.396937,-7.549908,-6.904974,140.470047,113.151276,-153.345188,19.537688
58,-0.997375,1.419549,0.800297,5.78058,-22.212502,-43.294373,-59.20974,-67.57077,-56.211708,-87.21714,-104.622734,-118.78949,-54.498894,-86.881805,-107.003311,-122.321938,-49.353722,-79.255737,-97.783608,-111.615212,-41.628227,-65.47316,-79.262077,-91.357315,-17.893071,-18.568565,-8.090551,1.41456,-14.97981,-12.249985,-9.538277,-7.713849,0.2853,3.575207,6.060142,8.096134,15.178752,18.101911,19.603891,19.904134,29.25729,31.380788,32.200549,31.783833,18.396687,43.056542,68.451714,81.946804,59.746491,94.370625,107.068508,115.974072,63.972576,102.268398,121.541908,133.728218,65.078247,90.916088,83.369339,72.83852,64.374836,82.411423,75.554489,66.601307,-29.863283,-45.747151,-48.857327,-42.593088,-24.772715,-34.396505,-37.487347,-36.989763,-6.033003,-23.376897,-33.629429,-40.744787,9.100782,-11.91523,-18.245802,-18.042439,21.591643,0.501531,-7.030476,-6.925642,139.570581,114.859082,-152.446982,25.606525
59,-0.603951,1.211148,0.717888,4.181942,-22.218727,-43.399131,-59.425781,-67.870468,-55.974792,-87.267746,-104.840126,-119.105667,-54.082992,-86.903274,-107.176437,-122.639579,-48.847343,-79.079109,-97.696655,-111.596649,-41.089965,-65.18708,-79.072723,-91.266838,-17.826868,-18.351704,-7.805011,1.725727,-15.024042,-11.848749,-8.999635,-7.043826,0.2235,3.882489,6.545334,8.712446,15.174855,18.340898,20.04913,20.590712,29.293772,31.526988,32.413477,32.132599,17.820431,42.480148,67.923134,81.320183,59.023167,93.721275,106.66563,115.732475,63.384121,101.58292,121.164574,133.527225,64.305405,90.21944,83.065155,72.551502,63.374153,81.765015,75.225323,66.076755,-29.53789,-45.367231,-48.883498,-42.597392,-23.178518,-33.933334,-37.501896,-37.194015,-4.731663,-22.627025,-32.87453,-39.931954,10.103948,-11.219229,-17.559699,-17.50489,22.241343,1.235811,-6.422469,-6.556548,139.140031,116.496558,-151.555693,30.214795
60,-0.653732,1.167565,0.892181,3.004806,-22.168167,-43.361961,-59.134964,-67.428154,-56.137573,-87.431328,-105.079193,-119.379021,-54.099586,-86.983314,-107.268791,-122.701263,-48.765793,-79.080826,-97.711052,-111.556892,-40.943298,-65.10997,-78.979317,-91.14505,-17.780383,-18.156777,-7.408938,2.251346,-15.007765,-11.487485,-8.485977,-6.413509,0.18727,4.173698,7.013648,9.289145,15.125423,18.587707,20.438762,21.083115,29.304615,31.671891,32.639594,32.481834,16.824932,41.402344,66.686909,80.209328,58.625336,94.580658,111.550667,123.900055,63.089207,100.82745,120.504822,132.716996,63.827683,88.883744,81.768483,71.300927,62.690529,80.652672,74.184449,64.959504,-29.344673,-45.375858,-49.295719,-43.131465,-22.709715,-34.348679,-39.470147,-40.417806,-4.481203,-22.457007,-32.531532,-39.513255,10.298412,-11.191435,-17.350872,-17.577002,22.428601,1.34225,-6.242529,-6.580544,138.698273,118.085326,-150.451538,33.640804
61,-0.492462,1.209838,0.954277,2.215098,-22.914459,-44.147964,-59.945618,-68.23494,-56.214043,-87.364632,-104.98391,-119.418182,-54.120781,-86.817604,-107.208092,-122.901329,-48.786278,-79.016075,-97.784866,-111.790237,-40.919861,-65.175957,-79.200851,-91.600342,-17.63367,-18.00311,-7.580147,2.065089,-14.743164,-11.186297,-8.115294,-6.015546,0.328871,4.218826,7.157911,9.520216,15.276151,18.649792,20.576195,21.318299,29.542787,31.905234,32.963426,32.889894,15.809464,40.533028,65.934769,79.580098,57.989937,93.806649,111.524289,124.396191,62.670456,100.005078,119.875054,132.162392,63.373043,87.676049,80.554688,70.294476,62.122868,79.666111,73.166188,64.108807,-29.511133,-45.757395,-49.609756,-43.375169,-22.712999,-34.91674,-40.449836,-41.772882,-4.482444,-22.831974,-33.052099,-40.140318,10.335426,-11.696368,-17.908305,-18.224134,22.437012,0.774054,-6.864102,-7.207415,138.448431,119.65456,-149.254641,36.215298
62,-0.553665,1.152411,0.723862,1.812338,-23.014847,-44.050049,-59.603668,-67.666351,-56.228325,-87.462113,-105.14756,-119.706185,-54.133988,-86.828453,-107.282112,-122.987755,-48.829582,-79.208611,-98.109558,-112.198998,-40.935517,-65.395683,-79.567681,-92.053024,-17.467876,-17.689393,-7.160034,2.611728,-14.356075,-10.748943,-7.55867,-5.315932,0.652714,4.568191,7.585606,10.001702,15.628869,19.060407,21.085314,21.903248,30.028133,32.479822,33.653413,33.768281,14.887333,39.463085,64.907284,78.527699,57.109955,92.808861,110.60796,123.523132,62.083271,99.152973,119.112705,131.38512,62.867329,86.614231,79.301491,68.996487,61.640671,78.83527,72.141518,63.029286,-29.575076,-46.071921,-50.016161,-43.613514,-23.032348,-35.598452,-41.18721,-42.525231,-4.880926,-23.829843,-34.342943,-41.637809,9.983213,-12.496549,-18.597434,-18.794245,22.07939,-0.01064,-7.497118,-7.675348,138.144888,121.033571,-148.280657,38.254236
63,-0.661217,1.782809,0.276112,1.740614,-22.934555,-43.702034,-59.005531,-66.797012,-56.29184,-87.638901,-105.325378,-119.809273,-54.345016,-87.227257,-107.682678,-123.210594,-49.099663,-79.802421,-98.738182,-112.684914,-41.217155,-65.936874,-80.161697,-92.484466,-17.610495,-17.783279,-7.256069,2.454733,-14.19269,-10.456148,-7.167784,-4.85491,0.888533,4.871292,7.906794,10.286569,15.860525,19.282684,21.34453,22.147421,30.237194,32.685598,33.8933,34.071722,14.218746,38.561771,63.910927,77.497924,56.773372,92.034931,109.634067,122.442535,61.897064,98.406681,118.11898,130.205909,62.607113,85.57513,78.028152,67.719749,61.264377,78.053764,71.203617,62.036842,-29.65214,-46.38899,-50.584616,-44.153409,-23.403338,-36.564463,-42.24697,-43.56415,-5.381907,-24.924949,-35.635533,-42.967474,9.407786,-13.300563,-19.156009,-19.113253,21.466913,-0.617165,-7.89374,-7.910333,137.799082,122.814993,-147.689134,39.993463
64,-0.919166,2.486652,0.195648,2.10698,-23.286713,-43.994225,-59.445672,-67.713479,-56.591012,-87.800995,-105.335335,-119.69703,-54.770897,-87.5495,-107.954018,-123.446068,-49.581482,-80.338715,-99.34845,-113.367074,-41.712594,-66.502762,-80.758873,-93.060219,-17.821583,-18.338934,-8.605303,0.480869,-14.350339,-10.500473,-7.107337,-4.82359,0.718799,4.849365,7.932167,10.337513,15.733307,19.306062,21.379283,22.159043,30.251335,32.828032,34.098633,34.244475,13.413895,37.513595,62.886783,76.75312,56.419475,91.293194,108.84462,121.636951,61.834785,97.81501,117.242683,129.208008,62.619095,85.165867,77.516659,67.208988,61.251228,77.59631,70.748211,61.673767,-29.930351,-46.978269,-51.464171,-45.168988,-23.863725,-37.762539,-43.742899,-45.314892,-5.904519,-25.795908,-36.696856,-44.143431,8.725629,-14.395386,-20.513438,-20.53137,20.516704,-1.825929,-9.137894,-9.094305,137.167935,125.203743,-147.205467,42.002541
65,-0.788132,2.877668,-0.06173,2.447792,-23.653748,-44.524475,-60.385575,-69.251312,-56.877045,-88.013992,-105.556641,-119.941841,-55.218979,-87.910607,-108.501068,-124.287644,-50.146179,-80.927193,-100.282585,-114.703949,-42.312378,-67.197487,-81.712715,-94.281624,-18.057865,-18.883727,-9.804416,-1.393219,-14.154868,-10.110525,-6.686378,-4.424281,0.917179,5.059038,8.04527,10.465589,15.927907,19.398379,21.437291,22.29598,30.447442,33.092286,34.50353,34.750063,12.918732,36.872624,62.347699,76.391224,56.01376,90.724846,108.294869,121.061154,61.648819,97.4007,116.5295,128.384343,62.525517,85.115902,77.695805,67.617829,61.154778,77.382042,70.733117,61.873009,-30.044416,-47.410663,-52.095871,-45.791808,-24.193046,-38.735045,-45.099771,-47.047256,-6.288588,-26.32764,-37.395308,-44.908327,8.160194,-15.259274,-21.845604,-22.036962,19.690033,-2.718055,-10.260399,-10.326441,136.666374,127.97885,-146.980626,44.347772
66,-1.2052,3.754283,-0.375389,3.266974,-23.958184,-45.727616,-62.717949,-73.007149,-56.942826,-88.318268,-105.96032,-120.368752,-55.296135,-88.369423,-109.266999,-125.143753,-50.317727,-81.58992,-101.303696,-115.9292,-42.591317,-67.849343,-82.550835,-95.120041,-18.494582,-19.854141,-11.960166,-5.211883,-14.051029,-10.061297,-6.607492,-4.195768,1.237935,5.272009,8.120142,10.635804,16.270641,19.743583,21.702503,22.645556,30.701168,33.364748,34.96186,35.336204,12.808445,36.366143,61.754986,75.901772,55.406205,90.161339,107.568558,120.157448,61.27129,97.169815,115.911003,127.465954,62.391621,85.285859,77.990662,68.015705,61.197831,77.371674,70.814679,62.111241,-29.94745,-47.58517,-52.735927,-46.456503,-24.729318,-39.637855,-46.277624,-48.434603,-6.883356,-27.01391,-38.212983,-45.709952,7.423492,-15.973313,-22.681767,-22.750699,18.839711,-3.56826,-11.107621,-11.042351,135.81114,131.689265,-147.006049,47.570878
67,-2.123063,4.121957,-0.472595,4.370329,-24.138519,-46.955978,-65.504173,-77.88153,-57.190269,-88.455711,-106.356033,-121.066749,-55.534835,-88.681617,-109.917274,-126.08274,-50.491081,-82.041458,-102.235977,-117.244606,-42.575981,-68.169593,-83.071678,-95.729599,-18.783709,-20.650042,-14.422698,-10.294695,-13.466777,-9.171332,-5.758269,-3.32739,1.817265,6.008365,8.835947,11.502058,16.729626,20.518075,22.577525,23.666642,30.928503,33.81568,35.622683,36.013711,12.781792,35.849144,61.239441,75.60339,54.750733,88.851071,103.976784,115.066532,60.970654,97.252487,115.631458,127.181763,62.546368,85.889717,78.614182,68.759777,61.771843,77.825466,71.152874,62.509964,-29.893448,-47.692128,-53.289197,-47.218971,-25.099084,-40.405239,-46.495405,-47.717316,-7.439016,-28.022503,-39.507512,-47.034035,6.716994,-16.873905,-23.609177,-23.414731,18.053104,-4.699731,-12.227125,-11.922485,134.198432,136.075406,-146.968289,52.205391
68,-2.740058,4.844907,-0.324177,5.20293,-24.123505,-47.91932,-67.930436,-82.452301,-57.451607,-88.806221,-106.965821,-122.058243,-55.630234,-88.903954,-110.463547,-126.947686,-50.369202,-82.182587,-102.911156,-118.420006,-42.165848,-68.121598,-83.337639,-96.263924,-18.90689,-21.317786,-16.661169,-14.890939,-12.928128,-8.211119,-4.745266,-2.172954,2.311527,6.915589,9.821538,12.77164,17.111385,21.427825,23.730819,25.101703,31.127555,34.312283,36.43977,37.028029,13.093003,35.765007,61.027657,75.431694,54.320149,88.351982,102.455578,112.808751,60.731049,97.494416,115.589276,126.922955,62.677002,86.482956,79.262593,69.516953,62.272705,78.38245,71.657135,63.098809,-29.766891,-47.648428,-53.592874,-47.727005,-25.5159,-41.070403,-47.060175,-47.850981,-7.937689,-28.740235,-40.403894,-47.89638,6.185298,-17.250756,-23.99886,-23.710152,17.553548,-5.095453,-12.628614,-12.227947,131.977015,141.214995,-146.773825,57.703003
69,-3.24321,5.526896,-0.281261,6.630012,-24.349686,-49.315201,-70.451866,-86.572037,-57.785088,-89.310929,-107.871575,-123.356461,-55.665322,-89.057144,-110.986176,-127.706772,-50.118347,-82.375077,-103.71611,-119.513718,-41.556061,-67.933892,-83.50438,-96.585137,-18.891205,-21.670813,-18.265661,-18.544019,-12.234875,-6.910464,-3.222704,-0.429412,3.077443,8.032346,11.079642,14.233902,17.805472,22.536085,25.18414,26.877262,31.579605,34.99118,37.574817,38.535876,13.76374,36.100181,61.282848,75.634277,53.825752,87.566734,99.711502,108.72559,60.415157,97.767322,115.653168,126.864555,62.786556,87.012691,79.871807,70.319858,62.793548,79.067631,72.241127,63.712955,-29.841819,-47.813264,-54.011801,-48.192801,-25.957231,-41.501359,-46.758604,-46.502822,-8.526936,-29.685047,-41.605162,-49.054861,5.60656,-17.814438,-24.574034,-24.119532,17.189394,-5.411306,-13.006193,-12.526565,129.285971,147.025866,-146.50292,64.61699
70,-3.802964,6.431639,-0.045994,8.319454,-24.492874,-50.673133,-73.027267,-90.604476,-58.069953,-89.633651,-108.850524,-125.128074,-55.710136,-89.155929,-111.674743,-128.879905,-49.979599,-82.670722,-104.770111,-120.973915,-41.177856,-67.945678,-83.8488,-97.141731,-18.708109,-21.971785,-19.803561,-22.15745,-12.191964,-5.919024,-1.879794,1.221374,3.370498,9.119535,12.639766,16.152685,18.259967,23.96405,27.247814,29.424368,32.015637,35.981002,39.163247,40.598216,14.668362,36.605988,61.753773,75.994091,53.283943,85.801975,94.349098,100.517613,60.020943,98.07954,116.404106,128.137859,62.825581,87.629849,80.254841,70.757012,63.324818,79.811291,72.682697,64.23222,-29.953254,-48.088424,-54.557774,-48.790779,-27.301235,-41.726211,-45.333818,-43.764073,-9.768422,-30.566751,-42.498814,-49.907455,4.73935,-17.979936,-24.262892,-23.28174,16.928974,-5.483962,-12.619982,-11.668963,126.07648,153.672915,-145.955441,73.151854
71,-4.241157,7.541751,0.295109,9.785736,-24.456528,-51.39933,-74.424202,-92.680275,-58.812149,-89.856674,-109.927895,-127.11367,-56.336746,-89.125122,-112.291328,-130.418255,-50.379753,-82.798096,-105.740021,-122.661552,-41.253845,-67.880104,-84.340096,-98.174904,-18.555993,-22.204658,-20.441622,-23.962803,-12.295255,-5.026891,-0.515752,3.108404,3.465297,10.227967,14.375335,18.369907,18.507129,25.165911,29.323727,32.244472,32.320919,36.935144,40.82069,42.88408,16.558983,39.283836,63.153362,75.455852,53.787002,86.005062,94.872562,101.616611,59.698105,97.644859,116.499298,129.195671,62.238979,88.917755,81.545277,71.939506,62.757431,81.063377,74.815979,66.810196,-29.183325,-46.401792,-52.139794,-47.409318,-28.475443,-41.65702,-44.393224,-42.582183,-11.67801,-30.727888,-41.780477,-48.63812,2.724119,-18.045428,-23.353463,-22.042878,15.428618,-5.39456,-11.898959,-10.798406,122.405708,161.149603,-145.089947,82.872527
72,-4.36702,9.879757,0.873436,11.540868,-24.873069,-52.3003,-75.402397,-93.93386,-58.764908,-89.463913,-110.25151,-128.047085,-56.250686,-88.770767,-112.502037,-131.479259,-50.370987,-82.611351,-106.168304,-123.563678,-41.553543,-68.08271,-85.220421,-99.687721,-19.105775,-23.107869,-21.409572,-24.909857,-13.247736,-5.436309,-0.221869,4.236572,3.115493,10.398979,15.225972,19.810285,18.615934,25.803916,30.768538,34.359053,32.627843,37.771541,42.459558,45.190557,18.64349,43.108349,66.660026,78.502109,53.723968,86.858677,98.424225,107.025112,58.190174,96.674984,116.423035,130.085873,60.161728,89.766609,86.352127,79.555298,60.481476,81.608734,78.447258,72.430389,-28.806951,-44.403758,-48.11904,-43.76324,-30.90618,-41.216208,-42.567628,-40.554843,-13.893355,-29.346878,-38.243716,-43.839743,1.437314,-15.365176,-20.344038,-19.969639,15.423777,-2.235878,-8.765774,-9.013023,118.550829,170.304574,-143.70437,93.688609
73,-5.165176,12.166288,1.367386,13.306281,-25.359284,-53.140091,-76.205818,-95.136566,-58.822701,-87.716217,-108.849564,-127.080975,-56.453545,-87.41066,-111.252503,-131.233269,-50.891991,-81.669617,-105.362686,-123.279419,-42.520477,-68.159752,-85.60611,-100.554016,-20.132845,-24.527943,-22.69587,-25.797902,-13.838922,-5.67874,0.039891,5.450141,2.77457,10.438092,15.798287,21.132782,18.539203,26.28946,31.846195,36.036479,32.537058,38.507286,43.885796,47.313438,22.263508,48.426155,71.303592,84.090317,55.038093,87.865905,100.988651,110.969673,56.975006,94.897579,115.826648,131.479648,57.357307,89.022457,91.658821,90.346824,56.652294,79.876785,81.699268,80.399437,-27.202582,-41.201246,-44.22086,-40.900435,-30.324806,-37.374209,-37.014988,-34.413832,-14.487345,-25.535512,-31.758256,-35.816221,0.555667,-11.599049,-15.34415,-15.114241,14.657528,0.750829,-4.753856,-5.817661,113.900368,181.450137,-141.822269,105.974165
74,-5.870293,13.759524,2.530895,14.749518,-25.895965,-53.527496,-76.240127,-95.364143,-58.088951,-84.787697,-106.019325,-124.621113,-55.529297,-84.519218,-108.042778,-128.634842,-49.927047,-78.60054,-101.976745,-120.103248,-41.892265,-66.002197,-83.168564,-98.244346,-20.614128,-25.330884,-23.499675,-26.075483,-14.079971,-5.834735,0.514467,6.881181,2.284209,10.451603,16.774301,23.141658,17.8577,26.210863,32.668845,37.720622,31.489239,38.200262,44.189101,48.321624,24.803947,51.324131,72.854164,86.173599,57.240532,89.283462,104.327831,116.049007,56.530701,93.142811,114.963787,132.391937,54.640503,87.04874,95.271767,99.431889,51.892845,75.690708,81.788532,84.655106,-25.521433,-37.593953,-39.76377,-37.212262,-29.241352,-32.216876,-29.70863,-26.173276,-14.136812,-19.322723,-21.826998,-23.336234,0.747977,-4.96997,-6.077389,-5.332068,14.876051,6.985034,3.689995,2.58,108.483598,193.721979,-138.837851,119.236001
75,-8.472564,16.810907,5.594868,19.611628,-27.865883,-56.416123,-79.03727,-97.5042,-62.324685,-90.998246,-109.848988,-124.560322,-59.643242,-91.29039,-112.164242,-128.403592,-53.801743,-84.268731,-104.821496,-119.311238,-45.511437,-70.538819,-86.338967,-98.947587,-21.361888,-26.251879,-24.630659,-24.745107,-12.622056,-3.437781,3.131771,9.077483,4.353009,14.754656,20.815459,26.077137,20.109466,29.75162,35.4951,39.552868,33.398698,41.331564,46.370533,49.302085,26.507251,54.819729,76.35474,89.547558,58.366848,94.240677,112.163898,124.702617,55.411903,94.590683,114.910892,129.498241,51.861179,88.71841,100.784786,106.776935,47.923164,75.800113,85.832576,90.887764,-23.647042,-33.655814,-34.193994,-31.130241,-25.651257,-24.737468,-20.692137,-16.943485,-10.434813,-10.369641,-9.714482,-9.471698,4.840004,4.218758,4.034426,4.026732,19.198839,15.964989,12.910159,10.514157,100.451546,208.349981,-132.802471,136.664724
76,-7.705605,16.741302,4.757126,21.088198,-30.574791,-60.263443,-83.575504,-101.799168,-65.745529,-95.463524,-112.967548,-125.912212,-61.816864,-94.382366,-114.091816,-128.615215,-55.268349,-85.979496,-105.621563,-119.346371,-46.783768,-71.80648,-87.131607,-99.263237,-21.782346,-28.867045,-29.891472,-29.913184,-10.218248,0.326364,7.339556,13.11275,7.227849,19.396311,26.153115,31.31934,23.026951,34.050524,39.764425,43.207431,35.846633,45.165252,49.980796,52.33918,28.939292,57.712314,79.974723,95.457298,60.009075,96.58612,114.490516,126.636486,55.00209,95.038581,115.498237,129.926044,49.890815,87.765426,105.72401,116.780548,44.505157,73.708293,87.701946,96.660003,-23.05459,-31.909784,-31.730875,-27.853221,-21.698014,-16.586772,-10.429064,-4.955433,-5.88553,-1.254391,1.934962,4.264231,10.103053,14.411293,15.310972,15.398145,24.898526,26.328906,24.266504,21.420341,93.220213,222.565528,-127.571073,155.227167
77,-13.107605,16.280225,13.749904,27.04886,-29.997414,-59.518112,-83.255785,-101.155426,-66.179666,-94.437567,-109.075556,-118.762625,-62.269117,-92.791803,-109.222824,-119.673283,-55.983524,-84.224407,-100.752159,-111.341377,-47.919788,-71.034267,-83.891527,-93.461449,-15.818906,-21.471038,-22.947589,-22.267866,-2.656528,8.745167,14.870493,19.118996,10.686952,23.785091,30.328085,34.569937,22.297734,33.509546,38.476854,40.93938,31.038313,39.803463,43.973598,45.83533,26.763519,52.635292,73.845051,89.731213,57.916569,92.193318,106.154869,113.81884,54.224556,90.820645,105.167965,112.214173,49.529137,82.443363,95.410217,101.60685,43.858109,68.934769,79.290333,84.534325,-23.089534,-31.957023,-32.588816,-28.813088,-18.5816,-8.924867,-0.78515,5.743511,-1.358762,9.742616,16.252332,20.183413,16.008671,26.980065,31.641517,33.712379,31.814838,39.558142,41.299491,40.681271,80.582073,236.358992,-113.351704,179.789266
78,-17.991051,15.531488,8.40184,25.872447,-26.073578,-54.146942,-78.032953,-95.588997,-62.78243,-88.336733,-99.046651,-104.125093,-60.213335,-87.186693,-98.685905,-102.625202,-55.292232,-79.626548,-91.145908,-96.044735,-48.675579,-68.822605,-77.617819,-82.65715,-3.66987,-4.125187,-4.013567,-2.453924,9.217052,20.911394,25.140254,26.612594,14.433387,27.264332,32.878439,35.263468,18.000968,27.936239,31.67953,32.778199,19.344156,25.366649,28.652395,29.962473,25.085724,50.899029,73.047924,88.233765,55.988697,93.004715,106.114231,111.451516,52.508023,91.449143,104.175888,107.444481,47.999943,82.206047,93.31445,96.154793,42.318821,67.845601,76.508686,78.66235,-23.301443,-31.465688,-30.336285,-25.041064,-13.986709,-0.901556,7.437405,13.691302,6.076019,20.035675,26.507896,30.468543,24.756778,38.180317,42.935951,45.078999,40.332776,51.322386,54.04243,54.318652,62.972351,249.450135,-104.568535,203.221368
79,-14.609504,15.596969,6.413773,23.787803,-24.216156,-52.165936,-76.18083,-92.872868,-64.369738,-84.918967,-88.282385,-86.847765,-62.251814,-83.639334,-86.97139,-83.208859,-57.500874,-76.766568,-80.140332,-78.402089,-50.555512,-67.596726,-71.995165,-72.708641,5.614823,9.219793,10.595506,13.845825,16.947758,26.822983,29.792776,30.213556,16.274302,27.262022,31.877637,32.863674,13.948967,22.350407,25.13569,25.359591,10.135799,14.611345,17.568541,19.084199,25.874565,52.680347,75.834812,91.364387,54.794964,92.869549,106.215042,111.318123,50.806847,91.123821,103.702629,105.798363,46.403732,82.076019,93.166214,95.198994,41.309532,68.368584,77.42696,79.537857,-22.168274,-28.863155,-26.042063,-20.029302,-8.124292,7.313694,15.587619,21.467049,13.079861,28.887361,35.357915,39.002264,31.947699,47.116219,51.88009,53.86355,46.835551,59.237467,62.136525,62.438274,48.757399,262.754771,-97.76021,224.716838
80,-8.50541,12.656833,3.493286,18.790502,-20.774849,-47.175647,-71.844606,-89.889553,-63.403593,-79.043592,-81.567083,-80.397348,-62.523908,-74.611227,-73.407531,-67.316757,-58.053588,-68.118438,-66.971843,-62.706573,-51.055378,-62.752647,-63.843126,-62.270507,16.771208,25.469143,28.673224,31.699809,27.084398,35.423594,37.303591,37.204494,17.922631,25.99651,30.188875,31.204095,7.703321,13.82028,16.652444,17.223098,-2.870776,-1.313925,1.749494,4.2487,27.09177,53.466168,76.363438,93.354012,55.310646,90.201954,104.660957,112.054413,50.351154,87.436878,101.676704,106.644035,45.16967,77.765419,90.623772,95.659527,39.377003,64.199799,74.094418,78.201084,-20.997326,-25.922279,-22.04134,-16.68427,-2.824464,13.781161,21.821645,27.955202,18.200798,35.872383,42.962417,47.349858,36.093264,53.693268,59.71749,62.628589,49.499093,64.615779,69.42731,70.934304,40.550274,273.697959,-93.968639,241.793695
81,-8.715591,12.063153,4.664475,16.795816,-16.32193,-41.06004,-64.869764,-83.53616,-62.536017,-72.461706,-72.469088,-69.684351,-63.792063,-66.731798,-56.879517,-43.811794,-60.006775,-60.904346,-50.551964,-39.265091,-53.119492,-59.764698,-55.229651,-48.76815,27.237977,42.779537,49.613208,55.003204,34.912214,41.038077,41.505743,40.628542,17.75651,23.05619,26.026885,26.245747,-0.053309,4.262946,6.739786,7.330262,-16.820726,-17.286496,-14.470931,-11.497914,26.143776,52.421161,75.818664,93.582321,54.211017,88.375785,103.005203,110.509826,49.042923,85.529251,99.762497,104.480712,43.519615,75.338916,87.661811,92.428882,37.669326,61.686767,71.306591,75.261028,-19.280591,-22.567158,-17.48253,-11.820338,2.446205,19.79486,27.740421,33.453224,23.593288,42.160316,49.404837,53.40677,40.644936,59.235873,65.501626,68.262746,52.500385,68.796442,74.021071,75.672474,31.983879,284.521337,-89.154968,257.349736
82,-4.521057,10.536732,-4.142018,9.061601,-14.69204,-38.57935,-61.206024,-79.540833,-62.841191,-65.764321,-60.411473,-54.756329,-64.295643,-58.293297,-42.05753,-24.844288,-59.672333,-52.469227,-36.069843,-20.892952,-51.507683,-54.725876,-47.708187,-39.204346,30.5184,48.844255,57.644603,64.752483,35.799938,40.80245,40.68379,39.902314,16.047574,20.671889,23.635588,24.329873,-4.132745,0.729495,3.804653,5.337669,-22.450498,-22.249933,-18.761306,-14.752753,29.384949,57.865002,82.537022,101.563809,57.665589,93.400646,111.415386,122.948078,49.519844,88.633839,108.688557,120.217793,41.824711,77.547478,96.433171,108.125233,34.65548,62.207325,77.120396,87.296585,-16.705154,-18.004926,-11.220433,-4.809888,9.584393,25.719479,32.238742,37.24481,29.272437,45.062919,50.558409,53.926116,43.788637,59.708141,64.273188,66.081536,52.772902,67.318854,70.781348,71.238116,27.49518,294.150026,-93.264628,265.503294
83,2.979149,5.657203,1.338307,8.166986,-17.005234,-41.569039,-63.69912,-81.717007,-66.396801,-66.17125,-56.642647,-48.870301,-66.749188,-56.063702,-35.996487,-17.122147,-60.746155,-49.751862,-29.572197,-12.960251,-51.236458,-54.258248,-47.025616,-38.548142,28.828217,46.562379,55.357466,63.382586,33.87036,39.31298,40.224317,40.662757,15.89726,21.564898,25.619653,27.349035,-2.72517,3.959103,8.381025,11.212355,-19.612746,-17.738473,-13.458774,-8.237184,30.069866,57.631382,81.891964,102.037445,59.117534,92.271286,110.651413,123.767234,50.441356,87.524986,108.634506,122.606048,41.973701,76.213085,96.251564,110.54084,34.117115,60.978675,77.031074,89.852417,-15.094814,-15.174398,-7.983748,-2.203205,12.587155,27.920202,34.692604,40.187057,30.641481,45.989422,52.250358,56.119651,43.697469,59.825232,65.313534,67.426016,51.993353,66.606032,70.057411,70.223062,30.486649,299.103917,-91.914001,272.966968
84,-2.032563,3.580634,2.702854,7.109819,-14.895423,-37.318462,-58.079052,-75.597141,-63.562156,-60.462661,-50.183738,-42.244834,-64.129875,-49.02658,-28.033069,-8.558235,-58.19197,-42.943622,-21.786941,-4.233627,-49.146961,-50.50803,-43.513,-35.104934,26.782871,43.969566,53.156323,61.797318,33.943448,42.186993,43.669114,44.430064,17.876621,25.502809,29.853052,32.111635,0.970877,9.476206,14.239732,17.539155,-14.350647,-10.445354,-5.651583,-0.140877,29.035286,56.101604,80.384891,100.714313,58.816429,91.955326,110.170612,122.99033,50.337215,87.178608,108.164943,122.187664,41.71677,75.638695,95.349048,109.566501,33.511505,60.103397,75.883415,88.687832,-14.579359,-14.316549,-6.736822,-1.301341,14.346016,28.773963,35.059735,40.21587,32.079919,46.476275,52.386555,55.915134,44.551922,59.888007,64.948021,66.722777,52.383788,66.646837,69.74961,69.640657,28.442722,302.292895,-89.222511,279.685131
85,-2.135559,1.728654,2.88977,5.22033,-13.008293,-33.670955,-52.66999,-68.849819,-58.116531,-49.334552,-33.743488,-23.489547,-58.769004,-40.155761,-17.848251,1.291855,-54.08836,-37.323887,-15.150856,2.185524,-46.878799,-50.056766,-45.67781,-40.358905,17.637819,31.280251,40.809661,50.642711,26.406674,37.268164,39.0456,39.624795,17.543032,27.43467,31.761188,33.844598,6.921332,17.836767,22.057284,24.739203,-2.877989,3.415872,9.040754,15.177041,28.048405,54.710324,78.892697,99.062336,58.263726,91.816372,109.664326,122.06123,49.936215,87.008251,107.675206,121.514683,41.242024,75.36192,94.663388,108.472584,32.954991,59.469464,74.94429,87.587437,-14.521844,-14.190071,-6.254921,-1.105344,15.166507,28.998994,34.831246,39.546545,32.774735,46.01143,51.298488,54.279279,44.908556,59.335218,63.944207,65.23789,52.415319,66.108361,68.643166,68.052042,26.308931,303.824164,-86.330973,284.708076
86,-5.270416,3.787931,2.567585,3.461704,-9.389717,-25.688312,-41.095917,-54.511768,-49.302692,-35.29327,-15.254013,-1.848656,-50.995697,-29.927376,-8.009628,10.303207,-47.843777,-30.838772,-9.608437,7.214287,-42.200134,-47.038673,-46.546921,-44.446609,7.298157,15.59225,23.652223,32.205359,17.116497,28.873109,31.583866,33.021082,15.460833,26.206405,30.698179,33.343876,11.543807,22.766302,26.478317,29.28575,7.487533,14.345621,20.046246,26.464287,27.382874,53.505581,77.407654,97.656487,57.855927,91.561455,109.156266,121.256539,49.666123,86.64972,107.008141,120.862152,40.963829,75.07148,94.088242,107.739487,32.587006,58.817002,74.072045,86.791992,-14.626894,-14.346807,-6.227282,-1.553851,15.6335,28.83002,34.202861,38.472655,33.17899,45.646312,50.503043,53.107849,45.079455,58.925442,63.25869,64.221256,52.322248,65.812749,68.251532,67.539266,21.098705,307.557548,-83.703198,288.115233
87,-12.415432,-0.631843,2.078614,2.444044,-3.769798,-13.22224,-24.633579,-35.425472,-33.099564,-14.807991,3.696797,15.034847,-36.382416,-12.271774,5.819492,19.88522,-36.481201,-17.909294,-0.2616,12.440563,-34.515736,-38.92075,-40.729019,-41.579018,-2.431694,2.278034,10.272453,19.199821,11.567013,26.210889,29.174711,29.811456,16.979165,30.054938,32.92737,33.439861,18.907371,31.197111,32.64023,33.165949,19.444464,27.23492,31.259257,35.807384,26.833923,52.73331,76.362533,96.62471,57.321476,91.163909,108.659843,120.571472,49.131752,86.256912,106.346878,120.133941,40.350792,74.608474,93.302307,106.57283,31.960498,58.091743,73.115638,85.565712,-14.768377,-14.488289,-6.161209,-1.819155,15.953552,28.755179,33.886946,37.79697,33.462091,45.358135,49.848292,52.267932,45.227607,58.506552,62.405497,63.082492,52.24916,65.434738,67.734163,66.882773,8.781818,306.945913,-81.526039,290.579485
88,-9.544876,0.966258,1.48899,1.393237,0.186287,-4.166588,-12.57589,-21.69698,-21.678577,0.615131,18.174625,27.437496,-25.849205,1.372959,17.048664,28.123295,-27.955559,-7.387573,7.530888,17.117855,-28.287449,-32.35865,-36.416496,-40.264515,-12.186049,-11.035638,-2.990745,6.716963,4.96682,21.125446,23.947934,23.985441,17.204072,31.334185,32.717456,31.662894,24.960035,37.830859,37.259569,35.934775,30.540222,39.571109,42.616911,45.692761,26.55296,52.545056,76.047707,96.145501,57.015713,90.891861,108.249459,120.011261,48.591259,85.763146,105.513245,119.08635,39.547509,73.97818,92.495636,105.449959,31.012848,57.344353,72.480561,84.885064,-14.987047,-14.457228,-5.846652,-1.357187,16.167481,28.957622,33.996628,37.640693,33.716738,45.298238,49.388622,51.450567,45.407413,58.349904,61.776669,62.03192,52.236983,65.282931,67.37979,66.342173,-0.629408,307.964233,-79.903399,292.024784
89,-9.986938,-0.225957,1.180722,0.842968,2.993408,2.675079,-3.404023,-10.937428,-8.285397,16.7471,31.984508,38.31689,-13.536221,15.496616,26.697338,33.058284,-18.218892,2.850631,13.092922,17.774471,-21.500313,-25.98594,-32.156765,-38.784634,-19.287062,-19.601754,-10.362361,0.238838,0.177607,17.700262,20.048296,18.705299,17.113089,33.096504,33.178706,30.105623,28.766985,42.850056,40.175497,36.500422,37.427073,46.897289,48.075931,48.933027,26.369945,52.35252,75.746555,95.987903,56.782894,90.475353,107.742839,119.457195,48.200809,85.251148,104.75069,118.198459,38.99794,73.571788,91.937107,104.678135,30.377414,57.029503,72.252651,84.751453,-15.259972,-14.496811,-5.560526,-0.768694,16.089774,29.041688,33.991712,37.334249,33.663336,45.013531,48.776292,50.555544,45.398211,58.003755,61.121471,61.127115,52.265215,65.227096,67.131972,65.995123,-10.466217,307.80998,-78.572548,292.939456
90,-13.792901,-0.276988,0.974453,0.383939,6.169728,10.725232,8.006035,2.797108,6.453358,36.218022,49.017552,52.964779,0.653149,34.271702,42.406048,45.568486,-5.650554,19.291478,26.621853,28.153508,-10.930881,-12.030475,-17.807029,-24.571003,-21.059792,-21.039563,-11.149358,-0.435797,-1.053005,16.930778,19.14106,17.439972,16.977906,33.792012,33.280348,29.351972,29.571136,44.001973,40.583384,36.045754,38.913949,48.901065,48.864188,48.2598,26.265461,52.239956,75.493675,95.803321,56.307117,89.855896,107.019561,118.724693,47.635368,84.545402,103.931991,117.407844,38.375152,73.008911,91.330879,103.99736,29.685688,56.496631,71.785102,84.324028,-15.378767,-14.3443,-5.007551,0.268491,15.827125,29.156161,33.943325,36.951076,33.502933,44.819227,48.330479,49.877389,45.397779,57.86788,60.799777,60.643326,52.44218,65.549285,67.306504,66.026097,-24.104908,307.60177,-77.443885,293.392173
91,-10.101722,-3.876814,0.57035,0.386595,6.907505,13.663925,11.929584,7.539516,16.384597,48.846622,60.344707,62.219524,11.172031,48.131092,53.39851,53.044864,3.818092,31.871074,36.37801,34.353275,-3.234169,-1.923249,-6.697472,-13.384552,-20.733281,-17.794876,-4.469878,9.098713,0.941249,21.387934,22.969325,19.748794,19.413119,38.774343,37.594305,32.014501,32.23847,48.752938,44.335499,37.974577,41.54816,52.951905,51.949992,49.862803,26.059822,52.077656,75.218674,95.388016,55.789868,89.284584,106.344269,117.953133,47.02454,83.974571,103.309525,116.712708,37.710457,72.506928,90.861626,103.470108,28.978112,56.063278,71.396988,83.819733,-15.657509,-14.398344,-4.705271,1.08283,15.41988,29.099968,33.717923,36.466743,33.243099,44.495593,47.820482,49.244928,45.232819,57.576183,60.341823,60.11946,52.29199,65.391352,66.962184,65.558239,-34.062824,303.776116,-76.729729,293.829928
92,2.682415,-1.217743,0.379498,0.140803,3.261062,6.796165,3.452533,-1.763146,12.258201,42.93885,55.794502,59.186989,8.535736,44.094864,51.41597,53.433952,2.163974,29.295936,35.804924,36.211052,-4.616444,-4.416779,-8.433712,-14.05877,-17.695581,-12.170969,2.915546,17.519481,3.089633,23.085614,25.249892,22.777492,19.810063,38.943219,38.803255,34.016277,31.587942,48.473357,44.939258,39.197334,40.201297,51.889279,51.880016,50.77172,25.908325,51.909725,74.912349,94.804722,55.323177,88.775585,105.830417,117.448963,46.492401,83.326435,102.587505,115.931614,37.181202,71.921825,90.277347,102.877178,28.464134,55.622658,70.943905,83.288852,-15.824457,-14.37762,-4.525539,1.641264,15.213375,28.993473,33.463894,36.015631,33.066901,44.31932,47.490846,48.781578,45.042035,57.36617,60.082756,59.826146,52.023215,65.151958,66.683702,65.251191,-31.251228,302.601327,-76.22105,294.013685
93,-2.178795,-0.158575,0.402031,0.389695,3.210251,6.564228,3.317757,-1.330593,14.471866,45.366051,58.476723,62.353432,10.684032,46.704208,54.783851,57.539932,4.05027,31.710846,38.979584,40.322754,-3.18346,-2.278896,-5.054466,-9.404526,-17.019661,-10.091759,6.056913,21.383797,3.004775,23.10451,25.682293,23.492512,19.169304,38.58477,38.906761,34.371761,30.742245,48.21114,44.969429,39.238225,39.297197,51.519233,51.557025,50.311,25.647972,51.542598,74.448429,94.276005,54.64254,88.210521,105.329235,116.966137,45.967895,82.893459,102.274029,115.714359,36.866031,71.697612,90.131641,102.837627,28.354156,55.605446,70.867916,83.189266,-16.106706,-14.685854,-4.760167,1.681229,14.778269,28.523565,32.867224,35.23061,32.634598,43.813337,46.938291,48.195023,44.670902,56.959345,59.642413,59.365932,51.665939,64.782493,66.293513,64.862484,-33.318724,302.485285,-75.70772,294.445913
94,-1.181992,0.648626,0.263992,0.473144,3.296746,7.492585,4.970581,0.665177,15.722409,47.063484,60.415467,64.453446,12.061455,48.88916,56.921036,59.4711,5.365769,33.778199,41.046318,42.296425,-1.966884,-1.223934,-4.441852,-9.084869,-17.296204,-11.073787,4.23598,19.121954,2.217643,22.574926,24.931556,22.528341,18.520135,38.239412,38.289665,33.537835,30.112552,47.712926,44.275318,38.321059,38.647434,50.655864,50.739165,49.599055,25.324242,51.129124,73.987965,93.713024,53.994553,87.764454,104.959774,116.611851,45.385952,82.555264,102.035168,115.437893,36.425983,71.468273,90.010838,102.732182,28.118019,55.532021,70.840954,83.094578,-16.390808,-15.049379,-5.151615,1.448281,14.296455,27.937479,32.245299,34.59936,32.208125,43.329066,46.425404,47.716803,44.299473,56.573874,59.16812,58.886329,51.262018,64.328182,65.788925,64.312399,-34.377548,303.154135,-75.32056,294.939281
95,-0.092113,0.74702,0.149185,0.36198,3.19891,7.800762,5.632107,1.506054,15.736439,46.669933,60.318546,64.764828,12.275139,48.878277,56.907383,59.580608,5.690037,33.968662,40.999111,42.202022,-1.560814,-0.980988,-4.557095,-9.456001,-17.304862,-11.72255,2.961364,17.840805,1.682884,21.963992,24.114956,21.716508,17.920118,37.687647,37.521106,32.848811,29.337386,46.973118,43.349011,37.445857,37.702541,49.58889,49.717665,48.682802,25.027886,50.803265,73.530705,93.079571,53.276985,87.233425,104.522152,116.182926,44.755497,82.208073,101.817776,115.18887,35.982857,71.309292,89.991474,102.76109,27.921719,55.573185,70.927082,83.111263,-16.619777,-15.400318,-5.605418,1.046855,13.826943,27.360027,31.612692,33.923738,31.841921,42.93111,45.962018,47.23026,44.003109,56.232149,58.747922,58.455991,50.944597,63.91411,65.337222,63.865957,-34.337385,303.903671,-75.039099,295.303777
96,0.611709,-0.346803,0.294731,0.32067,2.864525,7.406662,5.305539,1.018204,14.766907,44.458981,59.263791,64.870663,11.353398,46.980275,56.406292,60.757588,4.752205,32.503979,40.935002,43.636059,-2.581627,-2.63356,-5.90934,-10.357841,-16.858579,-11.598049,2.438932,17.116498,1.905198,22.059248,24.367429,22.255923,17.932653,37.505397,37.567,33.164294,29.143688,46.640111,43.448158,38.06367,37.431309,49.057788,49.726508,49.257909,24.739472,50.337433,72.88171,92.278782,52.588257,86.670079,103.994397,115.586369,44.190285,81.85207,101.513409,114.810093,35.58244,71.095082,89.873303,102.675053,27.733555,55.586094,70.978924,83.104054,-16.795828,-15.696547,-5.99447,0.697866,13.462368,26.866234,31.072721,33.335837,31.483658,42.570463,45.589379,46.854101,43.657628,55.85641,58.341851,58.108645,50.586704,63.434309,64.785433,63.319046,-33.573418,303.536203,-74.59211,295.603782
97,-6.937465,0.692185,0.245579,0.080449,6.824844,16.447918,18.262459,16.597435,22.454109,55.00312,68.939644,73.136329,17.58015,56.506485,64.439483,66.34584,9.829319,40.632316,47.91941,48.692642,1.986728,4.894729,1.594391,-3.362515,-19.499705,-16.938558,-4.848766,9.012028,-0.039384,20.563443,22.198458,19.543672,17.875571,38.082171,37.05599,31.874019,30.132781,47.613471,43.318087,36.943963,38.913961,50.582467,49.956812,48.081008,24.462765,50.08841,72.577858,91.738999,51.815746,86.204544,103.653603,115.276909,43.402268,81.505234,101.331322,114.572525,34.885712,70.845657,89.819939,102.700882,27.233711,55.373715,70.933937,83.130844,-16.842228,-15.914119,-6.296097,0.678661,13.31329,26.666569,30.793893,33.01613,31.425106,42.502611,45.446549,46.699366,43.62017,55.842083,58.197997,57.946018,50.469007,63.333692,64.571084,63.042897,-40.368719,304.19102,-74.204367,295.646863
98,-5.935147,-0.010707,-0.002552,-0.001408,10.113705,23.740906,29.470425,30.409802,28.372982,63.172085,76.722393,80.074986,22.780804,64.337986,71.760807,72.324612,14.437958,47.989643,55.296284,55.29427,6.360592,13.03434,10.853291,6.355854,-20.415341,-19.920078,-9.897035,2.929859,-0.603722,19.911408,21.105562,18.387469,18.15467,38.927719,37.317836,31.733956,30.77417,48.336073,43.703508,36.938763,39.499713,51.716464,50.30128,47.359281,24.393471,50.138226,72.591442,91.43391,51.332714,85.928547,103.480053,115.191136,42.767361,81.193737,101.099018,114.30534,34.221314,70.516583,89.662022,102.720554,26.63467,55.007824,70.738644,83.016529,-16.834336,-16.111621,-6.541567,0.77267,12.99714,26.483344,30.607925,32.834188,31.28303,42.436488,45.371868,46.659982,43.598075,55.896078,58.202949,57.98024,50.483642,63.380586,64.499293,62.884421,-46.149439,304.101198,-74.052492,295.56634
99,-2.960014,-0.752466,0.018551,-0.091267,11.812351,27.573944,35.831165,38.612492,30.502956,65.911297,80.520092,84.470913,24.328457,66.890865,76.458309,78.422939,15.794552,51.025806,60.908855,62.702053,7.752537,17.795883,18.557087,16.441647,-20.516599,-20.928326,-11.916409,0.60282,-0.424621,19.528185,20.928771,18.66852,18.596062,39.263258,38.206227,33.111744,31.362355,48.742218,44.922992,38.649039,39.933374,52.582279,50.961973,47.48908,24.39529,50.165176,72.557785,91.022896,50.90427,85.694412,103.354568,115.129074,42.29726,80.94651,100.960487,114.198578,33.752701,70.270889,89.577667,102.824387,26.209042,54.723507,70.557129,82.926498,-16.757704,-16.243236,-6.696487,0.989278,12.761822,26.415961,30.515312,32.720827,31.113575,42.394399,45.440424,46.868352,43.521036,55.966992,58.351595,58.227785,50.492768,63.539865,64.633526,62.983679,-48.960068,303.255588,-73.884556,295.381929
100,-2.628971,-0.806016,0.138897,-0.009584,13.366333,30.909714,41.428528,45.821423,32.308697,68.577782,84.05191,88.475876,25.54834,69.3116,80.592819,83.6464,16.78656,53.662147,65.715729,68.924538,8.75441,21.369827,24.458748,24.161087,-20.734689,-21.812938,-13.678741,-1.594334,-0.169727,19.573176,21.150887,19.094957,19.206157,40.011031,39.405186,34.448455,32.155811,49.645862,46.351761,40.162048,40.646974,53.884768,52.044211,47.931448,24.302513,50.004536,72.383663,90.593113,50.634727,85.551693,103.225101,114.99416,42.008629,80.775661,100.830768,114.025921,33.433903,70.066692,89.406475,102.68082,25.880436,54.493023,70.367535,82.753406,-16.732991,-16.411889,-6.878601,1.063651,12.56963,26.245555,30.407657,32.700721,30.994174,42.325758,45.518575,47.097681,43.484134,55.986159,58.428104,58.359796,50.537118,63.624698,64.673553,62.97144,-51.451899,302.344402,-73.608519,295.267175
101,-2.076508,0.229329,0.067142,-0.141816,14.883763,34.103268,45.966053,51.111157,34.705124,72.428215,87.630913,91.477204,27.2612,72.869683,83.955803,86.227135,18.095662,56.708542,68.876862,71.730584,9.908696,24.385655,28.192028,28.402279,-21.387144,-23.189626,-15.612307,-4.138945,-0.162095,19.117829,20.463148,18.231994,19.65008,40.163295,39.429256,34.284594,32.745144,49.989552,46.498295,39.997569,41.152055,54.744074,52.613611,47.972981,24.250065,50.004502,72.423546,90.457077,50.476536,85.466378,103.153679,114.963524,41.780125,80.598336,100.646714,113.821381,33.152378,69.849381,89.167946,102.47445,25.577534,54.123997,70.023308,82.507187,-16.645046,-16.459387,-6.897262,1.303539,12.484822,26.210308,30.416215,32.773068,30.996434,42.351928,45.624366,47.331049,43.545823,56.092666,58.574119,58.533203,50.621531,63.84217,64.924667,63.20214,-53.423046,302.465319,-73.436016,295.016947
102,11.422131,-0.810166,0.138199,0.225142,10.712975,25.038723,33.28775,35.609333,21.879581,56.193638,73.650936,79.776363,14.450054,56.97282,70.909481,76.663822,6.510052,41.997139,56.666943,62.620708,-0.168949,10.827152,14.829231,16.206757,-20.018396,-20.588093,-11.915742,-0.026935,0.975756,20.053422,21.955026,19.960105,20.247182,39.831091,39.998225,35.273948,33.17184,49.823431,47.279389,41.652889,41.705833,54.957114,53.884534,50.32608,24.282166,49.953244,72.327805,90.355385,50.574944,85.41346,102.987053,114.685868,41.89555,80.542969,100.471596,113.552307,33.243325,69.808365,89.007683,102.232407,25.612129,54.046097,69.869019,82.353127,-16.750849,-16.670166,-7.072818,1.119399,12.209687,25.943176,30.19027,32.575825,30.742986,41.993627,45.307438,47.11307,43.356298,55.768724,58.275704,58.312668,50.535932,63.723745,64.798289,63.116331,-41.880747,301.529852,-73.177649,295.116788
103,4.750717,-0.578416,0.317059,0.091292,8.313069,20.092644,26.136898,26.349701,16.087555,48.578282,67.518414,74.974812,8.614609,49.680668,65.584339,73.634274,1.184258,35.070042,51.349308,59.261501,-4.921039,4.366493,9.32626,11.971916,-18.97001,-18.419629,-8.528398,3.756414,1.211074,20.629072,23.244251,21.524564,20.232362,39.473889,40.45561,35.942062,33.310408,50.061677,48.049231,42.805435,42.294537,55.668614,55.017456,51.81671,24.153625,49.67514,71.981197,90.028942,50.625286,85.264057,102.731724,114.311954,42.005539,80.409725,100.256183,113.294163,33.308155,69.682079,88.777073,101.885593,25.585464,53.849933,69.611011,82.10487,-16.70692,-16.585309,-6.993876,1.098799,12.241389,25.911103,30.191283,32.612035,30.700675,41.859814,45.198646,47.074278,43.263549,55.626969,58.15592,58.220153,50.438848,63.677432,64.804118,63.153418,-37.012745,300.834765,-72.743305,295.091409
104,3.855217,-0.009769,0.306885,0.175186,6.953682,17.078247,21.774696,20.437672,11.603279,42.742046,63.01038,71.498371,3.743443,43.755924,61.24815,71.058094,-3.518783,29.004009,46.519558,55.904263,-9.347328,-1.521801,4.201,7.882267,-18.424976,-17.506031,-7.091812,5.209129,0.742216,20.338585,23.49891,21.974996,19.954683,38.797315,40.317005,35.86438,33.477813,50.120093,48.425871,43.449406,43.059057,56.561612,56.084281,52.91273,24.015632,49.396602,71.657627,89.713062,50.800071,85.158817,102.487369,113.992321,42.248519,80.285282,99.989376,112.983684,33.46416,69.538478,88.533199,101.577449,25.563388,53.568077,69.29385,81.892055,-16.693977,-16.606798,-7.081278,0.984697,12.12783,25.728544,30.09841,32.558164,30.539185,41.572143,44.985027,46.898376,43.113322,55.359219,57.971447,58.035099,50.378135,63.650225,64.88033,63.274807,-33.039911,300.711557,-72.318803,295.153156
105,2.338886,-0.5591,0.173595,0.139259,5.586239,14.170018,17.396817,14.263173,9.143772,39.301552,60.398095,69.692368,1.207386,40.418816,59.13469,70.245552,-5.971584,25.662484,44.296646,54.974877,-11.791877,-4.518322,2.374855,7.378064,-17.307529,-15.342779,-4.201906,8.258648,1.350395,20.99283,24.560856,23.3184,20.168117,38.575803,40.689149,36.43793,33.703548,50.185338,49.052551,44.451911,43.523901,57.228429,57.027926,53.988743,23.94207,49.134018,71.323036,89.456085,50.93581,85.134659,102.419174,113.949554,42.429897,80.193695,99.852882,112.917091,33.539177,69.359138,88.370384,101.461601,25.459339,53.159569,68.889061,81.678337,-16.658334,-16.584765,-7.171285,0.833186,12.064104,25.545639,29.941836,32.449175,30.356503,41.281657,44.767814,46.755399,42.869421,55.094644,57.828841,57.92784,50.160082,63.610508,65.040437,63.505334,-30.560618,300.057614,-72.004801,295.197572
106,-1.401924,-0.206407,0.177956,0.190266,6.948921,16.727326,21.709614,19.513184,10.322331,40.761383,62.033661,71.653359,1.965763,41.02874,60.355454,72.099175,-5.485199,26.132286,45.426842,56.711678,-11.420872,-2.387409,6.220837,12.757462,-17.490434,-16.134185,-6.02421,6.231913,0.316755,20.200585,24.314385,23.460599,19.627788,38.361813,40.897681,36.838715,33.841276,50.362994,49.751158,45.364952,44.17144,58.088044,57.360118,53.510227,23.866047,48.84225,70.972755,89.144874,50.974926,84.99797,102.202148,113.755691,42.580238,80.091682,99.774833,112.969917,33.636966,69.251861,88.31829,101.493187,25.376186,52.807148,68.493347,81.425903,-16.630918,-16.607403,-7.289982,0.578107,11.977418,25.338688,29.759697,32.347842,30.168373,40.963074,44.511599,46.538334,42.649428,54.7965,57.659805,57.760965,50.021785,63.612854,65.30705,63.886346,-31.789953,299.769459,-71.654256,295.30609
107,-11.017673,0.317335,0.125873,0.090822,11.444652,25.827827,34.703602,35.088478,22.182689,55.328281,75.152927,83.523708,13.512554,55.114231,73.553066,83.780628,5.024265,39.627571,58.661464,68.908756,-2.3909,12.96429,25.182037,33.582012,-18.508228,-18.262412,-9.629841,2.11962,-1.327794,18.403846,22.859077,22.325022,18.52521,37.747768,40.705835,36.897452,33.412568,50.307209,50.057774,45.399471,44.214221,58.901508,57.24304,51.947608,23.78262,48.57375,70.650776,88.831639,51.120758,84.859692,101.990421,113.633526,42.81847,79.913441,99.596913,112.972447,33.777489,69.016171,88.111599,101.413571,25.296387,52.456536,68.121929,81.196232,-16.586803,-16.488126,-7.225551,0.554531,12.029153,25.291388,29.743494,32.373111,30.092001,40.810971,44.43388,46.461912,42.521173,54.696613,57.701635,57.776007,49.966742,63.696328,65.583989,64.190727,-42.640915,300.030827,-71.361672,295.340945
108,-2.385773,-0.212569,0.214371,0.131603,12.141689,26.883087,36.251656,37.387505,24.405876,58.447048,77.522198,85.492069,16.074154,58.588863,76.654827,86.439846,7.729099,43.549656,62.743481,72.998142,0.077099,18.449009,32.722813,42.172245,-18.169145,-17.264885,-8.483593,3.464865,-0.901248,19.093289,23.491647,22.907118,18.221694,38.072167,41.240259,37.728303,32.646158,50.117943,50.150461,45.419824,43.221497,58.330748,56.587546,51.132478,23.768692,48.334797,70.309124,88.510471,51.131687,84.622456,101.711162,113.480129,42.97895,79.662266,99.335964,112.872242,33.931847,68.805622,87.872372,101.274639,25.331234,52.32233,67.909046,81.041462,-16.587643,-16.430513,-7.150649,0.543774,12.038181,25.206888,29.68178,32.354634,29.987766,40.62872,44.342575,46.392319,42.418395,54.543669,57.668956,57.726742,49.97772,63.682965,65.654285,64.245437,-44.876112,299.782078,-70.996725,295.436368
109,-2.011299,-0.183461,0.24852,-0.000433,12.84098,28.124084,38.012535,39.840282,26.512974,60.871776,79.347782,87.269543,18.46178,61.01469,78.739872,88.479206,10.082691,46.290813,65.502148,75.892353,2.193638,21.821937,37.005764,47.003448,-18.05645,-16.888256,-8.304529,3.601544,-0.650405,19.130018,23.762633,23.399393,18.028885,38.129188,41.743983,38.55513,32.146968,50.004632,50.474021,45.670852,42.618257,57.944178,56.29401,50.795407,23.830478,48.126766,69.934192,88.087543,51.013641,84.376476,101.519337,113.463535,42.879604,79.332653,99.085934,112.822918,33.772453,68.378071,87.467388,100.990391,25.09021,51.919647,67.424755,80.542637,-16.452693,-16.259649,-6.974523,0.710056,12.092633,25.248991,29.825931,32.599438,29.88063,40.630709,44.493926,46.632047,42.226241,54.489132,57.734721,57.818912,49.768474,63.522699,65.606602,64.193283,-46.756685,299.578928,-70.617479,295.416246
110,-0.361416,0.055143,0.187614,0.00068,13.37756,28.974255,39.514961,42.308018,26.292137,60.398918,78.962631,87.306839,18.48777,60.381752,78.41613,88.850853,10.321472,46.249672,65.954018,77.09848,2.609757,23.053986,39.302296,50.183991,-18.188077,-17.428683,-9.32546,2.434658,-1.010521,18.642536,23.53349,23.389982,17.611156,37.979233,41.834212,38.859213,31.722051,49.913451,50.582072,45.749658,42.315285,57.849318,56.086553,50.430006,23.855633,48.02797,69.733784,87.720967,50.989678,84.179707,101.363606,113.453625,42.873047,79.042797,98.826542,112.731663,33.715908,68.015705,87.113262,100.753636,24.958626,51.686074,67.116085,80.155094,-16.373962,-16.144683,-6.84081,0.895134,12.045541,25.305257,30.018913,32.8579,29.668146,40.58615,44.589305,46.768193,41.97793,54.42275,57.789925,57.888936,49.563412,63.35738,65.479717,64.01622,-47.009548,299.617192,-70.321312,295.400047
111,3.766045,-0.846042,0.193978,-0.056984,10.611545,23.115646,30.874626,31.630874,21.465088,53.621109,72.731575,82.048805,14.737346,54.973846,73.884933,85.737373,7.596119,42.017646,62.57682,75.137375,0.658447,19.554004,36.496799,48.132522,-15.458919,-12.544707,-2.869319,9.121326,1.641462,21.797797,26.516924,26.233773,18.224621,39.007253,42.974038,40.042363,30.636615,49.753739,50.594644,45.851842,40.17567,56.454968,55.450746,50.76862,23.931083,47.98376,69.580318,87.338688,50.924686,84.035556,101.334903,113.648174,42.807254,78.759052,98.563396,112.628414,33.609901,67.6795,86.782024,100.531643,24.824089,51.578315,66.980472,79.936123,-16.258476,-15.952317,-6.686235,1.126711,11.946149,25.260748,30.131361,33.038916,29.402669,40.474024,44.636002,46.855349,41.725408,54.380414,57.84481,57.94508,49.372629,63.150368,65.210313,63.611422,-43.150715,298.76775,-70.034546,295.339663
112,4.218727,-0.459497,0.212471,0.046437,8.143203,18.044357,23.335613,22.061405,16.848541,47.106148,66.892112,77.271057,10.766842,48.879295,68.616966,81.913696,4.168705,36.376831,57.519081,71.335533,-2.188328,13.591793,30.193268,42.175987,-13.683101,-9.219201,1.721576,14.02957,3.178306,23.673786,28.340697,28.088805,18.390779,39.426946,43.55832,40.775748,29.690302,49.491102,50.600226,46.15474,38.585609,55.351204,55.003315,51.150497,23.903869,47.820556,69.325069,86.968929,50.660282,83.86243,101.288944,113.78136,42.591064,78.558574,98.453418,112.638233,33.449409,67.527935,86.681751,100.508525,24.743969,51.596557,66.951885,79.78236,-16.201826,-15.972559,-6.80844,1.017745,11.645745,24.970187,29.935068,32.902521,29.03571,40.196295,44.486837,46.741529,41.42209,54.204771,57.723828,57.813242,49.150821,62.873368,64.876983,63.181379,-38.836286,298.310044,-69.726373,295.387891
113,0.426018,0.068938,0.272632,0.144656,9.000057,19.473461,24.95549,23.474269,17.272796,46.64756,66.770576,77.778099,10.621582,47.220932,67.328613,81.447601,3.424049,34.127071,55.464981,69.787261,-3.190739,10.135986,25.797958,37.754001,-14.005475,-10.569719,-0.591199,10.99329,3.126164,23.230863,27.859266,27.668976,18.808163,39.299234,43.295758,40.458833,30.340114,49.527659,50.707684,46.471273,39.263938,55.888803,55.56496,51.692357,23.80568,47.565594,68.98716,86.551781,50.424362,83.744156,101.284882,113.905564,42.35772,78.419129,98.416443,112.664063,33.220299,67.407051,86.642006,100.491944,24.537873,51.491547,66.846588,79.59652,-16.169197,-16.063134,-7.012673,0.807375,11.292459,24.603056,29.657859,32.689433,28.652216,39.859928,44.216741,46.481684,41.105805,53.958004,57.45209,57.500848,48.936288,62.64525,64.605047,62.835342,-38.312753,298.383978,-69.356226,295.537543
114,0.045845,-0.068012,0.203339,0.216127,9.732822,20.615432,26.315334,24.803157,17.900779,47.082435,67.294853,78.526611,10.842121,46.844444,67.058647,81.376464,3.203109,33.216922,54.566597,68.958686,-3.585583,8.281768,22.852214,34.279621,-14.230494,-11.258175,-1.790033,9.264822,3.24491,23.477568,27.975407,27.66206,19.171552,39.728363,43.413886,40.434022,30.797153,49.832039,50.900506,46.842195,39.690028,56.360009,56.075524,52.278331,23.561794,47.291118,68.739189,86.381401,50.089302,83.552421,101.161629,113.851456,42.117794,78.339798,98.411636,112.675117,33.109371,67.509521,86.778465,100.60952,24.590458,51.765163,67.10305,79.77317,-16.324994,-16.255339,-7.22964,0.505254,11.020287,24.298404,29.345475,32.423276,28.40798,39.553757,43.879842,46.121728,40.95081,53.740692,57.17026,57.16611,48.859494,62.499444,64.379238,62.552846,-38.175006,298.321344,-69.060985,295.759048
