takenoko1/special-research/HandMotion_SimilarSearch_自分用/NewProject/handData/key/d4_feature_d3/66.csv
,vel_0x_L,vel_0y_L,vel_0x_R,vel_0y_R,posFromWrist_1x_L,posFromWrist_2x_L,posFromWrist_3x_L,posFromWrist_4x_L,posFromWrist_5x_L,posFromWrist_6x_L,posFromWrist_7x_L,posFromWrist_8x_L,posFromWrist_9x_L,posFromWrist_10x_L,posFromWrist_11x_L,posFromWrist_12x_L,posFromWrist_13x_L,posFromWrist_14x_L,posFromWrist_15x_L,posFromWrist_16x_L,posFromWrist_17x_L,posFromWrist_18x_L,posFromWrist_19x_L,posFromWrist_20x_L,posFromWrist_1y_L,posFromWrist_2y_L,posFromWrist_3y_L,posFromWrist_4y_L,posFromWrist_5y_L,posFromWrist_6y_L,posFromWrist_7y_L,posFromWrist_8y_L,posFromWrist_9y_L,posFromWrist_10y_L,posFromWrist_11y_L,posFromWrist_12y_L,posFromWrist_13y_L,posFromWrist_14y_L,posFromWrist_15y_L,posFromWrist_16y_L,posFromWrist_17y_L,posFromWrist_18y_L,posFromWrist_19y_L,posFromWrist_20y_L,posFromWrist_1x_R,posFromWrist_2x_R,posFromWrist_3x_R,posFromWrist_4x_R,posFromWrist_5x_R,posFromWrist_6x_R,posFromWrist_7x_R,posFromWrist_8x_R,posFromWrist_9x_R,posFromWrist_10x_R,posFromWrist_11x_R,posFromWrist_12x_R,posFromWrist_13x_R,posFromWrist_14x_R,posFromWrist_15x_R,posFromWrist_16x_R,posFromWrist_17x_R,posFromWrist_18x_R,posFromWrist_19x_R,posFromWrist_20x_R,posFromWrist_1y_R,posFromWrist_2y_R,posFromWrist_3y_R,posFromWrist_4y_R,posFromWrist_5y_R,posFromWrist_6y_R,posFromWrist_7y_R,posFromWrist_8y_R,posFromWrist_9y_R,posFromWrist_10y_R,posFromWrist_11y_R,posFromWrist_12y_R,posFromWrist_13y_R,posFromWrist_14y_R,posFromWrist_15y_R,posFromWrist_16y_R,posFromWrist_17y_R,posFromWrist_18y_R,posFromWrist_19y_R,posFromWrist_20y_R,posFromBody_0x_L,posFromBody_0y_L,posFromBody_0x_R,posFromBody_0y_R
6,0.723816,1.510575,0.345612,0.102259,-14.005657,-30.13821,-45.035316,-59.283279,-53.391071,-37.85416,-15.47596,0.148796,-54.913604,-35.52848,-10.69796,9.554856,-52.414249,-36.7752,-13.171005,5.150826,-47.157211,-49.702251,-43.515953,-36.822155,13.537592,26.623295,41.859925,54.699775,23.426995,40.047254,43.099046,44.454221,25.283805,40.497674,44.544216,45.026857,25.446863,40.877205,43.281247,43.415344,24.775686,38.163299,43.053363,47.386476,26.646652,51.00959,73.185092,93.572284,48.464584,81.44775,98.836292,111.040569,39.726951,76.532375,96.567775,109.895244,31.743141,65.313755,84.652484,98.071872,25.049766,50.144588,65.616439,78.388515,-12.551451,-11.44182,-2.971887,3.702357,18.462892,32.878068,37.246231,39.023235,35.494433,49.522991,52.833813,52.910631,46.857583,62.962289,66.465562,65.595981,52.953461,69.680943,73.13105,72.440446,20.028763,304.963484,-75.958911,296.217971
7,5.651345,-2.557381,0.371452,0.117425,-13.533944,-30.768071,-47.905838,-63.506459,-57.056614,-42.500096,-19.409798,-3.97641,-59.942414,-41.28732,-16.992348,2.564918,-58.397965,-44.177548,-20.787003,-3.000504,-54.019547,-59.163254,-53.882527,-48.007771,11.45527,24.00304,39.857853,53.809186,22.359466,42.021613,44.680178,44.670878,26.520258,43.930034,47.467147,46.778469,28.709187,45.412414,47.127124,46.285713,29.663651,42.971223,47.636862,51.646168,26.368847,50.600635,72.707165,93.024044,48.193405,81.123356,98.547214,110.82867,39.438434,76.220318,96.255924,109.555126,31.433441,64.963268,84.302135,97.711086,24.728405,49.829716,65.335911,78.135853,-12.661885,-11.615092,-3.13765,3.633752,18.39951,32.801559,37.246008,39.098693,35.464385,49.418311,52.77904,52.898527,46.831537,62.82414,66.314175,65.45661,52.905196,69.563148,72.966164,72.24151,25.369498,302.066176,-75.898069,295.995469
8,-4.519501,1.615613,0.298794,0.075916,-14.614632,-31.738564,-47.751904,-62.822205,-54.659741,-37.627453,-15.117943,-0.483948,-56.295628,-35.189301,-11.226792,7.610458,-53.654286,-37.2957,-14.883499,1.730392,-48.098374,-51.807392,-47.585461,-42.977452,11.62081,24.598944,40.167507,53.056214,24.11098,42.254535,44.080606,43.964799,27.164575,43.159253,45.801541,44.99529,28.167871,43.997391,45.10118,44.284531,28.035391,41.041621,45.570557,49.872634,26.191658,50.318275,72.317276,92.60527,47.79871,80.703209,98.177055,110.499458,38.999954,75.864921,95.964317,109.274505,30.988598,64.566833,83.994712,97.46315,24.307731,49.411136,65.021392,77.919273,-12.767392,-11.784968,-3.283813,3.624193,18.290348,32.750343,37.178836,39.027507,35.405697,49.402614,52.743892,52.857228,46.794548,62.784064,66.250078,65.401195,52.834554,69.509215,72.945354,72.206275,20.664849,303.415953,-75.784423,295.805549
9,-0.955536,-0.663878,0.129123,0.188573,-12.348496,-28.448032,-44.649044,-59.486275,-52.230606,-33.156944,-10.550606,3.021904,-55.654175,-32.509724,-9.227852,8.199509,-54.66909,-37.452633,-15.609512,-0.096886,-50.620491,-56.568089,-54.675407,-52.275032,4.518808,15.451719,32.040374,46.409732,19.500866,39.983033,41.306246,39.810046,27.385122,44.841803,46.533776,44.302796,32.731139,48.952886,48.757816,46.416549,36.484576,49.102643,53.121903,56.74748,26.01241,50.145584,72.132145,92.402333,47.50858,80.449551,97.959263,110.287869,38.70385,75.708973,95.825283,109.08878,30.744267,64.412339,83.887951,97.400013,24.173378,49.304329,64.956688,77.886486,-13.01306,-12.159755,-3.6123,3.447995,18.105134,32.599599,36.987669,38.837465,35.300265,49.276656,52.525431,52.594999,46.731983,62.650313,66.031926,65.181672,52.740064,69.39841,72.822088,72.057556,19.609091,302.555215,-75.755522,295.797262
10,-4.19767,2.604632,-0.128837,0.167998,-13.467316,-29.154923,-44.394276,-59.074528,-49.595329,-29.09158,-7.088631,6.054886,-51.857254,-27.438389,-3.944847,13.473152,-49.863442,-31.377297,-9.783989,5.524704,-44.867443,-49.703716,-48.644657,-47.038239,5.115404,15.83057,31.600971,44.716968,19.951373,38.160359,39.57001,38.886359,26.575587,41.978004,43.479799,41.826382,30.62051,45.114135,45.116135,43.595235,33.307678,45.123286,48.857556,52.474438,25.877655,50.124664,72.171169,92.449848,47.430427,80.43481,97.98151,110.325428,38.586296,75.741611,95.874286,109.113247,30.63295,64.414455,83.953731,97.518093,24.123619,49.31401,65.038112,78.032856,-13.308844,-12.553006,-3.968551,3.224965,17.801261,32.416398,36.837295,38.72708,35.063662,49.102619,52.344194,52.426507,46.526354,62.437583,65.794891,64.98832,52.516712,69.191028,72.62939,71.863302,15.349348,304.988107,-75.946432,295.79352
11,0.303017,-0.422509,-0.117852,0.137259,-11.731064,-26.475541,-42.124421,-56.685391,-48.137284,-27.16293,-4.579697,8.358581,-52.029408,-27.07956,-3.664536,13.422958,-51.480446,-33.609227,-12.009774,3.109016,-47.950917,-56.401623,-58.261002,-58.969632,-1.1811,7.67549,24.217079,38.732699,15.030557,35.009606,36.478328,35.114693,25.975632,42.291573,43.597619,41.238025,33.904694,48.302741,47.88148,45.559281,39.972117,51.046991,55.110242,58.747502,25.740796,50.090447,72.134709,92.395123,47.406235,80.496243,98.09087,110.437306,38.522347,75.827305,96.023633,109.268475,30.550919,64.485512,84.08614,97.66428,24.078084,49.356068,65.137642,78.206097,-13.496047,-12.810296,-4.201214,2.992536,17.528114,32.257847,36.768517,38.708295,34.888723,49.072595,52.365337,52.425544,46.391479,62.335929,65.661411,64.810256,52.356211,69.017114,72.453586,71.651349,15.621128,304.42761,-76.095521,295.792791
12,-4.861084,1.999676,-0.294513,-0.035272,-12.597908,-26.756241,-41.210324,-55.952729,-44.913586,-22.456364,-0.279053,12.432861,-47.9198,-21.708561,2.188568,19.628425,-46.675198,-27.349961,-5.716484,9.478248,-42.487679,-49.421723,-51.32127,-52.09623,-0.534487,8.467217,24.798052,38.311265,15.203964,33.214781,35.083028,34.939828,25.337405,39.751235,41.240346,39.664451,32.518002,45.367448,45.284863,43.697198,37.901563,48.338914,51.976137,55.382809,25.7868,50.271583,72.391159,92.706459,47.46952,80.67968,98.343109,110.739303,38.488472,76.008064,96.246506,109.503708,30.478168,64.660526,84.273536,97.820732,24.005058,49.398617,65.20055,78.281891,-13.41708,-12.757166,-4.211489,2.957474,17.344925,32.226379,36.818078,38.808887,34.738472,49.079709,52.429805,52.496878,46.262791,62.264694,65.613493,64.765833,52.239922,68.941556,72.447448,71.66081,10.736149,306.318732,-76.413929,295.648965
13,2.476135,-0.992736,-0.109268,0.120969,-10.431976,-23.855587,-38.924469,-53.662148,-45.904049,-24.209507,-1.178558,12.122337,-50.854042,-24.746315,-0.549614,17.359749,-50.928955,-32.171162,-9.581429,6.465225,-48.020725,-56.786122,-58.847271,-59.470379,-4.741197,2.399633,18.23786,32.606588,12.330495,31.714579,33.700052,32.974794,25.083239,40.647727,42.165614,40.105595,34.367648,47.748543,47.470234,45.325518,41.439911,51.810769,55.275251,58.092774,25.806873,50.45969,72.711319,93.084159,47.670684,80.983245,98.686546,111.01419,38.650142,76.292862,96.564857,109.715973,30.58057,64.954021,84.470306,97.821556,24.059967,49.657356,65.417278,78.362274,-13.387662,-12.792104,-4.335904,2.776299,17.097331,32.105558,36.806062,38.818384,34.516504,49.087687,52.555492,52.594197,46.101092,62.214639,65.535404,64.548224,52.183322,68.88482,72.305002,71.398469,13.195421,305.25494,-76.54006,295.698878
14,-4.133629,2.071602,-0.080704,-0.022773,-11.48164,-24.29591,-37.93824,-52.348801,-43.647972,-20.456085,2.435257,15.88028,-47.746696,-20.571602,4.287689,22.557701,-47.076633,-26.926163,-4.042511,12.111511,-43.432297,-50.179722,-50.886635,-50.436001,-4.504556,2.389149,17.981313,31.676628,11.54256,28.94768,31.399233,31.757953,23.910587,37.703999,39.562329,38.103389,33.088255,45.047284,45.066489,43.355459,40.077685,49.996049,52.492198,54.211922,25.95758,50.783077,73.122459,93.618553,47.934116,81.286606,99.006271,111.267998,38.817547,76.58519,96.881149,109.926247,30.667511,65.277958,84.688042,97.786697,24.051887,49.80907,65.534775,78.370514,-13.282526,-12.620229,-4.229681,2.66448,16.864741,32.047772,36.867799,38.936228,34.339737,49.200418,52.764899,52.754192,45.978035,62.257975,65.577653,64.473321,52.166723,68.887784,72.262246,71.274647,9.044987,307.263059,-76.637569,295.612622
15,2.658897,-1.541636,0.026092,-0.086006,-9.476612,-21.687194,-35.665569,-49.806793,-44.999336,-22.456134,1.336808,15.352044,-50.818794,-23.748035,1.175423,19.671936,-51.362709,-31.619396,-8.174881,8.260895,-48.839813,-56.709938,-56.981746,-56.240318,-8.122624,-2.632197,12.564851,27.180309,9.593828,28.361656,30.589598,30.081751,24.363724,39.386266,41.159058,39.103646,35.353309,48.343756,47.840132,45.16992,43.654417,53.983384,56.580409,58.030728,26.042977,50.952633,73.335526,93.925621,48.111214,81.532998,99.263077,111.464402,38.928109,76.837899,97.155259,110.116723,30.723553,65.557927,84.873551,97.749779,24.038372,49.919472,65.586296,78.31263,-13.108341,-12.375919,-4.020384,2.674163,16.82984,32.098308,36.982988,39.09773,34.325522,49.359796,52.990165,52.948026,45.969983,62.355911,65.643318,64.422043,52.211702,68.937246,72.273546,71.250465,11.686563,305.680554,-76.628798,295.485747
16,-4.20964,1.673671,-0.086048,-0.103828,-11.834622,-24.334145,-37.394394,-51.460568,-43.244122,-18.856281,4.323601,18.024994,-47.099613,-18.607029,6.495644,24.920814,-46.171738,-24.599545,-1.331932,14.838295,-42.315514,-48.198956,-47.977352,-46.943756,-6.452029,-0.10374,14.945502,28.645769,11.218025,28.310724,30.621943,30.959335,24.091343,37.647115,39.44935,37.999734,33.509602,45.443623,45.172081,43.188473,40.501737,50.888898,52.877125,53.727725,26.152474,51.141747,73.617405,94.339817,48.322678,81.802883,99.548458,111.748867,39.095352,77.11916,97.421437,110.348889,30.864567,65.856869,85.077885,97.830838,24.138748,50.132424,65.745243,78.378948,-12.993361,-12.229706,-3.866551,2.742929,16.805042,32.162258,37.082259,39.239411,34.314606,49.455374,53.133291,53.113963,45.968464,62.429259,65.701278,64.436765,52.270205,69.003011,72.283131,71.230953,7.45221,307.328123,-76.739559,295.355817
17,4.005798,-1.032232,-0.051922,-0.050721,-10.307293,-22.721718,-36.486316,-50.284618,-45.591282,-22.860019,0.920563,15.062943,-50.593872,-23.179985,1.887429,20.396874,-50.421238,-30.208774,-6.479645,9.953911,-47.321296,-55.18285,-55.693187,-55.398788,-8.554952,-3.5289,10.393558,24.382101,10.115076,28.219629,30.284996,29.737134,24.232467,38.970833,40.688927,38.664959,34.501116,47.42276,46.861585,44.243293,42.083449,52.896292,55.559093,56.820222,26.272408,51.325299,73.8471,94.702836,48.564492,82.117768,99.811364,111.889481,39.332268,77.419648,97.68908,110.54535,31.090897,66.182499,85.321816,97.932152,24.329625,50.377739,65.933911,78.478592,-12.985853,-12.255815,-3.90133,2.662171,16.736066,32.101964,37.030141,39.214994,34.284853,49.460363,53.156743,53.160534,45.951408,62.436965,65.701746,64.418783,52.311058,69.006715,72.243758,71.200065,11.439869,306.275751,-76.80962,295.284956
18,-4.048828,0.912189,-0.14471,-0.114399,-12.552601,-25.299843,-38.408375,-52.117161,-43.726066,-19.772095,3.254219,16.864288,-46.594517,-18.405853,6.601708,24.717613,-44.977272,-23.278484,-0.037056,15.858948,-40.557827,-45.682136,-44.991829,-43.882622,-5.268187,1.599842,16.203642,29.725426,12.479178,29.261335,31.605047,32.01339,24.270024,37.704678,39.817889,38.567319,32.691718,44.674497,44.731418,42.924626,38.772565,49.737635,52.014423,52.940296,26.299633,51.366955,73.891651,94.839466,48.729881,82.390125,100.028904,112.048977,39.488834,77.719128,97.936352,110.729061,31.26408,66.499088,85.620495,98.17535,24.521725,50.603966,66.154152,78.702976,-12.982629,-12.269795,-3.850089,2.727861,16.742994,32.158145,37.078294,39.293961,34.354409,49.471688,53.102403,53.096487,46.012208,62.463086,65.681949,64.416128,52.344663,68.963465,72.179217,71.190432,7.374195,307.166009,-76.971176,295.148626
19,4.315224,-1.177815,-0.098694,-0.156945,-11.344254,-24.363419,-38.638733,-52.608204,-46.357384,-24.386673,-0.991127,12.834503,-50.26553,-23.42648,1.517807,19.958153,-49.307224,-29.249748,-5.624451,10.771454,-45.533215,-53.142185,-54.226513,-54.555943,-6.753457,-0.723529,12.881717,26.373898,12.047568,30.178822,32.334332,32.042116,24.71974,39.55745,41.42193,39.852531,33.517013,46.583313,46.431222,44.459136,39.733686,51.086808,54.395741,56.440593,26.293648,51.31905,73.868008,94.855167,48.984993,82.685978,100.271542,112.257923,39.75032,77.922878,98.066883,110.834713,31.471436,66.646992,85.722416,98.248249,24.644177,50.694466,66.228424,78.768917,-12.885533,-12.210576,-3.78178,2.876322,16.986686,32.27531,37.110096,39.273472,34.570771,49.482322,53.084631,53.125757,46.186616,62.52517,65.769475,64.56323,52.503201,69.054992,72.256454,71.314279,11.6693,305.960379,-77.089989,294.963866
20,-4.831513,1.467771,-0.031448,-0.190833,-12.223892,-24.569194,-37.382137,-50.579898,-42.709179,-19.587741,3.044655,16.362854,-45.38301,-18.075176,6.931412,25.011612,-43.716854,-22.549541,0.595757,16.534768,-39.318512,-44.073108,-43.171302,-41.782104,-5.155789,1.489864,15.438973,28.503175,12.331853,29.213156,31.830003,32.502144,23.653977,37.508781,39.837784,39.083885,31.65021,43.932071,44.262497,42.924341,37.334348,48.652742,51.319063,52.714844,26.390304,51.372722,73.913967,94.92477,49.24514,82.870273,100.380695,112.33604,39.991756,77.944393,97.99744,110.754764,31.633976,66.62566,85.647388,98.158687,24.684768,50.641971,66.161407,78.706592,-12.775222,-12.088681,-3.658391,3.013432,17.253756,32.447717,37.228656,39.335308,34.778671,49.522718,53.119062,53.177935,46.354502,62.610545,65.924159,64.761572,52.687822,69.192164,72.407446,71.486661,6.818069,307.390316,-77.141155,294.735199
21,3.798752,-1.052339,0.085247,-0.07294,-8.980453,-20.35445,-33.601295,-46.639618,-43.629833,-22.278751,0.71283,14.118965,-48.688293,-22.735863,2.027321,20.070191,-48.625625,-29.288807,-5.905861,10.106735,-45.59531,-52.409591,-52.501957,-52.193836,-8.618665,-4.276327,8.22702,21.179256,10.005617,28.125016,30.486265,30.303274,23.724064,38.79818,40.884701,39.657264,33.455769,46.56338,46.492997,44.553071,40.476198,51.751983,54.951643,56.964434,26.51279,51.465694,73.959182,94.981453,49.360027,82.9533,100.398971,112.25045,40.033973,77.855827,97.863006,110.541824,31.605045,66.484153,85.461502,97.880699,24.585594,50.449585,65.963333,78.469917,-12.669616,-11.969786,-3.546042,3.124324,17.382457,32.537651,37.282997,39.32449,34.898875,49.601179,53.174898,53.206958,46.475534,62.746594,66.060208,64.861608,52.826835,69.313504,72.516288,71.566196,10.601927,306.300117,-77.070802,294.624399
22,-5.58918,1.297364,0.030052,-0.016883,-9.792572,-20.22076,-31.29713,-43.395,-39.579483,-16.703945,5.923668,19.184235,-43.578335,-16.792019,8.171196,26.260048,-42.926468,-22.4305,0.839424,16.839798,-39.261886,-43.978225,-42.590595,-40.715343,-8.127947,-3.37419,10.37008,23.670292,9.42814,26.238306,29.178601,30.073649,22.736465,36.687377,39.226937,38.737293,32.388474,44.44954,44.736309,43.308133,39.382425,50.102605,52.392421,53.455356,26.539226,51.564239,74.057533,95.013542,49.511913,82.998001,100.33081,112.04924,40.131225,77.723442,97.637169,110.212257,31.621479,66.308407,85.169609,97.463035,24.515076,50.301315,65.814548,78.296928,-12.696922,-11.962154,-3.504755,3.162288,17.375084,32.538775,37.27928,39.24955,34.92649,49.64564,53.246763,53.210874,46.541446,62.821621,66.169754,64.906513,52.933812,69.479489,72.65078,71.571964,4.990173,307.554682,-77.063324,294.564717
23,4.307121,-0.304108,0.315731,-0.110718,-6.781333,-16.211368,-27.429245,-38.907005,-41.018062,-20.604881,2.671807,16.615059,-47.176483,-22.559886,2.534089,21.059235,-48.006557,-30.070987,-6.201965,10.419274,-45.707302,-53.096763,-52.839511,-51.814464,-12.226656,-10.369142,1.537054,14.620064,5.922803,23.839944,27.031169,27.452183,21.952173,37.032759,39.606961,38.946466,33.642057,46.167016,46.299409,44.702086,42.206382,52.541388,55.493687,57.247646,26.578743,51.590595,74.066151,94.9781,49.868442,83.081554,100.241375,111.798008,40.374721,77.510456,97.290791,109.772335,31.636002,65.930523,84.631359,96.799221,24.228825,49.782749,65.238613,77.704708,-12.679027,-11.809989,-3.274501,3.265251,17.50902,32.631659,37.431914,39.413065,35.051979,49.768893,53.45007,53.373277,46.670653,62.96734,66.375814,65.067953,53.107614,69.669631,72.869278,71.747421,9.27321,307.208507,-76.771677,294.411932
24,-7.254535,2.446885,0.493847,-0.063405,-4.764462,-11.293923,-18.42508,-26.732838,-33.692803,-11.685219,11.006046,24.27824,-39.686142,-14.300503,10.557438,28.76984,-40.588268,-21.69896,1.665607,17.817295,-38.179711,-43.864472,-43.004162,-41.472725,-13.74337,-13.289393,-1.734051,11.252888,3.172711,19.404523,23.386066,24.857381,19.579363,33.714737,37.129954,37.296088,31.640256,43.067763,43.86848,42.766124,40.403171,49.813896,52.290495,53.346699,26.657638,51.637573,74.094017,94.893562,50.284527,83.067238,100.022941,111.444328,40.764232,77.398979,97.002342,109.497642,31.826156,65.691387,84.181526,96.281547,24.068298,49.327766,64.631584,77.032471,-12.842629,-11.85498,-3.105169,3.434656,17.491718,32.648949,37.608211,39.70775,34.989364,49.670747,53.517402,53.526628,46.60353,62.784966,66.328081,65.114994,53.107157,69.604644,72.888976,71.83171,1.994894,309.621602,-76.301611,294.314737
25,-5.057488,-1.619961,1.275616,-1.056229,1.328362,-0.329326,-3.385711,-8.795505,-25.121315,-3.240051,19.011349,31.678768,-32.927398,-7.976371,16.033024,34.056462,-36.310878,-18.00127,4.643292,20.104237,-36.360557,-43.676433,-45.299572,-46.245083,-17.643488,-19.677707,-11.006566,-0.001309,1.296648,18.692258,23.350313,25.115054,19.541449,35.969035,39.771489,40.325885,32.488683,46.031487,47.32785,46.949851,41.916872,51.383691,54.874603,57.101829,26.623077,51.496776,73.886592,94.335765,50.445121,82.467212,99.214382,110.574153,40.93531,76.690258,96.1627,108.881938,31.741333,64.7219,83.02827,95.177501,23.484626,47.894165,62.833568,75.375011,-12.706975,-11.316615,-2.215703,4.120531,17.941261,33.421237,39.041698,41.794124,35.059883,50.207432,54.928856,55.897313,46.443979,62.775815,66.979684,66.482927,52.979137,69.747807,73.686841,73.351054,-3.111437,307.978043,-75.074838,293.23491
26,-7.079979,-2.068774,2.768943,-3.323654,4.416733,8.017422,10.316609,9.039196,-15.37302,7.237553,28.102261,39.734677,-23.482406,0.910252,22.126156,37.847615,-28.288044,-11.541538,6.510464,18.241597,-29.487259,-36.384086,-38.968139,-41.071781,-19.19393,-20.962153,-11.418306,0.191735,0.110014,17.606005,24.249016,28.008875,18.566694,35.500237,41.202777,43.539585,31.808489,46.294839,48.920442,49.720752,41.931259,51.551701,55.248748,57.728632,27.335907,52.527958,74.703976,94.505642,51.625283,81.818127,97.714451,108.97411,41.571041,74.902943,93.404744,106.241902,31.271233,61.406033,78.65038,90.343289,21.537369,43.308667,56.951432,68.232491,-12.360308,-9.853155,-0.163256,6.131347,17.698644,33.92144,41.200307,45.749077,34.335057,50.775079,57.558633,60.725219,45.635753,63.003525,68.945953,70.256976,52.32888,69.785425,74.509072,74.723593,-10.273613,305.911143,-72.388092,289.91313
27,11.011414,-4.00775,5.746571,-7.126195,0.155685,0.350864,0.790146,0.125336,-23.689854,-12.310959,1.333397,8.274799,-29.762249,-17.473045,-4.67038,5.055965,-32.800106,-25.83514,-15.596249,-9.878586,-32.346897,-42.341778,-48.171627,-54.036564,-20.2972,-24.429921,-19.664036,-12.061647,2.258854,19.910679,27.122979,31.22207,20.680744,38.809603,45.257124,48.348423,33.613935,49.852453,53.7287,55.546484,43.395485,54.794203,59.812276,63.416154,24.59499,47.333301,65.804203,81.548836,50.175087,75.634392,87.007416,94.42828,41.209431,67.565369,79.995312,88.047947,30.771149,52.580463,62.629646,68.897861,19.863785,34.240665,42.194652,48.550449,-5.245204,1.907976,14.081959,22.646346,23.156812,41.262206,50.209754,56.20977,35.018708,54.572754,63.756991,69.350023,42.920538,63.104141,71.113034,74.494338,47.346078,66.016167,72.378498,74.528054,0.680048,302.002073,-66.699274,282.885615
28,4.933022,-3.704655,6.78503,-15.75936,-5.49305,-7.762745,-8.605877,-10.089615,-26.152268,-23.702935,-18.207116,-17.007203,-29.412278,-27.513875,-23.809674,-21.374417,-30.301713,-31.588967,-30.243588,-31.294545,-27.781746,-39.860665,-48.270699,-56.723649,-19.276885,-22.642542,-17.273652,-10.147704,5.030856,21.354108,29.223074,34.374788,22.752458,40.722816,48.356155,52.955042,35.416072,52.491185,57.980624,61.129907,44.929403,57.287315,62.791092,66.427043,25.20361,49.369595,67.383705,80.294644,51.198658,77.544216,87.012188,91.600457,42.843235,70.021649,80.273987,85.12024,32.674256,55.536495,63.690708,67.148255,21.478237,37.007035,43.43454,46.993286,-4.47005,2.358742,12.870663,20.156891,19.773223,39.872673,49.675971,55.601491,30.532689,51.943422,61.614055,67.131491,38.053099,58.724988,67.014042,70.751844,42.903606,60.364387,66.317769,68.40686,5.573422,298.523644,-59.953892,267.352481
29,13.042362,-5.564243,4.088162,-26.014337,-12.336262,-20.244049,-26.666588,-32.017891,-36.237889,-45.461174,-47.559723,-50.974503,-36.494534,-47.162442,-52.136627,-56.213723,-34.976246,-46.837807,-53.632302,-60.463578,-30.654671,-46.932987,-58.241181,-69.352719,-17.985758,-19.706829,-13.293246,-6.429687,9.600003,26.417765,34.565115,40.163864,26.766309,45.002219,53.165709,58.699102,38.967116,57.119366,63.742172,68.102764,48.017306,61.864317,68.211704,72.677111,26.281585,51.888199,69.728222,80.177719,55.773617,85.692512,94.302498,96.340839,47.852314,78.561996,87.502224,89.305881,37.862789,64.273166,71.196007,71.932331,26.5475,45.368911,51.40385,52.96542,-7.128628,-3.580054,3.013346,7.67683,12.021323,32.8899,44.096439,50.622086,23.335839,45.525615,55.962497,61.8111,32.472356,52.892982,61.13912,64.983083,39.470703,55.407509,60.52274,62.085519,18.492251,293.494295,-55.989263,241.873038
30,15.647529,-2.650352,4.937301,-33.598276,-21.476394,-37.402382,-50.765487,-60.306083,-50.298408,-71.296062,-80.759708,-88.786663,-47.198158,-70.411983,-83.608692,-94.162925,-41.925659,-64.468918,-78.747574,-90.735889,-34.187004,-54.26485,-67.34523,-79.788311,-16.477492,-16.65973,-7.564833,1.034356,12.261248,28.465161,36.795687,42.70041,29.103661,45.724649,54.419872,60.677869,41.355115,58.177138,65.669797,70.582722,50.08256,64.461267,70.766392,74.927184,24.034356,49.463196,66.515454,74.968483,57.115288,91.958153,99.61583,98.681477,51.569584,87.042893,94.645649,93.051442,43.642308,74.544514,79.79329,77.159329,34.059277,56.64552,61.823811,60.256245,-11.08226,-12.743006,-11.44705,-10.313387,0.116023,17.608519,27.87786,33.693582,12.469823,30.893262,39.366512,43.838563,23.297183,39.697599,45.851503,48.668884,32.193825,43.51948,45.971935,45.912457,33.950031,291.544656,-51.241711,208.975475
31,13.163178,-0.959639,3.024765,-40.832336,-29.864205,-54.183632,-74.60194,-89.156342,-63.445564,-95.486904,-111.634094,-123.833794,-56.744808,-91.454144,-110.560375,-125.355858,-47.68261,-78.405132,-96.527447,-110.693619,-36.940018,-60.126126,-74.349289,-87.334637,-15.051588,-14.96683,-5.627426,2.349159,14.956012,30.084925,37.731528,43.245765,31.5214,47.190678,55.285675,61.362422,43.540636,59.534264,67.393005,72.750297,51.361227,66.190107,72.525909,76.414641,19.857262,43.701233,59.536801,66.346482,60.645745,98.923188,104.650269,100.284588,58.122849,96.994057,102.170025,96.808377,52.307866,86.99889,90.364266,84.919865,44.017765,70.65984,75.653538,72.911179,-15.47566,-22.609407,-25.890707,-27.506406,-11.867565,-0.090149,5.705435,8.670351,0.100548,11.9759,15.386208,16.756925,11.439054,21.227532,22.811992,23.218599,21.736238,27.14311,26.154912,24.524991,46.978008,291.321876,-48.352147,168.879998
32,0.106796,-0.433673,1.871453,-45.230349,-29.691582,-54.557259,-76.880104,-93.691715,-61.942326,-94.72419,-111.509262,-124.175754,-55.147877,-90.84248,-110.565365,-126.076446,-46.156265,-78.214851,-96.923401,-111.142353,-35.90387,-60.616733,-75.190269,-87.883312,-14.850307,-12.451266,1.255263,12.552315,14.883295,30.324109,38.130238,43.800333,31.847998,47.0612,55.254726,61.530643,44.242701,59.699533,67.745661,73.409285,52.160857,66.469354,72.719039,76.640314,17.285957,41.25143,58.585373,66.164726,59.819137,103.426941,112.757354,110.361786,59.852028,106.766395,116.391494,113.05188,56.885513,101.195114,109.807457,107.044327,51.703926,86.927788,96.43705,96.314529,-26.850925,-44.639892,-55.998071,-64.569337,-32.892067,-31.106702,-30.323096,-30.274498,-16.547369,-15.168124,-17.415796,-19.379447,-0.722591,-0.796654,-4.626785,-7.584797,14.117571,12.094744,6.257682,0.960812,46.854137,291.777041,-46.711361,124.538487
33,-0.06427,0.351261,-1.321713,-38.23123,-28.984474,-54.427048,-77.148136,-94.152946,-61.659382,-94.779865,-111.930553,-124.837006,-54.593857,-90.899574,-110.731281,-126.182236,-45.599785,-78.402054,-97.157158,-111.260593,-35.72374,-60.855286,-75.354103,-87.84486,-15.970225,-13.518116,0.929085,12.697861,14.432023,30.303756,38.186344,43.976063,31.829806,46.817014,54.664343,60.703125,44.298326,59.290399,67.002483,72.567837,52.061859,66.150043,72.061756,75.968025,12.205113,32.215519,47.508843,54.211407,55.848118,97.748165,109.130482,110.183224,59.124722,103.678082,115.064472,115.065663,59.366696,101.673969,111.374348,110.938076,57.436695,90.676953,100.463986,101.937504,-32.111554,-55.422693,-70.765534,-82.522812,-45.940083,-53.621551,-57.292841,-59.765513,-29.922144,-38.113348,-44.402375,-48.503133,-13.712241,-21.712575,-29.430784,-34.73636,2.242454,-5.26589,-13.810121,-20.915927,46.395269,293.459931,-48.427672,87.638886
34,-0.511002,0.069766,3.415936,-37.476189,-28.905029,-54.465225,-77.208881,-94.040027,-61.691368,-94.826122,-111.974384,-124.860626,-54.550563,-91.026168,-110.819492,-126.17649,-45.561103,-78.564468,-97.267158,-111.332542,-35.737838,-60.941116,-75.446559,-87.921375,-16.226292,-13.790547,0.700929,12.58508,14.515904,30.296049,38.152826,43.951263,31.964582,46.76791,54.404237,60.262635,44.369116,59.211927,66.709513,72.1301,52.009297,66.0279,71.803107,75.657383,3.439945,19.212845,31.691425,37.294613,48.821663,86.454643,96.874992,98.440338,55.528976,95.732918,105.805618,106.423439,58.444244,96.562729,104.642944,104.275841,58.520805,88.331909,96.360374,97.19973,-33.643255,-60.23205,-77.395558,-91.080907,-56.703001,-75.103716,-85.881498,-92.861548,-42.342875,-61.56852,-74.617744,-82.606058,-27.011674,-44.355605,-57.145505,-65.089726,-11.155638,-26.102881,-37.853064,-46.209742,45.505062,295.528728,-45.390941,52.161728
35,-0.240692,-0.074372,1.481128,-28.349608,-28.941307,-54.43325,-77.137745,-93.591247,-62.016037,-94.924884,-111.952789,-124.803692,-54.883255,-91.137417,-110.757568,-126.056625,-45.921158,-78.780533,-97.306801,-111.312183,-36.094642,-61.089409,-75.471416,-87.875072,-16.234739,-13.903278,0.460127,12.397037,14.714394,30.079218,37.737986,43.469326,32.102878,46.569691,54.036773,59.835285,44.399349,59.042459,66.376506,71.727352,51.983399,65.944734,71.56585,75.339331,-2.597087,9.039963,19.02253,22.574009,42.958283,77.019825,87.949528,91.304959,52.618252,88.036137,97.505116,98.895619,57.51067,90.495976,97.453846,97.540959,58.72102,84.209187,90.610417,91.491246,-34.400698,-62.63721,-81.854191,-97.404587,-64.348437,-88.538618,-103.205335,-112.806576,-51.488482,-76.945416,-93.524269,-103.635664,-37.186481,-59.952228,-75.180867,-84.405249,-22.05043,-41.077035,-53.788864,-62.070502,45.025554,297.581784,-44.148629,25.939548
36,-0.172897,-0.172506,0.936024,-20.180245,-28.912811,-54.356071,-77.013966,-93.091782,-62.287376,-94.988319,-111.882648,-124.654335,-55.14949,-91.19228,-110.634991,-125.866608,-46.164207,-78.932774,-97.273499,-111.180862,-36.300316,-61.191284,-75.429634,-87.686028,-16.266318,-14.006747,0.262501,12.208205,14.767018,29.987321,37.477486,43.043964,32.12128,46.380697,53.719215,59.45442,44.342464,58.830037,66.030876,71.320058,51.876854,65.778008,71.268793,74.966297,-6.458576,2.006779,9.953579,10.822128,35.401096,66.765083,79.854035,86.343064,47.71019,79.519638,90.855469,94.733963,55.219917,84.346779,92.154122,93.659638,58.867859,80.907555,86.801834,88.011109,-34.915578,-65.485311,-87.64554,-105.593723,-70.689469,-98.090504,-113.489884,-124.189773,-57.823333,-86.747368,-104.41015,-116.03204,-43.742769,-69.230023,-85.393959,-95.897019,-29.171963,-50.297544,-63.250434,-71.822694,44.588007,299.652192,-43.477255,8.002217
37,-0.05603,-0.093787,-0.545162,-12.927078,-28.966187,-54.253853,-76.815239,-92.743218,-62.456211,-94.905316,-111.660702,-124.326863,-55.359032,-91.151779,-110.427098,-125.578915,-46.406662,-78.971031,-97.1414,-110.888043,-36.550118,-61.243515,-75.339661,-87.43459,-16.28698,-14.112995,0.091243,11.992227,14.845985,29.742691,37.072194,42.536055,32.235519,46.236041,53.412662,59.099344,44.413083,58.732065,65.727139,70.870615,51.871507,65.690138,71.036859,74.58962,-8.296291,-1.906242,4.564339,3.894367,34.648888,64.167881,77.765224,85.993732,48.118572,76.424892,88.233341,94.106884,56.548336,81.625408,89.833431,92.794041,60.646099,79.345447,84.39069,85.793346,-34.71702,-65.544901,-88.923502,-107.372827,-73.125474,-100.132066,-115.569681,-126.820881,-60.826336,-90.715752,-109.040381,-121.910532,-47.526748,-73.826335,-90.232783,-101.177439,-34.087222,-55.993026,-68.321539,-76.124148,44.327929,301.677701,-44.226465,-2.805565
38,-0.051522,-0.092354,1.529869,-11.032687,-28.883812,-53.974914,-76.521766,-92.398441,-62.430931,-94.795406,-111.392395,-123.905548,-55.391006,-91.112526,-110.179802,-125.095012,-46.465667,-78.93124,-96.899288,-110.406566,-36.658424,-61.306045,-75.287784,-87.152023,-16.389942,-14.269841,-0.066122,11.854733,14.802698,29.488675,36.639842,41.916798,32.289241,46.180034,53.133575,58.580863,44.493753,58.806906,65.58846,70.488195,51.918759,65.726373,70.859722,74.18555,-10.951755,-6.090649,-0.451344,-2.058575,34.007996,63.325298,76.490902,84.093761,48.283184,76.14156,87.455349,92.637486,56.901386,80.836475,88.602779,90.84882,60.593342,78.606503,83.300503,84.036129,-34.244166,-65.417979,-89.73287,-108.736652,-74.297256,-101.363943,-116.674631,-127.432003,-61.712114,-91.932179,-110.773153,-123.681768,-48.220489,-74.776284,-91.230707,-101.856674,-35.248463,-57.163906,-69.086324,-76.132126,44.180425,303.321898,-42.792578,-12.101701
39,0.353508,-0.10889,-0.884857,-1.178395,-28.979919,-53.929206,-76.544426,-92.390487,-62.428459,-94.692512,-111.158031,-123.612522,-55.462795,-91.071785,-109.992061,-124.856746,-46.584755,-78.927532,-96.743843,-110.120269,-36.880668,-61.554325,-75.447635,-87.164955,-16.440257,-14.393046,-0.22681,11.754845,14.764955,29.188012,36.13644,41.213559,32.272457,46.021001,52.852004,58.203246,44.47398,58.755788,65.359168,70.086396,51.900406,65.668401,70.621266,73.759867,-10.445824,-6.606617,-0.85944,-2.82684,32.962349,62.264568,77.077412,86.782551,47.823131,74.795391,87.890636,94.852787,57.080166,79.891674,89.416454,93.148762,61.397724,78.279522,83.872478,85.694561,-33.589106,-64.321613,-89.444922,-108.872973,-72.360843,-96.89908,-109.931066,-118.86908,-59.788373,-87.498753,-104.414599,-116.024717,-46.938588,-71.272011,-86.400979,-96.28286,-35.16045,-54.758432,-65.557554,-72.220281,44.405279,304.027953,-43.806089,-12.465151
40,0.340508,-0.129071,-0.769386,-0.766471,-29.023041,-53.888603,-76.496727,-92.564324,-62.150894,-94.51038,-111.037445,-123.551926,-55.242737,-90.955971,-109.920445,-124.768524,-46.449463,-78.858582,-96.679859,-109.963669,-36.913445,-61.670506,-75.551251,-87.17363,-16.556755,-14.470962,-0.24731,11.627183,14.509593,28.932896,35.870308,40.87403,32.133865,45.936897,52.660331,57.857246,44.413342,58.785725,65.266826,69.858426,51.857304,65.664697,70.514685,73.525944,-9.613495,-5.07557,1.336177,-0.152802,34.07563,61.793277,76.881855,87.743717,48.113605,73.935619,88.059734,96.734035,56.885387,79.21194,90.416507,95.76337,60.997341,77.777355,84.793659,87.924945,-32.54285,-62.606254,-86.887955,-105.756324,-69.328453,-92.270627,-104.345198,-112.569195,-57.086644,-82.818615,-98.96594,-110.186268,-44.710404,-66.989941,-81.850072,-91.788906,-33.389306,-51.225277,-61.945278,-69.18707,44.386253,304.571699,-44.935009,-12.558805
41,0.233162,0.115214,-1.101414,1.058711,-28.933365,-53.626694,-76.285401,-92.488152,-61.764897,-94.253002,-110.814766,-123.372734,-54.966934,-90.849472,-109.814278,-124.614052,-46.306252,-78.795181,-96.55703,-109.702904,-36.966477,-61.80423,-75.648651,-87.112095,-16.757308,-14.833462,-0.610144,11.370536,14.146513,28.489553,35.366919,40.264677,31.909229,45.681436,52.270575,57.321228,44.284827,58.628262,64.976056,69.42894,51.80389,65.531081,70.214751,73.050515,-9.588192,-4.009598,3.259048,3.034321,34.369926,62.353729,77.815315,89.161308,47.658348,74.367554,89.243385,98.669655,55.837692,79.195839,91.340263,97.477913,59.517654,76.815811,84.385963,87.959244,-31.468584,-60.310603,-83.574317,-102.039833,-65.837851,-87.319553,-98.774131,-106.626635,-53.784924,-77.798789,-93.273275,-103.943715,-41.69683,-62.52081,-76.877633,-86.416843,-30.739454,-47.713099,-58.195064,-65.358575,44.138323,305.230199,-46.517515,-10.956808
42,0.320732,-0.090971,-2.73864,2.53273,-28.776489,-53.40136,-76.11248,-92.309143,-61.51688,-94.040279,-110.656666,-123.321579,-54.822624,-90.736713,-109.769497,-124.679729,-46.210304,-78.7271,-96.519951,-109.710663,-36.904221,-61.832382,-75.729984,-87.20961,-16.924306,-15.04261,-0.838002,11.237204,13.940786,28.251184,35.045335,39.874156,31.720125,45.388665,51.919561,56.909118,44.137527,58.357795,64.657128,69.066403,51.733396,65.345534,69.925969,72.654584,-9.378822,-2.663578,5.617847,6.734734,35.249657,63.590172,79.437653,91.19165,47.713829,75.430046,90.952904,101.016357,55.006348,79.495537,92.299255,99.053169,57.913033,76.03624,84.231377,88.441956,-30.827417,-58.799292,-81.111346,-99.277033,-62.36226,-82.459098,-93.166082,-100.504208,-50.292388,-72.339978,-86.804209,-96.687165,-38.542026,-57.761866,-71.470921,-80.485431,-28.095857,-44.204458,-54.464759,-61.676355,43.889545,305.552218,-49.825665,-8.011088
43,0.414047,-0.056291,-5.259991,2.66521,-28.727394,-53.343132,-76.019073,-92.230568,-61.393352,-93.897411,-110.588035,-123.369953,-54.73748,-90.666115,-109.839798,-124.906711,-46.15963,-78.778358,-96.707828,-110.001343,-36.865837,-61.954044,-75.943485,-87.478042,-17.062356,-15.246955,-1.070086,10.99387,13.731476,28.019904,34.832456,39.701513,31.509666,45.030228,51.583527,56.632327,43.951868,57.90651,64.2104,68.686341,51.606103,64.987862,69.539769,72.271299,-8.755027,-0.783863,8.425713,10.760525,37.060158,65.659001,82.027485,94.452748,48.682812,77.230007,93.573109,104.639088,54.980976,80.474751,94.285183,102.338482,56.909466,75.785809,84.733807,89.893376,-30.009571,-57.080686,-78.605811,-96.405219,-58.109003,-76.730334,-86.570126,-93.405051,-45.935107,-66.10486,-79.310044,-88.274925,-34.538278,-52.209356,-64.951091,-73.431843,-24.580302,-39.795486,-49.618179,-56.817487,43.771265,305.634754,-55.617983,-5.207051
44,0.176789,-0.174853,-7.016178,2.837653,-28.600548,-53.156342,-75.703972,-92.128281,-61.12365,-93.669629,-110.482911,-123.388825,-54.510087,-90.50726,-109.858944,-125.035286,-45.972245,-78.708115,-96.797253,-110.167523,-36.671586,-61.833504,-75.945694,-87.56242,-17.016363,-15.173249,-1.035369,10.801604,13.638826,28.012457,34.909015,39.845417,31.430639,44.919967,51.450147,56.469159,43.90253,57.780614,64.1425,68.693085,51.577674,64.834635,69.39415,72.138536,-8.103905,0.936161,10.714497,14.024437,38.998032,67.997406,84.940979,98.085571,49.782486,79.175812,96.410912,108.487129,55.122769,81.402855,95.978737,105.035408,56.03785,75.424095,84.707245,90.326111,-29.423491,-55.213853,-75.732156,-92.946788,-53.950198,-70.90512,-79.74224,-85.939709,-41.530178,-59.9504,-71.795858,-79.69439,-30.318044,-46.587333,-58.366421,-66.200591,-20.665578,-35.306903,-44.728324,-51.674708,43.518677,305.363139,-63.063538,-2.46616
45,0.086883,0.112608,-8.991875,2.702803,-28.377045,-52.838127,-75.34449,-91.928375,-61.071693,-93.636143,-110.471134,-123.363956,-54.462364,-90.540939,-109.932781,-125.039577,-45.882843,-78.734116,-96.879764,-110.216022,-36.518211,-61.854309,-76.029064,-87.59594,-17.139518,-15.405925,-1.361794,10.381171,13.404088,27.82854,34.779277,39.811701,31.183884,44.633877,51.138147,56.124505,43.68812,57.420041,63.803268,68.366141,51.414356,64.508037,69.0152,71.706542,-7.085025,2.86242,12.962117,17.288991,40.925595,70.646462,88.230515,101.964432,50.786591,81.454194,99.533455,112.637398,55.027817,82.206322,97.132943,107.061059,54.724629,74.323174,82.6615,87.741578,-29.091761,-53.863982,-73.641163,-90.174441,-50.296544,-65.56542,-73.284938,-78.741334,-37.199386,-53.983531,-64.234279,-70.873757,-25.602486,-40.789172,-51.556024,-58.607266,-15.827532,-30.257102,-39.151694,-45.516784,43.344223,304.881451,-72.31675,-0.357653
46,0.183701,-0.152869,-9.973823,2.929582,-28.333008,-52.736916,-75.157688,-91.932598,-61.098587,-93.648239,-110.508911,-123.395668,-54.485276,-90.562306,-110.049843,-125.202748,-45.832146,-78.777649,-97.073353,-110.502491,-36.349869,-61.857972,-76.199604,-87.92704,-17.030332,-15.239286,-1.278468,10.275639,13.491971,27.834603,34.854785,40.036793,31.212178,44.577783,51.154412,56.18975,43.712832,57.389684,63.82115,68.407341,51.455519,64.470666,68.995131,71.67931,-6.431465,4.144558,14.781132,20.031246,42.273548,72.777649,91.027954,105.359642,51.330803,83.207451,102.021263,116.151421,54.789963,83.10609,98.603508,109.574547,53.714149,74.058311,82.223808,87.583511,-28.753468,-52.88614,-72.27753,-88.643124,-47.45324,-61.34423,-68.094415,-72.799246,-33.955205,-49.712459,-58.728507,-64.358898,-22.03632,-36.52698,-46.506446,-52.94689,-11.908073,-26.443564,-35.104516,-41.132944,43.303362,303.735957,-82.515135,1.579304
47,0.167221,-0.051488,-10.883686,2.832627,-28.323349,-52.674774,-75.041256,-91.924416,-61.250462,-93.792858,-110.68277,-123.562134,-54.559616,-90.649258,-110.153687,-125.212086,-45.80111,-78.845524,-97.225365,-110.643322,-36.2146,-61.898678,-76.340893,-88.105488,-16.947425,-15.203667,-1.371489,10.059933,13.483647,27.799147,34.894751,40.206793,31.162,44.5208,51.206579,56.307669,43.667706,57.288389,63.774159,68.393398,51.473439,64.410842,68.882844,71.521032,-5.91465,5.119503,16.271461,22.149444,43.174484,74.770672,93.651306,108.524151,51.86245,84.814888,104.258869,119.159786,54.895981,84.096416,99.980427,111.642254,53.363491,74.293659,81.927589,87.005573,-28.417268,-51.965003,-70.987606,-87.071656,-44.880545,-57.739716,-63.631298,-67.661081,-31.09513,-46.564967,-54.817681,-59.81193,-18.920715,-33.454879,-42.957575,-48.946754,-8.517574,-23.766109,-32.425783,-38.182527,43.101116,302.360701,-93.768288,3.088163
48,0.139549,-0.100035,-10.66119,2.896039,-28.414787,-52.69091,-75.005287,-91.937805,-61.229862,-93.80888,-110.766083,-123.669056,-54.508598,-90.589508,-110.125271,-125.21854,-45.676804,-78.759808,-97.199524,-110.680355,-35.987,-61.693955,-76.23674,-88.165604,-16.725742,-15.03851,-1.313296,10.040888,13.617213,27.95577,35.11226,40.48993,31.234284,44.584748,51.377812,56.568539,43.721193,57.285338,63.865215,68.549824,51.580255,64.489129,68.984522,71.599145,-6.062153,4.987484,16.659496,23.077251,42.868503,75.558826,95.108551,110.54631,51.750252,85.962959,106.20504,121.842155,54.891117,85.04837,101.433643,113.694397,53.459221,75.174866,82.947624,88.24435,-28.721685,-51.830289,-70.629745,-86.550507,-43.920493,-56.21642,-61.471257,-64.830652,-29.633183,-44.958487,-52.519392,-56.86044,-17.060552,-31.622942,-40.858784,-46.608371,-6.322162,-22.559698,-31.458494,-37.129559,42.526022,300.489654,-105.144121,4.21319
49,-0.152298,0.073828,-10.747044,2.298659,-28.320602,-52.575325,-74.901764,-91.762161,-61.150143,-93.83028,-110.751194,-123.606159,-54.333504,-90.484589,-109.972458,-124.956219,-45.360947,-78.509079,-96.937901,-110.418846,-35.534317,-61.309616,-75.890419,-87.852791,-16.738573,-15.183413,-1.602324,9.81119,13.55098,27.966737,35.13638,40.538071,31.1342,44.595555,51.470377,56.698599,43.605647,57.24714,63.895041,68.630063,51.497485,64.467233,68.924896,71.512659,-5.754135,5.385945,17.416397,23.515331,42.385586,75.956246,95.80917,111.215058,51.585617,86.810566,107.570046,123.393574,54.875359,85.567784,101.963379,114.205559,53.640827,75.664959,83.068966,87.951748,-29.09438,-52.364133,-71.494398,-88.060737,-43.985491,-56.012879,-60.856939,-63.857447,-29.07557,-43.910557,-50.762988,-54.489156,-16.063592,-30.568844,-39.601076,-45.260779,-5.055339,-21.817297,-30.932547,-36.562783,41.486309,298.407828,-116.77858,4.356195
50,-0.129799,0.005459,-9.626838,1.542507,-28.26535,-52.541336,-74.899979,-91.636951,-61.050259,-93.730476,-110.624142,-123.452923,-54.220413,-90.286606,-109.732304,-124.688381,-45.208191,-78.318615,-96.763756,-110.327785,-35.320129,-61.019554,-75.626907,-87.684139,-16.593966,-15.099989,-1.653503,9.778437,13.680779,28.036095,35.183421,40.579679,31.20993,44.695875,51.617701,56.892161,43.623282,57.365182,64.054765,68.850722,51.486864,64.533602,68.981472,71.581671,-5.200745,6.185016,18.572307,23.961948,42.397716,76.172527,96.408634,112.063339,51.781745,87.54911,109.078514,125.171711,55.357406,86.487808,103.619098,116.239414,54.597724,77.32228,85.821144,91.476779,-29.590019,-53.182691,-72.680105,-89.939296,-44.393433,-56.259708,-60.860601,-63.560879,-29.185042,-43.679716,-50.221172,-53.636525,-16.137989,-30.501116,-39.36238,-44.975672,-5.155159,-22.07873,-31.454802,-37.291648,40.402445,296.471616,-127.359483,3.957031
51,-0.249321,0.117042,-7.781308,0.664675,-28.202431,-52.554588,-74.912292,-91.476471,-60.9421,-93.601753,-110.507881,-123.363167,-54.125473,-90.107265,-109.539768,-124.476116,-45.122452,-78.131687,-96.528808,-110.1045,-35.223152,-60.716835,-75.266384,-87.307651,-16.53923,-15.098581,-1.68838,9.720898,13.799945,28.192817,35.356643,40.738303,31.309361,44.838555,51.754725,57.001262,43.663877,57.463847,64.202978,69.049459,51.463349,64.525895,68.991055,71.617078,-4.377479,7.089615,19.637032,24.412297,42.539063,76.089295,96.629505,112.574009,52.189499,88.172871,110.492546,126.850571,56.028248,87.310536,105.108845,118.101277,55.612049,78.595803,87.851361,94.040303,-30.033894,-53.99942,-73.891654,-91.621383,-45.194231,-57.129604,-61.561758,-64.063891,-29.573569,-43.807545,-50.058737,-53.14769,-16.323024,-30.643086,-39.308034,-44.853356,-5.364845,-22.340027,-31.836586,-37.897098,39.29908,294.848516,-135.994835,2.881564
52,-0.323639,0.165429,-5.925453,-0.375288,-28.16542,-52.539917,-74.883991,-91.301365,-60.760025,-93.37373,-110.266102,-123.092914,-54.03186,-89.915153,-109.324871,-124.249615,-45.109588,-78.033611,-96.333572,-109.882416,-35.276527,-60.578338,-75.032902,-87.018459,-16.442294,-15.078993,-1.664494,9.712364,13.918716,28.35448,35.552306,40.918651,31.395528,44.985385,51.8721,57.067002,43.701384,57.574775,64.329122,69.190139,51.477799,64.542939,69.006147,71.638345,-3.692253,7.834831,20.569073,24.690045,43.052273,76.028263,96.605141,112.583656,52.90004,88.808453,111.667717,128.185101,56.940857,88.223934,106.487629,119.695782,56.792416,79.930676,90.341972,97.562393,-30.501159,-54.867124,-75.173247,-93.471166,-46.218633,-58.215312,-62.710199,-65.172052,-30.229161,-44.114,-50.219893,-53.136631,-16.747175,-30.868975,-39.331314,-44.864953,-5.671392,-22.298259,-31.79646,-38.082949,38.381664,293.426379,-142.514065,0.91871
53,-0.469299,0.375714,-4.158554,-1.230575,-28.157021,-52.639984,-74.9511,-91.262604,-60.692459,-93.178848,-110.001549,-122.777847,-53.965347,-89.664585,-108.962174,-123.823288,-45.11554,-77.818966,-95.972111,-109.456238,-35.338646,-60.416782,-74.754547,-86.605099,-16.425893,-15.075646,-1.587084,9.775931,14.07019,28.454961,35.66857,40.988146,31.604417,45.260224,52.114026,57.302518,43.863208,57.860532,64.611149,69.455678,51.505476,64.617731,69.122041,71.767441,-2.776108,8.874905,21.441662,24.657749,44.055885,76.595684,96.953945,112.523769,53.794201,89.34866,112.15551,128.30674,57.790237,88.514408,106.483418,119.17226,57.640869,80.182606,90.332783,97.214104,-30.732148,-55.663284,-76.403667,-95.412605,-47.247574,-59.083689,-63.493755,-65.873048,-30.940062,-44.64753,-50.633886,-53.486305,-17.135313,-31.357415,-39.637595,-45.060473,-5.83986,-22.282969,-31.719155,-38.062929,37.763363,292.808711,-146.821621,-1.305247
54,-0.270859,0.348903,-2.467575,-1.819235,-28.294464,-52.786217,-75.052425,-91.321415,-60.638912,-92.97044,-109.746666,-122.469578,-53.999405,-89.544296,-108.780029,-123.635319,-45.295647,-77.860805,-95.944862,-109.379837,-35.648254,-60.580479,-74.87265,-86.725571,-16.199616,-14.824842,-1.254793,10.071171,14.372976,28.660959,35.923302,41.299947,31.821938,45.371757,52.207305,57.430303,44.017262,57.886256,64.654311,69.523146,51.624838,64.603923,69.215147,71.991273,-2.385384,9.199459,21.603916,24.32317,44.888191,76.882908,97.281269,112.940598,54.566723,89.746845,112.658226,128.913013,58.660412,89.153297,107.414394,120.371063,58.671696,81.109589,91.774601,99.289742,-30.99155,-56.447675,-77.483867,-96.653245,-48.246714,-60.0966,-64.476353,-66.695718,-31.870122,-46.025935,-52.124016,-55.099732,-17.844881,-32.406017,-40.465934,-45.750966,-6.254131,-22.674448,-31.858507,-38.189727,37.633833,292.718328,-149.147867,-3.563768
55,-0.326683,0.287102,-1.745682,-2.372932,-28.452095,-52.905167,-75.012234,-91.179989,-60.599647,-92.741878,-109.444553,-122.114811,-54.000732,-89.372429,-108.565727,-123.423901,-45.364769,-77.76313,-95.770019,-109.154159,-35.753288,-60.492142,-74.758999,-86.646137,-15.986947,-14.567638,-0.887502,10.449911,14.662388,28.982457,36.295608,41.674489,32.046525,45.625119,52.479946,57.71275,44.170576,57.985514,64.768772,69.633568,51.742202,64.636935,69.347491,72.223825,-2.241314,9.115608,21.422276,23.804409,45.357903,77.040436,97.323841,112.852959,55.147728,89.994587,112.842201,129.107163,59.426548,89.701481,108.006249,120.988003,59.643677,82.053005,93.208225,101.31744,-31.126413,-56.959056,-78.259199,-97.622573,-49.194392,-61.197048,-65.65276,-67.812067,-32.859543,-47.505376,-53.786783,-56.913755,-18.631186,-33.624057,-41.59341,-46.897734,-6.685359,-22.963824,-31.831862,-38.112398,37.573379,292.725574,-150.62732,-6.216556
56,-0.286148,0.245594,-1.672542,-2.81982,-28.573746,-52.910316,-74.930843,-91.173042,-60.494431,-92.487797,-109.082268,-121.687431,-53.864914,-89.10363,-108.178619,-123.007381,-45.234283,-77.495899,-95.451118,-108.842297,-35.617722,-60.217964,-74.467346,-86.422646,-15.769302,-14.287317,-0.542144,10.829305,14.89331,29.243278,36.538225,41.893591,32.220599,45.841579,52.669334,57.930494,44.317579,58.126305,64.879873,69.732147,51.870531,64.84759,69.702161,72.732809,-2.147759,9.08543,21.236171,23.16893,45.648742,77.259281,97.353675,112.546348,55.460563,90.117874,112.778194,128.815841,59.872421,90.034275,108.173011,120.833255,60.298439,82.828731,94.135608,102.329326,-31.425903,-57.606781,-79.110133,-98.574554,-50.09488,-62.301294,-66.922781,-69.119762,-33.781156,-48.887863,-55.473829,-58.807937,-19.313806,-34.726715,-42.791628,-48.162339,-6.93577,-22.963947,-31.607795,-37.799793,37.723446,293.013424,-151.863647,-8.99412
57,-0.346664,0.316014,-1.506478,-2.678536,-28.534699,-52.773491,-74.743962,-91.049492,-60.297982,-92.250847,-108.787423,-121.385251,-53.595955,-88.819302,-107.819779,-122.584156,-44.945458,-77.149064,-95.132538,-108.530285,-35.337273,-59.878224,-74.170029,-86.174653,-15.686445,-14.174659,-0.46072,10.975543,15.04303,29.336472,36.657033,42.065714,32.380607,46.018284,52.836468,58.11866,44.472708,58.28772,65.044574,69.896687,51.953622,65.013205,69.961253,73.098038,-2.099315,9.078656,21.159954,22.887863,45.310078,77.180237,97.340115,112.548741,55.233696,90.04794,112.768959,128.799614,59.900643,90.324555,108.560063,121.10408,60.65989,83.453728,94.882187,103.122254,-31.830966,-58.303738,-80.045682,-99.666684,-51.155473,-63.694481,-68.433103,-70.681114,-34.830449,-50.442546,-57.244317,-60.652934,-20.16887,-36.094857,-44.343897,-49.764366,-7.483223,-23.541338,-32.140558,-38.311987,37.970702,293.748013,-152.776205,-11.254081
58,-0.246437,0.105692,-1.485923,-2.683493,-28.471665,-52.496499,-74.403523,-90.731061,-60.078644,-92.011929,-108.508256,-121.155831,-53.355126,-88.579903,-107.62365,-122.408078,-44.649788,-76.845028,-94.945473,-108.418911,-34.996262,-59.490693,-73.879979,-86.020855,-15.603206,-14.122048,-0.530276,10.933861,15.137422,29.464839,36.765318,42.220028,32.419756,46.046133,52.813534,58.025059,44.535916,58.332699,65.094332,69.941987,52.064563,65.185809,70.173872,73.389352,-2.12415,9.1123,21.28078,23.014377,45.435012,77.288269,97.529354,112.872539,55.450126,90.29718,113.04253,129.094059,60.320869,91.128753,109.516662,122.19025,61.332756,84.49839,96.266544,104.931827,-32.210114,-58.825956,-80.721559,-100.343883,-51.938988,-64.789477,-69.702297,-71.989508,-35.717532,-51.780061,-58.965148,-62.476165,-20.982124,-37.235666,-45.65807,-51.058075,-8.158181,-23.98018,-32.481717,-38.62145,38.260764,294.271379,-153.725629,-13.5199
59,-0.288598,0.08687,-1.260521,-2.224806,-28.338935,-52.314903,-74.174926,-90.538181,-59.944976,-91.816509,-108.334041,-121.068145,-53.158722,-88.323635,-107.426811,-122.240707,-44.380439,-76.451419,-94.632099,-108.202846,-34.653831,-59.029758,-73.499027,-85.737053,-15.656866,-14.146723,-0.586431,10.916065,15.253994,29.549363,36.829267,42.303133,32.620421,46.223938,52.911001,58.036298,44.771222,58.652678,65.392723,70.196584,52.240725,65.465119,70.467483,73.676158,-2.024403,9.31969,21.599063,23.371845,45.518623,77.507183,97.742523,113.000724,55.506237,90.552887,113.340454,129.352146,60.486202,91.718639,110.293304,123.052024,61.64851,85.221256,97.225158,106.09386,-32.671587,-59.497368,-81.670465,-101.405162,-52.973597,-65.919855,-70.957973,-73.323415,-36.889573,-52.971868,-60.371723,-64.015467,-22.073611,-38.311394,-46.741981,-52.15667,-9.047176,-24.466847,-32.812705,-38.992742,38.489496,294.851993,-154.46882,-15.250962
60,-0.255088,0.194909,-1.152272,-1.88934,-28.193207,-52.106369,-74.034279,-90.516209,-59.676155,-91.69114,-108.301186,-121.165787,-52.811142,-88.099503,-107.293076,-122.187745,-43.953919,-75.991288,-94.249672,-107.924927,-34.175972,-58.567841,-73.103623,-85.383408,-15.777946,-14.314128,-0.750465,10.83348,15.287883,29.59165,36.782831,42.191006,32.766646,46.387181,53.000959,58.08082,44.979,59.033332,65.812972,70.629158,52.398967,65.767314,70.783942,73.971868,-1.910156,9.593376,21.93322,23.750965,45.705998,77.949829,98.198159,113.516728,55.656716,90.817669,113.596585,129.59,60.718541,92.268231,111.091153,124.092785,61.967446,85.655285,97.737133,106.707402,-33.15899,-60.152664,-82.435695,-102.07855,-53.81294,-66.662583,-71.780785,-74.230171,-37.770504,-53.914804,-61.443735,-65.129741,-22.849573,-39.144476,-47.624802,-53.023844,-9.646149,-25.107761,-33.563653,-39.877095,38.712519,295.644902,-155.142981,-16.542302
61,-0.180703,0.197083,-0.824775,-1.674085,-27.936424,-51.801521,-73.818271,-90.343025,-59.527862,-91.695041,-108.373672,-121.322971,-52.616706,-88.007091,-107.315403,-122.261707,-43.695098,-75.753845,-94.073822,-107.781887,-33.887191,-58.421699,-73.022266,-85.303562,-16.037113,-14.687089,-1.284224,10.34244,15.156947,29.414203,36.537632,41.908312,32.72673,46.403458,53.011666,58.073903,45.01542,59.261932,66.08187,70.930166,52.472622,65.985193,70.89135,73.958357,-1.638039,9.844814,22.103096,23.979801,45.954025,78.309803,98.454116,113.677539,55.92802,91.136535,113.758747,129.647529,61.08324,92.846557,111.678302,124.747432,62.387592,85.953174,98.005256,107.051777,-33.491169,-60.462521,-82.743934,-102.374711,-54.34345,-66.99748,-72.216644,-74.804517,-38.353885,-54.514424,-62.117796,-65.88349,-23.397404,-39.688663,-48.129135,-53.515006,-10.108351,-25.439366,-33.844641,-40.224194,38.852439,296.478906,-155.647133,-17.579466
62,-0.12165,0.127403,-0.526211,-1.271243,-27.853981,-51.703286,-73.75391,-90.260559,-59.474385,-91.714405,-108.449387,-121.495091,-52.534813,-87.931355,-107.339218,-122.371136,-43.5691,-75.531693,-93.818882,-107.536835,-33.718415,-58.228638,-72.790776,-85.025071,-16.182819,-14.882751,-1.524963,10.118028,14.957605,29.281453,36.323655,41.623989,32.60239,46.407349,53.020015,58.112473,44.978482,59.4839,66.36297,71.293309,52.496397,66.204506,71.060176,74.050563,-1.382115,10.045818,22.145851,23.925052,46.377182,78.678989,98.686809,113.714447,56.25135,91.34182,113.80101,129.525112,61.381416,93.139721,111.971535,125.08873,62.648826,86.017822,98.004513,106.99086,-33.652487,-60.670027,-82.963951,-102.531064,-54.887823,-67.170196,-72.446633,-75.129324,-39.008032,-54.964592,-62.615418,-66.472559,-23.988164,-40.048693,-48.419795,-53.832873,-10.528433,-25.628792,-33.986525,-40.425753,38.878424,297.170739,-156.025709,-18.286279
63,-0.135041,0.079535,-0.153202,-0.846364,-27.735214,-51.634094,-73.754173,-90.28284,-59.402778,-91.743633,-108.55878,-121.677932,-52.456741,-87.920642,-107.465732,-122.599182,-43.461937,-75.441661,-93.734436,-107.495281,-33.556549,-58.104698,-72.657371,-84.904209,-16.215893,-14.936968,-1.599175,10.071023,14.776194,29.203647,36.239872,41.530054,32.434317,46.402866,53.101735,58.269973,44.846755,59.61076,66.609169,71.683484,52.376922,66.260118,71.172722,74.244126,-1.127838,10.078445,22.012573,23.892334,46.346958,78.935646,98.872833,113.759411,56.160118,91.412784,113.699913,129.154438,61.28524,93.244903,112.088321,125.123005,62.542545,85.871452,97.828949,106.72245,-33.616955,-60.648019,-82.945376,-102.48115,-55.227234,-67.252238,-72.578896,-75.417136,-39.393657,-55.255275,-62.905416,-66.859801,-24.308019,-40.249628,-48.597599,-54.082807,-10.696116,-25.589605,-33.854398,-40.312608,38.830398,297.799979,-156.091896,-18.582938
64,-0.064064,0.151683,-0.032112,-0.419736,-27.635009,-51.527595,-73.721614,-90.255878,-59.375129,-91.799915,-108.65689,-121.813076,-52.452804,-87.961418,-107.594524,-122.828361,-43.462532,-75.483272,-93.774307,-107.562183,-33.55854,-58.18666,-72.705803,-84.917312,-16.350619,-15.195664,-1.972159,9.724863,14.434999,28.953497,36.01767,41.284486,32.147895,46.276414,53.098636,58.356474,44.648846,59.548269,66.648591,71.845073,52.255385,66.223192,71.156482,74.268715,-0.962162,10.102878,21.916511,23.877399,46.269527,79.022449,98.955425,113.855335,56.078819,91.389702,113.577873,128.906524,61.26202,93.378719,112.280971,125.333828,62.588951,85.834728,97.822185,106.764026,-33.608322,-60.561673,-82.78075,-102.248944,-55.374342,-67.219584,-72.619719,-75.596398,-39.591412,-55.488562,-63.215916,-67.258802,-24.469385,-40.428451,-48.871894,-54.416494,-10.7736,-25.645304,-33.940984,-40.428377,38.746055,298.455012,-156.144287,-18.499324
65,0.037011,-0.006533,0.149048,-0.126063,-27.631852,-51.562249,-73.770127,-90.328835,-59.454037,-91.833893,-108.724537,-121.955178,-52.578072,-87.983082,-107.68578,-123.047459,-43.63353,-75.654305,-93.983563,-107.848412,-33.749382,-58.406182,-72.930771,-85.209355,-16.336516,-15.228281,-2.167699,9.434586,14.210795,28.767084,35.918782,41.284856,31.887283,46.079109,53.011568,58.401465,44.436301,59.384655,66.558102,71.9026,52.121436,66.130579,71.116962,74.352115,-0.823231,10.083412,21.776699,23.81916,46.17501,79.00621,98.861446,113.657375,55.911289,91.30846,113.377647,128.491207,61.082599,93.387989,112.161884,124.999649,62.421833,85.783824,97.823684,106.804779,-33.458535,-60.29971,-82.418288,-101.825503,-55.538247,-67.297007,-72.762987,-75.851168,-39.84601,-55.628464,-63.346753,-67.452013,-24.639594,-40.435794,-48.883275,-54.505026,-10.767901,-25.241735,-33.37532,-39.875576,38.75294,298.801336,-156.025365,-18.27253
66,-0.024216,0.038063,0.381855,1.045311,-27.624252,-51.625488,-73.754746,-90.322918,-59.463078,-91.747662,-108.719067,-122.015373,-52.657036,-87.96191,-107.771084,-123.273388,-43.759895,-75.75658,-94.160122,-108.143177,-33.844345,-58.463837,-73.017483,-85.409947,-16.245607,-15.183203,-2.14448,9.362104,14.144908,28.795959,36.081939,41.547629,31.806304,45.987557,53.038849,58.546183,44.342156,59.206703,66.505737,71.98458,52.008988,65.900225,71.046369,74.482211,-1.104813,9.812885,21.538524,23.669815,45.896015,78.587471,98.45882,113.413719,55.662712,90.876697,112.928306,128.113586,60.925083,93.13433,111.910446,124.816154,62.366169,85.742454,97.834339,106.848724,-33.473762,-60.400783,-82.637174,-102.004814,-55.92226,-67.966524,-73.632167,-76.925045,-40.387153,-56.311084,-64.157184,-68.420581,-25.303677,-41.220839,-49.841129,-55.598021,-11.535959,-26.177414,-34.450012,-41.064376,38.672642,299.011182,-155.699592,-17.055436
67,-0.154198,0.168665,0.442005,1.980533,-27.54499,-51.483696,-73.589104,-90.262058,-59.437191,-91.684994,-108.668438,-121.940723,-52.695305,-87.987682,-107.864467,-123.429073,-43.830459,-75.832329,-94.312385,-108.406116,-33.873413,-58.490776,-73.075916,-85.609119,-16.142657,-15.258773,-2.365794,9.069975,13.975218,28.678942,36.104404,41.666128,31.573295,45.822956,53.005825,58.600623,44.090239,58.940682,66.33312,71.901748,51.775226,65.600847,70.895265,74.534761,-1.132176,9.797767,21.461517,23.922718,45.696247,78.314884,98.053962,112.994247,55.39769,90.394203,112.160041,127.22097,60.671024,92.838558,111.536831,124.427913,62.118885,85.612781,97.763179,106.805111,-33.494973,-60.416319,-82.740069,-101.907965,-55.941582,-68.653793,-74.722562,-78.395538,-40.570626,-57.085681,-65.428359,-70.194367,-25.649824,-41.901088,-50.952914,-57.102125,-12.110695,-26.812084,-35.328034,-42.204745,38.470779,299.204418,-155.305252,-15.050332
68,-0.193497,0.097862,0.737228,4.098585,-27.54634,-51.409263,-73.408367,-90.248336,-59.498199,-91.61285,-108.587871,-121.838596,-52.791515,-87.915023,-107.708438,-123.241287,-43.897499,-75.807655,-94.217365,-108.248268,-33.844894,-58.44017,-72.975952,-85.499977,-16.159169,-15.299319,-2.409562,8.84219,13.933882,28.650487,36.14474,41.760063,31.5234,45.785535,53.095401,58.797606,44.031564,58.826147,66.277434,71.892152,51.723566,65.453683,70.831341,74.527931,-1.152523,10.042992,21.76482,24.26144,45.689919,77.575516,96.872223,111.595059,55.237415,89.310791,110.499825,125.349094,60.429623,91.793243,110.194027,122.910221,61.82626,84.917873,97.103531,106.196388,-33.7883,-60.751568,-83.112226,-102.155337,-56.261912,-69.852505,-76.417395,-80.57949,-41.22883,-58.126947,-66.902181,-72.251953,-26.547231,-42.812796,-52.233982,-58.826987,-13.191488,-27.974931,-36.695707,-43.794183,38.380548,299.28763,-154.464758,-10.966397
69,-0.323272,0.083191,1.401764,6.30384,-27.571633,-51.319611,-73.179955,-90.122189,-59.502079,-91.436989,-108.381088,-121.630314,-52.829693,-87.776345,-107.53228,-123.080967,-43.930252,-75.700905,-94.047535,-108.05698,-33.801407,-58.323212,-72.820347,-85.38311,-16.125874,-15.329441,-2.460236,8.647416,13.866931,28.648214,36.198573,41.837867,31.413854,45.701788,53.115864,58.874287,43.914027,58.660211,66.202085,71.88416,51.650218,65.338382,70.810247,74.607835,-0.762817,10.647846,22.169609,24.975346,46.141422,77.026955,95.810577,110.382683,55.209091,88.44603,108.989925,123.664204,60.19836,90.922211,109.264435,122.05727,61.509418,84.227463,96.552612,105.777924,-34.099979,-60.928094,-83.148406,-101.984665,-56.129402,-70.258365,-77.123795,-81.573826,-41.394265,-58.291876,-67.514239,-73.435622,-27.082607,-42.823732,-52.479718,-59.474514,-13.998899,-28.407795,-37.25821,-44.682228,38.348786,299.340421,-152.771484,-4.692957
70,-0.529724,0.126538,2.369499,9.582781,-27.524002,-51.137192,-72.871823,-90.0122,-59.468628,-91.249455,-108.117829,-121.290608,-52.770893,-87.608174,-107.249165,-122.697956,-43.806656,-75.459195,-93.700322,-107.639431,-33.562432,-58.037682,-72.47509,-85.017929,-16.166677,-15.406851,-2.503793,8.510677,13.75204,28.594072,36.174713,41.810661,31.331344,45.691823,53.185087,58.940324,43.862825,58.623297,66.233196,71.936835,51.624642,65.35098,70.968403,74.869399,0.002781,12.052792,23.63641,26.968689,46.324951,75.982109,94.169403,108.45274,54.680683,87.231526,106.987324,121.371483,59.472828,89.791935,108.078736,120.878872,60.883393,83.333016,95.841477,105.117977,-34.734841,-61.482261,-83.482889,-101.909261,-55.849462,-70.54611,-77.73287,-82.193855,-41.638149,-58.241445,-67.796179,-74.093801,-27.917497,-42.797117,-52.678579,-60.07873,-15.222922,-28.937398,-37.897704,-45.892493,38.384869,299.294268,-149.836178,4.717133
71,-0.636956,0.133283,3.017693,11.726409,-27.487587,-50.997139,-72.639907,-89.88438,-59.459026,-91.123855,-107.88113,-120.967895,-52.719898,-87.431556,-106.937244,-122.239929,-43.698852,-75.141403,-93.281318,-107.158012,-33.379119,-57.665714,-71.982936,-84.43095,-16.177941,-15.399442,-2.509426,8.378123,13.64232,28.473312,36.050915,41.685208,31.196234,45.665701,53.210972,58.983017,43.749512,58.664818,66.353164,72.12968,51.527322,65.36675,71.074872,75.065875,2.137459,15.243461,26.550407,30.959003,47.475963,76.693931,94.452358,108.288528,53.902199,86.460193,105.933712,120.567524,57.235943,87.703823,106.524273,119.812603,57.495151,80.13303,93.298691,103.142875,-34.975124,-60.770309,-82.076542,-99.928857,-53.44868,-68.1687,-75.687967,-80.741467,-39.776867,-55.485419,-65.27565,-72.479768,-26.524784,-39.819024,-49.887985,-58.037026,-14.294547,-26.281543,-34.789465,-43.083305,38.597585,299.123723,-145.968813,16.139714
72,-0.610336,-0.096294,4.006937,17.741425,-27.567055,-51.059257,-72.565224,-89.86496,-59.572529,-91.015411,-107.689075,-120.764156,-52.749916,-87.15485,-106.519157,-121.732441,-43.63369,-74.80545,-92.874298,-106.731365,-33.17157,-57.275494,-71.532726,-83.917614,-16.178349,-15.202939,-2.222002,8.531672,13.880035,28.66811,36.163338,41.738042,31.403777,45.830625,53.331064,59.084832,43.922031,58.892739,66.644638,72.495972,51.634064,65.578616,71.407349,75.50476,4.103588,19.03177,31.097299,36.715719,49.125349,79.514608,96.729172,109.462263,54.240286,88.129829,106.961088,120.602611,56.462242,88.201515,106.771167,119.256992,55.817688,79.512136,93.017721,102.781168,-35.036526,-59.922841,-80.14264,-97.612044,-50.796056,-65.213771,-72.960949,-78.237217,-36.952858,-51.699292,-61.710821,-69.43091,-23.674281,-35.821871,-46.194823,-54.83159,-11.571922,-22.606616,-31.118901,-39.636957,39.448866,298.537057,-140.500259,33.390767
73,-0.443664,0.115239,4.672107,22.590764,-27.608391,-51.227646,-72.781735,-89.958767,-59.697865,-91.070824,-107.700222,-120.738339,-52.852192,-87.096245,-106.361035,-121.430878,-43.733849,-74.606678,-92.682965,-106.57314,-33.238335,-57.13789,-71.375645,-83.719265,-16.39061,-15.393785,-2.287322,8.668695,13.85142,28.553798,36.020534,41.660298,31.428477,45.837824,53.222247,58.964999,43.969874,58.995096,66.810055,72.757324,51.677598,65.772895,71.725425,75.945991,6.203614,23.589976,37.214259,44.484644,51.327754,84.990115,101.685025,112.631945,55.651675,92.614312,110.632548,122.068703,57.049736,91.65136,109.350884,119.802487,55.688851,81.742854,95.279635,104.201209,-34.757476,-58.75343,-77.598405,-94.657743,-47.57742,-61.374265,-69.25811,-74.345396,-32.761919,-46.81584,-57.318297,-65.257582,-18.883936,-30.651404,-41.689018,-50.675627,-6.608973,-17.380184,-26.500748,-35.295019,40.618973,298.092528,-134.214381,55.421763
74,-0.402283,0.050586,4.275547,24.753456,-27.666756,-51.358578,-72.950512,-90.015392,-59.834427,-91.178032,-107.735584,-120.700195,-52.959767,-87.068745,-106.175846,-121.034477,-43.826637,-74.497502,-92.528584,-106.391819,-33.286606,-56.96481,-71.077881,-83.276951,-16.458017,-15.359773,-2.162006,8.868371,13.710221,28.438448,35.887635,41.58721,31.294083,45.842987,53.185802,58.965196,43.886956,59.119288,67.027552,73.090899,51.651749,65.948995,72.01007,76.312406,9.392739,29.20154,44.692812,53.962184,53.788668,89.51995,106.0383,115.92591,57.165511,96.591843,114.260462,124.653935,57.814579,94.724808,112.184258,121.623654,56.052807,83.979281,97.795561,106.419795,-34.736635,-57.03935,-74.635726,-90.069287,-42.788479,-55.634158,-63.567007,-68.525248,-27.935779,-40.814528,-51.122929,-58.780625,-14.39065,-25.272746,-36.286944,-45.087258,-2.814985,-12.971959,-22.022442,-30.921356,41.699988,297.495883,-128.455536,79.527988
75,-0.258385,-0.124353,5.023522,28.410166,-27.795341,-51.522892,-73.11581,-89.959717,-60.01173,-91.281406,-107.798893,-120.726929,-53.153629,-87.042446,-106.074978,-120.799633,-44.032081,-74.473183,-92.482223,-106.319561,-33.462433,-56.887974,-70.883366,-82.956058,-16.503749,-15.359613,-2.166897,8.930196,13.656128,28.37009,35.83737,41.608712,31.21093,45.817595,53.133389,58.953958,43.827873,59.185139,67.175321,73.344187,51.642301,66.080894,72.211783,76.584923,12.316944,34.668692,52.301405,63.494276,57.088926,97.732309,112.974506,119.711695,59.911119,103.293766,119.412432,127.059116,59.594822,99.848442,115.319412,122.175316,56.745083,87.397116,100.452032,107.594439,-33.447434,-53.589521,-68.622655,-81.11904,-35.653311,-47.339335,-55.963364,-61.203106,-19.628822,-31.893853,-43.099499,-51.08451,-5.838853,-16.502908,-28.175626,-36.927015,5.062923,-4.536809,-14.024065,-22.479629,42.690868,296.849246,-122.182749,107.41587
76,-0.019249,-0.11514,3.963478,29.380377,-27.918823,-51.784469,-73.440262,-90.089435,-60.252422,-91.46656,-107.964271,-120.871868,-53.30841,-87.01601,-105.910297,-120.517387,-44.145355,-74.461006,-92.414051,-106.226303,-33.551353,-56.852394,-70.786812,-82.811142,-16.474664,-15.394526,-2.297066,8.958774,13.518375,28.305487,35.774545,41.575576,31.073869,45.821053,53.132944,58.992181,43.703236,59.184275,67.248693,73.495365,51.55837,66.095591,72.366864,76.88834,15.653858,39.75234,59.991652,73.082274,60.67238,103.328219,118.533806,124.214876,63.284266,108.742161,124.078714,129.848122,62.972786,104.969135,119.549343,124.980229,60.4674,92.500792,105.645155,112.693972,-31.277235,-49.167654,-62.184681,-71.924107,-28.120137,-37.822362,-46.417102,-51.42247,-11.992229,-22.16812,-33.345831,-40.906974,1.095526,-8.023089,-19.097247,-26.939701,10.852493,2.173028,-7.013319,-14.91668,43.686355,296.254431,-117.204535,136.316572
77,-0.012199,-0.260785,5.023315,28.26199,-27.914543,-51.741074,-73.359146,-90.083554,-60.068047,-91.359444,-107.888191,-120.78257,-53.061127,-86.80576,-105.60545,-120.16436,-43.91201,-74.266022,-92.219387,-106.053704,-33.409539,-56.766392,-70.631047,-82.646359,-16.278693,-15.210756,-2.345021,8.792308,13.446721,28.313058,35.851857,41.695225,30.997312,45.935539,53.399941,59.315482,43.669398,59.285966,67.51117,73.78684,51.604054,66.29628,72.77065,77.41459,18.496583,43.92956,65.628502,79.854813,62.281752,106.067992,121.216044,126.03649,64.153782,110.943827,125.909747,130.553839,63.502179,106.500681,120.422167,124.783213,60.958329,93.902338,106.801192,113.143473,-27.881657,-42.143476,-51.918937,-57.70642,-18.164501,-24.649826,-32.277699,-36.545345,-2.962253,-9.574957,-19.432496,-25.917741,8.348181,2.206139,-7.123237,-13.336533,16.145615,9.633571,1.809584,-4.869483,44.087952,295.72606,-111.767424,164.310976
78,-0.188301,-0.013486,6.083153,27.143604,-28.604096,-51.796612,-72.616127,-88.033802,-59.745289,-90.85508,-107.317681,-120.387051,-53.129116,-86.519028,-105.359619,-120.012074,-44.158631,-74.204384,-92.21505,-106.117607,-33.672066,-56.6124,-70.326577,-82.423542,-14.017837,-12.315193,-0.932975,9.26192,13.687856,28.106441,35.702372,41.567796,30.383241,45.4218,53.208626,59.075125,42.81823,58.70377,67.041014,72.964151,50.928998,65.649197,72.209685,76.71802,20.845116,47.20035,69.211956,83.811894,61.91704,105.951628,121.021219,125.176535,62.519669,109.898764,124.905527,129.176268,61.182999,104.443079,117.937884,121.584269,58.217869,91.601755,103.920141,108.942942,-23.260701,-32.516989,-37.825425,-38.46598,-5.786402,-7.821727,-13.545156,-16.571729,7.461105,5.885636,-1.359497,-6.11681,15.919108,14.184774,7.746404,3.882489,20.942288,17.84482,12.444641,7.66196,44.03627,295.481974,-105.547652,191.22398
79,-0.264771,0.258166,4.09671,24.415829,-29.652923,-52.799732,-72.836529,-87.259529,-59.867534,-90.306907,-106.814678,-119.906158,-53.468845,-85.929016,-104.823223,-119.473949,-44.587051,-73.717827,-91.460575,-105.112541,-33.951279,-56.280281,-69.808182,-81.732422,-12.380908,-9.987857,0.595583,10.078668,14.396244,27.593666,34.817624,40.184291,30.336249,44.744682,52.497595,58.194626,42.280495,57.604675,65.705785,71.161039,50.015105,64.398924,71.131485,75.607378,23.045723,49.957117,72.389225,86.76891,61.816939,105.844557,121.542567,126.30744,60.751076,108.114539,124.123622,129.050955,58.277413,101.115767,115.199267,119.529505,54.522423,87.575163,100.059912,105.257304,-19.594344,-24.962067,-25.586913,-22.693085,3.515914,6.311812,2.88979,1.355576,17.513207,20.552921,15.654693,12.306981,26.14899,29.115171,25.69242,23.825149,30.979953,32.410457,29.353349,26.383259,43.862211,295.585983,-101.36023,215.485652
80,-0.625717,1.464251,1.152455,20.471089,-28.57045,-51.525089,-71.419807,-86.06472,-56.38393,-85.888138,-101.854969,-114.493813,-51.336193,-83.353306,-102.563541,-117.220219,-43.805534,-72.67281,-91.014565,-105.244045,-34.310875,-55.974953,-69.742378,-81.965469,-11.934725,-10.646327,-2.608004,4.59628,12.967586,22.674146,27.753574,31.470714,28.741692,40.914859,47.03167,51.264006,40.560313,54.549301,61.618216,66.020959,48.070608,62.256802,69.138527,73.553274,25.78656,52.842195,75.502338,90.086986,61.125372,102.166483,119.911451,127.777147,58.002376,103.193681,121.732023,129.437708,54.501194,95.208921,111.736387,118.636419,50.534569,81.727541,95.420408,102.402414,-16.691618,-18.526599,-15.609417,-10.873994,11.213152,18.573517,18.212982,18.355168,24.964876,33.128528,31.27483,29.340795,33.16669,41.391585,41.204729,40.91071,37.477727,43.364993,43.219811,41.76972,43.323635,296.865649,-100.120634,235.772156
81,-1.020767,0.778092,1.221988,18.280889,-27.460488,-50.105255,-68.96814,-82.876831,-53.315037,-79.593956,-93.775452,-105.111569,-49.45633,-79.040531,-98.077469,-112.375019,-43.261482,-70.970707,-89.58157,-103.992611,-34.816338,-55.905647,-70.134487,-83.189163,-12.395086,-11.314293,-4.312661,1.355755,12.801762,21.104426,24.359018,26.221954,28.38328,39.108623,43.11967,45.123224,40.132334,53.330187,58.873448,61.392235,47.702823,61.648314,68.312035,72.216576,27.197697,54.545786,76.846848,91.280491,59.612303,99.325053,117.462817,126.513434,54.989445,98.635271,118.177661,127.164923,50.302746,89.241995,106.561427,114.709574,45.383652,74.989581,88.452948,95.323752,-14.474519,-12.937459,-6.052109,0.411337,17.39443,28.442925,30.599533,32.52191,31.806241,43.366869,43.980211,43.487505,40.228293,52.031774,53.912493,54.588969,44.438615,53.707704,55.229093,55.00061,42.388956,297.494364,-98.812558,253.903668
82,-1.715149,0.72043,-0.43622,13.653293,-25.604073,-47.602524,-64.936718,-76.827198,-52.785908,-72.385918,-80.042782,-85.962959,-50.619244,-73.311012,-84.685799,-91.899719,-45.807438,-68.147518,-80.034313,-88.410576,-38.555077,-56.614391,-67.900257,-77.802406,-10.855192,-8.71139,-1.694716,3.962598,13.54762,22.249402,24.828124,25.634782,27.989547,38.505581,41.751232,42.41989,38.976687,51.348332,55.760338,56.840599,46.313253,59.498992,65.192503,68.068158,28.586529,55.82119,78.131264,92.861653,58.498284,96.443871,115.385308,126.409104,52.309479,94.258828,115.340447,126.653962,46.537411,83.594982,102.491982,113.184586,41.01717,68.426651,82.288582,90.56353,-13.350649,-9.737052,-0.360375,6.770476,21.43757,35.068282,38.961176,42.105334,36.907258,50.831297,53.248295,53.840123,46.067981,60.719786,64.076662,65.241348,50.625989,62.970601,65.886356,66.481198,40.77614,298.036777,-99.146445,267.378944
83,-0.813194,-0.145954,-2.276802,8.733312,-23.790722,-46.205842,-63.289152,-75.475634,-53.637057,-67.913836,-68.81769,-68.90268,-52.435467,-69.524849,-73.057177,-73.104939,-48.556475,-66.799988,-71.610495,-73.772404,-42.416531,-59.32096,-68.737919,-76.379282,-8.628527,-5.209555,3.41825,10.342688,15.753043,25.753461,27.459093,26.884055,28.459561,39.451375,41.735307,40.900929,37.682843,49.949044,53.229695,53.038899,43.531398,56.399461,61.987454,64.970678,30.052655,56.742211,79.24585,94.928124,58.682991,94.213738,114.003662,127.595558,50.887676,90.822876,113.247597,127.593888,44.057373,79.260887,100.08371,114.269532,38.106938,63.386296,78.411862,89.593369,-13.74169,-9.613354,0.74261,7.501032,22.204089,37.097227,41.761507,45.157681,39.272385,54.081097,57.212745,58.022416,49.948451,66.251078,70.209477,71.0098,55.51961,70.07559,73.546803,74.020305,40.070052,297.735301,-101.316141,275.956734
84,0.213775,-0.959724,0.096222,7.892135,-22.419582,-45.377826,-62.81413,-75.852899,-55.408075,-65.983297,-59.804849,-54.037113,-55.101414,-67.981716,-63.618456,-56.626339,-51.961847,-67.472729,-65.269998,-61.387069,-46.911518,-64.19985,-72.85572,-79.491102,-3.300208,2.18287,12.343826,21.009441,19.325649,31.674608,32.725489,31.056715,28.850848,41.558447,43.121751,40.673637,35.262498,49.028974,51.454654,49.909362,38.94244,52.196357,58.40457,62.295464,29.899658,56.301041,78.747254,95.627358,57.740582,92.847084,112.438523,126.430138,49.29031,88.730026,110.967224,125.869675,41.975269,76.891159,97.601509,112.313988,35.779587,60.844254,75.972096,87.718826,-13.10329,-8.535747,2.408488,9.193253,23.870239,38.802069,43.409811,46.563738,40.838005,55.684496,58.838867,59.446627,51.095946,67.156846,70.458875,70.388689,55.98527,70.301658,73.450089,73.582359,40.443649,296.626642,-101.060097,283.699934
85,0.576279,-0.258537,1.813534,5.099855,-22.284863,-45.274555,-61.180544,-71.669203,-59.30781,-66.163988,-53.609533,-42.398529,-58.696324,-66.94899,-54.209215,-39.944584,-55.228884,-67.155121,-57.448969,-46.691734,-50.07589,-66.104822,-71.326218,-74.161726,-2.918689,3.447717,15.735122,26.766321,19.310237,35.778047,38.737312,37.991212,28.689853,44.242243,46.985178,44.815176,35.318024,50.084154,52.549045,50.518456,39.624461,52.220267,57.369881,60.348918,28.862881,54.722053,76.872974,94.640568,56.731773,91.774075,110.937504,125.143925,47.869778,87.185245,109.061085,124.430981,40.091022,74.979069,95.5135,110.75742,33.487633,58.735371,73.929279,86.072697,-12.801799,-8.142977,3.009147,10.034306,24.49603,39.530181,44.038887,46.964696,41.488966,56.03409,59.548689,60.591616,51.550936,67.203961,70.514006,70.426221,56.093642,70.131795,72.923742,72.86724,41.172861,296.287684,-99.09363,288.719368
86,0.758537,0.214854,2.55003,3.314849,-22.386337,-46.070412,-62.413112,-73.01778,-64.539716,-69.023563,-50.574921,-34.345733,-63.844539,-68.183161,-46.832022,-25.246444,-59.812425,-67.864838,-49.691808,-31.750156,-54.229065,-69.431539,-71.565645,-70.552047,2.801351,10.807329,23.731665,36.290464,21.318379,39.659912,44.154453,44.745713,27.913101,45.48812,50.018359,49.065266,32.168667,47.752755,51.116627,49.895932,34.627032,46.642612,51.716748,54.958416,27.656009,53.189277,75.305855,93.511848,55.177562,90.75729,109.720527,123.966705,46.056701,85.918579,107.6166,123.324096,38.116012,73.673984,94.004425,109.438408,31.500698,57.455246,72.827945,85.498077,-12.754857,-8.604599,2.683351,10.046112,24.299503,39.182946,43.501177,46.139735,41.534377,55.727029,59.345678,60.679524,51.753576,66.988872,70.442091,70.545103,56.341854,70.217431,72.952467,72.818914,42.041284,296.442986,-96.433714,291.974665
87,1.461594,0.321362,2.442947,2.527815,-23.412895,-48.985314,-67.481197,-80.932263,-69.390776,-73.928467,-53.490933,-35.883842,-68.108471,-71.578943,-48.281073,-25.621857,-63.150931,-70.268692,-49.228609,-29.569462,-56.523274,-73.743113,-76.752451,-76.342838,10.841279,20.705672,33.215824,45.922281,25.481851,43.748925,48.506239,49.780459,27.588552,45.926757,50.939477,50.470384,27.594814,44.426247,48.608744,48.250987,26.269063,38.131626,44.471251,49.289358,26.968563,52.236157,74.089325,92.667446,54.540608,90.421166,109.104378,123.258041,45.234375,85.34808,106.563561,122.199074,37.090668,73.073731,93.050034,108.28212,30.345612,57.167988,72.744713,85.67759,-13.125199,-9.622703,1.661876,9.28883,23.157503,37.774048,41.951599,44.323778,40.627312,54.248058,57.779415,59.210629,51.111001,65.7107,69.170773,69.283752,55.875601,69.332312,71.773356,71.324418,43.583674,296.732577,-93.909971,294.470709
88,0.380699,1.741225,2.642658,1.857798,-22.961918,-49.309032,-68.226351,-82.572355,-71.202312,-75.11812,-53.931044,-35.556438,-69.464573,-71.486143,-47.145115,-23.617973,-63.884479,-68.989609,-46.296959,-25.429127,-56.288578,-71.465343,-72.101046,-69.523848,16.260292,27.151027,38.582843,50.71935,26.966424,45.026993,50.620716,52.955802,25.763785,44.686094,50.756036,51.388465,22.805885,40.011131,45.566871,46.731619,18.661895,30.43211,37.49976,43.058748,26.519097,51.395348,72.927143,91.776936,53.853825,89.809948,108.359631,122.331677,44.395192,84.565567,105.629963,121.102352,36.055802,72.150456,92.0052,107.073475,29.17566,56.366776,72.024674,85.012951,-13.412276,-10.376206,0.860171,8.729075,22.374706,36.851324,41.022107,43.385209,39.93015,53.338412,56.902251,58.49393,50.51175,64.879564,68.397708,68.593531,55.306089,68.668137,71.143267,70.66007,44.01808,298.435949,-91.213606,296.290654
89,-0.593101,2.566483,2.104077,0.923415,-21.301289,-46.513424,-64.225749,-77.333697,-69.802289,-71.395678,-50.121203,-31.596028,-68.467793,-68.240576,-43.558983,-19.577225,-63.209691,-65.766369,-42.464287,-20.979229,-55.583451,-67.033242,-64.682757,-59.327826,14.276992,24.421708,35.258387,46.394783,23.831318,41.352843,47.952653,51.504519,23.614463,42.101542,48.963026,50.740555,21.767033,38.24681,44.396552,46.54212,18.626759,30.322874,36.57133,41.190292,26.434387,51.10984,72.399639,91.197258,53.170566,88.781456,107.144439,120.943542,43.542434,83.304462,104.271675,119.771736,34.983181,70.716602,90.606125,105.872978,27.855377,54.873115,70.554668,83.778259,-13.555956,-10.555998,0.931888,9.003581,21.893201,36.604792,40.8889,43.269119,39.494773,53.226015,56.961532,58.740389,50.175014,65.014477,68.880016,69.387259,55.035845,68.98514,71.757956,71.474843,43.410748,300.902282,-89.12376,297.113919
90,-0.682652,0.239012,1.747421,0.592557,-20.906227,-46.289795,-64.8767,-79.856375,-71.237366,-70.413197,-48.261549,-29.283577,-70.274683,-67.147516,-41.775055,-17.32259,-64.98369,-64.821591,-39.886963,-17.534615,-57.10401,-67.787407,-65.814125,-60.926989,20.082703,32.843858,44.307773,55.573629,27.551984,45.302498,52.063501,55.946114,24.060547,42.747692,50.067289,52.279479,19.338765,36.56826,43.277084,46.117986,13.895269,26.292615,33.690512,39.648729,26.500408,51.135509,72.123436,90.544945,52.223865,87.553986,105.811592,119.440704,42.453861,82.033321,102.948051,118.339256,33.860355,69.440025,89.367828,104.644386,26.753048,53.762615,69.48801,82.750454,-13.522377,-10.387061,1.293289,9.539179,21.45155,36.551131,40.960098,43.339601,39.126173,53.296769,57.05827,58.728681,49.942881,65.173077,69.090708,69.596197,54.93455,69.194202,72.129607,71.881988,42.666103,300.970138,-87.438332,297.53532
91,-0.729469,-0.123279,1.109287,0.648096,-20.827687,-46.282276,-65.450364,-81.574265,-72.211098,-69.510058,-46.602642,-27.272908,-71.527983,-66.172463,-40.334404,-15.591031,-66.324904,-64.245003,-38.355835,-15.566471,-58.484213,-69.157265,-68.106005,-64.088517,23.034608,37.204883,49.428883,61.127567,29.183868,47.523278,54.47504,58.515555,24.464636,43.482769,51.051468,53.386967,18.848727,36.652562,43.536801,46.574217,12.961856,25.965672,34.096787,41.032111,26.438107,51.139469,71.96616,90.176548,51.674641,86.753712,104.865544,118.271496,41.839245,81.198578,102.025097,117.166203,33.23576,68.761048,88.658467,103.679272,26.191384,53.289368,69.010403,82.079659,-13.847382,-10.72254,1.064885,9.593852,20.899192,36.436164,41.090613,43.670595,38.647841,53.033896,56.817369,58.492028,49.547283,64.891927,68.77993,69.32489,54.603073,69.030958,71.962547,71.707888,41.850043,300.627521,-86.415636,297.964078
92,-0.663872,1.446936,0.916981,0.036087,-19.773228,-43.944248,-61.643829,-76.484814,-69.102631,-66.732748,-45.216751,-26.648266,-68.771582,-63.536167,-39.005219,-14.756413,-64.180475,-61.676136,-37.066429,-14.779507,-56.981432,-64.794777,-61.44108,-55.546944,22.366369,36.296139,48.547704,60.029755,27.912711,46.090433,53.514957,57.79983,23.409914,42.09189,50.227297,53.208323,18.197741,35.495717,42.866944,46.37317,12.483092,25.760586,33.75685,40.314929,26.259155,50.875111,71.607193,89.763931,51.10762,85.82753,103.7593,116.926529,41.281883,80.318298,101.021187,115.955017,32.661095,68.032516,87.8535,102.701683,25.577248,52.558983,68.223289,81.222725,-13.863301,-10.610722,1.301105,10.157732,20.705999,36.567593,41.351039,43.975815,38.376522,53.142009,56.992209,58.579516,49.264318,64.926309,68.857044,69.389469,54.357566,69.138095,72.223479,72.028101,41.068829,301.820067,-85.615997,297.745775
93,-0.031219,-0.329704,0.4212,-0.275741,-20.057671,-43.998185,-62.043492,-77.340764,-69.397465,-66.590235,-44.956004,-26.497777,-69.092137,-63.587128,-39.119797,-15.048913,-64.589751,-61.856604,-37.160683,-14.976769,-57.656834,-65.91758,-62.89103,-57.271804,22.47539,36.412977,48.720531,60.187929,28.21146,46.180731,53.683264,58.152901,23.834986,42.137141,50.36589,53.53673,18.675516,35.893662,43.291244,46.792505,13.141154,26.413893,34.241461,40.677157,26.196888,50.888569,71.564392,89.659138,50.744304,85.133503,102.959095,116.006092,40.952614,79.615917,100.265819,115.105167,32.351417,67.412796,87.203396,101.907085,25.258358,52.030071,67.663662,80.611484,-13.814456,-10.347479,1.680155,10.710992,20.718696,36.714609,41.531784,44.147556,38.281131,53.222372,57.066594,58.602537,49.126417,64.941748,68.877892,69.361756,54.273783,69.324039,72.549991,72.422934,40.912749,301.199901,-85.319658,297.179572
94,0.494339,-1.511737,0.220665,-0.415382,-21.413132,-46.97223,-67.072175,-84.746476,-73.26764,-70.279364,-47.594451,-28.588933,-71.934701,-65.989529,-40.543305,-16.126099,-66.356112,-63.047625,-37.071168,-14.508179,-58.451947,-68.090665,-65.384526,-60.030345,28.143065,43.277079,54.521699,65.888974,32.020892,49.93544,57.52519,62.341987,24.564184,43.283106,51.972253,55.451142,16.316898,34.106988,42.40415,46.627928,8.114807,21.146781,29.781563,37.195089,26.088432,50.809067,71.423527,89.446758,50.840984,84.978023,102.769924,115.742283,40.981601,79.208484,99.798649,114.462169,32.251121,66.905788,86.55376,100.954044,25.011394,51.429451,66.953968,79.785003,-13.694068,-10.253076,1.79317,11.021744,20.675038,36.776717,41.715466,44.417725,38.141735,53.10276,57.060616,58.718293,48.938152,64.721817,68.717587,69.20623,54.133165,69.380786,72.713518,72.618632,41.276871,299.413653,-85.22921,296.489679
95,0.745548,0.837657,0.20026,-0.542675,-21.90778,-48.311119,-68.857624,-87.322941,-73.322823,-72.039597,-50.127955,-31.630165,-71.418589,-67.277447,-42.443253,-18.236355,-65.381138,-63.420428,-37.993264,-15.561985,-57.003588,-66.447064,-62.471415,-55.926951,31.478995,47.158907,57.095505,67.613447,33.055576,49.956472,57.74917,62.967667,22.870185,41.321017,50.736238,54.847537,11.94747,29.478387,38.900067,44.049175,0.987611,13.614373,23.096932,30.997571,26.042335,50.806686,71.399265,89.422989,51.059086,84.953018,102.679481,115.509453,41.094772,78.912289,99.411713,113.856331,32.166595,66.461082,85.964882,100.027862,24.66172,50.756573,66.148773,78.86253,-13.622215,-10.106246,2.059487,11.399138,20.773209,36.892759,41.887082,44.62023,38.103832,53.056052,57.163307,58.921354,48.797299,64.592314,68.675782,69.171403,53.965055,69.43341,72.856804,72.788816,41.899344,300.013099,-85.152025,295.708793
96,0.514618,0.60566,0.31715,-0.514406,-20.698666,-46.293595,-65.660649,-82.523095,-70.382664,-70.425843,-50.474185,-33.119545,-68.584746,-66.232853,-43.226853,-19.97604,-62.891327,-62.066088,-38.520607,-16.981556,-54.608866,-62.215222,-56.172541,-47.844996,30.332735,45.963135,55.779147,65.548748,31.755471,47.793553,55.89719,61.383609,21.344283,39.239917,49.361415,54.269282,10.24842,27.250432,37.36615,43.227462,-1.176604,11.794317,21.528584,29.142403,25.996124,50.828716,71.537773,89.462437,51.096348,84.889309,102.578854,115.42551,41.007912,78.639668,99.098133,113.468044,31.914597,65.966,85.40324,99.369679,24.217987,50.139256,65.435898,78.047287,-13.516807,-9.950264,2.256434,11.786882,20.847952,36.940196,41.93368,44.685229,38.08101,53.191755,57.332466,59.022773,48.719198,64.673714,68.757824,69.132093,53.821202,69.413515,72.856384,72.681964,42.303956,300.392267,-84.944881,294.967895
97,0.344272,-0.962374,0.328754,-0.545491,-21.031231,-46.863298,-66.334602,-82.80415,-71.089822,-70.699316,-50.405245,-33.04327,-69.127756,-66.867393,-43.942165,-20.892094,-63.281473,-63.021738,-39.818172,-18.606617,-54.810779,-63.906595,-59.627283,-52.817327,27.695783,43.190042,53.947179,64.17398,30.546966,46.538007,54.350255,59.720818,21.753775,39.290534,49.13673,53.89592,12.200486,29.006244,38.551758,44.047131,2.359792,15.621027,25.483648,33.443857,26.065213,51.063332,71.827595,89.551255,51.120026,84.777672,102.351952,115.192887,40.799069,78.327736,98.691926,113.010613,31.577591,65.477612,84.884446,98.876999,23.814835,49.641209,64.921246,77.504746,-13.497899,-9.872792,2.433757,12.124891,20.772839,37.014284,42.021612,44.795206,38.0798,53.310699,57.373605,58.914697,48.756594,64.850394,68.856217,69.117557,53.787684,69.444316,72.836797,72.568998,42.544475,299.198715,-84.71988,294.191226
98,-0.211235,-0.24581,0.42849,-0.383346,-21.419792,-47.287828,-66.531246,-82.458973,-71.502691,-70.490232,-49.476643,-31.901768,-69.594292,-66.867107,-43.676319,-20.562721,-63.80464,-63.89138,-40.857158,-19.72055,-55.490175,-66.478735,-64.758625,-60.20359,23.751716,38.692481,50.737986,61.741564,29.205624,44.865688,51.98456,57.035324,22.913874,39.256818,48.282549,52.730734,15.658645,31.544359,39.894397,44.68426,8.011487,21.064906,30.510385,38.586481,26.031132,51.128792,71.987137,89.501633,50.993935,84.645928,102.141037,114.960274,40.58741,78.11776,98.371399,112.57695,31.3335,65.213963,84.571175,98.598152,23.577358,49.369377,64.61475,77.202599,-13.510175,-9.956563,2.361891,12.314637,20.520699,36.957596,41.986797,44.776026,37.891534,53.335992,57.380014,58.766632,48.626881,64.94029,68.927588,69.118594,53.613399,69.387913,72.76419,72.423242,42.238598,298.736581,-84.386032,293.591556
99,-0.854828,2.530446,0.636532,-0.320646,-19.996971,-45.435419,-63.801223,-78.887283,-68.444749,-67.437864,-47.334183,-30.316852,-66.978561,-64.445228,-41.841282,-18.857002,-61.804292,-62.11528,-40.028881,-19.249237,-54.081076,-63.56579,-60.704773,-55.364399,22.611988,37.183647,48.755772,58.986692,28.29084,42.866494,49.53229,54.436545,21.504655,36.642565,45.414612,50.009973,13.526736,28.240341,36.646597,41.688252,4.891719,17.17684,26.441551,34.219577,25.999248,51.226467,72.224464,89.488758,50.670238,84.440563,101.899899,114.714878,40.255543,77.973141,98.201534,112.404568,31.064564,65.118942,84.516712,98.688549,23.417633,49.283031,64.543018,77.227798,-13.41866,-9.945879,2.337241,12.519637,20.187742,36.733159,41.787962,44.61923,37.620377,53.272686,57.299048,58.527794,48.454499,65.030656,69.013088,69.147852,53.478364,69.389865,72.783544,72.402692,41.296446,301.073078,-83.836824,293.076961
100,-2.483276,-0.519951,0.695663,-0.147583,-17.645027,-40.706778,-57.520191,-70.706051,-64.938795,-62.816637,-42.814682,-25.800579,-64.2556,-60.429142,-37.662792,-14.878716,-59.823172,-58.539356,-36.564846,-16.329826,-52.830729,-60.711805,-56.46341,-50.12019,21.888409,37.175508,49.256334,59.308967,29.814507,44.103626,50.040163,54.349045,22.87397,37.277742,45.517031,49.923201,14.499515,28.614326,36.603285,41.44834,5.490316,17.500215,26.4324,34.001969,25.979943,51.220952,72.278687,89.331768,50.509724,84.269726,101.670193,114.484189,40.128777,77.846604,98.040173,112.283764,30.993233,64.993424,84.414723,98.718625,23.412106,49.200371,64.430157,77.14547,-13.339102,-9.873261,2.398164,12.749089,20.037416,36.608608,41.634227,44.489097,37.435594,53.268684,57.272606,58.433143,48.24845,65.038436,69.013631,69.115482,53.216764,69.202316,72.614792,72.193234,38.724724,300.383545,-83.229607,292.759796
101,-6.318787,3.161633,0.733944,-0.174815,-13.906288,-32.767095,-46.64542,-57.470867,-58.209119,-53.15304,-33.207985,-16.833858,-58.453411,-51.603538,-28.673984,-6.49411,-54.693678,-50.813255,-29.102543,-9.669182,-48.456911,-54.57181,-50.529499,-44.794212,16.542837,28.618964,38.913585,47.887118,25.7312,38.735132,43.626247,47.322231,21.934821,34.411819,41.413631,45.258143,16.205742,28.363311,35.153855,39.416727,9.418,20.11064,27.7381,34.163521,26.019642,51.243485,72.269051,89.262108,50.416375,84.142388,101.488472,114.213501,40.099766,77.747738,97.90242,112.151459,31.023217,64.970696,84.383744,98.738915,23.472393,49.167916,64.384552,77.206547,-13.248663,-9.76794,2.551378,12.92646,19.905714,36.484786,41.512566,44.375772,37.284824,53.154211,57.175793,58.336935,48.103237,64.900708,68.925883,69.088287,53.104403,69.171551,72.652064,72.321218,32.323511,303.409327,-82.578089,292.44913
102,0.667202,0.246255,0.59602,0.170406,-15.511116,-35.186222,-50.381767,-62.90229,-60.488445,-56.057087,-35.275623,-18.148452,-59.979435,-53.120212,-29.237892,-6.417755,-55.540008,-51.438194,-28.629341,-8.476799,-48.844436,-55.774235,-52.285274,-46.657779,19.986657,32.236506,41.239803,49.58174,27.876322,40.105682,44.880162,48.747517,22.019295,34.217089,41.022429,44.910457,14.1599,26.431214,33.248274,37.755832,5.434641,15.690286,23.556374,30.562946,25.915558,51.075531,72.17339,89.15704,50.399414,84.205044,101.553738,114.214314,40.23008,77.864308,98.045895,112.331417,31.221966,65.183006,84.625591,98.998753,23.672745,49.405804,64.621937,77.455479,-13.285848,-9.884203,2.42994,12.847988,19.749412,36.180036,41.133691,43.964811,37.098215,52.88057,56.885295,58.059417,47.908526,64.634107,68.643314,68.815487,52.951398,69.018522,72.491093,72.156023,32.921859,303.570064,-82.050923,292.534018
103,0.531853,1.360349,0.623165,0.191994,-14.946167,-35.173668,-50.814583,-63.911728,-59.593426,-56.605522,-36.523853,-19.504028,-58.841824,-53.439343,-29.736534,-6.858078,-54.356792,-50.544731,-27.787262,-7.645935,-47.607628,-52.035072,-44.570709,-35.589146,23.870783,36.671643,43.725232,50.721455,29.105217,40.744947,46.040515,50.392634,19.814596,32.725187,40.276682,44.670755,8.704573,21.614966,29.621389,34.996453,-3.305265,7.228454,15.67533,22.717125,26.01313,51.14867,72.219441,89.108986,50.542832,84.35447,101.665215,114.228813,40.399956,77.953743,98.103081,112.36615,31.384415,65.29826,84.700814,98.988419,23.784691,49.484322,64.649632,77.415367,-13.322206,-9.961119,2.415553,12.856016,19.577857,35.913163,40.823951,43.634422,36.931119,52.544846,56.564897,57.772352,47.756732,64.319279,68.347246,68.547293,52.873037,68.929602,72.383895,72.038636,33.391708,304.87942,-81.489762,292.675019
104,0.048614,-0.760012,0.642311,0.163417,-14.78659,-34.588119,-50.207004,-63.153591,-58.448089,-56.498256,-36.787204,-19.893676,-57.871307,-53.410606,-30.039985,-7.308998,-53.584442,-50.066963,-27.66616,-7.791526,-47.146213,-51.699943,-43.907867,-34.401844,24.134099,37.524071,44.748202,51.590432,29.377117,41.120316,46.638259,51.131639,19.898429,33.189525,41.001916,45.511277,8.704141,22.131311,30.236806,35.586281,-3.341907,7.911858,16.833286,24.127233,25.921234,50.962704,71.929093,88.85701,50.584122,84.397385,101.681305,114.189652,40.441349,77.880478,97.954056,112.125916,31.401318,65.208321,84.553322,98.711792,23.755234,49.346753,64.467007,77.184929,-13.414215,-10.005284,2.473054,12.907614,19.578165,35.844669,40.689507,43.460014,36.906591,52.371957,56.398812,57.637896,47.68578,64.085022,68.10301,68.286693,52.811953,68.859391,72.31193,71.964201,33.379749,304.092812,-80.908024,292.81184
105,-0.612808,0.121266,0.60965,0.325276,-14.349975,-33.243805,-47.71907,-59.823257,-57.588627,-55.079773,-35.064869,-18.199104,-57.02203,-51.886287,-28.523895,-5.951156,-52.798874,-48.866398,-26.474556,-6.377884,-46.374332,-50.111355,-42.763069,-33.636028,20.573521,32.686704,40.454782,47.788928,26.533473,38.786644,44.784573,49.657952,19.665814,33.274493,41.042918,45.659144,11.091844,24.604958,32.286425,37.503977,1.531361,13.029139,21.475336,28.648634,25.78545,50.844486,71.781338,88.74044,50.611198,84.529427,101.797783,114.24987,40.461021,77.966675,97.998344,112.023445,31.385651,65.27037,84.534737,98.518799,23.726418,49.341064,64.411434,77.024986,-13.615336,-10.291336,2.274428,12.760192,19.320358,35.443761,40.273718,43.080879,36.732344,51.978274,56.017788,57.297219,47.579075,63.737009,67.70824,67.875485,52.78566,68.782759,72.207943,71.862993,32.711746,304.195525,-80.353569,293.118563
106,6.973938,-2.578759,0.468544,0.283447,-20.168564,-44.713554,-63.895191,-80.774849,-68.409038,-68.5933,-46.833114,-28.135322,-65.872879,-62.968185,-38.043617,-13.712082,-59.881965,-57.459091,-33.145248,-11.355789,-51.806041,-57.090225,-48.376693,-37.628563,29.318157,44.960006,52.864626,60.477748,33.24468,45.904429,52.82581,58.519075,20.977393,35.943951,44.889845,50.14604,7.201765,22.57064,31.768154,37.795377,-6.991629,4.803886,14.452054,23.080624,25.605091,50.599697,71.483757,88.498878,50.644661,84.538605,101.791649,114.243553,40.487721,77.958412,97.967377,111.898338,31.379871,65.234058,84.486809,98.349175,23.701618,49.25647,64.328304,76.92881,-13.723436,-10.458445,2.157238,12.645928,19.232697,35.285074,40.111956,42.914906,36.657304,51.805051,55.815814,57.077277,47.488611,63.59586,67.506699,67.62479,52.718685,68.776312,72.219811,71.888347,39.627256,301.604793,-79.943453,293.390037
107,-0.13591,0.785132,0.420639,0.2564,-19.055031,-43.500423,-62.077308,-78.30225,-66.89249,-66.99551,-45.84835,-27.383949,-64.630783,-62.225052,-37.677521,-13.42012,-58.846824,-56.213859,-32.498222,-11.182205,-50.825031,-53.197277,-41.067077,-27.978241,29.45302,45.509708,53.051298,60.30476,32.640378,45.569173,52.818462,58.658285,19.531865,35.242528,44.768678,50.214891,5.003944,20.788189,30.717717,36.947815,-10.045409,2.347578,12.255888,20.43657,25.52647,50.498657,71.2691,88.306961,50.58902,84.487106,101.77906,114.227554,40.445938,77.948685,97.931557,111.720085,31.348137,65.262611,84.442131,98.123383,23.706242,49.267056,64.284679,76.78775,-13.767983,-10.561099,2.01809,12.458281,19.171885,35.138318,39.990666,42.820922,36.601272,51.6641,55.686064,56.976537,47.428478,63.445868,67.320991,67.432722,52.682586,68.747067,72.178525,71.85152,39.424661,302.376929,-79.589499,293.633441
108,-0.562088,-0.075027,0.317116,0.143458,-18.524666,-42.191311,-60.31747,-76.126167,-65.325828,-65.145183,-44.735538,-26.676315,-63.253624,-60.613346,-36.631668,-12.59539,-57.582619,-54.632515,-31.508789,-10.595627,-49.701278,-51.652942,-39.86737,-26.901787,29.330371,45.826142,53.641336,60.66274,32.622866,45.696021,53.03675,58.849526,19.46389,35.306749,44.974245,50.412752,4.772924,20.561356,30.754089,37.077985,-10.406797,1.92707,12.201029,20.530542,25.451912,50.412826,71.146042,88.278831,50.525024,84.375732,101.676452,114.138542,40.400368,77.855392,97.791023,111.448517,31.339371,65.245605,84.376053,97.952064,23.773098,49.332481,64.344097,76.815811,-13.736922,-10.534817,2.004431,12.388516,19.233945,35.113384,39.954691,42.784551,36.66558,51.706609,55.694772,56.986195,47.475088,63.48035,67.290931,67.383285,52.720724,68.80368,72.192494,71.845753,38.781338,302.285998,-79.353618,293.760995
109,-0.842949,-0.401847,0.117828,0.193959,-17.486297,-39.801487,-56.412117,-70.592411,-64.318874,-63.184169,-42.823162,-24.715553,-62.592521,-58.742454,-34.733459,-10.855934,-57.130726,-53.314613,-30.036026,-8.932411,-49.205177,-50.168575,-38.050689,-24.727546,27.883609,44.320012,52.940851,60.209826,32.507875,45.910641,53.046988,58.428746,20.230151,35.827342,45.238092,50.530967,6.509803,21.747878,31.510667,37.658378,-7.715467,4.099721,13.832685,21.905625,25.460221,50.415997,71.106297,88.265831,50.61081,84.273972,101.514427,113.921677,40.553078,77.846604,97.75042,111.339249,31.507794,65.321823,84.414231,97.893128,23.921871,49.520725,64.511776,76.931282,-13.832105,-10.565039,2.026278,12.337991,19.160881,34.991797,39.886814,42.775831,36.601062,51.625579,55.653546,56.991665,47.46065,63.404013,67.223276,67.350421,52.801443,68.804717,72.153701,71.805589,37.837457,301.873049,-79.336722,293.943852
110,-2.144485,2.998798,0.038006,-0.011795,-16.027909,-37.029637,-53.227204,-67.14568,-61.299076,-58.656967,-38.941097,-21.662865,-60.067669,-55.016808,-31.594689,-8.50248,-54.964142,-50.265564,-27.62732,-7.415749,-47.417473,-48.134422,-36.325607,-23.73111,24.374913,38.348648,45.533951,51.948769,28.989768,41.221808,47.595587,52.418467,18.900578,32.817515,41.625705,46.51824,7.194491,20.857115,29.932623,35.528556,-5.194519,5.699933,14.506048,21.552882,25.432091,50.402802,70.986694,88.061932,50.664871,84.162884,101.437786,113.877972,40.657597,77.731281,97.658375,111.302021,31.610745,65.267418,84.390621,97.895519,23.964077,49.531757,64.562954,77.085079,-13.791646,-10.409069,2.228523,12.492417,19.253285,35.063465,40.02947,42.934741,36.666073,51.732692,55.798969,57.134581,47.537357,63.530849,67.397722,67.528188,52.948941,68.970641,72.367074,72.048146,35.537619,304.864588,-79.454069,293.924798
111,-0.854187,-0.0268,-0.099197,-0.051759,-16.083069,-36.826252,-52.868695,-66.530308,-61.089924,-57.366863,-37.671936,-20.338165,-60.004681,-53.762387,-30.376671,-7.337425,-54.982247,-49.078045,-26.34327,-6.227211,-47.562058,-47.150173,-34.795326,-22.003281,23.904696,37.880617,45.43578,52.123251,29.023212,41.617036,47.63654,52.212888,19.423864,33.440479,41.922231,46.555216,8.085204,21.760586,30.34004,35.655009,-3.90212,7.434218,15.624064,22.145204,25.494484,50.499481,70.99649,87.967243,50.671383,84.097561,101.425678,113.880077,40.673401,77.632129,97.6012,111.303234,31.64067,65.196224,84.326717,97.836284,23.992481,49.55841,64.586025,77.097553,-13.776035,-10.205515,2.518145,12.803948,19.319308,35.168762,40.200383,43.169305,36.730553,51.858194,56.059272,57.538231,47.623573,63.661069,67.613675,67.81944,53.09277,69.14269,72.546656,72.217663,34.480557,304.839322,-79.756141,293.874573
112,-1.387482,-0.066999,-0.224041,-0.059774,-15.881973,-36.63834,-52.847671,-66.841267,-60.840099,-56.180981,-36.683887,-19.474823,-59.457561,-52.193333,-28.998596,-6.159393,-54.275539,-47.538872,-24.816078,-4.724968,-46.917114,-45.918159,-33.58802,-20.777687,23.568144,37.622537,45.449217,52.232141,29.714953,42.391324,48.166717,52.658182,20.149591,33.987908,42.076249,46.675555,8.758444,22.276597,30.634898,36.12903,-3.26451,8.069877,15.893704,22.415325,25.569568,50.61161,71.047393,87.869865,50.778305,84.087387,101.384102,113.813232,40.761028,77.500488,97.447815,111.156212,31.709209,65.068954,84.179969,97.687362,24.024604,49.484298,64.517532,77.07019,-13.803082,-10.059451,2.797096,13.189147,19.427865,35.327954,40.4059,43.410601,36.833799,52.042481,56.289996,57.781984,47.723064,63.818001,67.815747,68.043433,53.213454,69.294089,72.716297,72.392268,32.839868,304.796514,-80.233389,293.83899
113,-1.758591,0.496399,-0.282727,-0.115585,-15.916259,-36.447338,-52.512748,-66.207756,-61.258895,-55.292862,-35.569576,-18.222084,-59.567791,-51.023746,-27.614387,-4.91407,-54.056751,-46.314308,-23.214225,-3.095672,-46.383247,-44.410034,-31.659553,-18.786209,23.178783,36.838925,44.746102,51.78329,29.703677,42.108285,47.657622,52.037381,20.519501,33.663533,41.539082,46.326184,9.560236,22.441755,30.481609,36.062796,-2.013496,9.05534,16.395722,22.948194,25.523987,50.566727,70.964894,87.731038,50.797326,84.029904,101.326893,113.767857,40.738839,77.374844,97.335949,111.129673,31.628357,64.919026,84.027707,97.560299,23.870819,49.319916,64.371106,76.962033,-13.814382,-9.868469,3.070885,13.422539,19.58339,35.650687,40.853221,43.943965,36.949681,52.280134,56.615198,58.157539,47.820433,63.97665,68.031491,68.295202,53.310971,69.413255,72.865758,72.57442,30.781763,305.346021,-80.81563,293.776513
