takenoko1/special-research/HandMotion_SimilarSearch_自分用/NewProject/handData/key/d4_feature_d3/68.csv
,vel_0x_L,vel_0y_L,vel_0x_R,vel_0y_R,posFromWrist_1x_L,posFromWrist_2x_L,posFromWrist_3x_L,posFromWrist_4x_L,posFromWrist_5x_L,posFromWrist_6x_L,posFromWrist_7x_L,posFromWrist_8x_L,posFromWrist_9x_L,posFromWrist_10x_L,posFromWrist_11x_L,posFromWrist_12x_L,posFromWrist_13x_L,posFromWrist_14x_L,posFromWrist_15x_L,posFromWrist_16x_L,posFromWrist_17x_L,posFromWrist_18x_L,posFromWrist_19x_L,posFromWrist_20x_L,posFromWrist_1y_L,posFromWrist_2y_L,posFromWrist_3y_L,posFromWrist_4y_L,posFromWrist_5y_L,posFromWrist_6y_L,posFromWrist_7y_L,posFromWrist_8y_L,posFromWrist_9y_L,posFromWrist_10y_L,posFromWrist_11y_L,posFromWrist_12y_L,posFromWrist_13y_L,posFromWrist_14y_L,posFromWrist_15y_L,posFromWrist_16y_L,posFromWrist_17y_L,posFromWrist_18y_L,posFromWrist_19y_L,posFromWrist_20y_L,posFromWrist_1x_R,posFromWrist_2x_R,posFromWrist_3x_R,posFromWrist_4x_R,posFromWrist_5x_R,posFromWrist_6x_R,posFromWrist_7x_R,posFromWrist_8x_R,posFromWrist_9x_R,posFromWrist_10x_R,posFromWrist_11x_R,posFromWrist_12x_R,posFromWrist_13x_R,posFromWrist_14x_R,posFromWrist_15x_R,posFromWrist_16x_R,posFromWrist_17x_R,posFromWrist_18x_R,posFromWrist_19x_R,posFromWrist_20x_R,posFromWrist_1y_R,posFromWrist_2y_R,posFromWrist_3y_R,posFromWrist_4y_R,posFromWrist_5y_R,posFromWrist_6y_R,posFromWrist_7y_R,posFromWrist_8y_R,posFromWrist_9y_R,posFromWrist_10y_R,posFromWrist_11y_R,posFromWrist_12y_R,posFromWrist_13y_R,posFromWrist_14y_R,posFromWrist_15y_R,posFromWrist_16y_R,posFromWrist_17y_R,posFromWrist_18y_R,posFromWrist_19y_R,posFromWrist_20y_R,posFromBody_0x_L,posFromBody_0y_L,posFromBody_0x_R,posFromBody_0y_R
7,-0.794609,0.351162,-0.545162,0.171394,-27.630547,-51.429463,-65.021587,-73.426226,-71.472353,-73.534018,-54.86336,-38.427235,-69.483296,-69.002495,-47.548039,-26.318997,-64.401301,-65.6101,-46.710022,-28.095509,-56.226105,-59.297968,-48.917908,-37.100212,-0.291301,9.456687,27.286921,41.377574,25.022644,37.244736,41.698324,42.865704,34.882209,46.493596,50.187524,48.28119,41.395679,51.156524,51.792788,48.254625,44.801672,53.682202,51.90563,49.075294,25.529514,50.701698,70.681984,84.370376,44.035744,78.472641,96.938599,110.435898,33.535171,71.945045,93.556412,108.311623,25.535133,60.016216,80.678215,95.398361,20.184528,46.589218,62.632496,75.196609,-13.928719,-9.999726,3.138638,15.266764,17.979966,35.026896,40.038263,42.718639,35.388642,52.560889,56.336679,57.40301,46.74752,64.254033,67.985833,67.661371,52.385715,67.862777,70.906331,69.982409,43.110117,304.991907,-80.977438,304.198933
8,-0.363007,-0.43011,-0.32769,-0.216497,-30.043716,-54.990904,-69.549825,-79.713604,-73.923763,-76.757898,-57.321493,-40.813431,-71.012272,-70.911243,-49.104377,-28.012104,-65.186977,-66.570842,-47.204344,-28.424206,-56.271234,-59.454037,-48.534158,-36.389969,2.924154,14.206825,32.240094,46.729612,29.197182,39.847985,43.093297,43.387815,37.620271,47.310115,50.452692,47.637362,42.433364,50.650596,50.959528,46.924459,44.092517,52.221799,50.097751,47.157888,25.645466,50.91378,70.970752,84.647346,44.050689,78.53405,97.082451,110.633079,33.58382,72.040615,93.731437,108.571403,25.656955,60.228985,80.972648,95.766083,20.354084,46.877186,62.97147,75.588684,-13.718175,-9.802446,3.311415,15.517261,18.064169,35.226869,40.264109,42.941731,35.532089,52.882571,56.64884,57.658854,46.940786,64.534825,68.233403,67.836582,52.604484,68.078903,71.155506,70.232412,43.495165,304.687441,-80.557073,304.10808
9,-0.678326,0.158828,-0.397442,-0.156303,-30.955936,-56.292205,-71.351468,-82.384717,-74.517934,-77.671932,-57.685569,-41.079517,-71.405073,-71.612428,-49.471544,-28.364364,-65.487338,-67.094352,-47.32208,-28.44271,-56.50657,-59.585678,-48.095786,-35.70861,3.631548,15.229183,33.249318,47.743949,30.910299,40.44229,42.933734,42.758653,39.126265,47.255837,49.984742,46.688832,43.494508,50.363951,50.358511,46.111064,44.602323,51.937988,49.45814,46.458102,25.737648,51.071308,71.204533,85.008648,44.35611,78.907276,97.433659,110.893513,33.858055,72.339157,93.997753,108.817509,25.887016,60.510761,81.260158,96.080784,20.512997,47.121448,63.286514,75.98584,-13.692758,-9.774089,3.34607,15.570157,18.10017,35.367981,40.434751,43.13186,35.612303,52.910693,56.688324,57.703068,47.061027,64.570838,68.293968,67.920205,52.752179,68.219744,71.32821,70.466582,43.365554,304.923602,-80.4058,304.02911
10,-0.901325,0.669838,-0.067028,-0.073853,-30.023884,-54.915882,-69.861711,-80.642663,-73.621496,-76.448175,-55.734563,-38.739898,-71.210878,-71.368738,-48.550638,-27.023082,-65.843771,-67.437492,-46.973659,-27.708149,-57.368745,-60.10005,-47.869583,-35.0438,1.545736,12.004261,29.744531,44.016768,29.282761,38.580577,41.076435,41.052279,38.812468,46.255653,48.97309,45.749404,44.374383,50.567888,50.478041,46.351971,46.613657,53.414106,50.580065,47.497929,25.795212,51.057358,71.207554,85.031296,44.328014,79.061554,97.634949,111.04454,33.842857,72.344662,93.975677,108.689575,25.89394,60.628406,81.352684,96.067406,20.555523,47.292332,63.546409,76.283123,-13.485277,-9.666582,3.33693,15.574528,18.150459,35.350962,40.463637,43.229981,35.696209,52.952485,56.724521,57.723569,47.175857,64.664797,68.3263,67.882919,52.900392,68.42615,71.481474,70.56222,42.884285,305.632976,-80.052772,303.994793
11,-0.878208,0.4258,-0.14407,-0.051216,-28.683014,-52.832949,-67.388643,-77.522924,-72.536138,-75.058061,-53.752836,-36.445701,-70.910385,-70.967468,-47.651413,-25.86002,-66.084835,-67.637729,-46.596611,-26.97044,-58.074251,-60.664432,-47.886514,-34.610321,-0.48098,8.66249,25.884716,39.80694,27.665821,36.929401,39.625363,39.915046,38.343665,45.48431,48.36956,45.338227,44.99566,50.768441,50.820039,46.936902,48.357982,54.825356,51.808688,48.701555,25.791573,51.026962,71.192082,85.019497,44.291931,79.067517,97.605663,110.953114,33.910114,72.427059,94.0154,108.728268,26.044338,60.787789,81.442555,96.149403,20.781201,47.552788,63.819351,76.627831,-13.40967,-9.712784,3.27744,15.574936,18.130983,35.175715,40.296936,43.156956,35.718736,52.65759,56.412867,57.531031,47.248476,64.478471,68.176839,67.882376,53.056213,68.458755,71.504359,70.685388,42.320944,306.092618,-79.881975,303.977419
12,-0.93457,0.955538,0.138027,-0.013177,-25.650788,-48.609575,-62.561972,-71.889673,-69.495981,-71.178331,-50.642298,-33.598938,-68.425404,-68.259876,-45.294525,-23.443165,-64.049423,-65.398064,-44.840401,-25.326611,-56.604464,-59.237663,-47.191973,-34.441086,-0.015814,9.104647,25.428739,38.039285,25.607865,35.764863,39.449473,40.561931,35.57469,44.09169,47.887154,46.151776,42.091748,49.293014,50.267707,47.560593,45.535421,52.874488,50.894486,48.796515,25.789364,50.958321,71.035847,84.82338,44.443142,79.103142,97.483658,110.705887,34.059437,72.376694,93.803994,108.41652,26.08738,60.711056,81.187729,95.785126,20.670319,47.394928,63.588913,76.392495,-13.325418,-9.706869,3.326284,15.602661,18.05813,34.964651,40.072608,43.03811,35.655441,52.304068,56.15559,57.47674,47.188281,64.213179,68.068368,68.027946,53.042282,68.38905,71.456366,70.78504,41.664133,307.067296,-79.466189,303.983382
13,-0.228138,0.367285,0.026505,0.094848,-24.013058,-46.564024,-60.383228,-69.468698,-69.118286,-69.953533,-49.293297,-31.928673,-68.339607,-67.420109,-44.02779,-21.414425,-64.037567,-64.428343,-43.452547,-23.280384,-56.636084,-58.757858,-46.653254,-33.599739,1.341275,10.699951,26.362616,38.186122,24.754314,35.675301,40.252945,42.145039,33.729897,43.332234,48.223089,47.605097,39.701551,48.140584,50.150888,48.440852,42.887082,51.017172,49.886614,48.577907,25.630508,50.591686,70.650421,84.496261,44.294289,78.978401,97.322685,110.511383,34.08894,72.327106,93.706306,108.313293,26.197117,60.764763,81.183311,95.732231,20.802715,47.538368,63.716858,76.57299,-13.217206,-9.838619,3.050471,15.248116,18.109704,34.680118,39.708084,42.743191,35.598149,51.770558,55.608333,57.115253,47.059903,63.725067,67.67403,67.915018,52.91546,68.157388,71.23325,70.760711,41.693911,307.446264,-79.181768,304.089913
14,0.478294,-0.220967,0.155937,0.260748,-23.769825,-46.696294,-60.852413,-70.26,-71.403053,-71.383667,-49.705833,-31.434906,-70.652996,-68.448166,-43.851208,-19.7738,-66.049267,-64.728567,-42.43305,-20.83176,-58.169111,-59.225017,-46.270357,-32.086281,3.590286,13.4484,28.686345,40.247448,25.105167,36.660713,42.035777,44.664369,32.809284,43.205942,49.377364,49.698188,37.825066,47.311152,50.469581,49.577676,40.412964,49.253406,48.785073,48.045729,25.397919,50.289093,70.391293,84.201691,43.926865,78.669663,97.043358,110.196259,33.898888,72.23933,93.643662,108.219063,26.171299,60.93663,81.37635,95.877045,20.961491,47.876644,64.082554,76.980721,-13.226704,-10.113261,2.647215,14.814566,18.021919,34.275393,39.183279,42.230378,35.508907,51.272812,55.005538,56.565563,46.979886,63.300791,67.160983,67.477404,52.881237,67.947609,70.928721,70.535482,42.407615,307.227159,-78.790421,304.352523
15,0.092915,0.680248,-0.122932,0.106223,-22.820538,-45.586252,-59.387524,-68.458941,-71.401932,-69.438406,-47.612829,-29.168461,-70.895142,-67.018295,-42.163674,-17.403923,-66.236384,-63.226084,-40.692673,-18.734917,-58.264647,-58.27117,-45.189486,-30.949722,4.009479,13.994181,29.423405,40.867102,22.562094,36.098414,42.616708,45.898933,30.084702,42.679001,49.718863,50.948382,35.327405,46.94669,50.583085,50.246835,38.233163,48.263029,48.380293,48.18657,25.237529,50.120704,70.331657,84.192718,43.659267,78.372116,96.751739,109.90068,33.848133,72.357948,93.858078,108.56028,26.325645,61.294326,81.816169,96.405166,21.317104,48.418979,64.661476,77.652832,-13.279451,-10.326707,2.42295,14.653965,18.025031,34.04725,38.837143,41.880574,35.52306,50.841361,54.417377,56.016713,47.027841,62.972502,66.726531,67.112879,52.976962,67.874163,70.807246,70.517673,42.704853,307.913823,-78.70903,304.465162
16,0.706867,0.108767,-0.070164,0.09407,-23.0396,-46.35268,-60.512592,-70.179869,-72.778931,-69.863457,-47.896019,-29.155838,-71.935507,-66.882202,-41.664459,-16.043621,-66.860063,-62.443771,-39.493446,-16.975731,-58.478628,-57.520683,-44.12285,-29.572185,7.065662,18.097496,33.517334,44.820963,22.951461,37.597949,44.891241,48.679209,28.670291,42.611762,50.58374,52.634353,32.469522,45.653741,50.047511,50.398637,34.090594,45.148684,46.168394,46.736942,25.136021,49.952705,70.250107,84.136883,43.381393,78.197948,96.655643,109.800419,33.696178,72.430813,94.027325,108.720051,26.334412,61.549553,82.182026,96.776905,21.510246,48.783554,65.100883,78.1245,-13.326319,-10.462891,2.253334,14.550954,18.061526,33.960491,38.657425,41.652456,35.568843,50.746439,54.175254,55.680816,47.078811,62.92057,66.531018,66.83583,53.022103,67.872595,70.740939,70.445846,43.592382,308.019641,-78.598532,304.556283
17,1.400299,-1.23649,-0.233803,-0.051673,-25.709552,-50.429409,-65.597912,-76.558611,-77.29993,-74.982078,-51.653492,-31.995026,-75.852281,-70.188629,-43.832909,-17.124904,-70.081415,-64.678631,-40.185905,-16.457176,-60.829679,-59.014721,-44.02506,-27.920757,10.326046,21.857565,37.209267,49.18421,26.724881,40.883219,47.99042,51.790219,30.711216,43.85434,52.258991,54.059627,32.518008,45.104903,49.97966,50.338343,32.285135,43.207622,44.398898,44.969312,25.05304,49.854939,70.260075,84.283711,43.130264,78.052151,96.64127,109.822186,33.60315,72.594555,94.31242,109.065251,26.448956,61.876385,82.61491,97.259205,21.851532,49.230675,65.608051,78.695011,-13.329691,-10.522233,2.128228,14.436901,18.364462,34.125131,38.691512,41.541874,35.842385,50.854268,54.061387,55.408299,47.293406,62.992435,66.386843,66.534414,53.190076,67.971569,70.78183,70.46836,45.165544,306.772632,-78.659472,304.494091
18,0.728359,0.103346,-0.239765,-0.124698,-26.399505,-51.799455,-67.33604,-79.162811,-78.5293,-75.887724,-52.32633,-32.773647,-76.761091,-70.795086,-44.265289,-17.509037,-70.592388,-65.253324,-40.311058,-16.399955,-60.87181,-59.351732,-44.194954,-27.975048,12.058824,23.897817,39.452103,52.084749,26.452314,41.794556,49.364199,53.220271,29.584492,43.892717,52.660776,54.617177,30.662686,44.234148,49.431081,49.989138,29.791826,41.193971,42.892861,43.94846,25.127884,50.050369,70.502701,84.616127,43.304684,78.245499,96.827843,109.963898,33.719318,72.873196,94.580589,109.316437,26.55336,62.054478,82.801552,97.489769,21.991653,49.350128,65.687553,78.763847,-13.405842,-10.498386,2.256014,14.61279,18.529829,34.341701,38.806663,41.506539,36.058535,51.148101,54.233806,55.43684,47.465368,63.25601,66.535414,66.557064,53.294866,68.080854,70.881519,70.550117,46.04068,306.864829,-78.75246,304.358244
19,-0.515098,1.174023,-0.197777,-0.231441,-24.165436,-47.695685,-61.957798,-72.440197,-74.111241,-70.859236,-48.623194,-30.315067,-72.948916,-67.145737,-42.260948,-17.106732,-67.531243,-62.805125,-39.480927,-17.155609,-58.630669,-57.579271,-43.737557,-29.081463,9.823805,20.705457,35.909618,47.704312,23.855178,40.465255,47.771978,51.158796,27.771118,43.39086,51.321323,53.270895,29.778173,44.279004,48.655077,49.036552,29.625903,41.371084,43.124178,44.297548,25.284508,50.250378,70.705548,84.895592,43.614578,78.570213,97.11248,110.218964,33.926743,73.118248,94.767288,109.498375,26.649307,62.102211,82.783837,97.449715,21.971592,49.262615,65.522141,78.501549,-13.377029,-10.299771,2.485084,14.828534,18.809941,34.66284,39.085578,41.716775,36.284851,51.50876,54.585277,55.766439,47.567923,63.49086,66.790505,66.826061,53.266202,68.06722,70.905713,70.607039,45.6593,308.032603,-78.816519,304.120554
20,-4.782166,5.208808,0.004875,-0.386743,-21.037491,-41.762003,-55.301319,-65.983028,-61.894237,-58.565683,-40.171251,-25.48225,-60.571386,-55.894191,-36.906486,-17.315311,-56.373802,-53.301962,-35.806617,-18.704361,-49.256172,-50.190015,-40.658031,-29.947036,6.247962,13.736429,25.044078,33.677335,20.240173,33.722925,38.82065,40.991146,24.773592,37.48757,43.471105,44.52406,27.112729,39.252569,42.589123,42.658982,27.26516,37.531221,38.719707,39.370667,25.398983,50.227364,70.565998,85.0047,43.85059,78.736611,97.253151,110.568077,34.100876,73.186055,94.769623,109.629799,26.771851,61.936673,82.528977,97.264458,22.011841,48.990246,65.125637,77.978611,-13.335989,-10.08441,2.615785,14.61762,18.957093,34.650058,39.038722,41.630127,36.373784,51.730827,54.766379,55.824151,47.570962,63.638863,66.949772,66.902175,53.177294,67.934864,70.788104,70.415391,40.986671,313.211045,-78.702107,303.703445
21,2.067318,-2.490505,0.427666,-1.172467,-20.805267,-41.954235,-56.663967,-69.004131,-61.799103,-61.9067,-44.036316,-29.479934,-60.441124,-59.18771,-40.763786,-21.677467,-56.438644,-56.477875,-39.458736,-22.482513,-49.492195,-52.848552,-43.941341,-33.283573,11.479587,20.240019,30.23646,38.230693,23.933076,36.873641,41.692742,43.350666,25.454285,38.116565,44.60168,45.677496,24.837991,37.017964,41.719455,42.512935,22.357119,32.682875,35.834789,37.932833,25.195965,49.725208,69.87822,85.029259,43.874783,78.715897,97.161232,110.703461,34.133526,73.086903,94.530945,109.403183,26.842678,61.725174,82.189499,96.961144,22.144604,48.837215,64.767769,77.505581,-13.543434,-9.955624,2.712411,14.023469,18.975494,35.009396,39.818679,42.839817,36.287963,52.068194,55.135127,56.080859,47.341929,63.759832,67.006619,66.769448,52.764405,67.583825,70.472089,70.008924,43.146847,310.661568,-78.181583,302.472006
22,1.491623,-2.743522,-0.028782,-2.868974,-19.425316,-40.345836,-55.571709,-68.021873,-57.885635,-62.415893,-46.97287,-33.73518,-57.019626,-61.173534,-45.325527,-27.897652,-53.875202,-59.186405,-45.028301,-29.471351,-47.975738,-55.637466,-49.99934,-41.203617,13.822719,23.677245,32.93357,40.222379,25.839337,37.601802,41.868015,42.477924,25.376789,37.339104,43.240195,43.592852,22.610902,34.065813,38.914492,39.475977,17.842164,26.415777,30.086419,32.346385,25.263405,49.653282,69.718311,85.634663,44.601311,79.008763,97.284725,110.933315,34.937748,73.020012,93.955136,108.412617,27.587574,61.425293,81.435024,95.8102,22.641667,48.482804,63.769009,75.752335,-14.286538,-10.524221,1.660395,12.249615,18.015658,35.170231,41.085649,45.154186,35.111062,52.133687,56.022753,57.470158,46.130226,63.37693,66.997209,66.983611,51.641833,66.723828,69.71004,69.254248,44.673483,307.857469,-78.175352,299.542455
23,5.139267,-9.747469,0.052883,-6.112759,-20.011734,-40.951584,-56.421827,-67.851803,-56.214466,-66.480348,-54.859794,-43.382343,-54.611921,-65.178394,-53.667658,-39.129324,-51.2362,-62.356241,-52.838951,-40.230835,-45.439201,-56.843828,-54.940052,-48.925896,12.562498,22.827732,31.700198,38.604024,27.992036,38.261661,41.251418,40.612511,27.886931,39.098156,43.560748,42.595749,24.951168,35.860521,40.217994,40.133711,19.5331,27.795343,32.156805,34.538315,24.921616,49.003865,68.490738,84.548104,45.773495,78.905022,96.170334,108.888771,36.51915,72.516529,92.257439,105.60553,28.7864,60.784184,79.612782,92.647362,22.72934,47.310231,61.822495,72.595013,-14.544421,-10.969973,-0.586407,8.29944,17.358522,35.857439,43.465917,48.767449,33.632794,52.120521,57.590694,59.883734,44.295768,62.606519,67.178742,67.595014,49.959825,65.513667,68.830269,68.207455,49.778017,298.04627,-78.157202,293.365966
24,9.358429,-16.482259,0.782044,-8.37758,-23.508545,-46.538612,-62.983503,-74.046192,-59.141396,-75.821222,-68.98843,-59.598061,-54.931028,-72.758125,-66.490831,-55.461771,-49.383379,-67.350111,-63.278664,-54.409424,-41.856937,-57.420084,-59.658451,-57.104004,10.139115,21.204276,30.872569,39.1939,28.669759,38.719923,41.083555,39.565001,30.503715,42.72976,46.03111,43.722299,28.984173,41.164559,45.37666,44.800609,24.414692,34.558223,40.572052,43.885462,24.894504,48.543171,67.060547,82.80693,46.304695,77.013714,92.732094,103.672302,37.924438,71.174423,88.9384,99.989502,30.232006,60.033657,77.266685,88.527031,23.367588,46.319481,60.117084,69.960171,-7.504157,-1.880053,7.469478,15.448965,19.40109,36.572855,45.162226,51.113175,30.877404,48.559721,55.038389,57.68705,38.072575,55.502369,60.766481,61.763095,41.33743,55.29327,58.858072,58.870978,59.035623,281.479284,-77.475981,284.903659
25,15.055344,-23.294997,-1.942223,-15.834436,-28.151047,-54.798294,-72.608214,-82.519524,-68.638779,-93.822848,-87.605244,-76.887909,-62.9559,-89.203446,-82.295237,-68.91691,-55.477084,-80.403769,-75.540299,-64.578164,-45.993611,-65.174074,-66.696396,-62.248799,11.242385,25.77372,39.61166,52.249839,29.894887,44.007153,47.636497,46.564942,32.311088,49.531345,53.298083,50.722708,31.655546,48.381219,52.443118,51.226591,27.592875,40.504355,46.417198,49.400774,23.576294,46.468346,64.05296,79.315258,52.050762,82.143528,97.876694,108.249848,45.011399,77.942414,95.67199,106.185311,37.034512,66.461403,83.289459,93.617569,28.643349,51.085968,64.050408,72.307251,-9.538277,-7.273902,-2.834838,-0.043843,17.021711,31.921888,39.466924,44.670038,28.045432,44.12519,50.223438,52.742311,35.086757,51.052709,55.496689,56.27604,38.586042,51.673807,54.34639,53.733159,73.932267,258.245166,-79.576904,269.130102
26,12.379715,-22.886852,-2.61264,-21.663428,-28.674019,-55.006394,-73.00466,-81.521908,-66.224831,-93.098746,-91.555264,-84.140213,-59.490126,-88.245621,-87.103861,-78.476984,-50.457968,-77.486647,-78.340245,-72.574036,-39.347328,-58.770968,-63.854096,-63.385723,-0.846753,8.93584,21.149979,32.667969,17.81873,30.982028,34.562959,33.647559,25.482925,42.562552,45.763125,43.455451,30.135152,46.936445,50.342036,48.789933,30.844146,44.861143,50.383106,52.418826,21.029068,42.81673,59.502308,73.463013,52.245621,77.617996,90.307422,98.020729,47.569919,75.689335,88.439873,94.751575,40.991615,66.587631,79.035667,85.374607,33.154426,53.344173,64.077209,69.793224,-11.829156,-14.088159,-15.082637,-17.752836,11.057498,23.65993,30.410275,35.105073,22.016245,35.854908,41.19927,43.83274,29.669283,43.40623,47.051814,48.102608,34.381271,45.954212,48.434788,48.547643,86.076828,235.663877,-82.424698,247.772237
27,15.322563,-27.074406,-1.695786,-26.037518,-28.155487,-54.845055,-73.117395,-81.178997,-61.683151,-87.999121,-88.313072,-82.998287,-53.644335,-82.391819,-83.032225,-77.621904,-43.67486,-70.112429,-72.428639,-69.812691,-31.886627,-50.4289,-55.621422,-56.52689,-13.018401,-10.230697,-2.441099,4.588327,1.548521,16.320417,19.272025,17.716656,14.711282,33.940552,35.39465,32.471262,25.398623,44.013588,45.686128,43.546273,32.352337,48.900089,53.911919,56.020393,20.72889,40.599175,55.50634,67.516526,46.065148,63.714993,73.826912,80.279286,41.533058,60.73938,71.953286,78.902813,35.848595,55.172859,66.317471,72.624676,29.692749,45.350441,54.327633,58.891423,-7.724902,-11.827377,-16.073965,-22.302149,5.861102,14.923519,19.263301,21.120296,12.266016,22.649915,25.416816,25.706339,16.382175,25.552951,26.511391,25.972328,18.938691,24.995369,24.951082,23.876618,100.872728,209.020279,-84.647147,222.165527
28,11.592155,-23.712659,-3.390392,-27.455517,-26.794121,-52.266254,-69.607372,-77.180111,-55.947692,-80.324752,-81.463428,-77.734337,-48.011146,-74.855964,-76.216541,-72.87387,-38.315929,-62.329502,-64.826477,-63.846119,-26.772834,-43.508926,-48.203876,-49.392437,-19.646177,-23.555,-21.440197,-19.647378,-15.481526,-3.704821,-2.582714,-5.369445,-1.281475,14.301528,13.690184,9.811171,11.591982,26.567362,26.201577,23.111994,21.723579,35.858517,38.834526,39.606001,17.299725,35.010761,48.589039,59.748138,37.664257,49.510586,57.802219,63.153419,36.003628,50.109489,60.668827,67.792019,33.69841,50.678581,60.992523,66.743282,31.400585,46.275021,55.101734,59.630722,-9.708505,-18.959297,-26.979459,-36.584736,-5.927811,-5.055037,-6.152762,-8.980634,0.699817,3.77182,1.665828,-1.897022,6.372062,11.20823,11.410389,10.280474,11.251369,15.000805,15.196578,14.772298,112.042659,186.086947,-88.459763,195.489337
29,7.861748,-20.35091,-4.960499,-27.128895,-24.58992,-47.269993,-62.47459,-69.525249,-49.018455,-70.075642,-71.006332,-68.348362,-42.590561,-65.638058,-66.656811,-64.232883,-34.381176,-54.137867,-55.53376,-54.67432,-24.005951,-38.011047,-41.60146,-41.982365,-20.730083,-31.037069,-35.847315,-40.039149,-33.271412,-29.093688,-31.00126,-35.610747,-22.495348,-16.35452,-19.350276,-24.524825,-11.284774,-5.402235,-8.111621,-12.512906,-1.042131,5.736425,5.150923,3.175648,16.916439,34.115559,47.822525,58.339268,35.555329,44.468411,51.552075,56.724117,32.972386,43.534664,53.515778,61.782406,29.91116,43.346134,52.3858,58.154652,27.246323,39.270653,46.33057,50.154099,-14.755539,-27.794058,-37.958967,-49.19593,-17.811382,-20.851447,-23.599662,-26.918512,-11.083705,-14.418042,-21.607445,-28.251703,-4.754146,-6.535398,-10.990864,-14.80171,1.357823,0.208531,-2.996902,-6.103646,119.643854,167.176897,-93.680815,169.801302
30,4.253494,-24.484952,-1.565746,-24.100513,-22.665916,-42.743374,-56.474087,-63.859233,-43.143219,-58.786502,-60.741256,-60.236881,-37.6707,-53.569141,-55.030597,-55.087703,-30.422481,-43.82349,-45.542198,-46.518596,-21.031997,-30.992363,-34.625965,-36.349262,-23.498484,-40.657055,-53.153325,-64.158941,-45.563073,-51.725128,-58.007346,-65.868689,-36.885201,-43.126436,-50.400137,-58.564425,-26.481532,-31.878595,-36.585959,-42.005237,-15.520096,-15.756554,-17.239931,-19.494578,14.461738,30.187408,43.483017,53.51263,23.353763,26.478641,30.426338,33.210102,22.803131,28.229381,36.287453,43.447632,23.269009,33.913582,39.829731,42.892513,25.213714,36.835201,42.977703,46.050213,-17.545478,-33.382767,-44.50874,-54.855485,-31.834542,-41.418706,-47.648631,-53.617716,-25.621716,-35.522326,-45.692131,-54.185511,-18.125568,-23.920807,-27.773779,-30.810072,-9.872038,-13.181755,-15.715554,-17.686281,123.683675,144.606766,-95.460234,147.61561
31,-0.020347,-18.398739,-0.871868,-19.718599,-18.505257,-36.716091,-49.235493,-56.508763,-36.148796,-49.684216,-52.657723,-54.262013,-32.987137,-45.232395,-45.864109,-46.468312,-29.132389,-39.296872,-39.232453,-39.174465,-23.477898,-31.727646,-33.901875,-34.326519,-26.349679,-47.013513,-62.671837,-76.728058,-53.715961,-65.802042,-76.366571,-87.490738,-46.037662,-60.550123,-73.024228,-84.862153,-36.234231,-49.797873,-59.243846,-67.073415,-25.0598,-32.669411,-37.992442,-41.984245,12.394878,26.815601,39.942798,50.138557,17.215221,18.691967,22.815559,26.280578,18.2765,22.653991,33.676426,44.105438,20.902279,31.283455,37.313759,40.396305,25.156025,37.718662,43.982631,46.94577,-18.654398,-34.767908,-44.955374,-52.706662,-42.071327,-58.514653,-69.338592,-79.009973,-37.539903,-53.959103,-67.615089,-79.292265,-30.266322,-40.193472,-43.013898,-45.09903,-21.093255,-26.560556,-28.660299,-30.23586,123.419134,128.20059,-96.576296,129.889574
32,-4.657494,-18.013207,-0.500302,-15.715584,-15.677215,-32.530529,-45.375011,-54.187031,-32.979378,-45.709774,-50.857933,-54.306026,-32.918037,-43.691013,-46.544666,-48.604717,-31.903164,-40.602756,-40.340355,-39.917026,-28.623825,-34.293525,-35.234905,-35.17844,-27.748122,-50.13373,-64.991225,-76.434904,-58.715416,-80.14405,-94.421971,-107.498822,-51.528137,-76.225502,-91.950445,-104.97236,-41.509322,-63.192618,-72.559889,-79.089125,-30.2393,-45.139258,-51.191258,-54.785314,8.334629,21.982521,35.494744,46.371678,16.728024,20.282788,25.041882,28.916943,21.481911,28.806576,39.594612,49.041916,26.949166,39.354996,43.328419,43.497368,32.851742,48.893223,55.703934,58.207226,-26.119239,-45.51211,-57.008524,-64.62574,-52.266809,-74.464859,-88.713582,-100.393752,-44.694942,-67.009466,-83.025486,-96.004551,-33.614529,-46.825572,-48.878341,-49.791618,-20.416008,-24.898298,-24.794205,-24.375346,118.689039,112.139826,-97.149199,116.126433
33,-5.602524,-15.604057,3.046154,-16.474133,-12.157928,-27.847549,-41.01313,-50.826622,-29.175819,-42.488891,-49.007194,-53.310539,-32.318824,-43.073478,-46.243354,-47.944313,-34.427215,-42.545654,-41.527404,-39.902183,-34.203117,-38.851638,-38.130523,-36.589164,-30.014541,-53.914458,-69.195592,-80.13811,-61.170693,-86.366831,-101.192926,-113.790053,-53.210318,-81.624066,-96.711748,-108.071453,-42.184609,-66.501693,-75.034087,-79.990737,-29.954261,-47.240282,-52.773366,-55.395585,8.318413,22.356732,36.829125,48.01204,17.78341,23.339882,29.259659,33.627812,22.57972,31.55333,42.264611,50.956089,28.571057,41.095597,43.805397,42.810482,35.207634,51.625294,56.888466,57.803605,-28.198246,-48.572837,-60.314938,-66.904781,-56.230586,-81.218656,-95.646801,-105.997664,-49.02816,-73.778954,-87.986304,-97.739219,-37.970341,-53.281665,-55.771583,-55.816902,-24.615969,-30.408985,-30.816185,-30.258283,112.787944,98.187055,-94.401616,101.303586
34,-7.024131,-16.359173,4.226727,-13.75651,-8.72342,-24.64872,-39.25177,-50.636925,-26.791306,-42.003594,-50.479203,-56.499642,-32.02018,-43.486199,-45.540757,-45.991105,-36.215058,-44.372544,-41.880364,-38.696457,-38.201569,-42.88797,-40.367913,-36.969841,-33.306245,-58.101067,-72.386247,-81.531452,-60.508444,-87.160589,-101.631032,-113.315958,-50.048746,-78.516322,-90.509721,-98.641219,-36.645621,-59.794035,-65.469861,-67.536746,-22.45374,-38.854946,-42.466203,-42.78586,3.552109,15.683086,29.70322,41.49337,12.247616,17.990089,25.352371,30.970585,20.863003,29.780296,41.294861,50.355755,31.342335,44.790607,46.701393,44.043022,42.641315,61.526745,67.02166,66.925278,-33.811055,-57.945809,-71.811388,-79.814581,-62.881562,-91.762335,-109.697446,-122.582244,-52.586787,-79.562868,-92.570704,-101.021186,-38.208642,-52.882825,-51.820131,-48.983731,-21.628965,-24.630467,-21.543336,-17.799878,105.173407,82.832614,-90.765295,88.551808
35,-4.53344,-9.199465,2.356098,-10.097409,-5.427979,-21.462593,-37.470154,-50.356979,-25.92556,-44.403008,-54.59729,-61.808006,-33.741119,-47.709343,-48.901268,-48.312561,-39.902504,-49.104309,-44.632828,-39.380859,-43.267342,-47.400856,-42.596123,-37.095291,-34.492638,-58.648466,-71.013196,-78.014211,-61.717752,-87.957614,-101.744869,-112.422003,-50.068728,-76.511508,-85.394231,-90.363676,-35.561939,-56.123288,-59.720417,-59.6971,-20.822369,-36.10525,-38.329049,-37.036983,2.854832,14.754696,28.832211,40.76833,12.073597,19.035828,28.291935,36.353611,20.167236,27.850697,39.648125,49.794617,30.267872,42.252846,45.002472,43.516846,41.394539,59.886223,65.363548,65.638458,-33.287616,-57.224193,-71.039619,-79.700287,-63.060237,-91.298997,-108.229033,-119.307193,-53.015106,-81.153342,-94.154262,-102.333394,-38.949542,-55.796079,-56.256787,-54.000457,-22.502289,-26.451549,-23.404771,-19.542406,99.862204,74.061255,-89.18696,78.882505
36,-4.137177,-7.684166,0.221008,-8.388954,-4.693451,-20.181335,-36.052391,-48.522216,-24.123916,-45.284294,-56.937652,-64.787384,-32.944542,-49.482559,-50.197013,-48.314827,-39.738945,-50.052475,-44.639579,-38.126243,-43.523323,-47.898079,-41.883545,-35.247596,-33.338399,-57.372128,-69.134618,-75.77913,-62.86965,-89.728943,-103.153581,-113.254189,-50.879566,-76.32354,-82.47238,-84.682786,-35.516861,-54.229057,-54.438891,-51.7377,-20.070372,-33.993676,-34.067943,-30.840385,2.572621,13.943711,27.32816,38.074047,11.051743,19.275227,30.502568,40.604966,18.210446,25.527752,38.013325,49.145302,27.573841,39.368615,43.59105,43.794743,38.590657,57.09129,62.776772,63.703972,-33.598535,-59.337583,-75.033735,-85.799456,-63.82254,-91.498475,-107.186439,-116.46849,-53.255686,-82.030976,-94.039616,-100.529047,-38.759468,-57.002015,-59.148725,-57.70936,-22.13685,-26.741813,-24.018484,-20.37621,94.652046,66.516154,-90.038933,70.632616
37,-2.429992,-2.76175,-2.904762,-5.987653,-8.473435,-22.626206,-34.00589,-41.357735,-24.771172,-44.151924,-55.997956,-64.704186,-29.632096,-44.264397,-46.146172,-45.663803,-33.092331,-42.271134,-39.882202,-35.653221,-34.567932,-39.89914,-36.772911,-32.063988,-29.123686,-51.166694,-63.221739,-70.278675,-63.794801,-89.147841,-101.480429,-110.827157,-53.768319,-77.745195,-82.49072,-83.953143,-39.687039,-57.643719,-58.883816,-57.191274,-24.247083,-36.133747,-36.584643,-33.983203,4.677647,16.719624,30.056317,39.65229,11.268116,18.887226,31.167217,42.163765,15.713562,22.855442,36.516678,48.42881,22.612759,34.212822,40.606087,43.070824,31.962341,49.436657,55.682087,57.627251,-32.737364,-58.801478,-74.466175,-85.408681,-65.414552,-92.620536,-106.398294,-113.037118,-54.818614,-84.022477,-95.195059,-99.850849,-40.252803,-58.831131,-62.025319,-60.676295,-23.58449,-28.699783,-27.175134,-24.380533,90.729681,63.720034,-94.436068,64.610593
38,2.612915,-3.263546,-10.389479,-1.868503,-8.402779,-22.149307,-33.80999,-40.449303,-22.45594,-41.472542,-53.942551,-63.474884,-26.051972,-40.630875,-44.314911,-45.653,-28.862915,-39.344994,-38.473801,-35.324639,-30.382141,-37.375832,-35.276001,-31.348435,-28.520459,-49.859006,-60.856217,-67.035105,-64.434511,-89.150725,-101.681075,-111.33314,-55.039124,-79.181658,-85.251044,-88.31305,-41.421337,-59.203127,-59.326066,-57.169297,-26.230037,-36.714986,-36.278342,-33.095745,5.560627,16.197218,27.673457,35.179453,9.345257,17.280596,30.378869,42.347672,12.194001,19.535351,33.766646,46.62204,17.52031,29.232708,36.735936,40.29356,25.644705,42.688826,49.63202,52.367117,-32.975869,-58.846806,-74.798027,-86.861137,-67.208559,-91.911045,-103.650481,-108.907368,-56.537723,-85.252511,-97.076452,-102.490879,-42.142054,-62.14467,-66.672926,-65.884531,-25.734487,-32.174212,-31.630299,-29.135249,91.467728,60.412484,-106.700415,62.698086
39,6.555885,-0.765742,-16.325546,-3.799923,-7.521034,-20.217659,-32.024208,-38.045723,-18.67099,-35.548874,-46.681274,-55.949043,-21.543365,-34.411995,-39.384979,-42.443504,-23.965965,-34.201904,-34.781479,-33.128105,-25.72966,-32.751778,-31.594437,-28.929291,-27.422432,-48.155793,-59.558211,-66.962764,-63.22474,-86.949638,-99.870794,-110.187442,-54.36003,-77.562698,-86.144079,-91.399162,-41.494906,-58.90801,-60.670231,-59.960539,-27.166316,-37.147375,-36.96886,-34.233194,7.114552,15.719004,24.393522,29.003763,5.961914,16.247458,29.986656,41.293385,7.329575,17.425976,31.810576,43.841927,11.60281,25.743508,34.246617,38.339699,19.402903,37.244024,44.184574,46.81671,-35.272181,-62.723867,-80.548651,-94.631994,-69.350446,-91.511785,-100.100968,-103.35695,-57.086561,-83.405043,-93.388501,-97.18043,-41.438759,-60.808613,-65.546135,-65.012417,-24.301328,-31.210362,-31.479795,-29.480144,96.414774,59.793989,-124.6348,59.04541
40,13.032211,-2.426591,-18.554077,-2.13972,-7.488178,-18.49118,-29.181667,-34.417385,-12.451034,-27.754577,-38.048435,-46.343353,-13.556694,-26.653255,-33.322105,-37.065548,-15.587448,-27.019008,-30.083381,-29.965267,-18.094654,-27.138084,-28.777313,-28.317375,-26.873878,-48.304673,-61.425861,-70.439856,-62.567922,-85.53286,-96.480505,-104.936183,-55.173832,-78.155292,-85.852425,-90.20443,-44.224052,-62.812525,-63.763382,-62.3942,-31.682358,-43.003033,-43.342429,-41.321344,9.743488,17.456182,24.569784,26.793531,3.401047,12.582247,27.292866,38.522976,3.162632,13.583885,29.036402,40.421219,5.951305,19.523334,29.931381,35.069927,12.526995,26.942625,33.162918,34.792299,-34.950813,-62.886048,-81.390982,-95.439819,-69.672875,-91.180457,-98.224676,-99.971027,-57.502425,-83.04899,-91.892727,-93.599647,-42.520793,-62.213243,-68.139801,-67.919991,-26.202586,-35.402085,-37.878521,-37.489122,107.84563,57.522744,-144.790232,57.061036
41,18.525216,-2.677374,-24.401836,-4.080485,-8.000439,-16.69764,-25.73853,-31.124875,-3.320893,-18.006752,-27.685742,-34.124382,-2.407815,-17.4016,-26.443818,-30.819249,-4.265053,-18.347935,-24.995041,-26.610592,-7.929394,-19.798073,-25.634377,-28.277848,-26.607857,-49.300881,-64.644404,-74.451212,-63.337024,-85.50075,-92.856213,-97.584951,-58.434989,-81.563328,-86.933323,-89.168339,-50.391998,-71.136524,-70.896988,-68.48105,-40.58539,-54.569027,-56.38093,-55.925298,9.831264,15.388864,20.873823,22.467218,-2.749169,7.949827,22.302074,31.740326,-3.548481,9.029983,23.598043,32.730228,-1.15741,12.990383,23.709377,28.491542,5.11334,17.716982,23.825935,24.945608,-37.196009,-65.069716,-83.914883,-97.538327,-69.287331,-89.312613,-93.696864,-93.768686,-56.472404,-80.013069,-86.939208,-86.887761,-41.895663,-60.758299,-66.225446,-65.964467,-26.551773,-36.583241,-40.044578,-40.357164,124.599513,55.037448,-170.963401,53.172629
42,24.902137,-2.945566,-27.362784,-4.407371,-3.949436,-9.977291,-20.58427,-29.114387,8.684487,-8.580402,-19.343044,-23.969936,7.058853,-12.342704,-21.478901,-23.01099,1.506272,-16.341224,-23.367622,-23.192768,-6.384109,-20.109295,-26.63229,-29.140113,-30.462343,-56.129167,-74.034217,-85.310389,-63.614277,-85.956663,-89.479271,-90.434231,-58.237196,-82.226549,-83.564226,-82.313416,-51.176407,-74.264324,-71.30995,-66.673852,-43.294535,-60.641819,-63.200447,-63.432956,7.389279,10.027891,13.721026,15.279139,-11.357322,2.163786,16.683209,24.567707,-11.40319,4.020424,18.013693,25.050093,-7.739942,8.18022,18.710987,22.293005,-0.183958,12.29052,18.275568,18.70915,-39.097128,-67.428986,-87.694385,-102.057781,-67.338435,-87.323512,-89.431204,-87.896139,-54.517315,-77.38415,-81.586797,-79.270643,-40.858435,-60.046814,-63.54913,-62.008794,-27.162537,-39.030132,-42.419452,-42.400482,148.03751,52.352249,-199.790325,49.025625
43,27.372918,-2.012526,-27.067812,-3.351704,-3.82195,-7.338261,-16.785245,-25.650056,18.315238,0.70428,-11.205311,-14.267659,16.888389,-4.620026,-14.213276,-13.190129,10.395309,-8.99984,-17.732415,-16.916943,0.786644,-13.110776,-21.797803,-25.190278,-31.368641,-58.411752,-78.369659,-89.45123,-63.421628,-88.061895,-87.636737,-85.128087,-57.524905,-83.891803,-80.914084,-75.71407,-51.191196,-77.998594,-74.116895,-68.072234,-44.622101,-66.822035,-71.361543,-72.545415,6.043568,7.419342,10.832142,13.760662,-18.790901,-4.736698,10.189522,17.410332,-19.125686,-2.634876,11.702694,17.630968,-14.93078,1.403464,12.999047,16.607306,-6.82251,4.886862,11.997568,13.082222,-38.485448,-65.89522,-86.21487,-100.392168,-64.215548,-85.659632,-85.892486,-82.457212,-53.305744,-77.212987,-79.084639,-74.58823,-42.239863,-63.48399,-65.597102,-62.47728,-31.385966,-46.852983,-50.932694,-50.735513,174.700024,50.234837,-227.568541,45.569035
44,29.432842,-0.581118,-22.0555,-2.039685,-1.467087,-1.71674,-9.595253,-18.852642,29.140674,10.568973,-2.810234,-4.130814,26.687977,2.29097,-8.498383,-5.654263,18.162472,-3.584313,-13.5191,-11.637463,6.065037,-9.219727,-19.089798,-22.306297,-31.993175,-59.911784,-81.118052,-91.075688,-63.267496,-89.697123,-85.073224,-78.40757,-57.525899,-86.912297,-80.101631,-71.268123,-52.398204,-82.807126,-76.299417,-67.559369,-47.402243,-73.398027,-77.803784,-78.316698,2.739395,2.516648,5.079712,7.882919,-23.735882,-16.116474,-2.97179,4.77055,-23.5662,-13.262615,-0.142376,6.273211,-19.22386,-8.978182,2.418972,7.413706,-11.096649,-3.999704,2.48905,4.070744,-36.348049,-61.160081,-79.494856,-92.346527,-59.443079,-80.929741,-83.452782,-81.128064,-50.530216,-74.555255,-78.910922,-75.550431,-42.031455,-64.258093,-69.237979,-67.646603,-34.027641,-51.888068,-58.43309,-60.085963,203.574641,49.186568,-250.182266,43.062199
45,27.470306,0.292212,-20.773876,-1.17771,3.774021,7.460507,1.695889,-7.162697,37.782131,20.266308,6.184834,5.922249,33.128506,8.928257,-2.339744,1.53225,22.510838,0.777249,-9.099071,-6.287796,8.441735,-6.929901,-16.038322,-17.895378,-31.503803,-58.994061,-80.317041,-88.966615,-60.369947,-89.351246,-82.880004,-73.987626,-54.087784,-86.640286,-78.156566,-67.357534,-49.415924,-82.428386,-74.66245,-64.400918,-45.334981,-73.240684,-75.776209,-74.391878,-2.141842,-5.688915,-4.911827,-2.353558,-31.128021,-26.592636,-16.860535,-10.741184,-29.861023,-23.090572,-13.596691,-8.504339,-24.210531,-17.111898,-8.673305,-4.807543,-14.532108,-8.181501,-1.981596,0.312126,-36.207956,-59.052632,-75.997621,-88.527542,-55.687216,-76.009042,-80.339147,-80.572391,-47.837225,-70.678681,-76.856016,-75.970451,-40.846606,-62.675522,-68.76615,-68.682349,-35.21977,-53.748225,-60.92717,-62.84357,230.900144,48.931721,-271.100945,41.33743
46,22.425751,1.161557,-15.407375,1.405409,9.362629,16.502712,12.845226,5.227844,43.248104,29.490063,15.383091,14.712684,36.018276,15.322803,4.320007,8.095367,23.458134,4.26852,-4.669704,-1.523735,7.910248,-5.281128,-12.390747,-12.470673,-29.97747,-56.172464,-76.913204,-84.462825,-55.380465,-87.558027,-81.683609,-72.620769,-47.388588,-83.62389,-75.985021,-65.266234,-41.783858,-77.239543,-69.914511,-59.311073,-37.588177,-66.920592,-67.419996,-63.611134,-4.028824,-9.037262,-9.72258,-8.5826,-36.152298,-36.846497,-28.630909,-21.945362,-34.606568,-32.997059,-23.972432,-17.421725,-27.995539,-24.84973,-16.496109,-11.052492,-17.016278,-12.90798,-6.957407,-3.46098,-34.219451,-55.200586,-71.039175,-83.389476,-51.378995,-71.706854,-78.964602,-81.707234,-45.145099,-68.589381,-77.607575,-79.23635,-39.961026,-63.214289,-72.322512,-74.386908,-36.798414,-57.792056,-67.014008,-70.364073,254.07934,49.496216,-285.754875,42.145777
47,16.655044,1.402577,-11.225275,0.632963,15.00745,25.898301,25.205304,19.10075,48.219853,36.240921,22.777874,22.286785,38.528675,20.107087,9.780728,13.435364,24.255719,7.492127,-0.475513,2.729828,7.715802,-3.843303,-9.184169,-7.803978,-28.00547,-53.075199,-73.633427,-80.904071,-50.361527,-85.429389,-79.901242,-70.616601,-41.724902,-81.363884,-73.915469,-63.247449,-36.135202,-73.992323,-66.636571,-56.023528,-32.717631,-63.510867,-61.527475,-55.675348,-7.296238,-15.055058,-17.886292,-18.754212,-41.560204,-44.363114,-35.782826,-28.288697,-38.368801,-38.869091,-29.560559,-22.220421,-29.928166,-28.809838,-20.485257,-14.359234,-17.345375,-15.083016,-9.815163,-5.892357,-32.88617,-52.585045,-67.810665,-79.791807,-47.923642,-69.625219,-79.179373,-82.96534,-41.948623,-67.715415,-78.311977,-80.554777,-37.415525,-63.2368,-74.032149,-76.510514,-35.368487,-58.497906,-69.20108,-73.082137,272.025529,50.366523,-295.689005,42.24647
48,10.517945,1.581298,-6.4151,0.548937,20.242527,34.244293,36.352009,31.643818,51.293621,40.633713,28.386074,27.911625,39.394077,23.234207,13.892704,16.967148,23.72652,9.577171,2.750942,5.525963,6.731724,-3.741772,-7.465931,-5.141487,-25.746207,-49.903364,-70.440893,-78.502067,-45.759102,-82.839329,-77.780893,-68.403985,-37.710766,-79.522159,-72.240149,-61.788879,-32.87988,-72.383052,-64.742198,-54.296782,-30.683455,-62.25114,-57.652846,-50.164617,-11.20039,-22.077359,-27.219979,-29.903332,-45.56709,-49.857113,-41.078843,-33.031598,-39.828644,-42.031277,-32.921505,-25.119301,-29.329148,-30.207734,-22.511319,-16.034775,-15.129193,-14.744214,-10.978238,-7.286236,-32.32828,-51.349617,-66.070212,-77.378805,-45.459968,-68.61268,-80.18811,-84.983214,-38.359739,-66.094974,-78.501977,-81.589443,-33.287844,-61.029439,-73.528266,-76.801816,-31.294022,-54.918303,-67.170913,-72.407484,283.822832,51.786674,-300.824747,42.63426
49,5.660351,0.950929,-5.671441,0.86416,22.914436,38.719734,42.511093,38.72937,52.779808,42.932533,31.636756,31.368804,39.508232,24.803398,16.384666,19.161003,23.041305,10.821716,4.785209,7.16011,5.813186,-3.525467,-6.370514,-3.722237,-24.484996,-48.418548,-69.326805,-78.120891,-42.465548,-81.101361,-75.90922,-66.352979,-34.773979,-78.322234,-70.834639,-60.514755,-30.45405,-71.396672,-63.298211,-52.93065,-29.131572,-61.570941,-55.446189,-47.060922,-12.539932,-24.685066,-29.912189,-31.547218,-49.483051,-50.081394,-38.706115,-30.636257,-42.579197,-40.741081,-29.64212,-22.272537,-30.488582,-28.183536,-19.037693,-12.836998,-14.917762,-13.703704,-9.261497,-5.02478,-31.923203,-51.275505,-66.319899,-76.733773,-44.786018,-71.723876,-81.27454,-83.834508,-37.185814,-69.109376,-79.065888,-80.113046,-32.266943,-63.980337,-74.553354,-75.641334,-30.734588,-56.359768,-68.786131,-73.577926,290.683531,52.770726,-305.29584,43.531543
50,0.910766,0.428443,-3.108055,-0.119561,22.921806,39.054817,43.300186,40.002823,52.966484,42.796463,32.170303,32.234551,39.284844,24.535973,16.926315,19.784363,22.456032,10.833206,5.193901,7.332207,5.092644,-3.537598,-6.119797,-3.454468,-23.997779,-48.157189,-69.49639,-78.793612,-41.028431,-80.785026,-74.717134,-64.935295,-33.228113,-78.164394,-69.969318,-59.75764,-28.849015,-71.093058,-62.409579,-52.194159,-27.769247,-61.341026,-54.842202,-46.431666,-14.117786,-27.064865,-32.44297,-33.166477,-52.016063,-48.843155,-33.668449,-24.555828,-43.513149,-37.635601,-23.094978,-15.032673,-29.681534,-24.292991,-12.827934,-6.111557,-12.81879,-10.902672,-5.856685,-1.193916,-31.505042,-51.329493,-66.804523,-76.239165,-45.025776,-76.114262,-83.097974,-82.16085,-36.646116,-72.657931,-79.555501,-77.248074,-31.274756,-66.700856,-74.752678,-72.668262,-29.29828,-56.563125,-69.037418,-73.271242,292.640282,53.314225,-307.35791,43.527038
51,-0.78788,-0.200047,-0.425033,-0.127589,22.710961,38.790985,42.92054,39.763344,52.791252,40.555252,30.343483,31.656075,38.876587,22.518677,15.543755,19.197739,21.932808,9.556938,4.287438,6.799004,4.588349,-4.741905,-6.970985,-3.843864,-24.245706,-48.684902,-70.300115,-79.710748,-40.60846,-81.016497,-73.33474,-63.108415,-32.759711,-78.286024,-68.452888,-57.896297,-28.416224,-70.943504,-61.129388,-51.094823,-27.352135,-60.821414,-53.471232,-45.188266,-15.296116,-29.098973,-34.545719,-34.219654,-52.859494,-46.632489,-28.588738,-19.466744,-43.243584,-33.946644,-17.424649,-10.288777,-28.511318,-20.594788,-7.902306,-2.117855,-11.092564,-8.507149,-3.231308,0.947284,-30.915554,-51.249063,-66.835454,-75.511535,-46.262093,-81.122708,-85.351531,-80.784637,-37.173865,-76.887266,-80.535159,-74.723544,-31.291638,-69.842538,-75.179521,-69.876822,-28.489757,-56.84788,-69.212881,-72.765636,292.589487,53.279629,-307.045858,43.5649
52,-1.793861,-0.651405,0.927337,1.208153,22.41069,38.046799,41.696983,38.26284,51.715233,38.90744,28.983558,30.80056,37.728584,21.107094,14.596893,18.461197,20.83976,8.206444,3.404251,6.058822,3.5709,-6.009087,-8.027527,-4.871727,-24.601901,-49.190952,-70.913092,-80.228062,-40.079154,-80.279092,-71.700521,-61.302357,-32.197585,-77.395046,-66.80627,-56.207578,-27.759348,-69.982631,-59.509199,-49.589131,-26.491384,-59.499245,-51.737329,-43.617045,-15.782695,-29.309829,-34.110534,-32.465561,-52.001575,-45.546558,-27.04351,-18.402603,-42.005424,-32.365711,-15.371669,-8.776039,-27.182476,-18.996414,-5.984035,-0.697586,-9.594097,-6.954963,-1.769165,2.027138,-30.583676,-51.523229,-67.220047,-75.572853,-47.645661,-84.099121,-86.714733,-80.693098,-38.199151,-78.997599,-81.387889,-74.683912,-32.035916,-71.444208,-75.725043,-69.607924,-28.963376,-57.390784,-69.750104,-73.520467,291.28339,52.783391,-305.630757,44.92822
53,-1.941925,-0.853971,1.643818,1.877231,22.361046,37.957901,41.44828,37.773285,51.160743,37.68045,28.01168,30.140007,37.16542,20.051559,13.907776,17.850082,20.313102,7.28286,2.881141,5.649124,3.0588,-6.597885,-8.463982,-5.335579,-24.364027,-48.853141,-70.740469,-79.683732,-39.13446,-79.104204,-70.159262,-59.773152,-31.209331,-76.208654,-65.24782,-54.686319,-26.723541,-68.711017,-57.947186,-48.18326,-25.400303,-58.298768,-50.301447,-42.284533,-15.904415,-28.925331,-32.833282,-30.433593,-51.28339,-44.741203,-26.063003,-17.632965,-41.300697,-31.512371,-14.240799,-7.992737,-26.597637,-18.224498,-5.094234,-0.307171,-8.950721,-6.455269,-1.390194,2.049351,-30.807386,-52.368666,-68.43043,-76.996428,-49.219142,-86.161381,-88.086561,-81.398442,-39.625665,-80.864993,-82.629085,-75.516061,-33.333089,-72.961144,-76.800686,-70.351732,-30.112607,-58.446895,-70.819232,-74.60515,289.691803,52.066963,-303.636601,46.942994
54,-1.627739,-0.769904,1.801976,1.896077,22.233902,37.758064,41.297607,37.656143,50.959945,36.455635,27.054474,29.416786,37.019165,19.046882,13.154709,17.19033,20.063919,6.276855,2.117203,5.001915,2.765877,-7.316117,-9.00309,-5.752098,-23.570207,-47.757269,-69.745145,-78.583309,-38.32787,-77.937647,-68.68796,-58.396087,-30.259277,-74.906708,-63.64037,-53.169717,-25.507224,-67.045844,-56.205392,-46.701176,-23.894155,-56.520992,-48.511828,-40.731968,-16.421666,-29.067193,-32.220074,-29.438221,-50.945469,-44.385807,-25.997143,-17.886658,-40.805123,-31.091057,-14.033226,-8.172844,-26.066643,-17.829815,-4.954915,-0.649178,-8.488266,-5.836236,-0.678074,2.569496,-30.767704,-52.759552,-69.394409,-78.633438,-50.191963,-87.493319,-89.2099,-82.275008,-40.746793,-82.198591,-83.644483,-76.313931,-34.477947,-74.281942,-77.606781,-70.77989,-31.156627,-59.748284,-71.935333,-75.555939,288.282875,51.461534,-301.615814,49.003546
55,-1.389176,-0.542453,1.624855,1.848684,22.287095,37.695099,41.327752,37.85804,50.582199,35.653222,26.433289,28.859665,36.717705,18.457558,12.708733,16.737008,19.773652,5.770455,1.737122,4.664086,2.526535,-7.678894,-9.358749,-6.106613,-22.923136,-46.695062,-68.957173,-77.902714,-37.066284,-76.378072,-67.258771,-57.03767,-29.047622,-73.35802,-62.104489,-51.709499,-24.253845,-65.460401,-54.645385,-45.291593,-22.632983,-55.123154,-47.153393,-39.523067,-16.580956,-28.935494,-31.645215,-28.671891,-50.822319,-44.084095,-25.923191,-17.90831,-40.710686,-30.694508,-13.821328,-8.183155,-26.035286,-17.540772,-4.821579,-0.855973,-8.55312,-5.635643,-0.313168,2.886417,-31.004814,-53.249072,-70.282855,-80.165996,-50.95991,-88.363549,-90.188866,-83.254054,-41.480395,-83.122168,-84.376868,-76.89144,-35.133934,-75.163095,-78.091263,-70.981913,-31.726645,-60.623313,-72.752995,-76.360584,287.076994,51.060709,-299.807664,50.993858
56,-0.842559,0.109379,1.372501,2.130476,22.734901,37.944328,41.516555,37.974746,49.927002,35.401725,26.478469,28.610961,35.951774,18.160995,12.434143,16.151481,18.907333,5.324318,1.332435,4.086341,1.685279,-8.251854,-9.920861,-6.792664,-22.069591,-45.452496,-67.934309,-77.150761,-35.815208,-74.802659,-66.560331,-56.637225,-27.992234,-71.943936,-61.289649,-51.020439,-23.260893,-64.1209,-53.704253,-44.375168,-21.742512,-54.07257,-46.362296,-38.743005,-16.798084,-28.57053,-30.445599,-26.78484,-50.69149,-43.74305,-25.698109,-17.74387,-40.594185,-30.477688,-13.717884,-8.224663,-25.941856,-17.547363,-4.946251,-1.211861,-8.53022,-5.482567,0.020233,3.19804,-31.077247,-53.430421,-70.661836,-80.910775,-51.480985,-89.014893,-91.07643,-84.202924,-42.120833,-83.991947,-85.280604,-77.704551,-35.833974,-76.114441,-78.940603,-71.638858,-32.471096,-61.608423,-73.810107,-77.395398,286.441395,51.272374,-298.228203,53.22662
57,-0.381546,0.422626,1.453949,2.075567,22.741905,37.71524,40.999511,37.352714,49.626113,34.75605,26.039657,28.043289,35.718658,17.411224,11.739852,15.451538,18.562957,4.515953,0.571243,3.346778,1.275535,-8.987114,-10.540925,-7.274254,-21.241024,-44.206651,-66.749306,-75.987569,-35.065941,-73.943568,-66.058238,-56.305866,-27.254175,-70.987255,-60.671429,-50.406294,-22.398233,-62.960307,-52.921518,-43.63612,-20.790765,-53.02758,-45.623693,-38.118314,-16.644836,-28.154274,-29.847256,-26.316113,-50.78896,-43.688862,-25.673916,-17.420288,-40.989121,-30.674446,-13.898838,-8.201019,-26.504597,-18.031643,-5.314465,-1.3927,-9.293793,-5.958744,-0.188358,3.134136,-31.325237,-53.393457,-70.561893,-81.3077,-51.748432,-89.119572,-91.916872,-85.456914,-42.515968,-84.543008,-86.281523,-78.77166,-36.307859,-76.752131,-80.043119,-72.897257,-32.999019,-62.339931,-74.767245,-78.477845,286.262484,51.780531,-296.571619,55.387718
58,-0.581383,0.385977,1.373188,1.844398,22.796264,37.586151,40.707527,36.855285,49.212089,34.618675,26.097976,27.865791,35.350113,17.32386,11.631111,15.252434,18.178688,4.387024,0.430687,3.148773,0.972793,-9.225014,-10.775139,-7.489266,-20.542516,-43.112119,-65.620638,-74.895445,-33.981561,-72.484653,-65.332652,-55.859355,-26.226036,-69.637317,-59.918747,-49.675533,-21.379932,-61.653464,-52.165581,-42.869156,-19.82736,-51.869933,-44.970825,-37.59656,-16.070183,-27.528088,-29.547432,-26.461052,-50.879173,-44.117123,-25.991684,-17.448795,-41.459129,-31.201904,-14.343773,-8.588287,-27.221638,-18.759979,-5.829048,-1.809414,-10.234165,-6.683384,-0.56781,2.918198,-31.728281,-53.419602,-70.312551,-81.237069,-51.614477,-88.78741,-92.062009,-85.839099,-42.436081,-84.552332,-86.391333,-78.775957,-36.249332,-76.977915,-80.272701,-72.935276,-33.000643,-62.81284,-75.163206,-78.578498,285.88559,52.235075,-294.993942,57.300683
59,-0.307388,0.391862,1.100315,1.446831,22.962478,37.549736,40.474411,36.316932,48.500381,34.099662,25.838836,27.389945,34.810157,17.005531,11.392799,14.938911,17.75949,4.159835,0.246047,3.004325,0.680076,-9.433274,-10.924691,-7.498467,-20.31094,-42.454526,-64.792923,-73.946557,-32.960011,-71.025053,-64.735551,-55.488328,-25.180478,-68.364863,-59.274888,-49.040115,-20.312928,-60.488018,-51.586301,-42.312463,-18.85108,-50.937353,-44.511235,-37.261033,-15.253853,-26.841797,-29.557686,-27.100777,-50.953995,-44.468903,-26.12225,-17.214649,-41.909088,-31.672256,-14.594604,-8.623386,-27.911865,-19.315384,-6.057255,-1.817024,-11.089291,-7.302143,-0.942158,2.619942,-32.045772,-53.294033,-69.734512,-80.705942,-51.369631,-88.29889,-92.001173,-86.026339,-42.153301,-84.248934,-86.321185,-78.691409,-35.934164,-76.742486,-80.372317,-73.135008,-32.711212,-62.757876,-75.074255,-78.274371,285.798661,52.66148,-293.673168,58.782057
60,-0.075326,0.53151,0.926662,1.328301,23.140229,37.639229,40.115777,35.425782,47.91243,33.413315,25.329575,26.827904,33.953202,16.223603,10.780472,14.292161,16.696221,3.216317,-0.498138,2.279435,-0.451698,-10.424194,-11.704742,-8.190765,-19.946204,-42.167152,-64.585299,-73.667828,-32.375475,-70.401478,-64.184872,-54.834304,-24.368571,-67.56199,-58.536149,-48.120052,-19.357377,-59.635837,-50.86513,-41.495418,-17.765316,-49.809383,-43.550225,-36.288692,-15.25748,-26.977409,-29.850505,-27.465934,-51.047836,-44.877674,-26.528709,-17.484237,-41.994174,-32.012546,-14.976448,-8.942676,-28.020744,-19.684982,-6.429759,-2.099086,-11.26633,-7.425899,-1.058601,2.423253,-31.642535,-52.657417,-68.995477,-80.09562,-50.894017,-87.699312,-91.753344,-86.04074,-41.84902,-83.818237,-86.185229,-78.671272,-35.789656,-76.465109,-80.427442,-73.367931,-32.708156,-62.809419,-75.013919,-77.995309,285.961166,53.216434,-292.508675,60.133802
61,-0.188667,0.429159,0.712327,1.228969,23.116265,37.609657,39.621689,34.432228,47.352905,32.544594,24.634346,26.343865,33.244812,15.284775,10.16787,13.854584,15.901131,2.212967,-1.173385,1.779534,-1.273269,-11.299896,-12.342178,-8.67279,-19.709002,-41.925053,-64.435696,-73.171169,-31.894693,-70.197936,-63.402346,-53.710786,-23.577406,-66.960887,-57.632233,-47.092494,-18.383388,-58.987303,-50.006607,-40.60901,-16.634122,-48.804506,-42.420791,-35.059043,-14.892918,-26.723706,-30.062954,-28.162468,-51.080819,-44.705842,-26.363183,-17.181393,-42.207516,-31.680817,-14.745358,-8.660157,-28.305336,-19.41187,-6.222496,-1.837693,-11.577805,-7.400712,-1.103611,2.369224,-31.721786,-52.604787,-68.843194,-80.071994,-50.942695,-87.60003,-91.727193,-86.161116,-41.701208,-83.518964,-85.899498,-78.492524,-35.476174,-76.111588,-80.03077,-73.018485,-32.284684,-62.401126,-74.732442,-77.949182,286.013883,53.688071,-291.554964,61.405249
62,-0.39901,0.236443,0.452224,1.012311,23.058724,37.540604,39.492142,34.481644,46.776261,32.241715,24.402764,26.071129,32.552582,15.008103,9.967667,13.546944,15.189377,1.843758,-1.407943,1.502129,-1.937713,-11.752555,-12.751281,-9.078964,-19.318407,-41.332108,-63.861338,-72.654905,-30.858867,-69.398917,-62.609552,-52.806748,-22.566133,-66.065988,-56.801172,-46.269349,-17.467926,-58.278076,-49.237179,-39.756521,-15.807575,-47.948689,-41.454911,-33.880173,-14.948078,-26.709606,-30.018482,-27.940658,-50.954372,-44.44059,-26.050678,-16.941192,-41.929023,-31.14703,-14.381561,-8.532852,-27.930565,-18.738064,-5.776085,-1.672989,-11.099281,-6.866604,-0.795925,2.449253,-31.472647,-52.471727,-68.794794,-79.943386,-50.921921,-87.555829,-91.414797,-85.72922,-41.57649,-83.298891,-85.464527,-78.018848,-35.234599,-75.890916,-79.495084,-72.317463,-31.971757,-62.044788,-74.334145,-77.56497,285.890258,53.970716,-290.827355,62.463762
63,0.008996,0.304695,0.49078,0.863024,22.982574,37.337997,39.030258,34.13903,46.034133,31.57164,23.652214,25.195129,31.499336,14.023292,9.092124,12.647781,13.930046,0.587562,-2.441369,0.542701,-3.312401,-12.969429,-13.77974,-10.076638,-19.028476,-41.037774,-63.662378,-72.491285,-30.177038,-69.157726,-61.916175,-51.771095,-21.66554,-65.387277,-55.936679,-45.374771,-16.436706,-57.461747,-48.336142,-38.936,-14.584929,-46.687968,-40.185304,-32.595857,-15.470203,-27.137237,-30.210903,-27.902447,-50.931026,-43.829429,-25.632969,-16.741905,-41.696342,-30.463886,-14.000919,-8.290775,-27.574322,-18.059624,-5.396587,-1.475864,-10.708912,-6.247078,-0.301815,2.805164,-30.95077,-52.019436,-68.553239,-79.851681,-51.004735,-87.609138,-91.251078,-85.574956,-41.768244,-83.432247,-85.529088,-78.186223,-35.457852,-76.088512,-79.511782,-72.339101,-32.208441,-62.282972,-74.420102,-77.66629,286.201041,54.338603,-290.034788,63.389978
64,0.146484,0.355133,0.502522,0.658624,22.786652,36.894562,38.02018,32.816574,45.217255,30.811043,22.73909,24.233368,30.312538,12.832283,7.931007,11.433563,12.421715,-1.041252,-3.876595,-0.86364,-5.000885,-14.689385,-15.345383,-11.650704,-18.84338,-40.839599,-63.452735,-72.021439,-29.542812,-69.118262,-61.308588,-50.773097,-20.648054,-64.680155,-55.207716,-44.673707,-15.205471,-56.523067,-47.451518,-38.179619,-13.124933,-45.159645,-38.867303,-31.421006,-15.830738,-27.388962,-30.205067,-27.605828,-50.819001,-43.045555,-25.103657,-16.493328,-41.305046,-29.453968,-13.340905,-7.950795,-26.987732,-17.069367,-4.800866,-1.18475,-10.014107,-5.389481,0.336937,3.322906,-30.769026,-52.070405,-69.022054,-80.515714,-51.279185,-87.792562,-91.126645,-85.411521,-41.942121,-83.394926,-85.25659,-77.990369,-35.467226,-76.028256,-79.137581,-71.941941,-32.073973,-62.060566,-74.337709,-77.936449,286.681995,54.756428,-289.197796,64.111294
65,0.187797,0.085246,0.572673,0.454094,22.275994,36.053879,36.865792,31.507531,43.96209,29.371422,21.383355,22.861542,29.144875,11.515618,6.745034,10.247109,11.2809,-2.502937,-5.182708,-2.083786,-6.123344,-16.05455,-16.601486,-12.872795,-18.866894,-40.366522,-62.550068,-70.751109,-28.614838,-68.158036,-60.43653,-49.777767,-19.491061,-63.617714,-54.514752,-43.991716,-13.890786,-55.160933,-46.604308,-37.573279,-11.584519,-43.401734,-37.814477,-30.801742,-15.760803,-27.151737,-30.002883,-27.536773,-50.569484,-42.137031,-24.439155,-16.003715,-40.962101,-28.423439,-12.607589,-7.428691,-26.555328,-16.04235,-4.097854,-0.75111,-9.502498,-4.637146,0.910401,3.808217,-30.939173,-52.401844,-69.592894,-81.318333,-51.636263,-87.991318,-91.024053,-85.241578,-42.083005,-83.335454,-84.980608,-77.771884,-35.354087,-75.913839,-78.696794,-71.435341,-31.755841,-61.720957,-74.227688,-78.236191,287.228925,54.900958,-288.26599,64.624672
66,-0.051681,-0.034549,0.798958,0.360894,21.784859,35.298523,35.897209,30.582962,43.159927,28.073982,20.059547,21.602051,28.36924,10.39753,5.656174,9.215492,10.478531,-3.68486,-6.340942,-3.14518,-7.010948,-17.100082,-17.682243,-14.033363,-18.754014,-39.936536,-61.856907,-69.881182,-27.51549,-66.89855,-59.318298,-48.587929,-18.230581,-62.36599,-53.59427,-42.98035,-12.579479,-53.693768,-45.683974,-36.844162,-10.142086,-41.643367,-36.797911,-30.320515,-15.923275,-27.264244,-29.989929,-27.415512,-50.334411,-41.558418,-24.169555,-16.025928,-40.510231,-27.823059,-12.25407,-7.254524,-25.956436,-15.413303,-3.751842,-0.656547,-8.787437,-4.035301,1.331921,4.106312,-30.755491,-52.366653,-69.835313,-81.708516,-51.673893,-87.95239,-90.716573,-84.837508,-42.09005,-83.182158,-84.705251,-77.523814,-35.287792,-75.766737,-78.436818,-71.227235,-31.621589,-61.554892,-74.243959,-78.550476,287.545864,54.914923,-287.098412,65.03408
67,-0.238129,0.237127,0.869877,0.406336,21.793328,35.1213,35.291359,29.423195,42.154999,27.046006,19.106186,20.472931,27.142044,9.36557,4.791321,8.249199,9.076767,-4.990905,-7.44001,-4.237472,-8.522346,-18.338493,-18.649521,-15.083221,-18.635576,-39.795621,-61.526511,-69.366695,-27.011958,-66.092522,-58.829481,-48.041499,-17.436118,-61.30248,-53.065772,-42.372799,-11.566426,-52.230178,-44.967588,-36.330441,-8.776351,-39.795219,-36.070941,-30.283025,-15.941528,-27.274704,-30.020691,-27.47905,-50.153984,-40.968979,-23.867649,-15.883049,-40.23856,-27.194813,-11.802486,-6.843281,-25.599426,-14.827846,-3.387405,-0.391033,-8.367634,-3.527664,1.766716,4.567543,-30.859886,-52.521665,-70.192267,-82.284215,-51.799673,-87.946456,-90.576665,-84.73502,-42.11882,-83.042417,-84.501264,-77.440772,-35.205318,-75.587265,-78.231597,-71.18711,-31.434967,-61.252704,-74.185944,-78.933921,287.658033,55.192064,-285.878237,65.48043
68,-0.537048,0.728637,0.602783,0.544738,22.164802,35.465492,35.007339,28.082359,41.583824,26.066139,18.293907,19.907341,26.384376,8.481033,4.154159,7.636642,8.246246,-6.022751,-8.169457,-4.827072,-9.343369,-19.317947,-19.411972,-15.8134,-18.73657,-40.05535,-61.777379,-69.307829,-27.201273,-66.0418,-58.568809,-47.705046,-17.5149,-61.12987,-52.786179,-42.017463,-11.587675,-51.971265,-44.597574,-36.014409,-8.67668,-39.509056,-35.761566,-30.055889,-16.071647,-27.387577,-30.067909,-27.316887,-49.725231,-40.28873,-23.313606,-15.503391,-39.598766,-26.400398,-11.119846,-6.238598,-24.822887,-13.975078,-2.714595,0.141941,-7.498764,-2.723327,2.420163,5.106194,-30.709808,-52.482478,-70.340105,-82.440079,-51.873329,-88.093435,-90.62493,-84.794295,-42.122266,-83.085661,-84.58401,-77.581841,-35.135658,-75.586395,-78.350856,-71.440719,-31.322125,-61.220557,-74.221451,-79.02149,287.418177,55.94173,-284.978262,66.046197
69,-0.818115,0.661458,0.70094,0.911071,22.275902,35.529236,34.781776,27.32975,40.822265,25.172813,17.72525,19.555069,25.694984,7.817985,3.795822,7.365051,7.788322,-6.601479,-8.478104,-4.983879,-9.579392,-19.816223,-19.839638,-16.250908,-18.764215,-40.141757,-61.759434,-69.132075,-27.424877,-65.85645,-58.440251,-47.563706,-17.776104,-61.073881,-52.649303,-41.798941,-11.832491,-51.983874,-44.382677,-35.681667,-8.832162,-39.619725,-35.671145,-29.786491,-15.717625,-26.761105,-29.137665,-26.274079,-49.110901,-39.689644,-22.731629,-14.793618,-39.074227,-25.829922,-10.509121,-5.552353,-24.330552,-13.398972,-2.183796,0.643203,-6.987797,-2.276631,2.78001,5.409244,-30.831252,-52.635699,-70.505292,-82.767177,-52.11744,-88.216626,-91.067531,-85.43267,-42.31187,-83.272845,-84.935456,-77.947514,-35.295374,-75.780303,-78.71756,-71.88387,-31.464243,-61.332787,-74.474306,-79.383236,286.836851,56.61652,-284.040533,66.9706
70,-0.787033,0.246168,0.703548,0.95933,22.200485,35.311317,34.152946,26.240432,39.968582,24.00737,16.893768,18.994125,24.974464,6.613105,2.87091,6.612968,7.242393,-7.609291,-9.294388,-5.595978,-9.967186,-20.556931,-20.510582,-16.859162,-18.699828,-39.969702,-61.298683,-68.319532,-27.343713,-65.502466,-57.989633,-47.01304,-17.63556,-60.688367,-52.169416,-41.328896,-11.615277,-51.608395,-43.792966,-35.009699,-8.516907,-39.321279,-35.09174,-29.034315,-15.232956,-25.971405,-27.931767,-24.718506,-48.405212,-39.036575,-21.872337,-13.767792,-38.497536,-25.256275,-9.707989,-4.719669,-23.814892,-12.906246,-1.51506,1.369457,-6.455875,-1.627888,3.568382,6.23164,-31.223478,-53.068372,-70.86342,-83.022811,-52.549354,-88.46779,-91.479524,-85.903295,-42.637122,-83.61861,-85.363066,-78.23629,-35.465126,-76.058019,-79.218807,-72.395176,-31.509346,-61.397138,-74.691724,-79.64,286.220147,56.881114,-283.166656,67.948356
71,-0.708115,-0.210477,0.825817,0.965672,21.97625,34.792007,33.231056,24.890099,38.1744,21.968124,15.550186,17.967934,23.474098,4.640739,1.679764,5.757225,6.175552,-9.099426,-10.256149,-6.257561,-10.455162,-21.587448,-21.381523,-17.615158,-18.404574,-39.186681,-59.970437,-66.628923,-26.608437,-64.403876,-56.830941,-45.713292,-17.199922,-59.865073,-51.324472,-40.626262,-11.329002,-50.8964,-42.94499,-34.197001,-8.302546,-38.791559,-34.238917,-28.074448,-15.948418,-26.361111,-27.647083,-23.783329,-47.568592,-38.009365,-20.774506,-12.632549,-37.430923,-24.130794,-8.586079,-3.729824,-22.68195,-11.853641,-0.639358,2.077171,-5.359692,-0.408874,4.841629,7.438522,-30.928516,-52.908476,-70.942042,-83.162065,-52.739298,-88.778086,-91.812106,-86.25531,-43.006143,-84.143471,-85.943205,-78.784017,-35.889371,-76.609692,-79.858023,-73.027495,-31.983515,-61.806568,-75.105495,-80.009392,285.653664,56.67927,-282.199207,68.922661
72,-3.776939,5.200645,1.52512,0.856712,21.461036,34.081466,32.796226,24.69017,39.042022,22.824073,15.662567,18.172897,25.045211,5.337959,1.604072,5.991096,8.227958,-8.186577,-10.043015,-5.781281,-8.31688,-20.777733,-20.9748,-16.954972,-20.84413,-42.590099,-62.538477,-68.274448,-32.040943,-69.832078,-61.847965,-50.69163,-22.230951,-65.027877,-55.8536,-45.036749,-15.976524,-56.152422,-47.339811,-38.050771,-12.54246,-43.572227,-37.73572,-30.677123,-16.456455,-26.583126,-27.168011,-22.433556,-46.536381,-36.721115,-19.530407,-11.718418,-36.124352,-22.679947,-7.302704,-2.933212,-21.333435,-10.425877,0.494476,2.706241,-4.017197,0.96318,6.145603,8.507126,-30.805835,-53.149573,-71.241092,-82.931519,-53.119569,-89.402123,-91.630559,-85.568984,-43.427033,-84.71539,-85.85374,-78.344532,-36.260082,-77.054442,-79.713582,-72.490105,-32.254592,-62.142873,-75.19418,-79.768058,282.073145,61.870918,-280.477667,69.770376
73,-5.122193,4.857398,2.467815,1.357139,20.13192,32.332009,31.256356,23.741181,39.813927,22.560105,15.089173,18.20176,26.414887,5.258515,1.184098,6.118241,9.833634,-7.876968,-9.969864,-5.358032,-7.020492,-20.356292,-20.849624,-16.782898,-23.053454,-45.718751,-65.297084,-70.649597,-36.200154,-73.576671,-64.983114,-53.937953,-26.11449,-68.541117,-58.961683,-48.290007,-19.478926,-59.476731,-50.160335,-40.783689,-15.599734,-46.469161,-40.278923,-33.254449,-16.670837,-26.052429,-25.304672,-19.09647,-45.161831,-35.243236,-18.072395,-10.642307,-34.35252,-20.947895,-5.678501,-1.80772,-19.346821,-8.367004,2.318505,3.93116,-1.799114,3.139389,8.195057,10.128536,-30.947905,-53.998914,-72.281037,-82.957906,-53.70765,-90.221156,-91.651746,-85.098558,-43.912176,-85.408088,-85.779072,-77.710696,-36.604595,-77.421345,-79.616258,-72.073834,-32.357531,-62.423146,-75.196441,-79.419021,277.203884,66.605473,-277.75692,71.004672
74,-6.278572,5.363042,3.141461,1.754316,19.070618,30.349892,27.911865,19.978775,39.13266,20.614197,12.957642,16.474892,26.126175,3.301003,-1.22438,4.017105,9.619309,-9.668678,-11.923279,-6.885567,-7.511398,-21.504661,-22.202362,-18.154793,-24.264009,-48.178431,-67.595045,-73.096821,-40.590948,-77.424395,-67.788015,-56.663777,-30.714716,-72.230043,-61.912136,-51.187868,-23.876667,-63.195217,-53.03439,-43.580112,-19.390592,-49.500427,-42.892231,-36.078468,-17.118965,-25.506386,-23.056424,-15.219395,-43.072014,-32.342514,-15.465535,-9.076058,-31.665036,-17.695313,-2.884518,0.094276,-16.361721,-4.712666,5.475334,6.150489,1.438648,6.900879,11.778007,12.988941,-30.919116,-54.882197,-73.244084,-82.28624,-54.223617,-91.399193,-91.04582,-83.559842,-44.381046,-86.418417,-85.500725,-76.784686,-36.992343,-77.887931,-79.246644,-71.34918,-32.414452,-62.968414,-74.357876,-77.229962,271.187977,71.652393,-274.352794,72.442866
75,-8.25888,6.429243,4.80772,1.108877,17.286895,26.731086,22.21907,13.267181,36.456024,17.705223,9.100936,12.115036,24.169921,0.814659,-4.749939,0.389579,8.08612,-12.152138,-15.004647,-9.78241,-9.058091,-23.615273,-24.889275,-21.101258,-25.389589,-50.724271,-69.633315,-74.989027,-45.096499,-81.010847,-71.154191,-60.342496,-35.500102,-75.468253,-65.128246,-54.776808,-28.418676,-66.794914,-56.329349,-46.754744,-23.418961,-52.749456,-46.222616,-39.446737,-17.392182,-25.05756,-21.67226,-12.827339,-39.131275,-28.314743,-13.231693,-8.184139,-27.317608,-13.871201,-0.992718,1.153313,-12.011925,-0.474049,8.117306,8.178245,5.368744,10.922218,14.777778,15.03051,-29.376239,-53.518051,-70.95988,-77.619144,-53.013945,-89.440217,-86.687303,-78.524405,-44.618847,-85.379238,-82.084903,-72.863831,-38.252602,-76.939932,-76.079465,-68.068146,-33.833761,-62.483618,-70.028653,-70.84287,263.140618,77.527386,-269.333553,72.997493
76,-11.279652,8.84185,7.069176,-0.809869,14.39407,20.476867,12.956417,2.551506,30.358005,9.483833,0.203968,3.340702,18.732559,-6.742882,-13.052822,-7.645821,3.463829,-19.034088,-22.300427,-16.59375,-13.068798,-29.419293,-31.057251,-27.107815,-28.078672,-55.006483,-72.804307,-77.308836,-52.300799,-85.986423,-75.778549,-65.471702,-42.032764,-78.764179,-68.146745,-58.215426,-33.545642,-69.476836,-58.742435,-49.124762,-26.660228,-54.185387,-47.935248,-41.378472,-11.862729,-17.481057,-15.188702,-7.894879,-29.924389,-19.763821,-7.803772,-4.432549,-21.907975,-10.177014,0.197696,1.784202,-10.801552,-0.811409,6.665679,6.707038,2.186771,6.6702,10.599243,10.908176,-27.040857,-49.928277,-64.707713,-68.600755,-51.88398,-82.29825,-76.806132,-68.781542,-44.471282,-77.547612,-71.758968,-62.986939,-38.09415,-68.997088,-65.740964,-58.269436,-32.593571,-55.773262,-59.403828,-58.555519,251.586645,84.657209,-262.538698,70.475597
77,-11.014458,5.335736,9.66402,3.948127,10.333065,11.147713,-1.162388,-13.956985,17.370815,-7.844307,-15.78091,-11.385074,6.12133,-22.895553,-27.680477,-21.205078,-7.729088,-33.264976,-35.266308,-28.444977,-22.173122,-41.174961,-42.498916,-38.080456,-29.151153,-56.01625,-72.337208,-75.876652,-54.960716,-84.779147,-74.300041,-64.453913,-44.235309,-75.626498,-64.889658,-55.759989,-34.087941,-65.097602,-54.606109,-45.643132,-24.774945,-48.425457,-43.096875,-37.552028,-4.741127,-7.04219,-5.057545,0.873345,-18.977034,-9.375069,0.151342,2.381865,-15.2822,-4.519781,4.023377,5.193358,-8.823418,0.612951,7.313164,7.382841,-0.693981,4.023268,8.398172,8.850431,-25.08788,-47.278452,-60.524425,-62.978791,-52.706277,-78.284106,-70.485372,-62.424402,-46.084308,-72.578461,-64.506879,-55.723921,-39.457266,-63.394745,-57.869559,-50.471495,-32.782309,-51.132197,-50.958907,-48.24112,239.886566,86.922461,-253.560299,71.35324
78,-10.868637,8.263576,12.224854,8.090916,4.522053,-2.294929,-20.157474,-35.759972,3.442234,-26.591881,-37.342701,-36.30621,-4.78553,-39.158569,-47.57365,-44.362976,-15.442039,-46.796013,-53.098263,-49.594894,-27.238254,-50.187641,-56.069114,-55.844524,-29.678841,-55.506964,-69.158841,-72.289552,-57.107735,-81.69645,-72.408459,-63.135764,-44.994154,-70.13312,-61.059885,-53.176006,-32.198039,-57.741097,-49.718421,-42.52754,-19.73311,-39.611772,-36.580404,-33.04053,3.721882,5.484913,7.208015,11.355732,-6.655524,2.656505,10.321809,11.823789,-7.92968,2.920355,10.132599,10.825521,-6.762074,3.336748,9.43832,9.479891,-4.141514,2.228868,7.392889,8.187109,-23.514103,-45.342831,-57.950477,-60.492115,-55.396891,-77.277939,-67.097195,-58.536881,-49.413297,-70.263173,-59.720253,-50.553077,-42.295729,-59.964034,-51.754824,-43.766531,-34.352079,-48.292012,-44.294883,-39.48837,228.35511,92.197851,-241.998264,76.45597
79,-14.789268,11.200771,13.396385,6.402801,-2.331253,-16.669716,-38.650246,-55.52417,-13.442814,-47.322247,-58.905728,-58.906186,-19.0639,-57.235909,-67.052788,-65.128144,-26.138832,-61.505139,-69.805665,-67.830105,-34.158097,-60.458817,-68.85125,-70.622624,-31.415858,-54.976716,-64.334435,-65.121493,-55.957235,-74.420265,-67.077175,-59.271491,-41.493031,-59.781775,-53.223649,-47.32944,-26.173227,-45.426233,-40.415104,-35.369286,-11.320647,-26.825447,-26.099883,-24.477937,10.416092,15.653057,16.893619,19.21241,3.574991,14.317108,20.636942,22.672651,-2.323036,9.450674,16.722072,18.47101,-5.933361,5.069967,12.255249,13.725901,-8.268402,-0.441199,6.243994,8.098211,-20.876804,-40.444429,-50.877813,-53.011836,-52.454656,-68.583481,-57.014692,-48.296661,-47.216946,-61.509564,-49.57742,-39.976232,-39.820821,-51.381233,-41.46944,-33.230496,-31.019161,-40.069506,-34.159726,-28.462475,212.887865,100.630876,-229.279856,80.091025
80,-18.0924,13.860813,13.492161,16.295458,-9.171661,-30.426224,-55.555206,-72.462296,-32.655727,-70.100727,-79.545536,-77.578594,-36.453907,-77.647201,-86.200928,-83.527519,-39.804771,-78.030865,-85.565437,-83.089931,-42.92498,-72.059692,-80.606781,-82.066624,-33.484769,-53.865129,-57.964955,-55.477815,-51.977804,-63.466583,-57.898094,-52.047385,-34.60541,-45.310727,-41.355678,-37.732284,-17.038699,-28.921658,-26.689723,-24.143167,-0.331884,-10.343454,-11.377788,-11.752999,17.378929,27.98719,31.64772,34.010833,16.328195,30.578499,35.488386,36.300024,7.084488,22.491834,28.894226,29.570589,-0.563633,13.705438,20.371044,20.710767,-7.107502,3.89657,11.202489,12.881029,-21.32305,-40.593507,-50.193729,-51.875239,-55.360439,-66.363325,-53.987026,-45.496095,-48.005017,-55.870263,-43.582418,-34.536446,-37.908787,-43.718606,-33.604012,-25.812728,-26.407159,-32.092031,-26.120266,-20.664343,194.462305,112.130455,-216.120855,94.025249
81,-14.829174,14.76172,11.095459,17.165522,-15.628681,-41.586205,-68.087322,-85.32177,-46.066086,-84.364941,-96.141472,-98.361168,-47.605991,-89.878899,-101.998043,-104.43322,-47.747955,-87.351276,-98.613796,-101.071667,-47.285877,-77.519154,-89.136704,-94.903633,-33.661925,-50.881688,-51.877448,-47.587872,-45.600953,-50.571152,-45.504262,-40.190892,-26.492177,-30.18015,-26.596122,-23.23723,-7.717094,-12.642801,-10.785605,-8.799141,9.783729,5.683366,5.157456,4.521955,20.54552,35.898594,43.937725,48.51519,22.533399,42.821148,50.54294,53.041196,12.19392,35.009657,45.276569,47.594392,4.204925,26.053098,36.228012,38.400163,-1.812859,15.025949,25.034231,28.392248,-22.391406,-40.771608,-49.569674,-50.507054,-52.922199,-61.865715,-49.024091,-39.520032,-43.739577,-49.878009,-37.164655,-27.364556,-31.915719,-36.589268,-26.322472,-18.318507,-18.980758,-23.370607,-17.402121,-11.935348,179.84384,125.943467,-204.814687,110.242063
82,-18.186493,18.02547,12.096588,20.603164,-20.889873,-50.549675,-77.179768,-93.79287,-56.803574,-96.323719,-109.572178,-113.591663,-55.646954,-99.094047,-113.828545,-118.598579,-52.544426,-93.476818,-107.470081,-112.378315,-48.872097,-79.758007,-93.699303,-101.591743,-31.590933,-44.036105,-40.533224,-33.886264,-34.470763,-32.171122,-27.237545,-22.725566,-13.682764,-10.30602,-7.757559,-5.57776,5.534328,7.403291,8.364544,8.927544,22.39454,23.591313,22.747394,20.997545,20.283897,38.253742,51.042709,58.366001,27.78907,55.948425,62.709652,63.107586,19.327995,50.333004,60.041977,60.9864,13.222034,42.549339,52.173454,53.076427,8.830364,31.538395,41.14381,43.392219,-24.681714,-42.649793,-49.769091,-48.123374,-45.775494,-53.06505,-43.810695,-36.007295,-33.35091,-39.595791,-31.509834,-23.673725,-20.026369,-25.924929,-20.306648,-14.233328,-6.80689,-12.789752,-10.605442,-6.72123,162.17474,144.547041,-192.200706,131.423331
83,-17.297676,17.910126,9.220482,16.438676,-25.182484,-55.226486,-81.188358,-97.218201,-67.303757,-104.675274,-116.152531,-119.596287,-65.544376,-106.199684,-119.993225,-125.393944,-60.518601,-98.274937,-111.356289,-116.923279,-53.573078,-82.570805,-94.769142,-101.94532,-29.660553,-38.403498,-31.650414,-22.161558,-21.979444,-14.802811,-9.411423,-5.183903,-0.845366,7.728324,11.317471,14.010224,17.265295,24.891978,27.759089,29.422142,32.170706,38.671418,40.310373,40.373769,19.005947,38.679714,54.758022,64.729122,31.773296,64.512245,73.742706,77.047702,25.246204,60.427459,73.244476,78.175804,20.653495,53.317039,65.984218,70.613102,17.413444,42.313568,53.222728,57.63993,-24.796983,-39.566836,-43.043495,-38.589302,-34.450969,-36.489344,-29.000569,-22.460465,-20.168809,-22.243011,-16.408338,-10.345744,-6.28576,-9.158772,-5.458829,-1.294795,6.559573,3.214572,3.861093,5.896374,145.306692,163.146332,-182.550596,148.551172
84,-17.498108,19.65265,10.724281,24.253728,-27.645378,-57.523521,-82.129738,-97.03228,-71.857681,-108.225883,-119.918907,-123.66711,-68.868645,-108.267311,-122.6166,-128.86393,-62.122536,-98.144966,-111.944984,-118.618549,-53.190262,-81.058571,-93.177177,-100.89933,-26.821113,-32.040276,-23.255193,-12.080851,-11.525499,0.244235,6.428934,10.301697,9.622196,23.105744,28.029574,31.094197,26.864615,39.473382,44.3323,47.038611,40.106089,51.004543,54.768391,56.265654,18.884479,40.508869,60.127178,73.064243,35.497009,73.296776,85.248447,90.02116,31.091904,72.191677,87.020348,93.184685,28.418632,66.684414,80.79919,86.479351,27.158134,56.177605,68.115772,73.302326,-26.347221,-39.853976,-41.39287,-34.339719,-27.346294,-25.488841,-20.362662,-15.687723,-10.031985,-8.989026,-6.028946,-2.628765,5.090951,5.171646,5.814653,7.11156,17.820477,16.472021,15.526338,15.252351,128.258474,183.55419,-171.376425,173.560108
85,-12.689461,18.110654,8.902244,17.00736,-30.086929,-59.424156,-82.973144,-98.285453,-71.593849,-106.364032,-120.348655,-127.550228,-66.713951,-104.70243,-122.09634,-132.378502,-58.712562,-93.099174,-110.362735,-121.35197,-49.177368,-75.414001,-89.286071,-100.180275,-22.527797,-24.951686,-15.652716,-4.559786,-2.443142,13.460763,21.494578,26.295746,17.528065,35.032306,43.29251,48.535343,33.538465,50.085562,58.090046,62.899686,45.271339,59.750403,66.483199,70.21075,20.2072,42.605404,63.064534,77.711506,38.212864,77.332936,93.616414,102.921879,33.728257,76.585785,95.992001,106.743714,31.314755,71.265873,89.967946,100.467202,30.511448,60.627732,75.48745,84.423558,-25.114671,-34.84698,-33.532011,-25.3259,-13.93156,-7.968798,-4.273425,-0.354991,4.214379,8.432352,9.653602,12.149332,18.604189,21.612978,21.310611,22.037475,29.431802,30.95479,29.571939,28.734307,115.801746,202.196679,-162.241448,191.099303
86,-13.755363,17.220572,9.228482,20.236264,-32.135399,-61.718056,-85.013855,-99.442555,-73.314903,-105.759167,-117.274452,-121.938858,-67.075493,-102.726448,-118.653076,-127.496384,-57.955559,-90.194161,-106.670872,-116.96418,-47.383553,-71.84903,-84.874993,-94.958038,-18.369327,-17.573747,-6.320018,5.736885,7.187119,25.588704,33.283534,36.70836,26.500573,46.433581,55.40347,60.483652,41.311607,60.59158,69.469634,74.385448,51.259944,67.504032,75.129603,79.716645,21.737503,44.720135,65.876312,82.161953,43.817756,80.747955,97.597206,108.31525,40.409637,80.734874,99.484497,111.07988,38.048332,75.128998,92.966388,103.998688,36.276832,64.914356,78.609524,87.574802,-23.551619,-30.799413,-27.810619,-18.599471,-4.217454,3.53205,6.035696,9.288843,14.129952,19.936948,20.08121,22.0426,27.401437,32.573232,32.009821,32.789692,36.107208,39.052665,37.912419,37.428889,102.27194,219.679576,-152.787409,211.597892
87,-8.411225,13.775999,8.922844,14.888383,-34.636367,-63.453002,-86.289447,-100.545078,-73.036468,-101.287845,-113.212955,-119.629886,-66.290473,-97.620346,-114.246368,-125.136245,-57.154312,-85.702308,-103.157844,-115.614051,-46.57949,-67.950645,-81.316246,-93.148029,-14.867437,-12.172291,-1.416481,10.017658,15.295898,33.299243,40.466823,43.516948,32.800793,52.623231,61.76764,66.774215,45.887114,65.878093,75.736695,81.257132,54.070797,71.524403,80.966806,87.215615,25.706291,50.271492,70.861118,87.110138,51.222278,87.521953,106.670299,118.697651,45.711479,85.824199,106.841926,119.341392,40.962616,77.469543,97.469993,109.59217,36.97546,65.287136,81.222484,91.611511,-20.864674,-23.690805,-17.92218,-7.984044,5.025607,19.123744,24.01019,27.378947,22.812566,36.65518,39.684742,41.332478,35.096748,48.315375,50.901025,51.409083,42.647836,52.551638,54.404867,53.688957,94.219894,233.524642,-143.505386,226.555342
88,-9.189628,13.304571,8.196487,15.070225,-32.927124,-60.9562,-83.035389,-97.187073,-69.268273,-96.424381,-109.626949,-117.74588,-64.347382,-94.106438,-111.531635,-123.481362,-57.482048,-85.063385,-102.774422,-115.242977,-49.541863,-70.710709,-83.842415,-94.84663,-3.786202,4.194767,16.285806,27.671804,26.303131,42.599176,48.787518,50.878276,37.106353,54.596651,62.053853,64.968127,43.826737,61.124472,69.124856,72.738428,46.231829,61.783633,69.966909,74.884242,29.421066,56.097771,78.028839,95.228119,58.1815,96.364128,114.702061,124.213303,51.158672,93.340485,113.171883,122.766735,44.873646,83.17828,101.969376,111.788681,39.483181,68.959042,85.095497,94.772541,-18.744177,-18.880262,-10.609437,0.616677,12.784484,29.845024,34.968036,37.590255,31.328886,49.059146,52.205639,52.597507,43.306391,60.419691,63.29684,63.018086,50.301404,63.424651,65.81375,64.775145,85.524513,246.899127,-134.814652,241.695481
89,-5.304428,8.951673,5.562767,9.240616,-34.222756,-62.398613,-84.072418,-98.427212,-66.814842,-92.689076,-107.7579,-119.388531,-62.180832,-90.246197,-109.498123,-124.561249,-56.175911,-82.524422,-101.908619,-117.057038,-49.279289,-69.064591,-82.96225,-95.599732,-1.072852,7.858024,18.65244,27.174701,31.730486,45.752535,49.623508,49.980684,41.262576,56.524511,61.823796,62.648534,46.581015,62.688771,69.311157,71.378771,47.556326,63.700403,72.348153,77.503695,33.821034,62.461178,85.066097,102.837547,66.258934,102.972794,120.183403,128.99334,56.968311,97.733654,116.676682,125.930752,48.104016,84.739254,102.893269,112.690201,39.962357,68.069653,83.958321,94.147305,-15.798349,-13.002056,-2.516601,8.500018,19.164141,39.207658,45.645509,48.625127,37.117394,58.83804,63.700354,64.245573,48.318783,69.433237,74.547715,75.083326,54.70401,71.292715,75.588407,75.638363,80.744419,255.964365,-128.727551,251.049662
90,-5.103127,8.111521,6.452969,8.33801,-35.116539,-62.493805,-82.313072,-95.479889,-65.473068,-89.170463,-103.119587,-113.444755,-61.239967,-86.873909,-103.894054,-116.268139,-56.034141,-80.920933,-97.223568,-108.663208,-50.130066,-68.72232,-81.061683,-91.222389,3.051027,14.207004,24.544097,31.777516,37.40262,49.662325,52.687156,52.170676,43.717081,57.465317,61.136058,59.7074,45.951854,60.539709,65.319043,64.961878,44.133786,58.758074,66.184574,69.956301,36.419883,66.410877,90.008903,108.095512,70.663204,107.819847,123.867279,131.25737,60.336456,101.802452,119.936897,128.186886,50.295627,87.263569,104.473274,113.082813,41.033466,69.070804,84.285782,93.470237,-13.549683,-8.94698,3.236771,14.215883,23.437233,44.541819,51.704991,55.316179,41.488867,64.785766,70.678817,71.470248,52.589071,75.183473,80.855927,81.300259,58.975361,76.847498,81.462341,81.711306,76.178112,264.315188,-121.737762,259.626974
91,-4.329094,6.47957,11.660213,8.920612,-33.831733,-59.895424,-77.75045,-90.478306,-64.536026,-86.988979,-97.974701,-105.109806,-61.043472,-84.367115,-96.120849,-103.264332,-56.712776,-79.130882,-89.727436,-95.180591,-51.909462,-68.3852,-77.281402,-83.190582,8.153314,20.765169,30.351143,36.491431,40.506813,52.039246,56.562451,57.803844,43.436635,56.753902,60.927983,59.791368,42.751947,56.522252,61.223879,60.600051,38.705788,52.486109,59.559841,62.934513,36.729,66.998017,90.829514,108.469059,71.836876,110.650555,125.38115,130.567589,60.743008,103.696553,121.018273,127.53328,49.602505,87.62415,104.056938,111.300328,39.224602,67.915135,83.161812,91.584835,-13.306077,-7.689778,5.158667,15.383263,25.807103,48.378892,55.117072,57.708626,44.177468,69.388568,74.99779,74.454843,55.383599,79.564739,84.527126,83.474985,61.969169,81.540629,85.799654,85.042446,72.36684,271.113362,-109.559727,268.86619
92,-3.63208,4.958842,6.619995,5.73607,-30.089882,-54.63501,-70.940746,-82.964962,-63.838943,-83.734279,-89.589546,-91.94347,-61.43169,-81.15287,-85.808567,-86.645725,-57.856819,-76.159607,-79.600731,-78.724445,-53.797714,-67.343902,-71.529922,-72.505588,16.089354,30.3835,40.295775,46.503482,42.665509,55.072192,61.30529,63.774578,41.581628,56.270804,62.508151,62.892362,37.628898,52.029539,57.749455,57.735944,31.170694,44.705075,51.749488,55.039155,36.243245,66.428822,90.631588,109.169369,69.493973,106.0108,121.729088,129.743637,58.595192,99.119763,117.568955,127.052262,47.52348,83.492169,100.966999,110.865464,37.049515,63.863343,78.866455,88.969208,-11.562517,-5.932275,6.828595,15.835893,25.374739,46.235066,53.490677,57.581259,43.320187,66.354239,73.134619,74.483051,54.575607,77.25205,83.558583,84.098516,61.385949,80.446152,85.602583,86.212937,69.172794,276.496914,-102.501698,275.02697
93,-3.282005,3.936811,7.769509,5.647162,-29.196373,-52.997269,-68.027195,-78.703228,-65.36055,-81.051613,-79.944832,-75.632469,-61.940804,-76.537937,-72.502167,-65.443554,-56.967842,-69.463165,-65.008324,-57.465901,-51.267174,-60.265709,-59.249771,-55.590374,16.669252,29.891139,39.228728,45.999722,39.941612,55.121036,63.203634,66.716899,39.780307,57.933817,66.992022,69.842347,37.349453,55.138363,63.787138,66.228626,32.741575,48.557968,57.28503,62.245453,34.966037,63.982441,87.346355,105.487404,66.464264,101.241932,116.991279,126.169624,55.655845,94.452644,113.341072,124.373726,44.722789,79.21487,97.196056,108.31327,34.38359,60.080291,74.879608,85.774097,-10.749771,-5.475459,6.623534,14.545149,24.581727,44.773544,52.661554,57.9681,41.747033,63.393208,71.294938,74.461327,52.973097,74.599413,82.026925,84.039421,59.887056,78.488232,84.434315,86.172428,66.219286,280.845125,-94.403692,281.085532
94,-2.502823,5.339682,7.384552,6.168829,-25.882896,-47.736008,-61.84996,-72.423305,-65.953182,-77.72755,-69.128529,-57.556148,-63.432861,-73.134098,-59.988968,-44.460972,-59.020821,-66.315433,-53.245411,-37.71888,-53.580162,-59.847015,-53.211502,-43.441177,25.143533,41.041485,51.752032,61.070737,41.88749,58.599683,69.616204,75.537118,36.335041,55.870673,68.309318,74.241619,29.605296,47.858619,59.041063,63.980602,21.800859,36.267425,45.389628,51.131601,33.43658,61.253242,83.928566,101.797783,63.513725,97.055946,112.570221,121.832359,52.961208,90.269748,109.177276,120.716102,42.361004,75.491432,93.498504,105.092651,32.249279,56.963161,71.614471,82.985996,-10.305143,-5.322688,6.29501,13.818569,24.070768,42.835211,50.70887,56.491413,40.617692,60.692887,68.811226,72.716174,51.65748,72.060434,79.784583,82.345224,58.605834,76.785946,82.920973,84.927589,63.989382,286.530149,-86.746221,287.599703
95,-2.873978,5.542396,6.953613,5.898486,-21.634369,-42.565315,-57.236389,-68.274479,-64.99506,-74.508968,-61.701954,-46.811737,-63.672512,-69.893119,-51.493652,-31.977951,-60.028827,-62.894645,-45.445266,-27.086723,-54.928459,-58.699539,-49.289589,-37.435958,30.752347,47.620559,58.965925,69.764578,41.326525,58.667004,70.426246,77.095932,33.407677,53.762551,67.571672,75.299378,24.980956,44.182506,57.168889,64.374792,15.977635,31.264851,41.578121,48.78301,31.566959,58.185379,80.073223,97.706039,60.180874,92.859215,108.128883,117.152596,49.556316,85.84536,104.47625,115.901459,38.914799,71.067204,88.802078,100.367134,28.740463,52.616627,67.271095,79.037853,-10.252162,-5.505358,5.735921,13.369149,23.582433,42.110434,49.644515,55.055272,39.710825,59.116473,67.065171,70.889275,50.42656,70.489503,78.269783,80.847776,57.014081,75.251942,81.435381,83.211409,61.296684,292.396364,-79.611328,293.822008
96,-3.129203,5.82152,1.596188,3.018162,-18.575707,-38.533974,-53.446976,-64.682408,-62.395729,-70.053498,-55.724488,-40.110581,-62.080445,-65.932034,-45.801705,-25.174439,-59.222374,-59.563511,-40.681618,-21.860367,-54.559182,-57.521794,-47.179757,-34.759438,34.275085,52.248691,64.54421,76.308504,42.063108,59.488865,70.45286,76.34648,32.241829,52.365288,65.52067,72.906698,22.168645,41.149178,54.055841,61.56437,11.618772,26.836395,37.216034,44.589651,30.635124,56.603771,78.167747,96.250568,58.111187,90.076984,106.16621,116.562343,47.566269,83.545063,103.087497,116.199932,37.279666,69.492439,88.067333,100.890277,27.599166,51.21619,66.11919,79.027072,-9.27485,-4.505248,7.437232,15.559227,23.273385,41.755456,49.631684,55.599194,39.391403,57.893716,66.074769,70.789475,50.052785,69.54492,77.685983,80.98779,56.475087,74.388672,80.729537,82.883528,58.293269,298.484909,-77.889352,297.107195
97,-3.400567,6.458994,2.810165,3.51518,-17.50177,-36.734298,-51.572753,-62.921928,-59.297561,-65.615592,-50.656242,-35.034942,-58.772037,-61.526641,-41.503784,-20.990524,-55.853439,-55.189853,-36.630592,-18.086357,-51.153968,-53.399494,-43.145164,-31.018775,33.507293,51.550751,63.800699,75.539946,41.948018,58.187068,67.467994,72.39028,32.102952,50.177879,61.72549,68.431461,21.844171,38.877405,50.555989,57.688001,10.961192,25.08981,34.785316,42.019463,29.808575,55.492664,76.706829,94.386715,56.288967,88.183491,104.320164,114.719799,45.505577,81.518772,101.03738,114.153912,35.136349,67.529961,86.002384,98.795254,25.616764,49.237129,64.161633,77.179012,-9.200207,-4.236449,8.045992,16.594818,23.381657,41.89858,49.569068,55.018789,39.458735,57.520286,65.232591,69.360347,50.006138,69.167538,76.590468,79.214935,56.203125,73.974289,79.831735,81.394107,54.969326,305.162669,-75.002563,300.841141
98,-4.81652,8.507811,1.791275,2.958771,-14.988098,-31.380982,-44.345261,-54.231068,-53.178383,-56.899098,-41.910553,-27.020783,-53.169182,-54.173573,-34.883881,-15.161774,-50.789589,-49.706829,-32.278633,-14.830765,-46.661797,-49.035221,-39.780579,-28.817459,24.962592,39.527859,50.268331,60.729752,35.340243,49.512469,57.264319,61.618229,29.545522,44.875025,54.877493,60.854797,22.767834,36.929451,46.697008,52.768951,14.93351,27.139837,35.070727,41.134766,29.319489,54.842011,75.696613,93.139812,54.707291,86.667355,102.847881,113.437214,43.721031,79.898952,99.322117,112.501522,33.319553,65.792461,84.216007,97.019245,23.943066,47.635323,62.548611,75.449924,-9.534536,-4.472546,7.941522,16.922008,23.156886,41.46897,48.924234,54.0242,39.406445,57.13689,64.404296,68.100108,49.877734,68.807891,75.523384,77.473536,55.804662,73.516681,78.841592,79.810271,50.195452,313.803283,-73.168642,303.932715
99,-5.997711,4.204808,1.491222,1.634163,-14.528595,-30.187615,-42.669617,-52.945668,-51.576165,-49.907193,-33.149643,-18.195877,-51.981835,-48.279282,-28.545823,-9.136162,-49.8452,-46.653992,-29.036156,-12.254357,-45.954518,-50.500534,-45.039734,-37.982953,17.449839,30.266471,43.105715,55.294864,30.286638,44.462199,51.019883,55.030263,28.871936,42.518098,51.307071,56.340002,25.842399,38.624698,46.310697,50.764112,21.781359,32.937806,39.912861,45.660107,28.731011,54.188187,74.630448,91.619248,53.273541,85.18174,101.37085,112.114037,42.068436,78.340325,97.733117,111.043946,31.528096,64.221463,82.618859,95.470505,22.127415,46.053818,60.926812,73.739411,-9.917635,-4.796328,7.90667,17.191746,22.538937,41.053909,48.436504,53.187964,39.089468,56.946896,64.108907,67.613823,49.671586,68.687527,75.109496,76.778659,55.502418,73.262244,78.301955,78.961672,44.228691,318.038241,-71.64647,305.597028
100,-8.815293,3.298571,0.975747,0.741795,-12.314598,-25.724029,-36.534965,-46.092991,-47.188659,-40.613147,-22.776123,-8.043777,-47.970314,-38.784233,-18.18322,0.970825,-45.775074,-38.428722,-19.967697,-3.458404,-41.668739,-45.935417,-41.623214,-35.763839,15.208361,27.625023,40.6922,52.575091,29.068636,42.331834,47.720484,51.665743,28.154854,40.258527,48.001918,52.713449,25.560595,37.305783,44.060871,48.225158,22.255726,33.038669,39.576506,45.40819,28.318576,53.672184,73.794754,90.408348,52.247852,84.229293,100.341293,111.18782,41.064537,77.392478,96.731872,110.17527,30.545288,63.435825,81.905616,94.917526,21.146461,45.427516,60.282463,73.053497,-10.281999,-5.292134,7.501131,16.94808,21.987506,40.262009,47.45655,51.864875,38.666972,56.382992,63.394603,66.796186,49.304345,68.16134,74.355968,75.846586,55.079811,72.857928,77.79102,78.353492,35.431297,321.299836,-70.652824,306.301847
101,-4.102615,1.873792,0.624218,0.762531,-13.459717,-27.265068,-38.666931,-49.517567,-48.104553,-38.111469,-18.429291,-3.202789,-48.486054,-35.789017,-14.115555,5.266296,-45.9035,-36.301289,-16.729157,-0.108513,-41.661701,-48.018002,-47.174744,-44.91877,10.586206,22.117256,36.639026,49.489584,25.905767,38.942551,43.240281,46.968734,27.816412,38.187381,44.820771,48.834659,27.742657,38.073723,43.117311,46.248094,27.212789,37.330013,43.646809,50.14315,27.955535,53.17638,73.208278,89.697109,51.238746,83.320644,99.557521,110.496196,40.161552,76.691837,96.15105,109.534549,29.830101,62.963264,81.552166,94.528804,20.638355,45.140842,60.090694,72.766399,-10.67698,-5.960977,6.704106,16.30548,21.306029,39.184033,46.194236,50.321498,38.202819,55.667651,62.508756,65.704106,48.951491,67.540501,73.481953,74.797657,54.691068,72.246216,77.00311,77.441723,31.321575,323.122298,-70.035713,307.013048
102,-5.756447,1.923908,0.471714,0.571673,-12.843841,-25.883984,-36.754337,-47.764446,-46.688976,-33.944389,-13.539825,1.87159,-46.851974,-30.636681,-8.143043,11.418778,-43.837189,-31.197224,-10.695671,5.930786,-39.094025,-44.480221,-43.52813,-41.409828,10.697506,22.429479,36.76501,49.294934,25.841201,38.094286,41.626385,45.222754,26.468919,35.854772,42.134369,46.083023,24.856542,34.683119,39.707133,43.056982,22.944514,32.339407,38.696328,45.550019,27.66584,52.555652,72.422126,89.067581,50.598152,82.529205,98.745277,109.693954,39.664501,75.99607,95.459587,108.81578,29.488929,62.452823,81.054679,94.017837,20.413456,44.828224,59.751731,72.404548,-11.073541,-6.616038,6.033806,15.676207,20.770418,38.380524,45.181578,49.068433,37.759241,55.027089,61.709669,64.791916,48.562821,66.88633,72.716445,74.024233,54.299002,71.702911,76.446047,76.97405,25.524965,324.965489,-69.604162,307.504004
103,0.315834,-4.202214,0.717464,0.286201,-15.650505,-32.644375,-47.226883,-62.128189,-54.567455,-41.048744,-18.600609,-1.724167,-53.59275,-35.260151,-10.823341,9.98307,-49.217834,-33.931698,-10.674637,7.390366,-43.022941,-49.662277,-50.111664,-49.224621,18.942124,34.49951,50.163231,63.174302,32.996481,46.19941,49.795161,53.606792,28.616931,39.229777,45.889868,50.063059,22.179155,33.954464,39.709664,43.737841,16.047166,26.759257,34.850351,43.696839,27.406586,52.06255,71.738606,88.258724,49.943047,81.716663,97.860363,108.758938,39.038418,75.258877,94.725277,108.029812,28.875309,61.787601,80.438976,93.43935,19.803486,44.185867,59.124344,71.775249,-11.278009,-6.939944,5.828683,15.465341,20.396704,37.914691,44.561542,48.26821,37.444128,54.568765,61.229041,64.258182,48.284882,66.426758,72.229543,73.53449,53.963784,71.300434,76.131379,76.696407,25.721786,320.683253,-69.005711,307.710183
104,0.963226,-2.530853,0.505554,0.308826,-15.1623,-32.696903,-48.096977,-63.023735,-56.384056,-43.884544,-22.136123,-5.300331,-54.634059,-36.65142,-11.934585,9.223183,-49.105751,-32.476192,-8.074791,10.540009,-41.586227,-45.37397,-42.912139,-39.379165,26.476934,44.362731,58.191365,69.40561,38.787706,51.992957,55.856619,59.783501,29.73843,41.665003,48.825853,53.680349,18.870777,31.828039,38.969721,44.395656,8.330093,19.927562,28.620612,37.853867,27.117726,51.581738,71.113735,87.60989,49.291306,81.013127,97.142292,108.083828,38.484719,74.692097,94.13197,107.434078,28.447437,61.33794,80.048664,93.151142,19.52266,43.846344,58.782166,71.460926,-11.554194,-7.386584,5.443336,15.1083,19.954979,37.393839,43.882239,47.526797,36.987978,54.058744,60.646426,63.732205,47.82147,65.851121,71.651485,73.084379,53.397668,70.695663,75.621419,76.309393,26.488969,318.082375,-68.6962,307.948984
105,2.276276,-1.074136,0.461357,0.256709,-15.868149,-34.056278,-49.636105,-64.708946,-58.17239,-47.070007,-25.808395,-8.707992,-55.875778,-39.477516,-15.574814,5.742279,-49.975044,-33.93869,-10.293526,8.220886,-42.184971,-43.95417,-39.862999,-34.851871,27.838666,46.051185,59.640412,71.05568,39.794583,53.089336,57.431724,61.394112,30.115157,42.419211,50.191562,54.989754,18.560346,31.775749,39.502986,45.083309,7.211114,18.896527,27.82266,37.02919,26.765477,51.083039,70.526425,87.011433,48.629162,80.34264,96.498356,107.512471,37.90765,74.086109,93.54459,106.861279,28.014267,60.94114,79.743771,92.945561,19.261711,43.58725,58.563675,71.327259,-11.744743,-7.728373,5.127593,14.857915,19.601322,36.964019,43.348493,46.972204,36.637248,53.565345,60.077223,63.171029,47.497367,65.345582,71.101672,72.597168,53.071379,70.306574,75.288646,76.107086,28.489448,316.914057,-68.51064,308.111511
106,0.227325,-1.38752,0.437416,0.291783,-15.400085,-34.229587,-50.691467,-66.278526,-59.709629,-49.15837,-27.833381,-10.491119,-57.400566,-40.53947,-16.260292,5.488724,-50.939792,-33.425983,-9.035751,9.877694,-42.277153,-42.006259,-35.183418,-27.557922,32.528956,52.01751,64.011922,73.923259,43.991142,57.14577,61.642151,65.715851,30.481757,43.923846,52.207738,57.501774,15.312522,29.948123,38.79424,45.322839,0.533524,13.123889,22.460194,31.886777,26.458065,50.595475,69.9222,86.450879,48.224785,79.955441,96.033497,107.008564,37.515026,73.622212,92.961331,106.217183,27.651856,60.523728,79.307614,92.580128,18.974419,43.298664,58.252304,71.058644,-11.919015,-8.077238,4.765267,14.504319,19.184186,36.523158,42.831086,46.551437,36.229819,52.984904,59.440872,62.587352,47.126939,64.77596,70.516068,72.144278,52.68471,69.86575,74.823641,75.689703,28.376558,315.410255,-68.413439,308.287012
107,-0.737777,-2.257965,0.455189,0.254239,-15.110573,-33.563793,-49.481529,-64.262421,-60.859909,-48.935818,-26.8377,-9.17434,-58.675713,-40.586746,-15.696717,6.324463,-52.15091,-33.439247,-8.450386,10.636642,-43.213154,-41.762112,-34.141342,-26.067284,32.776056,52.883769,65.69672,75.973137,44.748362,59.004902,63.87013,68.09723,31.516669,46.049159,54.723388,60.092623,16.670215,32.170087,41.174483,47.729054,2.220804,15.66619,25.143841,34.613008,26.046021,50.101799,69.428925,85.886559,47.857292,79.570656,95.575813,106.505585,37.203221,73.218269,92.476227,105.663277,27.374954,60.217003,79.000534,92.295731,18.755676,43.173775,58.114426,70.920914,-12.14995,-8.401885,4.479696,14.210424,18.836938,36.17796,42.432771,46.213551,35.890376,52.518219,58.982227,62.184925,46.828746,64.327787,70.071033,71.7728,52.389889,69.537274,74.479518,75.379481,27.246803,313.019829,-68.350228,308.40879
108,-1.308403,0.03269,0.24622,0.412356,-14.177742,-31.69756,-46.819359,-61.015286,-59.15831,-47.131188,-24.913857,-7.284004,-57.832775,-39.147434,-14.108437,8.157303,-51.971833,-32.596207,-7.365601,11.954475,-43.629193,-41.904373,-33.954746,-25.364285,32.590324,53.03097,66.08045,76.072111,45.108689,59.324424,63.889496,68.044768,31.887147,46.318799,54.646497,59.882425,16.948414,32.340766,41.109374,47.723226,2.326953,15.820987,25.34626,35.079347,25.72895,49.734226,69.031894,85.516193,47.630996,79.288799,95.2943,106.191685,36.990589,72.956531,92.142757,105.19891,27.207138,60.083954,78.861294,92.087848,18.676849,43.198425,58.142978,70.936512,-12.463542,-8.837706,4.08153,13.795228,18.309146,35.720712,41.983439,45.789536,35.426656,51.972408,58.414643,61.622552,46.467037,63.819607,69.496545,71.212342,52.133823,69.180074,74.066594,75.021206,25.5336,312.915103,-68.508808,308.68373
109,-2.507561,1.255386,0.258728,0.326994,-13.356789,-29.674484,-43.199627,-56.076691,-56.243385,-43.849205,-21.774605,-4.170021,-54.999813,-35.642269,-10.776695,11.442558,-49.458595,-29.206696,-4.491371,14.705246,-41.503498,-37.594093,-28.439609,-18.84811,31.665871,51.895899,64.841354,74.63219,44.145185,58.291068,62.616771,66.544084,30.977601,45.411513,53.663282,58.619456,16.198739,31.444767,40.126431,46.466802,1.776745,15.260355,24.767127,34.271392,25.319698,49.297657,68.662296,85.160145,47.473034,79.190105,95.233578,106.121807,36.801681,72.844425,92.021129,104.983646,26.944519,59.973736,78.722271,91.831341,18.386638,43.075916,58.043495,70.825573,-12.760995,-9.269157,3.661552,13.382327,17.881141,35.415096,41.826839,45.75335,35.073122,51.552269,58.088847,61.366114,46.160532,63.43868,69.093462,70.799045,51.847412,68.866529,73.702883,74.632004,22.633736,314.055704,-68.642383,308.895939
110,1.642593,-1.056982,0.226147,0.237306,-14.146133,-32.279445,-48.099231,-63.067165,-59.25904,-46.54906,-23.068336,-5.067146,-58.552688,-38.670742,-12.509216,10.286271,-53.227695,-33.071937,-6.739631,13.201241,-45.476783,-45.38039,-38.995067,-31.802146,31.941377,52.52763,65.811749,75.175545,44.889919,59.380456,63.342968,67.215546,31.359157,45.933637,53.792155,58.724235,16.14982,31.659832,39.840391,46.154271,1.551257,15.148118,25.137148,35.720243,24.981365,49.043746,68.47174,84.857757,47.391723,79.207923,95.299873,106.190574,36.64532,72.870803,92.06742,104.964752,26.673374,59.888648,78.620086,91.622612,18.049507,42.86436,57.859073,70.600891,-13.03503,-9.660345,3.333053,13.102388,17.446665,35.179371,41.736067,45.793402,34.721973,51.267897,57.883552,61.259274,45.852942,63.142267,68.769088,70.485589,51.516368,68.520122,73.310719,74.180066,23.907165,312.921787,-68.7854,309.05631
111,-2.89508,0.620926,0.219429,0.189698,-12.366943,-28.160454,-41.356716,-53.774506,-55.185974,-41.402619,-18.90802,-1.533257,-54.218376,-34.069336,-8.706619,13.538246,-48.866604,-28.665035,-3.561356,15.668129,-41.133488,-38.700222,-31.043209,-22.802639,31.747393,52.549044,65.894939,75.373652,44.183654,58.839682,62.85525,66.602969,30.626129,45.320776,53.3343,58.296748,15.443802,30.642271,39.184724,45.530493,0.794135,13.846196,23.650234,33.608649,24.710048,48.851097,68.404197,84.616767,47.494159,79.249351,95.34629,106.220123,36.752391,72.988037,92.135559,104.953193,26.696777,59.964649,78.641143,91.54319,17.975578,42.834777,57.81023,70.493431,-13.310437,-9.964763,3.079258,12.918606,17.216187,35.058821,41.723086,45.843469,34.505278,51.094007,57.781602,61.244824,45.602296,62.944121,68.558222,70.259594,51.190721,68.152608,72.882023,73.696461,20.650383,313.489333,-68.927673,309.192628
112,2.475403,-0.821491,-0.014203,0.002161,-13.206826,-30.891083,-46.592251,-61.634262,-57.357971,-44.805451,-21.803398,-4.099869,-56.916172,-37.644276,-11.885651,10.646965,-51.972725,-32.677677,-6.876435,12.768928,-44.676716,-45.609879,-39.595562,-32.379467,32.471751,53.424172,66.5675,75.567079,45.244935,59.964034,63.901945,67.564028,31.255984,45.973602,53.83517,58.648849,15.724224,31.293602,39.700674,46.019692,0.995812,14.483633,24.641354,35.219372,24.563084,48.868287,68.487568,84.553402,47.537007,79.400906,95.613202,106.526631,36.754589,73.16074,92.393773,105.246746,26.632302,60.031895,78.729985,91.571286,17.870362,42.806305,57.822075,70.421917,-13.424206,-10.06202,3.008554,12.899031,17.107878,35.055524,41.889022,46.116307,34.408614,51.162007,57.988083,61.584674,45.436385,62.934402,68.568065,70.281837,50.941385,67.922958,72.631292,73.373964,22.794949,312.630421,-69.272713,309.157368
113,-5.237824,0.718948,-0.031746,-0.150251,-10.424492,-24.582138,-36.281959,-47.433437,-50.810119,-35.826679,-13.774452,2.839897,-50.732139,-30.192798,-5.079185,16.436074,-46.470474,-26.911434,-2.206375,16.518128,-39.692058,-38.398178,-31.131454,-23.127651,28.413723,48.181512,62.049963,71.863363,41.645194,56.907031,61.053583,64.511112,30.467221,45.433125,53.349268,57.888319,17.697952,33.022762,41.345112,47.234965,5.407446,18.947274,28.643126,38.122407,24.426396,48.825257,68.554448,84.643147,47.697155,79.670186,95.969845,106.932164,36.949082,73.463505,92.757466,105.65411,26.781075,60.253739,78.962002,91.797696,17.972752,42.935853,57.926743,70.504773,-13.427022,-9.995749,3.089398,12.996807,17.217768,35.199921,42.202491,46.632244,34.454321,51.327597,58.292735,62.047221,45.371745,63.016728,68.737632,70.509831,50.768941,67.827542,72.557104,73.300122,17.272728,313.319951,-69.588856,308.977699
