takenoko1/special-research/HandMotion_SimilarSearch_自分用/NewProject/handData/key/d4_feature_d3/73.csv
,vel_0x_L,vel_0y_L,vel_0x_R,vel_0y_R,posFromWrist_1x_L,posFromWrist_2x_L,posFromWrist_3x_L,posFromWrist_4x_L,posFromWrist_5x_L,posFromWrist_6x_L,posFromWrist_7x_L,posFromWrist_8x_L,posFromWrist_9x_L,posFromWrist_10x_L,posFromWrist_11x_L,posFromWrist_12x_L,posFromWrist_13x_L,posFromWrist_14x_L,posFromWrist_15x_L,posFromWrist_16x_L,posFromWrist_17x_L,posFromWrist_18x_L,posFromWrist_19x_L,posFromWrist_20x_L,posFromWrist_1y_L,posFromWrist_2y_L,posFromWrist_3y_L,posFromWrist_4y_L,posFromWrist_5y_L,posFromWrist_6y_L,posFromWrist_7y_L,posFromWrist_8y_L,posFromWrist_9y_L,posFromWrist_10y_L,posFromWrist_11y_L,posFromWrist_12y_L,posFromWrist_13y_L,posFromWrist_14y_L,posFromWrist_15y_L,posFromWrist_16y_L,posFromWrist_17y_L,posFromWrist_18y_L,posFromWrist_19y_L,posFromWrist_20y_L,posFromWrist_1x_R,posFromWrist_2x_R,posFromWrist_3x_R,posFromWrist_4x_R,posFromWrist_5x_R,posFromWrist_6x_R,posFromWrist_7x_R,posFromWrist_8x_R,posFromWrist_9x_R,posFromWrist_10x_R,posFromWrist_11x_R,posFromWrist_12x_R,posFromWrist_13x_R,posFromWrist_14x_R,posFromWrist_15x_R,posFromWrist_16x_R,posFromWrist_17x_R,posFromWrist_18x_R,posFromWrist_19x_R,posFromWrist_20x_R,posFromWrist_1y_R,posFromWrist_2y_R,posFromWrist_3y_R,posFromWrist_4y_R,posFromWrist_5y_R,posFromWrist_6y_R,posFromWrist_7y_R,posFromWrist_8y_R,posFromWrist_9y_R,posFromWrist_10y_R,posFromWrist_11y_R,posFromWrist_12y_R,posFromWrist_13y_R,posFromWrist_14y_R,posFromWrist_15y_R,posFromWrist_16y_R,posFromWrist_17y_R,posFromWrist_18y_R,posFromWrist_19y_R,posFromWrist_20y_R,posFromBody_0x_L,posFromBody_0y_L,posFromBody_0x_R,posFromBody_0y_R
7,-0.146851,0.231786,0.278721,0.059256,-15.562591,-34.921669,-49.860638,-59.563694,-57.088131,-55.825149,-38.17028,-22.658569,-59.033821,-56.192402,-35.550224,-13.671455,-58.14172,-59.296932,-40.46846,-20.82431,-54.441524,-66.034927,-66.887878,-63.347751,-1.188745,1.956772,10.138084,15.997469,12.44771,25.371515,31.441161,34.915758,20.823622,31.576728,37.22137,40.166951,27.276565,36.461951,40.76698,43.292707,31.88033,40.309137,42.172938,43.496632,26.183315,50.035709,70.515243,86.04673,48.63232,80.816047,97.891319,110.48664,38.463031,74.218368,94.048965,107.770065,28.882976,62.391986,81.388595,94.881637,20.61288,46.358058,61.917228,74.887184,-12.583734,-11.107232,-1.300933,8.618159,15.233345,32.834645,39.828015,43.987054,32.256884,49.425783,55.811751,58.488916,43.960637,62.030042,67.122438,67.436365,51.000863,67.343764,71.449339,70.944986,46.491251,316.19802,-73.449262,302.522354
8,-0.405327,0.176878,0.240383,0.189709,-15.946655,-34.604278,-48.57883,-56.526741,-56.370872,-54.162094,-36.930931,-21.770919,-58.408115,-55.061657,-34.803611,-13.09806,-57.544498,-58.569889,-40.328224,-21.06443,-53.804374,-65.282089,-66.706798,-63.609054,-6.749221,-5.385192,3.413847,9.707152,9.699359,23.035176,29.100771,32.361439,21.155296,31.966558,37.046604,39.487326,30.341966,39.152009,42.590148,44.329163,37.420786,45.82109,46.853545,47.121813,25.90987,49.844433,70.32082,85.867412,48.416874,80.689556,97.80479,110.369327,38.297435,74.025798,93.880542,107.547878,28.76889,62.289058,81.283596,94.715938,20.549286,46.366504,61.92342,74.838695,-12.833341,-11.359445,-1.522221,8.378432,15.003856,32.564055,39.558031,43.721997,32.088577,49.219895,55.560576,58.169901,43.873483,61.930859,66.917329,67.091675,50.945325,67.336824,71.336769,70.682733,46.188297,316.288865,-73.106506,302.62603
9,-0.493881,-0.923935,0.136081,0.131578,-15.894562,-34.153084,-47.530071,-55.401123,-57.406711,-54.889229,-36.938278,-21.208259,-59.843067,-56.111126,-35.177032,-12.902893,-59.268276,-59.423435,-40.281486,-20.152519,-55.669098,-65.835045,-65.363651,-60.247009,-3.284343,0.121068,10.159907,16.875956,11.778076,24.885429,31.098928,34.839842,21.881259,32.867942,38.388194,41.248226,29.983185,39.143167,42.920501,44.947915,36.081334,44.639731,46.134659,47.093631,25.718388,49.714566,70.201149,85.808121,48.211361,80.626488,97.818741,110.373871,38.130764,73.886124,93.783303,107.434067,28.679558,62.260907,81.251496,94.616616,20.563568,46.419514,61.985024,74.865876,-13.019383,-11.556491,-1.771162,8.113276,14.770872,32.290921,39.296085,43.465609,31.933398,49.037015,55.332655,57.869843,43.810831,61.868602,66.770647,66.824616,50.931592,67.405132,71.321677,70.516414,45.793396,315.305316,-72.871445,302.697994
10,-1.232414,1.224153,0.122017,0.204406,-15.168205,-33.003868,-46.693463,-55.303219,-56.665386,-53.163506,-34.973007,-19.155693,-59.449036,-54.604065,-33.602715,-11.449928,-59.03215,-58.070767,-38.903938,-18.924683,-55.439266,-63.999436,-61.736103,-55.115318,-4.251677,-1.857329,7.170618,13.416994,10.661912,23.26101,29.57946,33.347285,21.216466,31.730029,37.326321,40.091208,29.648546,38.376794,41.991293,43.849573,35.98341,44.128265,45.148505,45.689599,25.572018,49.587879,70.081375,85.823067,47.95055,80.532852,97.844628,110.41642,37.920594,73.804047,93.806717,107.419442,28.579823,62.335121,81.35891,94.633622,20.597122,46.558972,62.150574,74.955849,-13.207771,-11.786017,-2.05262,7.773624,14.487067,31.980798,38.967548,43.087165,31.746505,48.802462,55.01238,57.410606,43.757528,61.808359,66.580418,66.442344,50.975212,67.483543,71.281008,70.292989,44.651739,316.487349,-72.658671,302.86028
11,3.320618,-3.363187,0.177098,0.192094,-18.355774,-38.733536,-54.126423,-65.122181,-62.947587,-60.849976,-40.820549,-23.815796,-65.431298,-61.268235,-38.317109,-14.770318,-64.588463,-63.490517,-42.01117,-20.113747,-60.596421,-68.529854,-62.913506,-53.004548,0.630842,5.814123,16.52283,24.319264,14.362701,27.711572,34.555679,38.66649,23.493117,34.689801,41.268257,44.384665,30.83061,40.620014,44.877495,46.788139,36.313034,45.176725,46.574952,47.798425,25.396877,49.402885,69.891437,85.782795,47.680172,80.472416,97.880687,110.447696,37.660068,73.757572,93.857242,107.436412,28.38517,62.345993,81.412021,94.655239,20.502651,46.627819,62.241886,74.983234,-13.457268,-12.089471,-2.340786,7.428537,14.227245,31.744145,38.68084,42.735459,31.571787,48.590127,54.719386,57.000409,43.649242,61.710348,66.39408,66.155414,50.860504,67.416666,71.111255,69.99708,48.06098,313.095886,-72.39295,303.024098
12,-0.986687,1.376195,0.126102,0.032653,-16.283409,-35.051308,-48.669182,-57.641567,-60.037182,-57.221855,-38.341255,-22.014748,-63.304676,-59.104454,-37.138069,-14.18335,-62.994999,-62.200001,-41.756058,-20.656838,-59.475895,-67.178902,-62.281059,-53.420563,-4.097968,-0.115103,10.939838,18.408131,10.918794,24.485631,31.501194,35.653625,22.007377,33.299625,39.659856,43.048571,31.244164,40.785257,44.498149,46.224283,38.41193,47.038709,47.880898,48.64464,25.254078,49.250118,69.702141,85.683266,47.542236,80.437134,97.912834,110.522667,37.477295,73.712723,93.86705,107.460526,28.176956,62.260632,81.358337,94.623688,20.287045,46.542618,62.18993,74.906044,-13.677012,-12.320677,-2.529433,7.17625,14.048589,31.608801,38.543459,42.571525,31.462057,48.489091,54.584993,56.805019,43.590258,61.700555,66.351756,66.093874,50.786058,67.413444,71.040268,69.841532,47.15728,314.441373,-72.183861,303.026043
13,-3.245499,3.738444,0.223457,-0.005471,-14.07431,-31.776306,-45.592918,-54.488628,-57.551205,-53.27536,-34.270729,-17.991852,-61.505894,-55.736664,-33.570053,-10.867996,-61.661224,-59.119709,-38.456589,-17.61161,-58.396843,-63.995888,-56.24192,-45.131229,-5.633985,-4.282836,3.853954,9.699989,7.361303,19.638261,26.708041,31.112624,18.894996,28.955348,35.820697,39.60969,28.545029,37.045356,41.115906,43.111902,36.187655,44.140096,44.78703,45.276896,25.185917,49.128903,69.601227,85.50673,47.430291,80.312714,97.71753,110.301041,37.408585,73.597161,93.703835,107.331368,28.115754,62.135399,81.168297,94.425797,20.210324,46.439175,62.002716,74.668328,-13.615064,-12.308067,-2.4817,7.220994,14.010786,31.574875,38.494639,42.546009,31.42308,48.365677,54.511806,56.78206,43.528051,61.573102,66.286708,66.103495,50.720195,67.367773,71.006836,69.829712,43.979484,318.148216,-71.892701,302.988971
14,-2.315872,-0.301009,0.272862,0.021959,-14.108528,-31.604324,-46.441727,-56.743813,-58.731205,-52.682671,-32.093308,-15.313088,-63.355957,-54.949642,-31.122917,-7.837189,-63.590389,-58.411549,-35.852806,-14.308571,-60.442246,-64.119839,-53.121643,-39.743156,-7.18308,-7.140521,0.462276,6.83645,5.38613,18.140925,25.325573,29.648942,18.59836,28.482773,35.902159,39.646889,29.470755,37.619808,41.790209,43.639387,38.19978,46.00176,46.007503,45.914235,25.073261,48.927235,69.3624,85.206425,47.401245,80.172855,97.463734,110.015385,37.449474,73.462955,93.50861,107.191807,28.117,61.962398,80.938763,94.219768,20.108436,46.258404,61.731995,74.374821,-13.631021,-12.387763,-2.536065,7.185438,13.864523,31.437925,38.351995,42.399253,31.244016,48.067187,54.288047,56.636699,43.343219,61.301288,66.106347,66.030851,50.594446,67.264353,70.927116,69.781831,41.705481,317.822529,-71.57797,302.986252
15,-6.577446,0.863691,0.304928,-0.024861,-11.045471,-25.785988,-37.82666,-46.641552,-55.44706,-47.073647,-25.562714,-8.684486,-61.085667,-49.280651,-24.176697,-0.888794,-61.784912,-53.275326,-29.423058,-7.670654,-58.967274,-59.869835,-46.886261,-32.365036,-6.494575,-6.193369,1.716377,8.808251,4.400075,17.499239,24.647924,29.143341,17.420248,27.239835,34.993106,39.218798,28.062771,36.354715,40.728694,42.847981,36.541547,44.355111,44.6299,45.022497,24.907287,48.657646,69.089012,84.873573,47.303226,80.025924,97.242851,109.766281,37.399097,73.248962,93.23442,106.9216,28.000843,61.712482,80.633514,93.900146,19.894809,46.036102,61.434265,74.048607,-13.611199,-12.369793,-2.482725,7.221612,13.753533,31.414275,38.374472,42.519728,31.053368,47.877132,54.261421,56.808959,43.121869,61.057597,65.967372,66.049475,50.398722,67.106186,70.823486,69.765751,35.162144,318.671714,-71.238933,302.946885
16,-2.310448,0.38568,0.310741,0.027553,-10.22406,-23.883156,-35.442661,-43.596325,-53.915977,-43.997429,-22.619705,-5.994575,-59.848274,-46.385215,-21.441536,1.576676,-60.653171,-50.82566,-27.067772,-5.707901,-57.943588,-57.80492,-44.472152,-30.168983,-8.034062,-8.51532,-0.744364,6.428712,3.161547,16.276013,23.20415,27.427582,17.147151,26.793541,34.511577,38.530553,28.529098,36.50267,40.57748,42.457126,37.601382,45.223952,44.99881,44.791366,24.71014,48.410648,68.879505,84.620052,47.375233,79.97517,97.062573,109.48756,37.486176,73.105145,92.974171,106.619328,27.977303,61.511868,80.343762,93.550747,19.723503,45.80167,61.131191,73.745144,-13.639073,-12.385688,-2.460062,7.164431,13.764438,31.41341,38.378696,42.586431,31.010884,47.647322,54.073119,56.744158,43.04394,60.806989,65.742156,65.909611,50.328475,67.003902,70.737777,69.740619,32.87685,319.047113,-70.903038,302.964157
17,-6.831985,2.418455,0.284317,0.071556,-6.964943,-17.549492,-26.89587,-33.289662,-48.526692,-35.553589,-14.084152,2.153183,-55.316975,-38.329079,-13.077965,9.473739,-56.510079,-43.70414,-19.757012,1.054207,-54.047196,-51.3872,-37.081558,-22.519615,-10.894217,-13.693005,-7.799237,-1.228993,0.586357,13.169696,19.609844,23.641071,15.612493,24.692496,32.115821,35.913842,27.692405,35.185299,38.950332,40.686556,37.245984,44.428952,43.954796,43.36093,24.516358,48.203728,68.716496,84.452305,47.253777,79.842556,96.875942,109.230824,37.425293,72.943325,92.784794,106.427822,27.9333,61.394612,80.195469,93.357754,19.706944,45.746407,61.040543,73.662014,-13.722794,-12.46479,-2.49568,7.100841,13.801859,31.413262,38.347302,42.552184,31.006413,47.480806,53.913717,56.628413,42.984709,60.601361,65.546111,65.7468,50.244211,66.880315,70.633962,69.690453,26.065453,321.446441,-70.598133,303.016586
18,0.828781,-3.8378,0.22189,0.068864,-9.056877,-20.576431,-31.073536,-39.638844,-52.117802,-39.166111,-16.187302,0.857758,-58.808624,-41.095459,-14.47609,8.792793,-59.682793,-46.050293,-20.468193,1.446075,-57.166809,-54.322025,-38.944405,-23.490028,-8.796865,-9.600238,-1.604165,6.899781,3.347403,17.061725,23.420326,27.265746,18.535078,28.278045,35.850597,39.400566,30.547484,38.606407,42.291326,43.696518,39.931163,47.646346,46.858608,46.053371,24.41312,48.069786,68.520195,84.276672,47.118118,79.690956,96.738807,109.093345,37.27613,72.763893,92.63047,106.282219,27.77901,61.237438,80.070465,93.259231,19.570953,45.592037,60.919544,73.60057,-13.807676,-12.580498,-2.602372,6.974166,13.7934,31.400739,38.313476,42.498066,30.963349,47.359429,53.742594,56.482843,42.927825,60.481614,65.377631,65.603848,50.191279,66.791172,70.516896,69.607979,26.910891,317.586238,-70.359586,303.063047
19,-4.585442,2.90364,0.211727,0.14436,-6.176925,-15.418556,-23.656871,-30.476303,-46.837875,-32.157543,-10.196479,5.935204,-53.958171,-34.477729,-8.789589,13.329415,-55.107433,-40.155155,-15.782089,4.896653,-52.644653,-48.526096,-34.00938,-19.395561,-10.664086,-12.652993,-5.709554,2.036072,1.609759,15.021072,21.074773,25.027504,16.733991,26.0081,32.916514,36.580895,28.623292,36.43194,39.698426,41.063073,37.820028,45.38969,44.626393,43.75071,24.292591,47.962589,68.432178,84.320949,46.827072,79.524135,96.693363,109.117687,36.993622,72.589016,92.542888,106.200107,27.589908,61.161197,80.045391,93.228252,19.534458,45.643982,61.007915,73.698429,-13.898313,-12.678668,-2.696702,6.822507,13.866574,31.455117,38.33536,42.521248,31.036239,47.35838,53.628726,56.325503,42.985413,60.490988,65.247363,65.398725,50.200788,66.757,70.387949,69.465558,22.341528,320.462217,-70.13178,303.179746
20,6.239479,-3.785485,0.326488,0.242408,-10.676399,-23.403991,-35.337478,-45.29948,-53.720054,-40.876545,-17.991531,-1.005683,-59.885948,-42.274189,-15.99607,7.045281,-60.303554,-46.890838,-21.693626,0.101372,-57.390941,-54.966751,-40.252967,-25.141296,-7.203618,-6.995939,1.220632,9.754922,5.715803,19.25873,25.17605,28.89566,20.191026,29.411906,36.509844,39.803747,31.39733,39.150897,42.578032,43.718303,40.06673,47.865362,46.992693,46.090631,24.229454,47.863907,68.275978,84.249184,46.616387,79.244614,96.392739,108.785248,36.835018,72.441193,92.406533,106.109139,27.55679,61.128777,80.017685,93.233483,19.641037,45.679276,61.008889,73.709748,-14.040414,-12.926955,-2.973727,6.547186,13.779814,31.235618,38.083801,42.233984,31.003387,47.176228,53.302955,55.900314,42.978472,60.355915,64.991444,65.071485,50.205172,66.646046,70.203809,69.290248,28.594373,316.641673,-69.791926,303.387095
21,-5.949165,2.561209,0.318993,0.214224,-5.892677,-14.979149,-23.372509,-30.221455,-46.431301,-31.691814,-10.088791,5.8144,-53.220875,-33.97934,-8.700188,13.261162,-54.095112,-39.271534,-15.494865,4.974884,-51.413074,-47.535679,-33.587929,-19.269745,-8.962726,-9.390867,-1.723713,6.174473,4.228248,17.290017,22.897757,26.836445,18.400548,27.278973,33.897345,37.602493,29.279501,36.847866,40.175102,41.736733,37.604198,45.195361,44.66758,44.126375,24.097046,47.730801,68.123382,84.054474,46.403881,78.953659,96.093819,108.478226,36.740845,72.28244,92.217979,105.926124,27.579586,61.070938,79.902328,93.096359,19.754825,45.674354,60.915916,73.542068,-14.136954,-13.158691,-3.293569,6.306323,13.524143,30.87076,37.739246,41.893826,30.767267,46.868328,53.008567,55.637097,42.776511,60.06927,64.692585,64.787977,50.063159,66.399626,69.926723,69.033528,22.656103,319.163479,-69.462038,303.561916
22,4.098908,-2.635643,0.350887,0.208482,-9.038659,-20.541527,-31.549839,-40.883172,-51.452889,-38.500329,-15.837204,0.869361,-57.624104,-39.991574,-13.814072,8.879173,-58.123215,-44.699261,-19.854973,1.641815,-55.315796,-53.093869,-38.655465,-23.666497,-6.439963,-5.486265,3.380798,12.434828,6.331195,19.429013,25.052957,28.898069,20.408313,29.106377,36.078135,39.65525,31.130432,38.529762,42.015634,43.444008,39.404111,46.947627,46.163595,45.472546,23.974743,47.568638,67.938755,83.892506,46.306503,78.731724,95.808804,108.173161,36.691853,72.095341,92.012615,105.68993,27.522801,60.905857,79.681996,92.811962,19.639252,45.491924,60.653137,73.177426,-14.153553,-13.241758,-3.487169,5.982936,13.227889,30.466282,37.376364,41.622038,30.495305,46.493688,52.686612,55.426985,42.570487,59.779759,64.369099,64.486227,49.956404,66.192638,69.652229,68.739435,26.764166,316.504031,-69.101996,303.746593
23,-7.31424,3.878271,0.349056,0.179953,-4.554405,-12.299194,-19.140484,-25.008247,-43.165558,-28.196125,-6.687309,8.901352,-49.846619,-30.35701,-5.027344,16.490776,-50.850185,-35.878017,-12.347511,7.623871,-48.391422,-44.100323,-30.040649,-15.826813,-8.763211,-9.753304,-2.488159,5.57731,3.644979,15.914502,21.31108,25.316051,17.604833,25.843276,32.424907,36.218198,28.222273,35.398659,38.664588,40.23684,36.252309,43.552887,43.027428,42.52746,23.77414,47.335511,67.740715,83.758851,46.3083,78.550278,95.599709,107.969284,36.733727,71.930947,91.80645,105.479714,27.503712,60.734368,79.427445,92.512116,19.503972,45.2776,60.354046,72.790558,-14.180204,-13.367013,-3.804035,5.623375,13.055136,30.189851,37.119717,41.363995,30.230482,46.158557,52.395385,55.127223,42.296871,59.505501,64.091704,64.18843,49.724211,65.963334,69.389037,68.440551,19.455162,320.364027,-68.747704,303.908271
24,5.562012,-3.505781,0.277165,0.075953,-8.736145,-19.656784,-29.46357,-37.982243,-49.171486,-36.881882,-14.330727,2.436218,-54.702828,-38.082184,-11.92852,10.83229,-54.981594,-42.27919,-17.715592,3.562958,-52.071499,-49.566136,-35.138741,-20.251694,-3.41108,-1.748623,6.721718,15.475469,8.006386,20.37818,25.9639,29.886237,20.025449,28.672001,35.939259,39.554437,28.957202,36.630789,40.73944,42.512973,35.570103,43.253805,43.507513,43.78245,23.647739,47.190559,67.607036,83.564243,46.392506,78.406071,95.344974,107.675068,36.823471,71.813312,91.631847,105.310535,27.502464,60.562088,79.187061,92.233463,19.358608,45.015369,60.038429,72.414493,-14.234211,-13.529367,-4.071167,5.333482,12.77353,29.810839,36.740112,40.98675,29.903835,45.736777,52.053856,54.860659,41.999432,59.160736,63.786113,63.937118,49.513827,65.722347,69.135551,68.146409,25.017597,316.845198,-68.470116,303.971176
25,-5.280487,3.985619,0.236263,0.041966,-4.263108,-11.966584,-18.676335,-24.121331,-40.738701,-27.362366,-6.3433,9.381546,-47.070946,-29.975682,-5.18985,16.635086,-48.297146,-35.252049,-12.440277,7.401397,-46.306858,-42.780224,-29.451084,-15.587357,-8.00583,-9.46162,-3.010407,4.736071,3.059943,14.959173,20.573459,24.675477,16.326994,25.163503,32.101569,36.017113,26.347234,33.85144,37.886311,39.985096,33.864432,41.096443,41.392857,41.382508,23.34795,46.849995,67.363037,83.285042,46.572224,78.387108,95.254646,107.576637,37.016304,71.826142,91.600067,105.223595,27.493733,60.451698,78.99408,91.925125,19.089615,44.755131,59.726475,71.986359,-14.363974,-13.801279,-4.439163,4.98227,12.516117,29.549745,36.475104,40.726298,29.59018,45.303807,51.716402,54.612299,41.695063,58.849007,63.543495,63.756213,49.290549,65.562512,68.970999,67.934987,19.733889,320.82492,-68.237074,304.007245
26,6.365341,-3.146159,0.191151,0.127687,-9.535492,-21.446022,-32.043583,-41.273747,-48.608608,-38.069161,-15.700287,1.427879,-53.409233,-38.7407,-13.142532,9.886757,-53.369053,-42.124535,-18.071961,3.112976,-50.405251,-48.203819,-34.124977,-19.320236,-0.6724,0.351694,6.83025,14.395973,8.900408,21.07134,27.212493,31.273966,18.753008,28.063475,36.013742,39.743183,25.533907,33.605303,38.686349,40.975733,30.199126,37.79639,38.910553,39.530551,23.22155,46.656784,67.215786,83.228771,46.574409,78.37492,95.214214,107.540371,36.969646,71.834232,91.682041,105.317242,27.322368,60.377426,78.956257,91.850086,18.799438,44.539261,59.538688,71.757809,-14.50343,-14.09631,-4.808863,4.561454,12.172451,29.260556,36.167476,40.449941,29.248515,44.980668,51.479269,54.495282,41.404504,58.634573,63.359665,63.639703,49.078005,65.390278,68.795035,67.734336,26.093285,317.667631,-68.051868,304.123802
27,-4.11612,3.237438,0.144127,0.173593,-6.112976,-15.43634,-23.499492,-30.106613,-41.868095,-29.913288,-9.014717,7.193619,-47.165657,-31.725139,-7.516227,14.688012,-47.709079,-35.889472,-13.603477,6.223938,-45.293907,-42.087066,-29.345478,-15.737228,-3.882322,-4.896881,-0.137579,6.195432,5.832994,17.640364,23.665401,27.730703,16.062159,25.497561,32.880391,36.584403,23.170682,31.113649,35.962094,38.394394,28.104922,35.451616,36.675336,37.193805,23.064926,46.433841,67.080036,83.082332,46.57616,78.294811,95.095905,107.423298,37.060249,71.915828,91.794445,105.479839,27.385792,60.465637,79.028171,91.896572,18.78376,44.540863,59.518215,71.694935,-14.64432,-14.485325,-5.309473,4.149344,11.887967,28.947445,35.815523,40.063297,28.943628,44.589009,51.106407,54.146195,41.13831,58.31946,63.073303,63.386539,48.900411,65.213758,68.632038,67.558149,21.964456,320.890381,-67.92045,304.282707
28,7.235344,-4.307696,0.02005,0.182015,-11.083076,-24.596054,-37.104332,-47.593986,-50.267063,-40.478931,-18.196952,-0.734504,-54.530925,-41.302391,-16.175788,7.222733,-54.19606,-44.109844,-20.480003,0.765999,-51.125747,-49.378463,-35.821449,-21.394615,1.421742,3.515686,9.728111,16.683269,10.821896,23.494476,29.85231,33.744995,19.569928,29.460973,37.572545,40.974844,25.30995,33.705314,39.30615,41.708217,29.160187,37.072107,38.727784,39.537369,22.956413,46.270374,66.983448,83.046283,46.531391,78.191402,94.952488,107.251613,37.128502,72.025966,91.967823,105.67622,27.478054,60.606136,79.194729,92.022663,18.868377,44.668339,59.64957,71.797519,-14.783394,-14.782604,-5.657387,3.749424,11.642954,28.642793,35.455877,39.69918,28.706359,44.279652,50.828321,53.967329,40.933818,58.040707,62.803245,63.166819,48.772415,65.011773,68.449085,67.385557,29.186101,316.565713,-67.914099,304.44775
29,-7.429069,5.457403,0.096084,0.153302,-5.628822,-15.26873,-24.30051,-31.453709,-39.939583,-27.877213,-7.337105,8.768623,-45.321167,-30.061329,-6.526611,15.690491,-46.224815,-34.500893,-12.911362,6.636772,-44.495968,-40.871464,-28.443077,-15.276604,-5.551511,-7.642157,-4.054718,1.402796,3.86586,15.526054,21.818952,25.997899,14.978772,24.477344,31.962803,35.635051,22.816752,30.368482,35.27859,37.771479,28.549241,35.578537,36.257878,35.965169,22.861176,46.053875,66.802815,82.983456,46.580761,78.166157,94.897648,107.146832,37.251149,72.1432,92.086773,105.768277,27.575009,60.707543,79.272091,92.042393,18.896382,44.689808,59.626671,71.719769,-14.82352,-14.958901,-5.950887,3.366805,11.531889,28.45254,35.235958,39.478101,28.574287,44.084533,50.647774,53.839814,40.803129,57.867052,62.638161,63.029547,48.672453,64.870216,68.339823,67.319669,21.732954,322.007246,-67.842093,304.585182
30,-3.865151,2.143072,0.088337,0.137876,-4.740325,-13.251091,-21.557544,-28.84251,-37.464958,-23.818588,-3.322242,12.298394,-43.016784,-25.937336,-2.750541,18.891701,-43.963462,-30.307239,-8.62033,10.852799,-42.217769,-38.567562,-26.155666,-12.790283,-5.160889,-8.252053,-6.211128,-1.728727,1.694456,13.295864,20.082655,24.412297,12.362989,22.496552,30.301817,33.994578,20.081062,28.432866,33.516074,35.795652,25.782699,33.528832,34.398327,33.917044,23.004731,46.123524,66.830818,83.176987,46.445824,78.085076,94.85392,107.084336,37.129589,72.125382,92.109307,105.778084,27.547165,60.751602,79.338753,92.066048,18.97823,44.750943,59.713326,71.778672,-14.766845,-14.901807,-5.975809,3.175454,11.50467,28.309934,35.005407,39.171683,28.53079,44.067663,50.582591,53.75424,40.756668,57.835659,62.545325,62.895796,48.615383,64.745418,68.177506,67.118944,17.834083,324.134986,-67.787476,304.707726
31,-14.48299,3.067539,0.017979,0.012795,2.123245,0.534634,-1.757721,-4.278957,-21.495952,-3.598148,15.66901,29.965656,-28.778961,-7.824016,13.942715,33.652828,-31.744057,-14.422439,5.969959,23.62048,-31.897533,-25.327102,-13.028091,-0.317196,-13.794079,-21.038316,-20.358642,-16.314385,-6.311572,5.428355,12.499357,16.765064,8.763791,19.720747,26.841125,30.332617,20.634147,29.701676,33.780365,35.359125,30.002907,38.632428,38.453932,36.53363,23.073612,46.136009,66.828403,83.214809,46.521252,78.094128,94.882336,107.168873,37.25782,72.149197,92.070637,105.766972,27.713425,60.775337,79.349751,92.127903,19.146332,44.844509,59.779839,71.852634,-14.640973,-14.839526,-6.03945,3.094931,11.620415,28.221482,34.839644,38.910713,28.563345,44.000343,50.471712,53.58024,40.737784,57.764349,62.478956,62.813322,48.57837,64.665427,68.099355,67.050388,3.309465,327.192052,-67.811125,304.710048
32,7.123696,-4.954508,-0.010826,-0.153264,-3.439248,-9.565739,-15.689564,-22.023526,-31.26043,-16.018582,5.015499,20.650257,-37.061909,-18.130761,4.8987,25.789798,-38.78072,-22.695694,-0.544545,18.7542,-37.740841,-32.592556,-19.154274,-4.953518,-5.532392,-8.783687,-6.372074,-1.513082,0.724617,13.37099,20.794316,25.052686,12.676607,24.426673,32.3843,35.7557,21.868267,32.186205,37.18779,38.851779,28.95399,38.657216,39.360293,38.367297,23.201694,46.211998,66.869556,83.463512,46.477718,78.212162,95.169079,107.563694,37.160248,72.169704,92.145389,105.881458,27.668163,60.799919,79.470875,92.324123,19.23262,45.020016,60.051063,72.204494,-14.481213,-14.604874,-5.875268,3.073256,11.785041,28.275624,34.814635,38.836983,28.684647,44.110702,50.496658,53.590095,40.851985,57.88775,62.553476,62.881938,48.650049,64.708577,68.087449,67.006273,10.362883,322.220544,-67.892229,304.539784
33,-0.032822,2.07684,0.020645,-0.370268,-0.51574,-4.746929,-9.1791,-13.53661,-27.305557,-11.908047,7.538418,22.268291,-33.954197,-15.520546,6.11562,26.028889,-36.466175,-21.14875,-0.568852,17.483562,-35.998489,-31.25378,-19.276463,-6.276318,-10.705842,-15.96799,-14.350858,-10.632335,-2.995797,9.131898,16.173556,20.241377,10.513662,22.245808,29.115689,32.295502,21.219627,31.163704,35.328374,36.8152,29.608186,38.933943,39.359799,38.081886,23.316261,46.247967,66.87846,83.835445,46.498936,78.428593,95.464771,107.993465,37.211586,72.284077,92.236233,106.07777,27.838772,60.965183,79.751003,92.873737,19.535431,45.365078,60.472137,72.769512,-14.397171,-14.457439,-5.756374,3.009888,12.080134,28.362779,34.763975,38.636566,28.959177,44.083285,50.251732,53.110714,41.067272,57.826963,62.462616,62.74468,48.750888,64.661166,67.985338,66.893418,10.238531,324.250389,-67.963114,304.122521
34,10.607071,-6.73765,-0.099838,-1.369612,-6.958443,-16.839947,-25.63155,-33.91285,-39.96896,-29.436894,-8.392651,7.884121,-44.186588,-30.18029,-7.381153,13.76263,-44.629349,-33.062267,-11.204098,8.463466,-42.104771,-41.281059,-28.967308,-14.805027,1.705596,2.255755,5.422008,9.795024,8.5057,20.912457,28.234993,32.332331,15.274434,26.99486,35.323731,38.766773,19.817264,30.26883,36.523492,38.962658,22.554709,31.660363,33.959059,34.476058,23.34613,46.303951,66.868389,84.164646,46.562244,78.507145,95.569713,108.132694,37.34254,72.478534,92.477863,106.465587,28.07555,60.946357,79.828251,93.201267,19.818443,45.337223,60.372516,72.936458,-14.85484,-14.609197,-5.489587,3.043591,12.074935,28.349021,34.884598,38.934808,29.054013,44.248394,50.555519,53.620365,41.136544,57.841685,62.769763,63.453204,48.697573,64.686545,68.280716,67.54512,20.742022,317.439734,-68.166532,302.679904
35,12.873184,-9.497892,-0.469368,-3.612053,-12.339203,-27.32365,-39.884457,-50.591835,-49.939396,-48.106338,-28.118385,-11.190891,-51.824558,-46.547722,-25.14925,-4.022427,-50.089416,-46.514763,-26.851101,-7.639286,-45.48555,-49.060295,-39.283516,-26.565777,12.821596,20.357604,27.416158,33.213546,21.079071,33.573736,40.93168,44.097204,21.457527,32.909462,42.019451,44.783115,19.686871,29.839985,37.11464,39.425254,16.888404,24.26517,27.177295,28.151642,23.961822,46.900795,67.233227,84.640926,47.069298,78.496982,95.385166,108.030796,37.787052,71.882961,91.587696,105.684574,28.371963,59.822719,78.500232,91.894649,19.802067,44.238189,58.80669,71.060383,-15.575023,-15.096828,-5.899128,2.078951,11.263238,28.046456,35.273737,39.994408,28.179318,44.410167,51.583342,55.339928,40.3019,57.780984,63.794054,65.661485,48.106559,64.773403,69.256532,69.5269,33.506945,307.862314,-68.744161,298.988323
36,15.022213,-7.096852,0.847309,-5.922458,-20.698563,-41.863197,-58.632568,-70.65921,-60.438858,-67.24736,-51.929615,-38.006561,-58.455666,-62.160175,-45.656273,-28.152706,-53.183704,-57.419861,-43.20932,-28.085999,-45.499981,-52.997807,-47.258366,-38.272339,15.720235,26.533066,36.110937,42.714415,24.718023,36.565482,42.499277,44.768493,23.115094,34.376158,43.165551,45.444599,19.763627,30.350884,38.284922,40.886529,15.470603,23.392526,28.459357,31.518349,23.975601,46.439495,65.442707,81.871651,46.607494,76.706543,92.140686,103.081306,37.71088,70.054527,87.62178,99.252571,28.348698,57.834217,74.68721,86.218597,19.465702,42.49229,56.095756,66.94408,-11.274674,-8.447283,1.406662,9.793616,12.381477,28.73075,37.062437,42.923934,26.84735,44.025451,52.762492,57.750591,37.511906,55.688276,62.498481,65.265172,44.81719,61.248838,65.986095,67.07147,48.416525,300.658408,-68.009485,292.958811
37,11.853973,-20.573236,-2.436665,-18.239577,-23.467758,-45.657646,-61.228603,-70.685028,-61.521709,-73.638519,-64.842578,-55.098587,-57.489566,-67.515838,-58.082588,-46.190448,-50.20166,-60.192203,-53.189025,-43.975593,-40.632808,-50.680641,-49.480636,-45.301139,10.4426,22.488092,33.782452,41.859542,25.008262,40.776205,48.601847,51.662185,25.277864,42.435192,52.720377,55.973364,23.852875,39.636231,49.120909,52.395607,21.094608,32.601167,39.882776,44.058252,28.053498,52.076912,70.178398,84.506802,57.245774,86.867512,98.971424,105.818676,47.645611,78.795079,91.944523,98.726956,36.7374,64.849182,77.549115,84.361965,25.311653,47.901455,58.740383,65.922329,-10.745547,-6.468109,4.777901,15.007277,13.722979,32.654223,43.227808,50.082758,27.326237,47.968696,58.079646,63.192198,37.765354,58.045622,65.218006,67.774016,45.314762,62.590255,67.058057,67.896789,60.172519,279.981818,-70.544129,274.61588
38,13.670105,-32.87813,-6.262436,-28.414094,-28.208656,-53.77613,-70.79504,-81.079078,-65.058677,-84.229751,-80.729999,-74.41175,-57.579723,-75.323593,-71.909729,-64.38628,-47.382328,-63.833461,-62.481834,-57.342064,-35.373069,-49.118969,-51.444133,-50.249153,11.512302,25.631596,39.484028,50.241728,27.880373,46.405237,56.028112,60.315073,27.656836,48.767054,61.040196,65.385696,25.752441,45.417341,57.258613,62.023361,22.663352,37.256148,46.712309,52.242849,30.20905,56.268872,74.134243,86.386998,64.874543,94.035244,103.244145,106.701977,55.276863,85.326542,94.437642,97.059254,43.540593,70.540558,77.976506,79.674752,30.429612,52.892281,59.825123,62.63308,-11.085113,-6.158937,5.858212,16.748107,11.44555,31.380473,42.060033,48.747813,23.899237,46.077454,55.661834,60.600731,34.042261,54.991928,60.220533,61.696652,42.0906,59.072642,61.974208,62.026535,73.679037,247.08913,-76.970152,246.187228
39,14.409645,-39.395997,-9.971042,-35.922512,-28.13475,-53.853721,-70.929061,-79.875286,-60.603126,-86.465034,-89.369098,-86.529647,-52.817092,-78.220024,-81.262664,-78.099529,-42.861854,-66.0611,-70.023742,-68.225944,-31.478576,-48.416954,-53.455009,-54.349205,-1.059786,8.781427,24.689426,37.737288,11.364941,31.616334,44.285438,50.058687,17.427744,41.232195,54.887866,59.715229,22.583157,45.121791,56.694535,60.31632,26.787477,43.991277,53.146504,57.436207,29.522609,57.069671,76.702846,88.325786,65.793846,96.925392,101.989322,100.757732,57.83028,89.317474,93.433021,90.898887,47.623649,76.324127,78.741966,75.307903,35.917797,60.016113,63.090122,61.20179,-14.608338,-13.602251,-3.129943,8.82858,-0.350551,16.690914,27.161296,33.262693,13.263217,32.842556,41.58211,45.794026,25.561058,43.542686,47.473791,48.61978,36.40545,49.882971,51.18756,50.83499,87.976152,207.826884,-87.053724,210.398467
40,15.628029,-48.519256,-10.454785,-45.758037,-30.251953,-57.253944,-74.845344,-81.526508,-56.61866,-85.242496,-92.509575,-91.984405,-46.932724,-76.954422,-84.53968,-83.978725,-36.714225,-64.369171,-71.390648,-71.196853,-26.355423,-46.564178,-52.407463,-53.359863,-12.872812,-9.47089,5.245049,20.34082,-7.909246,10.182562,24.939941,32.814891,3.779705,26.731321,41.146232,47.527779,15.780441,38.146545,49.977263,54.536438,27.031687,45.343333,55.012775,59.907767,27.741635,55.836445,77.462345,89.059044,61.499989,95.850895,99.019833,94.251526,55.067242,90.664433,91.984028,85.019337,47.23724,80.108975,78.786072,71.027527,38.204499,65.409382,65.816792,60.488011,-18.335815,-21.183905,-11.8667,1.64153,-13.213118,-1.075797,9.836359,15.845557,1.303947,15.563753,23.947051,27.822605,15.479587,28.148394,31.121868,31.603892,28.691909,36.996963,36.654674,35.473945,103.765022,159.511713,-97.347668,164.844515
41,16.137818,-56.140931,-13.390606,-52.372655,-30.695938,-57.609032,-74.8648,-81.551033,-57.729584,-84.825302,-91.622223,-90.343369,-47.818337,-77.017159,-84.274178,-82.711716,-37.597504,-64.999649,-71.399025,-69.645722,-27.466301,-48.786942,-54.781586,-54.866547,-15.889715,-17.799389,-8.44364,3.852701,-21.699169,-9.549084,6.734154,16.909202,-11.391018,5.760202,21.152919,29.513146,0.239036,16.652357,28.983951,35.250865,12.104612,24.888646,33.775567,38.788423,27.605153,55.979645,79.135094,90.929055,59.553212,96.775647,99.297307,92.957325,53.436058,92.884541,93.207951,84.391457,47.128293,84.094277,81.04628,70.764828,40.252064,70.791401,69.539109,61.925652,-26.335389,-35.375403,-29.580151,-17.792035,-29.174081,-22.597192,-11.680745,-6.103534,-12.690061,-5.115219,2.639497,6.413015,3.878389,9.805354,12.620123,13.325393,19.630821,22.418315,21.72093,20.440998,120.152018,103.5982,-110.489096,112.699278
42,3.988266,-44.082616,-8.066745,-47.890544,-28.786904,-52.991455,-69.136723,-75.578259,-49.706921,-75.938462,-83.490258,-82.683346,-39.799485,-69.074227,-76.937508,-75.317013,-30.613495,-58.096905,-64.621697,-62.039807,-22.158222,-43.93087,-50.219857,-49.563778,-18.71441,-27.848568,-24.562418,-16.667266,-40.779083,-39.273138,-25.074316,-14.822692,-31.957468,-26.100009,-12.46097,-3.914574,-20.416035,-13.741448,-2.657648,4.173884,-7.486959,-2.327965,4.645188,9.048761,21.743614,47.621269,70.938915,83.723465,46.509121,83.435714,86.243076,80.504001,42.551719,82.483463,83.160152,75.153499,39.517914,77.169868,74.146694,64.652881,36.650024,66.896598,65.573284,58.565826,-29.589779,-43.691516,-42.202819,-33.65403,-45.490806,-47.207276,-37.646874,-32.335733,-29.623976,-30.886772,-23.356562,-18.411602,-12.688147,-14.402382,-10.972103,-8.750404,4.456855,1.425675,1.254589,1.086776,123.878884,60.608412,-118.817241,65.901562
43,5.140091,-39.65281,-6.550209,-37.507812,-28.730004,-50.798928,-66.041073,-72.464184,-43.422833,-70.167664,-79.682282,-79.893826,-34.105225,-64.942177,-74.864274,-74.068806,-26.721863,-55.661328,-63.427414,-60.79826,-20.776348,-43.755341,-51.114373,-50.517918,-21.186768,-36.035197,-38.934895,-35.753529,-58.650647,-66.103242,-54.200233,-44.653026,-51.058755,-54.193842,-42.393637,-34.033524,-38.727793,-39.208276,-29.442328,-22.933035,-23.919449,-24.856838,-19.583001,-15.935883,20.286277,43.514225,66.431923,80.218952,35.108974,70.389484,76.134018,73.551098,31.879039,71.01424,75.722946,71.848022,31.051082,69.627926,71.217258,65.454013,31.875949,62.170864,64.042659,59.977546,-29.717682,-47.755446,-50.134239,-45.099172,-58.655364,-67.836464,-61.08247,-57.148783,-43.855278,-53.690525,-48.226627,-44.429205,-26.837007,-35.186761,-30.981478,-27.642985,-8.682114,-16.743914,-16.767447,-16.178805,128.839909,22.488902,-125.546516,29.92705
44,2.690735,-29.53726,-3.365673,-31.60005,-29.563088,-49.255898,-62.742062,-68.811207,-39.982075,-62.381997,-73.375512,-76.655583,-31.423623,-58.506592,-70.980652,-73.821431,-25.419892,-53.271321,-61.437356,-59.563763,-21.629071,-44.276047,-51.918892,-51.607533,-19.442158,-36.461287,-43.529632,-44.209877,-63.446789,-79.252369,-74.166413,-68.761678,-58.353213,-71.148454,-65.482085,-59.964942,-47.543523,-53.93063,-44.170036,-36.483743,-33.654049,-38.863326,-33.365971,-28.564287,20.36539,41.525882,62.110164,76.228797,30.800399,60.994937,70.409511,72.757782,27.950145,62.049739,71.276596,72.776012,28.292369,64.113018,69.473922,66.944023,30.704063,59.587715,65.098068,64.337368,-26.938,-44.169193,-47.983207,-45.547246,-61.254427,-75.066611,-72.226574,-70.574163,-49.544468,-64.601182,-62.505379,-60.390403,-34.395066,-45.494289,-41.345853,-37.823499,-17.227174,-26.121907,-25.939274,-25.350922,131.397509,-5.669472,-129.045324,-0.294114
45,1.830528,-19.475568,-3.3765,-21.028727,-27.476944,-45.80381,-59.041088,-67.419789,-40.507656,-59.268357,-70.250725,-75.847447,-34.459626,-57.104668,-70.09298,-75.974064,-30.536957,-56.316433,-63.85476,-62.79649,-28.223362,-49.23935,-56.137619,-56.128521,-20.024957,-37.373507,-46.312414,-50.100607,-64.01948,-85.095062,-86.882798,-86.283239,-59.725461,-79.265749,-79.938634,-78.685166,-49.315333,-59.250743,-50.528889,-43.247129,-35.682284,-42.65209,-37.804312,-33.018615,20.657456,41.041214,59.55653,73.573128,32.150505,56.388337,67.257992,72.850274,29.687485,57.176365,68.719471,74.553601,30.106625,61.941227,68.245709,66.81189,32.635849,58.893357,66.091336,66.961796,-22.569726,-38.241777,-42.862974,-42.468098,-60.785512,-78.43914,-81.241139,-83.305616,-52.05351,-70.849662,-73.461816,-74.596578,-38.575155,-49.393425,-44.673675,-40.970478,-22.176203,-30.118448,-29.258129,-28.270301,132.74659,-23.847948,-132.903271,-20.025749
46,5.580025,-11.142849,-3.442531,-12.767249,-27.190888,-46.282105,-61.438488,-72.540631,-40.547757,-59.596619,-71.889062,-79.442334,-35.589844,-58.68512,-72.857117,-80.580723,-32.744454,-59.212498,-67.96058,-69.155812,-31.717106,-53.408021,-61.057961,-62.50533,-18.555916,-34.216907,-40.925944,-43.981419,-63.163515,-85.683106,-93.121107,-97.949677,-58.374925,-80.920747,-88.143776,-92.903668,-46.943426,-59.177063,-56.069859,-54.029153,-31.703088,-39.103702,-37.548339,-36.089161,22.534469,42.669731,60.294948,74.288944,33.248611,51.236915,63.126308,71.555958,30.157265,49.464111,62.678844,71.921093,29.624416,53.540737,61.746609,63.495071,31.392311,51.500759,59.884048,63.234741,-17.278667,-30.615564,-33.908356,-34.093385,-58.515333,-77.966768,-86.196388,-91.876533,-52.519738,-73.948879,-82.196727,-87.756299,-40.954874,-53.754889,-53.812384,-53.920917,-25.628132,-34.237689,-36.152261,-37.583209,137.665473,-33.68108,-137.006944,-31.483281
47,11.82962,-6.694603,-13.179629,-4.748375,-27.332336,-47.474785,-64.283169,-77.568604,-42.501332,-59.620091,-71.489411,-79.994476,-38.097885,-58.207409,-71.877548,-80.734451,-35.488449,-59.631043,-68.44067,-71.462505,-34.851219,-55.582741,-63.336983,-65.82209,-16.403707,-30.420065,-34.951595,-37.083549,-61.670896,-85.870151,-97.941742,-107.327268,-57.171422,-83.293868,-95.879567,-105.557726,-45.729595,-61.193053,-63.129869,-65.655372,-29.917692,-38.206079,-39.009693,-39.849579,26.742154,47.686604,65.481572,79.911295,34.740075,48.106934,61.468804,72.798535,30.344977,43.371398,58.985865,71.532212,28.928616,47.415442,58.094908,62.753209,30.633717,47.971796,58.167561,63.632018,-13.690091,-25.734858,-27.983496,-28.635868,-58.258232,-80.394072,-94.002171,-103.179582,-53.568477,-78.76526,-92.452581,-101.970824,-42.7811,-58.407362,-63.084973,-66.523259,-27.767027,-37.363603,-41.532568,-44.745081,149.002442,-41.894749,-150.679224,-37.750722
48,18.079216,-2.246357,-18.559547,-4.676124,-27.901291,-49.381851,-67.575131,-82.503708,-46.368382,-59.338772,-69.051773,-77.503876,-41.98375,-55.671536,-67.154274,-76.43525,-38.768944,-57.572067,-65.295033,-69.716572,-37.625702,-55.763512,-62.974686,-66.078804,-13.568331,-25.982983,-28.389366,-29.406997,-59.541624,-85.656198,-101.344705,-114.416011,-56.114952,-86.385112,-103.146006,-116.64734,-45.67384,-65.298714,-71.708918,-78.125787,-30.326096,-39.959222,-42.188375,-44.299869,29.148182,50.903538,68.893318,83.74914,37.838264,47.351051,58.795326,69.64325,32.822577,40.036371,53.957731,65.936359,31.040485,43.494764,53.192465,58.179291,32.525311,47.34878,57.740868,63.91709,-12.981073,-24.783828,-26.153974,-25.925914,-59.776298,-84.35517,-99.860426,-109.967857,-55.188499,-83.010273,-97.915628,-107.898354,-44.361509,-62.482192,-69.219577,-74.007014,-29.086504,-38.770889,-42.722239,-46.092116,166.296667,-46.688554,-170.023762,-44.974294
49,17.080307,-1.949065,-19.42297,-2.592474,-28.135712,-50.175087,-69.08598,-84.269531,-46.465702,-56.531078,-63.948853,-70.994293,-40.36155,-49.417751,-57.460533,-64.646256,-35.050919,-46.895943,-54.248669,-60.350842,-31.626732,-43.477432,-50.204407,-54.810608,-12.460393,-24.294857,-26.198467,-27.060185,-59.855354,-86.971198,-103.930547,-118.649267,-56.110228,-87.535707,-105.716948,-121.183272,-45.718029,-69.230702,-81.692681,-92.60751,-30.242116,-42.143526,-47.888661,-52.790261,32.137676,54.611641,73.349899,87.758715,38.81171,44.955391,54.715256,64.605091,31.62953,33.550375,45.491793,55.829956,27.770909,33.274149,41.733175,47.016701,27.831345,36.995505,45.825897,51.837176,-11.278336,-22.714621,-23.56526,-23.999301,-59.953102,-85.954456,-102.597124,-113.531541,-56.282382,-85.689021,-101.57571,-112.570594,-46.10563,-66.830754,-76.98408,-84.835152,-30.879989,-42.879804,-48.193813,-52.687968,182.655207,-51.057241,-190.168499,-49.98639
50,18.44046,-1.154461,-19.126865,-1.492965,-30.123047,-51.911476,-70.754139,-86.506645,-45.346928,-53.337536,-59.693115,-66.439247,-37.044296,-42.095341,-48.047928,-53.854317,-29.601585,-34.952408,-41.609608,-48.696796,-24.514458,-30.972107,-37.703499,-43.6726,-9.300353,-20.627629,-22.315429,-23.685093,-60.736032,-88.159942,-105.299467,-120.539416,-57.38764,-89.884372,-108.458762,-124.84509,-47.479497,-73.99671,-91.080047,-105.77669,-32.153359,-46.141464,-53.839375,-60.232007,35.177479,57.20985,76.292289,90.34263,38.734714,41.272716,49.11327,58.351215,29.678644,26.824602,36.912866,46.040485,23.987926,22.991323,31.970415,39.3559,22.672932,27.424021,36.379715,43.610842,-10.349801,-21.974782,-23.153286,-24.284896,-60.682379,-87.775703,-104.809684,-116.351731,-57.024652,-87.909597,-104.67061,-116.421593,-46.664638,-71.645773,-86.684834,-97.962153,-30.923639,-45.441124,-52.358341,-57.846189,200.543066,-54.519417,-209.847965,-53.78707
51,16.910316,-0.71817,-17.460823,-1.130322,-29.842437,-51.772476,-70.76984,-87.393493,-43.090221,-49.684856,-55.50531,-62.23281,-34.062881,-36.152217,-41.142104,-46.520072,-26.353683,-28.266677,-33.47153,-39.514881,-21.192832,-24.589416,-30.227714,-35.326812,-8.967833,-20.645487,-22.269251,-23.392439,-61.630665,-89.612201,-106.492738,-121.622941,-57.809253,-90.793838,-108.522895,-124.354767,-47.403901,-74.219919,-90.909998,-105.3356,-31.596154,-46.018012,-53.500587,-59.457545,35.497123,57.365879,77.133419,92.261964,37.653259,38.384994,45.113628,54.110447,28.485231,24.1308,33.509302,42.724811,22.604736,20.495882,29.070928,36.706089,21.258739,25.983267,35.407436,42.98691,-10.728554,-22.862902,-24.673075,-25.957901,-61.406157,-89.810658,-107.492962,-119.760753,-56.808823,-88.640191,-105.624969,-117.741573,-45.297324,-70.706266,-85.623419,-96.864549,-28.455266,-42.368048,-47.917548,-52.1911,216.889766,-57.461516,-227.872404,-57.141321
52,9.956475,-0.494444,-9.536448,-1.411482,-29.513695,-51.569527,-70.5103,-87.501389,-40.91288,-46.301033,-51.745514,-58.553604,-31.15242,-31.38961,-35.657387,-40.463173,-23.019104,-22.46917,-26.490372,-31.445572,-17.51754,-18.131859,-22.699814,-26.959854,-8.485921,-20.1335,-21.469168,-22.232082,-60.798826,-88.985512,-105.969852,-121.265216,-56.405686,-89.172072,-106.754394,-122.795051,-45.537477,-71.98211,-88.502244,-102.877443,-29.402472,-43.894651,-51.583287,-57.518916,35.120018,56.609093,77.063839,93.332108,36.315937,35.865223,42.060951,51.048832,27.093304,22.187508,31.01072,40.054642,20.948811,18.222096,26.295273,33.806786,19.364765,23.387833,32.486584,39.700459,-10.258917,-22.309627,-24.450489,-25.709271,-59.872971,-88.612767,-106.725395,-119.861227,-54.745914,-86.616664,-104.277464,-117.462097,-42.565016,-68.051844,-83.460674,-95.536233,-25.212526,-39.035906,-44.388777,-48.629203,226.600239,-58.275873,-237.654854,-58.872716
53,2.429489,-0.057904,-1.702583,-2.03475,-28.79393,-50.599709,-69.195122,-86.050598,-37.700981,-42.219406,-47.464485,-54.605141,-27.19931,-26.489822,-30.084366,-34.227173,-18.530777,-16.188744,-19.015595,-22.88411,-12.445015,-10.384232,-13.648865,-17.075546,-8.064616,-19.140707,-20.268585,-20.828272,-58.82829,-86.997092,-104.478063,-120.347314,-53.525319,-85.321477,-103.399086,-120.412664,-42.09998,-67.414685,-84.303509,-99.140073,-25.697465,-39.874439,-48.050737,-54.188388,34.086811,54.862015,75.961441,93.131023,34.264515,33.409023,39.658527,48.847664,24.892067,20.500362,29.00592,37.812092,18.229546,15.464687,22.941948,30.068115,16.22652,19.101059,27.533157,34.253071,-9.117529,-20.224112,-22.281976,-23.406988,-56.114014,-84.342165,-102.608502,-116.83646,-50.809573,-81.721851,-100.307357,-115.209914,-38.181496,-63.1663,-79.452162,-93.045817,-20.668956,-34.707739,-40.411057,-45.146912,228.969069,-58.14923,-239.418096,-60.722919
54,1.028069,-0.818804,-0.056294,-1.882968,-27.887764,-49.882004,-68.319809,-86.002465,-36.460579,-40.843346,-46.733872,-54.68145,-25.84401,-25.489724,-29.729897,-34.269013,-17.044739,-15.025864,-17.92939,-21.876526,-10.721741,-9.347832,-13.005639,-16.5607,-7.561986,-18.021524,-18.591036,-18.778794,-56.212487,-84.460972,-101.931297,-117.753025,-50.619314,-82.166994,-100.289814,-117.706595,-38.937605,-63.72766,-80.331747,-95.383818,-22.375737,-35.914985,-43.272836,-48.826959,33.82576,53.759755,74.956742,93.037194,33.679642,32.920315,39.343243,48.710644,24.419415,21.438881,30.113331,39.412011,17.637921,16.592995,24.182007,31.539872,15.385712,20.100048,29.125798,36.068333,-8.042664,-18.696808,-20.778513,-21.593236,-54.238832,-82.043357,-99.962348,-114.331579,-48.369684,-79.04346,-97.561865,-112.935813,-35.145975,-60.022499,-76.100152,-89.833925,-17.379913,-30.807676,-35.703421,-40.022109,229.736018,-58.83239,-239.73551,-62.470243
55,-1.026581,-0.74613,0.91214,-1.800704,-27.179489,-49.308037,-67.714737,-85.806862,-35.337044,-39.309037,-45.37722,-53.589592,-24.673645,-24.661057,-29.406395,-34.343079,-15.750023,-14.113106,-17.593048,-22.020836,-9.154518,-7.945015,-11.8927,-15.647003,-6.667501,-16.791518,-17.22826,-17.324739,-54.245107,-82.307439,-99.912077,-115.658185,-48.834134,-79.962153,-98.127645,-115.697619,-37.188297,-61.690132,-78.206601,-93.344708,-20.68503,-33.909517,-40.937621,-46.318194,33.753971,53.393704,74.585038,93.357376,32.641583,32.181279,39.097058,48.812382,23.423424,21.096394,30.15144,40.018376,16.712437,16.685623,24.527481,32.126656,14.597351,20.392571,29.571522,36.605851,-7.464186,-17.728734,-19.614864,-20.692167,-52.995957,-80.032362,-97.73309,-111.879757,-47.14303,-77.353271,-95.633866,-110.838525,-34.036135,-58.501018,-74.519711,-88.269311,-16.559144,-29.7553,-34.488265,-38.950597,228.325253,-59.48896,-239.207554,-64.181387
56,-1.734055,-0.958873,1.577271,-2.033607,-26.465172,-48.408691,-66.624664,-84.500908,-34.201332,-37.90361,-44.035629,-52.621605,-23.339836,-23.357391,-28.549049,-34.051826,-14.229423,-12.690605,-16.505539,-21.403381,-7.393295,-6.060928,-10.110924,-14.178383,-5.959427,-15.459994,-15.764572,-15.80056,-52.401776,-80.273696,-97.788428,-113.358183,-47.008273,-77.894773,-96.095084,-113.780787,-35.350265,-59.470507,-75.966376,-91.315089,-18.969511,-31.557462,-38.134387,-43.278369,33.442005,52.559395,73.641586,92.416408,30.793957,30.408954,37.57814,47.57959,21.676277,19.392666,28.715847,39.044094,15.121536,15.140991,23.05822,30.972244,13.286945,19.04591,28.177654,35.452308,-7.407771,-17.229977,-18.713339,-19.584872,-52.129198,-78.601078,-96.043439,-110.017727,-46.072952,-75.754177,-93.79832,-108.622964,-32.854566,-56.78169,-72.55327,-85.9261,-15.518935,-28.626083,-33.220919,-37.578794,226.311933,-60.433831,-237.909548,-66.200992
57,-2.162453,-0.710587,2.403911,-2.098341,-25.492927,-46.975685,-65.014961,-82.686996,-32.331207,-35.956832,-42.106979,-50.975372,-21.328491,-21.466255,-27.113777,-33.232612,-12.125221,-10.67807,-14.768989,-20.137847,-5.152633,-3.830268,-7.875389,-12.186698,-5.243141,-14.072511,-14.48196,-14.675813,-50.958212,-78.678719,-96.124257,-111.532699,-45.642977,-76.321261,-94.493951,-112.145466,-33.965987,-57.748911,-74.322209,-89.822526,-17.646952,-29.819193,-36.075282,-41.022886,32.837071,51.147171,71.731831,89.818921,28.269402,27.719834,34.837292,45.03875,19.057572,16.222516,25.658993,36.468556,12.473156,11.688687,19.71127,28.197442,10.681218,15.775143,25.287964,33.386925,-7.403819,-16.564857,-17.635115,-18.35954,-51.338768,-77.585336,-94.806189,-108.54192,-45.108349,-74.041202,-91.616002,-105.836291,-31.710621,-54.618641,-69.824167,-82.436176,-14.388217,-26.931633,-30.715834,-34.194068,223.930572,-61.067428,-235.724545,-68.222343
58,-2.234825,-0.713168,2.888054,-1.864504,-24.634483,-45.670532,-63.536705,-81.010666,-30.964828,-34.447242,-40.470657,-49.453514,-19.900818,-20.124252,-26.2695,-33.013435,-10.712791,-9.433319,-13.883812,-19.690933,-3.738212,-2.302437,-6.180587,-10.456787,-4.664613,-12.74158,-12.941663,-13.185757,-49.39258,-76.780536,-94.097235,-109.289213,-44.370604,-74.832391,-92.831256,-110.290641,-32.7755,-56.306329,-72.713283,-88.14397,-16.64691,-28.562418,-34.633397,-39.589955,32.005303,49.434815,69.422333,86.804913,25.928456,24.795811,31.649449,42.11887,16.551785,12.734185,22.401707,33.678727,9.913147,7.60524,15.877705,25.02768,7.891445,11.461407,21.088257,29.785389,-7.528543,-15.933675,-16.515926,-16.971984,-50.29915,-76.431702,-93.565577,-107.037951,-44.024246,-72.115602,-89.283961,-102.946091,-30.682082,-52.544272,-67.173204,-79.052547,-13.588006,-25.19854,-28.50546,-31.44943,221.59699,-61.679507,-232.935248,-69.985758
59,-2.586525,-0.379684,3.122612,-1.684033,-23.806183,-44.250961,-61.828056,-79.110832,-29.480346,-32.891029,-38.823852,-47.994049,-18.379554,-18.694267,-25.390892,-32.825912,-9.202148,-8.118072,-13.01683,-19.256721,-2.307403,-0.797722,-4.501236,-8.67176,-4.206803,-11.641941,-11.617927,-11.87169,-48.210171,-75.254727,-92.473184,-107.466416,-43.348277,-73.479502,-91.264939,-108.380424,-31.694375,-54.881716,-71.022076,-86.133433,-15.574609,-27.078933,-32.877507,-37.68884,30.837719,47.412323,66.782158,83.474396,23.403431,21.950295,28.726113,39.57161,13.838139,9.530457,19.657231,31.480408,7.140473,3.722283,12.438629,22.290173,4.990586,7.481804,17.40952,26.763405,-7.802943,-15.410266,-15.529673,-15.718722,-49.384145,-75.299919,-92.44171,-105.624821,-43.059359,-70.121847,-86.78619,-99.872325,-29.790862,-50.488748,-64.386179,-75.483361,-13.07305,-23.507153,-26.280574,-28.674755,218.987657,-62.003841,-229.835444,-71.614441
60,-2.424476,-0.500512,-4.225982,4.304183,-23.19841,-43.114792,-60.343094,-77.389366,-28.261528,-31.600251,-37.627281,-47.051949,-17.289391,-17.578263,-24.732056,-32.713005,-8.204407,-7.276291,-12.495529,-19.072563,-1.391075,0.16777,-3.211327,-7.20353,-3.991664,-10.757076,-10.445157,-10.684168,-47.200515,-73.967083,-91.10523,-105.89853,-42.311308,-72.139215,-89.681874,-106.450918,-30.570172,-53.395168,-69.181741,-83.945131,-14.529495,-25.829296,-31.769939,-36.899848,32.69712,50.691158,70.120536,86.8129,27.659008,27.218376,34.268943,45.275161,17.935432,13.560299,24.334121,36.74366,11.203388,8.403316,18.308715,28.951961,9.094768,12.760288,24.041885,34.23159,-10.285525,-18.856297,-19.308409,-19.415108,-53.741093,-80.393686,-97.327174,-110.032006,-47.203435,-75.008584,-90.550885,-102.719359,-34.082553,-55.097336,-67.547745,-77.316675,-17.318768,-27.321316,-29.739103,-31.832782,216.605639,-62.499972,-234.018968,-67.305877
61,-2.373711,-0.413518,-3.903351,3.971292,-22.684982,-42.136413,-59.168747,-75.973457,-27.251335,-30.513977,-36.53611,-46.148186,-16.381119,-16.738609,-24.229637,-32.651596,-7.366928,-6.777763,-12.266807,-19.075104,-0.680786,0.676781,-2.527176,-6.356964,-3.753851,-10.056135,-9.583862,-9.771706,-46.533332,-73.133625,-90.269148,-105.000944,-41.743878,-71.352935,-88.750733,-105.256112,-30.02754,-52.529081,-68.127686,-82.643188,-14.096557,-24.983352,-30.749025,-35.846046,34.380489,53.670067,73.183822,90.185463,31.752937,32.179275,39.419586,50.488037,21.951095,17.631695,28.442013,40.809803,15.401184,13.221199,23.668373,34.260841,13.390457,17.972637,29.567665,39.490299,-12.069587,-21.856589,-23.093147,-23.740118,-57.300356,-84.550488,-101.585306,-114.135463,-50.749267,-79.071353,-94.392448,-106.662931,-37.858961,-59.38258,-71.746772,-81.626853,-21.238276,-31.246054,-34.358534,-37.134098,214.298183,-62.925368,-237.856064,-63.346463
62,-2.358124,-0.321238,-4.48193,3.54624,-22.234749,-41.232261,-58.04544,-74.669906,-26.352173,-29.64846,-35.732551,-45.546386,-15.621322,-15.759727,-23.509048,-32.334114,-6.707336,-6.267631,-11.968162,-18.949974,-0.182647,1.078514,-1.95671,-5.659492,-3.738784,-9.658425,-8.985228,-9.104252,-46.273215,-72.79585,-89.866514,-104.469032,-41.473516,-70.84216,-88.025583,-104.30289,-29.675315,-51.9014,-67.28717,-81.571859,-13.768279,-24.138557,-29.575662,-34.496794,36.130074,56.913803,76.843655,94.602814,36.245567,37.483795,45.093395,56.310196,26.392422,22.39222,33.444557,45.963238,19.911118,18.609295,29.687531,40.353516,17.960003,23.815578,35.670124,45.301552,-13.352446,-24.306975,-26.161198,-27.199469,-60.21881,-87.920098,-105.018484,-117.451531,-53.731034,-82.930717,-98.027566,-110.398022,-40.960629,-63.463393,-75.705962,-85.652042,-24.23122,-34.579162,-38.420155,-41.905083,211.996547,-63.296905,-242.281506,-59.850522
63,-1.672554,0.009602,-4.482319,3.381947,-22.008774,-40.712608,-57.360855,-73.851036,-25.749504,-29.15879,-35.309875,-45.124717,-15.166946,-15.361793,-23.542762,-32.772148,-6.406013,-6.215515,-12.2425,-19.449943,-0.141517,1.020195,-1.962845,-5.735573,-3.507442,-9.392979,-8.89971,-9.144347,-46.224265,-72.87578,-89.749666,-104.046465,-41.482747,-70.851052,-87.843172,-103.715945,-29.653289,-51.865301,-67.043318,-81.003526,-13.689146,-23.784653,-29.027541,-33.807387,38.099316,60.381169,80.657318,99.06958,40.609234,42.748593,50.724232,61.936993,30.735649,27.122109,38.101547,50.603359,24.249046,24.104302,35.589249,46.275376,22.245426,29.675938,41.830055,51.191162,-13.884932,-26.014949,-28.709372,-30.273677,-62.715843,-91.093588,-108.180868,-120.473418,-56.370568,-86.651995,-101.528876,-113.993678,-43.641585,-67.242895,-79.417236,-89.426543,-26.484005,-37.509282,-41.825598,-45.729052,210.384023,-63.330936,-246.703795,-56.512208
64,-1.267433,0.261692,-4.39587,3.449903,-21.952881,-40.509476,-57.05674,-73.309891,-25.738518,-29.231872,-35.342171,-45.035271,-15.224029,-15.45948,-23.942482,-33.50576,-6.474953,-6.564972,-12.818504,-20.273758,-0.280769,0.761101,-2.166298,-5.984093,-3.354992,-9.130144,-8.874676,-9.319687,-46.170709,-73.133804,-89.785562,-103.75512,-41.486038,-71.280958,-88.081908,-103.501486,-29.683713,-52.257904,-67.444893,-81.204153,-13.730982,-24.019138,-29.180342,-33.715657,40.087658,63.824856,84.452911,103.702183,44.853516,47.755852,56.473926,68.022034,34.993252,31.607094,42.771137,55.41148,28.522797,29.414474,41.424728,52.170811,26.588276,35.355595,47.81234,56.927959,-13.93471,-27.190164,-30.867278,-33.020169,-64.967356,-94.193356,-111.163145,-123.209319,-58.840826,-90.331819,-104.974509,-117.545031,-46.104902,-70.698269,-82.599797,-92.462076,-28.318585,-39.733581,-44.216902,-48.294516,209.180208,-63.12258,-251.036047,-53.115641
65,-0.930267,0.847451,2.75964,-2.143573,-22.151505,-40.711762,-57.288643,-73.486839,-26.235901,-29.673157,-35.787461,-45.443344,-15.665749,-16.036148,-24.968582,-34.882874,-6.899529,-7.138779,-13.720757,-21.363922,-0.783325,0.143371,-2.927742,-6.766823,-3.308056,-9.191969,-9.15332,-9.794524,-46.172803,-73.357786,-89.860685,-103.605577,-41.558275,-71.584851,-88.240391,-103.332316,-29.776555,-52.591468,-67.700058,-81.231256,-13.763161,-24.138829,-29.201647,-33.53145,38.933876,62.036373,82.47528,102.091541,42.682274,45.340965,54.450061,66.562191,32.828087,29.498966,40.60683,53.251499,26.356281,26.706688,38.514415,49.251148,24.317642,32.318779,44.187801,53.072742,-11.403301,-24.089009,-27.923376,-30.439205,-61.606991,-90.562451,-107.656768,-119.685476,-55.953549,-86.768308,-101.737944,-114.747997,-43.3387,-67.405262,-79.582752,-89.816799,-25.597479,-36.493469,-40.626387,-44.461903,208.301869,-62.378688,-248.224479,-55.362773
66,-0.631325,1.36929,2.299896,-1.149089,-22.392517,-41.076805,-57.685043,-74.003586,-27.093704,-30.752953,-36.990326,-46.52179,-16.456421,-17.339676,-26.644112,-36.744095,-7.59375,-8.095688,-14.954498,-22.74662,-1.339325,-0.64547,-3.93869,-7.838219,-3.302776,-9.472544,-9.727406,-10.592153,-45.948444,-73.098427,-89.456546,-102.967185,-41.377006,-71.35065,-87.895116,-102.764084,-29.664435,-52.448324,-67.276117,-80.448819,-13.764012,-24.327896,-29.433716,-33.646484,38.276619,61.038368,81.269543,100.971908,41.081966,43.508182,53.0942,65.746742,31.072906,27.810104,39.237408,52.198231,24.423511,24.763802,36.682606,47.744533,22.217216,30.286583,42.38047,51.697403,-9.219324,-21.266614,-25.053643,-27.565971,-58.980894,-87.840841,-104.74141,-116.458168,-53.581055,-84.081664,-98.390118,-110.788443,-41.019848,-64.45219,-75.881253,-85.387741,-23.131062,-33.299398,-36.315671,-39.153837,207.775114,-61.117014,-245.820013,-56.619478
67,-0.488846,1.91882,2.55796,0.161243,-22.751312,-41.628731,-58.445137,-74.938316,-27.968651,-32.026863,-38.335716,-47.747291,-17.320038,-19.070572,-29.119423,-39.824844,-8.26094,-9.442131,-17.083969,-25.533119,-1.762344,-1.920662,-6.028244,-10.523826,-3.393364,-9.916647,-10.614957,-11.973034,-45.263873,-72.248297,-88.291211,-101.416586,-41.005151,-70.98781,-87.245212,-101.458702,-29.719448,-52.269939,-66.511795,-78.93959,-14.193116,-24.667375,-29.353132,-32.996098,37.826821,60.035569,79.763947,99.48499,39.485562,42.036908,52.027234,65.061585,29.299771,26.589478,38.457802,51.838154,22.551396,23.337033,35.478962,46.837819,20.302563,28.583531,40.890839,50.558693,-7.696065,-19.194072,-23.055912,-25.760407,-57.029143,-85.808181,-102.379358,-113.73366,-51.87302,-81.948176,-95.6358,-107.51702,-39.531114,-62.112128,-72.922087,-81.902703,-21.726932,-31.046477,-33.165362,-35.317809,207.413097,-59.265443,-243.135224,-56.525484
68,-1.07135,2.663067,2.687371,1.169904,-23.300812,-42.266739,-59.189552,-76.112114,-28.617439,-33.274521,-40.311836,-50.169113,-17.970428,-20.282638,-31.1735,-42.624687,-8.78714,-10.380478,-18.916145,-28.109138,-2.113792,-3.451103,-8.741501,-14.06504,-3.835874,-11.079271,-12.394376,-14.421957,-45.106817,-71.324918,-86.72096,-99.151405,-40.998853,-70.130554,-85.600922,-98.7525,-29.931876,-51.610247,-64.784216,-75.998437,-14.605164,-24.33262,-28.459894,-31.427946,37.308334,59.260334,78.548034,98.267338,37.604622,41.060108,51.744243,65.074459,27.278217,25.766739,38.231712,52.123855,20.677116,22.90559,35.821953,47.64339,18.830589,28.122059,41.134758,51.50346,-6.734598,-18.012434,-21.916382,-25.159297,-55.520795,-83.73688,-99.812288,-110.788788,-50.678279,-79.728346,-92.533872,-103.893049,-38.846122,-59.85899,-69.363237,-77.2695,-21.607593,-29.813858,-31.033571,-32.566055,206.653742,-56.542339,-240.135858,-55.295543
69,-1.273659,3.927993,3.342132,2.580334,-24.049896,-43.050178,-60.071342,-77.695312,-28.784156,-34.993492,-43.502563,-54.027626,-18.476555,-22.397667,-34.615608,-46.946296,-9.490814,-12.170334,-22.232551,-32.399711,-3.018722,-5.841499,-12.740501,-19.207283,-4.440608,-12.75201,-14.976685,-18.106412,-45.281361,-69.877878,-83.97052,-95.346134,-41.286319,-68.598582,-82.451836,-94.218167,-30.444528,-50.618035,-61.828853,-71.371416,-15.30458,-23.510469,-26.770959,-29.15513,36.487416,58.071247,76.681687,96.098477,36.162953,41.301213,52.470772,65.669976,25.933274,26.917591,40.131775,54.656033,19.53376,24.225106,37.992382,50.436711,18.00626,29.11678,42.975174,54.18132,-6.537282,-17.53687,-21.480542,-25.3759,-54.475053,-81.523771,-96.933756,-107.345774,-50.022724,-78.03662,-89.885706,-100.452578,-38.658963,-58.314971,-66.684313,-73.583409,-21.959725,-29.199596,-29.848951,-31.068417,205.876756,-52.458732,-236.297053,-52.559595
70,-2.036499,5.426071,4.878319,4.091446,-24.233505,-43.378692,-60.707725,-78.493721,-27.492988,-37.322456,-47.713142,-58.818443,-18.012771,-26.124023,-40.006256,-52.92556,-10.041435,-16.567703,-28.411308,-39.211349,-4.757995,-11.016952,-19.636459,-27.210182,-5.656931,-15.216302,-18.548762,-22.605912,-45.256346,-67.55229,-79.754319,-89.142438,-41.044517,-65.803635,-77.401567,-86.712316,-30.187455,-48.270588,-57.540924,-65.217735,-15.082674,-22.125031,-24.972608,-27.201705,35.08683,55.855305,72.876034,90.97316,33.853294,40.820355,52.995072,66.415238,24.569332,28.559795,43.202648,58.710228,19.526676,27.120255,41.913185,54.986218,19.33041,32.493622,47.264557,59.588413,-8.531671,-20.720214,-26.249433,-31.36743,-54.11987,-79.997665,-94.028482,-103.126337,-49.121162,-75.702466,-86.336242,-95.621849,-37.456355,-55.763956,-63.244321,-69.223335,-20.8187,-27.49279,-28.450563,-30.219515,204.680065,-46.768385,-230.578926,-48.203873
71,-3.788177,7.040257,6.215698,6.005481,-21.378227,-39.905525,-57.033669,-74.275704,-26.110268,-39.885269,-52.636185,-64.741448,-18.414025,-31.336395,-47.472748,-61.50515,-12.243576,-23.615776,-37.985527,-50.099396,-8.634247,-18.784973,-29.410217,-38.386482,-9.553011,-20.799466,-25.058126,-29.583993,-44.857365,-63.980399,-73.284852,-80.109356,-39.128439,-60.129711,-68.833598,-75.128253,-27.646518,-43.113366,-50.201863,-55.77125,-12.618975,-18.080682,-20.005078,-21.871422,31.764244,52.259194,68.420998,85.455208,30.734619,41.15419,54.740021,68.625618,22.299706,30.881447,47.479317,64.026581,18.391903,30.753857,47.535679,61.578038,19.361264,34.706189,49.96542,62.457688,-11.750597,-24.728656,-30.717643,-35.617465,-53.516637,-77.526938,-89.19608,-96.286726,-47.327646,-72.324546,-81.325564,-88.987929,-34.962855,-51.540457,-57.179257,-61.663245,-18.298234,-24.932717,-26.515238,-28.857134,202.52302,-39.340471,-222.732096,-41.810735
72,-5.847622,12.616476,6.934994,7.312206,-19.460529,-38.35445,-56.016884,-73.228157,-27.003136,-46.838471,-61.923077,-73.772861,-20.924778,-40.964218,-58.708191,-72.137592,-16.556431,-34.788849,-50.924355,-62.674027,-14.514404,-29.671257,-41.790722,-51.041027,-14.151607,-27.048193,-31.729168,-35.801879,-46.391164,-61.250931,-66.275226,-69.684463,-38.744298,-54.3908,-58.902063,-61.794995,-26.188124,-37.930378,-41.91973,-45.031376,-10.782338,-14.512995,-15.46879,-16.874251,27.709889,47.536205,62.976116,78.499889,29.040047,44.072228,59.066059,73.036572,21.782982,36.143795,54.7687,71.839817,18.612305,35.66209,54.510876,69.485481,19.75098,37.140015,53.100037,66.121754,-15.717653,-29.847691,-37.029598,-42.138055,-52.233006,-73.136898,-81.1723,-85.42686,-44.571361,-66.282065,-72.287447,-76.945879,-31.581501,-46.026744,-49.395173,-51.988382,-15.073251,-20.952384,-22.313697,-24.350664,198.61385,-26.286086,-213.85865,-34.06062
73,-7.634949,17.79747,8.467198,12.267667,-18.217586,-38.5574,-57.778381,-75.29187,-30.105194,-58.235458,-75.062198,-84.979122,-25.526653,-55.414604,-74.301613,-85.640179,-22.705272,-50.428253,-67.928032,-77.934814,-21.830086,-43.719932,-57.246403,-66.019306,-19.279714,-33.416909,-37.818383,-40.452729,-48.999971,-58.949099,-58.591894,-57.937905,-39.37269,-48.815344,-48.207127,-47.505809,-25.722409,-32.90213,-33.04837,-33.416057,-9.818878,-11.78611,-11.2497,-11.596759,24.390575,44.213396,59.86227,74.330978,29.32493,50.104929,65.991599,78.943725,22.933239,44.550458,64.771791,81.228275,20.161743,42.938804,63.000595,77.856525,21.141363,41.453304,57.455566,70.045949,-20.131412,-35.341888,-42.877337,-46.936315,-51.955101,-69.111968,-72.684431,-73.45498,-42.245816,-59.80611,-62.248176,-63.575349,-27.911288,-39.828778,-41.042652,-41.973613,-10.784018,-15.87424,-16.927575,-18.701168,192.68264,-8.110144,-203.687713,-21.414481
74,-8.082916,19.956603,9.570957,16.445845,-14.962681,-36.328159,-56.679474,-73.158508,-33.882179,-67.981087,-87.011227,-97.907192,-31.428509,-68.793755,-89.538117,-101.316845,-30.032993,-65.065201,-84.839768,-95.88192,-30.123505,-57.332977,-72.805859,-83.137333,-24.720642,-40.520188,-44.683145,-44.60881,-49.692953,-54.914833,-51.056245,-47.254009,-38.100736,-41.589261,-37.568611,-33.828284,-23.050852,-26.30797,-23.803512,-21.929998,-6.635162,-7.402059,-5.56978,-5.044737,22.374653,43.286848,60.290794,74.201774,31.001787,58.597955,74.999702,85.890495,24.885589,54.442217,75.511579,90.001316,22.281154,51.711181,72.358131,85.904949,23.073309,47.025592,62.670124,74.004598,-24.657433,-41.17154,-48.129876,-49.99091,-52.091347,-65.099834,-63.488676,-60.51297,-39.78416,-51.623131,-49.777451,-47.787881,-23.765754,-31.927349,-30.442879,-29.538037,-5.786649,-9.861775,-10.274536,-11.596029,186.069431,12.561065,-192.647049,-4.25403
75,-14.204041,24.977992,9.297123,15.819011,-13.583736,-36.488765,-58.202888,-74.779998,-40.775413,-78.857391,-97.168911,-105.396251,-40.517498,-82.541564,-101.766403,-110.365345,-40.101711,-79.261756,-98.008094,-106.734695,-39.760391,-70.075996,-85.502689,-94.589985,-28.761181,-44.768808,-47.548135,-45.222547,-48.751345,-50.704776,-44.140173,-38.781784,-34.525826,-33.834218,-27.847238,-23.269933,-18.237932,-18.566425,-14.356261,-11.42114,-1.850154,-1.299389,1.511079,2.708552,21.558059,44.092397,62.936599,76.729202,33.168291,65.705446,82.780677,93.556514,26.759674,61.715349,84.04997,98.171173,23.240307,56.972133,78.916591,92.861961,22.729025,48.545734,64.608696,75.642019,-27.168477,-42.680653,-47.283099,-46.420397,-48.143977,-56.524573,-51.404788,-46.07252,-33.940305,-41.289614,-36.020818,-31.545627,-17.176806,-22.400379,-18.502504,-16.323857,0.70695,-2.157244,-1.506188,-2.114217,173.053722,38.393668,-182.161594,12.419592
76,-12.832191,27.120898,9.352626,23.442791,-15.750927,-40.436062,-63.112267,-79.887817,-47.923073,-88.493752,-106.784031,-114.389225,-48.390782,-93.247673,-112.684799,-120.889549,-47.799786,-89.183029,-108.290062,-117.174866,-46.475853,-78.485687,-94.76469,-104.796101,-29.926059,-45.296002,-47.101377,-42.93323,-47.463164,-46.998671,-38.855456,-32.174644,-32.444515,-29.01755,-21.242327,-15.407216,-15.453396,-13.421066,-7.449736,-3.113375,1.525087,3.331842,7.249755,9.527903,22.178467,46.690642,67.624512,81.730111,40.947276,78.74306,94.791848,101.920109,34.737649,75.979071,96.418139,106.343171,30.235394,68.951958,88.964928,99.511437,27.869116,57.375286,72.826413,82.059111,-28.153779,-43.417756,-47.874755,-47.92699,-45.117275,-48.330726,-40.491527,-33.795692,-29.378531,-30.68093,-23.280517,-17.677269,-11.592186,-12.720959,-8.125286,-5.770638,6.896069,6.50262,7.666279,7.318288,160.50828,66.262184,-172.522219,36.610001
77,-16.375683,28.225233,7.897717,25.034697,-18.341514,-44.788032,-68.184265,-84.514343,-54.281158,-95.559173,-112.735233,-118.988937,-54.753273,-99.975357,-117.859085,-124.450264,-53.187492,-94.955704,-111.670006,-118.482582,-50.238762,-83.06076,-97.756004,-105.831642,-20.535673,-31.718302,-33.29886,-30.259288,-34.522315,-33.198583,-26.727887,-21.227957,-25.644371,-21.774603,-14.910124,-9.581731,-14.94665,-12.792746,-6.562173,-1.863046,-3.818145,-2.355901,2.414726,5.518098,25.133045,52.781748,76.108727,91.170719,49.506495,89.019373,105.132374,112.166222,43.00185,85.89073,105.859697,115.865501,37.562599,78.285152,97.80574,108.453346,33.413572,64.662826,80.004833,89.252054,-27.714208,-41.585423,-44.716412,-44.627757,-40.619943,-39.727325,-30.734078,-23.249153,-23.88388,-20.777639,-12.33683,-6.576057,-5.375111,-2.547207,2.993654,5.677173,13.627631,15.628764,17.398997,17.401081,143.975189,95.170599,-164.78191,62.32788
78,-17.030537,26.476836,11.025627,25.81359,-19.913909,-47.255115,-70.568304,-85.649459,-58.860809,-97.89739,-113.28903,-118.90389,-59.985454,-102.315668,-117.898138,-123.246185,-58.13126,-97.136919,-111.362033,-116.955104,-54.328319,-85.531288,-98.461738,-105.114257,-9.372107,-15.708261,-16.834706,-15.229375,-17.722844,-17.100511,-14.167786,-11.486034,-15.243145,-13.034302,-9.125167,-6.010631,-11.433459,-10.981953,-6.821439,-3.635451,-7.106071,-7.146085,-3.312082,-1.112631,27.574379,57.645001,82.056107,97.140667,57.196861,97.998001,115.387528,123.734871,50.578537,94.631126,115.245667,125.924389,43.978409,85.945885,105.493824,116.195057,37.836537,70.616627,86.210999,95.160118,-25.974317,-37.799206,-40.427711,-41.215541,-33.094516,-27.305378,-17.922452,-10.668106,-15.621527,-8.167326,0.560082,6.012829,3.127158,9.686034,15.458246,18.031003,21.774004,26.322737,28.339123,28.267504,126.703468,122.356073,-153.997467,88.850108
79,-18.940567,27.227424,9.227532,24.543535,-23.296119,-52.116657,-75.902292,-90.724777,-63.549888,-101.200945,-113.081983,-114.488565,-64.962009,-105.014196,-116.246126,-116.749042,-63.303531,-100.252424,-110.215061,-111.143772,-59.159946,-89.233451,-99.377632,-102.163536,3.252629,3.042251,3.295045,3.02054,-0.226019,-1.321916,-1.059057,-1.217669,-4.211669,-4.706685,-3.493246,-3.364675,-7.916298,-9.486846,-8.051581,-7.368813,-11.016947,-13.122092,-11.56739,-11.265011,30.048374,61.449256,86.238201,101.603885,64.363266,102.882225,121.051654,132.19384,57.235473,98.270587,119.577678,132.948005,49.303813,88.029533,108.268741,121.273921,40.912799,71.414405,87.309539,97.776374,-23.89665,-33.902162,-36.813632,-39.085208,-23.492259,-14.511853,-5.645143,1.589455,-6.277584,3.769887,12.133221,17.96443,11.469916,21.109267,27.431175,30.811541,28.720771,36.317479,39.449195,40.830138,107.553697,149.841809,-144.979139,113.651955
80,-11.079345,24.535686,8.406497,29.163558,-26.126862,-55.796437,-79.707762,-93.977372,-65.486321,-103.24692,-112.557261,-112.380244,-66.288082,-105.895334,-115.863596,-115.722325,-64.279095,-101.450026,-110.257679,-110.277432,-60.217907,-90.063881,-100.04464,-102.739895,4.424343,5.728876,6.124505,6.144747,6.565224,2.29743,-1.974488,-3.978703,3.051601,-1.532904,-3.949143,-5.179106,-0.902562,-5.147366,-6.958913,-8.079455,-5.005291,-8.042688,-8.384119,-9.225264,32.82034,65.708851,91.036469,107.814011,72.843144,109.437859,126.94114,137.502034,65.177868,104.23621,124.185391,137.227948,56.268689,93.067097,112.144124,124.325879,46.216702,74.82708,89.382088,98.949715,-21.725406,-30.675276,-34.490266,-38.566275,-17.176531,-5.496669,3.977523,11.8848,-0.430141,12.874628,21.151252,27.332085,16.28611,29.255209,35.929336,40.261281,32.242175,42.388744,45.988052,48.353938,96.198847,174.417379,-136.848147,142.855397
81,-10.336647,23.699759,11.345971,25.585363,-29.626122,-60.8699,-85.370104,-99.421269,-66.424874,-104.693968,-111.533781,-108.899042,-66.496228,-106.147642,-114.489355,-112.231636,-64.410244,-102.342779,-109.778916,-107.498165,-60.702496,-90.974236,-100.368737,-101.905232,6.195122,9.898393,11.249949,11.392796,16.295909,9.888229,0.492805,-5.036666,12.769886,5.512607,-1.018863,-5.353915,7.449341,1.249056,-4.013987,-8.006725,0.560879,-3.111054,-4.763248,-6.601045,34.606086,67.531356,92.31546,109.397998,75.920002,111.923881,129.216625,140.374603,67.69162,105.860572,125.398418,138.613083,57.878471,93.142662,111.13187,122.994598,46.515987,73.866691,87.535286,96.534702,-20.306147,-26.854148,-29.607315,-32.612238,-7.933841,8.018156,16.386133,22.706251,9.426294,26.494713,33.158323,37.697682,25.427777,41.884323,47.346098,50.503878,39.687194,53.461698,56.791478,58.602568,85.60389,198.128476,-125.760486,168.452098
82,-5.822457,20.506145,10.364536,24.936774,-31.028366,-62.745483,-87.765581,-102.373037,-65.537189,-104.440681,-110.328918,-106.876636,-65.502319,-106.153673,-113.790178,-110.411287,-64.106552,-102.719455,-110.454185,-107.830141,-61.584468,-92.321336,-102.173898,-104.191452,2.722118,7.289352,10.686106,13.35812,21.168572,13.358195,0.114639,-7.803468,21.836137,11.592985,1.018486,-5.888767,19.007956,10.044822,0.405706,-6.427984,12.86182,7.757766,3.140088,-0.601375,36.016125,68.941143,93.440964,110.702293,77.402035,113.445991,130.428944,140.399998,68.609951,107.133797,125.550121,136.069736,58.443329,93.562889,109.982334,118.946525,47.135834,74.071735,86.69387,93.643753,-18.199995,-23.317091,-25.407799,-28.660225,0.765076,19.981162,28.065056,32.933372,18.727258,38.759178,43.992352,46.34114,34.109532,52.984299,57.119909,58.345136,46.624624,63.063424,66.043721,66.456596,79.56459,218.605444,-115.612793,193.359695
83,-4.196903,20.165263,5.129311,21.670974,-31.775185,-63.712749,-89.744774,-105.842794,-63.81213,-104.643328,-110.676161,-106.604524,-62.925876,-106.322376,-113.157188,-108.062582,-61.501591,-102.022917,-109.069382,-104.976099,-59.584625,-92.375113,-101.475019,-102.180908,2.787414,9.574303,15.127098,20.069372,28.977258,20.503323,3.301332,-6.734796,31.368104,17.637153,2.437444,-6.566507,28.489047,15.540418,1.428034,-7.377933,21.123754,13.347235,5.643963,0.565511,37.504531,70.132106,94.669967,113.07732,78.92506,112.1777,127.829257,137.187572,69.594566,105.282074,122.418079,132.554042,59.278209,91.23674,106.752845,115.650558,48.002323,71.766048,83.2336,90.186687,-16.554841,-20.611509,-21.829079,-25.4603,7.806969,27.375909,35.592839,40.66319,25.666867,46.517228,51.728234,53.981197,40.166,60.4344,64.835635,66.029938,51.252681,69.633346,73.446632,74.402516,75.219875,238.576721,-110.631294,214.836683
84,1.006622,17.361203,5.766094,20.006998,-35.435119,-67.946491,-94.333831,-112.253614,-63.858982,-105.007673,-111.379171,-107.500928,-60.810184,-105.432312,-112.182781,-106.816,-57.745571,-100.33394,-107.449779,-103.142663,-54.907562,-89.577306,-98.974096,-99.875106,1.315321,9.938,17.633238,26.046058,32.859419,22.499454,3.498871,-6.68058,37.286288,20.871367,3.828124,-5.653639,35.150607,20.150641,4.669436,-4.399896,27.245603,19.268518,11.729466,7.495907,38.127136,70.670471,95.124893,114.046875,79.203335,111.232784,126.218834,134.621406,69.820518,104.6338,120.749748,129.558952,59.553875,90.789242,105.24052,112.937679,48.525764,71.58435,82.215236,88.04694,-14.11591,-16.474665,-17.140198,-21.753608,14.126592,34.395979,42.99896,47.814875,32.335862,54.221493,59.734174,61.680201,46.550103,67.467129,71.632416,72.315833,56.624547,75.640697,79.248786,79.481462,76.007108,255.685886,-105.084589,234.591643
85,-0.326911,13.952888,6.031048,16.758901,-35.746171,-67.500905,-92.967694,-111.558604,-67.939419,-104.468531,-108.706622,-103.377326,-64.05439,-103.085221,-105.831437,-97.53221,-59.751263,-97.049887,-100.031537,-92.601191,-55.469765,-86.609305,-92.23094,-89.82597,13.730909,27.253075,36.513624,45.80708,42.525348,37.302831,23.924524,16.534402,40.135329,30.247415,19.205052,12.3893,32.051725,22.342151,12.487039,6.465719,19.424766,15.007296,11.532458,10.119028,37.798816,69.993873,94.686847,113.479946,78.468658,110.603267,125.788707,134.282672,68.632175,103.779384,119.915508,128.570995,57.830234,89.037117,103.24506,110.992069,46.446361,69.805824,80.145607,85.691036,-11.738371,-12.586488,-12.279267,-17.39293,19.953793,40.841327,49.541442,53.775606,38.455896,61.475487,67.499647,69.345132,52.578623,74.62152,79.079838,79.567332,62.034945,82.039609,86.060055,86.261176,75.446795,269.369262,-99.286943,251.081032
86,-1.114037,12.205105,2.351921,12.67048,-34.074829,-65.223164,-90.606651,-110.262148,-72.756237,-104.282724,-104.54143,-96.100485,-68.679096,-101.18359,-96.641865,-82.90515,-63.425686,-93.504862,-89.336243,-76.609056,-57.693054,-83.706007,-83.164908,-74.953754,26.131626,43.280889,53.48302,63.37007,48.147821,48.07871,41.403855,38.265088,40.038479,36.173725,31.429114,28.628634,27.210887,23.032212,18.599453,16.352923,11.440845,10.97834,10.319976,11.077122,38.614151,70.788047,95.838649,115.048381,77.532623,106.650226,122.834713,133.618206,66.885543,98.921596,116.856205,128.763141,55.875938,84.071365,100.337597,111.260456,44.715408,65.758003,77.064457,84.823631,-9.398412,-9.944286,-9.340577,-15.491202,22.770391,41.642959,51.850747,58.123107,40.226318,61.995253,70.558714,74.954602,53.411587,74.772821,81.764845,84.376393,62.102736,81.356576,87.489392,89.625611,74.106337,281.294017,-97.161443,263.471162
87,-0.113274,9.172166,4.290733,11.676608,-32.801628,-63.294365,-87.880508,-107.806686,-77.731292,-103.388637,-99.306347,-87.944584,-73.648304,-98.239895,-87.432838,-69.692825,-67.429756,-89.338302,-79.349304,-62.688045,-60.059463,-79.36227,-73.820537,-61.549415,34.084387,53.141589,63.717681,74.321066,48.880811,53.917026,54.403755,55.892718,37.373288,40.8497,43.554887,45.301164,22.450399,25.706054,27.970676,29.925855,5.804847,11.241217,14.93204,18.660702,37.931534,69.412823,94.338009,113.901867,75.522034,103.30315,119.491642,131.124287,64.329517,95.354359,114.086071,127.989155,53.009731,80.062477,97.162479,110.11694,41.71669,62.026348,73.815754,83.195045,-8.42304,-8.705289,-7.980969,-14.271854,23.60675,41.24373,52.218853,59.910015,40.328762,61.483169,71.933339,78.805407,52.951509,74.166987,82.922418,87.66606,61.300412,79.946579,87.192755,91.048599,73.781913,290.22753,-93.08186,274.909117
88,0.707428,6.214672,4.809265,9.974828,-32.357849,-62.106537,-85.318577,-104.843685,-83.706871,-101.2947,-90.885303,-76.398102,-79.598682,-94.115993,-77.572643,-56.91315,-72.349285,-84.765735,-69.746944,-50.512504,-63.052437,-74.130409,-64.863189,-50.616119,37.788968,56.702933,66.95386,78.51203,44.082384,54.481549,62.20923,68.028589,31.484572,43.712536,54.853311,61.088905,17.344604,30.141883,40.205533,46.329321,2.666679,16.037904,25.308505,32.517038,36.624333,67.419502,92.303845,111.896816,72.395794,100.404728,116.552845,128.173428,60.908867,92.669209,111.538502,125.529705,49.514706,77.453854,94.659016,107.727619,38.371697,59.60249,71.930912,81.885956,-7.997617,-8.292117,-7.553718,-13.672084,23.549533,41.046228,52.023339,59.860109,40.070781,61.100156,71.833847,79.164288,52.385048,73.385993,82.393007,87.436632,60.480367,78.686031,85.888031,89.807144,74.3199,296.265617,-88.442036,284.70736
89,-2.433471,5.405471,4.266197,8.472046,-28.231156,-55.81778,-77.813828,-96.356598,-85.649987,-96.937168,-80.800518,-63.316979,-82.987347,-89.496701,-67.715756,-43.832886,-76.365853,-80.369053,-59.906685,-37.569878,-66.808892,-71.890297,-59.395066,-43.148827,40.600513,58.815983,68.386383,79.017395,40.434639,57.579208,70.279947,78.815854,27.749511,47.868931,64.528019,74.083587,15.063778,35.197006,50.386249,59.613934,3.087705,21.895436,34.676857,44.48186,35.208298,65.219902,89.892094,109.489392,68.925019,97.33849,113.511326,125.111767,57.393643,90.024159,109.109791,123.186528,46.088734,74.887802,92.179516,105.154209,35.241337,56.902863,69.67994,80.134461,-8.176162,-8.745736,-7.683246,-13.216898,22.892965,40.702537,51.136356,58.469118,39.457994,60.481601,70.833033,77.663456,51.655504,72.701613,81.391291,85.820117,59.59678,77.712115,84.592655,88.02499,71.782334,301.575443,-84.279934,293.083761
90,-2.648232,5.172338,3.32555,6.873784,-26.026932,-52.857834,-74.709549,-93.290451,-82.545158,-92.022159,-74.916241,-57.522949,-80.154053,-85.03046,-62.135971,-37.887199,-74.096969,-75.807232,-54.277885,-31.967628,-65.005508,-68.24485,-54.525581,-37.878364,40.641391,58.598658,68.313443,78.926585,40.77744,59.612353,71.827721,79.396456,28.24549,49.310272,65.394143,74.596449,15.597968,36.725304,51.562433,60.747622,3.695305,23.530389,36.38517,46.42717,33.504445,62.738572,87.244492,106.90725,65.274067,94.222321,110.492066,122.255036,53.885617,87.252594,106.686882,120.714295,42.892067,72.582596,90.156372,102.989457,32.625573,54.803822,68.120625,79.040188,-8.933136,-9.784291,-8.162528,-12.813606,22.240843,40.305383,50.083499,56.848207,39.007105,59.839953,69.73001,75.795913,51.028354,71.904427,80.160482,83.739499,58.695952,76.665631,83.165924,85.950546,69.008737,306.690535,-81.079749,299.900299
91,-2.864914,4.422527,2.128453,4.967796,-24.459869,-50.017708,-71.039017,-89.27774,-79.415062,-87.407146,-69.351562,-51.741554,-77.356132,-81.329624,-58.324264,-34.197006,-71.677631,-72.754669,-51.021995,-28.990356,-62.84317,-65.645782,-52.103348,-36.085373,39.835302,57.59892,67.410541,78.619254,40.717728,59.570339,70.622711,76.956562,28.250443,48.958221,63.995657,72.114786,15.48362,35.988585,50.36308,59.117041,3.36399,22.587066,35.322211,45.405868,31.979931,60.607315,85.120823,104.840183,62.275531,91.729053,107.996463,119.81306,51.220207,85.133457,104.678775,118.583141,40.533577,70.946949,88.832119,101.649959,30.703434,53.294014,67.150875,78.546009,-9.497992,-10.443181,-8.385978,-12.316416,21.819384,39.846207,49.058528,55.195161,38.668342,59.02486,68.443749,73.715369,50.418729,70.952026,78.727625,81.562871,57.762051,75.703226,81.829583,84.01088,65.993545,311.083746,-79.101574,304.838779
92,-3.19828,3.18211,1.369217,3.120211,-22.69146,-47.348007,-67.882782,-85.783619,-76.172688,-82.583164,-63.817108,-46.32431,-74.567436,-77.571739,-54.748352,-30.802941,-69.529289,-69.892273,-48.079331,-26.449814,-61.271782,-63.481865,-49.85669,-34.307648,38.965696,56.541691,66.200962,77.56368,40.502071,59.091476,69.005851,74.043437,28.29168,48.285623,62.343661,69.290804,15.590682,35.52684,49.20899,57.20636,3.50646,22.402259,34.786267,44.386875,30.704029,58.782772,83.393177,103.17152,59.602981,89.57278,105.922039,117.935978,48.956588,83.252185,102.948772,116.850711,38.604595,69.564411,87.782238,100.717197,29.113987,51.846485,66.118744,77.90253,-10.022919,-10.990301,-8.465265,-11.66096,21.344919,39.128408,47.73812,53.286172,38.306955,58.159539,67.245902,71.819619,49.860037,70.066538,77.504424,79.737331,56.941203,74.873869,80.711876,82.313386,62.623415,314.226907,-77.904207,307.920041
93,-3.301071,2.079223,1.06557,1.781364,-20.548302,-44.350525,-64.386052,-81.802391,-71.929688,-78.27451,-60.808503,-44.301865,-71.036843,-74.189232,-52.139969,-28.831147,-66.760609,-67.190998,-45.869477,-24.804703,-59.255013,-61.078354,-47.532807,-32.431893,37.806443,55.29038,64.815085,75.926182,40.640515,58.300231,67.294858,71.517067,28.786412,47.769674,60.966997,67.185856,16.060541,35.040605,48.211436,55.694462,3.665628,22.124172,34.383086,43.600953,29.735779,57.365799,81.985337,101.75647,57.214989,87.527436,104.052636,116.274697,46.780735,81.346001,101.271378,115.189339,36.692379,68.045151,86.552514,99.604615,27.539052,50.29572,64.863339,76.905465,-10.521727,-11.441401,-8.487496,-10.871741,21.189802,38.821953,46.942848,51.882399,38.265902,57.720061,66.496276,70.475485,49.652419,69.553478,76.650724,78.3683,56.485275,74.333108,79.941354,81.08081,59.13315,316.278552,-77.027831,309.673827
94,-2.985009,1.439155,0.482518,0.992452,-19.282608,-43.237106,-63.221763,-80.743103,-69.901016,-75.965446,-59.142311,-42.88916,-68.846443,-71.770752,-50.119606,-27.238998,-64.493053,-64.009803,-43.064506,-22.294738,-56.830169,-56.271286,-41.323883,-25.420944,38.157765,55.859633,64.944711,76.239245,41.182523,58.240901,66.835484,70.594504,28.398545,47.005945,59.889588,65.712788,14.599749,33.383347,46.655869,54.078183,1.205356,19.804024,31.923234,40.619458,28.854927,56.160392,80.892299,100.756702,55.58781,86.333599,103.003841,115.539287,45.386673,80.296566,100.360576,114.321888,35.595691,67.400436,86.115314,99.358967,26.72723,49.780117,64.610561,77.030719,-11.220136,-12.328852,-9.111125,-10.817919,20.401114,37.825758,45.672569,50.313408,37.57541,56.508469,65.192825,68.821588,48.890877,68.42862,75.49661,77.040234,55.660908,73.406778,78.996524,80.011269,55.94482,317.689348,-76.748634,310.63792
95,-2.876701,1.039482,0.463096,0.262242,-18.248817,-42.221764,-62.277431,-79.617668,-69.383194,-73.792568,-56.843788,-40.430077,-68.315151,-69.45583,-47.900642,-25.052101,-63.707119,-61.389198,-40.530853,-19.953049,-55.657402,-53.06916,-38.018875,-22.454407,38.020988,56.094914,64.876477,76.02707,41.142805,57.609738,65.847737,69.505806,28.005874,45.954051,58.309395,63.749841,13.754694,32.04939,45.008603,52.263498,-0.037619,18.231377,30.09268,38.66502,28.496109,55.568436,80.271504,100.106793,54.399227,85.310589,102.00269,114.660611,44.380234,79.431553,99.500622,113.482556,34.835427,66.90588,85.766774,99.134617,26.174675,49.404705,64.370224,77.01305,-11.445538,-12.715275,-9.573982,-10.988214,19.634605,36.874999,44.636063,49.269394,36.87411,55.378782,63.946825,67.452111,48.3009,67.582726,74.621322,76.146495,55.183268,72.96441,78.584562,79.54257,52.898317,318.707681,-76.45534,310.879013
96,-2.693001,0.327092,0.671105,0.272159,-17.170715,-41.092163,-61.415806,-78.650253,-68.096775,-71.316135,-54.756775,-38.727836,-66.935302,-66.429302,-45.436065,-23.059295,-62.138557,-57.963546,-37.587867,-17.571785,-53.944679,-49.214401,-34.186729,-19.02285,37.769293,56.139769,64.937647,75.976422,41.566771,57.895704,65.959085,69.547216,28.197831,45.964116,57.855764,63.023088,13.684373,32.079351,44.647919,51.655961,-0.321103,18.132057,29.94417,38.427219,28.230102,55.022976,79.599415,99.325962,53.693619,84.55965,101.273884,113.988979,43.630497,78.65443,98.774288,112.708385,34.031616,66.226764,85.148517,98.531078,25.292038,48.679023,63.662132,76.384815,-11.715387,-13.123124,-10.022969,-11.185087,19.002614,36.275069,43.937937,48.46297,36.274773,54.709765,63.278006,66.786985,47.785087,67.017746,74.116203,75.738782,54.721251,72.431022,78.095647,79.071538,50.108642,319.037722,-75.880909,311.154121
97,-2.800003,0.564769,0.613884,0.231774,-16.224037,-39.620247,-59.765556,-76.883537,-66.731529,-68.677105,-52.046264,-36.001945,-65.422233,-63.126411,-42.317573,-20.360389,-60.291195,-54.428501,-34.335205,-14.792175,-51.814121,-45.334327,-30.644462,-16.014747,37.53647,56.085725,64.889655,75.93237,41.939879,58.14399,65.859432,69.304179,28.206353,45.860611,57.042054,61.853004,13.417772,31.633106,43.893452,50.769842,-0.774832,17.315618,29.177452,37.92467,27.860676,54.365398,78.756031,98.423618,53.149246,83.83279,100.527363,113.26054,43.093059,77.934688,98.071277,111.871982,33.489074,65.594204,84.541271,97.829029,24.719799,48.110767,63.094196,75.821331,-11.985064,-13.468568,-10.366882,-11.354926,18.605745,35.89938,43.539239,48.078833,35.901417,54.225852,62.706123,66.289771,47.452511,66.581134,73.681456,75.440811,54.419823,72.057012,77.804592,78.988027,47.34676,319.6416,-75.228904,311.425004
98,-2.667503,0.788429,0.257766,0.266737,-15.142594,-38.301544,-58.474182,-75.820118,-65.192288,-65.97559,-48.95089,-32.479042,-63.857872,-59.636582,-38.976036,-17.350227,-58.652172,-50.958023,-31.01548,-11.843445,-50.2729,-42.227875,-27.532333,-13.114426,37.100438,55.860818,64.633428,75.740548,42.27758,58.384706,65.792199,69.16429,28.304475,45.722883,56.084614,60.427397,13.288985,31.297295,42.967147,49.54695,-1.13454,16.549172,28.136217,36.768875,27.611378,53.87241,78.032742,97.631207,52.877163,83.462826,100.088253,112.797558,42.837021,77.469052,97.570096,111.310078,33.173573,65.026131,84.036999,97.322995,24.276673,47.517678,62.579236,75.38213,-12.244218,-13.799204,-10.709152,-11.617871,17.967221,35.306094,42.865073,47.362442,35.321631,53.704074,62.144342,65.73319,46.946417,66.16874,73.356846,75.24011,53.968736,71.588117,77.430311,78.741445,44.809193,320.479939,-74.841202,311.741651
99,-2.889176,1.037926,0.319119,0.088945,-13.998893,-36.527389,-56.525836,-73.959629,-62.922122,-62.846328,-45.885612,-29.309349,-61.559314,-55.649288,-35.169342,-13.783584,-56.36103,-46.947315,-27.176879,-8.272659,-48.240051,-39.006248,-24.446662,-10.147728,36.590132,55.390169,64.113304,75.120784,42.559335,58.198664,64.897707,67.885797,28.296533,45.029956,54.554772,58.503624,12.959991,30.421192,41.435181,47.692906,-1.729185,15.12438,26.309257,34.77036,27.445793,53.428013,77.322349,96.819237,52.376884,82.916702,99.505943,112.135506,42.311394,76.899742,97.045624,110.702316,32.580425,64.401455,83.521912,96.772041,23.610775,46.842739,62.032001,74.875053,-12.469471,-14.001622,-10.77126,-11.523887,17.609316,35.032874,42.500166,46.918543,35.029712,53.492962,61.82413,65.353561,46.707876,66.001817,73.142696,75.022724,53.731886,71.315131,77.182519,78.505225,42.153883,321.563872,-74.288217,311.876603
100,-4.094764,1.178963,0.323982,0.206432,-13.176728,-34.26947,-53.276413,-70.370728,-59.588402,-58.933491,-42.024948,-25.566513,-58.075985,-50.555901,-30.18496,-9.176972,-52.76175,-41.618202,-22.042671,-3.44941,-44.86631,-34.412476,-20.00956,-5.893433,35.891513,54.509744,63.184948,74.114018,42.474181,57.523572,63.297445,65.640849,28.033366,43.976433,52.899256,56.679419,12.539768,29.318577,39.882751,45.964241,-2.184161,13.589043,24.466958,32.859914,27.099644,52.845154,76.61467,96.086655,51.971443,82.490364,99.037857,111.673531,41.928406,76.587959,96.763138,110.417862,32.210461,64.05201,83.204659,96.490242,23.195538,46.544529,61.868145,74.903137,-12.774395,-14.351006,-10.95109,-11.720611,17.100269,34.433141,41.852996,46.267496,34.646785,52.876519,61.169414,64.702637,46.404199,65.450163,72.609728,74.597153,53.480018,70.813347,76.675474,78.093868,38.354153,322.788484,-73.669201,312.128684
101,-6.884583,3.125411,0.312618,0.217089,-11.785537,-30.424885,-46.975181,-62.819366,-54.027466,-50.891086,-33.844185,-17.65432,-52.239418,-42.25692,-21.807174,-1.316688,-46.878422,-33.686943,-14.12146,3.922302,-39.280208,-28.831352,-15.330986,-2.172432,33.086402,51.13664,59.670954,70.049136,39.888531,54.217578,59.43366,61.824093,25.970803,40.71695,49.111338,52.918868,11.190298,26.58685,36.560085,42.514442,-2.655626,10.966293,20.980629,29.10576,26.797039,52.300415,75.951062,95.413456,51.357663,81.912037,98.458638,111.114315,41.379376,76.114666,96.371716,110.022229,31.746415,63.627537,82.857296,96.161511,22.785725,46.228959,61.645947,74.816426,-13.030263,-14.69577,-11.197597,-11.888745,16.673624,33.878079,41.262824,45.705494,34.308665,52.351555,60.560383,64.110217,46.12867,64.967115,72.087246,74.135458,53.239489,70.422887,76.281359,77.764949,31.801815,325.941312,-73.024338,312.37319
102,0.332955,-1.555221,0.177647,0.329661,-12.670807,-31.381886,-48.06617,-64.393593,-56.694878,-51.481991,-32.855301,-16.122208,-54.9646,-43.307156,-21.714707,-0.542633,-49.21312,-35.685562,-14.572976,4.188148,-41.331665,-34.038266,-22.994007,-11.617287,32.664856,50.488051,59.768063,70.391801,38.903451,54.254542,59.586924,62.309376,26.209592,41.675093,50.271381,54.41492,12.66244,28.307216,38.141426,44.432151,0.175618,13.850136,23.541875,31.977982,26.617447,52.003796,75.592232,95.036568,50.927319,81.54847,98.079414,110.765923,40.909699,75.755241,96.091164,109.811989,31.255302,63.167759,82.496338,95.92392,22.269653,45.805927,61.288113,74.584786,-13.312734,-15.058517,-11.473844,-12.125434,16.166715,33.34999,40.723335,45.179294,33.890528,51.871618,60.065589,63.573556,45.768282,64.545915,71.683818,73.767178,52.891377,69.98662,75.819367,77.25846,32.469052,324.413237,-72.512409,312.729997
103,0.464332,-0.283793,0.187328,0.361759,-13.069679,-31.819622,-48.529094,-64.706222,-57.760105,-52.161403,-33.273514,-16.564499,-56.023819,-43.981121,-22.273773,-1.104629,-50.12352,-36.25074,-14.985809,3.706787,-41.964695,-34.626926,-23.589214,-12.360855,33.217597,51.040853,60.136009,70.797996,39.149798,54.688771,59.907125,62.466013,26.254028,41.905102,50.386842,54.362803,12.593552,28.50961,38.235102,44.335894,0.043435,13.890607,23.55367,31.866461,26.355595,51.6293,75.268879,94.713719,50.559517,81.129376,97.63773,110.391507,40.591954,75.452214,95.87193,109.640545,30.995934,62.918244,82.246319,95.711873,22.059105,45.663094,61.094033,74.422589,-13.555389,-15.42224,-11.781065,-12.429111,15.712367,32.754913,40.179103,44.755192,33.542218,51.327523,59.538981,63.09289,45.496122,64.072647,71.228013,73.399207,52.671137,69.633408,75.431512,76.88193,33.26477,324.170184,-71.993695,313.132496
104,0.841507,-0.23228,0.15255,0.369885,-13.300735,-32.377819,-49.147579,-65.245262,-58.89442,-53.564506,-34.477512,-17.778076,-57.194916,-45.222919,-23.418503,-2.311798,-51.180725,-37.413894,-16.106849,2.552948,-42.729606,-35.488987,-24.315136,-13.127861,33.563806,51.461015,60.511266,71.20209,38.992606,54.655178,60.089894,62.781557,26.056179,42.003717,50.592372,54.552228,12.44745,28.687302,38.476027,44.523566,-0.084129,14.192542,23.994827,32.279114,26.168507,51.410477,75.125691,94.590969,50.508122,80.919148,97.378864,110.214466,40.625153,75.256268,95.686375,109.555996,31.050545,62.754158,82.062092,95.632015,22.059609,45.678887,61.017655,74.322201,-13.878282,-15.881601,-12.171896,-12.722487,15.352399,32.086316,39.533848,44.258212,33.179175,50.648515,58.840806,62.456972,45.132906,63.430023,70.641903,72.93561,52.334894,69.135921,74.884453,76.311418,34.445057,323.993862,-71.502365,313.558339
105,1.886467,-0.260994,0.167301,0.044645,-13.400665,-33.475902,-50.927467,-67.194214,-60.940704,-55.824222,-36.366588,-19.347656,-59.369934,-47.55534,-25.527511,-4.207603,-53.278438,-39.890304,-18.388252,0.45314,-44.549274,-37.507107,-26.104603,-14.772079,33.951957,51.923698,60.869604,71.61157,38.781494,54.711951,60.433152,63.393652,25.704498,42.117115,50.678859,54.500864,12.054347,28.861278,38.586103,44.535817,-0.535698,14.431108,24.315422,32.429352,26.085778,51.282544,75.003891,94.505127,50.29636,80.478333,96.945649,109.842957,40.463402,74.724449,95.211068,109.168763,30.871628,62.284493,81.6148,95.271126,21.832592,45.352421,60.58469,73.809334,-13.959817,-15.992467,-12.255073,-12.640482,15.230813,31.968077,39.423353,44.1707,32.950625,50.549517,58.745872,62.392678,44.858933,63.2806,70.540015,72.904537,52.062896,69.017966,74.841154,76.346752,36.689421,323.793769,-70.977167,313.663885
106,3.828667,-2.218742,0.13955,0.063368,-14.053574,-35.912178,-55.263107,-72.605507,-64.881088,-61.82666,-42.154896,-24.691384,-63.364769,-52.822746,-30.534439,-8.817146,-56.923222,-44.453362,-22.749184,-3.378342,-47.714424,-39.944813,-27.609799,-15.475662,36.219988,54.741802,63.686028,74.989058,41.036125,57.332219,62.957336,65.461377,27.186002,44.004764,52.673385,56.380398,12.622402,30.069956,40.171187,46.18685,-1.005198,15.012414,25.601869,33.945473,25.97311,51.180015,74.882583,94.346557,50.215141,80.234504,96.695388,109.675964,40.418392,74.376342,94.882392,108.911819,30.826984,61.942829,81.254219,94.987953,21.752998,45.113983,60.24892,73.448341,-14.050009,-16.118512,-12.347575,-12.579744,15.040314,31.636997,39.107994,43.945435,32.725656,50.255092,58.453793,62.125225,44.642868,63.052482,70.362952,72.784618,51.87709,68.856082,74.679096,76.203516,40.900538,321.666121,-70.455167,313.818347
107,-5.082825,3.108738,0.105262,0.04141,-12.338104,-32.547867,-50.309246,-66.261474,-58.941582,-56.354954,-38.181255,-21.7481,-57.190784,-46.506431,-25.156013,-4.603226,-50.983806,-37.007789,-16.611694,1.678917,-42.149986,-30.66378,-16.023399,-2.517082,35.34459,53.86071,62.23987,73.021554,41.25482,55.76555,60.442118,62.341907,26.303959,41.26244,49.127701,52.466114,10.572251,26.680908,36.38648,41.937434,-4.275685,10.225337,20.453478,28.212269,25.867688,51.091347,74.71003,94.112915,50.063485,79.988823,96.411507,109.410874,40.298893,74.091431,94.605881,108.68969,30.738247,61.694928,80.981255,94.751816,21.695584,45.032582,60.092514,73.193962,-14.203607,-16.258797,-12.425479,-12.545547,15.007709,31.44436,38.882679,43.782796,32.655607,50.004866,58.141508,61.855524,44.555751,62.823178,70.171798,72.68147,51.782537,68.623517,74.395983,75.913079,36.188347,324.888224,-69.979271,313.973122
108,0.444122,-1.786896,-0.019272,0.091761,-13.157318,-33.253738,-50.87994,-67.157547,-61.723274,-57.204586,-37.368976,-20.310974,-59.802658,-47.7728,-25.184326,-3.918136,-52.989646,-38.395477,-16.564247,2.539811,-43.529972,-33.246185,-19.30371,-6.061317,35.260967,53.682214,62.779025,73.980846,40.411482,55.845924,60.861984,63.240412,26.425434,42.114571,50.54454,54.449315,11.702938,27.949866,37.935945,44.101514,-1.996194,12.343079,22.256602,30.421995,25.872918,51.141255,74.697556,94.02221,49.810891,79.787018,96.278,109.421563,40.082749,73.86596,94.447541,108.663117,30.649899,61.579594,80.960679,94.875184,21.750046,45.209622,60.302948,73.402703,-14.350388,-16.453039,-12.609397,-12.547115,14.625264,30.940674,38.387984,43.387248,32.272186,49.505454,57.662091,61.425519,44.210615,62.336807,69.770556,72.371397,51.491051,68.172245,73.88159,75.321869,37.005689,323.202287,-69.625323,314.165842
109,0.842354,-0.619987,0.272336,0.144175,-13.648315,-33.668632,-50.847118,-66.898807,-62.97274,-57.704361,-37.473816,-20.282844,-60.864544,-48.917106,-25.840622,-4.138138,-53.68753,-39.551662,-17.350502,2.015305,-43.74258,-34.647148,-21.165733,-8.147781,35.304748,53.63421,62.871145,74.118242,40.028223,56.015367,61.277478,63.783569,26.277567,42.001963,50.89984,55.080268,11.810507,27.544784,38.016135,44.444513,-1.645377,11.815472,21.686103,29.971625,25.676296,50.787025,74.278026,93.634288,49.324138,79.399601,95.991542,109.172206,39.646877,73.530017,94.232059,108.441089,30.312709,61.383647,80.810886,94.673709,21.572055,45.168136,60.2513,73.299282,-14.326947,-16.565116,-12.869675,-12.773875,14.397553,30.814839,38.244612,43.231155,32.008252,49.169816,57.307816,61.138441,44.001899,62.040442,69.417294,72.057099,51.383481,68.016918,73.657929,75.12139,38.188459,322.696658,-69.012571,314.424375
110,0.841164,-0.527917,0.190246,0.312927,-13.617004,-33.976936,-51.252754,-67.591095,-63.201817,-58.41124,-38.420792,-21.299652,-61.216072,-49.950382,-26.987366,-5.20887,-54.170906,-40.768501,-18.658287,0.776321,-44.398396,-36.174316,-22.889259,-9.819168,35.483072,54.018162,63.226334,74.53029,40.220798,56.182625,61.814275,64.651706,26.409083,42.156352,51.379604,55.795993,11.856339,27.525753,38.252738,44.841692,-1.728999,11.748189,21.957768,30.577594,25.4744,50.464543,73.939282,93.28046,49.117436,79.300312,95.893307,109.071133,39.503426,73.4855,94.194431,108.371945,30.236858,61.411423,80.817249,94.611111,21.562615,45.2635,60.354687,73.392208,-14.50532,-16.910437,-13.366865,-13.211662,14.077068,30.345906,37.707061,42.725196,31.6974,48.544098,56.585397,60.453962,43.749883,61.552057,68.848461,71.524255,51.230389,67.678698,73.205447,74.602117,39.327078,322.282634,-68.52487,314.851195
111,1.393364,-0.707906,0.141575,0.148497,-13.798737,-34.648201,-52.154503,-68.678444,-64.036617,-59.57745,-39.540688,-22.320511,-62.203892,-51.354355,-28.429024,-6.488503,-55.282894,-42.441261,-20.318962,-0.793213,-45.529976,-37.819382,-24.58358,-11.450936,35.801962,54.456688,63.690177,75.075113,40.3647,56.337012,62.153765,65.164506,26.48133,42.690702,52.082286,56.479409,11.848076,27.9409,38.826102,45.467841,-1.796011,12.2961,22.726053,31.377669,25.264286,50.161686,73.68782,93.148476,48.713287,79.060684,95.767456,109.020927,39.194069,73.361732,94.20964,108.431694,30.044586,61.431198,80.912086,94.688004,21.51004,45.419529,60.546432,73.547539,-14.577024,-17.080127,-13.690573,-13.569974,13.901512,30.185886,37.515018,42.537562,31.535849,48.245301,56.207794,60.103393,43.630174,61.331942,68.543982,71.242463,51.152658,67.591038,73.05963,74.427809,40.982803,321.665306,-68.120934,315.09027
112,3.278641,-0.979634,0.114372,0.02575,-14.186371,-36.331536,-55.218728,-72.59095,-66.458279,-63.833966,-43.814541,-26.088616,-64.781536,-55.436749,-32.528824,-10.048577,-57.825406,-46.325203,-24.216271,-4.261689,-47.901638,-40.64399,-27.196129,-13.726891,36.851263,55.567727,64.479966,76.166219,40.843464,57.138756,63.082319,65.85553,26.711006,43.431832,53.273242,57.628535,11.847286,28.426086,39.775022,46.449426,-2.09119,12.856733,23.763399,32.420189,25.090359,49.942303,73.505356,92.983155,48.382633,78.947708,95.802819,109.183022,38.906468,73.235459,94.227265,108.518692,29.839119,61.364125,80.951042,94.783608,21.401608,45.425114,60.598503,73.627602,-14.522462,-17.131244,-13.911096,-13.721349,13.706368,30.068363,37.395407,42.445677,31.358131,48.041042,56.013922,59.948486,43.499534,61.234327,68.443428,71.172562,51.073556,67.605882,73.078859,74.435342,44.50339,320.733853,-67.764616,315.164201
113,-3.259987,2.460162,0.310719,0.039335,-12.596192,-34.183617,-52.500412,-69.378548,-61.680554,-60.553643,-42.124043,-25.332367,-59.695496,-51.276799,-29.384766,-7.850579,-52.940815,-41.55352,-20.726189,-1.636116,-43.475247,-35.139061,-21.482575,-8.277741,35.932305,54.579596,63.01485,74.253215,41.129232,55.721324,60.855339,63.166274,26.143815,40.948946,50.1658,54.437977,10.360323,25.561323,36.7668,43.30649,-4.542719,9.052054,19.914433,28.308006,24.819134,49.594894,73.193195,92.723133,48.096657,78.8157,95.745495,109.148952,38.645107,73.118534,94.160511,108.391491,29.583378,61.25592,80.835491,94.603466,21.160343,45.212116,60.377792,73.419445,-14.505616,-17.206209,-14.093815,-13.831586,13.798809,30.235669,37.465198,42.419594,31.446706,48.049268,55.896498,59.77509,43.588109,61.347009,68.412281,71.070414,51.150583,67.804447,73.220008,74.551334,41.470368,323.232467,-67.226932,315.241988
114,-5.460457,1.989363,-0.047379,-0.101468,-10.851677,-30.821411,-48.256279,-64.448845,-56.589386,-54.684254,-36.806065,-20.525643,-54.479519,-44.766358,-23.289116,-2.559013,-47.950733,-34.881214,-14.289803,4.340675,-39.212093,-29.640106,-15.963432,-3.02552,34.358942,52.882893,61.202748,72.081972,40.865731,54.384107,58.590989,60.43976,25.758197,39.391996,47.802526,51.863072,9.784662,24.220142,34.747747,41.077659,-5.215785,7.314769,17.527138,25.63556,24.850891,49.672623,73.275982,92.743847,47.934735,78.734356,95.724232,109.224621,38.504059,73.046047,94.111645,108.410923,29.514965,61.219208,80.84673,94.711407,21.169155,45.166111,60.375023,73.511593,-14.536208,-17.195378,-14.060779,-13.614089,13.695624,30.051282,37.237375,42.180187,31.421969,47.984615,55.785594,59.579823,43.606967,61.387887,68.427681,71.033265,51.15619,67.9216,73.355562,74.581295,36.222187,325.229188,-67.062035,315.147878
