takenoko1/special-research/HandMotion_SimilarSearch_自分用/NewProject/handData/key/d4_feature_d3/88.csv
,vel_0x_L,vel_0y_L,vel_0x_R,vel_0y_R,posFromWrist_1x_L,posFromWrist_2x_L,posFromWrist_3x_L,posFromWrist_4x_L,posFromWrist_5x_L,posFromWrist_6x_L,posFromWrist_7x_L,posFromWrist_8x_L,posFromWrist_9x_L,posFromWrist_10x_L,posFromWrist_11x_L,posFromWrist_12x_L,posFromWrist_13x_L,posFromWrist_14x_L,posFromWrist_15x_L,posFromWrist_16x_L,posFromWrist_17x_L,posFromWrist_18x_L,posFromWrist_19x_L,posFromWrist_20x_L,posFromWrist_1y_L,posFromWrist_2y_L,posFromWrist_3y_L,posFromWrist_4y_L,posFromWrist_5y_L,posFromWrist_6y_L,posFromWrist_7y_L,posFromWrist_8y_L,posFromWrist_9y_L,posFromWrist_10y_L,posFromWrist_11y_L,posFromWrist_12y_L,posFromWrist_13y_L,posFromWrist_14y_L,posFromWrist_15y_L,posFromWrist_16y_L,posFromWrist_17y_L,posFromWrist_18y_L,posFromWrist_19y_L,posFromWrist_20y_L,posFromWrist_1x_R,posFromWrist_2x_R,posFromWrist_3x_R,posFromWrist_4x_R,posFromWrist_5x_R,posFromWrist_6x_R,posFromWrist_7x_R,posFromWrist_8x_R,posFromWrist_9x_R,posFromWrist_10x_R,posFromWrist_11x_R,posFromWrist_12x_R,posFromWrist_13x_R,posFromWrist_14x_R,posFromWrist_15x_R,posFromWrist_16x_R,posFromWrist_17x_R,posFromWrist_18x_R,posFromWrist_19x_R,posFromWrist_20x_R,posFromWrist_1y_R,posFromWrist_2y_R,posFromWrist_3y_R,posFromWrist_4y_R,posFromWrist_5y_R,posFromWrist_6y_R,posFromWrist_7y_R,posFromWrist_8y_R,posFromWrist_9y_R,posFromWrist_10y_R,posFromWrist_11y_R,posFromWrist_12y_R,posFromWrist_13y_R,posFromWrist_14y_R,posFromWrist_15y_R,posFromWrist_16y_R,posFromWrist_17y_R,posFromWrist_18y_R,posFromWrist_19y_R,posFromWrist_20y_R,posFromBody_0x_L,posFromBody_0y_L,posFromBody_0x_R,posFromBody_0y_R
6,-1.852203,2.198895,0.242718,-0.258809,-8.748688,-24.372803,-39.753983,-54.85865,-50.705246,-38.143467,-18.541535,-4.154503,-51.068562,-32.165497,-10.373955,8.556633,-46.486462,-28.855511,-6.584152,10.644241,-40.033013,-41.332363,-37.575268,-32.887871,30.005179,49.217141,61.714522,71.355367,37.46889,52.753191,56.567107,59.361473,25.822713,40.901534,47.360441,50.612799,13.162088,28.869318,35.485566,40.152217,1.430176,13.196347,21.482017,30.292986,24.156132,47.883442,67.839649,85.209194,46.382424,78.831585,95.773991,107.754078,35.841419,71.915669,91.590191,104.566624,25.991306,58.904652,77.764538,90.777821,17.485027,41.829002,57.09335,69.939205,-13.77107,-11.076097,0.251288,8.591064,14.941068,32.334381,39.575037,44.596531,32.246337,48.980575,55.879208,59.384186,43.849771,62.036453,67.360795,68.647143,49.99926,67.799927,72.161692,72.093409,22.611666,311.558626,-68.99473,301.473548
7,1.36869,-0.908806,0.096909,-0.153079,-9.782684,-26.349701,-42.796611,-59.283497,-52.872368,-40.142074,-18.864647,-3.562179,-54.128494,-35.165542,-12.051361,7.532158,-50.38496,-33.941356,-10.046837,8.026841,-44.671222,-50.488804,-50.461349,-48.872863,28.728169,47.501826,60.911792,70.779397,35.979569,52.058055,56.047959,59.099059,26.158549,41.5593,47.759251,50.602697,15.257625,31.362787,37.189606,41.345186,5.248217,17.940607,26.983621,36.9821,24.261051,48.001304,67.958072,85.327114,46.391407,78.861477,95.797565,107.796375,35.803974,71.761127,91.395275,104.3791,25.972,58.690944,77.527874,90.624286,17.523914,41.74134,56.989757,69.910343,-13.65372,-10.992252,0.327191,8.798433,15.117773,32.502984,39.672861,44.639212,32.415718,49.116932,55.905674,59.295821,44.027142,62.26383,67.596953,68.816783,50.168381,68.046534,72.436123,72.312314,24.381477,310.809664,-68.4967,301.480313
8,-1.608833,1.593433,0.258636,-0.177878,-9.731918,-25.906883,-41.332123,-56.481434,-51.105984,-38.210449,-17.731476,-3.075142,-51.502544,-32.220657,-9.64167,9.443527,-47.061367,-29.728043,-6.959908,10.418655,-40.616936,-43.221954,-40.699287,-37.280468,28.537224,47.193542,59.974655,69.899725,35.778942,50.779821,54.639777,57.906547,25.509465,39.858532,46.148713,49.441381,14.189306,29.431728,35.747758,40.257637,3.656414,15.467502,23.745663,32.608811,24.331993,47.996601,67.899525,85.231991,46.218052,78.734425,95.678822,107.677746,35.578961,71.514919,91.149365,104.122341,25.771832,58.447323,77.285603,90.410557,17.383919,41.551781,56.795506,69.784939,-13.587573,-10.97143,0.387854,8.945053,15.012118,32.538317,39.732154,44.7319,32.381694,49.170766,55.985492,59.347629,44.068527,62.430827,67.858985,69.087287,50.268133,68.269193,72.752372,72.655238,23.073761,312.594693,-67.936947,301.494031
9,2.284904,-1.656554,0.34655,0.031591,-10.789123,-27.8367,-44.593952,-61.249225,-54.053123,-42.313156,-20.299095,-4.344017,-55.717414,-37.048988,-13.120697,7.008454,-52.229461,-35.913711,-11.617378,6.804772,-46.621067,-52.383716,-51.695629,-49.424526,29.052988,47.783753,61.344242,71.270955,35.779238,51.280457,55.317736,58.671882,26.181187,40.85753,47.241016,50.369823,15.44132,31.167149,37.310006,41.709377,5.633366,18.278208,27.536089,37.66149,24.374703,47.917465,67.722851,85.049343,45.975769,78.498013,95.474911,107.491871,35.314922,71.286747,90.988186,103.923809,25.557209,58.320545,77.178463,90.222874,17.21846,41.400181,56.65218,69.661389,-13.528292,-11.039726,0.331674,8.906546,14.743467,32.322982,39.510273,44.518639,32.202136,48.997767,55.773837,59.097751,44.017843,62.36741,67.785058,68.96617,50.332811,68.391163,72.912837,72.802266,25.606235,311.12657,-67.342827,301.714053
10,-1.222183,1.424668,0.513245,0.037829,-10.461639,-26.868004,-42.347007,-57.426738,-52.248905,-41.523754,-21.207939,-6.692161,-53.105381,-34.804481,-11.803528,7.668389,-48.865276,-31.571571,-8.700302,8.863564,-42.42247,-44.363514,-40.705993,-36.151314,29.320269,48.046884,60.861886,70.918138,36.112419,50.360005,53.867417,56.866338,25.595892,39.61741,46.08232,49.613233,14.000437,29.16598,35.966318,40.825075,3.332991,15.408445,24.287672,33.460573,24.359962,47.73753,67.413334,84.820965,45.672558,78.17371,95.127445,107.09238,34.917148,70.892452,90.611194,103.502643,25.097854,57.901691,76.742809,89.694843,16.718548,40.869129,56.132915,69.152103,-13.458713,-11.010543,0.355225,8.854515,14.564118,32.265837,39.461897,44.437239,32.051403,48.924999,55.674245,58.953414,43.93217,62.364112,67.751823,68.8813,50.326919,68.484504,73.042438,72.921654,24.57609,312.717619,-66.637544,301.918263
11,1.505562,-2.121521,0.415729,0.074298,-11.103493,-27.868217,-44.452171,-60.847011,-54.690845,-43.660984,-21.487907,-5.715935,-56.879585,-38.205151,-13.684364,6.933655,-53.660065,-37.152317,-12.760551,5.986885,-48.111454,-53.385761,-52.476814,-49.879246,28.667888,47.115218,61.180616,71.932091,34.455161,50.359844,54.164806,57.235209,26.150854,41.175322,47.545495,50.598707,16.77939,32.861679,39.061803,43.444564,8.280186,21.41214,31.134001,41.570006,24.356598,47.602936,67.155854,84.668633,45.368706,77.806069,94.792351,106.759964,34.548729,70.506111,90.27768,103.155876,24.72044,57.5644,76.438958,89.342011,16.351261,40.484047,55.759667,68.806687,-13.453735,-11.029785,0.367946,8.871657,14.191492,32.145832,39.413003,44.39615,31.69724,48.759854,55.511311,58.727865,43.681574,62.264842,67.645094,68.74288,50.195625,68.551429,73.185884,73.094629,26.248753,310.758825,-66.054714,302.155288
12,-1.461662,1.473735,0.499615,0.039384,-10.621193,-26.890183,-42.455326,-57.50235,-53.478356,-42.327141,-21.168114,-6.080704,-54.759293,-35.206021,-11.348808,8.656334,-50.615925,-32.189198,-8.99643,8.95491,-44.007546,-44.603245,-39.935291,-34.328327,30.093186,48.788099,61.724477,72.394565,35.920066,50.860566,54.414562,57.336196,25.518333,39.915281,46.458602,50.007064,14.063249,29.655154,36.712472,41.697879,3.452465,15.63329,24.613282,33.749033,24.216705,47.300812,66.743923,84.266499,45.04604,77.361889,94.330708,106.323681,34.167263,70.075962,89.856709,102.73811,24.296448,57.18108,76.069828,88.947018,15.874077,39.96801,55.267033,68.376011,-13.479695,-11.062574,0.372874,8.848464,14.063039,32.145696,39.46291,44.503423,31.571133,48.63854,55.413165,58.648319,43.594482,62.184271,67.548813,68.642499,50.173359,68.587714,73.284673,73.267296,24.926892,312.392367,-65.415298,302.354479
13,1.222572,-0.623988,0.260857,0.022057,-10.701691,-26.542076,-42.65292,-58.94902,-54.52058,-43.92643,-21.579231,-5.757454,-57.090832,-38.633709,-13.875687,6.764557,-54.195774,-37.883869,-13.78537,4.82872,-48.960308,-53.219616,-51.419014,-48.184307,25.523792,43.074259,58.099715,70.292989,30.84853,47.40074,51.797369,55.042551,25.040706,39.927804,46.751718,50.009238,18.028514,33.480073,39.806921,44.152545,11.564778,23.736352,32.669253,42.318693,23.999736,46.996524,66.362011,83.975612,44.92622,77.045299,94.036846,106.099674,34.089409,69.815654,89.543689,102.486683,24.217346,56.985111,75.909336,88.883983,15.751602,39.810848,55.096813,68.257679,-13.544545,-11.098068,0.387509,8.891084,14.248192,32.282869,39.564626,44.489394,31.620929,48.602762,55.279439,58.471009,43.548552,62.053879,67.31946,68.424829,50.088588,68.486765,73.205027,73.331443,26.252151,311.895505,-65.051754,302.503662
14,-5.187561,3.662059,0.19424,-0.106754,-8.439354,-20.871986,-33.143303,-46.451878,-48.007461,-35.189667,-13.827461,0.912438,-51.470844,-31.159275,-6.990417,12.838806,-49.426701,-32.286472,-9.217461,8.670181,-44.749054,-48.194183,-46.422066,-43.467499,17.161267,31.094346,45.436076,57.907992,23.610653,40.073411,44.94642,48.565785,22.319649,36.651142,43.331943,46.881258,19.364731,33.905348,39.625017,43.728665,16.316607,27.488875,35.170342,43.625628,23.73642,46.740143,66.125977,83.816918,44.847897,76.853302,93.849083,105.94915,34.105866,69.6931,89.364739,102.379029,24.284374,56.967201,75.916168,89.013451,15.847561,39.945809,55.209961,68.434456,-13.633441,-11.076467,0.471242,8.999271,14.46501,32.502181,39.797202,44.662801,31.703613,48.662277,55.30751,58.456003,43.525371,62.033081,67.255807,68.361288,50.018093,68.405341,73.140054,73.393082,21.110538,315.656741,-64.811566,302.496085
15,1.214722,-0.8835,0.011399,-0.056081,-8.245445,-20.480004,-33.619137,-48.211464,-49.049401,-35.344609,-12.319473,3.755493,-53.753643,-33.572525,-8.268883,12.373512,-53.001915,-37.634835,-13.375832,5.499367,-49.753006,-57.3429,-59.031029,-58.75708,13.69834,26.715352,42.947411,56.593301,19.419738,37.633269,43.348826,47.457389,22.259331,37.03203,43.541327,46.500147,23.373877,37.783212,42.350013,45.562158,24.140199,35.305884,42.934629,52.120188,23.592762,46.599884,65.989242,83.694259,44.892608,76.780014,93.817497,105.979408,34.259399,69.725807,89.370117,102.437004,24.527526,57.159004,76.15393,89.352401,16.126007,40.309272,55.572898,68.828773,-13.691265,-11.104342,0.522309,9.041013,14.491907,32.538305,39.843774,44.652636,31.69057,48.639601,55.267631,58.369836,43.50072,61.936342,67.131268,68.254014,50.010324,68.292732,73.009858,73.357402,22.347553,314.856561,-64.777874,302.523324
16,-2.057373,3.466816,-0.05959,0.007731,-7.903015,-19.286637,-31.214379,-44.782814,-46.235951,-31.35442,-9.388848,5.698402,-50.659333,-29.48251,-4.841538,14.781189,-49.841526,-33.842594,-10.603867,7.469215,-46.397541,-53.362976,-55.384609,-55.55682,10.739804,22.73639,38.383488,52.112889,16.927986,34.264464,39.699278,43.723244,20.730218,34.433944,40.263207,43.23954,22.770625,36.300535,40.278102,43.310059,24.232319,34.776869,41.572637,49.966889,23.502113,46.496498,65.917408,83.70496,44.964066,76.850269,93.917324,106.125378,34.45348,69.919773,89.576191,102.751957,24.798157,57.474026,76.514362,89.818485,16.413117,40.740933,56.002339,69.289913,-13.758165,-11.217568,0.456286,8.888033,14.55803,32.470873,39.731882,44.47088,31.748591,48.544987,55.154764,58.279557,43.535041,61.736184,66.886885,68.044335,50.049178,68.100577,72.742133,73.131124,20.287514,318.377909,-64.84013,302.585587
17,1.980446,-1.361992,-0.056866,0.053784,-7.722863,-18.902504,-31.500767,-46.240448,-46.816853,-32.557995,-9.957459,5.642669,-52.584446,-33.011548,-7.816132,12.459594,-53.138192,-39.931561,-15.972542,2.842758,-51.155194,-62.952954,-68.822045,-71.955174,7.966544,19.134143,36.639397,51.215755,13.64694,31.803463,37.79413,42.129639,21.280476,35.045014,40.975474,43.697099,27.094858,40.3998,43.616959,46.105587,32.174126,43.035665,50.289499,59.840212,23.525551,46.536679,65.994668,83.878327,45.10571,77.049614,94.131066,106.307465,34.669899,70.19822,89.835709,102.980118,25.079098,57.818551,76.86303,90.160698,16.74408,41.217831,56.425782,69.636246,-13.857175,-11.400867,0.332316,8.705944,14.550003,32.379051,39.607172,44.307477,31.74895,48.482497,55.067005,58.183091,43.532077,61.58828,66.706562,67.907521,50.032074,67.907077,72.504592,72.958285,22.251458,317.040679,-64.913498,302.664133
18,-0.079262,1.112434,-0.055687,0.021638,-7.929451,-19.557793,-31.906529,-45.721676,-46.134453,-31.185574,-9.521828,5.486,-51.067898,-30.606159,-6.065346,13.755546,-51.016548,-36.467205,-13.268418,5.121208,-48.308006,-59.167259,-65.014664,-67.790463,11.575658,23.349263,39.061767,52.278714,17.532671,34.21289,39.144105,42.899135,21.619968,34.943656,40.094345,42.834581,24.209212,37.787349,40.967409,43.849449,26.378924,37.817286,45.355541,55.079453,23.658074,46.751439,66.29139,84.225472,45.344079,77.306077,94.332917,106.426438,34.920571,70.484208,90.08471,103.171464,25.340687,58.087098,77.058426,90.254426,17.017342,41.522152,56.671692,69.737618,-13.869303,-11.437103,0.268342,8.5242,14.462687,32.25781,39.489746,44.207577,31.719556,48.422734,55.020555,58.13453,43.5487,61.532556,66.649232,67.843634,50.072915,67.814932,72.315895,72.659091,22.15535,318.172228,-64.986031,302.704886
19,4.948883,-3.035008,-0.113651,0.023218,-10.234543,-24.930382,-40.822449,-57.746121,-51.970848,-38.948033,-16.652619,-0.737183,-55.86953,-37.344269,-12.342934,8.238945,-55.036297,-41.676968,-17.709526,1.349533,-51.889618,-63.82782,-70.262901,-73.32748,18.473389,33.27332,50.17605,63.62718,23.196727,39.479792,44.024165,47.584435,24.348298,37.277871,42.514788,45.006812,24.370738,37.911332,41.403762,44.393408,24.429475,36.431471,44.739062,55.421933,23.853024,47.001881,66.556195,84.486431,45.567147,77.544537,94.533451,106.528279,35.059239,70.650593,90.202023,103.213474,25.382618,58.134785,77.035641,90.123837,16.961563,41.443108,56.55106,69.427723,-13.822632,-11.410068,0.241567,8.385298,14.471938,32.209904,39.428515,44.160177,31.78947,48.509185,55.10277,58.25319,43.608326,61.576597,66.658112,67.847858,50.092243,67.678229,72.05994,72.273559,27.085173,315.14768,-65.118742,302.738564
20,-2.604584,3.270301,-0.186046,0.135209,-9.134743,-22.499039,-36.507545,-51.546329,-48.087112,-33.897102,-12.615326,2.373917,-51.828312,-32.132458,-8.018486,11.604378,-50.935741,-36.363006,-13.733276,4.393204,-47.50502,-57.197628,-62.168999,-63.954471,17.258228,31.012614,46.263496,58.812995,22.294913,36.997624,40.892185,44.145135,22.878726,34.651985,39.298827,42.069803,22.382339,35.248618,38.584733,41.792272,21.750595,33.569636,41.602043,51.871619,24.117187,47.34843,66.966018,84.91706,45.899253,77.915771,94.815605,106.735565,35.384216,70.960327,90.431488,103.406936,25.660377,58.336258,77.161102,90.212013,17.178291,41.628627,56.6613,69.403083,-13.878764,-11.532631,0.071272,8.189821,14.448188,32.098148,39.298493,44.057078,31.781936,48.38966,54.951753,58.125514,43.599137,61.414094,66.466253,67.654196,50.069098,67.473847,71.745741,71.82283,24.464327,318.427728,-65.32105,302.88352
21,2.478058,-2.317233,-0.175221,0.151004,-9.335106,-23.201592,-38.014561,-53.896294,-50.10973,-37.079704,-15.369186,0.165962,-53.99049,-35.744831,-11.31823,8.911148,-53.251442,-40.08926,-16.899124,1.659439,-50.21711,-61.070812,-66.360489,-68.535667,17.601053,31.606751,47.925199,60.979791,23.043957,37.950766,42.313321,46.002538,24.328897,35.853882,41.25256,44.189039,24.36034,36.66958,40.46586,43.764456,24.301269,35.676128,43.805322,54.277883,24.351483,47.625206,67.31947,85.274449,46.191193,78.248692,95.06345,106.885426,35.688137,71.271572,90.658138,103.550045,25.942417,58.57362,77.315815,90.268124,17.436916,41.826553,56.761105,69.33411,-13.902883,-11.660763,-0.16149,7.90472,14.302606,31.83834,39.055258,43.898924,31.639898,48.177918,54.781705,58.051328,43.443354,61.156966,66.226094,67.469957,49.891048,67.109841,71.313056,71.356158,26.930597,316.117841,-65.508059,303.04187
22,-3.223045,2.615735,-0.016205,-0.087463,-8.563546,-21.283516,-34.786023,-49.612381,-47.030789,-32.408432,-11.320153,3.418716,-50.729828,-30.634175,-6.607682,12.782478,-49.762322,-34.857457,-12.432473,5.532623,-46.209263,-55.138413,-59.826393,-61.438465,16.850786,30.360813,45.322369,57.693163,21.552116,36.150297,40.384201,43.933306,22.408669,33.969717,38.984381,41.939756,22.148749,34.567152,38.422465,41.921391,21.663539,33.030419,40.898508,50.886637,24.417298,47.689293,67.409306,85.416195,46.299248,78.32491,95.165394,106.986409,35.838764,71.409291,90.805264,103.719944,26.070294,58.743336,77.439251,90.328892,17.521866,41.953389,56.878933,69.352581,-13.784693,-11.576807,-0.204678,7.78149,14.287118,31.756508,38.987604,43.82922,31.612098,48.129827,54.758857,58.091687,43.414491,61.089571,66.158601,67.440243,49.893271,67.00095,71.08658,71.032338,23.695519,318.740677,-65.536297,302.961508
23,0.997284,-1.62164,0.106716,0.016845,-8.874024,-22.116417,-36.412972,-52.430787,-48.510807,-34.423291,-12.837708,2.386344,-52.434288,-32.920475,-8.587693,11.25341,-51.600827,-37.373646,-14.245491,4.25489,-48.392785,-58.030552,-62.86575,-64.644001,15.817146,29.190186,45.131277,58.05323,20.228509,35.733222,40.716974,44.807087,22.794646,34.770669,40.463304,43.523308,24.085452,36.592541,40.57485,43.867764,25.160922,36.703778,44.830466,55.11554,24.49387,47.763325,67.497529,85.518609,46.215661,78.348748,95.206101,106.997315,35.75409,71.483391,90.92157,103.797799,25.993412,58.886994,77.563958,90.362343,17.451474,42.023861,56.983658,69.426247,-13.696266,-11.599852,-0.323535,7.662695,14.181378,31.636811,38.835909,43.673066,31.53312,48.009291,54.639581,58.014574,43.375898,60.959501,65.998198,67.269775,49.908017,66.919786,70.931007,70.826327,24.682143,317.11398,-65.440241,302.973296
24,-2.598702,3.163363,0.202206,0.015882,-8.096237,-20.359932,-33.068378,-47.45462,-44.916996,-29.612606,-9.029732,5.142265,-48.623714,-27.783462,-4.354843,14.514427,-47.715156,-32.232845,-10.569878,6.983505,-44.263035,-51.931297,-56.061607,-57.281055,14.032361,26.367191,41.083882,53.595949,18.070887,33.063862,37.79387,41.573823,20.918594,32.418706,37.599158,40.727286,22.618891,34.965405,38.644729,41.803596,23.910043,35.261078,43.162018,53.013605,24.498596,47.762203,67.526585,85.576481,46.124039,78.28307,95.143467,106.947521,35.739922,71.588551,91.068157,103.939396,26.057453,59.141636,77.804318,90.562855,17.575138,42.296356,57.250523,69.706272,-13.720941,-11.73963,-0.474687,7.544777,13.964572,31.499281,38.704665,43.540204,31.323107,47.740652,54.387442,57.793001,43.252731,60.693023,65.753988,67.067493,49.902546,66.883786,70.880569,70.787647,22.072443,320.268142,-65.249033,302.979977
25,2.480118,-2.6938,0.267185,-0.096429,-9.544052,-23.172455,-37.485317,-53.461041,-48.663998,-34.178158,-12.733452,2.200951,-52.432388,-32.287628,-8.083969,11.587967,-51.540848,-36.956371,-13.961403,4.502014,-48.28545,-58.027886,-63.564297,-65.994827,13.724399,26.66174,42.991118,56.629672,18.25499,34.634324,39.931644,44.106824,22.185836,34.617984,40.040436,42.897344,24.745106,37.505001,40.933854,43.744794,26.919437,38.282908,46.270102,56.299406,24.4613,47.731327,67.565644,85.627922,45.674286,77.950127,94.956459,106.878342,35.282399,71.377899,91.005432,103.887406,25.686768,59.08738,77.764847,90.426407,17.348614,42.215527,57.272026,69.765816,-13.543051,-11.598481,-0.461708,7.572922,13.804181,31.386042,38.549683,43.355619,31.220724,47.748765,54.379549,57.769202,43.194154,60.765357,65.793335,67.030505,49.884576,66.884662,70.862253,70.749151,24.531418,317.557113,-65.002991,302.866319
26,-5.399826,2.242132,0.32547,-0.163602,-6.89621,-17.330475,-27.598812,-40.001335,-42.777065,-25.462887,-4.450379,9.629974,-47.684075,-24.639061,-0.834915,18.122383,-47.459999,-30.577377,-7.915466,10.13649,-44.217476,-52.379574,-57.223034,-59.23114,8.584629,18.382135,32.567563,45.374648,14.01191,30.863288,36.424432,40.528624,19.918905,33.171519,38.264014,40.94408,24.023183,37.107824,40.233247,42.804731,27.303772,38.494948,45.952767,55.060595,24.387909,47.636833,67.533669,85.634285,45.35503,77.601586,94.684983,106.739617,34.983067,71.108208,90.829949,103.79805,25.460861,58.93396,77.620331,90.330849,17.219456,42.091244,57.210594,69.878952,-13.368988,-11.42469,-0.364673,7.769771,13.906959,31.506777,38.610718,43.32814,31.30578,47.815259,54.375561,57.663214,43.283594,60.901283,65.908228,67.013054,50.008843,67.084697,71.133128,71.041972,19.075888,319.753917,-64.733225,302.657389
27,-5.467484,2.935862,0.010449,0.149054,-4.243332,-11.845001,-19.170032,-28.094387,-36.008091,-16.920993,3.925965,17.528344,-41.788696,-17.97306,5.240204,23.797005,-42.590297,-25.184074,-2.580093,15.059555,-40.18951,-48.364551,-53.094921,-55.612106,2.519738,8.758987,20.240402,31.396614,9.317371,25.153277,31.136855,35.461557,17.508391,30.546545,35.782906,38.438458,23.5275,35.993549,38.766859,40.933397,28.505608,39.111723,46.248156,54.808813,24.320137,47.614082,67.647686,85.77087,45.159759,77.504688,94.671924,106.901401,34.86026,71.073589,90.93481,104.013874,25.472625,59.013622,77.841991,90.695698,17.402698,42.242557,57.471508,70.339885,-13.407806,-11.494049,-0.513579,7.686357,13.971734,31.424908,38.413214,43.081397,31.370851,47.662117,54.042046,57.153303,43.326324,60.832788,65.751369,66.666572,50.011313,67.154684,71.254467,71.172598,13.532324,322.611304,-64.798856,302.727968
28,-1.043472,1.063527,-0.328526,0.25204,-2.919456,-8.789841,-14.960014,-22.728859,-33.722935,-13.888,7.300049,20.849968,-40.702904,-16.434723,6.726883,24.969498,-42.292122,-25.395756,-3.371681,13.542137,-40.4408,-48.77092,-53.113781,-55.94165,-3.159818,1.116374,12.573063,24.860123,5.299445,21.799378,27.873,31.837821,16.333676,29.657513,34.625333,36.606534,24.700721,37.052594,39.391576,40.741736,31.557042,41.348657,47.524352,54.755869,24.258362,47.663017,67.832909,86.14991,44.625641,76.875893,94.425064,107.181153,34.459683,70.716019,91.032555,104.544594,25.407852,58.884247,78.033463,91.26471,17.80624,42.589497,57.923699,70.959915,-13.42428,-11.466039,-0.6302,7.529919,14.454166,31.986664,39.008279,43.637855,31.79278,48.292367,54.513251,57.349189,43.594914,61.430113,66.306036,66.983475,50.076917,67.365612,71.488069,71.317379,12.375956,323.536686,-65.240278,302.841863
29,-2.779381,3.031834,-1.200817,0.140902,-1.493934,-5.084907,-8.85601,-14.618637,-30.367653,-9.986412,11.722298,25.649803,-38.123806,-15.833107,5.866722,23.436241,-40.303894,-26.920051,-8.583881,5.304417,-38.721039,-48.392406,-53.427326,-57.30566,-10.339587,-10.965403,-2.293348,8.40601,-0.537339,14.938499,21.377425,25.676859,13.685781,26.089599,31.153083,33.064789,24.434824,35.286804,37.616375,38.957965,33.32897,41.757728,46.565998,52.118324,24.261772,47.614849,67.838413,86.459919,43.757023,75.915791,93.93726,107.256352,33.819454,70.303745,91.197659,105.203602,25.387779,58.701313,78.346081,91.93095,18.628739,43.141411,58.491245,71.364933,-13.65251,-11.634704,-1.015572,7.154539,15.011921,32.646813,39.667119,44.370981,32.338567,49.328872,55.382821,58.03058,43.959155,62.151246,66.732139,67.087155,50.236529,67.414432,71.260334,70.808259,9.426384,326.372324,-66.611286,302.786569
30,3.890511,-2.129845,-2.071392,-1.046533,-4.814163,-10.89148,-16.074131,-21.851967,-30.128597,-18.156521,-3.73898,5.6777,-36.052815,-23.579704,-9.750012,2.751446,-37.323189,-31.874279,-20.850998,-11.963116,-35.197243,-46.489437,-52.239075,-56.496929,-6.141202,-5.253022,2.136601,11.42159,6.385894,19.857413,25.409862,29.068067,16.60776,27.671001,32.048019,33.623358,22.857606,32.042869,34.326115,35.540412,26.555418,32.83383,36.784671,41.001174,24.054806,47.399265,67.283592,85.487846,42.919109,74.812042,92.974731,106.293182,33.328766,69.384865,89.711975,102.641785,25.238274,57.228413,75.5438,87.45813,18.820416,41.531868,55.061245,65.49884,-14.414164,-12.138575,-1.277505,7.449014,15.038732,32.719851,39.928619,44.767986,32.099692,50.156858,56.472098,59.257202,43.468819,62.377363,67.487432,68.391421,49.548147,67.077496,71.307807,71.096991,13.110409,323.976689,-68.889164,301.474246
31,9.455589,-4.151382,2.0923,0.279087,-10.868523,-22.277,-32.66328,-41.749088,-36.510544,-35.367119,-27.932728,-23.23724,-39.084423,-39.004005,-33.359207,-27.312996,-38.05188,-42.624172,-39.524872,-36.92569,-34.307133,-48.69762,-56.002624,-61.922676,-6.10346,-6.009217,-1.608598,3.497086,9.988611,23.068102,28.85004,32.510703,19.951262,31.5234,36.696047,39.051183,26.120807,36.099624,39.467887,41.246793,29.681027,37.137241,41.620692,45.772345,18.524952,38.278325,56.204934,72.643593,40.19949,65.914273,80.158837,90.021721,34.171738,62.664357,75.994446,83.14341,28.32819,52.972092,64.263703,70.482525,23.08881,40.616753,49.50737,55.298596,-14.993531,-14.753075,-5.36411,3.507201,10.743781,27.576363,35.671101,41.530894,27.923487,46.644915,54.961905,59.313456,40.113981,59.196773,65.950502,68.710696,47.694141,64.449263,69.681375,71.359912,22.331549,319.569259,-67.031313,301.497285
32,11.864754,-7.634006,-5.39582,-14.421204,-17.606438,-34.45134,-49.433418,-62.636902,-46.313484,-56.30793,-55.64803,-55.251744,-45.547749,-57.423535,-59.365883,-58.945667,-41.814858,-56.2328,-60.654797,-63.522812,-36.145489,-53.840687,-63.047631,-70.422318,-5.361467,-3.708507,3.806888,10.582885,15.626572,29.847099,36.073578,40.455844,26.132021,38.718324,44.599655,47.853927,32.388375,43.571844,48.107313,50.667189,35.489111,44.161956,48.915107,52.771433,20.370437,41.027069,58.498192,71.525413,40.972835,67.30386,76.806667,81.844036,34.441498,63.168709,71.776405,74.282764,28.334266,53.525654,60.901611,62.768955,22.955326,41.541756,48.118938,50.501621,-12.261186,-10.552021,-1.020228,8.291648,10.742176,27.516996,33.833273,38.005526,25.88024,44.783634,51.23596,54.337102,36.883472,55.550103,60.293424,62.037762,44.15341,59.484617,63.101227,64.211722,33.914589,311.71423,-72.708847,286.855058
33,4.583954,-2.991696,-8.083592,-22.777553,-22.168122,-41.948181,-58.384461,-72.26286,-48.834309,-67.426976,-74.514622,-79.623688,-44.595097,-66.571793,-76.930916,-83.193558,-38.352448,-60.543686,-72.751797,-81.445805,-30.564492,-49.961769,-60.928849,-69.831425,-6.586954,-5.455859,1.665372,6.845008,18.021117,31.788458,38.711185,44.056498,28.837097,41.772264,48.28492,52.866911,35.182939,46.833093,52.619082,56.492821,37.85036,47.744245,53.011222,56.919838,19.704277,40.257077,57.727536,68.298855,36.361977,64.957432,70.380833,70.788529,30.348931,60.955067,65.135239,62.680207,25.259915,52.651749,55.94957,53.329628,21.051304,41.009732,45.001648,44.106011,-13.92231,-14.302519,-5.668157,4.966141,1.303143,16.95034,22.533516,25.557371,16.538242,34.607438,39.975216,42.261735,29.14638,46.110119,49.388066,50.630163,38.919383,51.84383,53.663627,54.060522,38.212687,308.731022,-81.078295,264.085993
34,9.069534,-7.947612,-10.744651,-31.77612,-27.742722,-52.383568,-73.310303,-90.425102,-56.229309,-84.426212,-98.679153,-108.847733,-48.95208,-79.68195,-96.265251,-107.898777,-40.301399,-68.306316,-83.825043,-95.046696,-30.827889,-52.731949,-65.048401,-75.105743,-5.151108,-0.59147,10.131983,17.078003,23.876057,39.611358,47.222591,53.219186,34.530658,49.847527,57.127332,62.509164,40.723384,54.807283,61.540844,65.962655,42.769781,54.92714,61.447675,66.23637,17.099235,36.656879,54.76189,64.490947,29.054889,59.298008,64.076957,61.622863,24.539989,56.679313,58.253563,51.378147,21.538364,50.616634,50.647075,43.487217,19.586723,40.659793,42.240577,37.782348,-17.042342,-21.849043,-16.545436,-7.579684,-12.535192,-3.372301,2.465453,6.079229,2.904511,15.066236,20.727254,24.055064,17.16186,28.671111,32.007795,34.045645,29.562232,37.870885,39.261739,40.100137,47.011431,301.00795,-92.093736,232.534413
35,0.124603,-0.502586,-12.444329,-42.953624,-27.706604,-51.628464,-72.039779,-89.227867,-57.362045,-85.416538,-99.881412,-110.979378,-49.284736,-80.160061,-97.405872,-110.792965,-39.496811,-67.816314,-84.382759,-97.062263,-28.752868,-50.968368,-63.741863,-74.850597,-13.808022,-12.456293,-1.305601,5.953901,17.37769,34.963182,44.169477,51.41795,33.504057,50.914783,59.665829,66.354967,45.188,61.874592,70.001823,75.413271,52.741274,68.144939,75.4974,80.723683,15.226021,32.981964,50.559574,59.390637,21.783051,51.494282,56.2179,52.628403,18.327679,50.222706,51.573109,43.747273,17.193054,47.103253,46.776764,38.493908,17.821324,40.253437,41.942917,37.02174,-20.198924,-30.451721,-30.193327,-24.868379,-26.847313,-25.002538,-20.148041,-16.266935,-11.372227,-6.821833,-1.959525,2.221453,4.378055,8.84387,10.991673,13.299187,19.149995,21.849254,22.08385,23.06436,46.813328,300.816407,-104.860771,189.891832
36,-0.548424,-0.582504,-17.691181,-52.593301,-27.763069,-51.27333,-71.304588,-88.610492,-57.710517,-85.737579,-100.179302,-111.091266,-49.303115,-80.159042,-97.243412,-110.278106,-39.203727,-67.637168,-84.167324,-96.478866,-28.285308,-50.618156,-63.474723,-74.434787,-14.272756,-10.867616,4.630132,16.169876,17.546108,35.258596,44.576214,52.343243,33.922712,51.192364,59.851414,66.725247,45.54146,62.241624,70.390208,76.093044,52.7082,68.313703,75.653567,80.943947,21.391926,40.563721,56.840733,64.395023,18.203487,51.908924,59.859455,57.842457,10.938068,48.304459,54.989903,50.207153,7.919209,43.457977,48.198383,42.632927,7.975239,34.287655,39.241848,36.264565,-21.853699,-36.14645,-40.827433,-40.427661,-40.417485,-46.029331,-41.594942,-37.640606,-27.949391,-31.575999,-27.700574,-23.337698,-14.090407,-16.95541,-15.18589,-12.296779,-0.560613,-3.74502,-3.718233,-2.543858,45.653743,300.997591,-123.163113,138.062219
37,0.154335,0.079374,-11.834782,-47.473636,-28.093368,-51.709739,-71.882869,-89.277923,-58.396614,-86.253982,-100.633655,-111.478122,-49.994659,-80.66534,-97.629993,-110.725421,-39.766479,-68.175945,-84.50077,-96.647163,-28.677177,-51.103797,-63.755905,-74.534648,-14.780986,-11.086175,4.656376,16.16096,17.077187,34.977076,44.222471,51.761455,33.470255,50.713551,59.278209,66.088366,45.112134,61.778508,69.783931,75.442726,52.285333,68.128624,75.537155,80.932486,19.190472,34.435696,47.770489,55.894387,10.042798,40.172402,51.936367,53.827641,3.495701,37.592171,47.883923,46.643269,1.758385,34.535969,40.935551,37.381932,3.286274,26.891922,32.211903,30.163296,-27.46596,-49.393278,-60.490445,-65.075382,-57.971676,-71.54638,-67.921323,-63.630188,-45.746466,-57.074931,-52.865411,-47.132966,-31.142314,-40.510216,-36.776144,-31.363022,-16.42327,-24.304172,-23.164006,-20.440393,45.110143,302.392462,-135.69583,91.90408
38,0.184594,-0.079115,-10.353332,-46.350755,-28.125481,-51.819443,-72.166523,-89.701218,-58.733803,-86.719723,-101.107373,-111.85944,-50.347298,-81.142365,-97.960419,-110.901238,-40.134613,-68.564312,-84.735283,-96.688717,-29.090836,-51.615395,-64.092831,-74.621029,-15.01917,-11.315256,4.427134,15.940276,16.777982,34.479207,43.662062,51.10306,33.145386,50.424226,59.016475,65.858729,44.79822,61.636026,69.5445,75.134493,52.013669,68.013695,75.420274,80.798957,19.083881,30.964107,41.286472,49.109585,6.295257,32.389469,47.210426,52.156414,0.36771,31.019943,42.621334,42.875828,-0.629322,29.041855,35.88137,33.032467,1.781799,23.109203,28.129097,25.831249,-29.665071,-55.76886,-72.164909,-82.658126,-67.232842,-88.02825,-85.853623,-81.356773,-56.808607,-74.553668,-68.476619,-60.503764,-43.768779,-58.517327,-52.005734,-44.112944,-30.16859,-42.10994,-38.740862,-33.726902,44.30262,303.973337,-147.041279,47.213315
39,0.005836,-0.218102,-8.552776,-39.640745,-28.280388,-51.895614,-72.251941,-89.715248,-58.889923,-86.83604,-101.174652,-111.851108,-50.542305,-81.338711,-98.068039,-110.947803,-40.395721,-68.762626,-84.856361,-96.722362,-29.458717,-51.952583,-64.338775,-74.793926,-15.2196,-11.597259,4.125965,15.628449,16.486878,34.131589,43.323644,50.69258,32.890258,50.267565,58.907423,65.753024,44.610622,61.587514,69.429446,74.94918,51.919079,68.07316,75.450716,80.754644,19.042018,29.294242,37.05598,43.867675,6.205341,28.808372,43.012538,49.734787,0.989387,28.046001,38.152233,38.82724,0.422458,26.896259,32.520252,30.105205,2.913459,21.867862,26.175281,24.080371,-31.231179,-59.243734,-78.776402,-92.990387,-71.897308,-94.539942,-96.555942,-95.592027,-63.326474,-83.394759,-77.741311,-70.413155,-52.056808,-69.846817,-63.328468,-55.181039,-39.89063,-54.982468,-51.61121,-45.673359,42.595121,305.350727,-157.30739,9.168062
40,-0.045044,-0.257845,-6.407879,-32.985996,-28.43383,-52.09758,-72.406677,-89.785503,-59.030433,-86.945171,-101.271332,-111.854221,-50.662033,-81.430961,-98.109581,-110.931072,-40.491279,-68.809788,-84.910755,-96.754509,-29.552238,-52.033081,-64.401821,-74.877067,-15.357118,-11.753438,3.972935,15.455239,16.257092,33.958898,43.157412,50.439157,32.658496,50.158748,58.846809,65.683197,44.416861,61.450873,69.265153,74.754974,51.783352,68.007346,75.461992,80.795449,18.240818,28.012516,35.289928,41.772262,6.635135,30.278297,44.195892,51.240886,2.552147,31.620987,38.137413,35.925842,3.064155,31.141536,33.718883,29.417667,5.975555,26.561142,28.849296,25.269939,-31.809928,-60.459319,-80.594035,-95.107169,-77.11794,-101.276582,-105.11972,-105.692912,-69.518064,-89.683877,-82.118127,-74.819312,-59.067424,-77.524289,-68.643122,-60.00758,-47.53275,-64.596571,-59.457798,-52.442401,40.240522,306.643747,-166.024824,-22.267069
41,-0.095787,-0.293463,-4.154927,-25.676111,-28.557472,-52.214081,-72.496376,-89.849121,-59.072388,-86.934105,-101.242069,-111.776573,-50.710258,-81.383743,-98.001823,-110.782665,-40.542297,-68.71479,-84.785168,-96.593113,-29.646446,-52.077347,-64.423599,-74.897598,-15.466379,-11.920658,3.869083,15.31446,16.049056,33.815094,43.031738,50.209272,32.501354,50.113053,58.827358,65.609455,44.344688,61.418281,69.210887,74.652247,51.802655,68.073222,75.559694,80.859732,13.699162,23.267018,32.692028,41.17297,4.652699,30.534497,45.143212,54.040947,3.864636,35.708485,39.349972,35.069001,7.755661,37.754071,37.552826,31.481404,13.633473,35.427269,35.422657,30.263695,-34.007953,-61.889826,-80.882054,-94.539723,-79.20139,-102.724086,-110.395954,-114.746048,-70.562177,-89.846911,-82.09231,-76.147206,-59.327014,-77.110244,-68.071187,-60.939215,-47.122993,-63.597191,-58.329628,-52.182204,37.750517,307.448678,-172.573969,-46.844786
42,-0.333526,-0.233515,-1.914333,-17.969765,-28.531655,-52.085793,-72.414803,-89.719758,-58.857239,-86.847474,-101.154637,-111.66148,-50.470757,-81.305478,-97.923821,-110.672837,-40.311791,-68.59655,-84.721802,-96.574631,-29.471672,-52.042603,-64.500641,-75.106842,-15.493574,-11.984273,3.667678,15.166148,15.801276,33.711019,42.855638,49.890591,32.260329,50.058972,58.724148,65.344743,44.164463,61.355135,69.115816,74.495178,51.704064,68.076519,75.548467,80.799438,10.47068,20.82019,32.432018,42.701466,4.883686,33.511574,48.678886,58.173718,6.846737,41.881371,42.112656,34.22842,13.263611,45.167336,42.523785,34.131466,21.114327,44.132401,42.313248,35.291988,-35.303273,-61.810548,-79.279307,-91.753381,-81.441004,-103.968527,-111.822222,-117.134073,-72.53339,-90.18703,-79.402444,-73.022999,-61.306109,-78.055667,-67.362222,-60.670262,-49.264278,-65.368168,-58.482858,-51.975652,34.953043,307.617554,-176.95225,-64.41216
43,-0.269349,-0.143138,0.215595,-11.947056,-28.466423,-51.963432,-72.36811,-89.598232,-58.761268,-86.785709,-101.115726,-111.645366,-50.401863,-81.294193,-97.933696,-110.691238,-40.277137,-68.661037,-84.840614,-96.74168,-29.482795,-52.169677,-64.723663,-75.432964,-15.543443,-12.093373,3.424604,15.00803,15.510592,33.420385,42.50003,49.454423,32.013279,49.817787,58.441405,64.976735,43.984868,61.125523,68.825132,74.106843,51.628631,67.929504,75.298366,80.426936,7.724156,18.808926,31.746506,43.282105,7.112034,37.661351,53.148674,63.445748,10.659142,47.658188,46.079327,36.720143,18.490757,51.343872,47.332558,37.797135,27.218823,51.018574,48.205902,40.196171,-35.213852,-60.095236,-75.912597,-86.891222,-82.512938,-103.760122,-111.976246,-118.197381,-74.087342,-90.238863,-78.608469,-73.104235,-63.292243,-78.519789,-67.352613,-61.661266,-51.56814,-66.26752,-58.470051,-52.249571,32.158098,307.266348,-179.262251,-76.567284
44,-0.321464,-0.256128,2.847634,-9.86482,-28.409798,-51.836426,-72.271523,-89.488884,-58.658318,-86.686112,-101.031029,-111.595974,-50.359657,-81.241379,-97.836514,-110.60511,-40.273773,-68.649353,-84.795456,-96.735615,-29.506233,-52.263657,-64.866428,-75.658104,-15.50848,-12.11716,3.281404,14.840946,15.439221,33.201764,42.172753,49.034162,31.957888,49.609577,58.178694,64.681469,43.970369,60.948608,68.601089,73.85411,51.668002,67.845919,75.121612,80.139277,7.282848,18.641109,32.307323,44.442215,8.72208,41.181324,57.485458,68.27869,12.490253,51.95597,49.631961,39.291893,20.589763,55.309444,50.806755,40.520965,29.561256,54.970539,51.635032,42.90683,-33.95983,-57.201435,-71.221872,-80.199388,-83.396673,-103.350068,-110.371229,-115.600813,-75.483639,-89.300429,-76.024504,-70.386025,-64.933331,-77.165232,-64.127614,-58.440908,-53.350689,-65.009747,-55.296219,-48.943367,29.726709,306.492696,-178.524542,-86.949628
45,-0.35154,-0.139544,3.709636,-4.297118,-28.287185,-51.547691,-72.021698,-89.054363,-58.41735,-86.518249,-100.876934,-111.503643,-50.245811,-81.2028,-97.779659,-110.540359,-40.306595,-68.725399,-84.826687,-96.76831,-29.684509,-52.457954,-65.063095,-75.859829,-15.493647,-12.289147,2.870938,14.494403,15.143474,32.67959,41.590817,48.424426,31.727313,49.248066,57.783245,64.271101,43.838199,60.710535,68.346233,73.598662,51.64781,67.726531,74.885701,79.810024,6.795674,17.998661,31.857159,44.722046,9.953362,41.961296,58.474732,69.923012,14.161847,52.710583,50.859238,41.192791,22.486004,56.190377,52.249031,42.330128,31.550469,55.744538,52.630085,44.158104,-33.178108,-55.166315,-68.563876,-77.774799,-82.1655,-100.30502,-107.177677,-112.886398,-75.451761,-87.974476,-74.782902,-69.64779,-66.081812,-76.36139,-63.367671,-58.128448,-55.402152,-64.302992,-54.424615,-48.339066,27.844196,305.626019,-176.345879,-91.973879
46,-0.462478,-0.125489,2.961903,-3.419226,-28.041138,-51.111763,-71.577187,-88.503754,-58.125252,-86.303364,-100.721043,-111.395474,-50.132424,-81.151039,-97.732293,-110.435051,-40.343285,-68.792897,-84.882958,-96.78439,-29.828499,-52.636826,-65.257485,-76.046219,-15.527882,-12.512461,2.414009,14.043785,14.864572,32.160158,41.016131,47.887395,31.485646,48.840303,57.350115,63.836502,43.651453,60.397881,67.991897,73.22207,51.532954,67.484605,74.535255,79.370559,7.810558,19.189888,33.112804,46.120571,12.115631,44.294449,60.978127,72.343872,15.999928,54.532471,52.85844,43.399429,23.911972,57.738522,54.038898,44.243637,32.674667,57.244217,54.16872,45.588947,-31.979124,-53.097595,-65.880347,-74.737623,-80.364524,-97.317025,-103.210599,-107.769233,-74.098259,-84.463451,-71.053497,-66.015933,-65.089726,-73.312519,-60.090487,-55.113116,-54.633016,-61.602044,-51.486601,-45.644178,26.200871,304.54116,-174.564823,-96.352475
47,-0.241997,-0.25125,2.806309,-1.735532,-27.870209,-50.910736,-71.346851,-88.249409,-58.02356,-86.137699,-100.641071,-111.435871,-50.18747,-81.078335,-97.669624,-110.377556,-40.50911,-68.894383,-85.008522,-96.920792,-30.031998,-52.790451,-65.416912,-76.187702,-15.57517,-12.602135,2.291027,13.777295,14.67585,31.77097,40.65557,47.627327,31.308015,48.507542,57.051737,63.628748,43.511946,60.116076,67.746846,73.063125,51.464942,67.250682,74.252932,79.071353,7.973224,19.088848,32.762558,45.626861,12.887066,45.719307,62.828567,74.083614,16.562828,55.54557,54.034366,44.668934,24.250694,58.729122,55.280765,45.539531,32.946201,58.149936,55.380741,46.891193,-30.576019,-51.374262,-64.025171,-72.752523,-78.32292,-94.557671,-99.743872,-103.420634,-72.339333,-81.411854,-68.057346,-63.162857,-63.46582,-70.447951,-57.265838,-52.609857,-52.93865,-58.560787,-48.53135,-43.004908,24.976576,303.368566,-172.740812,-99.009351
48,-0.209999,-0.18966,2.232788,-0.856577,-27.687836,-50.675766,-71.05893,-87.979683,-57.767281,-85.940392,-100.580612,-111.471966,-50.041626,-80.990627,-97.657974,-110.411637,-40.458573,-68.885044,-85.067448,-97.022907,-30.043396,-52.856575,-65.537762,-76.340092,-15.663165,-12.745829,2.163179,13.584424,14.431553,31.508148,40.391117,47.364875,31.065669,48.25397,56.833202,63.444497,43.298648,59.857342,67.554679,72.985949,51.299414,67.001259,74.057738,78.967007,8.064422,19.474949,33.759853,47.061012,12.672935,45.883175,63.560875,74.926769,16.339794,55.299328,53.954944,44.625732,23.934517,58.549713,55.395984,45.75769,32.663566,58.048599,55.539127,47.28455,-29.311692,-49.935931,-62.511366,-71.465713,-76.402068,-92.007234,-97.14368,-100.710282,-70.466137,-78.56558,-65.456922,-60.630998,-61.675694,-67.890404,-55.069197,-50.619471,-51.330963,-56.306471,-46.647141,-41.37779,24.144036,302.351451,-171.130565,-100.693383
49,-0.033692,0.008497,1.202602,-0.606828,-27.540207,-50.566932,-70.964641,-87.847641,-57.667076,-85.912674,-100.645259,-111.554763,-49.97335,-81.015026,-97.840759,-110.617378,-40.36972,-68.928531,-85.216861,-97.198265,-29.901077,-52.80574,-65.539398,-76.306606,-15.850615,-12.995399,1.932059,13.373175,14.1321,31.275917,40.199283,47.2156,30.784396,47.969375,56.578494,63.208154,43.038666,59.590555,67.34884,72.84123,51.074692,66.731151,73.799103,78.740309,7.420578,18.503895,32.498497,45.524197,12.473225,46.054402,63.819306,75.043408,16.3186,55.151608,53.433438,43.838848,23.897244,58.519753,55.209286,45.489132,32.601563,58.091114,55.643933,47.401543,-28.104773,-48.507319,-60.790708,-69.509468,-74.664695,-89.62351,-94.530899,-98.152005,-68.870731,-75.889147,-63.036481,-58.586682,-60.203462,-65.506652,-53.002996,-48.960938,-50.014845,-54.276339,-44.768113,-39.839816,23.807819,301.753043,-170.230488,-101.907116
50,0.03891,-0.07063,0.855149,-0.68396,-27.52597,-50.560203,-70.943973,-87.982601,-57.617775,-85.793461,-100.603477,-111.581062,-49.957649,-80.96791,-97.928936,-110.82225,-40.338226,-68.881519,-85.2667,-97.312236,-29.815864,-52.736297,-65.493576,-76.285721,-15.899583,-13.014949,2.03738,13.36059,14.105856,31.337543,40.253191,47.238707,30.715136,47.88364,56.519238,63.159247,42.936704,59.468092,67.226982,72.711875,50.952537,66.601919,73.71674,78.691872,6.940532,17.829494,31.67237,44.536857,12.262985,46.074543,63.84708,74.985683,16.017883,54.5606,52.002605,41.917488,23.407917,57.863685,54.005046,44.059432,31.942268,57.514068,54.86182,46.504714,-26.902672,-47.108336,-59.00233,-67.207234,-73.12639,-87.465339,-92.461837,-96.447338,-67.259302,-73.374686,-60.704983,-56.775913,-58.518543,-63.195563,-51.038033,-47.45516,-48.28239,-52.250447,-42.897165,-38.29984,23.668224,301.322516,-169.553844,-102.950973
51,0.08519,-0.024836,0.35606,-0.872298,-27.645012,-50.741066,-71.073635,-88.11422,-57.628372,-85.775356,-100.611603,-111.60989,-49.862984,-80.907772,-97.93618,-110.888718,-40.137176,-68.678135,-85.065113,-97.140541,-29.55336,-52.511398,-65.256729,-76.02935,-15.952009,-13.000722,2.273193,13.629019,14.080452,31.497971,40.468243,47.471098,30.673961,47.949528,56.653508,63.372249,42.891947,59.544551,67.383692,72.947416,50.899098,66.611676,73.702093,78.644657,5.853561,16.234508,29.620136,42.050605,11.711036,45.27761,62.909111,73.893619,15.605175,53.614883,50.79507,40.623573,22.964298,57.0004,53.002624,43.142715,31.488464,56.784484,54.128654,45.8623,-26.037802,-46.089486,-57.657799,-65.280757,-71.65599,-85.759574,-90.988392,-95.482868,-65.764658,-71.814238,-59.510481,-55.875228,-57.025067,-61.6904,-49.928314,-46.539233,-46.780124,-50.850001,-41.791348,-37.378506,23.681871,301.18878,-169.269327,-103.932171
52,0.00174,0.14473,0.149162,-1.229766,-27.715279,-50.848847,-71.146191,-88.036755,-57.58889,-85.779591,-100.589962,-111.526909,-49.726616,-80.871357,-97.919243,-110.876576,-39.92109,-68.479443,-84.786015,-96.805298,-29.32322,-52.335411,-65.028798,-75.721127,-16.114881,-13.185096,2.257953,13.857571,13.956705,31.470715,40.475728,47.458922,30.63885,48.014181,56.769673,63.501629,42.894603,59.670498,67.504056,73.01633,50.896505,66.708328,73.734438,78.553193,5.467186,15.789322,29.275612,41.789612,11.369133,44.391243,61.901104,72.971397,15.249573,52.689033,49.484562,39.273067,22.518516,56.123554,51.724754,41.861698,31.004459,56.147461,53.16378,44.773384,-25.368551,-45.271984,-56.532647,-63.798006,-70.643573,-84.411603,-89.953356,-94.940804,-64.74334,-70.409805,-58.276031,-54.925284,-56.024772,-60.396784,-48.78721,-45.546718,-45.755758,-49.722364,-40.764837,-36.558726,23.656735,301.291477,-169.147041,-105.20397
53,-0.096955,0.041163,-0.03217,-1.332166,-27.768242,-50.909614,-71.190925,-88.063167,-57.589691,-85.772552,-100.520725,-111.387886,-49.626548,-80.768085,-97.773193,-110.66391,-39.734092,-68.233864,-84.439361,-96.354171,-29.118736,-52.137062,-64.771167,-75.339248,-16.079449,-13.110329,2.418183,14.13525,14.097619,31.653076,40.712961,47.712172,30.819384,48.260615,57.024011,63.730525,43.074568,60.037616,67.875658,73.331517,51.024724,66.985106,73.924419,78.588354,4.844422,14.851525,27.938633,40.076466,11.30254,43.841343,61.21336,72.336606,15.309414,52.227162,48.810277,38.556336,22.557152,55.724728,51.108181,41.255974,30.955536,55.874142,52.790589,44.408501,-25.058515,-44.893275,-55.977456,-62.888469,-69.562707,-83.334769,-89.007013,-94.253155,-63.639685,-69.2196,-57.328376,-54.236854,-54.962205,-59.217521,-47.760572,-44.672521,-44.696353,-48.589099,-39.713147,-35.633554,23.582679,301.249295,-169.156312,-106.619481
54,-0.15731,-0.080103,0.048111,-1.41041,-27.84906,-51.001351,-71.226906,-88.081467,-57.573944,-85.631848,-100.304604,-111.15548,-49.535729,-80.56303,-97.452873,-110.329949,-39.621277,-67.945496,-84.051052,-95.929665,-29.073303,-51.941414,-64.487229,-75.028107,-15.882675,-12.823189,2.748289,14.504369,14.227468,31.818493,40.949428,48.000856,30.957532,48.507172,57.299146,64.024816,43.215594,60.324163,68.1791,73.618928,51.147027,67.260229,74.231134,78.875457,4.562073,14.497822,27.513943,39.529164,11.090458,43.307442,60.702084,71.874939,15.155755,51.633603,48.467995,38.436413,22.390458,55.141789,50.685654,40.990757,30.772637,55.336487,52.33881,44.110566,-24.711886,-44.456228,-55.413804,-62.167394,-68.684968,-82.473987,-88.273962,-93.701354,-62.75314,-68.447445,-56.688311,-53.613517,-54.085263,-58.383477,-47.045095,-43.911089,-43.825722,-47.720191,-38.947183,-34.891157,23.500723,301.064451,-169.032847,-108.134632
55,-0.115975,0.015129,-0.088325,-1.451308,-27.854644,-51.045799,-71.241153,-88.016819,-57.531875,-85.568767,-100.218532,-111.056408,-49.410347,-80.418983,-97.232059,-110.04095,-39.468269,-67.720733,-83.724071,-95.533699,-28.967285,-51.822143,-64.326667,-74.7896,-15.857333,-12.72161,2.88803,14.782345,14.357255,31.913107,41.069397,48.153379,31.131236,48.714221,57.47206,64.172486,43.387779,60.627493,68.476564,73.907809,51.277592,67.489421,74.422881,79.001081,4.344532,14.178875,27.12117,39.005218,10.955818,43.08633,60.424919,71.585918,15.143612,51.437405,48.455864,38.517174,22.35355,54.889755,50.538414,40.891148,30.637699,54.939732,51.965927,43.78315,-24.532426,-44.237801,-55.216502,-61.994221,-67.880181,-81.641038,-87.554758,-93.188078,-61.862421,-67.699456,-56.138905,-53.084832,-53.14363,-57.481609,-46.33536,-43.240143,-42.833315,-46.687359,-38.065532,-34.079611,23.464502,300.972267,-169.041418,-109.693253
56,-0.053489,0.027257,-0.204083,-1.139659,-27.885269,-51.080658,-71.278794,-88.065033,-57.543892,-85.51751,-100.122712,-110.937367,-49.40474,-80.352883,-97.158188,-109.96463,-39.462067,-67.681687,-83.66811,-95.465332,-28.959137,-51.768357,-64.250096,-74.675858,-15.816998,-12.610607,2.954844,14.853543,14.448794,31.961828,41.103124,48.17961,31.200865,48.746528,57.461784,64.092185,43.430473,60.71671,68.525593,73.896298,51.273788,67.578663,74.539305,79.129176,4.174256,13.84282,26.479866,38.019619,10.753293,42.872738,60.1573,71.311295,14.95506,51.355568,48.39037,38.40627,22.134705,54.747632,50.368275,40.684296,30.344021,54.691533,51.704991,43.481381,-24.22578,-43.950816,-54.998539,-61.855595,-67.323971,-80.932798,-86.870851,-92.687292,-61.327543,-66.952366,-55.463782,-52.49397,-52.56285,-56.656096,-45.543331,-42.557446,-42.186811,-45.772249,-37.101315,-33.151994,23.480782,300.904382,-169.175732,-110.928054
57,-0.046646,-0.085129,-0.342773,-0.767768,-27.900078,-51.105011,-71.285695,-88.116051,-57.553299,-85.52575,-100.141743,-110.951603,-49.355668,-80.305481,-97.141777,-109.941857,-39.349938,-67.595181,-83.636307,-95.472187,-28.787568,-51.614571,-64.130894,-74.576992,-15.710762,-12.422331,3.088582,14.917294,14.582532,32.172533,41.338406,48.463415,31.236211,48.825532,57.55089,64.180896,43.409601,60.78366,68.637275,74.035224,51.216014,67.608291,74.616555,79.251257,4.134922,13.55167,25.943195,37.165672,10.521961,42.695389,59.97464,71.095871,14.751526,51.29417,48.365456,38.232319,21.906727,54.630627,50.335831,40.590408,30.066433,54.509045,51.595562,43.306824,-23.977006,-43.681099,-54.868208,-62.032031,-66.748009,-80.263028,-86.294148,-92.344518,-60.776664,-66.214201,-54.83917,-51.998024,-52.01504,-55.850327,-44.808859,-41.980252,-41.657319,-45.043042,-36.320064,-32.367534,23.49432,300.764255,-169.458321,-111.75082
58,-0.005837,-0.09801,-0.170013,-0.539853,-27.984169,-51.171867,-71.308639,-88.097671,-57.510681,-85.511833,-100.128857,-110.940468,-49.294441,-80.255482,-97.11945,-109.949661,-39.253509,-67.503673,-83.589409,-95.50914,-28.632271,-51.449684,-63.981972,-74.497559,-15.616037,-12.287493,3.235412,15.003374,14.674775,32.334763,41.512208,48.66834,31.238088,48.86215,57.667462,64.362997,43.35342,60.734346,68.684513,74.165789,51.128637,67.545712,74.63382,79.350798,4.056038,13.195575,25.342128,36.307937,10.222057,42.259403,59.500957,70.632133,14.442306,51.081665,48.24076,38.153869,21.568256,54.391182,50.240673,40.604873,29.689281,54.250854,51.489292,43.2518,-23.608356,-43.203271,-54.399584,-61.627612,-66.313042,-79.716639,-85.813813,-91.97174,-60.41668,-65.788268,-54.42911,-51.583367,-51.711061,-55.567047,-44.448774,-41.547727,-41.398409,-44.909086,-36.102076,-32.025681,23.560799,300.669194,-169.556018,-112.287724
59,-0.013161,0.035531,-0.153271,-0.42806,-27.93988,-51.174705,-71.354599,-88.148151,-57.48191,-85.65065,-100.335388,-111.131538,-49.187118,-80.331791,-97.259193,-110.037368,-39.082901,-67.50214,-83.663395,-95.596538,-28.413162,-51.404251,-64.002422,-74.517311,-15.679739,-12.334979,3.20387,15.060777,14.676232,32.449421,41.673698,48.846996,31.274459,48.946019,57.773339,64.420512,43.394558,60.822538,68.811139,74.277211,51.148002,67.542897,74.599413,79.281601,3.98838,13.012081,25.026935,35.827492,10.058349,41.912132,59.074367,70.21875,14.282604,50.940296,48.021847,37.880527,21.390552,54.305649,50.130466,40.499702,29.46096,54.180256,51.436455,43.145096,-23.265196,-42.818427,-54.120963,-61.577446,-65.866664,-79.230364,-85.375795,-91.635435,-60.022994,-65.307958,-53.950736,-51.160223,-51.357111,-55.254744,-44.015536,-41.092389,-41.09179,-44.764118,-35.855503,-31.688635,23.665426,300.751473,-169.591501,-112.669036
60,0.016686,0.048449,-0.044357,-0.307844,-27.95723,-51.211304,-71.418194,-88.206459,-57.472344,-85.816956,-100.575405,-111.359207,-49.158669,-80.469338,-97.458847,-110.197586,-39.047859,-67.614842,-83.846237,-95.765648,-28.39492,-51.469574,-64.099068,-74.576489,-15.669772,-12.324802,3.219185,15.054862,14.640677,32.480322,41.742328,48.916009,31.256824,49.007832,57.851207,64.463083,43.375614,60.889179,68.896639,74.337505,51.11499,67.541921,74.542022,79.148578,3.644153,12.30693,23.778385,33.975025,9.803455,41.400375,58.571239,69.778461,13.941227,50.587337,47.739955,37.69313,21.031436,53.983154,49.993022,40.547344,29.145183,54.009189,51.490161,43.313312,-22.705645,-42.260491,-53.608695,-61.047856,-65.505739,-78.789034,-84.907808,-91.160093,-59.898431,-65.004403,-53.575158,-50.745859,-51.363447,-55.239082,-43.733427,-40.686044,-41.17089,-44.938168,-35.784167,-31.417356,23.878304,300.876545,-169.439666,-112.900257
61,0.121376,0.025565,0.175781,-0.384335,-27.853912,-51.202332,-71.489868,-88.372753,-57.603584,-86.049626,-100.838471,-111.617077,-49.309342,-80.680664,-97.709931,-110.442547,-39.192536,-67.80534,-84.11063,-96.043694,-28.50222,-51.495278,-64.179554,-74.72707,-15.617581,-12.27723,3.204673,14.956246,14.642443,32.51216,41.7724,48.90598,31.263591,49.089453,57.893111,64.438741,43.336488,60.931848,68.983398,74.406616,51.011953,67.487445,74.555014,79.196854,3.299663,11.621578,22.692547,32.248901,9.372528,40.526344,57.737755,69.067097,13.510425,49.889225,47.424454,37.696461,20.624645,53.449058,49.905361,40.798645,28.876945,53.675182,51.522491,43.588199,-22.224782,-41.736517,-53.333948,-60.952211,-64.964536,-78.375071,-84.424456,-90.501126,-59.549917,-64.950905,-53.457335,-50.400714,-51.190125,-55.35306,-43.571659,-40.252509,-41.187593,-45.15079,-35.848099,-31.276547,24.229351,301.017892,-169.034214,-113.16881
62,0.292946,0.028566,0.32159,-0.573896,-27.825943,-51.275711,-71.655831,-88.653637,-57.755013,-86.300057,-101.153046,-111.962563,-49.510895,-80.910015,-97.938,-110.635037,-39.443253,-68.094097,-84.412411,-96.304093,-28.761315,-51.661148,-64.345608,-74.908917,-15.542258,-12.178812,3.257408,14.947835,14.72257,32.542454,41.812303,48.939128,31.3308,49.161355,57.941226,64.461452,43.333895,60.979038,69.093141,74.569389,50.914931,67.409343,74.566697,79.315563,2.745026,10.69891,21.273068,30.172669,8.863129,39.58746,56.824391,68.275646,13.013489,49.116074,47.200047,37.890507,20.136212,52.764839,49.76112,41.046044,28.449051,53.102692,51.347363,43.734421,-21.819644,-41.23514,-52.923413,-60.514484,-64.431423,-77.965873,-83.990666,-89.922697,-59.12024,-64.947036,-53.378646,-49.964886,-50.85784,-55.464668,-43.44168,-39.774431,-40.95568,-45.171853,-35.792243,-31.022783,24.810631,301.190543,-168.42429,-113.598621
63,0.245567,-0.024231,0.23441,-0.711908,-27.750664,-51.314232,-71.793446,-88.929897,-57.874809,-86.483871,-101.387524,-112.212891,-49.60453,-81.097549,-98.141739,-110.829277,-39.538124,-68.34779,-84.682033,-96.539989,-28.862892,-51.753868,-64.466343,-75.066765,-15.544926,-12.108688,3.291568,14.945217,14.867226,32.738302,42.037383,49.130332,31.511358,49.371838,58.118351,64.583866,43.500547,61.173515,69.312985,74.804832,51.03385,67.529114,74.737771,79.554883,2.510204,10.39405,20.937984,29.704444,8.50336,39.06641,56.267932,67.707046,12.703445,48.610141,47.045196,37.950222,19.846458,52.328888,49.634628,41.09999,28.188423,52.674202,51.074318,43.594883,-21.656506,-40.99893,-52.656278,-60.224482,-63.996969,-77.502155,-83.443644,-89.299549,-58.662002,-64.736492,-53.121511,-49.520289,-50.413265,-55.183719,-43.068319,-39.25905,-40.530991,-44.676834,-35.241899,-30.421581,25.41033,301.327286,-167.835748,-114.149555
64,0.273995,-0.171345,0.122715,-0.825548,-27.81704,-51.422287,-71.91227,-89.102475,-57.926125,-86.484066,-101.362336,-112.227379,-49.726754,-81.122967,-98.161698,-110.939656,-39.724709,-68.480771,-84.825509,-96.718712,-29.051445,-51.744576,-64.446614,-75.131413,-15.378619,-11.81609,3.586352,15.134779,15.129851,33.026343,42.248681,49.236481,31.697178,49.611676,58.331094,64.783666,43.595741,61.302227,69.486676,75.027528,51.035023,67.60766,74.955021,79.912171,2.344814,10.294647,21.106384,30.052391,8.159763,38.816597,56.055198,67.503959,12.404914,48.246563,46.837463,37.89664,19.579124,52.042385,49.468368,41.013427,28.001976,52.415187,50.819343,43.381771,-21.558291,-40.83999,-52.351017,-59.786764,-63.749035,-77.101119,-82.883592,-88.597394,-58.381785,-64.501269,-52.823769,-49.141184,-50.150575,-54.888261,-42.748775,-38.877747,-40.300829,-44.221835,-34.820322,-30.059943,26.100472,301.315261,-167.296886,-114.815783
65,0.105033,-0.104223,0.048351,-0.783063,-27.712303,-51.326156,-71.795333,-89.098182,-57.975769,-86.439708,-101.226699,-112.059837,-49.722793,-81.038532,-98.016288,-110.826587,-39.670806,-68.367347,-84.701191,-96.651775,-28.91883,-51.466346,-64.179176,-75.004234,-15.234703,-11.546549,3.842889,15.355142,15.399022,33.383446,42.548344,49.452447,31.904005,49.87256,58.566376,64.981688,43.707967,61.437387,69.690268,75.248274,51.03658,67.708475,75.259377,80.385995,2.234081,10.159298,21.0928,30.217255,7.671707,38.173038,55.502643,67.045429,11.942448,47.626087,47.003563,38.633812,19.13768,51.459755,49.593235,41.587772,27.604751,51.858536,50.745357,43.720596,-21.507674,-40.682857,-52.154385,-59.646294,-63.409775,-76.854359,-82.638841,-88.196523,-58.055693,-64.513042,-52.801499,-48.650352,-49.929854,-54.921338,-42.646955,-38.31488,-40.215023,-44.350492,-34.977928,-29.941749,26.66978,301.336419,-166.78426,-115.473465
66,0.05317,-0.020365,-0.44006,-0.678964,-27.744187,-51.343872,-71.754891,-89.027882,-57.89106,-86.308548,-101.067707,-111.936642,-49.584778,-80.856411,-97.832074,-110.741021,-39.522309,-68.199726,-84.486706,-96.475949,-28.785233,-51.268639,-63.928482,-74.74823,-15.105448,-11.256594,4.17413,15.686778,15.757569,33.802682,42.894318,49.691557,32.203741,50.155735,58.840387,65.251055,43.939963,61.62207,69.893105,75.471934,51.190239,67.881178,75.500821,80.689374,2.345947,10.465576,21.84589,31.432812,7.148884,37.616123,54.972084,66.552498,11.468205,47.174183,47.07573,39.059727,18.743271,51.076493,49.620953,41.854157,27.337361,51.536087,50.633892,43.810925,-21.524539,-40.558202,-51.898143,-59.633738,-63.219482,-76.715059,-82.643741,-88.249267,-57.882098,-64.72099,-53.070416,-48.614154,-49.803217,-55.204569,-42.941138,-38.31781,-40.138552,-44.744157,-35.491145,-30.248427,27.294411,301.42362,-166.652859,-116.044863
67,-0.096474,0.057082,-1.185184,-0.309777,-27.815552,-51.301575,-71.613785,-88.849525,-57.78875,-86.162716,-100.859654,-111.757473,-49.382858,-80.654823,-97.675736,-110.703026,-39.249596,-67.974495,-84.326637,-96.428959,-28.433418,-50.92852,-63.641441,-74.560375,-14.989122,-11.070095,4.299261,15.793372,16.004348,34.081794,43.047855,49.695138,32.428649,50.334181,58.9495,65.284808,44.144135,61.755994,69.983026,75.51364,51.360967,68.050362,75.695705,80.925409,2.818451,11.645427,24.091713,34.624683,6.674103,37.357532,54.545437,65.798092,11.197643,46.739834,46.507335,38.458328,18.650665,50.756366,49.07008,41.220829,27.529964,51.442188,50.272361,43.391601,-21.637876,-40.742128,-52.270955,-60.734942,-62.958599,-76.597095,-82.550236,-88.165031,-57.557442,-64.623072,-53.072105,-48.739452,-49.432548,-54.95439,-42.925604,-38.47361,-39.825965,-44.511086,-35.408884,-30.197826,27.827093,301.672301,-167.208887,-116.163041
68,-0.052734,0.309691,-1.55698,0.487606,-27.848031,-51.238266,-71.48663,-88.694024,-57.748238,-86.091191,-100.74416,-111.664593,-49.305291,-80.542729,-97.58313,-110.688733,-39.129593,-67.845395,-84.226582,-96.39267,-28.247887,-50.732117,-63.447178,-74.38242,-14.919233,-11.018299,4.243377,15.722544,16.08576,34.126192,42.987957,49.552631,32.493215,50.306727,58.848426,65.142498,44.178369,61.663195,69.797515,75.259994,51.355718,67.990167,75.644403,80.909453,3.134204,12.287532,25.157054,35.842426,6.284122,37.165729,54.129421,65.006469,10.799491,46.476642,46.112594,38.006206,18.326534,50.473892,48.496421,40.536632,27.431945,51.368797,49.766761,42.577045,-21.577101,-40.904233,-52.831726,-61.806259,-62.622266,-76.437201,-82.547605,-88.324106,-57.164959,-64.614653,-53.137557,-48.827524,-48.950487,-54.901677,-42.87445,-38.467845,-39.335896,-44.345886,-35.265911,-30.043817,28.560963,302.35733,-167.979263,-115.300097
69,-0.041726,0.397746,-1.451111,1.851567,-27.886001,-51.218055,-71.460605,-88.630474,-57.804222,-86.13097,-100.753566,-111.645526,-49.290161,-80.530735,-97.610138,-110.750358,-39.023552,-67.818191,-84.240348,-96.45512,-28.05352,-50.610855,-63.354835,-74.303707,-14.912205,-11.076825,3.996956,15.480606,16.118389,34.127354,42.96753,49.501872,32.504664,50.237036,58.739574,64.958705,44.163895,61.559715,69.6228,74.990318,51.309011,67.878597,75.488064,80.73323,2.150345,10.583175,22.368313,31.729122,5.998729,36.416107,53.096294,63.80532,10.766361,46.140278,45.58144,37.587833,18.42382,50.160301,47.881622,40.015629,27.576851,51.229797,49.221199,41.986267,-21.459558,-40.767924,-53.243428,-62.418029,-61.890705,-76.292436,-82.959227,-89.097705,-56.250046,-64.421972,-53.379171,-49.030731,-47.825206,-54.597633,-42.880137,-38.434185,-38.093276,-43.954255,-35.197583,-30.036993,29.374282,303.298572,-168.575329,-112.905034
70,0.149666,0.376332,-1.309696,3.291989,-27.997787,-51.414802,-71.717537,-88.899948,-57.962036,-86.313583,-100.944706,-111.846576,-49.421562,-80.635998,-97.723709,-110.897804,-39.108055,-67.957672,-84.392921,-96.60165,-28.08847,-50.695999,-63.433799,-74.33725,-14.995075,-11.224348,3.765244,15.231542,16.081574,34.093934,42.98545,49.607021,32.466576,50.150066,58.680503,64.962632,44.133118,61.406129,69.457074,74.863594,51.28226,67.72469,75.294254,80.589055,1.861026,10.812206,23.248901,32.976379,5.876907,36.310684,52.672153,63.103179,10.803852,45.978057,44.498302,36.037536,18.508678,50.054065,46.804481,38.530094,27.761318,51.29702,48.394294,40.739776,-21.781822,-41.187194,-54.179101,-63.88965,-61.267774,-75.879277,-82.874814,-89.445558,-54.985617,-63.720006,-52.941873,-48.934185,-45.877327,-53.367022,-42.067261,-37.913398,-35.617273,-42.118554,-33.809965,-29.063699,30.33498,304.542568,-169.073993,-108.745381
71,0.166878,0.21609,-0.775956,4.785478,-28.129189,-51.629997,-71.973942,-89.213825,-58.083046,-86.488483,-101.177021,-112.107914,-49.482719,-80.728294,-97.823536,-111.027718,-39.110161,-68.024288,-84.524529,-96.770622,-28.041435,-50.75354,-63.517971,-74.428551,-15.063309,-11.351752,3.604556,15.028605,15.9887,34.051313,43.044063,49.784812,32.403022,50.120401,58.7054,65.047155,44.098513,61.349071,69.403362,74.828618,51.272453,67.695865,75.245371,80.557623,1.511479,11.390374,25.081307,35.530278,6.347054,37.060341,53.270085,63.406014,11.284584,46.021592,43.778389,34.974747,18.836987,50.017022,46.003144,37.505814,27.895821,51.194962,47.670937,39.914372,-22.395584,-41.999398,-54.93099,-64.126908,-59.951505,-74.928033,-82.554219,-89.537048,-52.656305,-61.896112,-51.544579,-47.526412,-42.625334,-50.937054,-40.276475,-36.094036,-31.661298,-38.919386,-31.304196,-26.928842,31.442299,306.082037,-168.909508,-102.636524
72,0.117256,0.271504,0.510899,6.284599,-28.091537,-51.718025,-72.137626,-89.451782,-58.199409,-86.691994,-101.46389,-112.42353,-49.552643,-80.922066,-98.011207,-111.21373,-39.148956,-68.17186,-84.664684,-96.929443,-28.122688,-50.935524,-63.704487,-74.613579,-15.209164,-11.603014,3.359642,14.800956,15.899064,34.021661,43.100342,49.918934,32.390907,50.103728,58.681849,65.043611,44.118594,61.344613,69.375266,74.805412,51.290707,67.683997,75.195033,80.504098,0.593445,10.999981,24.925392,35.285431,8.099007,38.559254,54.436317,64.563801,13.034145,46.32502,43.011154,34.275501,20.127777,49.92841,44.886784,36.647037,28.408424,50.560856,46.260475,38.920143,-22.934208,-42.02487,-54.33173,-61.928096,-58.000594,-73.297082,-81.326546,-88.317468,-49.625691,-59.205063,-49.810451,-45.683218,-38.625152,-47.648282,-37.999145,-33.676532,-26.796851,-35.124734,-28.656798,-24.684836,32.586696,308.048621,-167.371468,-94.656845
73,0.258797,0.033987,2.423572,8.086482,-28.201012,-51.984558,-72.570534,-89.969879,-58.477753,-87.044644,-101.864411,-112.921623,-49.821877,-81.150181,-98.22353,-111.412159,-39.438812,-68.414395,-84.894184,-97.107559,-28.483452,-51.282532,-64.052124,-74.89547,-15.355969,-11.846075,3.026993,14.447707,15.945352,33.975114,43.059081,49.948945,32.485398,50.157316,58.679972,65.020269,44.229696,61.445069,69.461742,74.898582,51.362437,67.795234,75.24883,80.52497,0.328549,11.423424,25.920033,36.18528,9.52525,38.913197,54.057736,63.953476,14.471844,45.414975,41.599606,33.422219,21.25026,48.692299,43.13443,35.529694,28.974873,48.810128,44.246464,37.907731,-24.377482,-42.80843,-54.189751,-60.234381,-55.251966,-70.676805,-78.541896,-84.88773,-45.832805,-56.45295,-47.947031,-43.28615,-33.946082,-44.217877,-35.784552,-31.165791,-21.345784,-30.809078,-25.744896,-22.075069,33.776596,309.858578,-164.016793,-84.794393
74,0.242317,-0.179088,1.582415,14.398488,-28.191879,-52.141754,-72.888279,-90.337715,-58.770676,-87.41082,-102.325081,-113.554516,-50.129951,-81.415935,-98.477783,-111.650173,-39.818321,-68.725365,-85.210533,-97.392712,-28.949432,-51.678635,-64.465267,-75.275722,-15.518805,-12.138995,2.637236,14.053183,16.018538,33.887737,42.924428,49.831224,32.67297,50.176915,58.568314,64.855482,44.478439,61.536348,69.486083,74.910067,51.60225,67.974828,75.38058,80.645,1.682087,14.881291,31.561638,43.136055,11.566115,41.316822,55.900355,65.211102,16.519581,46.431971,42.206045,34.14081,23.125734,49.444685,43.441687,36.037359,30.589697,48.98346,44.124716,38.246235,-26.333457,-45.137668,-55.820745,-60.612901,-55.358602,-71.180966,-78.600605,-84.092154,-44.796475,-56.306934,-48.227498,-43.042995,-31.853094,-43.244619,-35.575703,-30.562733,-18.305326,-28.978529,-24.833017,-21.098297,34.937771,311.713771,-161.51552,-68.361624
75,0.245133,-0.458003,0.667076,20.508658,-28.170731,-52.255326,-73.197808,-90.613255,-58.987519,-87.786885,-102.866673,-114.216763,-50.416375,-81.731106,-98.872513,-111.980141,-40.214654,-69.100674,-85.685978,-97.833447,-29.486527,-52.151734,-64.995987,-75.788052,-15.648925,-12.31034,2.333239,13.758745,16.007065,33.70708,42.761123,49.738425,32.744848,50.133974,58.419422,64.607826,44.610054,61.627664,69.503757,74.838782,51.727567,68.083139,75.397858,80.586214,2.98375,17.82787,35.724175,47.401028,14.386179,45.288231,59.428934,68.025799,19.694618,49.660452,44.844927,36.557963,26.450129,52.595736,45.976221,38.412638,33.814688,51.468315,46.057967,40.107582,-28.382132,-48.263257,-58.513785,-61.672078,-58.131158,-75.02097,-82.090028,-86.637827,-46.571549,-58.774588,-51.101831,-45.486956,-32.617577,-44.982359,-37.965363,-32.552165,-18.137624,-30.213124,-26.718962,-22.718041,36.525193,312.899215,-159.506155,-46.209519
76,0.368751,-0.465277,1.801357,22.116262,-28.118774,-52.349808,-73.531723,-90.841312,-59.34819,-88.361183,-103.504005,-114.921822,-50.861412,-82.260899,-99.449146,-112.490215,-40.736595,-69.698215,-86.363697,-98.499447,-30.064819,-52.699219,-65.61565,-76.431416,-15.844612,-12.758537,1.586034,13.063682,15.809328,33.231898,42.219325,49.296638,32.608935,49.767448,57.902101,64.04996,44.551514,61.409648,69.182519,74.476073,51.713735,67.941471,75.150029,80.325059,5.011082,21.186413,39.372998,50.800553,17.370661,49.061898,62.704257,70.637135,22.449212,52.374831,47.453711,39.180399,29.029158,54.693301,47.703055,40.150423,36.190585,52.90448,47.094905,41.336117,-30.241152,-50.805658,-61.287169,-64.17293,-60.351543,-77.645703,-83.436412,-86.351842,-47.963144,-61.153236,-53.156909,-46.822154,-33.132983,-46.136246,-38.947658,-33.303426,-17.600778,-30.399771,-26.90299,-22.729971,38.634327,312.459416,-155.964415,-24.067779
77,0.284866,-0.848932,3.734597,23.090388,-28.187118,-52.508056,-73.874359,-91.080082,-59.684326,-88.77507,-103.875309,-115.293079,-51.313408,-82.638576,-99.852253,-112.82967,-41.265129,-70.169529,-86.928646,-99.052711,-30.591385,-53.082573,-66.052574,-76.899284,-15.87308,-12.889584,1.164995,12.461418,15.610257,32.922923,41.863951,48.956047,32.380434,49.487447,57.544505,63.639011,44.375167,61.137502,68.86091,74.129158,51.59878,67.756343,74.924022,80.111835,7.731914,24.975059,44.016803,55.359398,17.816637,47.65559,59.531404,65.676292,22.334804,51.691801,47.879225,39.981462,29.046953,54.465082,47.93252,40.473821,36.644937,52.371757,46.696089,40.948265,-32.729281,-54.56222,-65.305535,-68.665502,-60.520147,-76.739776,-80.122445,-81.017049,-46.836009,-60.84617,-52.659214,-45.886432,-31.158212,-44.967021,-37.776402,-32.127638,-15.042373,-27.96893,-24.723115,-20.663334,40.950857,310.302431,-150.198154,-2.285444
78,0.270607,-1.021402,1.896486,27.362172,-28.155693,-52.554245,-73.982917,-91.166656,-59.791122,-89.054065,-104.200218,-115.619373,-51.454101,-82.971954,-100.282001,-113.25785,-41.402343,-70.523174,-87.467628,-99.718185,-30.677078,-53.341255,-66.482448,-77.523925,-15.985477,-13.021087,1.025502,12.157545,15.259527,32.579802,41.506589,48.620904,32.050712,49.179918,57.175423,63.246835,44.138837,60.898886,68.563533,73.834943,51.51233,67.647688,74.824901,80.08206,10.034311,29.293739,49.855436,62.127663,20.065155,50.278187,62.221361,68.196133,24.296162,55.291798,51.341864,42.968428,30.900633,58.278282,51.304075,43.193939,38.445883,55.634628,49.503914,43.069033,-33.43033,-56.32649,-67.27942,-71.147188,-61.425642,-76.493107,-78.797394,-79.194905,-46.361975,-59.063118,-50.915706,-44.86499,-29.649139,-42.377045,-35.27517,-30.110631,-12.843777,-25.002464,-21.846295,-18.156468,43.44001,307.491771,-146.083122,23.28747
79,0.297936,-1.093427,2.438375,26.551587,-28.226097,-52.690567,-74.166447,-91.329083,-59.728821,-89.194851,-104.441849,-115.87278,-51.465408,-83.165875,-100.62331,-113.632965,-41.483162,-70.764759,-87.881115,-100.239063,-30.805092,-53.568993,-66.832981,-78.040146,-16.083475,-13.202374,0.732076,11.564259,14.906303,32.230603,41.16695,48.316227,31.743936,48.822667,56.787828,62.817509,43.982114,60.660283,68.310146,73.570071,51.54833,67.590137,74.795557,80.127224,12.009745,33.702404,56.159781,69.827786,23.110697,54.200879,67.40514,74.632451,27.041543,60.132838,55.517178,46.661694,33.191094,62.910971,55.12967,46.313742,40.168236,59.51532,52.800322,45.767344,-32.791793,-55.659419,-66.123573,-70.267646,-59.527514,-72.694104,-74.809787,-75.793922,-43.131458,-53.33941,-45.585077,-40.872804,-25.513717,-36.038364,-29.364655,-25.026148,-8.243596,-18.6604,-15.807565,-12.840637,46.092905,304.101917,-141.289788,47.54263
80,0.24337,-1.078137,4.762265,23.503288,-28.291123,-52.739067,-74.211022,-91.338009,-59.693504,-89.20427,-104.471809,-116.013382,-51.463188,-83.285923,-100.868317,-114.048809,-41.492935,-70.884968,-88.13974,-100.769199,-30.740936,-53.644821,-67.064175,-78.550804,-16.045709,-13.374213,0.379024,10.943655,14.692313,31.975907,40.76141,47.790682,31.533959,48.426637,56.291441,62.268189,43.87289,60.349382,67.954118,73.257947,51.620825,67.548084,74.777983,80.194618,13.674562,37.127048,60.841696,75.705139,25.90294,57.029011,71.724392,80.686615,28.803886,63.308801,59.413158,50.26672,33.785969,65.198393,58.06089,48.849329,39.709087,60.59214,54.294954,46.898969,-31.896308,-52.893773,-61.640271,-65.92387,-54.07081,-64.395331,-65.320472,-66.051134,-36.923147,-44.759635,-37.268415,-33.442619,-18.845253,-27.148628,-20.880241,-17.613481,-1.310446,-9.238072,-6.781576,-5.146925,48.185761,300.771918,-134.678037,68.794056
81,0.008903,-1.118695,4.361063,26.083615,-28.337013,-52.699768,-74.167236,-91.386314,-59.431961,-89.011974,-104.372783,-116.023212,-51.225105,-83.231666,-100.941513,-114.211933,-41.296371,-70.866565,-88.298812,-101.164054,-30.586074,-53.78421,-67.401271,-79.144661,-16.003089,-13.397703,0.237838,10.574536,14.516447,31.831954,40.582469,47.519264,31.378768,48.243176,56.079822,61.939035,43.801321,60.22099,67.833136,73.135199,51.675017,67.558001,74.82064,80.298321,15.89237,41.61371,67.19767,83.137802,30.151222,61.959343,75.14514,83.205494,32.108333,68.152382,63.492479,53.791014,35.819824,69.290714,61.539991,51.562494,40.395058,63.509702,56.721365,48.471765,-30.712111,-50.053038,-56.650125,-59.79202,-49.157398,-54.94179,-54.909297,-56.298225,-31.129377,-34.562327,-28.488819,-26.693676,-12.417348,-17.271486,-12.390653,-10.450477,5.407949,0.135103,1.556403,2.064665,49.298629,298.508358,-129.213009,93.732806
82,0.058594,-0.720368,2.657341,29.140643,-28.31543,-52.678116,-74.185192,-91.441612,-59.246361,-88.915809,-104.402538,-116.209671,-51.058868,-83.316524,-101.150963,-114.520065,-41.235512,-71.012192,-88.548385,-101.535599,-30.66774,-54.145454,-67.877243,-79.719337,-16.137359,-13.721078,-0.246113,9.976359,14.16689,31.272063,39.923,46.769787,31.107079,47.725461,55.441496,61.170538,43.641647,59.899036,67.377085,72.571591,51.658814,67.381543,74.487805,79.854805,18.929746,47.626001,75.092376,91.75003,37.715091,73.492172,83.877966,89.659149,38.321926,77.527736,70.855711,60.201307,40.140026,76.682384,67.418661,56.345209,42.689575,69.625551,61.805723,52.589224,-28.554737,-46.046609,-50.567197,-51.782528,-46.300607,-46.900392,-47.124095,-50.299944,-27.843928,-25.690071,-21.012937,-21.213326,-8.395216,-8.652363,-4.804571,-3.827047,10.301194,7.691526,8.584051,8.644955,49.909355,297.502416,-126.003536,122.587875
83,-0.140968,-0.45189,2.922174,27.302441,-28.204949,-52.563332,-74.150334,-91.454922,-59.14872,-88.806622,-104.309097,-116.174046,-51.070816,-83.441208,-101.292687,-114.727009,-41.384995,-71.201317,-88.704781,-101.752499,-30.956795,-54.501961,-68.212795,-80.080651,-16.261625,-14.105152,-0.866457,9.374479,13.808405,30.651904,39.184008,45.856535,30.83844,47.041798,54.618882,60.157215,43.485554,59.422842,66.789197,71.827956,51.601003,67.040422,73.996803,79.232794,21.743157,52.859396,81.662436,98.929173,42.773089,81.071938,89.280207,92.363342,42.091381,84.115259,77.821169,66.403273,42.348656,81.684992,72.949786,61.360829,43.346798,72.537157,65.395352,55.962731,-27.238332,-42.204715,-43.614362,-42.271927,-42.410745,-40.989426,-40.057517,-42.514918,-23.447274,-19.353833,-15.40712,-16.040262,-3.331413,-1.760408,1.001363,1.428188,16.106632,14.111488,13.751397,12.896277,50.049065,296.964255,-122.800684,149.804045
84,-0.21254,-0.194415,3.384751,24.549197,-27.947136,-52.166221,-73.860557,-91.528679,-58.906059,-88.747238,-104.237881,-116.119766,-50.981712,-83.672527,-101.489776,-114.929203,-41.465332,-71.46706,-88.970444,-102.035122,-31.22525,-54.926788,-68.658829,-80.501324,-16.287856,-14.271088,-1.067294,9.127922,13.551178,29.893844,38.192161,44.705755,30.579459,46.368323,53.766751,59.244815,43.175468,58.839337,66.080981,71.093917,51.232909,66.462981,73.292145,78.45937,24.057472,55.720659,83.756715,101.018737,47.589117,85.44096,93.342069,96.261177,45.348175,86.508722,85.118391,77.760526,43.844936,82.305959,78.756666,70.84402,42.939342,71.625051,68.190914,61.470863,-26.101797,-38.78552,-38.957158,-36.502221,-35.196438,-31.677266,-29.218047,-30.00484,-16.355158,-11.45693,-8.921412,-9.757596,3.028694,5.823944,6.528637,5.594847,21.539915,20.274143,18.092883,15.505652,49.798502,296.704048,-119.453956,174.28745
85,-0.378639,0.125489,2.398899,23.601971,-27.744324,-51.185783,-72.147297,-88.784145,-58.6959,-88.573208,-103.948093,-115.75724,-51.280518,-83.882698,-101.669048,-115.211323,-42.078003,-71.9324,-89.446964,-102.654064,-32.014664,-55.491463,-69.160927,-81.063812,-15.805153,-14.160345,-2.040122,7.774871,13.30141,28.814879,36.902232,43.251224,30.158507,45.37219,52.601546,57.911785,42.676797,57.989318,65.051466,69.732567,50.753183,65.6964,72.365926,77.202416,27.621002,59.191595,85.832685,102.996196,52.980074,88.753006,95.963144,98.771576,49.233295,87.917215,91.15682,89.518392,45.891929,82.028303,83.30377,80.672733,42.770301,69.89118,70.121521,67.724315,-23.454069,-33.903631,-33.805488,-30.914297,-26.563372,-20.492877,-17.135122,-17.087926,-9.08506,-2.395132,-0.715048,-1.549262,8.05527,12.677468,12.94117,12.109775,23.79646,23.260133,20.717535,18.260684,49.363569,296.631256,-117.111351,197.69114
86,0.042526,0.604883,15.358091,27.909223,-28.019829,-51.008629,-71.525242,-87.66489,-58.622703,-87.992649,-103.325077,-115.218441,-52.060982,-83.714447,-101.679851,-115.469169,-43.474708,-72.317711,-89.702556,-102.953132,-33.707771,-56.247299,-69.696052,-81.596363,-14.946033,-14.160703,-4.231978,4.222234,12.911813,27.152619,34.535795,39.978822,29.230187,43.903444,50.875003,55.745431,41.405417,56.467676,63.288392,67.476034,49.314076,63.871205,70.48092,75.027393,23.201843,49.725025,73.287655,90.643673,46.552185,78.712818,85.586094,87.73835,44.504459,78.608219,82.492893,80.438759,42.381065,73.045498,74.49044,70.740246,39.897766,62.57848,62.948307,59.106457,-24.707143,-35.029873,-34.784032,-31.052912,-22.283946,-15.185896,-11.3611,-9.316495,-2.604052,5.260085,6.384251,6.536021,15.644281,22.62172,23.220872,23.148932,31.166297,33.81103,32.094875,30.288799,49.397415,297.007817,-101.76194,225.372041
87,-0.691452,0.352607,6.525776,21.476262,-28.233398,-51.114647,-71.103916,-86.42736,-56.019813,-84.641498,-99.563976,-111.053753,-50.547729,-81.304596,-99.589462,-114.132831,-43.065491,-71.28685,-88.945907,-103.022964,-34.133789,-55.863441,-69.47073,-81.915813,-14.128013,-14.328553,-6.574702,0.353385,11.910123,23.096791,28.117482,31.320303,28.068316,40.490832,45.942986,49.239519,40.193294,53.904343,60.148841,63.456625,48.087627,61.75203,68.625567,73.149859,20.962704,45.873527,68.023407,86.407768,44.552444,77.608795,89.254051,94.478519,42.398346,77.986782,87.378078,87.810081,40.133057,71.490406,78.735981,77.71637,37.534424,60.226868,65.480266,64.086994,-24.620383,-32.877117,-31.649371,-28.316615,-13.849568,-7.431143,-4.673926,-1.86858,6.798226,14.062656,14.058296,14.459859,24.168617,31.750086,31.617631,31.184526,37.395012,41.878672,40.199901,37.737208,48.753176,297.096948,-95.188951,246.584827
88,-2.25309,0.962195,5.487144,16.290389,-27.067108,-49.617988,-68.97258,-83.690323,-50.052521,-76.083652,-91.238502,-103.485855,-45.482643,-73.332184,-92.389606,-107.66019,-39.280357,-65.386596,-83.691433,-98.323654,-31.907249,-51.980919,-65.929573,-78.922577,-12.989916,-14.208572,-9.088277,-3.828229,11.373302,20.611188,23.370654,24.443826,26.565743,37.472867,40.847181,42.13301,37.819361,50.7363,54.971798,56.416584,44.998587,58.25419,64.543507,68.19182,20.040333,43.223225,64.008042,82.841469,44.331219,76.490342,91.654873,100.964734,41.121792,75.660427,90.259999,95.960335,37.992817,67.942967,80.808644,84.884457,34.770687,56.60273,65.815327,68.260003,-22.669244,-28.890054,-27.778226,-25.744291,-4.421108,4.971957,7.640823,10.509105,16.065308,26.093229,26.338366,26.681945,31.741873,42.870519,43.363769,42.606623,42.166688,50.850957,50.72921,48.628251,46.46668,297.77619,-89.735213,262.592263
89,-1.777702,1.159105,5.128453,13.334519,-25.598236,-47.6548,-66.730843,-80.619862,-50.148079,-70.732121,-82.156471,-91.68401,-47.416889,-69.924969,-86.339047,-98.632897,-42.538353,-65.04364,-81.326866,-93.977108,-36.145775,-54.846199,-68.043892,-80.061928,-11.794922,-13.096559,-8.64922,-3.386887,13.259628,21.942552,21.984011,20.219839,27.433966,36.920534,37.384996,35.720711,37.509312,49.206606,50.718725,49.82285,43.868678,56.309842,61.163042,63.583584,20.322899,42.705002,63.497039,82.790783,43.601795,75.827121,91.291809,100.992485,39.389831,74.507263,90.385872,97.180401,35.650589,66.002964,80.104522,85.687431,32.326206,54.34394,64.791938,68.8698,-20.978344,-25.360585,-22.898139,-21.127187,1.911842,13.582213,16.806239,19.912927,22.348833,34.961021,36.325829,37.008233,37.33714,51.317273,53.681881,53.721698,46.526515,58.690445,60.741559,59.999615,44.659355,298.684505,-84.636383,275.675992
90,-4.033104,1.93648,5.51691,10.368561,-22.385674,-43.542069,-62.024231,-76.277504,-49.606602,-60.975208,-65.066517,-69.265102,-48.670303,-61.556557,-69.798969,-75.047127,-45.027855,-60.176125,-68.825306,-74.973301,-39.644623,-56.571968,-69.019569,-80.048927,-8.731014,-8.454545,-2.781238,3.330286,12.536482,22.104622,21.536852,18.893193,25.344765,34.985561,34.486568,31.84675,34.369625,45.797663,46.272486,44.853128,40.423858,52.029712,56.656312,59.845906,19.133801,41.484993,63.195202,83.055943,41.890927,75.78178,91.436749,100.8746,36.940396,73.992314,90.301449,96.599373,32.925453,65.197197,79.661545,85.155751,29.856686,53.505787,64.578312,68.936783,-20.630528,-24.004225,-20.083691,-18.32909,5.763043,19.281875,22.933807,26.335267,27.760516,42.205308,44.14989,44.761454,43.826355,60.108259,62.723834,62.326815,53.666839,68.900505,71.546214,70.740964,40.685452,300.503486,-79.060272,285.927054
91,-9.151108,5.002055,-7.733894,0.542021,-15.872337,-33.106453,-48.267597,-59.811447,-43.234863,-45.265652,-42.679699,-42.148235,-44.538185,-47.622288,-47.983154,-46.936924,-42.678222,-50.118267,-51.41399,-51.905937,-38.886406,-53.840446,-65.398762,-75.575512,-9.76416,-10.188929,-5.208882,-0.069308,9.480726,18.8556,18.117324,15.96158,22.171362,30.419105,29.33215,26.816858,30.827893,40.735858,40.234309,38.978688,36.903998,47.100436,51.556889,55.516696,24.642689,51.177475,75.151771,95.551563,50.187229,86.824047,105.134251,117.38554,41.838604,82.86462,104.134998,115.913532,34.833332,71.95871,92.044407,103.777279,29.419784,56.978886,72.761375,83.225292,-16.30963,-16.723086,-11.507214,-10.725034,13.558402,28.199239,32.51952,35.409427,33.181127,48.355698,51.38642,51.61586,46.601084,63.383513,65.937905,64.661586,54.176711,69.515662,71.901117,70.337498,31.720156,305.423663,-86.608354,286.387197
92,-2.101181,1.67908,0.346939,1.52994,-12.979706,-29.055931,-44.122959,-56.341472,-45.906395,-40.550571,-30.878483,-25.313427,-48.359104,-43.206665,-34.997223,-26.472164,-47.140022,-48.057014,-41.196899,-34.512657,-43.912823,-58.126053,-68.036327,-75.867851,-7.75327,-7.303369,-1.105246,5.505198,10.850363,22.988654,23.247277,22.157135,22.401815,31.815566,31.092802,29.016445,29.973008,39.95742,38.549646,37.112035,35.562643,45.657934,49.519484,53.742471,26.656174,53.402241,77.555237,97.884968,52.014061,86.440235,105.232235,119.135891,42.55695,81.663448,103.883709,118.160145,34.415417,70.236385,91.106037,105.142216,27.943027,54.506298,70.776318,83.291782,-13.717631,-13.299458,-7.799052,-7.260292,16.600944,32.06631,38.296371,42.177965,34.863159,51.099294,56.410311,57.531735,47.296358,65.141634,69.046483,68.173801,54.293692,70.451589,73.603873,72.452537,29.881903,307.00645,-85.998487,287.820844
93,-5.259018,3.297262,1.403904,1.887698,-8.95903,-21.304848,-34.000179,-44.479831,-47.331356,-34.838253,-17.878555,-6.741314,-52.095611,-38.844497,-21.712875,-6.201404,-52.036377,-46.286476,-31.396671,-18.40773,-49.073868,-60.93893,-68.159042,-73.064277,-8.048091,-7.262601,0.303664,8.002977,9.152758,23.059469,24.643256,25.016179,21.176119,31.02647,31.507592,31.104214,29.107922,38.379573,37.769973,37.884693,35.452098,44.183976,47.697427,52.768864,27.616974,54.300922,78.33371,98.626373,53.128807,86.971252,105.43119,119.070373,43.207031,81.576622,103.263107,117.505371,34.417946,69.745296,90.01149,103.937622,27.212448,53.642178,69.898945,82.754654,-13.006786,-12.57499,-6.974437,-6.493636,17.546701,33.085513,39.753149,43.859021,35.305971,51.540204,57.275866,58.742698,47.404618,64.948775,69.202192,68.633409,54.327741,70.392074,73.633686,72.56223,24.950249,310.220259,-84.267219,289.625089
94,-1.060661,1.04583,1.571228,0.924293,-7.368897,-18.80349,-31.227471,-42.297089,-46.929085,-31.798279,-11.250527,2.375542,-52.513115,-35.440086,-12.970917,5.960998,-53.121929,-43.87571,-23.250275,-6.116982,-50.755589,-62.220909,-68.07534,-71.62167,-6.227825,-5.528811,1.960415,10.228684,6.845144,22.037166,25.283459,27.182951,18.910236,30.067153,32.363687,33.58327,27.410205,37.352763,37.955422,39.08743,34.557099,43.212086,47.339052,53.203389,27.736874,54.410282,78.436157,98.748001,53.377258,87.149597,105.283791,118.539825,43.065365,81.272484,102.576668,116.540359,33.782787,69.139435,89.063576,102.698776,26.076405,52.652344,68.908882,81.740776,-12.70332,-12.079307,-6.316042,-5.602591,18.055672,34.037457,40.978549,45.104267,35.680734,51.912879,57.993751,59.677512,47.661969,65.123713,69.630592,69.239934,54.505841,70.577991,73.952528,72.934041,24.237213,311.180114,-82.348366,290.463407
95,-3.830704,1.253052,0.733623,0.293228,-7.964493,-19.284153,-31.413883,-42.692482,-45.228252,-28.605652,-8.494217,4.288674,-49.986545,-30.652622,-8.546928,9.283379,-50.020534,-37.889282,-17.355766,-1.0364,-46.975777,-54.657142,-56.850792,-57.48666,-3.37203,-1.704633,5.095916,12.821201,8.999208,23.744626,26.57487,28.492566,18.572325,29.681472,32.380804,34.095317,24.841388,34.955475,35.926241,37.429728,29.741406,38.500381,41.996504,47.055444,28.014462,54.70887,78.74049,99.09351,53.476422,87.01022,104.908345,118.038266,42.934811,80.737759,101.550351,115.322239,33.39481,68.340981,87.840558,101.196843,25.445836,51.589211,67.682019,80.39288,-12.240278,-11.547229,-5.690647,-4.386836,18.638102,34.74319,41.812006,45.928993,36.167512,52.343304,58.491274,60.181914,47.987838,65.399947,69.949594,69.578116,54.65813,70.879914,74.378309,73.274632,20.692262,312.365932,-81.32899,290.689401
96,5.476067,-3.485021,0.13947,0.139259,-11.549195,-26.157887,-41.542053,-56.293762,-50.229744,-35.125145,-15.109085,-2.490921,-54.257515,-35.890011,-14.56176,2.450294,-53.846764,-42.668759,-22.848152,-7.012963,-50.652203,-58.576664,-59.251225,-58.029969,0.645984,4.332669,13.688153,24.269012,12.688265,29.367224,31.480101,31.802006,21.35186,34.39293,36.318715,36.42952,27.184298,38.609075,39.012021,39.207745,31.598353,41.422782,44.005975,47.667626,28.274356,55.064472,79.063247,99.49411,53.400661,86.747177,104.513443,117.562889,42.66933,80.276229,100.882965,114.530502,33.055469,67.816566,87.146965,100.343216,25.089855,50.966182,66.924751,79.45063,-12.166325,-11.450823,-5.429911,-3.669148,18.900999,35.215556,42.227562,46.160681,36.485256,52.744819,58.744402,60.17448,48.252661,65.684667,70.175231,69.711819,54.791943,71.11548,74.634969,73.437357,26.376395,308.827312,-80.981454,290.775061
97,-2.520676,2.625381,0.019615,-0.123402,-11.061447,-25.341007,-39.708939,-53.812752,-48.28228,-32.548439,-13.087738,-1.012939,-51.698627,-32.628719,-11.675056,4.693062,-50.685116,-38.192699,-18.849197,-3.549522,-46.778171,-50.938991,-48.724514,-45.535091,1.806187,6.220564,15.452485,25.576267,11.716844,27.328275,29.686967,30.610186,18.817203,31.510062,33.941941,34.926082,23.659436,34.949078,36.032588,37.000205,27.281208,36.430236,38.555068,41.983166,28.50365,55.287678,79.378601,99.970711,53.408054,86.62619,104.238945,117.208168,42.701214,80.076118,100.379494,113.899223,33.09074,67.59082,86.764412,99.936035,25.069839,50.717491,66.606228,79.220009,-12.096523,-11.326705,-5.121171,-2.965106,18.834148,35.130057,42.160884,46.063029,36.427494,52.597198,58.541219,59.81839,48.187008,65.548581,70.125275,69.670458,54.668072,71.159668,74.788839,73.600909,23.989929,311.436344,-80.827629,290.63531
98,4.940025,-2.771618,0.080246,-0.100962,-15.622009,-34.289703,-51.652221,-68.613578,-54.884548,-40.982425,-21.56298,-8.916732,-55.840141,-38.101421,-17.651619,-1.155326,-52.63314,-40.388523,-20.731338,-5.269294,-46.814392,-51.028072,-47.35326,-42.908969,9.421409,17.011177,27.004851,37.560405,17.482567,33.28404,35.570053,35.895132,20.284899,34.344394,37.202931,37.411104,21.524724,34.141457,35.87121,36.394433,21.9211,32.002991,34.351828,37.395321,28.461971,55.214035,79.412887,100.141914,53.162613,86.300697,103.871292,116.885765,42.613827,79.86763,100.080894,113.524566,33.158821,67.629272,86.800644,99.926605,25.20916,50.796547,66.703583,79.396637,-12.132647,-11.448292,-5.195605,-2.697529,18.545292,34.945658,41.965975,45.790561,36.178838,52.384134,58.228206,59.270763,48.017343,65.428094,69.907765,69.256014,54.567357,71.219653,74.850379,73.559141,29.041568,308.650042,-80.635769,290.519664
99,-2.099212,1.279345,0.098156,-0.047967,-16.926773,-36.315056,-53.216778,-69.781769,-55.051289,-40.446373,-21.207619,-8.666062,-54.135761,-35.642132,-15.204643,1.169014,-49.401341,-35.774941,-16.354569,-1.211128,-42.113491,-44.02351,-39.712452,-35.194954,12.333089,21.713816,31.510531,41.206211,19.435127,34.101826,36.387184,37.35259,19.306674,32.851713,35.975901,37.066253,17.979114,30.549707,32.869349,34.299785,16.029641,26.047658,28.875567,32.735499,28.483394,55.152591,79.267879,99.969097,52.891914,85.904926,103.432834,116.513088,42.456527,79.534023,99.693912,113.138866,33.136631,67.540466,86.74918,99.89883,25.269951,50.816047,66.74604,79.519237,-12.226261,-11.613697,-5.323232,-2.499571,18.028415,34.658789,41.793679,45.736109,35.724157,52.030761,57.93573,59.064232,47.712937,65.114636,69.555034,68.853351,54.440163,71.085258,74.663621,73.298442,27.088051,309.923388,-80.391918,290.465698
100,5.981025,-1.729468,0.101269,0.035914,-19.563812,-41.428802,-60.182487,-77.803653,-60.56425,-49.105373,-29.824699,-16.312202,-58.664943,-42.845603,-22.470359,-5.461669,-52.81604,-41.196899,-21.471931,-5.794166,-44.528984,-48.019237,-43.91756,-39.151428,15.333195,25.048857,34.242283,43.517701,21.695933,36.558788,39.109561,39.700377,19.958387,34.278184,37.917754,38.579595,17.074347,30.01769,32.999593,34.278468,13.729339,23.523387,26.684662,30.500875,28.413997,54.982086,78.965515,99.609352,52.62918,85.509155,103.005546,116.135192,42.333709,79.381576,99.612556,113.172569,33.13623,67.544631,86.848274,100.091011,25.334335,50.96537,66.937614,79.824714,-12.414834,-11.888795,-5.479386,-2.471141,17.444973,34.129181,41.301207,45.303634,35.171231,51.363782,57.340333,58.665707,47.28308,64.538788,69.02009,68.420098,54.167152,70.676804,74.263725,72.946156,33.256628,308.191163,-80.103097,290.498855
101,-3.653205,1.623418,0.196815,0.156265,-19.376564,-40.340825,-57.89724,-74.455468,-59.944611,-46.165135,-26.529602,-13.026856,-57.251313,-39.528374,-18.453782,-1.019921,-50.493267,-36.613724,-16.312203,-0.430458,-41.019253,-41.626328,-35.842141,-30.197949,14.688262,24.768572,33.658507,42.194155,20.814162,34.885352,37.565295,39.074265,18.495842,31.910303,36.159806,38.088506,15.005239,27.582266,30.88742,32.839487,11.16256,20.688413,23.690299,27.548946,28.301594,54.790844,78.692299,99.300728,52.283695,85.078629,102.582848,115.783333,42.138588,79.199478,99.536751,113.21759,33.076641,67.576675,86.990959,100.309067,25.391018,51.211327,67.260441,80.293396,-12.669789,-12.230669,-5.766908,-2.587231,16.712403,33.463438,40.714653,44.84515,34.461781,50.620592,56.660795,58.196404,46.707802,63.827412,68.336711,67.814179,53.768727,70.118544,73.711652,72.441644,29.802567,309.80906,-79.707138,290.649599
102,2.757797,-3.081765,0.184628,0.192587,-22.263542,-45.330025,-64.628128,-82.585076,-64.829041,-52.010502,-31.876923,-17.375817,-60.991951,-43.364262,-21.953064,-3.67273,-52.942818,-38.646858,-17.610718,-1.24704,-42.331284,-43.836296,-38.054489,-32.094624,20.651054,32.965296,41.802064,50.070815,25.697322,40.827606,43.773706,44.74457,19.925709,34.856798,39.889914,41.327019,12.953593,26.56851,30.959026,33.007077,5.819877,15.129851,18.407452,22.062162,28.232208,54.626815,78.379795,98.917133,51.952068,84.571277,102.065517,115.331943,41.872146,78.869075,99.366382,113.158504,32.890548,67.433979,86.983325,100.360485,25.283752,51.151107,67.275444,80.343143,-12.819101,-12.476473,-6.030224,-2.827959,16.217832,33.011141,40.217908,44.319839,34.034197,50.155266,56.189689,57.796361,46.4135,63.456465,67.915203,67.367119,53.613943,69.821068,73.385351,72.02079,32.794596,306.7233,-79.288278,290.838191
103,-5.740288,2.232203,0.198772,0.195477,-18.519974,-38.005337,-55.007217,-70.966633,-58.890209,-43.380981,-23.326652,-9.729675,-56.852726,-37.032795,-15.626633,2.078751,-50.336655,-34.802227,-14.151192,1.784935,-41.103012,-42.368133,-38.241142,-33.868183,13.953456,23.882886,32.313533,40.251191,20.292828,35.561296,38.550807,40.06347,18.139554,32.148363,36.912371,39.148884,14.348523,27.118706,30.90718,33.25319,9.98887,18.935677,22.353995,26.423038,28.234119,54.56353,78.215813,98.737976,51.666,84.229683,101.725136,115.012161,41.567287,78.553642,99.141289,112.998184,32.59687,67.129841,86.72953,100.11795,25.054287,50.945595,67.087566,80.127457,-12.897833,-12.577546,-6.109721,-2.895699,15.846305,32.58857,39.803167,43.957673,33.702103,49.761397,55.819038,57.528018,46.164473,63.142909,67.599436,67.097788,53.414514,69.527198,73.059469,71.627971,27.294073,308.951659,-78.849741,291.029824
104,2.933441,-2.080619,0.185795,0.233763,-20.486229,-41.483803,-59.732448,-76.640716,-62.894748,-48.608974,-28.109573,-13.549988,-60.330826,-40.952785,-19.13784,-0.42501,-53.068886,-37.330158,-15.947044,0.702828,-43.144386,-44.183498,-38.272911,-31.999214,18.589406,29.800675,37.785744,45.030784,23.310398,39.060693,42.548294,43.830468,18.364857,33.40543,39.372508,41.420769,11.853251,25.148103,30.341424,32.997247,5.068375,13.135042,16.468452,19.963723,28.114837,54.394981,78.05183,98.62128,51.383583,84.002598,101.522449,114.818355,41.258629,78.320743,98.959499,112.784488,32.268413,66.855034,86.467724,99.805904,24.741016,50.621349,66.789058,79.820469,-12.984667,-12.735615,-6.286908,-3.091423,15.533514,32.153205,39.366418,43.567879,33.426288,49.428327,55.441644,57.143127,45.93339,62.895017,67.298464,66.762409,53.172613,69.305439,72.825929,71.308857,30.440912,306.869641,-78.450548,291.262188
105,-5.549949,1.278901,0.100136,0.331328,-18.351036,-37.225422,-53.862065,-70.090393,-58.314377,-41.083661,-20.620171,-6.827546,-56.266503,-34.250153,-12.539475,5.75521,-49.750328,-31.734707,-10.577706,5.722778,-40.569947,-39.368947,-32.545029,-25.995598,14.995346,25.673401,34.385742,41.993516,20.541818,36.374611,39.885567,41.677774,17.591433,31.833782,37.732762,40.278497,12.918717,25.721195,30.422415,33.045819,7.834423,16.34852,19.454368,22.741491,27.995533,54.226204,77.926242,98.568889,51.13496,83.880878,101.466487,114.801441,41.003528,78.135578,98.79285,112.56348,32.028888,66.652542,86.265026,99.529712,24.544601,50.381115,66.563095,79.603946,-13.129447,-12.958213,-6.561994,-3.302684,15.224502,31.775119,38.986481,43.212889,33.146781,49.132061,55.113169,56.799548,45.672161,62.637753,66.974101,66.369133,52.903134,69.051002,72.537159,70.914482,25.063014,308.150018,-78.178361,291.594992
106,4.426803,-2.381886,0.128311,0.158291,-20.829643,-42.074089,-60.506618,-78.203018,-63.325905,-49.065285,-28.043587,-12.744621,-60.422149,-40.546886,-18.109131,1.690727,-52.994156,-36.138737,-13.958656,3.62629,-43.043381,-42.790592,-35.519829,-27.958511,21.61893,34.212717,42.513442,49.699992,25.191253,40.956146,45.051421,46.797376,18.482837,33.539995,40.472208,42.932085,10.388765,23.711269,29.920927,33.216645,2.305303,10.464459,14.440877,18.496434,27.870575,54.051944,77.75156,98.393383,50.909511,83.667904,101.279331,114.612339,40.78355,77.865955,98.539982,112.253483,31.808029,66.354675,85.964664,99.151989,24.322906,49.990906,66.153694,79.185688,-13.156395,-13.018556,-6.659572,-3.346737,15.120897,31.593968,38.82714,43.084621,33.039298,49.034174,55.043588,56.734562,45.555773,62.578818,66.905225,66.255981,52.76527,69.012174,72.562242,70.902749,29.627746,305.770846,-77.912121,291.755997
107,-5.084427,0.39892,0.208877,0.185609,-18.843132,-38.306007,-55.317535,-72.42667,-59.428196,-42.62392,-21.92498,-7.503479,-56.703953,-34.314857,-12.284454,6.80642,-49.465851,-30.294376,-8.599731,8.385247,-39.623119,-36.8894,-28.867996,-21.118309,19.634926,32.244632,41.173038,48.782652,24.516617,40.697053,44.61298,46.69618,18.515984,33.412765,39.929372,42.816364,11.063179,24.631646,30.328393,33.712032,3.584982,12.904181,17.117992,21.483005,27.778908,53.874791,77.581021,98.250996,50.512562,83.345799,101.041935,114.444752,40.435353,77.552525,98.296887,111.996678,31.550446,66.153008,85.776707,98.89056,24.203499,49.847718,65.98098,78.98457,-13.152455,-13.073155,-6.791644,-3.392357,14.840921,31.404642,38.740986,43.085461,32.756198,48.915206,54.944097,56.605022,45.32726,62.448241,66.767991,66.063839,52.606893,68.946126,72.513213,70.822141,24.64559,306.170973,-77.600973,291.942813
108,6.094506,-2.248049,0.187569,0.186486,-23.452424,-46.603638,-65.749386,-85.067963,-66.272953,-52.190632,-31.245461,-15.939423,-61.39682,-41.001973,-18.866227,0.849884,-52.375878,-34.261757,-12.180909,5.431068,-40.877255,-37.821465,-27.465546,-17.441529,27.412972,42.290745,51.081411,58.854478,30.05027,46.004761,50.016537,51.686231,20.023769,35.682216,42.64665,45.003342,9.082411,23.422376,29.917297,33.234838,-1.510934,8.039459,12.146837,16.115215,27.702805,53.724758,77.413204,98.063107,50.305973,83.036808,100.729671,114.108318,40.288937,77.318836,98.033398,111.640903,31.435867,65.977673,85.516262,98.49519,24.107552,49.604118,65.650452,78.599453,-13.150614,-13.171103,-6.964409,-3.579906,14.576025,31.160345,38.565837,42.975496,32.49387,48.659041,54.782768,56.516732,45.118433,62.166956,66.527968,65.864781,52.483256,68.817302,72.440952,70.801442,30.819563,303.923526,-77.333937,292.129901
109,-3.170083,1.700384,0.263077,0.037582,-21.503196,-42.969314,-60.983402,-79.701759,-63.013572,-46.739479,-25.891525,-11.416351,-59.03096,-36.908329,-15.00579,3.989365,-50.871345,-31.868659,-10.180732,7.074807,-40.042991,-36.633304,-27.345417,-18.513153,21.155642,34.320743,44.031971,52.872432,25.57297,41.939657,45.553588,47.342176,19.741125,34.584739,40.461945,42.985215,12.824227,26.616009,31.59781,34.387619,5.79335,16.339097,20.007479,23.828237,27.716835,53.560821,77.172306,97.809208,50.217613,82.745464,100.37305,113.728443,40.25354,77.058689,97.741619,111.348621,31.397793,65.700027,85.193264,98.148365,24.005687,49.362327,65.319191,78.263546,-13.102709,-13.162879,-6.943352,-3.558812,14.340249,30.913738,38.332741,42.765346,32.216573,48.325477,54.574174,56.412237,44.875123,61.850472,66.333515,65.780886,52.307279,68.594358,72.279413,70.735195,27.703445,305.626433,-77.016895,292.170006
110,5.158631,-0.938075,0.29219,-0.115399,-22.661293,-45.377243,-64.630772,-84.263203,-66.176182,-52.223568,-30.882752,-15.784493,-62.842575,-43.063282,-20.705063,-1.193962,-55.285103,-39.22221,-17.040367,1.060753,-45.056362,-45.570751,-38.502194,-30.844746,20.898921,32.827334,42.451889,51.822255,25.19523,41.803473,45.357962,46.764291,20.758278,35.885066,41.234492,43.218656,15.36307,29.249379,33.812204,36.162474,9.636621,20.153482,23.751629,27.445415,27.780361,53.529808,76.997074,97.56387,49.959206,82.322995,99.904118,113.276493,39.958672,76.515873,97.16914,110.782688,31.074818,65.068108,84.570477,97.587124,23.640484,48.774136,64.650776,77.54147,-13.009515,-13.009824,-6.697833,-3.374265,14.273657,30.910774,38.324318,42.797308,32.129665,48.194517,54.551919,56.497143,44.801998,61.72334,66.339393,65.95948,52.231413,68.449109,72.196148,70.788029,32.903664,304.692634,-76.683117,292.058883
111,-2.672241,3.337313,0.359127,0.068283,-18.740845,-38.580162,-55.58091,-72.855984,-60.796166,-45.520432,-24.91079,-11.057213,-58.924439,-38.445214,-16.805123,1.503364,-52.834534,-36.941883,-15.856453,1.174141,-43.917378,-43.672383,-37.176075,-30.580204,12.142083,20.240921,28.755253,37.388269,19.173022,35.073506,38.29642,39.944551,19.315208,32.632327,37.134957,39.603294,18.029355,30.272399,33.660236,35.869753,15.810218,25.793753,28.593257,31.904932,27.787388,53.38995,76.752068,97.284302,49.775311,82.000992,99.478272,112.801255,39.753319,76.089753,96.609284,110.143639,30.837788,64.522282,83.870842,96.836312,23.356179,48.275025,64.016419,76.842202,-12.946653,-12.981591,-6.654533,-3.304338,14.080107,30.674283,38.083023,42.608204,31.903351,47.856693,54.218048,56.173313,44.569953,61.420788,66.087638,65.776996,51.975347,68.180408,71.915209,70.557429,30.269045,308.04122,-76.286368,292.138439
112,5.585037,-0.594841,0.413006,-0.149757,-20.728157,-42.178047,-60.489246,-78.717396,-65.104511,-52.131958,-30.755036,-16.127266,-63.453793,-45.316933,-23.054489,-3.96167,-57.60466,-44.157589,-22.193436,-4.23864,-48.817806,-51.477196,-46.079144,-39.891552,13.241795,20.594268,28.906306,37.925275,18.42011,34.554851,38.16084,39.639466,19.639274,33.389028,37.991978,39.865707,19.552971,31.912143,35.200254,36.919904,18.46604,28.377772,30.772848,33.538007,27.712338,53.134644,76.358586,96.76537,49.802754,81.704853,99.025669,112.305737,39.737194,75.617558,95.948651,109.429493,30.650265,63.832546,83.047657,96.043774,22.884545,47.53196,63.156979,75.979237,-12.88673,-12.888793,-6.474716,-3.03255,14.272607,30.746494,38.07523,42.593903,31.966817,47.672146,54.082345,56.133595,44.513563,61.244429,66.013031,65.854789,51.807151,67.987747,71.776555,70.55712,35.889834,307.463505,-75.83761,292.005808
113,-1.847649,1.22724,0.472286,-0.083622,-19.01532,-39.701008,-57.396011,-74.962623,-63.868938,-49.922321,-28.338478,-13.830391,-62.335808,-43.505001,-20.991852,-1.807731,-56.55693,-42.268604,-20.216102,-2.227775,-47.788753,-49.173248,-43.629902,-37.699138,11.086582,18.236131,26.82286,36.035181,17.507723,33.711476,37.116505,38.833191,19.170378,32.358142,36.655229,39.004104,19.336116,31.381077,34.466289,36.499112,18.411861,28.359086,31.121059,34.469104,27.587906,52.850029,75.975678,96.271935,49.806942,81.488915,98.658371,111.867188,39.652817,75.169465,95.345559,108.788361,30.364106,63.158444,82.275971,95.314316,22.315121,46.802594,62.362851,75.199791,-12.832946,-12.819917,-6.360564,-2.794614,14.302321,30.735045,37.982913,42.460003,31.890704,47.488401,53.87779,55.912651,44.343773,61.098019,65.944487,65.862396,51.538709,67.78602,71.616905,70.472744,34.070051,308.725921,-75.337458,291.957362
