takenoko1/special-research/HandMotion_SimilarSearch_自分用/NewProject/handData/key/d4_feature_d3/92.csv
,vel_0x_L,vel_0y_L,vel_0x_R,vel_0y_R,posFromWrist_1x_L,posFromWrist_2x_L,posFromWrist_3x_L,posFromWrist_4x_L,posFromWrist_5x_L,posFromWrist_6x_L,posFromWrist_7x_L,posFromWrist_8x_L,posFromWrist_9x_L,posFromWrist_10x_L,posFromWrist_11x_L,posFromWrist_12x_L,posFromWrist_13x_L,posFromWrist_14x_L,posFromWrist_15x_L,posFromWrist_16x_L,posFromWrist_17x_L,posFromWrist_18x_L,posFromWrist_19x_L,posFromWrist_20x_L,posFromWrist_1y_L,posFromWrist_2y_L,posFromWrist_3y_L,posFromWrist_4y_L,posFromWrist_5y_L,posFromWrist_6y_L,posFromWrist_7y_L,posFromWrist_8y_L,posFromWrist_9y_L,posFromWrist_10y_L,posFromWrist_11y_L,posFromWrist_12y_L,posFromWrist_13y_L,posFromWrist_14y_L,posFromWrist_15y_L,posFromWrist_16y_L,posFromWrist_17y_L,posFromWrist_18y_L,posFromWrist_19y_L,posFromWrist_20y_L,posFromWrist_1x_R,posFromWrist_2x_R,posFromWrist_3x_R,posFromWrist_4x_R,posFromWrist_5x_R,posFromWrist_6x_R,posFromWrist_7x_R,posFromWrist_8x_R,posFromWrist_9x_R,posFromWrist_10x_R,posFromWrist_11x_R,posFromWrist_12x_R,posFromWrist_13x_R,posFromWrist_14x_R,posFromWrist_15x_R,posFromWrist_16x_R,posFromWrist_17x_R,posFromWrist_18x_R,posFromWrist_19x_R,posFromWrist_20x_R,posFromWrist_1y_R,posFromWrist_2y_R,posFromWrist_3y_R,posFromWrist_4y_R,posFromWrist_5y_R,posFromWrist_6y_R,posFromWrist_7y_R,posFromWrist_8y_R,posFromWrist_9y_R,posFromWrist_10y_R,posFromWrist_11y_R,posFromWrist_12y_R,posFromWrist_13y_R,posFromWrist_14y_R,posFromWrist_15y_R,posFromWrist_16y_R,posFromWrist_17y_R,posFromWrist_18y_R,posFromWrist_19y_R,posFromWrist_20y_R,posFromBody_0x_L,posFromBody_0y_L,posFromBody_0x_R,posFromBody_0y_R
6,-6.228585,2.270748,0.149505,0.095972,8.320519,11.554196,10.544026,5.83342,-16.123146,4.919724,24.739186,39.249447,-26.657673,-1.818809,20.333737,40.106518,-31.109436,-9.248485,12.359196,30.572926,-32.100391,-24.159302,-10.449337,4.039868,-17.525372,-29.856904,-33.52336,-33.250089,-15.304716,-3.395877,5.034413,9.705905,1.306812,13.378314,22.390304,27.150891,15.581926,26.197057,31.937523,34.043249,27.608449,37.044752,38.183577,36.39447,26.632782,52.091892,74.897667,94.533783,51.932762,86.229584,104.46769,117.741738,42.639874,80.762627,101.638138,115.921875,33.606125,68.612046,88.169953,101.892838,25.662667,51.931618,67.552506,80.340271,-14.175572,-13.065658,-3.42716,3.278984,18.476897,34.096342,39.781505,42.625816,36.139861,51.579588,56.852814,58.712527,47.643037,64.543334,68.802729,68.374885,53.792884,70.284863,73.84139,72.889149,-1.82503,329.073055,-76.22251,297.151797
7,-4.373279,-2.472647,-0.126961,-0.036791,9.902343,15.207,15.352569,10.834247,-11.543164,10.378132,30.246963,45.030235,-21.889859,3.212757,25.580452,45.240669,-26.821942,-4.544953,17.24945,35.350959,-28.200634,-20.153561,-6.342808,8.079414,-17.027491,-28.316738,-31.069337,-30.570727,-12.978689,0.126836,8.525312,13.067499,3.8224,16.496129,25.399624,29.985161,17.999381,29.517413,35.07043,36.838505,29.905552,40.420881,41.505144,39.623721,26.584775,52.082131,74.853379,94.427788,51.940373,86.236107,104.524384,117.840088,42.682217,80.80671,101.728203,116.052796,33.666619,68.623547,88.214608,101.9515,25.731274,51.944321,67.539311,80.272843,-14.221453,-13.072278,-3.382082,3.410216,18.56394,34.197243,39.959396,42.859899,36.207416,51.63031,56.988381,58.929752,47.67863,64.552745,68.877781,68.507958,53.801232,70.328594,73.909982,72.958977,-6.637075,326.426531,-76.788237,296.941129
8,14.05925,-2.335721,-0.1054,-0.034073,6.560909,6.899459,2.239837,-5.477177,-24.160538,-5.623799,15.262504,30.810195,-35.309681,-13.000409,10.619796,31.233467,-40.153851,-21.149483,1.913955,21.321464,-41.394562,-36.470547,-22.461983,-7.345139,-16.852614,-27.890784,-30.445251,-29.525552,-12.302424,1.098502,10.02965,14.934065,5.386315,17.525754,26.769087,31.274706,20.291,30.503493,36.284233,38.20724,32.777378,42.668373,43.421024,41.156686,26.691937,52.197327,74.966263,94.545891,52.016442,86.378426,104.699044,118.025986,42.755677,80.948731,101.912865,116.282708,33.743626,68.717343,88.343766,102.137078,25.809414,51.957676,67.5672,80.351395,-14.152256,-13.059546,-3.40808,3.401076,18.685341,34.271935,39.97708,42.814302,36.274415,51.633199,56.998075,58.967567,47.702921,64.555412,68.909865,68.546403,53.824857,70.399853,74.018563,73.042104,7.138321,323.969184,-77.177491,296.78543
9,-11.304394,2.318999,-0.175907,0.000963,10.035736,14.092083,13.542423,8.959408,-13.814472,8.409221,28.233524,42.510555,-24.909668,0.917118,23.154682,42.527561,-29.911423,-7.580429,14.346782,32.292515,-31.465656,-23.006584,-9.003605,5.573559,-17.692012,-29.118011,-31.977389,-31.603157,-13.626105,-0.954982,7.165901,11.718858,3.28884,15.91607,24.394859,28.493271,17.600041,28.573398,34.053982,36.035009,29.557378,39.717964,40.89505,38.880863,26.869423,52.416573,75.213238,94.850979,52.237747,86.566784,104.88374,118.194271,42.975163,81.134526,102.093075,116.487683,33.944332,68.831806,88.445446,102.253521,25.973854,52.00494,67.603169,80.42252,-14.095927,-13.06987,-3.420343,3.395692,18.728282,34.27117,39.974635,42.823565,36.268153,51.617157,57.032742,59.074828,47.641838,64.491167,68.900393,68.588603,53.760575,70.359346,74.017502,73.068694,-4.374018,326.186952,-77.561343,296.685162
10,-8.618637,0.538871,-0.178322,0.012782,10.67799,17.51667,20.446758,18.65784,-5.737267,18.399891,37.763523,51.287029,-16.361161,10.965763,32.304119,50.705211,-22.018021,2.27021,23.727527,40.857547,-24.290806,-14.423081,-0.304356,14.061527,-17.889008,-29.241685,-32.482581,-32.23821,-13.321749,-1.228092,6.70649,11.186273,3.398311,16.164517,24.441876,28.579301,17.456027,28.870405,34.052216,35.889426,28.958955,39.333778,40.778663,38.982146,26.973118,52.561455,75.401219,95.061436,52.554062,86.835514,105.144803,118.447026,43.269173,81.395245,102.346425,116.76598,34.183125,69.024411,88.633633,102.471508,26.15197,52.162674,67.781067,80.64552,-14.06683,-13.097559,-3.541744,3.186457,18.718452,34.28331,40.00577,42.843338,36.232795,51.598694,57.044142,59.060638,47.572048,64.473222,68.912015,68.566176,53.684462,70.283232,73.999273,73.078464,-13.160757,326.646011,-77.907767,296.618132
11,10.495651,-4.770083,-0.112472,0.037544,8.35207,11.778419,10.549313,5.491127,-14.935982,5.876209,26.150631,40.746609,-26.217854,-1.861073,21.13718,40.792042,-32.046993,-10.729477,12.395382,31.052799,-34.378555,-26.633228,-11.576088,3.720715,-17.324461,-27.469053,-29.146627,-27.499447,-10.872383,2.814077,11.278132,15.865163,6.951985,19.806025,28.572829,32.718505,21.827338,32.878636,38.30693,40.172126,34.090006,44.704692,45.607792,43.298141,27.070701,52.659279,75.547268,95.23946,52.906803,87.08884,105.342052,118.58884,43.623138,81.681026,102.5667,116.968975,34.469055,69.265674,88.803326,102.612591,26.337204,52.322399,67.918957,80.810383,-14.010439,-13.136041,-3.720758,2.929279,18.606943,34.20054,39.991778,42.866791,36.099501,51.492916,57.038535,59.072593,47.447387,64.355601,68.864183,68.508921,53.610844,70.167018,73.959259,73.101176,-2.79344,321.822387,-78.148573,296.602135
12,5.870773,0.292685,-0.152687,0.022095,7.37059,8.323746,5.314694,-0.491203,-20.865131,-0.950809,19.752903,34.311138,-32.653347,-8.440487,15.209141,35.41309,-37.96978,-17.396587,6.368351,25.743519,-39.905754,-31.825103,-16.273258,-0.436397,-18.158425,-29.000427,-30.689511,-28.645399,-11.834479,1.29046,9.794035,14.576567,6.344817,18.907049,27.67709,31.823185,21.5895,31.960506,37.423096,39.56339,34.063478,43.990227,44.703272,42.027824,27.249149,52.844387,75.814647,95.678341,53.054066,87.322574,105.636349,118.901584,43.773273,81.944996,102.857265,117.286114,34.64114,69.527344,89.05608,102.855068,26.553486,52.564178,68.17289,81.090786,-13.876293,-13.070722,-3.795193,2.731776,18.663074,34.137097,39.911885,42.829023,36.149827,51.507068,57.003497,59.001444,47.451165,64.317031,68.776929,68.384036,53.580931,70.102871,73.904251,73.049292,2.986547,322.089075,-78.392046,296.598233
13,-10.513801,3.981382,-0.050228,0.245309,9.544819,13.694595,14.579715,12.014442,-11.534317,12.01466,31.893596,45.404812,-22.674362,4.981601,27.262104,46.3988,-27.938553,-4.0658,18.215961,36.226719,-30.000836,-19.699002,-4.80383,10.3278,-18.663469,-30.428553,-33.250843,-32.370986,-13.405224,-0.95455,7.184982,11.979506,3.687451,16.523805,24.931605,29.240327,18.041161,28.95131,34.175691,36.401337,29.654512,39.434616,40.757903,38.697304,27.385311,52.917526,75.823356,95.673134,53.30199,87.619835,105.909324,119.111984,43.977504,82.25917,103.141594,117.491501,34.824691,69.855926,89.352997,103.081443,26.736797,52.819187,68.382305,81.216591,-13.998089,-13.29905,-4.071587,2.407353,18.381888,33.900433,39.745925,42.743129,35.943396,51.408182,56.854198,58.757543,47.297481,64.185651,68.584825,68.147409,53.447711,69.899639,73.646345,72.813826,-7.585258,326.046112,-78.500278,296.819197
14,-4.137234,-1.463052,0.061935,0.187635,10.086044,15.789196,17.9133,16.364559,-7.303688,16.527763,36.189377,49.780106,-18.049736,9.389374,31.266106,50.123039,-23.731945,0.508232,22.595581,40.349991,-26.142311,-16.14196,-1.384357,13.750008,-18.208258,-29.1087,-31.457735,-30.580978,-11.43693,1.773941,10.082249,14.678517,5.656597,19.188644,27.517724,31.794113,19.720105,31.583223,36.493036,38.264939,30.872488,41.55368,42.836162,40.812712,27.524311,52.960957,75.826447,95.658829,53.483814,87.864922,106.141548,119.260849,44.130032,82.483017,103.352074,117.653481,34.946171,70.101849,89.58252,103.22271,26.826027,52.999031,68.529156,81.266945,-14.051528,-13.432777,-4.324542,2.115965,18.218459,33.716553,39.596155,42.642007,35.832282,51.348765,56.761584,58.597152,47.208795,64.075649,68.426669,67.941509,53.377785,69.728516,73.448398,72.621523,-11.76428,324.578558,-78.480131,297.00233
15,10.84996,-2.693986,0.185452,0.18724,8.379582,10.63472,8.47815,4.10725,-16.640167,4.206917,24.466965,38.81781,-28.180492,-3.799335,19.215935,39.222794,-34.087257,-12.79303,10.157158,29.100128,-36.71886,-28.626182,-13.477249,2.198342,-18.129143,-28.861154,-30.844454,-29.677112,-11.290816,2.941197,11.872036,16.785998,6.96788,20.605446,29.539224,33.856788,21.94496,33.267763,38.625871,40.602662,33.942905,44.609893,45.464099,43.075692,27.680568,53.04483,75.853695,95.679508,53.608074,88.007206,106.239521,119.259029,44.202953,82.584446,103.405735,117.616871,34.983947,70.184532,89.620136,103.145404,26.834804,52.984176,68.45795,81.088611,-14.078563,-13.493762,-4.431778,1.988499,18.180359,33.607773,39.477668,42.557519,35.824563,51.38048,56.738316,58.500475,47.186701,64.033016,68.324694,67.806225,53.33199,69.609362,73.290045,72.469728,-0.942021,321.886357,-78.32238,297.191355
16,-13.932152,2.624096,0.258991,0.079053,12.207676,19.122895,22.273522,21.987031,-3.379737,21.245865,40.676789,54.112977,-14.460914,13.269574,35.26561,54.203866,-20.821071,3.897618,25.84124,43.694161,-24.075668,-12.467834,2.655819,17.947449,-19.262781,-30.938747,-33.39109,-32.120366,-12.912851,0.269306,8.698052,13.622722,4.658983,18.708128,27.07558,31.400394,19.232697,31.307447,36.491839,38.624414,30.913936,41.644009,43.008063,41.002274,27.859577,53.189724,75.897789,95.651962,53.597477,88.1212,106.370201,119.387787,44.127685,82.655548,103.503662,117.715118,34.901253,70.247761,89.742119,103.286819,26.780537,53.044247,68.526752,81.107162,-14.176771,-13.546892,-4.435211,1.956228,18.095958,33.476257,39.274534,42.323287,35.856204,51.465004,56.673984,58.26612,47.22879,64.11402,68.333376,67.787749,53.303425,69.556034,73.168582,72.325046,-14.90411,324.517076,-78.093326,297.277031
17,5.728592,-1.843546,0.38966,0.075483,10.504132,15.586327,16.423806,14.833855,-7.913234,14.67714,34.512841,48.28077,-19.555286,6.15849,28.562325,47.639786,-26.606678,-3.582595,18.740754,36.861077,-30.454982,-20.326114,-5.045093,10.425133,-19.096525,-30.468419,-32.946327,-31.38934,-12.135882,1.972951,10.783907,15.775625,6.210054,20.334053,28.957498,33.166097,21.245773,33.027579,38.209957,40.128468,33.193514,44.112197,45.22552,43.00689,27.930507,53.277729,75.929752,95.60503,53.745884,88.257396,106.412052,119.338611,44.171608,82.727016,103.519855,117.661846,34.841743,70.290642,89.781727,103.303951,26.633445,52.990162,68.468628,80.994816,-14.378867,-13.67968,-4.45749,1.91167,17.864605,33.330502,39.157394,42.206728,35.757589,51.477774,56.637095,58.10368,47.211797,64.158481,68.360004,67.795308,53.285048,69.517824,73.089159,72.242944,-9.215601,322.683286,-77.743749,297.36227
18,-0.436626,-1.392929,0.326626,-0.155882,11.102749,16.458149,17.953205,16.860775,-7.390732,15.243587,35.317097,49.181934,-19.269264,6.664558,29.65321,49.023205,-26.311489,-3.123367,19.860981,38.47356,-29.984676,-19.058899,-3.18607,12.601055,-19.231363,-30.703626,-32.476011,-29.331396,-12.060682,2.181099,10.982805,15.931915,6.800561,21.120173,29.765737,33.826469,22.323836,34.25614,39.586782,41.488929,34.73357,45.834503,46.771541,44.227029,27.985931,53.42316,76.111793,95.859306,53.786853,88.287506,106.455528,119.391265,44.138374,82.656051,103.465301,117.622741,34.765274,70.163108,89.646789,103.139762,26.556301,52.915432,68.387729,80.864891,-14.388032,-13.570703,-4.284627,2.038196,17.922291,33.40759,39.254181,42.346518,35.889685,51.69348,56.88049,58.356745,47.349475,64.348461,68.548008,67.958502,53.380329,69.636409,73.213215,72.336149,-9.712521,321.294541,-77.477417,297.210572
19,-1.169804,1.167713,0.325927,-0.049043,11.128041,16.847226,19.005181,18.607842,-6.60046,16.794159,37.088082,50.668579,-18.589084,8.40366,31.778092,50.895241,-25.811451,-1.854698,21.419518,39.941346,-29.627071,-17.74189,-1.423324,14.444687,-19.981779,-31.984614,-34.221979,-30.981985,-13.2383,0.389411,9.177198,14.483991,5.599861,19.449972,28.193349,32.561758,21.295062,32.623373,38.082751,40.377952,33.872188,44.276824,45.332497,42.968654,27.949963,53.538769,76.282082,96.102059,53.923691,88.405014,106.535042,119.461441,44.167717,82.729752,103.484116,117.574471,34.717839,70.154572,89.620903,103.121727,26.50074,52.92556,68.420346,80.912133,-14.527648,-13.615163,-4.222715,2.029329,17.86437,33.503205,39.384673,42.477578,35.933763,51.830629,56.95616,58.296169,47.431035,64.505098,68.660481,68.008545,53.413724,69.670866,73.211067,72.312129,-10.955756,322.458777,-77.224921,297.158052
20,0.101784,-0.319842,0.325985,-0.114905,10.891628,16.735874,19.227516,19.103989,-6.620899,16.868088,37.340057,50.991966,-18.59951,8.576283,32.161629,51.348038,-25.799744,-1.7738,21.800491,40.422089,-29.576363,-17.912212,-1.480122,14.465561,-19.838407,-31.827348,-34.21289,-30.992384,-12.979986,0.666311,9.349691,14.411187,5.936462,19.857524,28.37981,32.32902,21.686695,33.123118,38.381363,40.355697,34.269527,44.885608,45.848384,43.288236,27.946484,53.623318,76.383717,96.255146,53.956558,88.514248,106.67133,119.622448,44.101822,82.813534,103.55428,117.621609,34.619831,70.233341,89.722836,103.254399,26.436585,53.061173,68.609162,81.119168,-14.569058,-13.581225,-4.114603,2.139393,17.803262,33.560472,39.440841,42.536253,36.016978,51.972889,57.017342,58.290191,47.587017,64.678469,68.779042,68.10989,53.550896,69.750672,73.212474,72.27083,-10.92659,322.134974,-76.971554,297.039186
21,0.371372,0.598497,0.284077,-0.14084,10.717083,16.40213,19.045567,19.332539,-7.043403,16.565518,37.163075,50.811024,-18.964107,8.379959,32.019894,51.239056,-25.981487,-1.78537,21.808079,40.408734,-29.585666,-17.95372,-1.546497,14.298695,-19.874259,-32.187872,-34.899357,-32.028,-13.416277,0.038952,8.528374,13.499097,5.57894,19.414231,27.737408,31.528328,21.351551,32.625423,37.700788,39.512224,33.898617,44.542005,45.487725,42.789009,28.000465,53.775261,76.542732,96.418259,54.055046,88.624741,106.756004,119.66613,44.1003,82.85392,103.54026,117.547028,34.587227,70.248241,89.725044,103.268349,26.412003,53.077595,68.654514,81.196129,-14.538381,-13.502308,-3.961067,2.337512,17.769422,33.686764,39.606986,42.732471,36.05367,52.081421,57.132012,58.411036,47.680284,64.811516,68.92581,68.290151,53.666147,69.841494,73.281968,72.354514,-10.622338,322.730893,-76.754597,296.895768
22,-4.710937,-0.272554,0.265514,-0.052414,11.988018,19.549484,23.935077,25.36861,-1.595387,22.501201,42.600872,55.7887,-13.203083,14.154236,37.380009,56.367702,-20.79459,3.60791,27.04858,45.546627,-25.15012,-13.617645,2.863586,18.729526,-20.118358,-31.980785,-34.443738,-31.737168,-13.503728,-0.485778,7.995048,12.882309,5.29143,19.24175,27.568113,31.21345,21.067005,32.649765,37.78546,39.687867,33.709019,44.627332,45.844173,43.430707,28.082943,53.879025,76.612942,96.471142,54.104313,88.678768,106.813214,119.74062,44.120556,82.872586,103.533429,117.542897,34.630486,70.248722,89.697178,103.264675,26.491768,53.164639,68.731579,81.257779,-14.424155,-13.43889,-3.976393,2.30434,17.909052,33.878376,39.825101,42.974039,36.170119,52.210752,57.249598,58.507379,47.744851,64.889223,69.014076,68.389347,53.704593,69.79412,73.194283,72.250094,-15.395233,322.463446,-76.551041,296.848461
23,-0.041611,-0.121796,0.323548,-0.019439,11.759514,19.267113,23.954785,26.070271,-1.570404,22.747227,42.832089,56.031796,-13.088905,14.288796,37.610195,56.483952,-20.69323,3.809567,27.13036,45.486591,-25.173065,-13.280868,3.272862,18.913113,-20.319381,-31.886308,-34.592594,-32.444359,-13.263112,-0.334861,8.259426,13.330617,5.613927,19.399373,27.418615,30.635293,21.425886,32.728409,37.430283,38.900746,34.063984,44.991016,45.898154,43.092426,28.187782,53.993419,76.766658,96.637333,54.168914,88.70541,106.795177,119.710613,44.172798,82.920696,103.494358,117.49918,34.700752,70.295242,89.721759,103.381313,26.556965,53.249096,68.830158,81.437038,-14.330727,-13.40289,-4.016531,2.245529,17.969259,34.048622,40.052515,43.252471,36.196128,52.211913,57.212226,58.399477,47.755595,64.888086,69.032453,68.446627,53.729367,69.737087,73.095914,72.177908,-15.508021,322.358245,-76.29867,296.845617
24,7.202225,-2.206936,0.280677,-0.00825,11.132137,16.516193,18.548252,18.753422,-6.894379,15.321178,35.580105,49.04472,-18.944126,5.91037,29.763553,49.431919,-26.904637,-4.84449,19.059757,38.343601,-32.034783,-21.800629,-4.909413,11.155186,-20.362692,-32.000656,-34.742856,-32.560992,-13.742788,-0.374355,8.560633,13.535851,6.256058,20.140416,28.289964,30.906761,23.056839,34.016956,38.825486,40.079698,36.634149,47.886667,48.418634,45.095622,28.302567,54.097275,76.885174,96.759991,54.217518,88.757847,106.85796,119.803288,44.207417,82.908497,103.430226,117.448803,34.77467,70.302063,89.713063,103.417225,26.659447,53.314957,68.893731,81.522389,-14.205744,-13.370446,-4.102574,2.217482,18.019697,34.113336,40.15202,43.420655,36.2077,52.226757,57.191108,58.354214,47.746061,64.897497,69.061031,68.490951,53.742199,69.723576,73.045279,72.101177,-8.401279,320.173718,-76.113476,296.859776
25,-7.441281,2.239663,0.355958,0.018118,12.036553,19.402588,25.294396,29.111847,-1.276176,23.676522,43.330674,56.066643,-12.406837,15.404458,38.815842,57.857346,-19.583576,5.22329,28.367226,46.946732,-23.922306,-11.364692,5.245961,20.608956,-20.852533,-33.252683,-35.817276,-32.817207,-14.523919,-2.01436,6.624498,11.832577,4.988199,18.525099,26.167355,28.684252,21.346994,32.093011,36.517329,37.49821,34.486234,45.256358,45.869738,42.539723,28.301158,54.087055,76.971096,96.963695,54.109313,88.672016,106.768421,119.654605,44.133659,82.896343,103.410015,117.318706,34.776695,70.370075,89.714023,103.264812,26.751777,53.414051,68.95206,81.50735,-14.146674,-13.330494,-4.168276,1.938654,17.956093,34.129132,40.342631,43.748438,36.122966,52.229931,57.214474,58.298971,47.686212,64.8375,68.947855,68.314197,53.72187,69.666864,72.988567,72.061422,-16.01175,322.44354,-75.926708,296.908053
26,9.952549,-3.837306,0.359539,0.054661,9.962815,14.319272,16.356572,16.778401,-10.171531,12.146542,32.48235,45.7179,-21.872348,3.269909,27.673314,47.533276,-29.222374,-7.180137,17.007168,36.315297,-33.536121,-23.638641,-6.532653,9.419735,-19.882509,-30.925644,-32.68889,-29.832476,-12.714311,1.033022,10.422617,15.5552,7.545443,21.258715,29.526947,31.470937,24.392413,35.223163,39.84454,40.403924,37.930944,49.147894,49.354313,45.547215,28.298629,54.051303,77.040481,97.181716,53.952163,88.59217,106.710479,119.575035,43.990619,82.922676,103.437606,117.186241,34.708087,70.495754,89.793869,103.133331,26.792781,53.556793,69.044403,81.413635,-14.130223,-13.358491,-4.346537,1.534992,17.888934,34.09365,40.43937,43.979632,36.090177,52.236514,57.156873,58.097604,47.708739,64.81921,68.806336,68.03059,53.754747,69.613685,72.858953,71.840899,-6.273926,318.635155,-75.781894,296.991635
27,-4.994808,3.090904,0.281204,-0.121191,10.831673,16.455803,20.636696,22.769234,-6.647941,18.280678,38.517838,51.593903,-17.843948,10.022026,34.075035,53.594193,-24.333561,0.282223,23.778237,42.575089,-27.682457,-15.517971,1.234589,16.681916,-20.090607,-32.337591,-34.942224,-32.701894,-14.128543,-1.172554,7.837955,13.212131,5.528379,19.086238,26.909126,29.071699,21.970785,32.745009,37.116642,37.696268,35.198488,45.968205,46.336929,42.582813,28.300106,54.086311,77.213722,97.496361,53.866871,88.560814,106.706108,119.540931,43.855396,82.931877,103.425728,117.009018,34.569042,70.554085,89.855301,103.059196,26.670318,53.574772,69.096725,81.401756,-14.127667,-13.290875,-4.313007,1.393756,17.905298,34.170023,40.568082,44.150433,36.152199,52.317259,57.153538,57.94098,47.819556,64.904549,68.801469,67.932221,53.85556,69.662319,72.893842,71.872947,-11.517924,321.743939,-75.74988,296.888324
28,-4.806244,-2.561925,0.212814,-0.128305,12.247433,20.253422,25.691552,27.724686,-1.628002,23.866356,44.064309,57.153443,-12.49213,15.797654,39.273468,58.047387,-19.191009,6.068276,29.535691,47.728752,-22.797363,-9.981777,6.971295,22.541153,-19.645351,-30.85042,-31.980292,-28.625664,-12.092991,2.07054,10.659109,15.14167,7.636167,22.048651,29.86797,32.069125,23.941622,35.813892,40.358414,41.041176,37.04627,48.839598,49.275445,45.816409,28.256046,54.117474,77.339127,97.689285,53.775478,88.619682,106.825882,119.675331,43.739937,83.023338,103.522179,116.953491,34.468952,70.700066,89.99025,103.056244,26.621315,53.692268,69.221809,81.408943,-14.108203,-13.218874,-4.24539,1.365376,18.003234,34.247408,40.622015,44.213653,36.282974,52.445279,57.188934,57.889591,47.96425,65.014391,68.807792,67.871249,53.943666,69.726947,72.917134,71.873231,-16.587382,319.189084,-75.80028,296.767089
29,2.363583,-0.63046,0.130795,-0.193192,11.481194,18.745033,23.454586,24.782536,-3.747139,21.466175,41.670902,54.774181,-14.680904,13.409878,37.059734,56.032139,-21.294754,3.666058,27.211063,45.458416,-24.635033,-12.6488,4.176258,19.797947,-19.209528,-30.138079,-30.940007,-27.337228,-11.55528,2.917065,11.554589,15.915885,8.124946,22.706553,30.557488,32.494388,24.33238,36.428198,40.965186,41.359574,37.381489,49.288821,49.697213,46.002402,28.238136,54.17506,77.515148,97.993663,53.56707,88.638416,106.969837,119.886623,43.496555,83.100917,103.673526,117.004932,34.278499,70.842006,90.178814,103.151836,26.545795,53.79031,69.374508,81.501033,-14.035992,-13.024731,-3.980864,1.490766,18.203935,34.452049,40.785764,44.372302,36.509066,52.687007,57.317831,57.926542,48.19837,65.214425,68.867999,67.845955,54.092731,69.853955,73.00687,71.951629,-14.511703,318.555774,-75.957389,296.571047
30,-0.95636,0.51075,-0.250866,-0.126663,11.783569,19.579514,24.293278,25.33025,-2.249794,23.15839,43.357418,56.7281,-13.233513,14.749134,38.14278,57.237316,-20.008049,5.022194,28.308117,46.553318,-23.575985,-11.469543,5.280041,21.040592,-19.269574,-30.280043,-31.311028,-28.229374,-11.880063,2.510673,10.95766,15.155379,7.656866,22.412609,30.077638,32.050983,23.851208,36.179295,40.660337,41.124218,36.962278,48.810687,49.329366,45.793748,28.302017,54.331306,77.679725,98.194999,53.459621,88.732681,107.271629,120.468841,43.457473,83.205322,103.889534,117.458152,34.381782,70.975433,90.49205,103.765983,26.818016,54.078941,69.806144,82.13855,-14.023271,-12.886298,-3.734269,1.768236,18.598076,34.596471,40.644183,44.060364,36.860884,52.788377,57.189774,57.795706,48.49392,65.441086,69.015892,68.041161,54.279749,70.102773,73.176511,72.084801,-15.75293,319.048777,-76.493122,296.426637
31,-4.877987,0.392128,-0.694084,-0.242234,12.808148,22.785473,28.908646,30.91285,3.650826,29.076782,48.523979,61.590363,-6.978893,20.477074,43.016625,61.761841,-14.398258,10.404453,33.357445,51.685845,-19.021065,-6.370788,10.521996,26.533287,-19.675312,-30.394381,-31.124666,-27.661641,-12.400879,2.052892,10.32126,14.429465,6.909895,21.916641,29.330791,31.444581,22.951405,35.574474,39.991913,40.599586,36.14979,48.361144,49.038583,45.760118,28.008144,54.180507,77.667045,98.406623,53.386997,88.900955,107.695976,121.264114,43.606624,83.327018,104.304153,118.40982,34.744148,71.09539,90.868217,104.627883,27.352386,54.330745,70.142967,82.872596,-14.021938,-12.755425,-3.62901,1.421358,18.856353,34.477589,40.358439,43.690886,36.983964,52.681462,57.134037,57.962123,48.527759,65.421881,69.111901,68.287212,54.331618,70.469051,73.745997,72.840131,-20.941344,319.408042,-77.497633,296.15154
32,2.424065,-1.678747,-0.952549,-1.465733,11.573318,19.953083,23.880661,24.33712,-0.253601,24.896644,44.648437,57.873115,-10.565289,16.528587,39.626266,58.377045,-17.411385,6.700172,30.007576,48.221878,-21.683933,-8.249314,8.65686,24.144974,-19.801962,-30.00739,-30.320823,-27.117014,-11.132834,3.584142,11.826575,15.811353,9.059489,23.390537,30.36327,31.710664,25.401094,37.359444,41.18976,41.182449,38.772269,50.294327,50.124526,46.333446,27.513301,53.589557,76.902648,97.681285,52.490661,87.851978,106.9239,120.973308,43.094799,82.470623,103.915386,118.798816,34.762252,70.267433,90.28989,104.601093,27.947765,54.141883,69.989387,83.108928,-14.064212,-12.171623,-2.852301,1.588777,19.300944,34.824824,40.801708,44.304723,37.340462,53.362953,58.195873,59.446566,48.749345,66.20647,70.195658,69.699172,54.48949,71.407016,74.993801,74.291303,-18.932144,317.691849,-78.865047,294.648361
33,28.524204,-12.881321,-0.613907,-3.259841,-0.624103,-1.123638,-2.993923,-5.746776,-20.925865,-7.253231,6.69619,16.909584,-27.043487,-11.897427,4.423348,18.902733,-29.739338,-16.779636,-0.403896,13.213291,-30.233448,-24.176662,-12.796108,-2.02177,-15.24367,-19.671261,-16.87577,-13.467765,-2.010544,15.546086,25.129935,29.356491,16.549802,34.98004,43.45085,45.016519,31.646777,47.467751,53.450378,54.162842,43.634138,57.909437,60.443341,58.842276,27.157551,51.698902,73.681171,93.732319,50.68436,84.769214,102.932659,115.288799,42.132957,79.555126,99.807918,112.673298,34.384941,68.027733,86.745723,99.007839,27.896656,53.175693,68.250366,79.675037,-14.588498,-13.331074,-5.260765,-1.053734,17.449419,34.034814,40.176917,43.588529,35.611623,53.651487,59.471155,61.25095,47.392663,66.186487,70.483353,70.478437,53.882162,71.29169,74.813699,73.983169,9.051842,304.722762,-80.019172,291.300754
34,18.325928,-16.036792,-4.424424,-12.698676,-9.8149,-15.658253,-19.523495,-22.251858,-31.585877,-27.383618,-17.810578,-9.46788,-32.440842,-27.319531,-16.583313,-5.453179,-30.161144,-25.558708,-15.157986,-5.454815,-26.09475,-23.791615,-16.993286,-10.112744,-10.967355,-9.629199,-2.541351,3.783003,7.675749,28.363668,38.109242,41.858628,24.149153,46.765921,55.489599,56.983156,37.381254,57.573367,64.450399,65.482471,47.560328,64.995655,69.7854,70.13655,25.450928,48.626971,69.234255,87.71806,47.35464,79.99367,96.160778,105.915373,41.070483,76.805501,94.281607,103.818713,35.302432,67.604222,83.420208,92.426411,30.421103,55.217148,68.449053,77.230855,-16.771498,-18.074339,-13.268731,-11.182799,11.852887,27.38432,32.906257,35.927452,30.44546,48.1918,53.974059,55.97883,43.231068,61.29546,65.132217,65.432151,51.209833,67.27947,70.072484,69.138991,26.83021,288.603595,-84.991156,278.519703
35,21.10651,-20.117445,-8.138317,-22.219428,-17.444321,-27.945282,-35.420219,-40.458069,-40.901882,-45.868034,-40.074772,-33.942616,-38.069664,-43.137337,-36.248737,-27.311222,-32.546379,-37.293011,-30.323273,-22.560539,-25.641094,-28.54755,-24.648205,-19.479813,-6.123973,-0.186375,9.167578,15.916885,16.726816,39.073216,47.128483,49.173829,31.103992,55.913924,62.355739,61.38632,42.164874,64.252304,68.881189,67.93563,50.157279,68.412924,72.098942,71.51272,22.391522,44.395884,63.638563,79.6764,42.532145,73.643389,86.722801,92.913306,39.777998,74.243729,87.34326,92.082201,37.281172,68.955345,80.246796,84.610886,35.220995,60.062371,70.358591,75.400956,-20.534285,-26.353786,-26.823799,-28.648045,2.401331,14.982193,19.246399,21.719336,21.75036,37.15416,41.955144,43.864448,36.169069,51.579279,54.203986,54.549641,46.356411,59.251681,60.705008,59.688794,47.087185,268.883835,-93.979008,256.69796
36,32.603863,-36.856721,-13.613399,-33.006917,-24.804531,-42.864178,-55.28207,-61.502346,-55.462166,-69.781025,-66.384339,-60.707268,-49.843838,-64.200314,-60.146462,-52.834603,-40.642079,-53.62619,-49.972515,-44.231449,-29.627472,-37.646393,-36.367619,-33.190808,-8.174989,-2.995408,6.716302,14.905858,14.48275,36.559838,43.207862,43.935826,29.353231,55.380363,60.184854,57.745268,40.984885,64.528946,67.733274,65.147018,49.178658,68.238503,71.374547,69.961871,23.57967,44.937612,62.464685,74.53561,44.183973,71.84638,79.353515,80.664556,42.117239,72.230186,78.83127,78.448866,39.752237,67.894008,73.258175,73.012012,37.340887,59.432854,66.648119,68.802338,-17.664644,-26.151861,-30.998268,-35.937039,-5.988221,2.187508,6.219878,8.776067,7.653,18.732481,23.340377,25.86174,17.926558,27.815022,30.626932,31.994389,25.486822,31.128858,30.022896,27.850936,78.958077,232.589519,-108.325378,224.253448
37,37.386692,-46.21194,-14.985455,-42.51062,-30.050789,-52.191857,-67.685555,-75.912575,-60.471565,-85.78775,-87.739048,-83.820591,-53.496941,-79.423073,-81.127613,-76.291477,-43.968453,-67.323899,-68.642739,-64.797821,-32.889839,-49.482628,-51.756958,-49.85138,-8.115233,-4.151424,4.103266,11.591664,2.120892,18.487166,25.976571,28.005516,13.333044,35.045422,41.550161,40.975425,23.384962,43.76009,48.884578,48.039338,31.191702,47.552023,52.468467,53.247164,18.360249,36.554667,51.444632,61.369423,38.299124,63.689089,66.070267,62.788862,40.553393,67.586575,67.943053,62.631129,41.925642,68.331917,67.325592,62.073464,42.483805,63.881825,66.082186,63.256268,-22.07337,-37.079319,-47.949954,-54.943303,-21.705122,-20.5788,-17.181194,-14.52747,-8.356566,-4.32645,-0.074533,3.034897,3.050964,5.635238,8.381217,10.555461,12.613923,11.906881,10.302778,8.859066,116.041615,187.170229,-123.613987,182.535478
38,17.273506,-39.303464,-17.363479,-49.933223,-26.040756,-46.398491,-61.865982,-71.36602,-50.082253,-71.521065,-71.802452,-67.138962,-44.648575,-67.490273,-67.07959,-60.719193,-37.680405,-58.527466,-58.021362,-52.364204,-29.566704,-44.533699,-45.388664,-41.718498,-14.693189,-20.530135,-19.703766,-15.944154,-22.287335,-18.627512,-16.554038,-17.140753,-11.874511,-4.151054,-1.96265,-4.191754,-1.242603,7.074745,8.636746,6.784117,8.34965,15.422715,16.906559,15.932588,11.942711,27.47347,40.644693,48.52898,32.831606,54.993433,52.994567,47.393171,39.762926,63.14431,58.392419,51.297403,45.220785,68.628696,62.358524,55.170982,49.256258,67.895004,65.642068,60.732937,-25.469378,-46.33084,-63.039761,-74.295796,-37.453045,-46.676007,-42.850377,-38.659865,-25.91001,-32.472547,-27.736538,-22.68055,-14.844966,-21.922718,-18.156764,-14.085942,-4.762285,-13.045312,-14.230049,-13.88944,133.522419,148.818067,-140.770168,133.553557
39,19.663032,-43.086486,-16.90971,-42.197873,-23.065956,-40.862686,-55.45642,-65.303581,-40.598533,-57.338058,-57.193222,-52.576263,-37.094947,-54.485939,-53.068611,-46.703704,-32.971755,-49.209342,-47.646171,-41.941726,-27.960983,-41.536354,-41.769905,-37.730735,-21.800415,-36.813724,-43.392959,-46.249317,-46.175673,-55.35544,-59.128069,-62.901822,-37.156192,-44.062642,-47.66815,-52.819332,-26.538542,-31.473098,-35.659294,-41.190266,-15.404795,-18.412966,-22.140598,-26.67314,13.707664,29.137012,41.949131,49.201195,33.591247,53.263847,50.613498,45.607349,38.185592,57.42168,52.577636,47.183029,41.381012,59.672767,53.096214,47.308536,43.490581,57.790672,54.450863,50.242515,-23.938523,-45.735078,-64.419327,-76.947361,-45.412914,-60.389933,-59.262235,-56.830775,-39.587621,-54.549888,-54.343333,-52.415757,-33.014259,-48.582235,-49.251418,-48.607547,-26.147477,-41.217992,-45.79618,-48.259824,152.765293,106.672333,-158.100036,92.296436
40,25.228158,-44.49132,-13.657871,-42.218917,-22.074921,-39.715394,-55.293732,-66.75721,-36.993668,-50.830079,-50.559105,-46.219483,-34.309433,-48.402764,-47.866608,-43.246537,-31.88015,-45.372803,-44.984917,-41.224778,-29.229607,-42.377289,-43.76912,-41.650086,-29.978435,-51.797653,-63.598497,-70.841826,-69.095179,-88.091266,-96.055112,-103.173879,-60.928205,-79.433519,-86.692107,-94.386017,-49.73661,-64.952455,-71.882345,-79.612314,-36.623002,-46.218324,-51.770378,-57.52769,10.412029,22.097316,32.82558,39.660598,27.185302,40.85131,38.050094,34.171154,32.049991,45.879592,43.304409,41.219879,36.232841,50.272396,46.548831,43.659645,40.182655,51.890625,50.211719,48.113399,-24.912735,-48.053424,-66.930611,-79.087427,-54.659927,-75.818113,-77.930113,-77.75142,-51.445405,-73.032873,-75.489681,-74.954176,-46.266713,-67.454347,-70.196522,-71.153129,-39.747728,-57.815342,-63.658741,-67.496442,177.661086,62.973592,-172.090272,50.870098
41,10.816543,-27.482632,-9.608838,-31.255706,-16.223259,-29.962967,-43.44223,-55.04425,-22.988251,-31.134109,-31.835609,-29.281494,-22.347587,-30.565224,-31.798851,-29.842186,-23.157738,-32.366547,-34.270752,-33.323135,-25.047478,-36.442634,-40.56031,-41.645965,-31.752123,-57.202216,-73.400726,-85.704471,-81.978099,-110.242035,-123.709327,-134.983705,-77.53504,-107.394624,-119.785363,-131.006614,-68.535516,-93.881671,-104.861406,-114.991339,-55.850703,-72.696111,-80.22984,-86.889523,2.756745,10.511593,19.948815,28.238778,14.234963,23.253594,21.750515,19.785702,22.314034,33.010334,33.19645,33.890168,30.670441,42.91055,42.594429,42.411679,39.128186,51.21666,51.366028,50.841294,-31.501763,-57.052385,-76.640882,-88.646384,-64.190375,-90.154126,-97.049603,-100.811388,-57.766807,-84.349883,-91.541762,-95.27815,-48.938239,-73.726923,-81.00516,-85.795214,-38.608469,-57.033335,-63.593983,-68.52471,188.052704,36.461408,-182.124035,20.58484
42,8.268402,-20.689982,-9.461746,-20.049149,-10.828743,-22.086983,-34.201881,-45.207161,-15.164955,-18.444717,-18.068619,-16.469124,-16.247978,-20.098869,-21.153236,-20.769264,-19.039718,-24.762794,-27.163078,-28.08062,-23.500625,-33.434555,-39.122726,-42.908638,-33.335385,-60.008241,-77.613098,-91.338523,-83.439089,-115.339019,-135.570112,-152.906175,-79.223629,-114.577031,-134.226836,-151.193775,-70.423856,-100.737535,-118.294313,-133.718084,-57.385479,-76.923309,-88.390558,-98.923555,0.617901,7.116829,17.023327,25.870697,8.020947,12.082031,11.61945,11.132378,15.958603,23.283394,26.226814,29.314041,25.051678,34.834053,38.50193,41.286244,34.675038,45.50647,49.287186,52.166313,-30.072561,-54.700546,-73.408229,-85.351116,-65.830057,-95.035162,-106.822238,-114.732138,-61.608293,-92.012794,-104.600659,-112.742395,-54.46813,-82.608731,-95.015538,-103.778606,-45.318516,-66.298478,-76.156727,-84.165169,195.348032,16.686249,-192.558855,1.450514
43,7.463791,-11.546302,-7.361034,-9.145915,-4.219345,-13.016029,-24.503128,-34.445389,-7.790932,-12.33419,-12.882637,-12.07196,-12.639061,-17.150757,-19.366676,-20.355583,-18.777283,-24.833885,-28.299751,-30.565933,-26.406326,-37.635979,-44.616783,-49.989235,-32.693434,-59.19828,-76.743807,-89.766617,-81.369981,-114.744078,-136.113071,-154.07973,-77.494494,-115.001448,-137.657313,-156.878051,-69.174262,-101.830857,-123.014261,-141.536958,-56.578395,-77.430966,-91.123928,-104.381556,-1.980744,3.115242,12.696956,21.487095,0.361015,1.754734,3.086471,4.489963,7.832325,14.086635,20.268093,25.654449,17.257862,26.655521,33.970779,38.690231,27.700596,37.943538,43.848404,48.009166,-29.103265,-52.347516,-69.343032,-80.901857,-64.342391,-94.411038,-112.135985,-125.095371,-61.39996,-94.221749,-113.131756,-126.153251,-55.456909,-85.485856,-103.270197,-116.215708,-47.504055,-69.880656,-83.003292,-93.710931,201.184112,6.181917,-201.5476,-6.653431
44,4.809792,6.399232,-6.124478,3.233375,3.656547,-2.469498,-13.23436,-23.369133,1.66111,-4.832726,-7.784523,-9.052826,-6.365822,-12.951622,-17.936714,-21.365731,-15.640984,-22.966256,-28.546372,-32.38044,-26.370163,-37.267548,-44.395912,-50.025215,-32.406498,-59.368396,-77.760601,-90.322006,-77.920967,-112.599826,-133.815424,-150.906345,-73.832083,-112.535167,-135.578059,-154.092348,-65.939399,-100.314569,-122.202608,-140.057628,-54.704912,-77.689051,-92.151405,-105.652682,-12.416645,-12.463028,-5.11647,2.825283,-14.724575,-14.640609,-12.739402,-10.930572,-2.292892,3.36406,9.540253,14.496655,12.432736,21.834458,29.037095,33.120781,27.948796,37.440239,42.9413,46.329792,-30.629544,-55.920988,-73.747905,-86.018805,-65.381626,-99.703808,-118.732787,-131.74124,-59.658641,-95.802886,-114.851561,-126.848073,-51.711987,-84.151257,-101.376275,-112.688203,-42.620282,-66.413216,-79.146583,-88.464844,204.959107,13.813026,-208.706875,-2.188179
45,2.00267,10.381714,-5.823526,17.138904,5.924149,2.363113,-5.612366,-13.300507,4.167618,-0.984032,-3.722488,-5.008781,-2.756401,-8.572243,-13.427925,-16.859161,-10.475098,-16.662529,-22.244362,-26.028053,-19.160111,-28.792877,-35.732964,-41.271103,-30.011126,-56.447157,-74.770881,-85.979328,-75.126953,-108.165066,-124.646044,-136.582448,-71.55592,-108.577521,-126.030259,-138.022668,-63.904606,-96.956372,-113.601331,-125.750598,-53.025535,-75.5705,-86.983563,-96.745043,-14.101278,-15.374845,-9.070868,-2.09864,-19.014381,-17.525608,-14.885445,-12.685146,-7.055202,-1.667129,3.474689,7.44393,7.000322,14.850437,20.245365,23.267944,21.465929,27.946918,31.494627,33.730934,-28.600497,-53.361661,-71.740257,-84.15812,-57.583083,-93.470626,-112.370173,-124.515161,-51.774083,-90.951897,-111.265291,-123.435455,-45.58157,-81.682503,-100.236356,-111.433447,-39.496672,-66.929045,-80.911422,-90.194167,205.505934,25.060108,-215.986244,15.816093
46,0.681381,24.555484,-4.344795,21.532468,9.706558,9.26461,2.240204,-5.756058,11.537316,4.92508,0.108399,-2.702797,3.275345,-3.554146,-9.685203,-13.807617,-5.884941,-11.15847,-17.069046,-21.116958,-15.472641,-22.414764,-27.464126,-31.540924,-26.55708,-53.16022,-72.938883,-84.569301,-63.886896,-99.747441,-115.225787,-124.351424,-59.902846,-99.743773,-116.624622,-126.06765,-53.442289,-89.772774,-106.625733,-117.15558,-45.250751,-71.255721,-83.853892,-93.312239,-13.049006,-15.529387,-11.418772,-6.667111,-21.191105,-18.660015,-14.629795,-11.947918,-11.35849,-5.894875,-0.518818,2.85502,0.606657,7.433326,11.700313,13.549873,13.487646,16.916164,18.718191,19.487285,-28.127403,-52.865275,-71.955353,-84.305149,-46.504479,-83.608937,-101.886942,-112.102915,-39.227141,-81.294868,-102.138636,-112.255772,-34.126078,-73.468322,-92.784051,-102.591795,-31.061436,-61.167535,-76.123197,-84.636347,204.845793,49.740834,-221.672561,37.473803
47,-1.364136,26.437062,-1.310726,23.370758,12.073357,14.411797,7.785485,-0.284591,18.284386,10.267571,3.322106,-1.188903,9.551011,1.815789,-5.388404,-10.611282,-0.654762,-5.535644,-11.69458,-16.147453,-10.971267,-14.959007,-18.144264,-20.535461,-24.720925,-51.731655,-72.876237,-84.332754,-54.420891,-90.520991,-105.664137,-113.828178,-48.941296,-89.292961,-106.574326,-115.236708,-42.909491,-80.958699,-98.198019,-108.056719,-37.134456,-66.114425,-79.274265,-88.285058,-14.631369,-19.348692,-17.048155,-13.77689,-25.547654,-21.509663,-15.874798,-12.495724,-15.352078,-9.952355,-4.426564,-1.416625,-3.166243,1.881122,4.723194,5.263996,10.105596,10.197155,9.743757,8.832206,-27.174414,-52.189311,-72.879633,-87.063539,-37.485189,-75.377952,-93.556567,-102.806738,-29.119141,-73.18342,-94.758912,-103.618784,-24.944001,-66.58528,-86.543739,-95.403429,-24.257238,-56.451507,-72.344331,-80.36699,202.684192,75.606661,-223.780752,60.273326
48,-2.995994,24.717226,0.902069,22.790318,14.280144,19.167641,13.44667,5.223495,22.930115,15.524689,7.714783,2.296966,14.146866,7.034363,0.113685,-5.133843,3.538833,-0.181755,-5.148239,-8.901215,-7.025803,-7.850716,-8.863426,-9.454491,-23.101619,-49.364076,-71.06766,-83.259754,-46.577755,-81.524703,-96.743049,-105.571974,-40.104157,-80.168059,-97.990049,-107.372505,-34.830733,-73.934034,-91.637908,-101.693215,-31.288439,-62.494016,-76.074179,-84.670726,-15.777998,-22.565123,-21.325957,-18.624768,-31.035553,-24.745194,-17.661736,-14.192929,-20.715626,-13.906746,-8.524521,-6.20901,-7.884573,-2.727986,-0.431923,-0.827019,6.316263,5.247951,4.724424,3.386467,-25.193165,-50.148492,-71.474169,-85.054286,-30.567692,-68.282893,-86.798961,-96.490524,-20.747509,-65.871493,-88.662288,-98.580414,-17.092468,-60.601283,-82.310799,-92.490286,-18.315725,-52.729298,-69.629827,-78.478207,199.485518,99.263833,-223.081363,82.00359
49,-2.675057,13.839132,1.41521,10.083879,15.077454,21.669411,16.083023,7.434151,24.974648,18.719994,11.341851,5.981186,15.528443,8.840882,2.865258,-1.859985,4.006142,0.336777,-3.139778,-5.913574,-7.350471,-7.11193,-7.095817,-6.861763,-20.26969,-45.239037,-66.610886,-77.966385,-40.190404,-73.704427,-89.507951,-99.496605,-32.636914,-72.247642,-90.88588,-101.837446,-27.590325,-66.945863,-84.898437,-95.604773,-25.323165,-57.298491,-70.704864,-79.07307,-13.888933,-20.799047,-19.80752,-17.437339,-30.912323,-25.722919,-18.391822,-14.979606,-21.475524,-15.353725,-9.434463,-6.932104,-8.99624,-4.092395,-1.530738,-2.030284,5.206095,4.121075,3.752764,2.391312,-25.782887,-50.562213,-72.354786,-86.289096,-25.860798,-63.670692,-82.820906,-93.247923,-15.022393,-60.678653,-84.711762,-95.112832,-11.276832,-55.527351,-78.381922,-89.219274,-13.165166,-48.30128,-65.916181,-75.087633,196.841966,111.799621,-221.634648,90.784125
50,-2.379707,12.303263,2.846713,5.216332,21.763252,30.487747,23.743607,12.878128,34.757263,25.831741,16.156036,9.302284,20.237892,11.104431,3.823952,-1.810913,2.900894,-2.682381,-6.16999,-8.925613,-14.27726,-13.621811,-12.381821,-10.964081,-18.781449,-43.983867,-65.913822,-77.62296,-33.010745,-68.551534,-89.027878,-103.502965,-23.948384,-66.439639,-90.915773,-107.758723,-19.268808,-61.939695,-85.646135,-101.513713,-18.862034,-54.357442,-71.58845,-83.728415,-16.095326,-24.663437,-24.00626,-21.613759,-35.292012,-29.842072,-22.12872,-18.471394,-24.067051,-17.118977,-11.426331,-8.867524,-9.548745,-4.154057,-1.877884,-2.585038,6.478214,5.109237,4.46965,2.821895,-23.904998,-48.047995,-69.616408,-83.531919,-24.48925,-61.266017,-81.561568,-93.957457,-13.991569,-59.189468,-84.244593,-96.481524,-10.45863,-54.348588,-78.360631,-91.123181,-12.76465,-48.248135,-66.052131,-76.025335,195.206915,122.739818,-218.043279,94.637391
51,-1.334289,0.131436,3.176399,0.137592,21.91024,31.267639,26.181266,16.350654,34.973854,26.575767,16.773902,9.641052,20.404747,10.574638,3.378021,-2.262703,2.743972,-3.955079,-6.983895,-9.243439,-14.837128,-14.089303,-12.628052,-10.733986,-18.260504,-42.37874,-63.11643,-74.026425,-34.136857,-66.98405,-87.929388,-103.972139,-24.65986,-65.407753,-90.531056,-109.318891,-19.751536,-61.517452,-85.65567,-102.981804,-19.315115,-54.888397,-72.191715,-85.160252,-21.341446,-31.715241,-30.4991,-27.294514,-41.931965,-35.083019,-26.812809,-22.726662,-27.554146,-18.861191,-13.221131,-10.325821,-9.75927,-3.21991,-1.094353,-1.999592,9.037033,7.584343,6.566711,4.69574,-21.696155,-45.742976,-67.226043,-81.198099,-27.810872,-63.391126,-85.00616,-99.485582,-18.188633,-62.864173,-88.7645,-103.110455,-14.697326,-58.131621,-82.984606,-97.696129,-16.64846,-52.496631,-70.500402,-81.376632,194.568512,121.876896,-214.170994,93.780625
52,-0.361611,-1.52936,1.69313,-2.614704,22.31369,31.970375,28.194351,18.969818,35.209808,26.874848,17.355515,10.585007,20.17923,10.076866,3.219727,-1.840324,2.173805,-4.684822,-7.203689,-9.053856,-15.679733,-14.437157,-12.404915,-10.126305,-17.978478,-41.825573,-61.923752,-72.908693,-35.054233,-67.26502,-88.452815,-104.948049,-25.943942,-66.61175,-91.76386,-111.267666,-21.323868,-63.246544,-87.612454,-105.429368,-20.948154,-56.571004,-74.253487,-87.904299,-22.751301,-33.933758,-32.990535,-30.166214,-44.960529,-37.425876,-28.844124,-24.371486,-30.206657,-20.09832,-14.782562,-11.831062,-11.810188,-3.727627,-1.566593,-2.475803,7.579674,6.55037,5.793228,4.001255,-20.564677,-44.234117,-65.02779,-77.937393,-29.911177,-64.334666,-86.351627,-101.874483,-20.824289,-65.154255,-91.093158,-106.697579,-17.39456,-60.551293,-85.701544,-101.733365,-19.250561,-55.344992,-73.069027,-84.392052,194.626716,119.908417,-212.058049,90.726802
53,0.075714,-2.173213,-0.183403,-3.697194,22.384529,32.098229,28.697342,19.908577,35.462425,26.99865,17.473549,10.696564,20.148079,9.746063,2.886475,-2.106491,1.92334,-5.069412,-7.505928,-9.247993,-16.192566,-14.779953,-12.476211,-9.993782,-18.231982,-42.372219,-62.421392,-73.779016,-36.327564,-68.531978,-89.910601,-106.221361,-27.439321,-67.990662,-92.930091,-112.295002,-22.831591,-64.694666,-89.071845,-106.907,-22.200014,-57.759279,-75.540199,-89.395436,-22.979347,-34.018512,-33.089847,-30.280483,-45.018299,-37.701233,-29.038742,-24.332691,-30.303303,-20.388885,-14.977924,-11.874687,-11.79594,-3.979477,-1.768306,-2.444229,7.702481,6.46011,5.695473,4.007756,-20.625311,-44.157788,-64.894373,-77.772051,-30.743919,-65.226374,-87.137007,-102.581897,-22.03167,-66.364168,-92.220634,-107.66842,-18.605436,-61.784776,-86.952657,-103.050218,-20.243619,-56.208041,-74.122416,-85.74598,194.869549,117.559243,-212.074333,86.853647
54,-0.096473,-2.013582,1.642422,-1.24508,22.108131,31.807685,28.512428,20.214294,35.83461,26.964317,17.205093,10.311882,20.56826,9.911567,2.813163,-2.259408,2.422622,-4.708764,-7.439438,-9.27324,-15.633408,-14.477303,-12.327256,-9.980324,-18.392385,-43.046342,-63.516332,-75.311544,-37.484933,-70.177034,-91.503811,-107.626282,-28.934897,-69.761942,-94.384585,-113.433828,-24.31199,-66.231343,-90.478964,-108.248195,-23.433911,-58.904712,-76.492063,-90.27604,-25.150085,-36.984169,-36.340141,-33.685638,-47.819572,-39.531773,-31.308174,-27.048718,-31.937462,-20.725376,-16.28595,-13.486393,-12.434303,-3.649784,-1.895565,-2.794327,7.767723,6.40765,5.588562,3.794495,-18.927391,-41.988471,-62.149437,-74.122879,-30.590685,-63.972643,-86.207638,-102.772699,-22.351988,-66.235486,-92.145768,-108.614035,-19.337037,-62.245638,-87.835058,-105.021482,-21.456305,-57.709632,-75.356522,-87.302041,194.885382,115.438005,-210.319605,85.500911
55,-0.703103,-1.906427,0.704784,-0.639129,21.898293,31.793313,28.233559,19.731102,36.850251,27.335175,17.276848,10.310921,21.436272,10.561409,3.138222,-2.127548,3.208832,-4.001266,-7.260772,-9.445518,-14.872352,-14.060096,-12.148567,-10.106941,-18.289157,-43.112304,-64.141166,-76.140456,-37.756906,-71.589753,-92.74442,-108.507497,-29.302818,-70.978671,-95.486755,-114.09137,-24.733893,-67.156883,-91.334596,-108.81347,-23.995772,-59.82036,-77.185533,-90.549396,-25.554371,-37.07809,-36.005619,-33.144207,-48.198578,-39.515545,-31.560939,-27.720142,-32.324558,-20.979332,-16.671478,-13.845646,-12.893291,-3.918502,-2.120636,-3.081173,7.206952,5.908333,5.191269,3.417595,-18.816419,-42.08884,-62.505181,-74.265621,-30.675073,-64.282136,-86.379138,-102.899627,-22.361282,-66.60418,-92.431722,-108.801108,-19.44389,-62.888114,-88.477485,-105.527972,-21.761679,-58.51348,-76.199953,-88.0772,194.357877,113.52762,-209.439223,84.857824
56,-1.066589,-1.168589,0.703354,0.368323,21.858215,32.337685,28.21843,18.945465,38.008713,27.788063,17.500351,10.496521,22.302383,11.468079,3.797585,-1.709427,3.911018,-3.180977,-6.733429,-9.185783,-14.067696,-13.560539,-11.813965,-9.998405,-18.157684,-43.023643,-64.515516,-76.405767,-37.592114,-72.421588,-93.309152,-108.735751,-29.076868,-71.473089,-95.92062,-114.11181,-24.454683,-67.193038,-91.24094,-108.397402,-23.89896,-59.985147,-77.113822,-89.969196,-25.428634,-36.814522,-35.429477,-32.23431,-48.388675,-39.318741,-31.461033,-27.913879,-32.43378,-20.892185,-16.744949,-14.106319,-12.969143,-3.96056,-2.255356,-3.442417,7.191582,5.924629,5.200653,3.181423,-18.561483,-42.03973,-62.743921,-74.373617,-30.111002,-64.324608,-86.222317,-102.546575,-21.625408,-66.429204,-92.125131,-108.236289,-18.807663,-62.863661,-88.564751,-105.474224,-21.484877,-58.88649,-76.517653,-88.210137,193.519701,112.396421,-208.507456,85.263537
57,-1.265144,-0.279495,0.739781,0.877541,22.002502,32.998581,28.616203,18.662109,39.052986,28.36679,17.896476,10.777015,23.145355,12.439384,4.567863,-1.233696,4.6436,-2.377053,-6.076905,-8.684098,-13.224839,-12.941277,-11.275475,-9.566323,-18.264784,-43.042409,-64.778523,-76.597749,-37.289431,-72.517807,-93.253465,-108.519013,-28.637303,-71.402224,-95.881767,-113.867593,-23.995105,-66.868478,-90.811484,-107.804864,-23.70941,-60.123567,-77.012453,-89.414418,-25.552563,-36.722397,-35.141041,-31.927277,-48.256394,-39.117245,-31.635887,-28.537102,-32.293888,-20.875431,-16.9907,-14.482064,-12.875073,-4.063557,-2.542912,-3.967221,7.168579,5.680698,4.915901,2.8362,-18.371285,-42.11556,-63.086172,-74.750683,-29.556915,-64.003672,-85.783111,-101.990297,-20.918422,-66.121199,-91.830946,-107.770567,-18.205411,-62.774765,-88.572432,-105.300514,-21.120549,-58.988471,-76.710481,-88.36794,192.604168,112.119485,-207.418064,86.143637
58,-0.750412,0.317341,0.306896,1.060242,22.035026,33.218559,28.710685,18.28878,39.586441,28.489837,18.079376,11.026748,23.710899,13.07785,5.250686,-0.603356,5.169777,-1.8051,-5.594948,-8.323242,-12.649796,-12.412171,-10.717346,-9.028977,-18.19487,-42.856576,-64.635508,-76.238651,-37.045955,-72.565867,-93.164365,-108.20884,-28.326501,-71.470538,-96.039884,-113.76434,-23.727842,-66.83717,-90.851812,-107.703846,-23.672335,-60.403011,-77.267852,-89.451282,-25.668263,-36.645401,-34.864769,-31.698303,-47.845436,-38.837631,-31.730255,-28.86993,-31.778767,-20.624874,-17.130261,-14.771542,-12.405773,-3.738991,-2.523045,-4.186787,7.464798,5.819675,4.803108,2.656414,-18.184132,-41.949037,-62.904231,-74.481173,-29.118116,-63.823139,-85.688181,-101.866246,-20.587748,-66.265262,-92.209741,-108.118982,-18.011866,-62.994436,-88.925181,-105.528762,-21.051179,-59.191605,-77.100545,-88.714551,192.285141,112.418403,-206.679783,87.185456
59,-0.560463,0.549381,0.235153,0.724011,22.380935,33.723152,29.109031,18.214027,39.632881,28.541038,18.312927,11.456703,23.687851,13.371826,5.784988,0.104667,5.134094,-1.516434,-5.198982,-7.874565,-12.59848,-12.000412,-10.168808,-8.447663,-18.141116,-42.68717,-64.479687,-75.711494,-36.698331,-72.566712,-93.184947,-108.19507,-27.98985,-71.498721,-96.186727,-113.752663,-23.53273,-67.007879,-91.021644,-107.702308,-23.710404,-60.826551,-77.734154,-89.776126,-25.708214,-36.674023,-34.808979,-31.490765,-47.393955,-38.738331,-31.73735,-28.715561,-31.120846,-20.429466,-17.159214,-14.798778,-11.676224,-3.342029,-2.51104,-4.282722,8.116882,6.117039,4.758499,2.575058,-17.830481,-41.55736,-62.580461,-74.154909,-28.912203,-63.8479,-85.739521,-101.812887,-20.70989,-66.646738,-92.68982,-108.544732,-18.301445,-63.5225,-89.356205,-105.782926,-21.412326,-59.67926,-77.626838,-89.224961,192.137329,112.892038,-206.031979,87.833721
60,-0.225746,0.838614,-0.240189,0.67931,22.665802,33.92942,29.336105,18.409629,39.34964,28.144546,18.010093,11.272453,23.500099,13.133743,5.690826,0.131309,5.014022,-1.607254,-5.289345,-7.962525,-12.664032,-12.06894,-10.220742,-8.436905,-18.2212,-42.776338,-64.514002,-75.526138,-37.044516,-72.864078,-93.388674,-108.290357,-28.316892,-71.830802,-96.440762,-113.800939,-23.746985,-67.228847,-91.183029,-107.744805,-23.759625,-60.905055,-77.813577,-89.820025,-25.695201,-36.600116,-34.685897,-31.100109,-46.685749,-38.105175,-31.11763,-27.944286,-30.139125,-19.47623,-16.399028,-14.090789,-10.596038,-2.313079,-1.85107,-3.682525,9.112324,7.070572,5.376458,3.096451,-17.949146,-41.698768,-62.687604,-74.353479,-29.259864,-64.451739,-86.335832,-102.38054,-21.1889,-67.327943,-93.371421,-109.146483,-18.858884,-64.129315,-89.874204,-106.157881,-21.966011,-60.202965,-78.201765,-89.817221,192.297449,113.615361,-205.886302,88.39774
61,-0.063218,0.777907,-0.448711,0.325308,22.708741,33.638718,28.967515,18.206887,38.81765,27.647896,17.651917,11.057946,23.258721,12.888062,5.501061,-0.015289,4.987061,-1.648017,-5.393371,-8.112693,-12.686462,-12.310295,-10.549552,-8.809661,-18.617792,-43.181087,-64.780881,-75.638505,-37.601666,-73.179944,-93.61121,-108.376443,-28.868953,-72.11478,-96.607933,-113.820113,-24.193478,-67.474823,-91.249133,-107.716566,-24.033699,-61.005943,-77.896514,-89.871123,-25.219448,-36.126961,-34.359054,-30.73859,-45.721893,-37.581814,-30.531235,-26.99873,-28.968544,-18.935417,-15.783211,-13.078022,-9.430092,-1.754093,-1.357052,-2.656368,10.061977,7.791481,5.967373,3.922394,-17.936463,-41.248349,-62.164591,-74.260756,-29.437126,-64.702724,-86.513933,-102.737483,-21.825177,-67.52943,-93.468561,-109.430746,-19.668976,-64.352636,-90.005375,-106.471944,-22.843793,-60.518813,-78.537002,-90.438876,192.583145,114.204969,-205.986099,88.534749
62,-0.006614,0.652183,-0.572319,0.421273,22.634399,33.189789,28.207855,17.303535,38.158722,27.038383,17.183075,10.815811,22.782875,12.475708,5.185753,-0.251953,4.657127,-1.921578,-5.700829,-8.491974,-12.972107,-12.721161,-11.021439,-9.381088,-18.559679,-43.110068,-64.59114,-74.823462,-38.099602,-73.830756,-94.105664,-108.724654,-29.445968,-72.584842,-96.882302,-113.83221,-24.680824,-67.821002,-91.431321,-107.727965,-24.301559,-61.111949,-78.027851,-90.041147,-24.593079,-35.508923,-33.762966,-30.000378,-44.987789,-37.066818,-29.775581,-25.857719,-28.059895,-18.383984,-15.038795,-12.053032,-8.473926,-1.288444,-0.808777,-1.566811,10.931934,8.572975,6.691681,4.758396,-18.069584,-40.954454,-61.716739,-74.147579,-29.607439,-64.753581,-86.448211,-102.808051,-22.337056,-67.259573,-92.955439,-109.059465,-20.295038,-64.116922,-89.653045,-106.340903,-23.521744,-60.511285,-78.459017,-90.568829,192.854216,114.615986,-206.280733,88.714856
63,-0.338906,0.761871,-0.509342,0.416519,22.446511,32.926369,27.795411,16.658593,37.676239,26.556633,16.659806,10.288697,22.474984,12.125817,4.826455,-0.643867,4.505173,-2.149223,-5.99089,-8.905036,-13.075859,-13.090278,-11.519943,-9.973159,-18.778128,-43.415714,-64.840421,-74.416663,-38.52247,-74.393692,-94.688335,-109.462164,-29.77876,-72.893225,-97.268681,-114.290343,-24.824073,-67.898487,-91.561226,-107.89216,-24.246028,-61.080352,-78.108158,-90.191417,-23.959591,-34.974827,-33.467056,-29.680493,-44.382042,-36.681084,-29.156948,-24.920494,-27.323582,-17.968025,-14.467472,-11.337135,-7.694801,-0.991768,-0.45314,-0.863457,11.65353,9.12656,7.293777,5.518421,-17.936401,-40.505788,-61.235105,-74.02958,-29.388812,-64.546199,-86.183302,-102.595839,-22.385296,-66.69134,-92.123519,-108.23367,-20.402169,-63.557994,-89.000764,-105.861615,-23.614611,-60.07663,-77.929464,-90.193707,192.782117,115.161338,-206.523268,88.914856
64,-0.684059,1.064095,-0.280712,0.877863,22.187416,32.573845,27.688706,16.593041,37.079727,26.135903,16.230423,9.763802,22.256401,11.739212,4.445687,-1.146949,4.588188,-2.356567,-6.179649,-9.207115,-12.787742,-13.248893,-11.797851,-10.253563,-18.965428,-43.498713,-64.601101,-73.759484,-38.943335,-74.70947,-94.913174,-109.79369,-30.232341,-73.108375,-97.531336,-114.701748,-25.168615,-67.948554,-91.647942,-108.024423,-24.416409,-61.139293,-78.161918,-90.181394,-23.549069,-34.448799,-32.743721,-28.911015,-44.006768,-36.238804,-28.525727,-24.238266,-27.020806,-17.481732,-13.793793,-10.655743,-7.419571,-0.697987,0.17752,-0.028565,11.914444,9.567993,7.952213,6.215481,-18.159358,-40.781701,-61.568712,-74.49043,-29.289524,-64.349277,-86.04555,-102.530903,-22.077798,-66.014778,-91.323648,-107.403999,-19.953047,-62.764675,-88.252948,-105.27004,-23.066144,-59.2981,-77.197889,-89.630927,192.405819,116.064218,-206.496219,89.631504
65,-0.993347,0.956428,0.177772,1.465646,22.0914,32.536743,27.891358,16.894455,36.817886,25.969231,16.096115,9.595184,22.149147,11.428047,4.088585,-1.574867,4.650101,-2.572723,-6.404228,-9.498779,-12.664879,-13.36425,-12.016182,-10.533302,-19.416892,-43.855495,-64.718427,-73.653199,-39.134972,-74.616481,-94.885782,-109.946041,-30.327727,-72.891187,-97.418018,-114.888815,-25.156297,-67.730563,-91.502323,-108.037416,-24.317856,-60.986245,-78.130882,-90.308885,-23.215564,-33.895111,-32.048435,-28.372604,-43.930229,-36.007896,-28.29665,-24.216316,-27.249401,-17.437603,-13.56237,-10.494873,-7.829693,-0.799335,0.46122,0.229409,11.505558,9.471314,8.171677,6.459412,-18.288799,-40.984391,-61.729534,-74.564487,-29.247262,-64.034202,-85.757997,-102.292948,-21.718966,-65.427032,-90.73337,-106.794349,-19.389667,-62.119019,-87.776087,-104.956583,-22.447424,-58.813501,-76.671455,-89.040945,191.772251,116.881165,-205.958668,90.957669
66,-0.82093,1.319643,-1.776489,-1.002741,21.886665,32.393554,27.986641,16.9953,36.329704,25.435043,15.52034,9.024467,21.736152,10.536918,3.170105,-2.521546,4.303276,-3.387864,-7.18142,-10.259148,-12.885933,-13.793427,-12.463509,-10.958702,-19.441061,-43.973796,-64.749654,-73.442673,-39.346794,-74.845235,-95.189551,-110.477551,-30.507766,-73.068521,-97.683285,-115.318116,-25.263285,-67.896887,-91.768183,-108.331699,-24.337468,-61.151655,-78.447328,-90.760873,-18.534542,-27.418396,-25.914288,-22.742134,-37.956699,-30.949116,-23.662479,-19.971897,-24.296345,-15.223309,-10.618481,-7.79718,-7.635292,-0.947514,0.858616,0.541637,9.518566,8.159077,7.341843,5.615456,-19.596098,-43.191832,-64.065367,-77.028859,-27.323631,-62.914858,-84.395677,-100.248669,-19.391772,-63.159859,-88.417722,-103.752085,-16.870688,-59.734501,-85.052868,-101.291164,-19.542072,-55.592488,-73.531513,-85.368746,191.432986,118.126256,-207.253492,89.880376
67,-0.923333,1.530361,-0.869785,-0.965832,21.547303,32.148377,27.987168,17.279755,35.730607,24.798661,14.851296,8.350274,21.214829,9.57129,2.133568,-3.582412,3.825898,-4.325202,-8.138511,-11.192092,-13.320419,-14.56565,-13.240196,-11.639831,-19.803364,-44.600452,-65.408742,-74.008993,-39.666458,-75.261464,-95.687568,-111.112988,-30.801841,-73.461421,-98.18938,-115.943154,-25.432791,-68.253892,-92.234992,-108.786337,-24.341457,-61.256434,-78.602063,-90.843218,-17.698769,-26.013691,-23.958412,-20.45818,-34.996983,-28.546212,-21.656468,-18.235108,-21.494179,-12.946381,-8.410252,-5.837998,-5.29636,0.992191,2.700187,2.145538,11.198948,10.32193,9.268341,7.360977,-17.745956,-40.854807,-61.347015,-74.116333,-25.274276,-60.496347,-81.516873,-96.744271,-17.738948,-60.531576,-85.178969,-100.098572,-15.4028,-57.234227,-81.741953,-97.433313,-17.862955,-52.903282,-70.299997,-81.684198,191.281974,119.613651,-207.350956,88.871578
68,-1.376335,1.290009,-0.406517,-0.574118,21.650368,32.096237,28.106552,17.931427,35.280327,24.464791,14.580506,8.130753,20.587006,8.887574,1.353974,-4.357727,3.15786,-5.062019,-9.012726,-12.128814,-13.997245,-15.418991,-14.179573,-12.634163,-20.088965,-44.874815,-65.713801,-74.685907,-40.010889,-75.597244,-96.008682,-111.399028,-31.286841,-73.736315,-98.386864,-116.081345,-25.895554,-68.502548,-92.458373,-109.006909,-24.639637,-61.346972,-78.680961,-91.009659,-17.051789,-24.557648,-21.483445,-17.41507,-31.952683,-25.661648,-18.987477,-15.735146,-18.748856,-10.303528,-5.844601,-3.490723,-3.027455,3.239708,4.843036,4.140415,12.845798,12.569412,11.260048,9.252582,-16.309877,-39.19474,-59.321188,-71.779092,-23.556714,-58.180306,-78.786122,-93.547749,-16.152339,-57.857092,-82.066464,-96.875713,-13.871242,-54.683892,-78.551081,-93.856903,-16.137606,-50.309487,-67.425392,-78.540509,190.776775,120.844522,-206.886337,88.238322
69,-1.6539,1.011027,0.471862,-0.312241,21.4021,31.445,27.333481,17.717331,34.797341,23.792702,13.812813,7.288605,19.76976,8.052429,0.267815,-5.509849,2.140022,-6.14479,-10.478668,-13.794594,-15.18528,-16.803657,-15.773895,-14.351257,-20.743995,-45.743618,-66.852058,-76.697896,-40.689316,-76.165478,-96.446147,-111.640256,-31.725571,-73.86333,-98.501843,-116.186685,-26.002061,-68.218514,-92.319892,-109.127576,-24.336455,-60.584305,-78.117674,-90.85645,-16.486713,-23.397457,-19.848747,-15.391468,-29.460823,-23.125442,-16.632167,-13.297187,-16.412555,-7.955074,-3.542415,-1.450412,-1.105979,5.174057,6.706959,5.828465,14.198285,14.482785,13.133996,11.084164,-14.769179,-37.006034,-56.704866,-69.102305,-22.878657,-56.631321,-76.688738,-91.055292,-15.962741,-56.136972,-79.664879,-94.310311,-13.595285,-52.896496,-75.851878,-90.601143,-15.173509,-48.038165,-64.80794,-75.641253,190.12437,121.777157,-205.41298,87.847689
70,-1.837715,0.983005,0.794003,-0.835403,20.850563,29.79229,24.875862,15.173904,33.125633,21.838348,11.591446,4.873283,18.042023,6.170792,-2.030823,-8.124023,0.290611,-8.380005,-13.115799,-16.690773,-17.221619,-19.218201,-18.501183,-17.270554,-21.292882,-46.447746,-67.595793,-77.981125,-42.00402,-77.563396,-97.45158,-112.253752,-32.842148,-74.737549,-99.172619,-116.477573,-26.709733,-68.519245,-92.467383,-109.180854,-24.406857,-60.321878,-77.920641,-90.853147,-16.079212,-22.108452,-17.61113,-12.269463,-26.08366,-19.437572,-12.842548,-9.088211,-13.033676,-4.257648,0.191654,2.251671,1.921417,8.371078,9.830166,8.979973,16.504211,17.625011,16.192268,14.183144,-13.954395,-35.80973,-55.185003,-67.45631,-21.291029,-54.671536,-74.152741,-88.091612,-14.503158,-53.539756,-76.624388,-91.1226,-11.886849,-49.878827,-72.03464,-86.276854,-12.639222,-44.220624,-60.774712,-71.370928,189.236692,122.705707,-203.66894,86.957831
71,-2.171928,1.45069,4.443214,2.424995,20.21656,27.058021,19.894157,9.35543,29.703735,17.429855,6.846542,0.035293,14.502548,1.674865,-7.23816,-13.562004,-3.205468,-13.189614,-18.754074,-22.668274,-20.730194,-23.895745,-23.966927,-23.141694,-22.752156,-48.954183,-70.379353,-81.069325,-44.368597,-79.630441,-99.041745,-113.585079,-34.7094,-75.969148,-100.319676,-117.464561,-27.735377,-68.899825,-92.818403,-109.518894,-24.285542,-59.765143,-77.666074,-91.071286,-20.580047,-27.014499,-20.598358,-13.799663,-29.466293,-20.724426,-13.449989,-9.335151,-13.708774,-2.115669,1.971611,3.979386,3.740731,12.40757,13.692593,12.638283,20.327076,22.808236,21.347477,19.279324,-12.832298,-34.110996,-53.058727,-64.53685,-21.86043,-53.979284,-73.215457,-87.514111,-14.512212,-52.855272,-75.874899,-90.903393,-11.291835,-48.455512,-70.390783,-85.079477,-11.478797,-42.868742,-58.978906,-69.572454,188.022263,124.103845,-198.268227,89.330274
72,-2.533104,2.05472,4.279587,2.818999,18.941436,22.681228,12.90612,1.542114,23.742485,9.886985,-0.924019,-7.86097,8.712661,-5.866631,-15.686783,-22.35727,-8.41523,-20.460663,-27.460373,-32.088707,-25.275055,-30.58326,-32.316147,-32.588311,-24.26438,-50.579324,-71.129015,-81.409477,-47.200465,-81.806828,-100.740381,-115.428143,-37.18109,-77.215111,-101.095829,-117.946306,-29.169338,-68.920579,-92.390991,-108.787059,-24.073898,-58.541502,-76.584528,-90.465996,-19.231521,-23.813873,-15.222565,-6.895855,-27.667419,-15.06998,-6.854862,-2.867855,-12.144596,2.728958,7.532627,8.822365,5.159088,16.828732,18.589806,17.05933,21.732983,25.621136,24.739575,22.965363,-16.643842,-39.69847,-59.130818,-69.75087,-24.36323,-58.084389,-75.96172,-88.204227,-15.088355,-55.209562,-77.309732,-90.033373,-10.337106,-49.564327,-70.609059,-83.119532,-9.329179,-42.276099,-58.389628,-67.7141,186.705145,126.175487,-192.772654,92.166195
73,-2.942505,2.571226,5.245297,0.438372,16.611534,16.928581,4.416275,-7.997292,15.272712,-1.108017,-12.857323,-20.415299,0.577537,-17.21109,-28.831421,-36.488228,-15.563095,-31.071305,-39.954369,-45.488594,-31.17849,-39.598641,-43.289246,-44.98082,-25.675223,-51.692215,-70.765596,-80.023891,-50.146065,-83.291766,-101.425793,-115.953776,-39.505605,-77.403537,-100.20001,-116.414576,-30.169171,-67.495566,-89.889297,-105.492002,-23.208683,-55.767643,-73.34002,-87.131314,-16.769978,-18.957527,-9.476601,-0.64848,-24.104267,-9.834252,-0.829171,3.546569,-9.876137,6.551376,13.425464,15.667865,6.384246,19.581321,23.451107,23.23954,22.422111,28.013466,28.731674,27.858535,-20.399076,-43.490093,-62.283225,-71.867198,-23.748566,-56.354315,-72.995434,-84.314272,-12.542373,-50.789029,-72.383098,-84.26292,-6.115063,-43.395701,-64.432134,-76.684582,-3.702475,-34.586603,-50.830358,-60.172244,185.075209,128.764982,-186.214788,92.622836
74,-4.100853,3.796761,7.650535,5.991019,14.35524,10.686607,-4.88752,-18.784493,5.465355,-14.164581,-27.289353,-36.033463,-8.791237,-30.598046,-44.544205,-53.897392,-23.67421,-43.514099,-54.819786,-61.889076,-37.614075,-49.7593,-55.640259,-59.118118,-27.435597,-53.286475,-70.286876,-77.57792,-52.483942,-83.386719,-100.481722,-114.761628,-40.993166,-76.070314,-97.27853,-112.573521,-30.327443,-64.820402,-85.65575,-100.239061,-21.684343,-52.040351,-68.610358,-81.960427,-14.258526,-13.427192,-2.84769,6.025715,-11.963688,-0.078563,6.422985,9.361222,1.442162,14.326538,18.695114,19.92342,15.20747,25.479573,27.090775,26.225716,28.072048,31.665997,31.07769,29.840287,-24.008542,-48.076883,-66.276421,-75.112127,-35.281944,-61.788975,-72.749371,-79.718498,-24.291464,-55.203251,-70.399595,-77.756922,-16.549957,-46.54646,-61.538491,-69.515199,-11.837746,-36.975968,-48.68781,-54.891683,182.126003,132.608732,-177.412606,98.660844
75,-4.858589,4.861795,7.762642,5.688096,9.547897,1.260566,-16.661499,-31.239899,-6.736107,-29.624291,-44.585564,-55.248116,-19.37352,-44.838707,-61.442963,-73.227562,-31.77784,-55.475235,-69.81221,-79.311287,-42.864853,-58.603455,-67.296914,-73.587067,-30.074396,-55.675734,-71.137771,-77.487517,-54.014259,-80.618349,-95.912253,-109.409195,-41.591194,-71.921872,-90.68416,-104.701627,-29.460918,-59.489007,-78.001614,-91.175366,-18.983695,-45.660453,-60.568565,-73.071572,-10.783447,-7.392437,4.500481,13.680267,-3.665153,9.247753,14.561588,16.174118,8.858666,22.013832,25.101242,25.265499,20.818108,31.665505,31.65913,29.870018,31.752194,35.900654,34.112091,31.8013,-25.918748,-49.718554,-67.250546,-76.196118,-37.515839,-61.853412,-70.656507,-74.937126,-25.628823,-53.838851,-66.137378,-70.841302,-16.593009,-44.471326,-56.775108,-62.148919,-10.50453,-33.658032,-43.608005,-48.185434,178.504212,137.518112,-168.413166,104.396525
76,-5.620629,5.569838,7.845383,11.294854,3.098442,-9.627319,-28.575988,-43.268692,-19.164184,-45.09098,-62.230705,-75.399994,-29.309486,-57.955513,-77.286873,-92.168243,-38.480758,-65.424316,-82.640785,-95.034851,-45.932899,-64.446991,-75.574928,-84.710403,-31.062292,-54.741944,-68.176061,-74.423406,-53.279522,-74.502224,-87.263132,-99.084359,-40.313547,-64.792658,-79.880889,-91.367676,-27.090968,-51.61428,-66.759779,-77.650551,-15.037115,-36.871894,-49.221371,-59.820588,-4.326473,2.866264,15.201176,23.811378,12.583683,26.17036,28.113773,27.07354,22.70216,35.255756,35.285889,33.448311,30.64357,41.040058,38.59544,35.49535,36.988003,41.637932,38.407951,35.06464,-27.21968,-51.376448,-68.807823,-78.383349,-44.95154,-66.818466,-71.107051,-70.962981,-34.373212,-58.744377,-65.011661,-64.601138,-25.030313,-48.600514,-55.475292,-56.015633,-17.118604,-36.61931,-43.217668,-44.711392,174.009201,143.08377,-159.442165,115.687199
77,-12.440506,6.453498,7.376644,13.839935,-3.997101,-20.775169,-40.917709,-56.109741,-30.347992,-61.123558,-79.008453,-91.494026,-38.035652,-71.466018,-91.325706,-105.319519,-44.174492,-75.607795,-94.103485,-106.394279,-48.219246,-71.377693,-84.304573,-94.254547,-31.818443,-53.212442,-64.245536,-69.802906,-49.014822,-65.351288,-75.047307,-83.882142,-34.836958,-53.901311,-65.697066,-74.431396,-20.9258,-40.506819,-52.07834,-60.182557,-8.457991,-25.408874,-35.026248,-43.28195,0.447973,11.239683,23.711025,31.355341,25.708832,40.632958,41.231867,39.355871,33.578247,47.829185,47.074722,45.286869,38.376772,50.79261,48.129656,45.275293,41.314236,49.013243,46.063568,42.479319,-27.143258,-50.011137,-66.459011,-76.594356,-47.595149,-64.859336,-67.28818,-66.375932,-37.472163,-56.579137,-60.179429,-58.9186,-27.564331,-45.65342,-50.242924,-49.984158,-18.179807,-33.670011,-38.689838,-39.742769,162.07937,149.359167,-151.554846,129.349033
78,-11.006698,7.489794,6.124008,18.719724,-9.866478,-29.628228,-50.399048,-65.950997,-39.349137,-71.782357,-90.545815,-103.747101,-44.973793,-79.992371,-100.995713,-116.196923,-48.686806,-81.701203,-101.899544,-115.930619,-50.110268,-75.516632,-90.52787,-102.362114,-32.289457,-51.478922,-60.547582,-65.969534,-43.820673,-54.395024,-60.748153,-66.916754,-28.48996,-41.088032,-49.172254,-55.507019,-13.674425,-27.535071,-35.681407,-41.834311,-0.348766,-11.954028,-18.690571,-25.266953,4.534922,18.985399,33.60062,41.870138,35.947243,56.978668,58.664869,56.87863,42.961327,63.432999,63.26445,61.292942,46.162016,64.961552,62.818091,59.617453,46.978798,59.714098,57.632847,54.039866,-27.38114,-49.939908,-66.145918,-76.808019,-50.253925,-65.142363,-66.693184,-65.006827,-39.327047,-56.668496,-58.824916,-56.776633,-28.293913,-45.149179,-48.275105,-46.947131,-17.543728,-32.982303,-37.480827,-37.994665,151.306921,156.582026,-145.196589,147.801822
79,-9.723656,10.280394,2.552891,15.184068,-15.218925,-37.628128,-59.133865,-75.296082,-46.578003,-78.972496,-97.631813,-110.832161,-50.250687,-85.564178,-107.350822,-123.568508,-51.781494,-85.11573,-106.27272,-121.29261,-50.939026,-77.093948,-93.427643,-106.857925,-31.934312,-48.584212,-56.344769,-61.986694,-38.832136,-44.710793,-48.389383,-52.419931,-22.935486,-30.027571,-34.904322,-39.031522,-7.740513,-15.960536,-20.601636,-24.405375,5.824348,-0.700336,-4.27085,-8.31594,10.04611,27.872274,44.661518,55.119204,40.199879,69.567112,76.613863,78.760958,44.961685,75.39616,81.753204,84.192821,47.209585,75.573372,80.120035,81.033926,47.755234,68.719957,71.785572,71.492105,-27.625813,-48.304393,-63.345154,-73.837231,-38.888193,-55.121815,-59.24346,-59.269602,-25.03873,-44.072622,-49.605486,-49.838838,-12.77341,-31.500973,-38.20838,-39.527764,-2.102685,-18.985899,-26.382784,-29.356121,141.752369,166.445534,-142.474594,162.569004
80,-11.159912,12.597411,3.164291,18.894168,-18.771973,-42.808869,-64.961803,-81.85952,-52.698212,-86.339636,-105.085482,-118.055638,-55.059735,-91.943573,-114.498882,-131.158007,-54.881355,-89.506977,-111.376213,-126.824021,-52.051415,-79.533783,-96.571838,-110.256798,-29.845814,-43.585756,-48.902491,-53.314602,-31.666506,-34.194741,-36.250375,-39.029162,-15.309224,-18.293226,-21.07305,-23.65972,-0.114176,-4.19644,-6.324069,-8.301503,13.136431,10.603534,9.169381,7.05701,15.462267,36.817732,54.943085,67.376135,48.42017,80.925751,91.681063,97.513522,50.259945,85.199284,96.500794,102.858239,50.353003,82.781388,92.689459,97.454081,49.130894,73.84397,81.412136,84.950026,-28.569106,-47.791648,-61.5011,-71.50422,-36.074646,-48.24246,-51.144176,-51.178358,-21.790269,-36.014594,-40.317322,-40.282084,-9.31701,-22.718439,-28.401098,-29.842674,1.529913,-11.242761,-17.771552,-21.031227,130.596903,178.368291,-139.305857,180.788518
81,-12.759201,14.47074,2.905426,15.196752,-21.19281,-46.246628,-68.868633,-86.066803,-58.628929,-94.736315,-113.938093,-126.766171,-59.978634,-99.272804,-122.7617,-139.571703,-58.33477,-94.799526,-117.609719,-133.326943,-53.7976,-83.322464,-101.108276,-114.577904,-27.940147,-38.98256,-41.336689,-43.443724,-23.366726,-23.160505,-24.472522,-26.917573,-6.417671,-6.003603,-7.722266,-9.845659,8.652517,7.822956,7.427821,6.5363,21.170258,21.838342,21.676494,20.552859,19.267245,42.603671,62.121495,77.550631,49.744847,83.762135,100.110804,111.082564,49.504544,86.172386,102.659409,113.05085,48.511649,82.417752,96.875182,104.873423,46.902603,72.637579,83.261639,89.464217,-27.812663,-43.863612,-55.336749,-64.424418,-26.245734,-33.199393,-36.192049,-37.385354,-10.877292,-19.887017,-24.994606,-26.971289,1.781916,-7.564691,-14.218554,-17.768709,11.62043,2.193807,-4.649219,-9.567139,117.82184,192.137188,-136.416293,195.283427
82,-4.604805,14.59329,5.097027,16.508195,-22.902352,-48.367012,-71.034725,-88.602791,-62.989472,-98.144217,-119.356733,-135.568291,-63.635639,-101.722641,-127.851952,-148.798388,-61.083435,-96.126103,-120.687996,-139.336281,-55.61023,-83.086121,-101.292229,-116.218014,-25.611095,-34.683941,-34.775665,-35.28484,-15.696659,-12.007035,-12.775364,-15.435887,1.262931,5.268897,4.750823,2.808322,15.859852,18.953035,19.849682,19.183809,27.476642,31.634328,33.196404,33.049413,21.915264,47.091763,67.742661,85.638222,54.555451,91.618458,111.053536,123.876881,54.112702,94.356777,113.742279,125.154877,53.295868,90.526875,107.788925,116.945,51.818527,80.428219,93.921078,102.008114,-26.904235,-39.451733,-48.38716,-55.942354,-13.655721,-17.556075,-22.823681,-26.37433,1.901122,-3.274921,-11.59758,-16.644947,13.217749,8.025849,-0.823751,-6.878292,20.632875,15.28708,7.619618,1.091241,113.210289,206.088811,-131.326012,211.149955
83,-5.73848,14.95569,3.765633,15.026654,-26.321617,-53.129974,-75.606548,-93.597278,-67.731743,-102.895471,-124.578867,-141.943474,-66.659695,-103.819198,-130.469124,-152.828974,-62.449974,-96.384167,-121.215465,-140.800827,-55.441612,-81.295944,-99.205215,-114.472172,-22.423477,-29.37627,-27.679505,-27.062587,-6.832424,-0.968864,-2.444507,-6.335963,9.446615,15.611066,15.054744,12.88946,22.560711,28.575602,30.359936,30.168862,31.97043,38.837551,41.616332,42.679835,26.720695,53.404083,75.518841,95.875912,59.953125,96.92728,118.380169,133.472465,58.3064,99.132248,120.701752,134.048618,56.621853,94.219391,113.864239,125.138283,54.648994,83.522461,99.11626,109.62054,-24.767807,-34.62915,-41.209076,-47.081145,-4.918038,-5.161557,-9.837002,-13.786978,10.399424,10.25473,2.690774,-3.077382,20.616375,21.5483,14.53964,8.496943,26.397819,27.311466,22.150885,16.367502,107.448194,220.419084,-127.583994,225.551192
84,-6.385185,12.62849,4.399051,14.796819,-30.537209,-58.505333,-80.524372,-98.185066,-72.121376,-107.351114,-129.481813,-147.816971,-69.008,-105.173286,-131.537739,-154.303923,-63.118401,-95.860119,-120.477367,-140.619427,-54.770485,-79.445412,-97.053337,-112.38509,-18.624875,-22.777251,-18.819938,-16.679082,3.605113,12.525973,11.305531,7.187501,19.183037,28.066705,27.719371,25.453742,31.072536,39.805644,42.295562,42.340251,38.793344,48.438592,52.283728,54.040318,30.379681,58.694951,82.169529,103.851334,65.582314,102.226559,123.482392,137.850918,62.692887,103.193848,124.535305,136.954056,59.984208,96.881688,116.048172,126.964737,57.291882,85.307179,100.612198,111.063389,-22.116417,-29.779285,-34.356238,-38.582609,4.119925,7.063308,3.137946,-1.149818,19.009543,22.661351,15.693484,9.241492,28.006948,33.532437,27.890524,21.886544,32.249671,37.404422,34.279617,29.91637,101.052561,232.569539,-123.195391,239.869976
85,-4.054184,11.803993,9.58191,15.709156,-35.108002,-64.434219,-86.383587,-104.83461,-73.709839,-106.443375,-128.190136,-146.860359,-68.877182,-102.131447,-127.554474,-150.210239,-61.836342,-91.982346,-116.062202,-136.432148,-52.998047,-75.631462,-92.970474,-108.623096,-14.691053,-16.316497,-11.873764,-9.23659,13.218972,24.829235,23.569268,18.903431,27.409069,38.751187,38.388181,35.71608,37.503853,49.319758,52.064761,51.744597,42.769916,55.290356,60.573498,63.097411,31.590957,60.71767,85.073764,106.822174,67.281006,108.070907,127.673092,138.243049,64.215225,108.466003,127.701313,136.023491,61.261242,101.815693,118.848575,126.084617,58.251388,89.482303,103.633529,111.111694,-21.202201,-26.916103,-29.18322,-31.173646,12.000044,17.564843,11.329916,5.47163,28.132673,32.991356,22.782679,14.195074,37.176206,43.657653,35.360867,27.731542,40.501169,46.996917,42.026824,36.753154,97.029911,244.140711,-113.581947,255.346311
86,-6.522377,13.245599,7.088356,12.598739,-35.382271,-64.762985,-86.467381,-105.228802,-75.278858,-102.703503,-115.129955,-126.07402,-70.641197,-97.653843,-111.991894,-124.712162,-63.716251,-88.033173,-101.779243,-113.06155,-54.974579,-74.067444,-85.664703,-95.706539,-5.239794,-2.383899,4.648374,10.331252,20.724908,34.365623,34.882289,31.451757,31.059531,44.43577,46.001525,43.447911,37.788683,51.987808,55.989445,55.446276,40.521621,55.023273,61.736914,64.80602,32.411842,62.935478,88.57291,109.870823,69.711696,112.925983,131.937503,141.510166,66.175586,113.111068,133.066555,141.323124,63.000309,105.851017,123.925243,131.787426,59.648803,92.435371,107.63388,115.596531,-19.884435,-23.701302,-23.704118,-23.952281,19.27712,26.526557,20.407437,14.472605,36.933823,44.029378,34.073915,25.120055,46.490107,55.836884,48.235309,40.23852,49.885293,59.493435,55.369001,50.276173,90.514194,257.256428,-106.486931,267.815168
87,-7.082428,13.25049,5.285843,9.985375,-34.746506,-64.150246,-85.426083,-104.2057,-76.528805,-97.921806,-100.654873,-103.565449,-71.801102,-91.679008,-95.275017,-98.282284,-64.549416,-82.162582,-85.502838,-87.954288,-55.445641,-70.876854,-77.473022,-82.600044,5.922161,13.316526,21.282045,28.439226,27.733432,42.858182,44.802937,42.741672,32.676144,47.474458,50.950685,49.736696,34.910892,50.240617,55.665057,56.240386,34.21084,49.111832,56.876526,61.067934,34.390914,65.112968,91.561763,112.924083,69.625167,110.23804,129.076732,139.912777,63.838588,108.257835,129.046108,139.729488,58.829372,99.016044,118.035175,128.239437,54.115013,84.417549,99.46241,108.628933,-17.683008,-20.397346,-18.870333,-18.806767,20.528678,30.456625,28.113036,25.174532,38.842812,48.97256,43.794269,37.888485,49.509566,61.805691,58.318213,52.948212,54.194434,66.500452,65.489437,62.68314,83.439068,270.463967,-101.193786,277.757592
88,-8.851021,15.121614,11.159133,11.279034,-28.955955,-55.754059,-76.847408,-95.062465,-72.518818,-87.049633,-80.467232,-75.902447,-69.807174,-82.215294,-75.70697,-69.592174,-64.1441,-75.845627,-69.760311,-64.121349,-56.387684,-70.924072,-74.876781,-77.364189,5.937178,12.283948,19.337537,26.413183,25.778895,42.413369,46.07218,46.017135,31.202014,46.196767,50.814426,50.962775,33.969927,48.622941,54.165646,55.307646,34.429263,48.560981,56.908006,62.514511,32.387421,62.398808,87.760575,107.666096,68.447846,107.561749,123.745091,132.199872,61.012288,103.153771,121.757573,130.800396,53.948296,91.152237,108.442441,117.39893,47.054272,75.471509,89.451005,97.294064,-17.564855,-19.16245,-16.226267,-16.180423,21.04086,33.657124,33.369552,32.191651,39.082614,51.564101,48.811799,44.512686,50.10999,63.802909,61.937207,57.553743,55.536826,68.858144,68.899875,66.656569,74.559128,285.620513,-90.063572,289.071558
89,-12.617958,14.4575,9.34758,8.566153,-21.538582,-43.353378,-61.588039,-77.288223,-64.912685,-70.947498,-56.6334,-45.469402,-64.852638,-68.213058,-52.714062,-38.30199,-61.153622,-65.36499,-50.503406,-37.645935,-54.907081,-67.541084,-68.800804,-68.392387,4.496221,8.835323,14.511742,20.980172,22.158852,38.858843,43.354446,44.473721,28.16277,42.460497,47.828695,49.076165,31.130322,44.520578,49.752196,51.46141,32.127999,45.205847,53.752474,60.255744,30.438172,59.37283,83.919365,103.076786,64.778,103.40086,118.867825,127.089604,56.867043,98.383381,116.415059,125.511509,49.031628,85.568459,102.526921,111.31326,41.180409,69.224602,83.035801,90.998211,-17.503549,-18.363733,-14.23263,-14.349215,20.345625,33.837546,34.763592,35.011026,38.599318,51.368068,50.431772,48.086911,50.106903,63.579533,63.093842,60.102368,56.209325,69.883855,70.326371,68.204516,61.882536,300.104458,-80.774626,297.664156
90,-19.301994,15.29291,3.237832,3.6999,-11.084999,-25.047524,-37.305153,-47.233521,-51.102493,-47.373985,-25.242245,-8.0205,-54.228745,-47.626946,-23.42046,-1.219048,-53.133774,-48.643753,-25.529343,-5.761116,-48.619824,-57.981514,-56.311363,-53.026005,1.551269,2.747708,6.168829,11.025943,12.723018,27.754846,33.969753,37.474806,20.379723,33.45946,40.118847,42.832704,24.968062,36.385071,42.062244,44.851732,28.170081,39.269989,47.537789,54.469248,30.101886,58.465198,82.988639,102.392841,63.834571,98.573696,115.172939,126.436512,55.16146,92.818462,112.642055,125.515972,46.332172,79.119003,98.058002,110.522792,37.500606,62.286392,77.225795,88.369182,-15.598476,-16.17147,-11.591874,-12.029364,19.680337,33.352101,38.241326,41.167357,37.093521,51.378207,55.324491,55.769724,48.509925,63.788546,67.627507,66.882007,55.241572,70.61288,74.424634,74.026986,42.527407,315.445237,-77.589929,301.411925
91,-12.962151,9.752341,4.647754,3.767775,-4.541702,-12.345566,-19.00296,-23.906009,-36.341823,-24.963936,-3.561538,12.210663,-41.121368,-27.178356,-4.609268,15.76577,-41.673202,-30.966064,-9.062782,8.63015,-38.695793,-46.516926,-48.177315,-48.740215,-7.040646,-11.636581,-13.216737,-12.694094,4.308326,18.717056,24.936484,28.62097,15.450262,27.949681,33.577898,36.85046,22.782135,33.626026,38.065078,41.191823,28.073689,37.641557,45.834009,53.607743,29.051926,56.10751,80.37291,100.153473,61.520165,95.558304,112.39,123.891587,53.041363,90.208306,110.220909,123.596535,44.107132,76.852352,95.974022,108.818733,35.124962,60.305077,75.486443,87.446228,-15.54821,-16.350817,-11.317109,-11.694355,17.943212,31.276917,36.664184,40.285993,35.10112,48.841229,53.420948,54.868341,46.612718,61.385344,65.632031,65.757285,53.674372,68.688886,72.725992,72.80134,29.509735,325.279551,-72.997696,305.261673
92,-8.314201,2.180074,4.290482,1.923389,1.413711,-1.797684,-6.190888,-9.211796,-27.141026,-10.84996,9.826607,24.16349,-34.400986,-15.547119,6.21318,25.468391,-37.399155,-23.033009,-1.924805,14.145012,-36.867291,-45.598766,-49.630783,-52.757046,-17.524224,-26.591333,-29.744334,-30.685843,-1.543464,13.315364,19.063253,22.192665,15.065075,27.9481,32.443666,34.704126,26.619614,37.957188,40.743638,42.508736,35.579932,45.079455,53.095239,60.797887,27.553573,53.768154,77.496689,97.048164,59.126495,93.041862,109.734627,120.986069,50.645084,87.490928,107.233887,120.256393,41.317268,73.962845,92.834656,105.28537,31.862663,57.262401,72.467262,84.370147,-16.086797,-17.148595,-11.566963,-11.342439,16.39949,30.223283,35.937444,39.621955,33.586679,47.250909,52.214296,53.912297,45.314787,59.781834,64.150799,64.260505,52.717241,67.550135,71.475114,71.190531,21.135887,327.551939,-68.766861,307.277376
93,-8.332924,-1.126451,-0.432701,-0.971506,2.975601,2.894142,1.842888,0.833336,-20.790722,0.64801,20.823807,34.294464,-28.86454,-5.066826,16.875275,35.401634,-32.545338,-13.887325,7.648544,23.404404,-32.622345,-39.424313,-42.181412,-44.048252,-17.827838,-24.970755,-25.406022,-23.732573,-0.138815,14.327318,20.104785,23.356784,16.570673,29.189876,33.532795,35.432942,28.063635,39.211746,41.687567,43.336204,36.98615,46.588438,53.916273,60.570053,27.574688,53.380268,77.208915,97.520988,58.025814,91.010055,108.781128,121.652595,49.818271,86.066917,106.715881,121.254364,40.797443,73.492218,92.991165,106.592308,31.631103,56.935959,72.286834,85.225685,-15.130136,-16.257637,-10.340379,-9.653343,16.369157,29.593983,35.765517,40.016675,33.491657,46.462282,52.08951,54.820632,45.132141,59.305861,64.204645,65.150636,52.477822,67.165034,71.21712,71.268188,12.762245,326.545349,-69.24028,306.425731
94,-7.748291,0.597855,0.909416,-0.761877,4.121178,7.262993,10.948677,12.724709,-14.167248,10.098289,30.675339,43.920525,-22.496498,4.377296,26.745735,44.738205,-26.504643,-5.301029,16.25576,31.883652,-26.865383,-31.997601,-33.960663,-35.02438,-17.953513,-24.43139,-23.982218,-21.131473,-1.400858,12.824856,19.378242,23.556436,15.595733,28.245219,32.827272,34.060156,27.671767,38.761363,41.364155,42.23475,37.319899,46.787324,53.132685,58.195638,27.287063,52.71056,76.51474,97.064941,57.179661,90.132271,108.227005,121.373016,49.019211,85.085472,105.919578,120.576713,39.96175,72.659798,92.165062,105.835853,30.817829,56.1026,71.378334,84.340095,-14.702353,-15.807167,-9.701088,-8.590285,16.450285,29.630392,35.865948,40.116637,33.423226,46.455514,52.255175,55.01485,45.053002,59.367809,64.255293,65.156244,52.40072,67.104679,71.113738,71.137253,4.909149,327.270123,-68.435669,305.790773
95,4.687775,-5.596946,0.769604,-0.362265,3.782501,5.291816,6.429611,5.408798,-19.295735,3.90374,24.424232,37.504875,-27.959336,-1.630555,20.532577,38.449882,-32.205117,-11.477291,10.278602,25.62339,-32.822605,-39.537655,-42.015919,-43.492173,-17.68107,-22.947256,-20.41218,-15.671069,3.345353,19.606818,25.648663,28.717127,20.546893,34.486604,38.595329,38.933906,32.192675,44.550081,46.499233,46.461331,41.495894,51.531459,57.959603,62.987112,27.130783,52.35839,75.972828,96.565555,56.480518,89.51453,107.694751,120.936435,48.196449,84.302272,105.154758,119.764354,39.069145,71.898662,91.496898,105.238552,29.97829,55.428989,70.769313,83.769298,-14.647642,-15.557609,-9.106765,-7.638143,16.27978,29.639049,35.824749,39.952196,33.317003,46.476546,52.327447,55.037006,44.993017,59.483122,64.344213,65.19464,52.23681,67.070247,70.992707,70.922448,9.395342,321.779165,-67.867647,305.534496
96,0.864441,-4.22589,0.733875,0.064591,3.250419,4.883812,5.927101,3.742378,-20.685997,4.190071,25.376289,38.345604,-30.00174,-1.651932,21.878288,39.733383,-34.704747,-12.971043,9.894081,25.678344,-35.663029,-42.116215,-42.986081,-43.036984,-17.883104,-20.567098,-13.792807,-5.851037,6.459624,23.305495,29.280403,32.806549,24.363403,37.904947,42.099393,42.356695,36.534249,48.028236,50.068482,50.04267,46.437841,56.844762,62.758451,67.118511,26.881267,52.010227,75.611755,96.309723,55.919231,88.934784,107.011963,120.191185,47.607227,83.822319,104.591125,119.052017,38.44067,71.471832,91.035622,104.730354,29.362072,54.976776,70.326782,83.256546,-14.666513,-15.569625,-9.013201,-7.203186,16.066099,29.684942,35.889586,39.949725,33.178546,46.406114,52.331757,54.968154,44.942753,59.54323,64.395861,65.172632,52.144234,67.010608,70.825203,70.640224,9.980954,317.588553,-67.412601,305.634365
97,-7.086995,2.583687,0.548572,0.25025,3.156636,7.915409,14.492077,16.119725,-14.27172,13.249798,34.73251,48.140889,-23.170166,7.603558,31.798588,49.247578,-27.397293,-4.160785,19.148198,35.177571,-27.655964,-31.803279,-30.991378,-29.438243,-17.780439,-20.218098,-13.123741,-4.78956,4.522365,20.388985,27.146778,31.755631,22.38713,34.5385,39.221811,39.840983,34.915733,44.855388,47.487944,48.042055,44.95898,55.106179,60.441204,64.164272,26.758828,51.852505,75.533467,96.419712,55.339314,88.448811,106.515049,119.672299,47.009331,83.520688,104.291874,118.686917,37.88593,71.195973,90.794918,104.45216,28.890118,54.672776,70.095623,83.055256,-14.694845,-15.708008,-9.165182,-7.207743,15.644652,29.197595,35.4024,39.486758,32.846612,46.007564,52.028093,54.77138,44.708965,59.278629,64.132298,64.881232,51.96454,66.800385,70.575077,70.282219,2.506954,320.111413,-67.251034,305.823788
98,-2.657798,0.230576,0.58841,0.366797,4.900371,10.494976,17.525516,19.16859,-10.814175,16.204731,36.839595,49.276027,-19.607792,10.316951,33.030979,50.036831,-24.518555,-1.636242,20.123096,34.868419,-25.61649,-29.554608,-29.992379,-29.861813,-19.043148,-23.362058,-19.062291,-13.473051,3.005911,18.865381,25.26034,29.285441,21.57426,34.771632,39.03593,39.095729,34.372613,45.466075,47.76298,48.061939,44.317492,54.77059,60.372217,64.319884,26.562458,51.591797,75.300876,96.220539,54.875072,88.067173,106.071155,119.098171,46.563343,83.3027,104.034221,118.313495,37.481071,71.001423,90.563701,104.102749,28.520679,54.356495,69.754314,82.73537,-14.890334,-15.995666,-9.432511,-7.386979,15.20121,28.588082,34.775955,38.927262,32.439072,45.3868,51.402488,54.244637,44.361336,58.724901,63.521303,64.257022,51.695852,66.464105,70.19709,69.860958,-0.608127,320.218905,-67.119907,306.067501
99,5.277076,-2.566829,0.416977,0.339479,4.915066,7.990734,10.324185,8.130879,-15.552784,10.208325,30.485859,42.403416,-24.760734,3.763905,25.744664,42.946095,-30.086563,-8.219513,12.981709,27.181996,-31.573253,-37.200943,-38.962429,-40.142898,-19.40871,-24.354227,-20.90307,-16.648121,4.671925,21.500086,27.059957,29.771442,23.795114,38.024792,41.615887,41.277162,36.387443,48.490623,50.11367,50.162391,45.901798,56.598365,62.686684,67.468266,26.434192,51.405361,75.096164,95.965725,54.397178,87.587665,105.537563,118.507725,46.083904,83.027469,103.813648,118.096859,37.047008,70.675518,90.326122,103.880825,28.130916,54.004349,69.460911,82.487354,-15.092517,-16.342419,-9.866888,-7.74013,14.659462,27.919634,34.126155,38.365976,31.947799,44.796614,50.83436,53.767677,43.907606,58.207766,63.008108,63.759474,51.261549,65.969188,69.743287,69.368721,4.203987,317.510037,-67.167892,306.264941
100,-4.396991,0.141223,0.309608,0.39403,4.685714,9.558815,14.960746,15.336731,-11.602776,16.392585,37.062744,49.216667,-20.965119,9.691635,32.523056,49.699081,-26.249874,-2.802143,19.144386,33.953727,-27.655747,-31.829281,-32.167649,-31.910557,-19.380021,-23.357328,-18.083867,-12.31418,5.128767,21.416389,27.422197,31.035226,24.14099,37.469632,41.231393,41.240272,36.968836,47.852939,49.570094,49.952366,46.832019,57.489029,63.153937,67.47659,26.28661,51.138932,74.817341,95.640988,54.032971,87.265629,105.17339,118.128285,45.805641,82.87096,103.729786,118.086514,36.843407,70.556912,90.289685,103.908245,27.918686,53.858242,69.343197,82.447209,-15.306544,-16.751269,-10.287298,-8.146856,13.972735,27.106714,33.396067,37.814112,31.309607,43.982373,50.07846,53.175317,43.378157,57.464217,62.303016,63.12095,50.906953,65.43491,69.194683,68.763468,-0.638288,317.499027,-67.303568,306.506738
101,2.226974,-0.862715,0.138302,0.265786,5.006172,8.731453,11.720078,10.109184,-13.979381,12.673233,33.075943,45.175346,-23.264522,6.056213,28.255142,45.701363,-28.783722,-6.167896,15.110939,29.334389,-30.575809,-35.69569,-37.342873,-38.372875,-19.598975,-24.750294,-21.696316,-18.043594,6.033102,22.509656,27.957598,30.817766,25.180583,39.180908,42.670708,42.443454,37.547696,49.564043,50.922836,50.96185,46.787818,57.952503,64.22506,69.181395,26.230888,50.917557,74.523903,95.310951,53.601151,86.759834,104.736443,117.796967,45.452339,82.546349,103.572556,118.102776,36.564148,70.26812,90.16745,103.928101,27.659683,53.599812,69.144402,82.372147,-15.439394,-16.905102,-10.376231,-8.307197,13.583769,26.739793,33.117981,37.730909,30.914195,43.433375,49.52425,52.778361,43.022179,56.907648,61.780595,62.721449,50.663681,65.034212,68.799752,68.375885,1.09877,316.493681,-67.655182,306.629893
102,0.983231,-1.718316,0.135201,0.070617,5.85981,8.853744,9.787903,7.099296,-15.273262,11.976356,32.532051,44.239265,-25.13522,4.476265,26.583961,43.935768,-31.069142,-8.254475,12.887947,27.02639,-33.25644,-38.27694,-39.552521,-40.262112,-20.167771,-25.26917,-21.629749,-17.452606,6.957406,23.911501,28.982333,31.415337,26.777782,40.997062,44.001071,43.446676,39.580198,51.348567,52.292768,52.189583,49.288178,60.465509,66.268751,70.743495,26.04079,50.599742,74.160759,94.836845,53.253994,86.200538,104.144279,117.290702,45.191299,82.126991,103.198425,117.850318,36.352775,69.915229,89.82122,103.670448,27.43872,53.340076,68.818725,82.037635,-15.412223,-16.902989,-10.399189,-8.343147,13.504816,26.725282,33.157502,37.859759,30.749026,43.22146,49.321598,52.620231,42.825307,56.676196,61.650772,62.717745,50.506033,64.827744,68.656171,68.307627,1.611288,314.709224,-67.990694,306.634369
103,-2.25856,-2.875112,0.019626,-0.158883,3.826297,6.978092,8.392982,5.606506,-14.464806,14.237777,35.520378,48.601684,-24.127144,7.432754,30.923858,48.505325,-29.385224,-5.05164,17.585975,32.830444,-30.845971,-33.473603,-31.830403,-29.558133,-13.881542,-14.368666,-6.672379,1.195007,11.9213,28.316393,33.816774,36.846051,29.513807,42.406058,46.069192,46.290172,40.791409,51.983103,53.472152,53.667271,49.405492,61.372599,67.085067,71.183998,25.853886,50.290569,73.823307,94.487469,53.007969,85.631092,103.543476,116.810612,44.983692,81.631542,102.694622,117.48547,36.105766,69.430309,89.32362,103.302853,27.062084,52.906609,68.378506,81.621472,-15.295923,-16.819812,-10.366252,-8.286226,13.503691,26.914806,33.430005,38.205424,30.662895,43.234699,49.410926,52.802258,42.714662,56.656534,61.823487,63.113058,50.433797,64.795102,68.740583,68.517368,-1.10325,311.79303,-68.427046,306.434404
104,0.430709,0.172198,0.0485,-0.161749,3.642598,6.556904,7.698784,4.773857,-15.018024,13.321541,34.647286,47.900208,-24.802482,6.624253,30.221146,48.0821,-30.032604,-6.009281,16.578415,31.989807,-31.459133,-34.449371,-32.963104,-30.792961,-13.889335,-14.485746,-6.863361,1.357014,12.086544,28.336955,34.149966,37.618486,29.448104,42.183237,46.098708,46.511225,40.591534,51.934813,53.509819,53.637766,49.207013,61.225545,66.856047,70.782743,25.723286,50.077847,73.564053,94.186283,52.748337,85.257809,103.163945,116.475277,44.68166,81.217541,102.298634,117.104038,35.763394,69.055584,88.904194,102.856442,26.674588,52.530876,67.959103,81.137043,-15.193887,-16.726124,-10.254076,-8.1257,13.517041,27.23781,33.828184,38.649792,30.668082,43.418307,49.669265,53.119384,42.767755,56.759929,62.041948,63.45602,50.55237,64.864423,68.825366,68.681352,-1.094696,311.944334,-68.800701,306.251761
105,1.255177,0.245186,0.006466,-0.316397,3.507912,5.513603,5.471775,1.348537,-16.342953,11.642452,32.943249,46.001095,-26.183121,5.104557,28.594356,46.257259,-31.386349,-7.69883,15.040592,30.386043,-32.770283,-36.747437,-35.976002,-34.692661,-13.851593,-14.386018,-6.531774,1.784364,11.98967,28.321295,34.325522,38.036809,29.168832,41.951587,46.058446,46.632663,40.111499,51.668311,53.413489,53.789129,48.697363,60.696653,66.550827,70.932439,25.624523,49.967377,73.409592,94.001038,52.496899,84.782112,102.656593,116.025971,44.339321,80.734841,101.821106,116.672447,35.333267,68.540451,88.371369,102.342934,26.181782,51.988598,67.432892,80.605087,-14.994729,-16.408097,-9.981744,-7.830533,13.794807,27.768308,34.412307,39.206053,30.894571,43.859539,50.185115,53.64793,42.969567,57.182549,62.591613,64.120405,50.730137,65.14971,69.188867,69.136255,-0.272329,312.193868,-69.227045,305.939712
106,-4.887543,1.057537,0.079914,-0.367921,2.224846,6.18845,9.624676,7.848919,-12.847858,16.996502,38.86005,52.798313,-22.323555,11.082607,35.601139,53.204739,-26.836807,-1.575508,22.239773,38.413845,-27.365639,-29.424351,-26.8251,-23.452823,-12.08768,-10.896342,-1.147088,9.560928,11.621206,27.42379,33.868817,38.257592,28.076776,39.778504,44.310256,45.325198,38.858213,49.321969,51.802693,52.840803,47.459107,59.398981,65.065903,69.222373,25.438168,49.801277,73.231739,93.788281,52.356068,84.462628,102.246449,115.616719,44.106892,80.376744,101.43021,116.301899,34.997257,68.143284,87.960469,101.986485,25.732647,51.529049,66.979855,80.144497,-14.737193,-16.108806,-9.751835,-7.488411,14.08906,28.153667,34.765,39.403629,31.132038,44.325544,50.738177,54.148726,43.148816,57.663708,63.222208,64.785506,50.839311,65.446927,69.593986,69.621909,-5.511847,313.273382,-69.499106,305.593768
107,3.859097,-0.616812,-0.165436,-0.308061,1.674236,3.885933,4.591987,0.187454,-16.321598,10.956207,32.21997,45.917656,-25.684731,5.605591,29.479019,47.56121,-30.423889,-6.488159,16.77269,32.507011,-31.302498,-35.325623,-34.868729,-33.662236,-11.963933,-11.317566,-2.75276,6.411063,12.217022,28.443882,34.630569,38.533368,28.197708,41.081055,45.745631,46.883197,38.311005,50.66152,52.986904,53.783719,46.322504,58.661743,65.184192,70.366595,25.49508,49.863419,73.151562,93.672261,52.227093,84.216351,101.985661,115.435605,43.851025,80.019528,101.100392,116.065876,34.693051,67.748097,87.627926,101.753392,25.417866,51.178986,66.688054,79.853726,-14.610864,-15.924999,-9.507698,-7.054404,14.118824,28.408537,35.066293,39.663846,31.229036,44.691058,51.188696,54.616029,43.299377,58.069223,63.734416,65.349374,50.999974,65.732474,69.929588,69.982483,-1.952367,312.664415,-69.964159,305.293552
108,1.891708,2.430027,-0.166946,-0.194897,2.644226,5.04546,6.342407,3.035957,-18.214474,8.340797,29.466499,42.482597,-28.106403,2.308434,26.113678,44.355377,-33.009521,-10.001907,13.082428,28.934258,-33.901485,-39.470535,-39.974087,-39.65031,-17.156797,-19.503683,-12.407066,-4.676828,8.373121,25.278704,31.58699,35.69117,26.090265,39.296208,43.820821,44.749609,37.695045,49.390239,51.739583,52.55769,47.040303,58.324289,64.660066,69.945556,25.485249,49.915237,73.150669,93.587505,52.088345,84.054028,101.784016,115.210499,43.637066,79.816509,100.924038,115.855488,34.484631,67.571171,87.454319,101.557995,25.252693,50.978542,66.4613,79.600124,-14.480434,-15.737178,-9.225857,-6.693744,14.249106,28.645313,35.334228,39.960298,31.398467,44.948595,51.48369,54.933476,43.50429,58.330242,64.007118,65.603576,51.20296,65.962655,70.158015,70.221235,-0.325481,315.106496,-70.395927,305.110709
109,-7.52988,0.280211,-0.063583,-0.26954,2.712879,8.444664,14.958309,15.625591,-11.961915,16.678104,38.214832,51.851245,-21.477963,10.811771,35.638332,53.540874,-26.002099,-1.659291,22.401226,38.715923,-26.43322,-29.017045,-26.65218,-23.513775,-16.211941,-17.426238,-9.457829,-0.726741,7.541182,23.933805,30.879763,35.946026,24.778625,37.308314,42.638881,44.586983,36.432558,47.423402,50.833001,52.666988,45.99393,57.395699,63.714285,69.207527,25.273796,49.853496,73.189968,93.727352,51.812988,83.796077,101.512012,114.874088,43.360485,79.646907,100.812732,115.681995,34.270019,67.532283,87.368557,101.382671,25.148529,50.866962,66.33942,79.447368,-14.450881,-15.506072,-8.836805,-6.293232,14.585694,29.016395,35.748845,40.421906,31.780035,45.362507,51.939926,55.4103,43.870383,58.807091,64.458834,65.985589,51.485814,66.365057,70.551686,70.594973,-8.088186,315.381128,-70.692335,304.83559
110,1.91629,0.185905,-0.215023,-0.17857,2.813587,7.710319,12.384533,11.611049,-14.127892,13.53471,34.522854,47.714985,-23.419853,8.016598,32.203457,50.412105,-28.009358,-4.127369,19.065456,34.925022,-28.61483,-31.684158,-30.222782,-27.636772,-16.81255,-19.257977,-13.595081,-7.084266,6.397714,23.056727,29.454441,33.697052,24.143708,37.456985,42.36082,43.822959,35.916004,47.814295,50.725111,51.92339,45.277119,56.988974,63.376906,68.813128,25.135219,49.954879,73.367294,94.004264,51.616722,83.810783,101.572265,114.870941,43.09711,79.642089,100.835083,115.59066,34.109241,67.64241,87.400703,101.260711,25.212364,51.033508,66.495666,79.525108,-14.535627,-15.498847,-8.662582,-5.954246,14.741009,29.303979,36.075418,40.761484,32.061876,45.766404,52.356976,55.763697,44.173664,59.230514,64.75352,66.072521,51.69227,66.671389,70.751696,70.645238,-6.355539,315.542561,-71.091001,304.632548
111,-0.033669,1.54155,-0.261715,-0.186783,3.935063,8.744488,14.25745,15.39719,-13.18658,13.862149,34.747273,47.517323,-22.767276,7.57996,31.37154,49.616238,-28.042717,-4.869873,17.738697,33.155995,-29.363582,-33.194606,-32.386722,-30.904861,-19.128153,-23.578357,-19.363385,-14.277276,4.175971,21.08616,28.130549,32.7838,22.782444,36.632802,41.806338,42.962763,35.152571,47.024446,49.879513,50.637561,44.982532,56.259516,62.397038,67.21956,25.188434,50.194118,73.680965,94.435398,51.430744,83.881313,101.728557,115.003292,42.839378,79.656086,100.86446,115.495754,33.986114,67.7887,87.474964,101.167019,25.353481,51.278927,66.738201,79.680874,-14.579124,-15.463723,-8.497906,-5.724547,14.865646,29.54267,36.370227,41.123243,32.303987,46.064017,52.655627,56.01538,44.472227,59.556877,64.941612,66.053725,51.956661,66.963543,70.932946,70.658564,-6.582053,317.040886,-71.545561,304.40254
112,-5.384056,1.748216,-0.178334,-0.165281,3.608231,11.308171,21.462467,26.053196,-8.296463,20.315884,41.516682,54.915951,-17.672046,14.148617,38.422405,56.122776,-22.589401,1.322457,24.289891,40.041928,-23.520378,-24.575878,-20.609436,-15.894848,-19.11426,-23.824149,-19.622725,-13.759202,2.275219,18.216125,25.894134,31.447262,21.313957,33.969902,39.616594,40.981612,34.289522,44.633507,48.092184,48.979686,44.619736,55.482622,60.675918,63.963683,25.147957,50.331459,73.953438,94.769715,51.349675,84.024582,101.944725,115.168099,42.684781,79.741333,100.935906,115.397164,33.884972,67.917229,87.482323,100.965889,25.400128,51.357743,66.801957,79.699906,-14.589634,-15.392167,-8.366477,-5.519165,15.181426,29.916432,36.7504,41.514642,32.671859,46.449747,53.007925,56.290169,44.826205,59.983758,65.214277,66.111177,52.224917,67.320905,71.198905,70.80385,-12.157528,318.744141,-71.915314,304.192298
113,0.13282,0.202665,-0.234409,-0.185004,4.373291,11.61105,20.499859,24.160252,-8.46167,19.388409,40.282597,53.324513,-17.684635,13.446614,37.146344,55.17033,-22.965877,0.739701,23.176724,38.423069,-24.334259,-26.463787,-24.410076,-21.541156,-20.190273,-26.223943,-24.304542,-20.38428,1.254879,16.99911,24.416051,29.565764,20.601543,34.171307,39.573529,40.503342,33.50029,45.144565,48.098112,48.575739,43.616057,54.910899,60.586392,64.315796,25.212753,50.557411,74.235958,95.16457,51.298016,84.233288,102.232075,115.444141,42.51487,79.862469,101.086865,115.474239,33.767601,68.037769,87.560063,100.920445,25.467911,51.5621,67.051815,79.877758,-14.681148,-15.408111,-8.296032,-5.28444,15.33774,30.14581,37.001687,41.751071,32.961197,46.874367,53.448119,56.625276,45.134562,60.506845,65.645097,66.349607,52.428558,67.639425,71.440311,70.891116,-12.207659,318.902367,-72.332674,303.962855
