takenoko1/special-research/HandMotion_SimilarSearch_自分用/NewProject/handData/key/d4_feature_d3/99.csv
,vel_0x_L,vel_0y_L,vel_0x_R,vel_0y_R,posFromWrist_1x_L,posFromWrist_2x_L,posFromWrist_3x_L,posFromWrist_4x_L,posFromWrist_5x_L,posFromWrist_6x_L,posFromWrist_7x_L,posFromWrist_8x_L,posFromWrist_9x_L,posFromWrist_10x_L,posFromWrist_11x_L,posFromWrist_12x_L,posFromWrist_13x_L,posFromWrist_14x_L,posFromWrist_15x_L,posFromWrist_16x_L,posFromWrist_17x_L,posFromWrist_18x_L,posFromWrist_19x_L,posFromWrist_20x_L,posFromWrist_1y_L,posFromWrist_2y_L,posFromWrist_3y_L,posFromWrist_4y_L,posFromWrist_5y_L,posFromWrist_6y_L,posFromWrist_7y_L,posFromWrist_8y_L,posFromWrist_9y_L,posFromWrist_10y_L,posFromWrist_11y_L,posFromWrist_12y_L,posFromWrist_13y_L,posFromWrist_14y_L,posFromWrist_15y_L,posFromWrist_16y_L,posFromWrist_17y_L,posFromWrist_18y_L,posFromWrist_19y_L,posFromWrist_20y_L,posFromWrist_1x_R,posFromWrist_2x_R,posFromWrist_3x_R,posFromWrist_4x_R,posFromWrist_5x_R,posFromWrist_6x_R,posFromWrist_7x_R,posFromWrist_8x_R,posFromWrist_9x_R,posFromWrist_10x_R,posFromWrist_11x_R,posFromWrist_12x_R,posFromWrist_13x_R,posFromWrist_14x_R,posFromWrist_15x_R,posFromWrist_16x_R,posFromWrist_17x_R,posFromWrist_18x_R,posFromWrist_19x_R,posFromWrist_20x_R,posFromWrist_1y_R,posFromWrist_2y_R,posFromWrist_3y_R,posFromWrist_4y_R,posFromWrist_5y_R,posFromWrist_6y_R,posFromWrist_7y_R,posFromWrist_8y_R,posFromWrist_9y_R,posFromWrist_10y_R,posFromWrist_11y_R,posFromWrist_12y_R,posFromWrist_13y_R,posFromWrist_14y_R,posFromWrist_15y_R,posFromWrist_16y_R,posFromWrist_17y_R,posFromWrist_18y_R,posFromWrist_19y_R,posFromWrist_20y_R,posFromBody_0x_L,posFromBody_0y_L,posFromBody_0x_R,posFromBody_0y_R
6,2.242424,-1.610475,0.487186,0.213459,-0.943519,-5.160862,-10.990757,-18.925838,-25.970959,-4.269562,14.939255,25.745201,-32.890411,-6.666115,13.876511,29.300583,-36.485515,-17.341324,2.80893,16.453354,-37.485363,-44.905884,-48.029857,-50.086201,-16.504885,-21.048159,-17.651417,-13.222678,1.995514,16.701708,20.213516,20.890572,18.10916,30.854705,31.949021,30.005106,29.308956,40.261639,39.668761,37.827747,37.966636,46.916419,50.096948,52.116841,27.070199,51.755162,74.484707,93.779744,48.885601,81.692563,99.336743,112.33405,39.350785,76.55103,96.980839,110.126851,30.758137,65.329663,84.590138,97.370488,23.388382,49.340149,64.502324,75.134068,-13.39233,-14.288168,-9.471414,-6.812997,13.76371,29.275475,34.648428,37.606458,31.434615,46.434581,50.200627,50.291944,43.741028,59.879807,62.941306,61.66984,50.674451,64.966744,66.758531,63.968438,5.905718,296.893202,-71.878893,281.416202
7,-1.194191,2.261325,0.375515,0.103519,-1.466835,-4.474834,-6.977543,-11.784473,-26.004295,-2.858024,17.041283,28.596543,-32.894874,-5.58023,16.048371,31.959778,-35.775329,-16.157135,5.172386,20.045105,-35.570343,-44.041076,-47.944771,-50.551941,-16.513505,-22.228024,-19.909333,-16.44327,-0.106557,14.138263,18.762517,20.894314,15.931137,27.875383,29.776098,28.676681,27.343156,37.269572,37.502001,36.356123,36.426568,44.089596,47.546804,50.077781,26.735138,51.464653,74.300766,93.62558,49.138894,81.792298,99.381752,112.3461,39.693444,76.621445,96.890534,109.963097,30.999196,65.470116,84.529313,97.182015,23.427178,49.512371,64.512555,74.942025,-13.467667,-14.4215,-9.632744,-6.964113,13.695525,29.050543,34.461299,37.472694,31.284438,46.096349,49.876375,49.977177,43.588121,59.543649,62.616671,61.364916,50.612428,64.846009,66.557187,63.729352,4.880132,299.139445,-71.334773,281.504639
8,-3.033817,2.177282,0.375115,-0.004582,0.843967,-0.392269,-1.46925,-3.496262,-21.616722,1.415691,21.575237,32.886326,-28.983547,-2.064823,18.988232,35.250561,-32.759136,-13.000202,7.912777,22.789524,-33.568359,-43.199352,-49.079464,-53.735298,-18.864405,-26.576673,-25.961441,-23.444087,-3.224594,11.273822,16.193305,18.723059,13.910367,27.002578,29.014246,28.157583,26.168639,36.462668,36.391655,35.035443,35.671311,42.820428,46.66906,49.296774,26.597156,51.386078,74.231712,93.675339,49.127563,81.760849,99.274292,112.131798,39.677845,76.61792,96.843681,109.816727,30.973709,65.567596,84.568863,97.085014,23.436252,49.704471,64.702354,75.013504,-13.512497,-14.44336,-9.626815,-7.003559,13.570838,28.833651,34.279852,37.324283,31.304062,46.005329,49.751096,49.808648,43.699692,59.561792,62.54614,61.224212,50.778117,64.901498,66.489756,63.568838,1.953896,301.300739,-70.852077,281.484069
9,-6.648045,3.408166,0.14756,0.057638,2.330407,3.196061,6.068024,8.169491,-15.787708,10.00541,29.496643,40.367524,-23.083259,5.892655,26.450249,42.200135,-26.598049,-4.156002,16.257592,30.799805,-26.591629,-35.277111,-42.046829,-47.472358,-19.398398,-28.674817,-29.635431,-28.292013,-6.865053,6.685112,12.665948,16.008066,10.178654,23.348312,26.115089,26.186621,22.64584,33.045684,33.695915,32.91812,32.370109,38.933795,42.686602,45.157051,26.470825,51.345909,74.244209,93.711914,49.238743,81.913147,99.34243,112.039192,39.750961,76.73188,96.873985,109.733482,31.01572,65.620903,84.532974,96.952721,23.494045,49.764851,64.717392,74.929436,-13.657339,-14.622992,-9.736978,-7.064149,13.518931,28.755129,34.192993,37.276303,31.306606,45.896759,49.582567,49.61853,43.713079,59.485851,62.41266,61.096561,50.782649,64.85647,66.403836,63.483523,-4.630017,304.695379,-70.640385,281.528181
10,0.778496,-2.525691,0.097023,-0.170345,3.000137,3.800766,6.202675,7.503651,-15.346779,8.647705,28.045166,39.021767,-23.069584,4.267044,24.348358,40.280937,-27.35392,-5.954944,13.891342,27.731323,-28.196411,-36.799187,-43.123672,-48.312401,-19.502867,-28.656081,-29.566332,-28.137192,-4.975465,9.623024,15.080303,17.289189,12.6174,26.77514,29.211132,28.39326,25.06637,36.491517,36.800158,35.428706,34.518802,42.134233,46.076947,48.36832,26.487259,51.467228,74.418526,93.966774,49.425671,82.121452,99.500977,112.129532,39.889915,76.851151,96.974899,109.824348,31.114357,65.705063,84.576828,96.960777,23.580139,49.807491,64.691231,74.819115,-13.540285,-14.438395,-9.582046,-6.997149,13.607308,28.842753,34.339873,37.497876,31.370938,45.989595,49.753665,49.857986,43.752859,59.552258,62.546091,61.276848,50.788133,64.9158,66.48794,63.589216,-3.796394,302.157903,-70.488235,281.346051
11,-4.900223,1.668151,0.102562,-0.264304,2.010819,3.832444,9.411393,12.767155,-12.112175,14.248558,33.724778,45.138337,-19.091331,10.545365,31.640992,47.205826,-22.558319,0.853169,21.431786,35.693917,-22.289932,-28.138561,-32.020191,-34.855888,-18.283729,-26.407218,-26.613168,-24.15423,-5.842701,7.179807,13.415388,16.916303,10.486887,23.406234,26.971765,27.551798,22.485301,32.888985,34.429028,34.241678,31.763979,38.970586,42.440008,44.34071,26.453991,51.544544,74.564117,94.25322,49.685245,82.354088,99.700104,112.304054,40.100166,77.006378,97.08046,109.923019,31.231796,65.801559,84.60038,96.958168,23.602146,49.813568,64.649643,74.742439,-13.464295,-14.336248,-9.439934,-6.888926,13.770317,29.010133,34.522123,37.687894,31.555745,46.212044,49.987724,50.088673,43.938555,59.798358,62.788856,61.49721,50.963924,65.174694,66.733102,63.824929,-8.65392,303.816155,-70.342976,281.071848
12,2.488427,-2.973036,0.012749,-0.13863,2.288154,3.306976,6.012702,6.232624,-13.591359,10.789489,30.310318,42.018859,-20.923451,7.092292,28.070434,44.232925,-25.044514,-2.477372,17.958274,31.963691,-25.634583,-31.128262,-34.224186,-36.252892,-17.841336,-24.97462,-24.554063,-21.670862,-3.2931,10.375156,15.880811,18.187152,13.171499,26.820069,29.946245,29.805899,24.92443,36.294447,37.328977,36.603335,33.846006,42.280075,45.794662,47.437124,26.52531,51.673004,74.726097,94.498626,49.881282,82.682373,100.042236,112.602882,40.181202,77.284973,97.405449,110.232742,31.220043,65.924652,84.772957,97.147522,23.556369,49.762973,64.662346,74.817146,-13.451352,-14.301778,-9.384185,-6.942623,13.849518,29.090372,34.628421,37.828994,31.696882,46.334718,50.070729,50.166726,44.078506,59.95434,62.916457,61.645436,51.034962,65.269296,66.842289,63.976564,-6.130622,300.835225,-70.295356,280.925324
13,3.241115,-3.024127,0.026802,-0.010065,-0.173767,-0.620373,0.672352,-2.179344,-18.18306,6.41296,26.299267,38.590405,-25.463299,3.12402,24.762211,40.704472,-29.045528,-6.737903,14.228359,28.413746,-28.884476,-34.785782,-37.303905,-38.277672,-15.440086,-20.01242,-16.998975,-12.722524,0.167837,14.813825,20.198201,22.179253,15.562907,28.722166,31.862434,31.570219,26.535621,38.232681,39.739144,39.376348,35.244899,44.368029,48.026531,50.240345,26.515377,51.781986,74.977661,94.85701,49.997349,82.887817,100.32399,112.951767,40.304786,77.646515,97.830963,110.707054,31.36821,66.359802,85.216896,97.595421,23.720798,50.224033,65.177398,75.38118,-13.512386,-14.374125,-9.44806,-7.102743,13.83061,29.145169,34.702286,37.902131,31.69477,46.306683,50.009966,50.096046,44.099872,59.899369,62.793129,61.496333,51.079138,65.293885,66.7961,63.949875,-2.865755,297.802946,-70.244802,280.907107
14,1.832256,-3.876457,0.016937,-0.007312,-0.07426,-0.642105,-1.228385,-7.204341,-18.898555,4.566491,24.766343,36.896599,-26.339195,1.487641,23.170189,39.026688,-30.723381,-9.692367,11.230889,25.03949,-31.887176,-37.344932,-38.621315,-38.817638,-15.258675,-18.439982,-14.156961,-9.244382,3.325001,19.206898,23.570343,24.780688,19.094574,32.933582,35.245221,33.90625,30.055519,42.441985,43.136677,42.188907,38.724104,48.971424,52.707435,54.850323,26.68087,52.028709,75.335999,95.419441,49.941399,82.92865,100.491714,113.238968,40.270363,77.897369,98.225372,111.170105,31.425785,66.813629,85.727646,98.057098,23.888386,50.721771,65.76194,76.029488,-13.463738,-14.38046,-9.584046,-7.414754,13.677482,29.076652,34.690295,37.890041,31.658547,46.319355,50.04966,50.142545,44.184668,59.889873,62.739753,61.38217,51.279815,65.400949,66.819232,63.915394,-1.015727,293.930191,-70.210093,280.903497
15,-0.316062,1.176963,0.142376,0.209112,-2.28027,-3.417492,-3.094952,-8.982354,-19.932232,5.160255,25.523757,38.153892,-26.600899,2.732025,25.396385,40.931945,-29.724118,-7.63789,13.860923,28.052513,-29.295971,-32.878727,-32.209225,-30.444169,-12.489552,-14.161506,-8.746526,-2.980198,4.200831,18.46036,23.058605,25.002384,18.139591,30.279327,33.171778,32.769264,28.026166,39.219194,40.717148,40.495933,36.142356,46.000056,49.225724,51.136369,26.687908,52.04528,75.47105,95.652157,49.989841,83.021885,100.613033,113.33186,40.320385,78.166019,98.503933,111.362835,31.477741,67.134647,86.000759,98.179882,23.940617,50.962749,66.042561,76.305553,-13.602986,-14.657498,-9.916857,-7.839968,13.486846,28.891659,34.532695,37.714435,31.590103,46.169869,49.869126,49.962036,44.190349,59.717527,62.462295,61.058054,51.367846,65.329157,66.628201,63.667565,-1.324539,295.115904,-70.060467,281.121359
16,4.38359,-1.967071,0.131218,0.177174,-1.165432,-2.738949,-5.102154,-13.067837,-22.492401,0.2295,20.465309,32.703461,-29.667778,-2.816826,18.919121,34.79773,-33.477253,-13.386635,7.365235,21.039116,-33.972908,-40.221645,-42.149631,-43.007137,-13.699317,-16.640304,-12.259013,-7.965606,5.350883,21.167954,24.985945,25.765952,20.487366,34.105493,35.784018,33.945103,30.726091,43.376651,43.456037,41.992972,39.015923,49.603142,53.284097,55.596131,26.582188,51.987213,75.543217,95.778248,49.995335,83.097896,100.696758,113.376469,40.382378,78.435711,98.768726,111.541729,31.609749,67.509922,86.349163,98.424488,24.161934,51.365833,66.551823,76.968647,-13.736194,-14.856717,-10.136256,-8.142656,13.402409,28.772321,34.421631,37.615758,31.596785,45.997932,49.72158,49.873597,44.22304,59.482579,62.170426,60.768321,51.407317,65.169347,66.408382,63.46616,3.060133,293.156833,-69.928167,281.306533
17,-1.527832,2.619292,0.181835,0.180731,-2.347538,-3.357021,-3.283756,-9.18996,-21.729755,2.562607,22.902786,35.1362,-28.36029,-0.219566,21.92569,37.389542,-31.261345,-10.606762,10.318199,24.355454,-30.60585,-37.189991,-39.825645,-41.251865,-13.984764,-17.099307,-12.28401,-7.571404,3.119075,18.125351,22.744838,24.900989,17.984202,30.377905,32.648628,31.794385,28.467952,39.908093,40.584186,39.685137,37.122075,46.597206,50.478936,53.28096,26.49678,51.97768,75.649521,95.98803,49.984268,83.111916,100.72023,113.346497,40.453114,78.659203,98.947701,111.609673,31.781307,67.920982,86.674828,98.576294,24.440472,51.915562,67.154846,77.608704,-13.912355,-15.089108,-10.398176,-8.431635,13.213354,28.681054,34.345407,37.500618,31.476606,45.87763,49.597079,49.723161,44.157263,59.30517,61.890697,60.410848,51.416851,65.046242,66.165061,63.159915,1.524313,295.787589,-69.75432,281.498728
18,4.084511,-1.777573,0.150684,-0.10253,-1.337494,-2.649776,-5.020649,-12.508312,-24.118378,-2.222511,17.747017,29.791443,-30.818996,-5.302506,16.079636,32.060944,-34.082417,-15.293266,5.163368,18.828026,-34.11628,-42.181618,-45.933174,-48.85754,-15.170754,-19.871863,-16.342975,-12.956002,4.471607,19.844224,23.46927,24.530796,20.427061,33.590681,34.843325,32.730078,31.129878,43.315482,42.610798,40.463638,39.764364,49.647208,53.699171,56.386401,26.561314,52.017357,75.659947,96.02631,50.096707,83.174275,100.693715,113.166058,40.541165,78.684597,98.841076,111.327748,31.810627,67.907719,86.563946,98.319615,24.433217,51.756581,67.020596,77.525677,-13.87055,-15.003102,-10.29556,-8.428906,13.275104,28.779446,34.494422,37.712459,31.578457,46.049629,49.871819,50.089612,44.247085,59.416493,62.024386,60.63042,51.471698,65.076203,66.222118,63.265063,5.584042,294.026451,-69.628418,281.412633
19,-0.752289,2.713128,0.299939,0.031456,-2.37577,-3.157413,-2.649982,-7.213428,-23.77581,-0.978493,19.394074,31.82959,-30.478145,-4.257637,17.826988,33.749199,-33.198761,-14.476307,6.459412,20.666931,-32.286472,-41.273895,-45.523155,-48.769031,-15.871375,-21.183787,-17.496584,-13.673035,1.993106,16.44558,21.228643,23.775786,17.991921,29.679126,31.817419,30.594217,29.108317,39.530799,39.643197,38.147244,38.233052,46.70937,50.567796,53.219346,26.47776,51.953567,75.632537,96.009498,50.305114,83.426147,100.921211,113.267463,40.706852,78.90271,98.963562,111.285804,31.87318,68.029152,86.612114,98.241829,24.401332,51.776264,67.04805,77.506965,-13.92893,-15.030878,-10.251989,-8.392511,13.284082,28.826302,34.542995,37.749064,31.552138,46.030313,49.777414,49.935347,44.148136,59.347184,61.841839,60.402734,51.30134,64.907735,65.969941,62.993917,4.773748,296.746529,-69.386484,281.451039
20,-3.279453,2.953164,0.207389,-0.065764,0.632458,1.371265,3.749782,2.776142,-18.868481,4.485203,25.110706,37.11945,-26.14896,0.340816,21.845409,37.902088,-29.855656,-10.659096,10.019565,24.20145,-30.028244,-40.558045,-47.214787,-53.158779,-19.409043,-27.655712,-26.546032,-24.32855,-2.466113,12.37109,17.952364,21.313204,15.180808,28.003392,30.184071,29.192606,27.640794,38.285206,37.834194,36.105936,37.517772,45.067538,49.323624,52.432337,26.496747,52.035599,75.710404,96.149048,50.322293,83.630196,101.088822,113.279641,40.684674,79.108658,99.111695,111.263878,31.86089,68.226586,86.779908,98.290787,24.481385,51.919636,67.235596,77.700646,-13.928349,-14.941328,-10.126858,-8.396994,13.299001,28.916273,34.670164,37.926016,31.650321,46.123235,49.852478,50.01792,44.246627,59.419235,61.814558,60.362077,51.342244,64.895002,65.887319,62.910368,1.3841,299.708665,-69.28929,281.394247
21,-6.711788,4.526639,0.227532,0.032875,1.813293,4.154388,10.353264,13.530464,-12.085533,13.906059,34.612724,46.288971,-19.363827,9.407432,31.062286,46.834854,-23.097473,-1.908509,18.627845,32.987388,-23.20673,-32.114891,-38.774071,-44.801731,-20.43767,-29.308314,-28.891388,-26.8072,-6.881849,6.824087,13.538197,18.518825,10.768111,23.020813,26.124339,26.360572,23.813923,33.233738,33.565906,32.654544,34.030726,40.25702,44.271106,47.274189,26.588631,52.128639,75.795891,96.254631,50.470928,83.936851,101.365951,113.400444,40.766865,79.395126,99.35202,111.336433,31.864677,68.468376,86.97084,98.309875,24.412319,51.977772,67.267685,77.584167,-13.984344,-15.00514,-10.214012,-8.484741,13.09588,28.841852,34.648083,37.921904,31.472543,45.99766,49.660818,49.764003,44.102589,59.261031,61.573065,60.097836,51.232514,64.787829,65.70707,62.698084,-5.493147,304.255475,-69.227217,281.447293
22,3.01831,-1.91672,0.11047,-0.02938,2.616921,4.204376,7.742684,8.714218,-13.528129,11.212487,31.3293,42.572891,-21.026081,6.449707,27.003296,42.372414,-25.322181,-5.053184,14.61866,27.87957,-26.319832,-35.470367,-42.221466,-48.672352,-20.425122,-29.812334,-30.554648,-29.534296,-4.607075,9.464992,14.907105,18.302908,13.099571,26.236786,28.245651,27.188064,25.735002,36.234141,35.506363,33.709821,35.575412,42.836334,46.686016,49.436033,26.797691,52.339771,75.961132,96.412319,50.514393,84.130153,101.563144,113.569393,40.755409,79.546703,99.513485,111.442554,31.832096,68.614849,87.129215,98.382808,24.398998,52.01952,67.275867,77.450878,-13.881962,-14.884381,-10.134194,-8.562115,12.885816,28.692267,34.610686,38.009033,31.343731,45.958843,49.730422,49.933544,44.07711,59.227463,61.552563,60.140504,51.305552,64.819197,65.691187,62.685239,-2.672585,302.360213,-69.314495,281.439371
23,-3.606765,2.123522,0.144928,0.137456,2.124092,4.571708,11.121116,14.497467,-10.591473,16.275764,36.63874,48.008422,-18.097218,11.599548,32.825592,48.147789,-22.14497,-0.142582,19.968498,34.025413,-22.636277,-30.183106,-35.584546,-40.315144,-20.632628,-29.495356,-29.426418,-27.57146,-7.073016,6.527179,12.881099,17.449703,10.457469,22.750939,25.706746,25.811178,23.468182,32.816404,33.213694,32.425203,33.653209,40.260133,43.849931,46.395555,26.832115,52.45681,76.159046,96.607029,50.658497,84.47327,101.92226,113.896808,40.902443,79.925228,99.893589,111.795765,31.980949,68.983188,87.512981,98.725673,24.554592,52.307338,67.511066,77.544559,-13.869118,-14.899794,-10.203181,-8.805572,12.706246,28.459406,34.434438,37.879753,31.171917,45.689278,49.446717,49.653531,43.926575,58.945881,61.242762,59.824997,51.176407,64.579421,65.406111,62.404633,-6.495494,304.505876,-69.385711,281.598968
24,3.543663,-2.112469,-0.006993,-0.138197,2.248809,3.521301,6.56369,6.698341,-13.25409,12.421669,32.149978,43.086776,-20.77081,7.924781,28.111816,43.133857,-25.039799,-3.716618,15.551536,28.722198,-26.097737,-33.516026,-38.919857,-43.835198,-20.193311,-28.831996,-29.414364,-28.368115,-4.277723,9.608031,14.501331,17.501499,13.034129,26.282704,27.980433,27.050818,25.4665,36.174898,35.516317,33.951982,35.103071,42.92691,46.556192,49.206236,27.043202,52.724579,76.419594,96.803971,50.731316,84.609421,101.990479,113.921082,40.971199,80.04229,99.955925,111.894654,32.055966,69.087937,87.617363,98.829987,24.631588,52.234818,67.435089,77.468514,-13.680174,-14.708726,-10.080644,-8.791864,12.766885,28.502915,34.557062,38.093174,31.234025,45.760426,49.714787,50.132491,44.006085,58.956082,61.371375,60.128846,51.263253,64.634909,65.559893,62.668406,-3.159376,302.425054,-69.600249,281.492418
25,2.875453,-2.323582,0.249081,-0.055168,0.342488,0.839505,2.517277,-0.226535,-16.894901,8.611371,28.063557,39.210194,-24.379611,4.500699,24.914166,39.85001,-28.177516,-7.190048,12.234204,25.679341,-28.624408,-35.637107,-39.831882,-42.956932,-18.599829,-25.206357,-23.744515,-21.70333,-1.736372,12.829982,17.366032,19.889092,14.878071,27.596642,29.385799,28.336017,26.804916,37.554427,37.483118,36.16818,36.407796,44.97632,48.670588,51.358744,27.110149,52.709919,76.354969,96.680637,50.776005,84.555325,101.953892,113.999462,41.112465,80.013714,99.955639,112.044445,32.233738,69.105343,87.631634,98.916218,24.736828,52.260189,67.402554,77.364132,-13.527638,-14.681889,-10.153373,-8.70051,13.008416,28.59196,34.546836,37.94401,31.360403,45.811692,49.748132,50.086512,44.089386,58.968309,61.39841,60.096341,51.379813,64.754483,65.662659,62.690414,-0.501051,300.139767,-69.568296,281.475545
26,7.467419,-4.439039,0.210766,0.091131,-0.759636,-1.834144,-4.100189,-10.9468,-23.766392,-0.81752,18.620064,30.096039,-31.664703,-4.70153,15.664261,30.954209,-35.563625,-16.665218,3.115723,16.501579,-36.23798,-44.968677,-49.222549,-52.43771,-17.275135,-23.227158,-21.022063,-18.475378,2.327879,18.253916,21.84937,22.916899,18.893378,32.304604,33.302306,31.065261,30.285082,42.200441,41.538687,39.478174,39.598094,49.389511,53.399854,56.186897,27.158604,52.670437,76.288673,96.565704,50.719185,84.504204,101.923347,114.126182,41.193249,79.965912,99.929214,112.237907,32.428871,69.036621,87.621094,99.172737,24.951313,52.221714,67.346489,77.447662,-13.50321,-14.797399,-10.355001,-8.774079,13.166583,28.575633,34.401859,37.707,31.416127,45.731923,49.655507,49.964593,44.090054,58.906015,61.359853,60.060797,51.375256,64.754286,65.710725,62.742852,6.734104,295.744867,-69.589794,281.610815
27,-3.260879,3.203302,0.409275,-0.076941,-0.69619,-0.8695,-0.904953,-5.339104,-21.472596,2.986633,22.830345,34.432045,-29.371216,-0.978882,19.941833,35.25904,-32.909649,-13.12246,7.059562,21.12561,-32.992676,-41.509873,-45.767659,-48.748845,-17.503339,-24.000149,-22.300556,-20.006824,-1.053672,14.318711,19.20675,21.723079,15.593523,28.237735,30.242944,29.084309,27.456061,38.158322,38.418958,37.322728,37.210613,45.800158,49.571156,52.211221,26.891418,52.281589,75.789242,95.875156,50.510868,83.974834,101.369625,113.741535,41.114056,79.422581,99.481693,112.007,32.381653,68.4883,87.215023,99.020084,24.811329,51.668724,66.80286,76.934841,-13.582361,-14.888852,-10.484615,-8.876115,13.454316,28.947408,34.709845,37.91768,31.650272,46.191334,50.141001,50.475096,44.243565,59.287509,61.728194,60.338995,51.460941,64.98028,66.005942,62.955694,3.224974,299.003158,-69.42877,281.588863
28,-5.225201,-3.251875,-0.014694,-0.46666,3.12735,5.456554,5.324055,0.521656,-15.772648,8.512562,28.111919,39.136883,-24.26453,4.199924,24.644405,39.99416,-29.17907,-8.797245,11.038021,24.290806,-31.078617,-39.04311,-43.990814,-48.17831,-17.404391,-23.691188,-22.367333,-20.519007,0.94987,17.885006,23.055764,25.356436,17.841917,33.058824,35.344602,33.99023,29.564813,42.77724,43.069776,42.037359,39.00655,48.877723,53.308081,56.370938,26.824333,52.121269,75.46812,95.204693,50.393715,83.238086,100.595844,113.278736,41.174984,78.664959,98.898571,111.953212,32.484558,67.705158,86.594639,98.86433,24.792457,51.159748,66.339809,77.061985,-13.673258,-14.876749,-10.511094,-8.975336,13.087407,28.783188,35.061451,38.750174,30.987159,46.309511,51.320236,52.562642,43.472747,59.235083,62.742568,62.237561,50.905063,65.12543,67.122092,64.974722,-2.255373,295.805484,-69.69861,281.176404
29,-8.45002,-2.350443,-0.24194,-2.382269,6.849186,11.776486,14.26759,11.599766,-8.594936,16.265019,34.955418,45.106396,-18.397556,10.182266,30.276684,45.609501,-24.812038,-3.364048,15.979065,29.354885,-27.984535,-33.821102,-37.97842,-41.107864,-17.541785,-23.897508,-23.230777,-22.175796,-1.030997,17.546219,24.929333,28.782423,16.376259,33.54091,38.223629,38.523464,28.603223,43.146557,45.73422,46.456416,38.30446,48.760435,54.106711,58.017476,26.737507,52.083355,74.871918,94.056748,49.752445,81.478501,98.36023,110.98114,40.55286,76.237747,96.054749,109.549919,31.547207,64.936535,83.616783,96.438172,23.233601,48.43285,63.226467,74.298294,-14.11633,-15.363626,-11.490986,-10.738175,11.870541,28.391468,35.647957,40.445618,29.003341,45.688957,52.269896,55.110834,41.428647,58.56041,63.796487,64.966385,49.386843,64.841452,68.550602,67.981979,-11.014166,293.519274,-70.249323,278.858368
30,8.090172,-1.948732,2.061093,-4.037699,2.819218,3.373592,2.912407,0.090122,-16.742237,-3.103375,9.45916,16.312798,-24.172497,-8.191326,4.320476,15.458988,-28.654884,-16.841572,-4.742294,3.522629,-30.476028,-38.81377,-45.216499,-50.670044,-18.410119,-26.641351,-29.564862,-31.943179,0.684936,17.797827,24.189934,27.200118,18.352297,35.514984,40.026185,40.169656,30.395554,45.623514,48.330121,49.11755,39.343658,50.944917,56.832708,60.838457,25.044651,48.362091,68.678077,86.041431,48.658367,75.36993,88.549839,97.528381,39.91785,69.106235,83.492202,92.155609,30.670303,57.187534,70.314262,78.422229,21.496456,41.420951,51.824455,58.825035,-14.432875,-16.095504,-13.054025,-12.555267,11.210688,28.405004,36.457122,41.3615,27.502299,46.277648,54.778617,58.998356,39.459118,57.939411,65.006313,67.509947,47.290071,63.692376,68.954783,69.742101,-3.290594,291.666703,-68.55483,274.91683
31,4.830963,-1.878139,-9.686554,-17.855576,-1.609394,-5.117191,-7.993927,-11.621509,-21.070209,-17.029175,-11.483116,-9.206863,-25.608696,-20.654571,-16.025837,-11.193558,-27.503986,-24.60759,-20.345512,-17.488003,-26.983646,-37.564201,-45.294514,-51.587345,-18.611648,-25.244581,-25.845425,-26.843744,1.6857,17.83988,24.872856,28.826254,19.291014,35.775645,41.582938,43.56993,31.558623,46.418699,50.798582,53.125757,40.276188,52.064465,57.998803,62.003589,26.812877,51.286342,71.415916,86.406486,54.162597,81.181514,88.009735,91.739296,46.02341,72.19907,79.802581,84.106224,36.635604,60.051052,67.090519,70.85606,27.12284,45.208728,50.446495,53.398086,-15.80671,-17.847117,-14.31713,-11.950582,4.198509,21.05132,28.96408,32.854393,21.055161,42.100356,49.635808,52.260522,34.751081,55.110489,60.919165,61.930982,45.230781,62.600727,66.731521,66.763396,1.059952,289.985476,-78.721801,257.258166
32,10.174484,-4.64347,-8.419659,-27.586392,-6.577411,-15.401653,-23.424614,-30.634208,-29.407585,-36.922565,-38.638618,-41.044395,-31.170238,-38.945434,-42.157539,-43.110912,-30.794426,-38.000312,-41.181701,-43.829853,-28.485305,-41.899349,-51.045124,-58.552333,-18.470363,-22.80565,-20.362618,-19.29462,5.806342,21.694402,28.319208,32.122132,23.226071,39.706404,45.888596,48.798164,35.19482,50.773955,56.148773,59.293375,43.187929,56.114439,62.411067,66.702289,26.737095,49.936489,67.669258,79.772175,54.99448,79.922974,82.195953,81.896416,47.352356,70.422432,73.111759,73.727348,37.94371,57.982235,60.576004,61.120342,28.067402,43.69416,45.79826,46.414352,-18.393274,-24.191236,-24.232245,-23.529439,-3.84232,9.423051,15.074202,17.64221,11.121595,28.38948,33.785886,36.242737,23.777305,40.349881,44.696344,46.067858,34.343257,48.128012,51.208061,51.888649,10.248922,285.775825,-88.126974,230.105593
33,15.596363,-0.192871,-9.870712,-39.773243,-14.738353,-31.08554,-44.635402,-54.904449,-43.034294,-62.272293,-71.134529,-78.045673,-41.602775,-62.661129,-73.81398,-81.047561,-37.650867,-56.435703,-67.215774,-75.14574,-31.910465,-49.899181,-61.133468,-70.195369,-18.603115,-21.945936,-17.563596,-15.106918,6.63812,20.566678,26.842163,30.787088,23.957381,37.847049,44.036985,47.758991,36.071985,49.598153,55.663995,59.528484,43.89717,56.047205,61.744335,65.639576,27.679252,50.324421,66.840992,78.441776,53.346256,73.151012,73.320556,70.944706,45.577972,62.870773,62.413627,60.461277,36.451858,51.085922,50.940136,49.777427,27.279613,38.918071,38.625228,37.177173,-15.431885,-22.308065,-24.454879,-24.579109,-15.00233,-8.934018,-7.04093,-7.218876,-3.807215,5.330339,6.427922,5.896572,6.560253,15.382195,15.705835,14.301235,16.090318,23.259689,23.30053,22.015683,24.716451,286.176153,-99.12652,190.925549
34,15.887513,0.529225,-12.738842,-45.733108,-23.588585,-46.891892,-65.93684,-79.545685,-56.185582,-86.054043,-100.930607,-111.590435,-50.69212,-83.29889,-101.432843,-114.463967,-42.66037,-71.976357,-89.395455,-102.406712,-33.411415,-56.337319,-69.938267,-81.240784,-18.469523,-20.143046,-12.665305,-7.776105,9.159328,20.888782,25.842721,29.256296,26.081151,37.198856,42.326228,46.095127,38.090927,49.695411,55.18601,58.791592,45.565728,56.979217,61.702247,64.642308,28.25085,50.31475,66.477848,77.930729,51.015323,66.317905,64.610447,60.86491,43.002262,55.35141,52.587329,48.867611,33.991481,43.857284,41.580024,38.89817,25.235458,32.644294,30.702312,27.807563,-13.959959,-23.13189,-26.499942,-26.475921,-29.565591,-32.692002,-36.186476,-40.705933,-21.1256,-21.536914,-25.872219,-30.663291,-12.125966,-12.29003,-16.915933,-21.817223,-2.546828,-2.769636,-6.649291,-10.19356,39.23156,287.553044,-113.237766,146.040107
35,3.25177,-1.438512,-16.972573,-48.196789,-24.047905,-47.921425,-69.033245,-85.179428,-56.314282,-87.224133,-103.297577,-115.716385,-50.609734,-84.238003,-103.157582,-118.062893,-42.38015,-73.27723,-91.316941,-105.135624,-33.010437,-57.731873,-71.977787,-83.859867,-18.260314,-17.419681,-5.042132,3.811025,9.624567,22.392453,28.308266,32.528338,26.86774,37.970476,43.544426,48.047131,39.348474,50.594755,56.572467,60.707348,47.225615,57.928851,62.177687,64.951602,31.617977,55.741288,73.46854,85.459957,50.577519,64.566719,63.708939,62.180878,41.310585,52.947499,53.070957,52.62434,31.718136,42.097275,43.017151,43.59343,23.258606,31.310772,31.625176,31.47123,-14.545508,-25.943917,-30.402328,-31.248197,-43.970802,-55.305337,-64.820995,-73.789785,-38.087358,-48.522072,-60.049615,-70.078153,-30.015752,-39.281512,-50.354429,-59.205246,-20.100649,-27.575518,-36.415447,-43.308251,41.069161,286.777942,-131.624508,98.506728
36,2.106971,0.180607,-4.749046,-43.512262,-24.841644,-48.848419,-70.110786,-86.508018,-57.370811,-88.293949,-104.497993,-117.263671,-51.642288,-85.375488,-104.235546,-119.210025,-43.455597,-74.512573,-92.369075,-106.181682,-34.179565,-59.031372,-73.345264,-85.383796,-18.448652,-17.632534,-5.237707,3.511487,9.479466,22.207572,28.103934,32.251363,26.84651,37.648769,43.033047,47.36968,39.382956,50.411345,56.283982,60.404006,47.23788,57.81633,61.925129,64.640196,30.50275,53.209682,70.201218,84.004166,43.498238,51.335953,54.571484,56.881187,33.247799,41.396416,45.642162,48.160126,23.319431,30.405052,35.062191,38.94326,14.424408,19.31266,22.712517,25.638931,-12.101604,-25.898079,-32.526652,-34.869272,-54.262149,-73.918583,-87.731045,-99.144182,-52.823951,-74.433026,-89.336596,-101.058664,-48.341174,-68.123196,-81.797794,-91.922237,-40.801195,-56.538072,-67.231835,-75.461535,41.721565,287.487969,-137.828121,55.523886
37,1.18348,-0.402625,-6.210022,-36.644726,-25.278328,-49.276131,-70.678299,-87.353646,-57.837616,-88.706497,-104.962223,-117.890992,-52.156311,-85.901196,-104.769814,-119.808266,-44.017571,-75.221443,-93.065975,-106.956574,-34.834076,-59.804856,-74.241806,-86.512139,-18.385148,-17.747958,-5.391206,3.183123,9.566967,22.33547,28.22331,32.214153,27.07842,37.861709,43.090734,47.186528,39.733439,50.785737,56.406568,60.291275,47.645692,58.235122,62.145034,64.656139,31.48241,55.631687,74.73666,90.833931,41.973347,46.318119,51.431156,56.231232,30.933918,36.012108,42.50758,47.561943,20.560787,25.279381,32.304211,38.882893,11.237068,14.616989,19.454075,24.187637,-9.055562,-21.73063,-26.665637,-27.090838,-63.370989,-88.136992,-104.491642,-118.746706,-64.172923,-90.996555,-108.765826,-124.355533,-60.735908,-85.522511,-101.710696,-114.947058,-53.551698,-73.335795,-85.97256,-97.029407,41.698048,287.492384,-145.24514,19.2862
38,0.814064,-0.222968,-3.458782,-26.42678,-25.629525,-49.597595,-71.029473,-87.799771,-58.173798,-89.03389,-105.349251,-118.414627,-52.519272,-86.27853,-105.206349,-120.321636,-44.466133,-75.701912,-93.566723,-107.498051,-35.363022,-60.302456,-74.714047,-87.020256,-18.334859,-17.801631,-5.483758,2.965576,9.590888,22.195568,28.084877,32.02627,27.179962,37.955372,43.148063,47.134484,39.854617,50.949931,56.46018,60.193276,47.729783,58.38967,62.200449,64.595994,31.21376,56.003494,76.057651,92.412426,43.09917,47.607982,52.407371,57.715221,31.835758,37.133777,44.15768,50.392422,20.666611,25.8876,33.584095,41.046432,9.847023,13.681423,19.185665,24.840008,-11.249869,-25.65256,-30.423885,-29.099826,-68.433838,-94.527596,-112.485153,-128.700453,-69.504251,-97.543134,-117.022107,-134.504077,-66.00336,-92.19201,-109.44556,-123.626097,-58.509368,-79.701152,-93.173863,-105.484712,41.176031,287.727836,-150.040003,-6.68216
39,0.383445,0.066851,0.764625,-19.685531,-25.825126,-49.705581,-71.222625,-88.008831,-58.407028,-89.355937,-105.606937,-118.629032,-52.842956,-86.703277,-105.663139,-120.757701,-44.913642,-76.231246,-94.066326,-107.913837,-35.875373,-60.712005,-75.019935,-87.214931,-18.460941,-18.153102,-6.002214,2.453751,9.398462,21.821928,27.727083,31.64075,27.064563,37.770948,42.910435,46.811233,39.740428,50.718985,56.1846,59.868963,47.579001,58.165282,61.915335,64.272459,30.995991,56.1484,76.633004,92.971905,45.115506,50.121563,55.083104,60.699543,33.917176,39.991059,47.377201,53.99413,22.504921,28.855809,37.063465,45.031414,11.034439,16.323349,22.218212,28.377343,-10.672824,-25.411067,-30.493021,-27.792595,-68.868895,-95.067094,-113.195918,-130.03135,-70.763675,-99.473149,-119.810212,-138.42366,-68.15364,-95.29771,-113.219276,-128.418874,-61.586088,-83.956972,-98.162654,-112.017165,40.268508,288.061699,-150.566346,-26.100679
40,0.060883,0.114893,3.37904,-15.45096,-25.77459,-49.585236,-71.214546,-88.157341,-58.54303,-89.628559,-105.878174,-118.862457,-53.122307,-87.116226,-106.132244,-121.188972,-45.330688,-76.783607,-94.637306,-108.411255,-36.365341,-61.267055,-75.56266,-87.707485,-18.606486,-18.544291,-6.546779,1.765987,9.097033,21.384266,27.279973,31.177745,26.838421,37.404793,42.47323,46.30073,39.558338,50.341307,55.757275,59.419778,47.44457,57.888998,61.581821,63.900561,29.317028,54.316509,75.164131,92.12162,45.438652,51.853363,57.538948,63.403542,34.907147,42.512615,50.032471,57.280838,23.856445,31.365086,40.087967,49.038906,12.018459,18.111706,24.500107,31.495892,-7.881205,-22.624097,-27.575054,-22.595204,-69.631623,-96.736003,-114.024034,-130.194281,-72.454957,-102.042904,-121.668624,-140.018494,-70.80908,-98.724734,-115.989241,-131.439654,-64.9235,-88.384352,-102.000957,-115.792813,38.92115,288.549354,-148.595547,-41.178877
41,0.067291,0.317693,3.065289,-5.329029,-25.565666,-49.384712,-71.28574,-88.385605,-58.573036,-90.049713,-106.374813,-119.389824,-53.274673,-87.678005,-106.717964,-121.713272,-45.606125,-77.451885,-95.399986,-109.143425,-36.768951,-62.027298,-76.397735,-88.530727,-18.914472,-19.082977,-7.287821,0.969506,8.651653,20.578671,26.379443,30.319045,26.486234,36.727169,41.611553,45.384676,39.254082,49.696003,54.928992,58.533117,47.194642,57.39681,60.91935,63.183182,28.722095,53.628788,74.561794,91.528907,45.524952,52.724407,58.511581,64.485878,35.195297,43.704506,51.465168,58.979335,24.183677,32.926151,42.042274,51.289203,12.297065,19.633197,26.529476,33.843464,-7.067329,-21.534716,-26.318514,-20.542776,-68.091068,-95.020262,-112.263867,-128.683626,-71.171333,-100.500435,-120.281133,-138.828138,-69.792317,-97.52874,-114.987002,-130.615528,-64.384666,-87.938256,-101.497016,-115.186823,37.44148,289.116469,-147.077219,-46.258484
42,0.142342,0.077027,2.345043,-0.394598,-25.461754,-49.420212,-71.527931,-88.76651,-58.573517,-90.539452,-106.990254,-119.978691,-53.408409,-88.233307,-107.44043,-122.452263,-45.907677,-78.052792,-96.200306,-109.981899,-37.248917,-62.713589,-77.144978,-89.216217,-19.269895,-19.514204,-7.964197,0.213484,8.291426,19.866294,25.647058,29.641754,26.243481,36.176628,40.917528,44.558715,39.044502,49.217833,54.324975,57.774946,46.970365,57.003992,60.442736,62.654056,28.037945,52.387539,72.969715,90.25185,44.42569,52.761623,59.286484,65.446724,34.21566,43.696174,51.618473,58.952041,23.29525,32.615124,41.667686,50.581009,11.556885,18.877933,25.818283,33.015175,-5.637819,-19.931119,-24.238729,-17.759079,-66.505941,-93.739206,-110.77462,-126.692826,-69.629777,-99.294394,-118.595238,-136.433024,-68.156072,-96.065076,-113.634757,-129.164667,-62.429975,-85.761269,-99.290494,-112.438318,35.972048,289.159818,-146.34395,-46.68676
43,0.219063,-0.116868,0.322368,4.044275,-25.311905,-49.453423,-71.740952,-89.149338,-58.750901,-90.943978,-107.45921,-120.419071,-53.728798,-88.765766,-108.07148,-123.121056,-46.337288,-78.600827,-96.870175,-110.715615,-37.773926,-63.324475,-77.807305,-89.891156,-19.576437,-19.917756,-8.436169,-0.366897,7.885774,19.329842,25.045633,29.002674,25.929726,35.672941,40.261157,43.805297,38.81642,48.795299,53.739345,57.047154,46.851828,56.75799,60.100342,62.211329,27.44402,51.129227,71.327099,88.519547,42.793923,51.791577,58.700798,64.921338,32.698334,42.76458,50.543988,57.429726,21.848866,31.279713,40.085862,48.644177,10.235836,17.002694,23.89547,30.954026,-4.483308,-18.498126,-22.033794,-15.362699,-65.030272,-92.842692,-109.722053,-125.17526,-67.824824,-97.883659,-116.640254,-133.76038,-65.738154,-93.720693,-111.321981,-126.829229,-59.040964,-82.092831,-95.6236,-108.276241,34.516691,288.37707,-147.696002,-43.308365
44,0.390701,-0.20164,-3.059063,7.430434,-25.176407,-49.438683,-71.937389,-89.549068,-58.889671,-91.37439,-108.096794,-121.152489,-53.941956,-89.19342,-108.574757,-123.567547,-46.630669,-79.028103,-97.419983,-111.239845,-38.200745,-63.940052,-78.494328,-90.522869,-19.823513,-20.334053,-9.002976,-0.960898,7.525177,18.760121,24.457276,28.500656,25.746575,35.386629,39.908538,43.402166,38.773145,48.763176,53.529419,56.660338,46.874194,56.813343,60.008914,61.923017,27.155629,50.261685,70.082623,87.224316,41.548703,51.255581,58.423508,64.658329,31.406617,41.98193,49.645443,56.092598,20.579636,30.246552,38.790402,46.936432,9.25676,15.954484,22.809689,29.708107,-4.522131,-17.983326,-20.678886,-14.764956,-63.600912,-91.590354,-108.278366,-123.428073,-65.702575,-95.526548,-113.766125,-130.228695,-62.664491,-90.182574,-107.820524,-123.257975,-54.759673,-77.228203,-90.705248,-103.024592,33.322386,287.270095,-152.340071,-36.783266
45,0.541077,-0.275913,-6.606216,8.049339,-25.176316,-49.564133,-72.220002,-89.865601,-59.219056,-91.841378,-108.667157,-121.756611,-54.218354,-89.568684,-108.967736,-123.929135,-46.883492,-79.360966,-97.757492,-111.525502,-38.504059,-64.330674,-78.876046,-90.815483,-20.062919,-20.746348,-9.603004,-1.546552,7.275865,18.297437,23.904375,27.935441,25.607043,35.153768,39.642875,43.102269,38.718891,48.720284,53.319023,56.295936,46.85047,56.853061,59.880016,61.598469,26.659035,48.956795,68.332901,84.847698,39.750938,50.381447,58.040508,64.549187,29.89856,41.399277,49.367867,55.635304,19.835152,30.659901,39.173447,46.81604,10.13657,17.5383,24.28355,30.77219,-4.593298,-16.564425,-18.454735,-14.543964,-59.374151,-86.6706,-102.966268,-116.860142,-61.287544,-90.586348,-107.868822,-122.361137,-58.118284,-85.088635,-102.352657,-116.651663,-50.089909,-71.612262,-84.830867,-96.477485,32.32956,286.094417,-160.48019,-29.633692
46,0.292236,-0.562831,-7.367111,7.006288,-25.221428,-49.705559,-72.353062,-90.045204,-59.439377,-92.0079,-108.832512,-121.884991,-54.444351,-89.748779,-109.157547,-124.106792,-47.15554,-79.600754,-97.98103,-111.736004,-38.821152,-64.548065,-79.076626,-90.992203,-20.119358,-20.746384,-9.573178,-1.586639,7.230467,18.311307,23.967151,28.027104,25.555606,35.222361,39.770341,43.259486,38.707258,48.850109,53.45979,56.453339,46.905848,56.970671,59.956192,61.621712,25.014301,45.629368,63.490505,78.055275,38.593757,49.557312,57.052139,63.020485,28.5294,39.60553,46.168167,50.945858,18.324818,28.398674,34.932896,40.496967,9.298622,15.699818,21.092411,25.839683,-4.091311,-14.511205,-16.305968,-14.427181,-53.789771,-78.92703,-92.773303,-103.596672,-55.433092,-80.957371,-93.515136,-103.444266,-51.80499,-73.843767,-86.170233,-96.048329,-43.683921,-60.559315,-70.146054,-78.328567,31.044148,284.856895,-169.424949,-23.302095
47,0.013756,-0.608031,-13.471653,16.140366,-25.117447,-49.53138,-72.171181,-89.937035,-59.386116,-91.943722,-108.721356,-121.733803,-54.357056,-89.730332,-109.062733,-123.99646,-47.042931,-79.665516,-97.972275,-111.708744,-38.705704,-64.507977,-78.998348,-90.927807,-19.897206,-20.448464,-9.24731,-1.321965,7.35398,18.602348,24.318189,28.43273,25.595002,35.404154,40.071497,43.711857,38.749396,49.00756,53.661281,56.806069,47.009934,57.185624,60.192128,61.911296,25.095142,43.749012,58.714153,70.904594,35.100002,47.957508,54.359115,58.092018,24.235931,37.124542,42.632389,45.203785,13.781113,25.709049,31.65826,35.052154,4.986763,13.392403,19.247154,22.974701,-7.487867,-20.57617,-25.501173,-27.029477,-56.207022,-78.677546,-85.408687,-91.059517,-57.004825,-78.306402,-83.53689,-88.516406,-52.483182,-70.391839,-76.005884,-81.117546,-43.661549,-57.342816,-62.051155,-66.212089,29.416357,283.880828,-184.538149,-7.529765
48,-0.177132,-0.50066,-13.198265,15.536194,-25.145393,-49.404465,-71.959946,-89.725651,-59.28273,-91.817631,-108.523132,-121.454819,-54.184364,-89.590828,-108.817474,-123.667213,-46.861038,-79.537662,-97.755627,-111.377266,-38.574554,-64.374676,-78.793716,-90.637344,-19.73332,-20.252517,-9.195131,-1.151164,7.540985,18.876681,24.604143,28.723019,25.7208,35.647204,40.361378,44.015854,38.861708,49.246781,53.908974,57.087663,47.114551,57.452546,60.49342,62.240809,24.059326,40.548546,52.210579,60.585708,29.586696,44.2397,50.546482,53.048012,18.004852,32.807304,38.33028,39.789825,7.543899,21.33728,27.668632,29.883087,-0.680409,9.999767,17.079643,20.606609,-10.147267,-25.702597,-33.469008,-37.543084,-58.367669,-77.689052,-78.611375,-79.864618,-58.028907,-75.13206,-74.076289,-74.542844,-52.459464,-66.271611,-66.268276,-66.911018,-42.781606,-53.412538,-54.186086,-54.742784,27.405138,283.530916,-199.570501,8.157177
49,-2.3e-05,-0.362487,-11.156651,14.286241,-25.230308,-49.451843,-71.989059,-89.792347,-59.199211,-91.623779,-108.226375,-121.079086,-54.07624,-89.479145,-108.63184,-123.486522,-46.731834,-79.451637,-97.603454,-111.176376,-38.441345,-64.235859,-78.584232,-90.335529,-19.499397,-19.772272,-8.569266,-0.540712,7.821492,19.199042,24.912413,29.062053,25.799309,35.749067,40.552001,44.374821,38.805403,49.222883,54.025213,57.464797,46.998312,57.411692,60.561024,62.486662,22.268749,36.190556,43.497437,46.904984,23.632599,38.366581,45.499352,48.262367,11.488678,27.061238,33.539692,35.396679,0.92387,15.228642,22.365052,24.787628,-7.097831,4.976681,13.236946,17.237046,-12.386292,-30.228166,-40.250061,-45.583456,-60.960815,-76.561433,-73.112722,-70.076528,-60.175807,-73.119792,-67.205122,-62.927912,-53.996505,-63.449931,-58.631837,-54.592816,-43.827009,-50.84842,-48.308378,-45.559231,25.489935,283.504392,-212.642332,22.779381
50,0.017212,-0.27726,-8.533195,13.333711,-25.306732,-49.457977,-71.960563,-89.798355,-59.029838,-91.428486,-107.964821,-120.724296,-53.902084,-89.329307,-108.423294,-123.224796,-46.552231,-79.276394,-97.41093,-110.965896,-38.234894,-63.984409,-78.293793,-89.995502,-19.178134,-19.165068,-7.739982,0.329093,8.216967,19.634421,25.427906,29.67831,26.076742,36.106862,41.020243,44.975987,38.97733,49.495413,54.441337,58.032556,47.077292,57.58778,60.868221,62.917087,21.562317,33.112003,36.405327,36.006649,17.866264,32.218998,40.300701,43.660022,4.787281,20.377544,27.987648,30.572559,-6.457981,7.207649,15.430126,18.654247,-15.140488,-2.65535,7.025768,12.062851,-15.153915,-36.4213,-49.344099,-55.373891,-67.026262,-79.216411,-72.081317,-65.84024,-65.115791,-73.520244,-63.573025,-55.813412,-57.157873,-62.127312,-53.152927,-45.352627,-44.979506,-48.443766,-43.227993,-37.822627,23.634533,283.594114,-223.048141,36.480074
51,0.24852,-0.152388,-8.031521,12.80527,-25.487274,-49.496223,-71.951878,-89.677437,-58.950989,-91.254753,-107.725067,-120.418144,-53.761711,-89.16045,-108.232773,-123.000629,-46.330696,-78.954632,-97.069221,-110.603393,-37.95639,-63.521736,-77.733604,-89.355423,-18.782659,-18.642177,-7.249029,0.899173,8.52236,20.011222,25.795753,29.984642,26.301897,36.519342,41.530215,45.443215,39.148465,49.883144,54.920558,58.441554,47.162779,57.89132,61.306983,63.350551,22.403618,32.717811,33.472092,31.075241,12.30574,27.010139,36.620659,41.137287,-1.270237,15.798969,26.226643,30.58548,-12.376396,2.893307,14.116276,19.261528,-20.934197,-5.943901,6.268078,13.263348,-18.088684,-42.94961,-58.310198,-65.467552,-74.087008,-84.395178,-75.410696,-67.616201,-71.305535,-78.436868,-68.018178,-59.538618,-62.193774,-66.747354,-57.78012,-49.576479,-48.336012,-51.562836,-46.87911,-41.919014,22.372473,283.761319,-232.590242,49.604937
52,0.588318,0.112522,-0.914257,1.99426,-25.631516,-49.554886,-71.938992,-89.458351,-59.026749,-91.174507,-107.61842,-120.333435,-53.847336,-89.038021,-108.124901,-122.938053,-46.369927,-78.722225,-96.810585,-110.344437,-37.898735,-63.130165,-77.257324,-88.813843,-18.388544,-18.228153,-6.897286,1.266489,8.643181,20.187852,25.905965,29.996387,26.316272,36.688205,41.780601,45.688055,39.129767,50.014796,55.191308,58.730471,47.120949,57.993974,61.553515,63.576866,21.331833,30.854027,30.87038,27.04398,9.515522,23.094978,35.02074,42.533466,-3.711582,12.900753,25.670162,32.794292,-14.430782,0.422321,13.116474,20.405239,-22.459305,-7.412293,5.514038,14.05632,-16.900075,-41.053817,-55.815549,-62.625144,-73.241157,-81.872772,-75.715416,-68.736804,-70.244792,-76.419784,-68.375435,-59.935462,-60.655985,-64.046768,-56.867245,-48.885893,-46.078256,-48.022141,-45.210113,-41.426962,21.863783,284.065094,-234.601507,51.79045
53,0.774124,0.145484,0.348884,0.681262,-25.639,-49.569237,-71.967556,-89.421936,-58.866302,-91.005455,-107.489078,-120.305603,-53.705292,-88.861748,-107.988899,-122.909168,-46.213371,-78.524414,-96.66354,-110.287525,-37.699425,-62.872604,-77.023968,-88.635612,-18.135306,-17.812252,-6.334962,1.775596,8.728013,20.347452,26.062552,30.179155,26.316297,36.795984,41.97073,45.965389,39.089308,50.060886,55.403063,59.103863,47.052171,58.015389,61.698579,63.808356,21.521199,30.633465,30.021573,26.354393,9.244423,21.390221,34.654152,44.263047,-3.909164,11.703106,26.004868,35.272637,-14.665363,-0.631633,12.914738,21.845627,-22.724407,-7.888698,5.269181,14.852154,-16.586989,-40.449126,-55.171845,-62.646467,-72.708276,-80.018994,-75.424436,-68.493971,-70.015946,-75.204728,-68.641962,-59.782174,-60.462466,-62.874566,-56.673176,-48.611098,-45.837097,-46.534395,-44.649124,-41.542751,22.094696,284.316317,-234.795834,52.577451
54,0.506859,0.099356,0.746476,-0.000309,-25.567589,-49.393662,-71.660362,-89.069859,-58.74305,-90.725887,-107.155071,-119.990261,-53.655464,-88.605194,-107.78064,-122.808392,-46.176567,-78.244927,-96.443024,-110.20388,-37.555206,-62.502068,-76.69384,-88.480511,-17.927725,-17.631113,-6.210473,1.784686,8.86442,20.60946,26.300353,30.318527,26.390459,36.962994,42.112608,46.028474,39.151935,50.14383,55.534912,59.200936,47.129619,58.145868,61.956128,64.115354,21.992649,31.352874,31.214355,28.098575,9.552326,21.347717,34.891342,45.048294,-3.53579,11.61969,26.4818,36.543926,-14.252449,-0.691201,13.474136,23.213367,-22.275765,-7.798565,5.622665,15.902664,-16.330743,-40.143344,-55.236602,-63.177625,-71.914141,-78.930112,-74.713256,-67.716953,-69.137169,-74.137742,-67.9062,-58.81334,-59.539223,-62.305462,-56.525815,-48.439074,-44.85487,-45.61364,-44.123714,-41.105113,22.346827,284.496819,-234.304086,52.658288
55,0.493858,0.084932,0.572651,0.273597,-25.520462,-49.278717,-71.435726,-88.824795,-58.558456,-90.406746,-106.843368,-119.790092,-53.565056,-88.320923,-107.544285,-122.700016,-46.169243,-78.011741,-96.263923,-110.13184,-37.564682,-62.326034,-76.553158,-88.474777,-17.781204,-17.499746,-6.225689,1.669608,8.971409,20.767738,26.415134,30.373163,26.405341,36.969379,42.028615,45.870071,39.145389,50.099208,55.531207,59.236787,47.132595,58.138309,62.06629,64.341336,22.14862,31.765972,32.09761,29.648677,10.429538,22.140586,35.487659,45.563713,-2.596974,12.358188,27.146793,37.33057,-13.3774,0.014007,14.223632,24.117656,-21.617283,-7.223912,6.201004,16.583553,-15.792748,-39.476668,-54.554908,-63.09478,-71.048196,-77.998723,-73.809291,-66.840937,-68.323724,-73.628739,-67.296389,-58.196503,-58.959565,-62.16735,-56.358724,-48.362533,-44.575739,-45.418897,-43.838179,-40.80918,22.787538,284.657698,-233.784582,53.007832
56,0.23552,0.117882,0.832111,0.71407,-25.341523,-49.0532,-71.117466,-88.436806,-58.19973,-90.145546,-106.698029,-119.735974,-53.280327,-88.099537,-107.445694,-122.739064,-45.975518,-77.859867,-96.200959,-110.165326,-37.434929,-62.256295,-76.566159,-88.614041,-17.86253,-17.589877,-6.319217,1.584565,9.015794,20.81636,26.492198,30.486919,26.449578,36.871751,41.882995,45.774209,39.18439,50.003198,55.449338,59.262352,47.171152,58.102629,62.079714,64.484757,21.745399,31.440811,32.179241,30.215561,10.277126,21.906189,35.198307,45.636257,-2.617699,12.023827,26.838695,37.628918,-13.371059,-0.340427,14.102051,24.831425,-21.616791,-7.570198,5.994965,17.028511,-15.514118,-38.977947,-53.995746,-62.858369,-70.277175,-77.175918,-73.439067,-66.721555,-67.626866,-73.308175,-67.231521,-57.998346,-58.450822,-62.381971,-56.928631,-48.901417,-44.300382,-45.643589,-44.205613,-40.948298,23.029209,284.794383,-232.94632,53.740705
57,-0.113549,0.0978,0.438721,0.520883,-25.162078,-48.81221,-70.81089,-88.146251,-57.890945,-89.92995,-106.531837,-119.570022,-52.960739,-87.895626,-107.304977,-122.637462,-45.694107,-77.623397,-96.047401,-110.087471,-37.211517,-62.088066,-76.440216,-88.540603,-18.074556,-17.768323,-6.486634,1.460619,9.031405,20.88121,26.570202,30.535566,26.547651,36.971305,41.908831,45.754597,39.296702,50.111978,55.524031,59.338502,47.238571,58.168394,62.14869,64.644814,21.84391,31.524501,31.940632,29.663177,10.495044,21.569709,34.690738,45.183471,-2.61438,11.397457,26.265026,37.467968,-13.696701,-1.250176,13.576675,25.137622,-22.304718,-8.594571,5.299209,17.027423,-15.556812,-39.198303,-54.268658,-63.181768,-69.732258,-76.544761,-72.873415,-66.173359,-67.075311,-72.894577,-66.875387,-57.52769,-57.998506,-62.237623,-57.067613,-49.0207,-43.941451,-45.343408,-43.847739,-40.415521,22.96285,284.879039,-232.460409,54.248444
58,-0.218238,0.257511,-0.07639,0.407442,-24.998955,-48.5663,-70.545777,-87.828976,-57.750435,-89.844555,-106.461297,-119.479363,-52.800797,-87.832844,-107.270337,-122.604756,-45.544739,-77.569245,-96.019696,-110.13509,-37.105362,-62.052018,-76.408528,-88.537251,-18.247864,-18.052621,-6.883429,1.203602,9.049881,20.932155,26.606302,30.5133,26.638152,37.041479,41.89048,45.675743,39.379004,50.164306,55.493898,59.261105,47.273992,58.128281,62.067735,64.598317,21.774514,31.383385,31.841252,29.387764,10.272675,21.51162,34.609028,45.090466,-2.825706,11.370941,26.301899,37.630257,-13.903736,-1.345401,13.664452,25.509762,-22.456455,-8.682975,5.294232,17.256672,-15.378959,-38.94249,-53.971911,-62.722685,-69.487511,-76.181453,-72.479386,-65.747819,-66.793754,-72.690412,-66.64806,-57.211671,-57.728034,-62.143516,-56.959599,-48.795361,-43.629291,-45.021176,-43.437062,-39.822279,22.835639,285.101723,-232.445772,54.621059
59,-0.067658,0.126268,-0.417823,0.190586,-25.078239,-48.608597,-70.585945,-87.837067,-57.691521,-89.865566,-106.524284,-119.562103,-52.601005,-87.76086,-107.198524,-122.575115,-45.262138,-77.453911,-95.916412,-110.080982,-36.847938,-61.956139,-76.361492,-88.506958,-18.331512,-18.170257,-7.121243,1.171677,9.12014,21.016728,26.675857,30.51483,26.76926,37.183936,42.012732,45.758982,39.502702,50.343666,55.626673,59.354409,47.355563,58.19155,62.049704,64.528414,22.237163,31.653511,32.189083,30.398769,10.094936,21.687515,34.765594,45.102733,-3.002678,11.749557,26.622951,37.780998,-14.065373,-0.734368,14.196212,25.860294,-22.485981,-7.971257,6.061386,17.958892,-15.396082,-39.111704,-54.304905,-63.54646,-69.49434,-76.038827,-72.320823,-65.648314,-66.759902,-72.368704,-66.281367,-56.926988,-57.707014,-61.687025,-56.422636,-48.384375,-43.660024,-44.621854,-42.986691,-39.473611,22.896601,285.194751,-232.734975,54.778405
60,-0.195854,0.160464,-0.372036,0.253831,-25.051712,-48.529862,-70.509167,-87.708035,-57.665543,-89.960346,-106.623425,-119.629097,-52.431084,-87.837971,-107.312794,-122.702076,-44.984596,-77.445728,-95.954556,-110.194473,-36.513771,-61.82016,-76.294407,-88.49429,-18.516207,-18.423482,-7.446964,1.05671,9.177692,21.104649,26.740744,30.4896,26.926712,37.367336,42.207951,45.937972,39.662031,50.499524,55.742492,59.43944,47.489476,58.307061,62.073367,64.494317,22.200084,31.709632,32.181003,30.041702,10.143413,21.636383,34.706256,45.118961,-2.993042,11.747234,26.646526,37.960384,-14.159077,-0.77694,14.207805,26.121048,-22.696599,-8.051686,6.139583,18.38301,-15.277626,-38.955513,-54.207895,-63.309579,-69.273366,-75.971488,-72.380121,-65.708613,-66.64843,-72.311906,-66.445147,-57.078357,-57.64735,-61.594733,-56.425254,-48.31288,-43.614989,-44.554256,-42.886241,-39.275466,22.874199,285.326405,-232.933559,55.003426
61,-0.058571,0.206271,-0.285347,0.202109,-25.059265,-48.536751,-70.65136,-87.939171,-57.716904,-90.151886,-106.777142,-119.770363,-52.410736,-88.052422,-107.478447,-122.785538,-44.881279,-77.614746,-96.115437,-110.329411,-36.356094,-61.930389,-76.471161,-88.629925,-18.623096,-18.734482,-7.982401,0.724431,9.110323,20.975899,26.572166,30.277302,26.977582,37.416625,42.202862,45.84957,39.734686,50.568821,55.772738,59.416259,47.558747,58.343482,61.965119,64.247154,22.215694,31.765869,31.917171,28.852386,9.691967,21.317218,34.40776,44.831909,-3.417298,11.604961,26.537509,37.892292,-14.496518,-0.84866,14.19794,26.162818,-22.922242,-8.111447,6.117199,18.438171,-15.31412,-39.029854,-54.401069,-63.170622,-69.457833,-75.938779,-72.210845,-65.504281,-66.614374,-72.016794,-66.327587,-57.058986,-57.403232,-61.065161,-56.019677,-47.952696,-43.204602,-44.028673,-42.421545,-38.870711,23.060949,285.52437,-232.973585,55.197229
62,0.16745,0.031802,-0.636006,0.288634,-25.283203,-48.815392,-71.064812,-88.393948,-57.965401,-90.390015,-106.965454,-119.982079,-52.577179,-88.290802,-107.678764,-122.996876,-44.927605,-77.837769,-96.334545,-110.561977,-36.292648,-62.060944,-76.689903,-88.932838,-18.529088,-18.791725,-8.182708,0.656493,9.081806,20.977096,26.553924,30.250489,26.937617,37.319825,42.140494,45.804628,39.697685,50.477763,55.689844,59.336255,47.58194,58.340962,61.89676,64.095408,22.079636,31.909401,32.461682,29.216549,9.206383,21.399227,34.535717,44.736809,-3.792652,11.813793,26.663899,37.730988,-14.590084,-0.480881,14.444,26.037426,-22.723251,-7.769325,6.219143,18.162174,-15.325186,-38.88931,-54.234127,-62.907398,-69.660386,-75.998486,-72.025069,-65.327922,-66.590039,-71.841386,-66.126787,-57.003343,-57.168883,-60.608789,-55.519968,-47.589184,-42.852186,-43.712122,-42.214187,-38.853304,23.542746,285.558071,-233.295244,55.487762
63,0.041954,0.011535,-0.448974,0.368255,-25.439827,-49.020241,-71.393944,-88.898632,-58.162628,-90.689919,-107.255436,-120.211658,-52.705444,-88.557484,-107.89967,-123.075565,-44.960793,-77.95911,-96.387497,-110.446003,-36.241768,-62.112328,-76.715801,-88.831409,-18.42799,-18.694999,-8.041262,0.788528,9.027391,20.96524,26.612402,30.434295,26.894836,37.348477,42.246137,45.995819,39.679197,50.566103,55.782728,59.411319,47.568244,58.402132,61.905961,64.013861,21.575889,31.756198,32.702247,29.236942,8.49567,21.097858,34.283123,44.501621,-4.419686,11.485473,26.233177,37.196846,-15.013138,-0.844174,13.962833,25.473918,-22.93697,-8.114228,5.76139,17.688629,-15.516168,-39.015961,-54.31728,-62.615863,-69.694973,-75.824628,-71.851032,-65.480977,-66.400694,-71.584103,-65.955356,-57.096926,-56.768938,-60.100231,-55.16478,-47.482664,-42.292783,-43.318396,-42.092008,-39.013447,24.008057,285.584735,-233.320861,55.871146
64,0.059715,0.132035,-0.400727,0.403773,-25.481071,-49.203644,-71.76321,-89.434799,-58.499702,-91.115501,-107.634498,-120.530811,-53.043457,-88.940998,-108.170208,-123.132396,-45.281845,-78.271248,-96.622753,-110.540588,-36.530868,-62.344207,-76.892349,-88.899616,-18.367216,-18.637757,-7.967965,0.803953,8.992798,20.853534,26.512823,30.45676,26.844423,37.269312,42.124451,45.851965,39.639306,50.575316,55.753508,59.32819,47.545804,58.430895,61.875592,63.916789,21.201027,31.645443,32.640003,28.483887,7.472637,20.166252,33.513325,44.156124,-5.429168,10.487515,25.41441,36.825623,-15.855114,-1.813305,13.210819,25.178982,-23.56279,-9.139583,4.736893,16.966336,-15.743119,-39.328689,-54.639055,-62.362556,-69.48378,-75.537846,-71.913683,-65.918478,-65.990942,-71.200126,-65.852034,-57.217851,-56.143054,-59.583509,-54.953167,-47.474735,-41.521248,-42.977934,-42.024008,-39.119089,24.720669,285.727351,-233.068691,56.2855
65,0.179856,0.29345,-0.419472,0.379444,-25.603226,-49.468621,-72.260811,-90.241265,-58.983971,-91.574261,-108.055996,-120.900673,-53.56556,-89.364647,-108.458039,-123.190956,-45.820816,-78.622502,-96.833004,-110.515938,-37.097603,-62.744545,-77.164376,-88.958737,-18.366178,-18.70131,-8.058244,0.520568,8.805658,20.586093,26.21405,30.193555,26.715068,37.100388,41.800509,45.362569,39.572159,50.644847,55.70433,59.098182,47.508087,58.528325,61.92251,63.834451,21.302056,31.58883,32.799958,28.871716,6.497509,19.615037,33.140088,43.858464,-6.310112,10.019761,25.10162,36.662465,-16.458938,-2.127593,13.04995,25.096837,-23.826152,-9.357685,4.533486,16.827359,-16.071872,-39.894094,-55.271904,-63.151195,-69.593517,-75.364259,-71.684571,-65.857604,-65.718703,-70.740654,-65.431588,-57.037842,-55.575642,-58.825307,-54.321602,-47.14999,-40.765726,-42.449536,-41.771572,-39.191634,25.899983,286.038977,-232.488705,56.68312
66,0.396675,0.231156,-0.683132,0.642075,-25.836708,-49.895966,-72.857586,-91.191559,-59.665924,-92.11409,-108.570729,-121.37732,-54.239662,-89.708966,-108.707073,-123.342945,-46.482514,-78.892044,-97.010113,-110.575344,-37.733025,-62.997231,-77.253159,-88.887142,-18.33534,-18.671855,-8.110509,-0.034321,8.767472,20.533976,26.026366,29.898339,26.674474,36.921399,41.416656,44.776731,39.603985,50.699978,55.591883,58.757753,47.584114,58.730904,62.128683,63.948319,21.376637,31.886719,33.488285,29.750931,6.685536,20.018246,33.608906,44.268734,-6.116043,10.375168,25.437836,36.967999,-16.28104,-1.861702,13.332413,25.398835,-23.723304,-9.244434,4.686837,17.118084,-16.036761,-39.826336,-55.228599,-63.354546,-69.447558,-75.126669,-71.26578,-65.498785,-65.537293,-70.688167,-65.193689,-56.837271,-55.362628,-58.786293,-54.110762,-46.970043,-40.491875,-42.447029,-41.743556,-39.158709,27.699984,286.28504,-231.768511,57.340102
67,0.396446,0.501957,-0.058044,0.794308,-25.862251,-50.097038,-73.261414,-92.036442,-60.045364,-92.475494,-109.031765,-121.894718,-54.686829,-90.020771,-108.993073,-123.537357,-47.079117,-79.203014,-97.313038,-110.774654,-38.477898,-63.433456,-77.554321,-89.02375,-18.525012,-19.008148,-8.692927,-1.093081,8.522372,20.148283,25.580689,29.429209,26.575278,36.668272,40.90046,44.061858,39.640936,50.752268,55.413437,58.35488,47.667341,58.96101,62.408844,64.249612,21.222072,31.74345,33.079353,28.736458,6.526714,19.826877,33.554958,44.56398,-6.172989,10.260372,25.538933,37.445801,-16.246548,-1.94339,13.427902,25.802959,-23.548588,-9.155205,4.920341,17.647407,-15.905745,-39.553745,-54.856602,-62.441449,-69.099495,-74.845519,-71.359363,-65.724415,-65.242293,-70.668036,-65.405944,-57.070163,-55.065572,-58.897487,-54.407269,-47.265445,-40.164191,-42.347661,-41.779359,-39.147149,29.641228,286.80052,-230.281757,58.147933
68,0.761833,0.50502,0.215195,1.082917,-25.929085,-50.420814,-73.806106,-92.864124,-60.254494,-92.700542,-109.400665,-122.430874,-55.002434,-90.266636,-109.348457,-124.092659,-47.589592,-79.567028,-97.830734,-111.442634,-39.140053,-63.799141,-77.899692,-89.508602,-18.661617,-19.427989,-9.69169,-2.707583,8.345123,19.68834,24.905151,28.502211,26.471833,36.095511,40.013032,42.918981,39.642739,50.466845,54.931981,57.695571,47.758299,59.108815,62.812556,64.925186,21.212734,31.665104,33.184021,28.699104,6.187053,19.305221,33.264896,44.609653,-6.418396,9.796485,25.501899,37.931934,-16.37122,-2.35151,13.56174,26.531478,-23.475037,-9.544121,4.775161,18.001876,-15.833664,-39.506734,-54.941015,-62.667443,-68.700705,-74.925332,-71.621765,-65.86278,-64.668601,-70.738234,-65.608572,-57.215314,-54.328216,-58.908955,-54.533005,-47.348975,-39.304983,-42.211427,-41.877388,-39.26705,32.093456,287.328255,-228.376167,59.253565
69,0.87101,0.625667,0.456653,1.89299,-25.782669,-50.458168,-74.058529,-93.416851,-60.217415,-92.89238,-109.817791,-123.030933,-55.126282,-90.525261,-109.80629,-124.797421,-47.928978,-79.906197,-98.431412,-112.321678,-39.626793,-64.147224,-78.302193,-90.152607,-18.892205,-20.165029,-11.171835,-4.845752,7.945117,19.026982,23.997705,27.320642,26.183484,35.347554,38.93613,41.626496,39.504567,50.039582,54.361469,57.04471,47.734686,59.165812,63.224296,65.732746,21.134663,31.528244,33.771332,30.243462,6.103913,19.64938,33.757496,45.089699,-6.191082,10.326199,26.162098,38.453716,-15.870048,-1.544025,14.496964,27.256039,-22.750419,-8.849819,5.551861,18.75214,-15.682493,-38.992459,-54.323629,-62.710582,-68.49294,-75.036643,-71.829772,-66.071045,-64.412102,-70.990367,-65.856135,-57.586835,-54.018291,-59.211513,-54.65035,-47.403013,-38.947338,-42.477337,-42.283965,-39.739929,34.692484,287.969106,-226.191496,61.161739
70,0.740707,0.263983,1.17548,2.478198,-25.569191,-50.325851,-74.078109,-93.583957,-59.921356,-92.939289,-110.103035,-123.485469,-55.035713,-90.69049,-110.190616,-125.448646,-48.064911,-80.188064,-99.008331,-113.214237,-39.900695,-64.450538,-78.745273,-90.912517,-19.030662,-20.763625,-12.547807,-6.750197,7.708008,18.469462,23.213623,26.337897,25.965283,34.714032,38.091223,40.705983,39.396467,49.640477,53.857153,56.55577,47.769736,59.263871,63.636381,66.548839,21.108994,31.725723,34.493454,30.799999,6.028038,19.927986,34.19268,45.819283,-6.06665,10.989132,26.977352,39.252148,-15.551857,-0.413921,15.865185,28.571903,-22.125732,-7.704861,7.010182,20.435589,-15.431366,-38.348698,-53.796459,-62.445919,-68.298839,-75.459324,-72.60012,-66.999407,-64.290163,-71.240783,-66.115178,-57.990658,-53.954811,-59.556494,-54.8825,-47.617039,-38.994304,-42.9082,-42.919235,-40.585977,37.115581,288.232324,-223.333626,63.639172
71,0.508736,0.240234,2.251865,3.115574,-25.233238,-50.049431,-73.967457,-93.634827,-59.57753,-92.820259,-110.161182,-123.694107,-54.85421,-90.793991,-110.448681,-125.919983,-48.09835,-80.407688,-99.493595,-114.014603,-40.088264,-64.756416,-79.227882,-91.725677,-19.188953,-21.358591,-13.732514,-8.225365,7.463217,17.948189,22.531774,25.486717,25.765088,34.286237,37.491849,40.061098,39.273237,49.360451,53.492665,56.250192,47.764524,59.303885,63.968376,67.287436,21.1913,32.054661,35.490727,32.311947,5.626202,20.142472,34.780358,47.02834,-6.250797,11.726441,28.329712,41.256581,-15.382564,0.676301,17.455376,30.46011,-21.479541,-6.844963,8.127652,21.85191,-15.492734,-37.997196,-53.446402,-62.506564,-67.994916,-76.173783,-73.903826,-68.521252,-63.914789,-71.66943,-66.790715,-59.123068,-53.493042,-59.744147,-55.188572,-48.196765,-38.645236,-43.125895,-43.504536,-41.581554,39.257086,288.514915,-219.448992,66.797103
72,0.445496,0.167405,2.999714,4.202924,-25.012894,-49.860558,-73.870045,-93.567261,-59.526055,-92.87962,-110.286736,-123.86546,-54.920014,-90.988312,-110.721497,-126.366978,-48.259346,-80.663281,-99.870152,-114.642815,-40.272332,-65.023293,-79.616032,-92.390671,-19.330991,-21.962349,-14.847306,-9.56052,7.37053,17.577984,21.926855,24.621051,25.624779,33.847846,36.919374,39.426453,39.124543,49.003571,53.129437,55.946392,47.692943,59.172444,64.072141,67.679959,21.943085,33.290738,38.295193,38.404827,5.502343,20.897862,36.038636,48.847206,-6.396743,12.890843,30.299904,43.756588,-15.229889,2.337319,19.789696,32.918507,-20.823429,-5.30381,10.140416,24.036152,-15.475252,-37.640822,-53.06936,-63.221881,-67.781334,-77.054201,-75.21885,-70.142608,-63.5308,-72.328689,-67.756491,-60.834659,-52.773347,-60.0806,-55.697982,-49.166517,-37.719924,-43.262054,-44.1753,-42.917042,41.521941,288.757965,-214.629919,71.075672
73,-0.012291,0.332872,3.898545,5.473847,-24.716194,-49.585121,-73.70232,-93.537461,-59.592636,-93.076859,-110.557583,-124.138333,-54.992089,-91.280091,-111.012097,-126.607281,-48.321717,-80.883705,-100.135334,-114.973446,-40.354363,-65.344666,-80.029667,-92.874928,-19.625355,-22.613347,-15.755815,-10.570658,6.996742,17.139827,21.421428,23.987182,25.317323,33.594163,36.59858,39.020283,38.869044,48.826915,52.926056,55.705071,47.481707,58.970952,63.866142,67.477812,22.978832,35.103721,41.681373,45.168491,6.529174,23.695221,38.873737,51.376487,-5.518559,16.116165,32.971698,45.016021,-14.20776,6.250557,23.242824,34.846882,-19.308884,-1.83387,13.866703,27.125175,-14.979551,-36.421702,-51.644796,-62.720356,-67.751193,-77.611462,-76.038358,-71.273696,-63.582176,-72.416678,-67.596743,-61.22528,-52.524993,-59.851179,-55.269243,-49.215696,-37.165535,-42.929226,-43.87381,-42.939007,43.672182,289.188865,-208.568842,76.647547
74,-0.288483,0.169851,6.334888,6.459569,-24.715073,-49.625175,-73.730965,-93.560566,-59.917442,-93.321728,-110.747063,-124.204605,-55.294281,-91.577396,-111.298473,-126.832912,-48.561539,-81.183929,-100.334072,-115.001163,-40.562828,-65.596207,-80.228954,-92.968655,-19.760824,-22.81984,-16.060813,-11.004356,6.867683,17.073359,21.333915,23.756223,25.168492,33.556853,36.580981,38.932264,38.693327,48.721594,52.766122,55.411855,47.299358,58.731693,63.574902,67.055563,23.669941,36.448929,44.234162,50.200459,6.651226,24.954174,40.560917,53.107212,-5.70829,17.407253,34.558663,46.241512,-14.308182,7.589905,25.069874,36.420662,-18.903053,-0.48238,15.663723,28.74971,-15.057777,-36.272526,-51.272473,-62.472855,-67.470439,-77.991154,-76.1317,-71.331433,-62.570056,-71.994441,-67.05066,-61.117619,-50.53626,-58.543102,-54.435891,-49.045815,-34.318792,-40.590485,-41.902941,-41.29536,45.932819,289.335156,-199.684834,83.083556
75,-0.095787,0.171271,6.096623,7.00969,-24.914726,-49.973419,-74.096191,-94.047684,-60.396721,-93.567581,-110.918953,-124.340389,-55.660538,-91.749172,-111.4048,-126.946953,-48.827568,-81.397247,-100.476116,-115.056484,-40.761292,-65.735344,-80.307461,-92.955254,-19.783375,-22.758732,-15.777823,-10.804519,6.971214,17.306158,21.607395,23.942512,25.217114,33.794617,36.953855,39.31913,38.639764,48.779256,52.860835,55.429133,47.121443,58.517975,63.413869,66.83956,24.223011,38.183475,47.523468,56.240833,7.204547,27.93124,44.461841,56.67057,-5.095631,19.834877,37.367775,47.844429,-13.101277,10.146034,27.722866,37.845028,-16.961312,2.138076,17.996521,29.709503,-15.436843,-36.012889,-49.982216,-60.624807,-65.556318,-76.333562,-73.053584,-67.618251,-59.362319,-69.389703,-63.252565,-56.993895,-45.909239,-54.639957,-50.031604,-44.735117,-28.533896,-35.385672,-36.553502,-35.904246,48.389288,289.500171,-191.035955,90.08699
76,-0.464447,0.279741,5.3596,6.388976,-25.101746,-50.178017,-74.233509,-94.156002,-60.713081,-93.795811,-111.050057,-124.332951,-55.80043,-91.850933,-111.399902,-126.806809,-48.832741,-81.434441,-100.357178,-114.73724,-40.713112,-65.713783,-80.200676,-92.716106,-19.902133,-22.79362,-15.600858,-10.498866,7.000422,17.554543,21.917667,24.23348,25.247644,34.019179,37.300744,39.696253,38.593205,48.819703,52.890945,55.386773,46.955026,58.299849,63.136203,66.483174,24.291057,39.640194,50.846397,62.232261,9.045627,32.573742,49.044559,60.223308,-3.017247,24.151519,41.80941,51.537025,-10.449784,14.799923,32.828659,42.667808,-13.791161,6.409115,22.318428,33.385151,-14.853179,-34.219676,-46.78344,-56.246141,-61.568292,-70.55846,-64.85103,-58.486588,-54.133659,-62.703777,-54.625217,-47.559686,-39.590956,-47.039365,-41.222964,-36.002071,-21.451507,-27.400406,-27.568725,-26.636343,50.570572,289.927647,-183.030624,96.623701
77,-0.428536,0.215497,5.842208,8.715246,-25.322021,-50.374259,-74.423812,-94.362316,-60.995452,-93.978343,-111.136116,-124.326862,-55.955886,-91.899673,-111.345634,-126.634208,-48.888633,-81.49356,-100.282562,-114.426795,-40.750579,-65.712158,-80.065681,-92.357425,-19.910371,-22.662117,-15.278781,-10.035825,7.027753,17.68149,22.104597,24.45998,25.2461,34.19823,37.572903,39.986603,38.524625,48.843143,52.862218,55.276499,46.786039,58.149091,62.888497,66.106805,23.134392,40.073016,52.728922,64.469748,15.101058,39.365553,53.914525,63.068654,4.004551,30.891873,46.649746,54.705769,-3.301225,21.754355,38.386523,47.022452,-7.281801,12.483164,27.213576,37.035439,-15.946738,-33.788776,-44.529553,-52.510389,-55.939232,-62.263817,-55.369872,-48.887573,-46.94128,-53.082068,-44.378381,-37.171099,-31.818048,-37.134419,-30.946815,-26.036515,-13.844945,-17.923242,-17.223159,-16.031537,52.678419,290.24649,-174.652033,105.442293
78,-0.240188,-0.136938,5.963746,10.626215,-25.619316,-50.630242,-74.57888,-94.50547,-61.280708,-93.974682,-111.017407,-124.17746,-56.197357,-91.747559,-111.080109,-126.338665,-49.083275,-81.484451,-100.09663,-114.054566,-40.872528,-65.608269,-79.796642,-91.892532,-19.73695,-22.273843,-14.63218,-9.252422,7.368936,18.049374,22.543087,25.010115,25.477047,34.512231,38.056927,40.605021,38.629984,48.999187,53.066316,55.535703,46.79713,58.175236,62.942628,66.152118,21.275631,40.005998,53.923708,65.33563,24.97748,47.505895,58.776432,65.520755,15.52042,39.271808,52.447746,59.394836,8.019132,30.279825,44.538889,51.945024,2.305532,20.170938,32.703214,40.909366,-18.952545,-35.081867,-43.507547,-49.731689,-48.558786,-51.800834,-45.0861,-39.400567,-37.58718,-41.291451,-33.984929,-27.869882,-22.321558,-25.764927,-20.52279,-16.380121,-5.426537,-7.354876,-6.506178,-5.606221,54.486809,290.047705,-166.639709,116.006661
79,-0.345131,-0.194723,4.775116,11.662232,-25.656006,-50.601334,-74.555271,-94.519272,-61.355965,-93.848248,-110.802818,-123.977222,-56.232101,-91.489986,-110.603439,-125.719105,-49.10376,-81.264462,-99.735432,-113.601517,-40.859413,-65.506577,-79.628231,-91.634228,-19.599248,-21.992459,-14.032621,-8.306913,7.735498,18.336784,22.919764,25.646082,25.780352,34.820155,38.400531,41.052847,38.825114,49.232158,53.290902,55.830338,46.897005,58.373405,63.126124,66.366205,20.225704,40.342763,55.798044,67.821985,31.815221,54.512094,65.454975,72.8222,23.030181,46.30751,59.68832,67.981121,15.179826,37.134676,51.174093,59.590296,8.254915,24.981714,36.603727,44.674198,-20.264413,-34.23018,-40.984079,-46.06887,-40.577496,-40.797207,-33.48597,-27.896823,-28.709953,-29.265953,-21.917855,-16.178027,-14.24306,-14.37021,-8.513409,-4.727405,0.89857,1.925619,4.286547,5.524902,55.724928,289.810705,-160.281343,127.626616
80,-0.801041,-0.073113,6.959175,16.63758,-25.554336,-50.372223,-74.232433,-94.026088,-61.335594,-93.761444,-110.526123,-123.483696,-56.180511,-91.365795,-110.206272,-124.989761,-49.016327,-81.049358,-99.239879,-112.848426,-40.755569,-65.250297,-79.183101,-90.977417,-19.585872,-21.891805,-13.769897,-7.606897,7.750751,18.395855,22.996804,25.889737,25.813908,34.829851,38.211118,40.786604,38.874219,49.271951,53.139255,55.621634,46.980578,58.469502,63.034796,66.216251,18.125587,39.610147,56.910913,69.208242,45.862741,64.660074,70.967319,75.429714,39.714008,58.674282,67.483852,73.344509,31.889505,50.230127,60.102258,66.055269,23.221441,37.825968,46.4643,52.352771,-21.361934,-33.308629,-38.629894,-44.016416,-33.011687,-27.774767,-21.574705,-17.908101,-20.012555,-15.931699,-10.798544,-6.881521,-6.033805,-2.489746,1.828384,4.220187,7.906508,11.246566,13.178792,13.636659,56.396238,289.702404,-151.849817,144.229008
81,-0.428627,-0.450309,6.99329,19.523029,-25.607849,-50.311248,-74.061195,-93.626541,-61.402519,-93.643375,-110.203159,-123.048111,-56.310539,-91.239761,-109.878215,-124.525772,-49.120559,-80.954967,-98.982719,-112.489059,-40.78228,-65.014686,-78.822624,-90.520385,-19.388974,-21.507668,-13.156024,-6.595178,8.133061,18.669521,23.150403,26.058341,26.068258,34.929504,38.123988,40.592264,39.038932,49.380545,53.170427,55.611384,47.076131,58.583913,63.079355,66.203716,18.375274,40.766996,59.253164,71.716123,51.274011,69.818441,76.264629,81.704406,45.770073,64.685772,73.937072,81.111007,38.049081,56.923685,66.978201,73.679952,29.219633,44.760664,53.523073,59.789005,-23.053155,-33.470996,-37.488617,-41.779452,-27.057601,-20.343476,-15.367282,-12.435594,-13.152949,-7.337202,-4.036807,-1.365258,0.715934,5.763073,8.470103,9.972553,13.943333,17.80583,18.947675,18.739873,56.948124,289.056445,-143.876014,163.556387
82,-0.418579,-0.63714,8.769453,19.491138,-25.572967,-50.239998,-73.831043,-93.11832,-61.389175,-93.469448,-109.846081,-122.565822,-56.296806,-91.101414,-109.524032,-123.972427,-49.078445,-80.738228,-98.654125,-112.094581,-40.712448,-64.794914,-78.591499,-90.267792,-19.129586,-20.993794,-12.349539,-5.205585,8.745661,19.277268,23.710836,26.637139,26.642351,35.487813,38.503987,40.826754,39.497786,49.853997,53.570322,55.911861,47.353599,58.883167,63.344746,66.435934,18.970745,41.861646,60.9799,73.539345,56.606128,74.223295,78.9037,82.707567,52.229187,70.171108,77.161886,82.122711,44.933527,63.10132,70.893842,75.365152,36.110075,51.877544,58.961077,63.105446,-20.155508,-27.659066,-29.753596,-32.443586,-19.244689,-8.042448,-1.838001,1.341169,-5.801575,5.138523,9.084683,11.44195,7.434404,17.274677,20.546579,21.728191,19.847323,26.829646,29.111151,29.182417,57.264719,288.204833,-134.371387,182.833053
83,-0.589233,-0.608724,10.545616,19.459246,-25.665711,-49.857147,-72.450657,-90.199494,-61.436829,-93.003674,-109.19632,-121.727989,-56.736832,-90.921147,-109.195278,-123.363419,-49.709931,-80.724861,-98.561348,-111.959965,-41.395317,-64.921292,-78.672318,-90.369679,-18.910927,-21.285564,-13.966609,-7.696522,8.639377,19.180827,23.750469,26.778869,26.272689,35.555258,38.634751,40.750172,39.17566,49.815886,53.66427,55.79524,47.318859,58.929888,63.40331,66.274038,19.911999,42.894098,62.091121,74.677906,61.859093,77.874636,78.884531,78.439195,59.09135,75.130291,77.158293,76.379619,52.542841,68.763033,71.849184,71.110868,43.892767,59.176609,62.778311,62.302093,-12.668992,-15.872838,-15.424832,-16.008819,-9.57295,9.128317,19.013138,23.422191,2.041568,21.49548,28.565926,31.540104,14.121604,32.045068,38.057811,39.487104,25.61848,38.318014,43.669219,44.964292,57.331324,287.460385,-123.169933,202.156575
84,-0.123528,-0.902766,7.322342,21.043874,-26.068794,-50.106422,-72.115036,-89.21569,-61.660698,-92.779426,-109.231693,-121.765709,-57.24868,-90.62368,-109.080711,-123.172199,-50.461715,-80.578148,-98.372772,-111.936779,-42.251701,-65.038753,-78.690891,-90.41288,-18.0009,-20.5217,-14.33684,-9.330339,9.44107,19.116631,23.353463,25.955637,26.534276,36.330769,39.565342,41.489324,39.138078,50.342641,54.398198,56.477384,47.203374,58.681441,63.276401,66.215547,21.323765,45.588552,65.780285,78.445793,62.168152,82.67367,84.274366,81.754858,60.606342,82.023479,84.16424,80.660614,55.989012,77.15645,79.964166,76.322805,49.466188,69.288162,73.253248,70.721649,-11.938016,-14.03932,-10.936677,-8.533117,-5.096119,15.759829,24.957775,28.478845,8.560447,29.446104,35.494507,37.351015,21.96866,40.890814,45.969656,46.791041,34.009039,47.415702,51.849518,52.25058,57.6108,286.55291,-115.444587,223.19574
85,0.753685,-0.848735,4.180035,15.868769,-27.039734,-51.158088,-72.49776,-89.131382,-60.998108,-91.79124,-108.810802,-122.028408,-57.129318,-90.137432,-109.503525,-124.626091,-50.85141,-80.671989,-99.437278,-114.21793,-42.985794,-65.370838,-79.440181,-91.970661,-16.974867,-18.864602,-13.270682,-8.713106,9.419186,17.013029,19.62149,20.654426,25.580936,34.308011,36.312268,36.741187,37.780607,48.419647,51.867654,53.010099,45.71078,57.195727,61.904788,64.600379,24.32809,49.01045,69.63169,83.707706,55.558021,82.350465,88.86062,89.917653,52.418895,81.631908,89.265947,89.762969,48.373517,76.668142,84.622186,84.879976,43.813642,67.925491,75.521123,76.066303,-10.750259,-11.037966,-5.704206,-0.221943,0.622253,20.163881,28.89818,32.767189,15.148784,35.140357,41.241359,42.852347,28.297126,47.3567,52.651594,53.198314,38.875812,53.376815,58.327321,58.696064,58.562135,285.661435,-111.066902,239.021769
86,1.100556,-1.097366,4.774291,14.440223,-27.788567,-52.062378,-72.361222,-87.651112,-59.384262,-90.094506,-107.918747,-122.092152,-55.851036,-88.924919,-109.405129,-125.739544,-50.343201,-80.435074,-100.224289,-116.061413,-43.187279,-65.737622,-80.473057,-93.792115,-16.09832,-17.978978,-12.906256,-8.795556,9.881128,16.526831,18.239738,18.232464,25.652899,33.862864,35.062217,34.58422,37.741321,47.994458,51.16486,51.762666,45.862438,57.421794,62.42669,65.24036,25.313691,50.730452,72.107289,87.33537,57.753949,85.768347,93.140231,94.388129,54.661789,85.608159,93.557299,93.405041,50.515429,79.912039,87.871451,87.842783,45.880789,70.433613,78.043711,78.334855,-9.52628,-8.083172,-0.824912,5.897806,6.56079,26.931516,34.742202,37.797217,21.828005,42.441453,47.857224,48.546673,34.430017,54.360493,59.336014,59.273887,43.47986,59.68998,64.51817,64.499318,59.831206,284.470372,-106.124096,253.368295
87,0.28434,-0.702819,2.794596,12.226952,-28.423897,-52.437447,-71.235501,-85.310589,-56.745942,-86.033936,-104.452755,-119.462334,-53.504197,-85.27129,-106.396866,-123.579953,-48.869202,-78.140374,-98.377316,-114.988919,-42.727044,-64.682293,-79.726559,-93.696316,-15.376482,-17.071593,-12.222913,-8.733188,10.890686,17.44795,18.306219,17.390645,26.119153,34.445689,34.607055,33.103198,37.719659,47.924088,50.199504,49.800151,45.568914,56.983886,61.487714,63.69807,26.452664,52.257591,74.444573,91.171154,55.783631,87.327027,99.343506,104.730698,51.751316,87.123917,100.103096,104.242745,47.609287,80.569267,92.935055,97.211105,43.663273,70.081398,80.649479,84.237637,-11.407537,-9.805422,-1.673782,5.635602,9.856317,27.408464,32.968792,34.915066,26.677326,43.847374,47.47505,47.184885,39.205361,56.488449,60.049287,59.326227,47.064423,61.939121,65.388067,64.525611,60.270201,283.641384,-103.174845,265.469078
88,-0.299561,0.456706,0.862702,9.712623,-27.964806,-52.150337,-70.275776,-83.782654,-54.948784,-80.945846,-95.983807,-107.782471,-51.561447,-79.85479,-96.322369,-108.866089,-47.340042,-73.790508,-89.089245,-101.22155,-41.873451,-62.267395,-75.025268,-86.465893,-15.23642,-16.540119,-10.680956,-6.193788,10.392582,17.165182,17.908077,16.6293,25.646391,34.377455,34.498412,32.527141,37.184851,47.143958,48.742552,47.599317,45.159867,55.916011,59.562632,60.936208,27.668094,53.930248,77.231403,95.828865,49.718971,87.274406,107.327339,120.35923,43.691814,86.331733,108.717109,121.784912,39.527847,78.789035,99.55632,112.333877,36.93489,66.968811,83.352401,93.786129,-16.404231,-16.700646,-9.015498,-2.428322,9.864283,20.92519,23.321241,24.461228,29.047122,38.767242,39.861583,39.008946,42.149535,53.172786,54.328161,53.086879,49.566661,60.199958,60.877805,58.688333,60.124346,283.994513,-102.158437,275.078124
89,-7.12488,2.228283,4.424366,5.786014,-24.137655,-45.219343,-60.686228,-71.948416,-47.057379,-66.539102,-76.785364,-85.118677,-44.573055,-66.131269,-77.061819,-84.962076,-41.895498,-62.51774,-72.593038,-80.385744,-38.355629,-54.849443,-64.280828,-72.817365,-16.655649,-18.249297,-12.037101,-6.37557,7.743686,16.208248,17.115787,15.663356,23.724854,33.062578,32.723883,30.128365,35.797689,45.447432,45.83462,43.562785,44.247986,54.784471,56.906851,56.716672,27.612487,53.778991,77.174182,96.501709,52.492034,88.443981,108.712451,123.585605,45.564971,86.206947,109.211551,124.66769,39.947856,77.277603,98.875385,114.428867,35.804992,64.541667,81.446399,94.388305,-15.778898,-15.033718,-7.473331,-1.89738,14.127901,24.747935,27.421147,28.933872,32.302357,41.955984,43.574191,43.200193,43.938777,55.408027,56.9034,55.663637,49.778007,60.812621,61.687402,59.70346,53.235746,286.0685,-97.497791,280.709842
90,-14.219066,3.607632,6.184032,5.235447,-16.606448,-31.442637,-42.896639,-50.993002,-34.191554,-43.826907,-48.020823,-52.233462,-33.328869,-44.115321,-48.187575,-50.549097,-33.129405,-43.919375,-47.573988,-50.414664,-32.579224,-42.350561,-46.966147,-51.598887,-18.960372,-22.021309,-16.554489,-10.710091,4.903526,16.650887,18.841662,18.135805,22.362788,34.002024,34.230309,32.173811,35.237526,45.854108,45.415248,42.677901,44.151705,54.61877,54.728988,52.854085,26.755199,53.034451,76.40593,95.887596,54.320366,89.815681,109.754265,124.570061,47.012867,86.629932,109.152237,124.557587,40.47876,76.769577,97.743851,113.347481,35.277695,63.777019,80.36459,93.484611,-15.679282,-14.794361,-7.165357,-2.041666,16.083278,27.0605,30.356836,32.351424,33.704795,43.814647,45.775901,45.670568,44.802715,56.605923,58.13574,56.899966,50.261266,61.243392,61.916372,59.937333,39.241963,289.502629,-91.088476,285.771786
91,-15.775338,4.270337,5.602444,3.597851,-7.685548,-15.545396,-22.810884,-28.628397,-21.088068,-19.612352,-17.39102,-17.170023,-22.84275,-21.159387,-17.517568,-14.018686,-25.494318,-24.706953,-21.02548,-18.675871,-28.021339,-29.393011,-28.30763,-28.688032,-21.128688,-25.034864,-20.349509,-14.92894,0.668942,15.115871,18.049528,17.814852,19.00674,33.0865,33.759067,32.009086,32.541454,44.295935,42.962608,39.743325,41.901372,52.314307,50.443683,47.067269,26.079254,52.103656,75.25534,94.758945,54.996643,90.265686,109.793873,124.382412,47.397136,86.580127,108.604946,123.898189,40.268818,76.135368,96.643512,111.906269,34.288765,62.723556,79.101448,92.136783,-15.79499,-15.081884,-7.560486,-2.912903,17.296512,28.590243,32.140719,34.148669,34.723936,44.82576,46.710827,46.611113,45.337955,56.950503,58.307591,56.926037,50.277062,60.812262,61.354369,59.339243,23.725896,293.533393,-85.226761,289.130064
92,-5.814239,3.367769,4.546348,1.931392,-2.404055,-7.274157,-13.405958,-18.567564,-19.533388,-11.089892,-1.166525,5.057699,-23.563236,-13.145765,-0.758749,9.929415,-27.68648,-19.080465,-7.095297,1.814661,-31.181648,-27.678721,-20.61125,-15.875925,-21.768768,-26.396968,-22.571622,-17.382136,-2.803654,13.34246,17.390725,17.672023,15.89936,31.290613,33.2363,32.259495,29.950542,42.469728,41.258865,38.247643,39.944698,50.736966,48.045581,43.992815,25.568356,51.670876,74.69085,93.916638,55.514694,90.58865,109.517063,123.536419,47.452057,86.342526,107.677471,122.473973,39.592839,75.215996,95.106869,109.619396,32.79625,61.206997,77.316571,89.991612,-15.887121,-15.36701,-7.917588,-3.60825,17.72117,29.389009,33.362451,35.700692,35.088375,45.363273,47.405273,47.652879,45.493035,57.007659,58.260056,56.866041,50.284064,60.558864,60.824329,58.695421,18.158392,296.626543,-80.433678,290.786837
93,-11.410309,6.495328,3.446217,0.905014,3.838697,4.648275,1.641306,-1.4578,-10.238279,2.995314,16.073107,24.134016,-16.284348,0.132769,15.570757,27.492045,-21.746538,-7.676977,6.510973,16.513819,-26.262703,-18.350893,-8.502485,-1.876459,-22.611291,-28.931686,-26.462491,-22.073809,-6.807217,8.025639,11.983464,12.571328,11.586489,25.20553,27.204533,27.027161,25.332056,36.31898,35.08722,32.710866,35.152953,44.567927,41.593725,37.754628,25.219803,51.290703,74.188968,93.013183,55.774612,90.542679,109.057892,122.622711,47.289631,85.993126,106.771591,121.038711,38.803676,74.223598,93.694084,107.50898,31.328831,59.554779,75.391044,87.489944,-15.948415,-15.381089,-7.754419,-2.903097,17.767261,29.842974,33.962825,36.324359,35.271082,45.709075,47.710814,48.064273,45.671827,57.004485,58.031012,56.463428,50.364735,60.108308,59.977533,57.60344,6.950987,302.799916,-76.784557,291.369896
94,3.911974,0.354169,1.894752,0.202245,3.957516,4.029041,0.29092,-3.409893,-15.482826,-1.563732,14.00481,24.010242,-22.562119,-4.989475,13.163624,26.977741,-28.199066,-13.709999,2.946728,14.697498,-32.267578,-24.935703,-13.491852,-5.44923,-21.646088,-27.797503,-25.191945,-20.819608,-6.180957,8.719875,12.949358,13.980541,11.650166,24.816256,27.436659,28.092053,24.963679,35.718896,34.951227,33.186524,34.440527,43.864974,41.19165,37.974219,24.981583,50.914009,73.629959,92.574395,55.670483,90.146897,108.444283,121.841309,47.051892,85.635659,106.054161,120.087937,38.357426,73.6512,92.9301,106.296181,30.684391,58.821408,74.451737,86.033844,-16.098036,-15.311743,-7.376358,-2.411662,17.870754,30.031214,34.121981,36.440462,35.442649,45.673556,47.394516,47.712678,45.812964,56.666599,57.349929,55.646606,50.349767,59.524285,59.0071,56.427823,10.997166,302.769183,-74.7556,291.187239
95,4.16843,2.087498,0.737686,-0.228674,3.21048,2.328759,-1.943252,-5.899269,-20.08279,-8.349815,8.421593,20.329995,-27.333309,-11.991874,8.220703,24.119477,-31.98167,-19.785576,-1.159881,12.760529,-34.516868,-28.563102,-16.650867,-7.461387,-21.332125,-28.313639,-25.509651,-20.731935,-7.933372,5.02074,10.027661,12.262446,9.364413,20.984358,25.106643,27.147963,22.421093,31.65042,32.299071,31.845478,32.097333,39.844861,38.252441,36.223977,24.913205,50.89856,73.56617,92.341485,55.709839,89.751893,107.83754,121.05851,46.923363,85.241158,105.622925,119.633332,37.996136,73.014176,92.344552,105.579438,30.045983,57.954941,73.508469,84.833039,-16.251968,-15.296602,-7.13242,-1.818352,17.727901,30.039562,34.214631,36.497717,35.356013,45.570297,47.336322,47.766784,45.766836,56.502788,57.24462,55.648594,50.322671,59.463078,58.959182,56.405951,15.270607,304.447535,-73.912903,290.549419
96,3.058297,2.357285,0.468522,-0.272937,1.459877,-0.221444,-4.39769,-7.659508,-24.561699,-15.47033,2.115234,15.487792,-30.987729,-17.763222,3.452705,20.561782,-33.77155,-23.417794,-4.047226,11.148353,-34.002285,-29.51429,-17.268208,-7.062012,-19.751845,-27.114779,-24.783849,-19.987263,-8.462092,1.665112,6.902214,9.698285,7.464142,17.036074,21.92909,24.683109,19.570681,27.280949,28.746941,28.943443,28.795205,35.181012,34.392398,32.852985,24.810196,51.001602,73.672187,92.394104,55.505138,89.442764,107.460525,120.638557,46.62807,84.849815,105.237053,119.160644,37.658077,72.665016,92.031372,105.234695,29.709823,57.695629,73.258941,84.548561,-16.495301,-15.300394,-6.829843,-1.172183,17.495942,30.181502,34.532461,36.972676,35.201675,45.77647,47.64894,48.102953,45.705728,56.724916,57.571206,56.013404,50.332551,59.649502,59.209383,56.685903,18.40919,306.448912,-73.364095,289.920574
97,2.106605,-0.588655,0.444168,0.030431,0.148933,-2.431526,-6.793579,-9.679298,-27.306988,-19.293365,-1.384506,12.558586,-33.155537,-21.522846,0.105675,17.990891,-35.198067,-25.925514,-6.13266,9.700745,-34.78656,-30.626965,-18.128345,-7.598396,-19.002182,-26.206801,-23.864385,-18.78014,-8.086179,1.827985,7.350127,10.393261,7.576047,17.109088,22.480374,25.410233,19.436918,27.204317,29.024966,29.276019,28.475474,34.811894,34.372861,33.005744,24.801361,51.130565,73.840645,92.625435,55.18071,89.07978,107.082298,120.262001,46.273967,84.611458,105.04525,118.919517,37.360988,72.597015,92.003608,105.192283,29.507721,57.769294,73.370361,84.643112,-16.683912,-15.460081,-6.808107,-0.951389,17.256004,30.210969,34.622702,37.128991,35.072011,45.797193,47.603812,47.924383,45.72408,56.72462,57.521052,55.906278,50.470056,59.666199,59.161563,56.611456,20.579304,305.590877,-72.856418,289.681625
98,4.063385,-2.888511,0.332107,-0.073755,-0.843224,-4.842155,-9.950821,-13.320808,-31.442058,-23.686912,-5.523445,8.49678,-37.12722,-26.049465,-4.206894,13.614601,-38.706425,-29.730858,-9.430756,6.270195,-37.666923,-33.757221,-21.339008,-11.240456,-18.499757,-24.532945,-21.046615,-15.113364,-6.30925,4.457182,10.09497,12.946875,9.450567,19.90979,25.335601,27.840852,21.408522,29.804454,31.637502,31.561438,30.314697,37.456404,37.241587,35.711881,24.805401,51.183621,73.811302,92.499504,54.743466,88.649208,106.679604,119.92321,45.805126,84.241425,104.722573,118.597573,37.00906,72.412468,91.887566,105.066101,29.329411,57.768906,73.44468,84.730522,-16.76131,-15.54227,-6.88259,-1.000838,17.141334,30.287626,34.724825,37.243761,35.007185,45.814977,47.554214,47.768044,45.75277,56.75037,57.506244,55.868006,50.59378,59.741609,59.245963,56.742453,24.698376,302.493421,-72.468624,289.398925
99,-1.771866,-0.319682,0.299389,0.159612,-0.654487,-4.162788,-8.66764,-11.648918,-30.802688,-22.918487,-4.409385,9.652451,-36.23814,-24.907482,-2.752373,15.285164,-37.65192,-28.027416,-7.239738,8.852715,-36.553493,-31.578506,-18.496467,-7.957168,-16.967531,-22.084133,-18.257485,-12.155371,-6.088035,5.345918,11.171946,13.837082,8.89264,20.177639,25.988649,28.434397,20.183962,29.343499,31.574554,31.565761,28.635272,36.190644,36.469003,35.1635,24.871639,51.291927,73.880207,92.425152,54.375023,88.248951,106.308643,119.561497,45.39418,83.893856,104.373654,118.207478,36.66687,72.165264,91.650524,104.813679,29.118668,57.635582,73.324253,84.557591,-16.81439,-15.678763,-7.029827,-1.028811,17.002952,30.179415,34.615985,37.156792,34.928862,45.716634,47.389539,47.549633,45.766306,56.684532,57.33569,55.630033,50.677662,59.72842,59.113077,56.502418,22.97422,302.045869,-72.121525,289.430667
100,-0.880165,-3.084235,0.240784,0.138581,-0.839218,-4.473839,-9.004234,-12.645492,-30.648331,-21.431282,-2.899498,10.279999,-35.694374,-22.690716,-0.851807,16.504601,-37.429047,-26.210564,-5.284309,10.416596,-36.849781,-30.984123,-17.191452,-6.472412,-12.78756,-15.379262,-11.130426,-5.65556,-1.049609,12.735577,18.056252,19.618785,11.327878,24.603142,30.023655,31.877155,20.109034,31.572985,33.699237,33.344148,26.368895,36.086557,36.69454,35.555479,24.815677,51.1856,73.758259,92.321377,53.797806,87.879078,106.036022,119.390224,44.798561,83.628101,104.156284,117.952595,36.196747,72.032902,91.607288,104.799671,28.860557,57.586452,73.345699,84.611744,-16.918057,-15.986639,-7.494598,-1.53787,16.755986,29.998362,34.39719,36.953076,34.71124,45.485612,47.099422,47.215019,45.607928,56.526129,57.147437,55.412325,50.549616,59.658406,59.088339,56.506517,22.123947,298.879559,-71.850849,289.487173
101,6.413155,-4.630096,0.277942,0.038569,-4.237541,-11.388336,-18.730248,-25.173958,-38.00877,-29.416695,-10.086594,3.318031,-42.553459,-30.158467,-7.666214,10.547653,-44.023133,-33.704396,-11.727791,4.774269,-43.193882,-38.49828,-24.555634,-13.633599,-7.674625,-7.161862,-1.389718,4.465704,5.481609,21.775443,27.230475,28.433089,15.328787,30.344461,36.179233,37.891461,21.406361,34.813499,37.588588,37.427419,25.173581,36.80143,38.25154,37.777297,24.75721,51.023232,73.544884,92.0961,53.30523,87.498757,105.731919,119.149613,44.316136,83.359726,103.989876,117.865998,35.792725,71.878144,91.564385,104.813324,28.591816,57.506093,73.344155,84.65094,-16.912524,-16.131949,-7.676379,-1.7629,16.710415,29.866377,34.131626,36.632703,34.619949,45.23687,46.851865,47.098978,45.531913,56.286192,56.930249,55.314018,50.498931,59.629532,59.127267,56.649519,28.544346,294.17912,-71.565663,289.455399
102,-0.118607,-1.524939,0.125988,-0.016833,-5.704124,-13.710617,-21.488273,-29.055416,-39.104862,-30.566517,-11.2565,2.076348,-42.865711,-30.015953,-7.550354,10.791458,-43.621559,-32.901523,-10.79615,6.040032,-41.964088,-37.137462,-23.581627,-12.469047,-1.336439,2.060192,8.606884,14.285687,10.975296,27.160857,32.324526,33.307012,16.813958,32.155194,38.369879,40.269717,19.157078,33.20379,37.001922,37.624193,19.744522,31.859483,34.465227,35.071826,24.554215,50.691536,73.231236,91.789364,52.853302,87.212597,105.490872,118.992428,43.934807,83.126278,103.767987,117.714261,35.53751,71.761952,91.528737,104.885045,28.527546,57.53761,73.445218,84.860402,-16.916773,-16.313002,-7.934372,-1.978051,16.547715,29.612422,33.796346,36.286468,34.445084,44.908913,46.576631,46.977441,45.398433,56.005919,56.711381,55.198187,50.396364,59.565262,59.18525,56.805501,28.404144,292.568536,-71.46127,289.352921
103,0.206726,-0.463202,0.177189,0.039693,-5.799774,-13.896171,-21.877418,-29.620685,-39.129089,-30.325527,-11.025673,2.188179,-42.951359,-30.287636,-7.931373,10.501488,-43.784992,-33.150272,-11.141464,5.760109,-42.2295,-37.037258,-23.266685,-11.977272,-1.145001,2.388988,8.939904,14.567194,11.328644,27.665741,32.739995,33.867446,17.012412,32.495957,38.793672,40.95895,19.351962,33.619654,37.517575,38.442904,19.93396,32.110634,34.797234,35.684192,24.378033,50.439343,73.038025,91.697686,52.474182,86.968346,105.316086,118.894913,43.578839,82.953461,103.640465,117.581955,35.23835,71.651184,91.516114,104.937104,28.349682,57.539086,73.506638,84.959977,-16.949587,-16.478023,-8.096232,-2.130933,16.424165,29.416352,33.525373,35.997724,34.338428,44.785203,46.480449,46.929127,45.320653,55.906625,56.625387,55.096768,50.300243,59.54386,59.247359,56.883257,28.563612,292.01503,-71.331339,289.30231
104,-1.013901,-1.547836,0.170929,0.073322,-7.325614,-16.658386,-25.272583,-34.116382,-40.790554,-31.313644,-11.584602,2.102234,-43.632167,-29.569232,-6.660598,12.582139,-43.316448,-31.122642,-8.633743,8.892495,-40.668594,-34.347244,-20.375404,-8.555511,5.148651,11.018089,17.724431,23.070683,17.097949,33.251832,38.169103,39.079626,18.842015,34.837743,41.458474,43.472994,17.385001,32.436627,37.07291,38.395431,14.624388,27.445626,30.902599,32.29575,24.068241,49.980584,72.632172,91.403916,52.1876,86.873772,105.253647,118.912628,43.395642,82.919197,103.617119,117.576485,35.161812,71.746834,91.676171,105.186539,28.412945,57.770954,73.778458,85.326737,-17.042644,-16.823912,-8.573069,-2.662887,16.126083,29.106353,33.186524,35.654861,34.072902,44.475092,46.21801,46.693278,45.127547,55.662279,56.436209,54.905293,50.157563,59.432277,59.29219,57.036201,27.479587,290.379077,-71.230534,289.287515
105,3.930863,-2.016089,0.202961,-0.07494,-10.394554,-22.636185,-32.772446,-42.616516,-48.332451,-39.408737,-18.607269,-3.696716,-50.496563,-36.257561,-11.976769,8.892723,-48.749176,-36.25375,-12.539291,6.377815,-44.435726,-38.393463,-23.970772,-11.235077,9.673338,17.335342,24.582086,30.11827,21.284256,37.325271,42.50213,43.556901,20.931994,37.207921,44.473795,46.501951,17.525323,32.949328,38.256641,39.825052,13.045997,26.187979,30.223319,31.919764,23.924435,49.79187,72.435391,91.130986,52.051884,86.664334,105.009831,118.670254,43.307316,82.743222,103.420109,117.421383,35.088501,71.57143,91.493489,105.041485,28.354134,57.687344,73.679135,85.230229,-17.044978,-16.795198,-8.449815,-2.589812,16.15108,29.016445,33.055872,35.532113,34.181607,44.538609,46.290233,46.790757,45.276106,55.747296,56.501108,54.964758,50.31468,59.490532,59.322633,57.046278,31.32593,288.286717,-71.112093,289.136304
106,-1.004517,-0.926182,0.149929,0.099134,-11.182594,-24.291801,-34.668823,-44.557708,-50.202015,-40.209331,-18.891174,-3.353576,-51.826343,-36.125988,-11.036979,10.833412,-49.324218,-35.210609,-10.736389,9.006935,-44.309864,-37.20092,-22.143997,-8.682838,12.104242,20.683869,28.107479,33.864519,23.454375,39.556968,44.833393,45.832749,21.857781,38.52355,46.034167,47.907798,17.308023,33.170296,38.654832,40.150118,11.870368,25.342641,29.479178,31.063323,23.811745,49.611798,72.292214,90.977875,51.811924,86.552857,104.913529,118.602517,43.137463,82.702217,103.348,117.360787,35.0243,71.629372,91.592697,105.241768,28.436623,57.900067,73.89251,85.49572,-17.116251,-16.946326,-8.631164,-2.866973,16.059343,28.845347,32.839067,35.286359,34.179705,44.388444,46.096423,46.526503,45.335621,55.655202,56.37226,54.774024,50.394376,59.454223,59.315976,57.069546,30.222679,287.290988,-71.060898,289.165891
107,-1.392723,-0.58364,0.255089,-0.032098,-11.263824,-24.564354,-35.112453,-45.162369,-50.611599,-39.644932,-17.799591,-1.785759,-52.219414,-35.118233,-9.347168,13.190895,-49.531002,-34.021602,-8.888855,11.387993,-44.383255,-36.477768,-20.802475,-6.758926,13.359245,22.386537,29.995016,36.064995,24.856677,40.922924,46.079615,46.958879,22.741318,39.361108,46.814086,48.478519,17.622975,33.466685,38.783532,40.07046,11.649598,25.02722,29.051815,30.487821,23.713028,49.428131,72.066834,90.686005,51.579723,86.330727,104.66494,118.360428,42.96127,82.525589,103.152146,117.19352,34.916416,71.558212,91.533257,105.237488,28.432297,57.930668,73.893768,85.506546,-17.127786,-17.024576,-8.71633,-3.010172,16.055626,28.7967,32.773513,35.21584,34.229081,44.331794,46.053544,46.458343,45.440078,55.646668,56.356687,54.718251,50.527312,59.517468,59.379641,57.119292,28.732103,286.647463,-70.903662,289.073908
108,-2.554001,0.936791,0.144287,0.150165,-10.972709,-23.212143,-32.626659,-41.490326,-48.435012,-37.922115,-16.555618,-0.436065,-49.844352,-33.316429,-7.672004,15.390519,-47.370792,-32.685585,-7.914894,12.756066,-42.625522,-35.920498,-20.817512,-6.661239,13.209018,21.961756,29.395962,35.970479,24.420633,39.526117,44.711843,45.949543,22.150935,38.20393,45.796168,47.790694,17.023292,32.586137,38.032153,39.51662,11.199363,24.545714,28.536656,29.99199,23.629921,49.261471,71.923188,90.495484,51.290051,86.091385,104.420746,118.144432,42.781998,82.401444,103.050064,117.184731,34.890164,71.634133,91.654038,105.451882,28.602093,58.214539,74.16845,85.795052,-17.254461,-17.326042,-9.051857,-3.333448,15.898298,28.571199,32.519163,34.990624,34.171616,44.049064,45.732812,46.146466,45.479215,55.411386,56.069275,54.408486,50.631534,59.426373,59.232613,56.945637,26.092031,287.530457,-70.845446,289.170276
109,-6.071365,2.35868,0.052872,0.126181,-7.261574,-15.776505,-22.886387,-29.482498,-40.455208,-28.471779,-7.752296,7.339439,-42.704681,-25.560619,-0.364723,21.761261,-41.786739,-26.487259,-2.040184,17.960884,-38.977352,-31.210762,-15.500244,-1.468369,5.196347,10.362658,16.735387,23.606491,18.243517,33.144633,38.116665,39.294122,20.350108,35.779782,42.445541,44.099983,19.256175,33.88623,37.817892,38.50983,16.882896,29.84327,32.30889,32.470034,23.648266,49.24918,71.956215,90.591843,50.770752,85.662094,104.065636,117.890831,42.38142,82.211494,102.978561,117.25248,34.727554,71.627907,91.743736,105.615395,28.738792,58.44762,74.42617,86.047119,-17.308912,-17.412888,-8.989218,-3.147122,15.832447,28.342303,32.175497,34.653429,34.158191,43.842558,45.442511,45.907491,45.518414,55.256034,55.833524,54.171253,50.713649,59.36072,59.091525,56.757829,19.93788,289.834889,-70.87536,289.242209
110,-7.640522,2.582872,0.131309,0.25514,-2.69482,-6.938931,-11.385727,-15.731117,-29.873943,-15.720005,3.834606,17.515491,-33.095993,-14.711597,9.523006,30.134068,-34.064369,-17.759468,5.894474,24.660244,-33.521645,-24.396126,-8.502697,4.952488,-2.35563,-0.581516,4.62965,11.436238,12.045381,26.595569,31.180846,32.371912,18.072406,32.84539,38.408003,39.777775,20.679274,34.316272,36.82818,36.916273,21.489489,33.939558,35.030255,34.154239,23.425244,48.836895,71.595978,90.549843,50.193707,85.230401,103.748223,117.700882,41.976414,82.04274,102.981469,117.409173,34.585957,71.66137,91.907982,105.907128,28.915238,58.732991,74.763794,86.440819,-17.386174,-17.67687,-9.244012,-3.369893,15.77397,28.071219,31.812479,34.282433,34.063615,43.576969,45.089089,45.564468,45.40924,55.019111,55.515621,53.80206,50.596114,59.167985,58.940311,56.638244,12.193834,292.36142,-70.847575,289.441008
111,-6.480263,2.896934,0.066056,0.118734,1.862812,1.844639,-0.129776,-2.205734,-20.06932,-4.212387,14.136944,26.405056,-24.399135,-5.480781,17.77129,36.880818,-27.312584,-10.624283,12.101429,29.622425,-29.081611,-19.063591,-3.174488,9.657681,-10.668384,-12.852348,-9.007409,-2.323816,5.26899,19.253717,23.486152,24.659731,15.664634,29.702603,34.141543,35.278158,22.351105,34.869729,35.854623,35.389704,26.655109,38.377066,37.897562,35.952325,23.175064,48.391079,71.144623,90.375068,49.64748,84.846359,103.45031,117.493721,41.580757,81.88575,102.957618,117.506126,34.415931,71.681625,92.048332,106.134796,29.022217,58.955337,75.055252,86.787758,-17.483184,-17.910423,-9.447542,-3.513969,15.548074,27.780016,31.488289,33.998628,33.840732,43.241368,44.706718,45.238142,45.235079,54.770689,55.222294,53.525096,50.484667,59.043817,58.843795,56.572998,5.613298,295.207533,-70.881792,289.508921
112,-8.242149,4.54898,0.053535,0.278729,5.791958,10.279896,12.544475,14.243946,-9.787033,7.44025,23.95483,34.761234,-14.940868,5.037449,27.261692,45.320812,-18.792252,-1.305748,19.03838,34.653042,-21.592838,-10.839317,3.554043,15.079616,-19.351789,-25.491015,-21.933005,-14.483683,-3.878334,7.423832,11.618575,13.580459,11.842963,24.438837,28.312712,29.061621,23.766486,34.280667,34.097589,32.705822,32.550989,42.400303,40.247165,36.80784,22.961518,48.043534,70.873581,90.349388,49.044697,84.40947,103.161392,117.35035,41.163758,81.776184,103.036286,117.740341,34.269608,71.79895,92.306992,106.507302,29.180077,59.350056,75.543251,87.339867,-17.590667,-18.147779,-9.685725,-3.712917,15.36659,27.485985,31.143153,33.652159,33.664781,42.979361,44.384689,44.923931,45.07086,54.530294,54.879184,53.102946,50.341245,58.789974,58.59851,56.334468,-2.743515,299.714826,-70.942921,289.745963
113,-2.638641,-1.787193,0.10706,0.019229,7.006702,12.049861,14.377658,15.376293,-7.942269,11.761333,28.649883,38.817157,-13.415703,9.370136,32.213504,50.013141,-18.181458,2.021907,23.391185,39.064807,-22.082028,-9.285016,6.758914,19.018306,-18.951893,-24.828062,-21.740863,-15.002621,-2.426865,11.126375,15.125912,16.189896,13.142081,27.501522,30.853902,30.800167,24.603575,36.619328,35.832134,33.794321,32.973967,44.136292,41.523336,37.580424,22.770652,47.68111,70.508068,90.25938,48.595642,84.059269,102.862987,117.143909,40.847603,81.621357,102.976261,117.810642,34.145416,71.798069,92.398739,106.71619,29.252105,59.53331,75.792995,87.704326,-17.63882,-18.187719,-9.605635,-3.640335,15.166012,27.310182,30.980651,33.521236,33.430352,42.744487,44.147827,44.682005,44.870381,54.358912,54.697786,52.896798,50.215941,58.68359,58.576453,56.373606,-5.497661,297.892018,-70.951366,289.729577
