takenoko1/special-research/HandMotion_SimilarSearch_自分用/NewProject/handData_new/key/d3_feature/107.csv
,vel_0x_L,vel_0y_L,vel_0x_R,vel_0y_R,posFromWrist_1x_L,posFromWrist_2x_L,posFromWrist_3x_L,posFromWrist_4x_L,posFromWrist_5x_L,posFromWrist_6x_L,posFromWrist_7x_L,posFromWrist_8x_L,posFromWrist_9x_L,posFromWrist_10x_L,posFromWrist_11x_L,posFromWrist_12x_L,posFromWrist_13x_L,posFromWrist_14x_L,posFromWrist_15x_L,posFromWrist_16x_L,posFromWrist_17x_L,posFromWrist_18x_L,posFromWrist_19x_L,posFromWrist_20x_L,posFromWrist_1y_L,posFromWrist_2y_L,posFromWrist_3y_L,posFromWrist_4y_L,posFromWrist_5y_L,posFromWrist_6y_L,posFromWrist_7y_L,posFromWrist_8y_L,posFromWrist_9y_L,posFromWrist_10y_L,posFromWrist_11y_L,posFromWrist_12y_L,posFromWrist_13y_L,posFromWrist_14y_L,posFromWrist_15y_L,posFromWrist_16y_L,posFromWrist_17y_L,posFromWrist_18y_L,posFromWrist_19y_L,posFromWrist_20y_L,posFromWrist_1x_R,posFromWrist_2x_R,posFromWrist_3x_R,posFromWrist_4x_R,posFromWrist_5x_R,posFromWrist_6x_R,posFromWrist_7x_R,posFromWrist_8x_R,posFromWrist_9x_R,posFromWrist_10x_R,posFromWrist_11x_R,posFromWrist_12x_R,posFromWrist_13x_R,posFromWrist_14x_R,posFromWrist_15x_R,posFromWrist_16x_R,posFromWrist_17x_R,posFromWrist_18x_R,posFromWrist_19x_R,posFromWrist_20x_R,posFromWrist_1y_R,posFromWrist_2y_R,posFromWrist_3y_R,posFromWrist_4y_R,posFromWrist_5y_R,posFromWrist_6y_R,posFromWrist_7y_R,posFromWrist_8y_R,posFromWrist_9y_R,posFromWrist_10y_R,posFromWrist_11y_R,posFromWrist_12y_R,posFromWrist_13y_R,posFromWrist_14y_R,posFromWrist_15y_R,posFromWrist_16y_R,posFromWrist_17y_R,posFromWrist_18y_R,posFromWrist_19y_R,posFromWrist_20y_R,posFromBody_0x_L,posFromBody_0y_L,posFromBody_0x_R,posFromBody_0y_R
6,-4.622039,2.601816,0.596146,-0.233565,7.857765,14.769676,17.350971,18.089641,-1.535328,22.564624,39.845455,50.424945,-6.293725,20.506885,41.291599,57.584461,-9.220768,15.978527,34.576114,48.314312,-11.346039,7.019954,21.448505,31.731525,-25.48521,-39.273274,-41.082697,-37.98022,-16.525423,-6.586286,-3.307599,-2.77757,3.228238,14.192604,15.094765,13.736948,19.559666,28.041924,25.859294,23.093654,33.007102,39.861102,35.088091,29.406769,24.44894,49.152695,72.636349,93.027569,54.24242,88.176418,106.753818,119.959728,47.405033,84.973011,105.270527,118.330135,40.613171,74.899166,93.594326,105.234775,34.520828,60.970619,76.581173,88.568836,-17.102851,-20.155248,-16.705005,-15.283251,16.99054,27.776929,31.515842,33.596411,34.230884,44.176492,44.927501,43.302736,45.215455,56.822519,57.22076,54.503878,51.317421,63.164682,64.587251,62.765144,-16.192337,317.72642,-78.307526,296.763526
7,6.208236,-4.217936,0.564423,0.166059,6.867073,11.158448,11.042736,9.394787,-8.332832,14.824368,32.943318,43.734272,-12.843235,13.179852,34.60857,50.857098,-15.804359,8.674999,28.22517,42.38879,-18.077682,0.391674,15.670635,26.289997,-25.503043,-38.338336,-39.08801,-34.748229,-13.861201,-2.248382,0.553247,0.523965,6.586386,18.552467,19.091968,17.535808,23.366653,32.591337,30.033029,27.412305,37.128979,44.829268,39.572221,33.893196,24.197078,48.833461,72.242832,92.678936,54.016994,87.902423,106.435375,119.618488,47.217807,84.757885,104.93217,117.855457,40.514373,74.777172,93.453929,105.056568,34.553695,61.051277,76.571628,88.392414,-17.298822,-20.572063,-17.218682,-15.514469,16.698572,27.581761,31.354797,33.452792,34.031702,43.926934,44.691194,43.118609,45.126226,56.692918,57.054084,54.348885,51.273763,63.122544,64.452129,62.602704,-9.882632,313.521723,-77.641634,296.942824
8,-4.602985,3.043024,0.637138,0.031407,7.619705,13.809688,15.970459,15.894974,-4.63908,19.327446,37.163544,47.842186,-8.702992,18.824135,40.164047,56.557388,-10.797192,15.181572,34.324013,48.30748,-12.027031,7.822586,22.923546,33.407593,-25.709673,-39.760523,-41.138977,-36.585267,-14.628883,-5.151541,-2.238465,-1.741856,5.429577,15.440332,16.148696,14.960198,21.607543,29.394073,26.886277,24.226934,34.818957,41.021576,35.816671,30.104375,24.045639,48.532322,71.891704,92.375462,53.567585,87.435276,106.006908,119.185146,46.86771,84.521633,104.711758,117.64484,40.289921,74.660122,93.351643,104.969982,34.503685,60.998566,76.491978,88.260624,-17.22981,-20.640187,-17.377542,-15.427995,16.666843,27.457419,31.110771,33.051031,34.061626,43.694283,44.373858,42.750563,45.189297,56.47022,56.710985,53.904293,51.313789,63.061892,64.278609,62.278748,-14.434164,316.56346,-76.953043,296.972944
9,5.190582,-0.438441,0.524883,0.096985,5.879803,9.943932,10.766213,9.906075,-9.049393,13.94204,31.856964,42.798271,-13.363747,12.837845,34.261322,51.108421,-15.239651,8.960198,28.024819,42.262665,-16.035736,1.418106,15.815323,26.427979,-25.101962,-38.474977,-39.264543,-35.114804,-14.646518,-6.107461,-3.020731,-1.912855,5.776146,15.527697,16.846105,15.539084,22.231989,29.701603,27.448812,24.703141,35.696197,41.636253,36.455542,30.649027,23.960106,48.377758,71.735047,92.240776,53.296509,87.157128,105.786873,119.0289,46.597046,84.310021,104.556839,117.621071,40.078285,74.490624,93.306244,105.11229,34.406101,60.941677,76.449738,88.222298,-17.247779,-20.708013,-17.516184,-15.615395,16.656803,27.296387,30.904661,32.750702,34.085635,43.428398,44.051756,42.407256,45.219493,56.216389,56.35802,53.478586,51.314815,62.938292,64.07939,62.012666,-9.22724,316.123231,-76.411818,297.068141
10,-5.186668,4.379759,0.679035,0.388373,6.999344,13.053612,15.836929,16.095772,-3.809658,20.732391,38.509849,49.524124,-7.911713,20.456177,41.262016,57.920608,-9.245556,17.129997,35.090446,48.566597,-9.341927,9.11277,22.798759,32.985695,-24.222648,-38.527588,-40.93047,-38.827312,-15.232727,-8.185029,-5.133237,-3.954496,4.186567,12.369744,13.798155,12.607878,19.564223,25.952822,23.823877,20.950199,32.008697,37.077195,32.389079,26.901629,23.712983,48.036919,71.401371,92.027928,52.905854,86.89349,105.610966,118.854641,46.30449,84.273571,104.623616,117.70744,39.912243,74.601437,93.496708,105.285519,34.421265,61.170548,76.667599,88.310223,-17.415716,-21.053037,-17.944126,-16.090885,16.278977,26.867011,30.461577,32.230269,33.823949,42.927701,43.508883,41.858184,45.068847,55.716421,55.701292,52.733432,51.215137,62.658007,63.643717,61.440166,-14.415773,320.499501,-75.734648,297.453025
11,8.117157,-3.126337,0.461678,0.180731,5.472542,7.946594,7.412246,5.496139,-11.774597,12.763389,31.167846,42.197502,-16.325203,11.810348,33.136871,49.818512,-17.974983,8.017868,26.782951,40.403366,-18.201062,-0.424736,13.612953,23.794052,-23.883243,-36.95483,-38.084307,-35.535941,-13.686126,-4.920099,-2.23818,-1.646685,6.117601,15.825939,16.871411,15.107239,21.900883,29.419502,27.106357,24.141744,34.710253,40.950712,36.120361,30.640765,23.581947,47.871723,71.19318,91.855167,52.695053,86.802051,105.617763,118.888218,46.031948,84.223011,104.667881,117.77338,39.641682,74.573353,93.509342,105.251667,34.212295,61.120949,76.676571,88.270168,-17.518641,-21.145058,-18.040198,-16.361043,15.992702,26.645451,30.244117,31.906265,33.621642,42.698545,43.265278,41.525423,44.925043,55.426108,55.339299,52.277862,51.073087,62.406473,63.351909,61.060462,-6.310432,317.36446,-75.284786,297.625052
12,-0.922028,2.470721,0.379921,0.030443,5.322189,8.177307,7.973694,6.110768,-11.059845,13.567429,31.981407,43.394119,-15.737881,13.078011,34.449852,51.565155,-16.860363,9.833359,28.16082,41.806549,-16.268783,1.773239,15.54554,25.760742,-23.671045,-37.561084,-39.205559,-37.332953,-13.81274,-6.461464,-3.500174,-2.505807,5.463874,13.836551,15.032039,13.315908,20.613448,27.124399,24.967161,21.788028,32.916477,38.051122,33.445085,27.86869,23.43663,47.594696,70.865032,91.558651,52.512588,86.799877,105.689976,118.982403,45.760597,84.203716,104.803837,118.010982,39.318855,74.523525,93.55917,105.333195,33.900146,60.948372,76.59312,88.235493,-17.555123,-21.122284,-18.009051,-16.560794,15.808896,26.523185,30.141414,31.749419,33.487384,42.652739,43.27254,41.510554,44.845866,55.362999,55.289269,52.195017,50.987167,62.274241,63.265495,60.953239,-7.247549,319.827135,-74.919954,297.647449
13,-0.150158,0.635004,-0.120152,0.0618,5.293465,8.197666,8.164524,6.609787,-9.88377,15.040066,33.36501,44.844464,-14.769081,14.461155,35.28281,52.058224,-16.150429,11.038021,28.833653,42.082707,-15.852505,1.853199,15.254322,25.277905,-23.213598,-36.943814,-38.981022,-37.987939,-13.642457,-5.72409,-2.685427,-1.825441,5.243672,14.169176,15.416052,13.709209,20.101859,27.124832,25.164083,22.008279,32.200074,38.228038,34.053105,28.617907,23.42965,47.717125,71.049683,91.771294,52.743107,87.210961,106.183319,119.581124,45.909108,84.44632,105.10952,118.41758,39.406403,74.667756,93.786896,105.657784,33.936551,61.103554,76.819817,88.581803,-17.681156,-21.145898,-17.928726,-16.561831,15.535391,26.252656,30.036104,31.888666,33.205728,42.468166,43.251075,41.642909,44.565136,55.147514,55.212995,52.243664,50.726135,62.086297,63.171215,60.935529,-7.409071,320.453513,-75.05147,297.700623
14,2.835446,-1.682921,-0.121799,-0.053748,5.431697,7.399131,5.632919,2.865268,-11.816506,12.644874,30.817794,41.952026,-16.679318,11.951889,32.552375,48.910354,-18.625683,8.516121,26.690483,39.957206,-19.15836,-0.671185,13.572372,23.549125,-24.017069,-37.405102,-39.057642,-37.64336,-12.822769,-3.403818,-0.935655,-1.246,5.924359,15.781158,16.111584,14.111624,20.808185,28.703901,26.242369,23.06641,32.939769,39.984615,35.639979,30.392886,23.319855,47.783935,71.216091,91.969654,52.814804,87.463543,106.55904,120.044277,45.98719,84.758503,105.53809,118.875881,39.475834,74.969707,94.074451,105.846599,34.01461,61.354774,77.101856,88.886295,-17.612045,-21.014184,-17.759863,-16.38252,15.349201,26.155968,30.051987,32.068632,33.102692,42.483777,43.369093,41.847909,44.539584,55.181292,55.289454,52.356248,50.752503,62.151296,63.255183,61.001219,-4.579982,318.757803,-75.179626,297.634086
15,0.552875,-1.609376,-0.390324,-0.133949,5.223953,6.959828,5.844166,3.8722,-13.075378,11.153034,29.434925,40.459088,-18.130245,10.630085,31.634297,48.201336,-19.95005,7.264607,26.080067,39.796223,-20.332226,-1.235985,13.384815,23.51984,-24.798941,-38.123297,-38.761512,-34.833704,-12.509041,-2.933318,-0.128528,-0.07625,6.662906,17.138394,17.73252,15.819467,21.948208,30.234274,27.972319,24.849181,34.439007,41.675501,37.239981,31.645011,23.425724,48.068413,71.604309,92.36261,53.316056,88.061577,107.162247,120.696556,46.403446,85.169495,105.932785,119.307038,39.775681,75.240784,94.294441,106.058556,34.176304,61.573059,77.332123,89.205185,-17.550689,-20.844506,-17.56688,-16.215497,15.275397,26.109643,30.097892,32.27615,33.044906,42.50912,43.520258,42.108458,44.486541,55.209216,55.454093,52.615254,50.743661,62.216344,63.40583,61.218717,-4.025808,317.129516,-75.568651,297.481226
16,-5.931599,4.853804,-0.28957,-0.128589,5.963757,9.973687,11.523285,11.695576,-6.083175,18.526291,36.308648,47.639672,-11.124847,17.612229,38.112305,55.040497,-12.94535,14.182641,32.118027,45.986344,-13.29507,5.263974,19.105706,29.391861,-24.70035,-39.408767,-42.425151,-41.152574,-15.433502,-8.01976,-4.597663,-3.587575,3.191916,12.373956,13.585165,11.998106,18.2048,25.605661,23.905129,20.799824,30.490921,36.853499,33.046462,27.488048,23.458603,48.194584,71.870053,92.728718,53.309063,88.180836,107.369603,121.009335,46.536702,85.389759,106.216015,119.653943,40.057686,75.615063,94.654164,106.440342,34.593304,62.099225,77.843571,89.821026,-17.465462,-20.744693,-17.439341,-15.919701,15.324205,26.213902,30.25359,32.567439,33.142916,42.685071,43.675338,42.250225,44.608053,55.356799,55.591117,52.749685,50.896826,62.40756,63.555933,61.350936,-9.954953,321.955925,-75.855767,297.325242
17,0.423066,-1.932849,-0.297397,-0.091378,6.553791,10.404899,11.56343,11.694008,-5.433907,19.440811,36.926811,47.897644,-10.517533,17.384697,37.636505,54.344078,-13.118752,13.19815,31.46894,45.434028,-14.604138,3.634563,17.75354,28.075859,-25.046486,-38.956334,-41.360723,-39.381301,-15.444877,-6.553361,-3.243268,-2.629703,3.474202,14.169002,15.344681,13.804786,18.909297,27.441377,25.629681,22.790681,31.636761,39.164161,35.199661,29.787336,23.521259,48.487312,72.275917,93.151108,53.685642,88.557609,107.74173,121.438247,46.94688,85.660995,106.371734,119.744407,40.478359,75.857986,94.782738,106.517967,34.988239,62.483047,78.173561,90.185692,-17.464054,-20.702591,-17.347901,-15.704834,15.33511,26.176098,30.316945,32.816058,33.181695,42.669967,43.711585,42.352125,44.64929,55.347191,55.637257,52.868294,50.985092,62.552797,63.696822,61.542214,-9.525552,319.985692,-76.146829,297.19648
18,-0.062016,-0.06548,0.003834,-0.06984,6.510796,10.300244,11.657101,12.312069,-5.68198,18.725041,36.123699,47.01067,-10.877758,16.640431,37.195484,54.267506,-13.493866,12.372975,30.966923,45.307446,-14.953056,3.165344,17.412769,27.853123,-25.427869,-39.770032,-42.074385,-39.149996,-16.271641,-7.709589,-4.203005,-3.405597,2.867726,13.682878,15.019836,13.472976,18.686662,27.270352,25.573575,22.712283,31.769883,39.092111,35.149396,29.670702,23.508682,48.520729,72.368991,93.294559,53.646102,88.537593,107.733547,121.451786,46.999179,85.755146,106.450779,119.748951,40.606075,76.122539,94.946605,106.531253,35.178348,62.802452,78.454868,90.407398,-17.395819,-20.710149,-17.465276,-15.794903,15.315189,26.345369,30.493749,32.959493,33.224995,42.859615,43.831258,42.343357,44.775928,55.550856,55.788027,52.936998,51.190721,62.70253,63.760289,61.566976,-9.581669,319.879188,-76.137096,297.085616
19,-1.445206,-0.172284,-0.072018,-0.052364,6.991677,11.206776,12.979237,13.624226,-4.796058,20.37505,37.957409,48.77187,-9.983779,18.462742,39.057988,55.917424,-12.556903,14.129551,32.838307,47.027379,-14.086498,4.655617,18.972828,29.331562,-25.35299,-39.744813,-42.094799,-39.206053,-16.215176,-7.53812,-4.06624,-3.277094,2.958598,13.937723,15.365516,13.844751,18.801704,27.591727,25.866815,23.037374,31.927433,39.38503,35.378565,29.81447,23.588173,48.635845,72.484886,93.447052,53.809181,88.687111,107.861778,121.576469,47.18795,85.813293,106.365189,119.520767,40.834419,76.245483,94.904663,106.316254,35.433494,62.983955,78.574699,90.472343,-17.322596,-20.754104,-17.639969,-15.858321,15.318388,26.45689,30.547311,32.904917,33.20516,42.8433,43.778449,42.225043,44.736506,55.49528,55.7727,52.932181,51.195081,62.704703,63.720349,61.489504,-11.018012,319.666742,-76.200251,296.99309
20,-1.109172,0.298366,0.089275,-0.023391,7.227996,11.522609,13.803382,15.319816,-3.855595,21.186058,38.768211,49.694824,-8.993878,19.1082,39.96904,57.045547,-11.649662,14.613258,33.491363,47.961822,-13.262787,5.162372,19.440948,29.948501,-25.69242,-40.530254,-42.807288,-39.411534,-17.2832,-8.908016,-5.240412,-4.08006,2.05409,13.025829,14.604244,13.328974,18.18867,26.921821,25.339355,22.684433,31.65993,38.987641,35.109814,29.627415,23.573296,48.625111,72.511494,93.563473,53.455891,88.42535,107.677975,121.419583,46.923123,85.762882,106.328396,119.395237,40.698178,76.363644,94.942051,106.218464,35.47728,63.097172,78.67574,90.536762,-17.130157,-20.744693,-17.74981,-15.754296,15.295775,26.600509,30.667848,32.973991,33.222586,42.92854,43.776769,42.131293,44.788648,55.567269,55.731389,52.806309,51.257053,62.755968,63.625426,61.263004,-12.12014,319.915988,-76.103932,296.920579
21,3.062175,-3.621007,-0.001728,-0.07168,7.611889,10.976509,11.579922,11.27203,-7.176784,17.488163,35.245732,45.827534,-12.42786,15.440632,36.415547,52.975376,-15.360832,10.816716,30.390805,44.726109,-17.532955,1.465313,16.577855,27.045765,-26.271787,-40.096605,-40.441605,-34.744376,-15.995271,-6.294393,-3.053237,-2.614093,3.845371,15.690137,17.061787,15.807142,20.403287,29.80265,27.917534,25.468834,34.302687,42.37212,38.03645,32.591632,23.668717,48.790787,72.672249,93.727616,53.701813,88.699356,107.857636,121.521309,47.062409,85.859825,106.239624,119.118622,40.704849,76.359902,94.779396,105.899094,35.368607,62.978268,78.523247,90.330208,-17.111546,-20.78241,-17.79269,-15.681455,15.045488,26.466115,30.608741,32.982229,33.039928,42.750996,43.689417,42.129268,44.687501,55.463405,55.718693,52.871258,51.232131,62.775209,63.663378,61.303981,-9.047762,316.249391,-76.095457,296.803309
22,-6.888496,2.517749,0.135716,0.017772,8.698082,14.97599,18.837513,20.985523,-1.224564,24.334568,42.020679,52.589367,-6.465981,23.204121,43.984829,60.324451,-9.053089,18.904255,38.028271,52.063076,-10.720619,9.505108,24.343494,34.716694,-26.150027,-41.076806,-42.49998,-36.776878,-17.328932,-8.694223,-4.900611,-3.855572,2.232129,13.293283,15.072004,14.102436,18.58165,27.47881,26.085708,23.660782,32.199098,39.897287,36.055572,30.570937,23.716072,48.79327,72.728542,93.857196,53.436287,88.507656,107.650119,121.237095,46.855911,85.832393,106.206516,119.012317,40.539573,76.485202,94.798427,105.789035,35.277958,63.019878,78.545345,90.305179,-17.006125,-20.796674,-17.888156,-15.653199,14.877934,26.479787,30.646186,32.997345,32.948908,42.668608,43.558148,41.949747,44.702704,55.412893,55.567392,52.637817,51.314271,62.780606,63.535913,61.032699,-15.92498,318.7282,-75.948463,296.782141
23,3.362823,-2.813781,0.06467,-0.017402,8.741341,13.562623,15.418477,15.487439,-3.674022,21.924809,39.822636,50.220829,-9.05952,19.726101,40.398571,56.186795,-12.264633,14.78088,34.095646,47.857556,-14.889415,5.05037,20.191647,30.391629,-26.56872,-40.164234,-40.342211,-34.484431,-16.681231,-6.852011,-3.455751,-2.785734,3.354468,15.202939,16.83415,15.840216,20.145788,29.569432,27.942407,25.840868,34.14142,42.339763,38.142736,32.80298,23.691181,48.754006,72.665772,93.801544,53.402001,88.490502,107.562905,121.048622,46.788517,85.825104,106.106964,118.790726,40.452599,76.503342,94.727417,105.642082,35.216572,63.051487,78.569893,90.259873,-17.09076,-20.908862,-17.956883,-15.622743,14.741232,26.418111,30.560835,32.844995,32.919145,42.492534,43.393361,41.798546,44.746387,55.267533,55.3753,52.446601,51.375343,62.761366,63.397568,60.774497,-12.553889,315.876322,-75.875525,296.726642
24,-7.44358,1.036913,0.125496,0.014784,10.085357,18.179855,23.121723,25.293239,2.651401,29.306728,47.227741,57.963192,-2.772,27.473247,48.293827,64.247349,-5.84808,22.750522,42.088108,56.005428,-8.064663,13.001484,28.244144,38.849338,-26.109062,-40.074437,-40.643318,-34.582911,-16.930296,-7.438294,-3.215591,-1.842163,2.809335,14.432393,16.65332,16.062999,19.408192,28.832478,27.870814,25.830765,33.172717,41.349681,37.716287,32.453584,23.616062,48.667935,72.55497,93.692986,53.247448,88.3564,107.363983,120.766983,46.602585,85.842133,106.151436,118.806519,40.224598,76.583153,94.837464,105.773209,34.97041,63.089321,78.649635,90.3116,-17.27847,-21.057965,-17.981325,-15.589781,14.497576,26.29272,30.489759,32.820331,32.801337,42.382382,43.260276,41.648973,44.759329,55.22448,55.200866,52.194634,51.4262,62.724487,63.23462,60.537411,-19.990499,316.875963,-75.743059,296.704154
25,3.75531,-2.414663,-0.201198,0.023391,10.293136,17.146511,19.709003,19.23476,-0.256966,26.251408,44.638309,55.396442,-6.021984,23.388943,44.326023,59.904957,-9.695332,18.154278,37.945255,51.656559,-12.767841,8.12986,23.762913,34.188755,-25.964801,-38.711371,-38.761598,-33.533747,-16.099741,-5.509088,-1.73762,-0.887996,3.965722,16.272555,18.397893,17.568375,20.763329,30.743739,29.596095,27.747658,34.657875,43.366659,39.432775,34.200329,23.621921,48.659637,72.498012,93.636669,53.450752,88.609966,107.613224,121.023159,46.657722,85.888675,106.219402,118.865902,40.177677,76.557209,94.892589,105.897274,34.831615,63.070324,78.708355,90.419437,-17.608501,-21.287837,-18.048151,-15.772661,14.42371,26.081595,30.236311,32.549494,32.84271,42.310011,43.103936,41.48689,44.814521,55.148329,55.026656,52.005715,51.429818,62.58235,63.031955,60.314974,-16.229765,314.437612,-75.938833,296.703857
26,-3.094174,1.767148,-0.175404,-0.015253,10.388112,18.600403,23.019722,23.987046,1.012928,27.814911,46.359375,57.362732,-4.903472,26.184563,47.397652,63.341515,-7.903884,21.830933,41.508408,55.247429,-9.817382,11.90355,27.340462,37.803154,-25.121574,-38.737639,-39.972832,-35.433609,-16.227897,-6.151638,-1.999095,-0.854873,3.425814,15.261219,17.546738,16.832878,19.7123,29.413549,28.599605,26.668373,33.010659,41.40023,37.990002,32.901978,23.647385,48.649326,72.415764,93.511574,53.26268,88.567703,107.677711,121.153313,46.434162,85.919724,106.435684,119.216927,40.009003,76.618515,95.128029,106.279518,34.752148,63.183529,78.89566,90.629723,-17.819773,-21.477522,-18.174603,-16.064085,14.39107,25.868853,29.993163,32.31882,32.897532,42.288634,43.017116,41.430908,44.877594,55.089469,54.826326,51.767384,51.413319,62.413315,62.752584,59.982337,-19.322783,316.183484,-76.113081,296.667328
27,-0.009864,0.29203,-0.530525,-0.405737,10.43177,18.502189,22.062034,21.632011,0.710334,27.32238,46.043861,57.260238,-5.123062,26.081451,47.651825,63.97467,-8.163369,21.555153,41.27037,55.106598,-10.184876,11.295707,26.788284,37.404075,-24.779254,-38.492119,-40.203297,-36.911963,-16.063456,-5.699303,-1.628963,-0.519395,3.249011,15.218167,17.640734,17.100925,19.081495,28.818633,28.128424,26.410923,31.963372,40.190293,37.013,32.365503,23.911251,48.968387,72.624985,93.560989,53.483047,88.887794,108.105263,121.687271,46.472717,85.950668,106.714073,119.717972,39.962768,76.437446,95.2351,106.613479,34.614509,62.965153,78.823768,90.61718,-17.909633,-21.482623,-18.124178,-16.166097,14.196815,25.640957,29.906997,32.434429,32.692632,42.35236,43.434153,42.192216,44.638619,55.163829,55.288145,52.503325,51.142729,62.347823,63.017333,60.454234,-19.334999,316.457968,-76.645958,296.244045
28,-3.170643,-1.682921,-0.494225,-1.367413,11.901237,21.721264,25.868328,25.126064,4.072426,31.21178,49.697468,60.562557,-2.507115,29.709881,51.01981,67.002765,-6.165653,24.418819,44.260517,58.049137,-8.68182,13.877094,29.673008,40.572613,-24.075349,-37.336472,-39.250723,-36.114951,-14.228962,-2.652797,1.509798,2.604225,4.790017,17.755998,20.250233,19.639496,20.232214,30.947244,30.284452,28.504793,32.704118,41.814057,38.755621,34.098578,24.429634,49.499851,73.076386,93.780785,53.035115,88.544518,107.708107,121.413208,45.808193,85.324356,106.421128,119.959122,39.222004,75.561894,94.829338,106.904778,33.839665,62.101788,78.110939,90.177269,-17.552938,-20.856832,-17.350446,-15.494315,14.156924,26.05913,30.582928,33.425263,32.529511,43.129068,45.012789,44.489492,44.388641,55.924865,56.837512,54.632713,50.789121,62.521761,63.73055,61.549241,-22.509167,314.75579,-77.143708,294.857375
29,3.85112,-3.290543,-0.823768,-3.046877,12.062576,20.006389,21.856006,18.924145,0.520145,26.279697,44.893123,55.878742,-6.814339,23.307323,44.763943,61.060856,-11.395832,17.251259,37.725414,52.079235,-15.013733,6.437805,22.73418,34.067585,-23.555041,-36.421851,-38.687115,-36.166253,-13.083171,-0.578318,3.758414,5.078773,5.985615,19.677769,22.870339,22.625042,21.381586,32.49729,32.416372,31.417769,34.049547,43.775237,41.09559,36.886052,25.508617,50.985397,74.129837,94.235733,52.854663,87.68637,106.292907,119.899955,44.848068,83.521888,104.503189,118.61753,37.580223,72.740352,91.960693,104.587051,31.513973,58.695728,74.320873,86.155517,-16.992886,-19.455838,-15.472196,-13.956013,13.650731,26.590555,31.812935,35.403216,31.737896,44.23387,47.553869,48.300999,43.50813,57.056529,59.538092,58.605772,49.937842,62.944319,65.106559,63.572667,-18.644136,311.435903,-77.953565,291.781154
30,5.472278,-5.331315,-0.708744,-5.675085,9.857094,15.529724,15.487164,11.167448,-3.143114,16.493809,31.040194,40.143677,-10.456318,12.085625,29.502102,43.807469,-14.981918,6.921381,24.273011,37.161101,-18.325515,-1.783006,12.706318,23.599423,-17.371521,-27.167779,-28.418404,-25.388027,-6.110907,6.550719,10.729585,11.92745,8.952451,21.201918,23.994981,23.689823,20.436676,29.904125,29.930301,29.154543,29.572921,37.929524,36.089189,32.953682,27.004303,52.91027,75.491764,94.702549,52.293708,85.553157,103.278064,116.233852,43.616226,80.336242,100.653705,114.80833,35.676773,68.858768,87.373603,99.786724,28.814174,54.671974,69.587734,80.504745,-16.259637,-17.497745,-12.533827,-10.637879,12.200338,26.883622,33.468217,38.173524,29.691549,44.543413,49.819071,52.134749,41.651814,57.520496,61.791031,62.272783,48.913749,63.291653,66.397242,65.442407,-13.168602,306.070607,-78.659053,286.072088
31,16.065617,-10.25909,0.038978,-8.793913,4.858074,3.946575,-1.876671,-10.233644,-13.301886,-6.076332,0.922434,6.02029,-20.065659,-13.695797,-4.256378,5.336975,-24.50774,-17.351412,-6.170139,3.119345,-27.85247,-21.351042,-10.668182,-1.646599,-6.123893,-9.163681,-7.207878,-2.755698,6.557943,19.237625,21.884871,21.986358,14.291948,23.617433,24.720104,23.635285,18.658042,24.707124,23.912724,23.211585,21.300799,26.589024,25.389411,23.831639,27.345543,52.692558,73.510105,91.6852,50.650417,81.136425,96.98283,107.61517,41.584191,74.920384,92.857716,104.428208,33.276867,63.335964,79.618973,89.721005,26.165886,49.787796,62.947037,71.597168,-15.070151,-14.529712,-7.382768,-3.079197,12.469347,29.60679,37.876517,43.557579,28.83596,46.735243,54.355232,58.637363,40.434095,58.585802,64.844095,66.95591,48.147364,63.416067,67.615206,67.75596,2.899366,295.77911,-78.617724,277.245768
32,19.824944,-15.2422,-2.20087,-13.858997,-3.803273,-13.038586,-23.71859,-34.080225,-27.469054,-32.707707,-31.203604,-28.079018,-31.060719,-39.120369,-35.987893,-29.394494,-33.029229,-39.254786,-33.852723,-27.235262,-34.211083,-37.445143,-31.873353,-25.685692,-3.45777,-1.530206,3.897032,11.053176,13.177551,29.488724,32.352517,31.933868,20.499581,33.656111,34.564627,32.679028,24.513067,33.993781,33.435835,32.313472,26.503938,34.603004,33.977806,32.412328,27.293054,52.082513,71.295278,88.004694,48.732816,76.164854,89.750713,97.881837,39.67927,69.264421,84.570808,93.419054,31.211305,57.936744,72.004663,79.960453,23.863243,44.951826,56.410463,63.075616,-11.567131,-9.462337,-1.637985,3.57901,10.495409,26.944168,36.03378,42.361171,23.249468,40.660429,49.634999,55.435148,32.619445,49.710421,57.189749,60.925414,39.35694,52.641615,57.287913,58.667566,22.735995,280.509644,-80.806909,263.359505
33,18.406288,-14.388315,-4.646038,-18.233785,-13.561341,-29.815556,-43.466469,-53.911005,-42.792326,-58.282814,-59.611342,-56.736729,-42.565499,-61.879979,-61.882748,-56.129471,-40.719796,-57.348193,-55.579079,-49.89271,-38.055199,-49.613154,-47.685288,-42.76973,-0.264471,5.472562,13.971883,23.09952,18.696246,35.712548,37.570241,36.049532,24.935298,38.208537,37.744884,34.528725,27.891346,37.128787,35.436499,32.97761,28.778057,36.013581,34.864258,32.785856,26.802263,51.077287,68.830679,83.667635,47.320707,71.362821,82.515747,87.956834,38.651865,63.975797,76.503398,82.353956,30.125421,53.157211,64.937639,70.459854,22.356216,40.388815,50.255521,55.014009,-5.933863,-2.660369,4.145113,8.705097,6.041919,18.311337,27.382473,34.031831,12.661891,25.730871,34.940278,41.69373,17.940384,30.349493,38.238522,43.462842,22.372378,30.750192,35.340162,38.116411,41.197935,266.160115,-85.397295,245.164506
34,24.071182,-23.633229,-6.244893,-23.702612,-22.085335,-45.158192,-62.748962,-74.096758,-55.64316,-80.884918,-86.245199,-84.590138,-52.190231,-80.497662,-84.212757,-80.544663,-46.920181,-71.7684,-73.845772,-70.01552,-40.565369,-58.826986,-60.108948,-56.740334,0.528676,8.349255,19.849435,31.23862,19.274823,37.629071,39.635756,37.546424,25.298218,40.047168,38.723233,34.382401,28.069607,38.656073,36.258434,32.307371,28.485718,36.155842,34.860664,32.129536,22.858126,45.236659,61.593195,74.71871,42.989016,63.512049,72.715611,75.755488,36.3954,58.1351,67.848301,70.641707,29.633692,50.382752,59.907778,63.029091,23.397995,40.710978,49.270827,52.42943,-6.909976,-7.050403,-2.932743,0.464913,-5.311104,0.356547,7.271945,12.636024,-0.025188,6.632606,14.672979,21.40399,5.600614,12.93116,20.172427,25.857886,11.748961,16.916186,21.341899,24.782423,65.44075,242.673108,-91.470555,221.608116
35,15.792149,-30.137097,-5.216835,-29.432556,-27.763596,-53.485405,-70.602974,-77.744511,-57.439042,-84.951622,-91.059025,-89.685059,-49.313576,-79.840508,-84.788235,-81.828003,-40.452942,-68.433838,-72.281834,-69.113904,-31.490799,-53.000428,-56.52134,-54.25129,-3.519625,1.7881,13.191444,24.983463,4.609298,20.607094,25.511528,25.267392,12.050562,30.362776,31.987652,28.214529,18.238546,33.532968,33.067432,28.96266,22.876984,33.800792,33.570192,30.517029,21.685507,41.40465,53.745673,61.93249,36.413103,52.154761,59.295331,60.823134,28.306098,48.003451,55.96653,56.090464,21.027598,40.83236,48.558638,49.378659,14.891934,31.410834,38.960513,40.677378,-6.817529,-11.579672,-12.308246,-11.422776,-19.946766,-23.571806,-21.780296,-20.429728,-17.358856,-12.748798,-3.104483,4.63561,-12.184072,-6.108573,2.069318,8.582838,-5.369569,-1.747123,3.501427,8.175607,81.527699,212.872553,-96.39259,192.512102
36,6.401699,-31.868536,-6.413543,-28.542893,-29.760167,-54.033989,-67.489346,-69.148934,-51.756569,-74.654915,-78.117668,-75.554924,-39.488182,-64.083458,-66.47834,-62.225098,-27.745743,-51.305558,-53.929287,-49.89655,-16.887028,-36.032788,-39.988507,-38.111527,-12.72684,-14.017019,-6.067255,3.798367,-16.526006,-5.11804,0.334938,0.408415,-4.410266,16.336949,22.804585,21.461816,8.223661,27.316592,30.480887,27.904487,19.910779,33.781622,35.184277,32.363228,21.574247,39.420198,48.846662,52.277235,30.64076,42.789568,48.481304,50.255132,20.967024,38.600309,47.31942,48.87343,12.933466,31.526447,40.149667,42.379761,6.474655,21.89451,30.324125,33.30348,-7.856153,-17.880925,-24.270425,-27.578493,-36.59569,-49.410191,-53.834602,-57.204927,-35.953436,-36.551952,-26.216718,-17.311882,-30.849647,-28.507954,-19.694954,-11.945376,-23.004591,-22.546193,-16.680435,-10.664635,88.428978,181.578837,-102.306553,164.544029
37,4.76564,-32.827618,-1.643967,-30.699532,-28.094868,-49.472969,-59.589695,-57.518738,-44.476021,-61.762791,-64.609932,-63.36327,-31.178719,-50.062466,-51.479164,-47.956742,-18.595551,-37.234589,-39.037193,-35.566967,-7.058155,-22.953976,-26.326275,-24.47731,-12.507922,-19.358294,-16.627243,-11.037083,-31.684577,-31.184674,-30.418614,-33.13633,-22.053495,-8.640229,1.564351,3.627204,-10.108375,3.142294,9.679952,10.248352,2.348109,11.187239,14.902768,14.861512,20.348671,36.001362,42.172085,40.968693,23.478275,31.741448,36.419415,38.810429,11.961571,26.521431,35.191052,37.635498,2.779118,19.077381,27.814751,30.791817,-4.538715,9.103375,17.825638,21.428925,-11.070003,-26.803304,-38.082467,-44.234784,-50.70117,-70.94771,-80.620733,-88.254399,-49.264226,-52.397886,-39.799196,-29.518889,-42.368958,-41.601975,-30.980231,-22.033084,-32.373049,-33.089854,-25.716552,-18.769748,93.924465,149.716189,-103.220673,134.809467
38,4.597961,-36.887924,1.619556,-31.097656,-26.19714,-46.087875,-53.627598,-48.579597,-36.177726,-50.354873,-54.786575,-55.7341,-21.391845,-37.222206,-39.535686,-37.454933,-7.957489,-24.130279,-26.958572,-25.196766,4.08759,-10.642284,-15.046657,-14.480392,-12.871879,-26.068359,-29.891151,-29.09601,-48.382469,-57.762638,-59.986656,-64.383712,-41.381269,-31.788309,-16.552867,-10.220159,-30.215958,-18.939228,-7.350577,-2.755896,-17.369693,-9.719913,-1.843456,1.374889,19.232289,32.675938,35.662148,30.177704,16.211049,21.055779,25.218281,28.457989,2.709515,14.264946,23.058644,26.483071,-7.714725,6.166146,15.06506,18.656926,-15.772636,-3.802104,5.25982,9.287488,-16.696397,-37.680817,-52.208892,-59.836081,-62.863982,-87.917359,-102.248005,-114.142839,-57.967711,-60.782418,-45.071329,-33.106526,-47.306459,-45.499216,-32.631066,-22.738403,-33.664058,-33.218467,-24.055595,-16.526219,99.522211,113.89116,-100.601332,104.774706
39,-1.02594,-29.399846,4.907513,-28.824573,-26.181141,-43.693107,-48.06792,-40.361503,-29.73381,-39.81015,-44.630516,-47.276596,-13.29982,-25.561866,-29.404644,-29.091728,1.206894,-12.279648,-16.919471,-17.250217,13.71381,1.069371,-5.317073,-7.008087,-13.323522,-30.811606,-40.789686,-45.833052,-61.076681,-79.00323,-85.95218,-93.153711,-58.03167,-56.608116,-38.353999,-27.709148,-49.165388,-44.102441,-28.957072,-20.026233,-37.249695,-34.277145,-23.675062,-16.446281,20.924389,33.163719,33.148464,23.51825,11.260643,13.854435,17.586983,21.459767,-5.571853,4.306297,13.466,17.349758,-18.493378,-6.244331,2.950173,6.661171,-28.57806,-18.822029,-9.201107,-4.825275,-15.917157,-38.471285,-54.951445,-62.784553,-67.435254,-95.415434,-112.70282,-127.61221,-63.60256,-64.573592,-44.978056,-30.928219,-53.612264,-51.105716,-35.799252,-24.708261,-40.60583,-41.510406,-30.883036,-22.252144,99.429147,86.397496,-94.760943,77.856315
40,-5.202324,-28.319468,4.456204,-22.756256,-24.210949,-40.052833,-42.724193,-35.513031,-26.265472,-34.25711,-39.532974,-43.262306,-9.846954,-18.968353,-22.618709,-22.561432,5.018624,-5.291038,-10.276405,-11.352459,18.401173,8.477131,1.478199,-1.066085,-12.421114,-32.659685,-46.99407,-55.561254,-63.247924,-86.852745,-100.779911,-112.887351,-61.406076,-66.455021,-46.851504,-33.534293,-54.246526,-55.004926,-37.838454,-26.336538,-44.040906,-45.695475,-33.447052,-24.156406,19.825161,31.558994,31.469432,21.533031,9.259208,11.980327,15.461128,19.672325,-7.381955,1.066303,10.557701,15.646534,-20.406063,-9.646603,0.30051,5.227306,-30.733235,-22.18784,-11.744522,-6.155434,-17.152424,-40.466243,-57.21067,-65.109844,-69.048557,-96.955822,-114.742578,-130.083449,-64.902925,-68.946799,-49.525214,-34.565114,-55.011145,-55.72409,-40.030476,-27.983095,-41.997406,-45.973132,-35.087486,-25.602369,95.423217,60.950432,-89.108345,57.972463
41,-4.976749,-25.08035,6.119396,-22.749111,-23.89547,-38.833054,-40.10994,-32.889565,-24.67424,-31.245827,-37.11937,-41.867958,-8.304291,-16.270454,-19.996536,-19.875893,6.751785,-2.33139,-7.392632,-8.542694,20.748779,11.704971,4.440216,1.716431,-14.004641,-36.142707,-53.354381,-63.849975,-65.655582,-91.234949,-107.629307,-120.990243,-64.743003,-74.293038,-55.206344,-40.620779,-58.786441,-63.394214,-45.556885,-32.33388,-49.77697,-54.557316,-41.781921,-31.088788,19.080505,30.339557,30.126697,20.4501,7.278454,10.353149,14.361294,19.129326,-9.273342,-0.398071,8.81282,13.389244,-22.372627,-11.296818,-1.681091,2.597774,-33.010609,-24.254494,-13.73616,-8.372315,-18.001097,-41.931982,-59.278216,-68.020574,-70.700369,-98.940178,-116.31181,-131.169719,-66.518439,-71.302762,-51.664699,-36.327181,-56.626999,-58.061405,-41.785294,-29.25101,-43.616416,-48.620663,-37.427604,-27.561105,91.733128,39.113019,-81.702289,38.466289
42,-5.138512,-22.128883,5.303089,-17.316112,-24.437393,-39.271248,-40.359924,-34.502517,-24.522239,-31.167869,-37.509498,-42.871284,-8.060989,-16.97319,-20.671371,-20.131256,7.057068,-2.938408,-7.546257,-8.079483,21.258522,11.37854,4.2892,1.919632,-16.136087,-38.923304,-57.118755,-68.811658,-68.143432,-92.372003,-107.62102,-119.744658,-67.895214,-78.089831,-59.920945,-45.339993,-62.489398,-67.169591,-49.456554,-36.153329,-54.000069,-58.669024,-45.880032,-35.277659,19.581928,30.584782,30.108787,20.44566,6.472893,10.396168,15.03701,20.485828,-9.992981,0.848442,10.682098,15.298622,-22.899708,-9.980793,-0.017052,4.137646,-33.245533,-22.994316,-11.875511,-6.272518,-19.302704,-43.306213,-60.647667,-70.12081,-72.703151,-99.891999,-116.835188,-131.014398,-68.561619,-73.583953,-54.70361,-39.125117,-58.603784,-60.026909,-44.014218,-31.232933,-45.320511,-50.776543,-39.909106,-29.574792,87.544361,20.232652,-75.449455,24.398693
43,-6.38047,-16.642064,5.442753,-13.485339,-24.851738,-39.303451,-40.536507,-36.122726,-24.612167,-31.608993,-38.287926,-43.970123,-8.205116,-18.360695,-22.467956,-21.699806,6.765678,-4.446052,-8.931473,-8.863655,20.909729,10.014404,3.072235,1.297348,-17.55453,-40.39376,-59.027175,-71.753991,-69.473974,-92.388021,-107.082859,-118.731395,-69.596079,-82.097265,-64.168249,-49.681349,-64.502942,-70.616178,-52.523467,-39.417924,-56.232549,-61.991677,-49.195058,-38.680013,20.126735,30.727569,29.618603,20.36071,6.118229,10.977596,15.754074,21.51535,-10.610722,3.031002,13.036938,17.661976,-23.40572,-7.594849,2.072708,5.935982,-33.516197,-20.928692,-9.609867,-3.994045,-20.258711,-44.482008,-61.718179,-71.755424,-73.945551,-100.162948,-116.983908,-130.755744,-70.094986,-74.443086,-56.143191,-40.27993,-60.190455,-60.715661,-44.821401,-31.756663,-46.715632,-51.740479,-40.974073,-30.323849,81.797527,6.953692,-69.373066,14.276458
44,-8.177193,-15.573157,4.866291,-9.983338,-23.827308,-38.248077,-39.020073,-34.491027,-23.02375,-30.707199,-38.219833,-44.918495,-6.39949,-18.382049,-22.389061,-21.029159,8.49511,-4.659164,-8.774437,-7.968383,22.64019,9.716423,3.001419,2.211937,-16.559478,-39.560315,-58.515629,-71.131905,-69.357705,-92.713217,-107.402461,-118.974772,-69.326663,-80.074069,-61.951885,-48.378891,-63.842522,-67.587913,-49.129375,-36.955139,-55.157648,-59.233391,-46.126835,-36.630345,20.663521,30.75032,29.371788,21.206772,5.975464,11.611942,16.557381,22.63821,-10.879967,4.712505,15.143852,20.218677,-23.417622,-5.551655,4.237335,8.380462,-33.146507,-18.72797,-7.114529,-1.211884,-20.5191,-44.698486,-61.858796,-73.048915,-75.180077,-100.724295,-117.687618,-131.348542,-71.731026,-75.44548,-57.915063,-41.911474,-61.841759,-61.207101,-45.516216,-32.204494,-48.009648,-52.110728,-41.599116,-30.930608,74.146648,-5.905349,-63.980461,7.007236
45,-5.173278,-7.970953,4.493431,-8.178354,-24.028016,-38.279824,-39.000824,-35.205895,-22.532845,-30.737938,-38.600625,-45.891129,-5.756401,-19.364388,-23.998787,-22.87262,8.905906,-6.07132,-10.165879,-9.126,22.55754,7.726936,1.0792,0.743042,-17.232175,-40.484268,-59.730439,-73.001486,-70.250739,-92.99391,-107.341266,-118.590154,-70.712305,-81.59718,-64.407038,-50.958509,-65.274792,-67.975305,-49.636797,-37.346304,-56.395355,-59.358553,-46.239382,-36.603557,20.774368,30.493927,28.650387,21.437759,6.051762,12.257561,17.699673,24.056648,-10.892773,6.218124,16.236237,20.879082,-23.413708,-3.890648,5.488197,9.354309,-33.228985,-17.438942,-5.831017,-0.05056,-19.830583,-44.223064,-61.536366,-73.477297,-75.224994,-101.151399,-118.27761,-132.024196,-71.9664,-74.358308,-56.329004,-40.359464,-62.1442,-60.107962,-44.002022,-30.7063,-48.371,-51.230192,-40.597598,-30.235904,69.122149,-12.125879,-59.338251,0.579305
46,-3.30938,-6.860236,2.623581,-6.172392,-23.203056,-37.582008,-38.966629,-35.701653,-22.486565,-31.673035,-39.69722,-47.199966,-5.558579,-19.852249,-24.361496,-23.183579,9.104324,-6.644188,-10.610001,-9.492394,22.555733,7.060249,0.423981,0.27626,-15.742379,-38.733811,-57.745645,-71.483414,-70.132747,-93.865681,-109.490394,-122.133053,-70.564784,-80.297303,-62.632591,-49.391716,-64.897541,-66.00806,-47.575636,-35.845892,-55.609254,-57.149439,-43.796264,-34.672085,20.624737,30.360363,28.395573,21.250488,7.021488,13.568745,19.191547,25.474983,-10.222069,7.916496,17.042255,21.175403,-22.927929,-2.301361,6.343094,9.987259,-33.02179,-16.291992,-4.914597,0.784687,-18.762782,-43.067837,-60.50101,-72.636367,-74.740488,-101.579774,-118.978415,-132.854906,-71.715261,-72.445695,-53.787666,-38.222875,-62.073731,-58.301429,-41.938391,-29.085729,-48.523813,-49.79213,-38.904748,-29.07273,65.698202,-17.834639,-56.829237,-4.441611
47,0.196472,-5.164144,-0.653515,-4.114078,-22.271004,-37.100784,-38.697487,-34.165008,-23.430839,-32.793869,-40.775184,-48.272438,-6.439751,-19.817596,-23.893112,-22.497574,8.436218,-6.608322,-10.524719,-9.362869,22.117722,7.224724,0.623177,0.657738,-14.446342,-37.240698,-55.859818,-68.898263,-69.233123,-94.713217,-111.613484,-125.66525,-69.023592,-78.583883,-60.363374,-47.342559,-63.024539,-63.880406,-45.343822,-34.106432,-53.429624,-54.436502,-40.907085,-32.303697,20.575699,30.622467,28.792706,21.79121,8.34034,15.304768,20.8759,26.577061,-9.18861,9.212242,17.622974,21.041485,-22.19664,-1.364296,6.616642,9.64547,-32.712124,-15.739918,-4.769062,0.322838,-17.695075,-41.704407,-59.154202,-70.7024,-73.678257,-101.544959,-119.321346,-133.690028,-70.757185,-71.254634,-52.448114,-37.675353,-61.280948,-57.268326,-40.958147,-28.723692,-48.065255,-48.996809,-37.94109,-28.56876,65.788822,-22.299003,-57.588604,-7.855909
48,2.917992,-3.048785,-6.023861,-3.194392,-21.381775,-35.577919,-36.208512,-30.281182,-22.745911,-31.390778,-38.887436,-46.129761,-5.579888,-16.989327,-21.375046,-20.618477,9.5923,-4.002526,-8.73143,-8.005142,23.67707,10.008888,2.888603,2.591011,-14.110049,-37.350545,-55.832864,-68.196099,-69.033045,-95.872569,-113.261732,-127.964014,-67.883895,-77.661399,-60.73844,-48.605947,-61.173897,-62.962998,-45.19399,-34.123154,-50.728914,-52.938937,-39.968973,-31.334178,21.208946,31.424252,29.762535,22.544849,9.172428,15.592987,20.989494,26.076004,-8.760235,10.06667,18.066845,20.134621,-22.172024,-0.541374,7.282402,9.304024,-33.115723,-15.152012,-4.23547,-0.024296,-17.160007,-41.547906,-58.870472,-69.632142,-72.751378,-101.244444,-120.042711,-135.44445,-69.882509,-70.163084,-51.293875,-37.454144,-60.368036,-56.025834,-39.827676,-28.142849,-47.199249,-47.44864,-36.389073,-27.328954,68.770901,-24.980108,-63.548378,-10.682621
49,8.96299,-2.355543,-11.446094,-2.114532,-20.550476,-33.386902,-32.448807,-25.84314,-21.102082,-28.5187,-35.122651,-41.520424,-4.321633,-14.031762,-18.816079,-18.116249,10.727714,-1.409798,-6.928666,-6.108742,24.777786,12.056762,4.633392,4.433418,-15.167396,-38.653807,-56.366412,-67.921291,-69.56757,-97.646458,-115.649651,-131.179852,-66.978993,-78.082204,-61.326743,-49.595406,-59.156741,-63.15955,-45.688204,-35.062724,-47.557809,-51.736292,-38.927071,-30.61691,20.519176,29.921711,27.756008,19.710571,8.562606,13.205406,17.447319,21.442783,-8.503464,7.695774,15.306266,16.709621,-21.647084,-2.564621,5.070934,6.696533,-32.681202,-16.484253,-6.019238,-2.431595,-18.124987,-42.723418,-59.434852,-69.131482,-72.48837,-100.803015,-120.198152,-136.008601,-68.822791,-70.255327,-51.738033,-38.849395,-58.998943,-56.215735,-40.352597,-29.100635,-45.872849,-46.833933,-35.933707,-27.083706,77.480868,-27.30153,-75.247495,-12.763032
50,18.086814,-2.2366,-19.811303,-3.183289,-19.730918,-31.014884,-28.681526,-20.391838,-19.462394,-25.554428,-31.074348,-36.172599,-3.064796,-9.5205,-15.119155,-15.488479,11.62912,2.932457,-4.286178,-4.747741,25.388627,15.88543,7.400666,6.036049,-16.273074,-40.167025,-57.834664,-68.499559,-69.24845,-98.242599,-117.181911,-133.446454,-65.05304,-77.148816,-60.740991,-49.59706,-56.305693,-62.165214,-45.634543,-35.911928,-44.191608,-49.882823,-37.896636,-30.337342,18.915848,26.528023,23.076394,13.59327,6.126458,8.699421,11.257908,13.400162,-10.633403,2.372017,10.278386,11.716736,-23.573364,-7.449657,0.896119,2.728638,-34.40475,-20.391586,-9.746933,-6.205215,-18.774101,-43.225943,-59.492453,-67.243272,-71.52205,-100.283243,-119.816686,-136.132498,-66.747854,-69.374519,-51.652515,-40.370697,-56.206083,-54.238246,-39.438463,-29.638716,-42.842955,-43.654614,-33.321572,-25.66252,94.941759,-29.959213,-95.684721,-16.367404
51,21.289353,-2.019757,-23.226734,-2.903893,-17.995857,-26.53244,-21.956795,-12.666275,-15.420479,-18.866501,-22.76992,-26.486481,-0.183357,-2.92852,-9.087685,-10.124451,13.60968,8.404266,0.293907,-0.811546,26.664024,19.939819,11.342171,9.553917,-18.351062,-42.564856,-59.720022,-70.132975,-69.596444,-98.895372,-117.842217,-134.410853,-63.816834,-77.033318,-60.976322,-50.435329,-53.688458,-61.497835,-45.317102,-36.465959,-40.376816,-47.47142,-35.885487,-29.054452,16.846047,21.397259,15.335484,4.399922,2.171608,1.409146,1.482743,1.545067,-14.032837,-5.748138,2.800633,4.658821,-26.913002,-15.359401,-6.236435,-4.023765,-37.833996,-26.948089,-16.273292,-12.822201,-19.277534,-43.418203,-59.007688,-65.84591,-70.584581,-99.094345,-119.47797,-136.673073,-64.709869,-69.058277,-52.071554,-42.018902,-53.62927,-53.087175,-39.025242,-30.417074,-40.21282,-41.362575,-31.625505,-25.002193,115.083927,-32.732028,-120.05864,-20.024355
52,24.121765,-1.475514,-25.352279,-3.548988,-15.591476,-21.002174,-14.029427,-3.705688,-9.744163,-10.648636,-12.566551,-14.73365,4.244179,5.384697,-1.401306,-3.675705,16.886627,15.29171,6.273148,3.969727,28.863808,25.123467,16.360519,13.657631,-20.334781,-44.825742,-61.439048,-71.447271,-70.516729,-100.085096,-119.407596,-136.592192,-63.48206,-77.145451,-61.966304,-52.269303,-51.960915,-60.49778,-45.051396,-37.154575,-37.212966,-45.263731,-34.46535,-28.286184,14.692646,15.722808,6.739746,-5.341404,-2.485634,-6.502957,-8.870659,-10.907513,-18.164303,-14.374192,-5.106686,-1.959961,-30.649773,-23.053242,-12.613026,-8.884736,-41.011712,-33.730442,-22.517704,-17.858426,-20.004373,-43.853204,-58.431346,-65.022221,-70.182104,-98.388963,-119.31837,-137.260286,-63.045466,-67.38381,-50.210193,-40.630777,-51.262852,-50.521791,-36.522423,-28.704889,-37.514475,-37.998629,-28.473658,-22.844602,137.802544,-35.139198,-146.814067,-24.504999
53,26.527908,-1.066146,-23.715867,-2.887585,-13.699882,-16.38565,-7.435455,3.167244,-4.283226,-3.439521,-4.100601,-4.830139,8.973175,11.028191,3.691201,1.662186,20.595772,19.617279,10.071625,7.865456,31.330147,28.128044,19.113099,16.564751,-22.082879,-46.865611,-62.561756,-72.067516,-71.610273,-101.426391,-121.333501,-139.267312,-63.39288,-76.649866,-60.342533,-50.726395,-50.822873,-58.859368,-43.344405,-36.395303,-35.188274,-42.567547,-31.905505,-26.667137,11.895253,9.897183,-1.606498,-14.623283,-6.961189,-13.189292,-17.436023,-21.194137,-21.620658,-22.677772,-12.565429,-6.92633,-33.410751,-30.632526,-18.881172,-12.656627,-43.022541,-40.458595,-28.832107,-22.354591,-20.707717,-43.896763,-57.939134,-63.915159,-70.009388,-98.177394,-118.543257,-136.135764,-61.247424,-66.006251,-48.896199,-39.524982,-48.775095,-48.556517,-34.743555,-27.591949,-34.906965,-36.164376,-26.640863,-21.756615,162.380098,-37.226517,-172.480288,-28.413757
54,24.061066,0.760451,-20.468101,-2.140257,-11.87281,-11.995651,-1.42028,9.903557,0.420479,2.750999,3.325333,4.010925,13.490524,17.379684,9.272621,6.262322,24.566208,24.7649,14.502251,11.555534,34.498421,32.576683,23.114044,20.02002,-22.594112,-47.797123,-63.09123,-71.758376,-71.792283,-102.111109,-122.249276,-140.275799,-63.057416,-74.980988,-58.692483,-49.680016,-50.133764,-56.709109,-41.493276,-35.077273,-34.424453,-40.575208,-30.321281,-25.628941,10.723835,6.863743,-6.568371,-20.423927,-9.629322,-16.985401,-22.187691,-27.102367,-24.507237,-27.961247,-16.887497,-9.401733,-36.287647,-35.552856,-22.401249,-14.427521,-45.472858,-45.470867,-33.091908,-25.188,-20.239865,-43.164637,-57.637532,-63.615639,-69.187811,-98.214846,-118.204522,-135.948506,-59.787595,-64.091407,-46.382285,-37.117345,-47.040161,-46.053513,-32.03436,-25.640333,-33.197806,-34.175531,-24.408759,-20.266356,184.672491,-37.695245,-194.717062,-31.783193
55,17.795105,3.269671,-12.683441,0.569011,-10.212502,-8.156204,4.233536,15.998131,4.34642,8.418182,10.071373,11.823647,16.867996,21.448151,13.381416,10.749046,27.577904,27.854576,17.869217,15.629059,37.192612,35.103218,25.944992,23.510284,-23.444717,-48.603076,-62.962739,-70.970693,-72.813405,-103.748861,-123.490647,-141.344751,-63.475533,-74.516531,-57.607027,-49.530869,-50.02562,-56.220372,-40.434003,-34.563039,-33.845826,-39.706787,-29.217108,-24.989638,10.291454,5.520206,-8.91576,-23.334789,-11.142117,-19.486347,-25.251881,-30.5247,-25.530796,-31.424698,-19.836273,-10.855202,-37.082165,-38.406452,-24.584622,-15.30312,-45.953327,-48.260456,-35.831337,-27.056534,-20.310791,-43.153429,-57.884453,-64.682593,-69.187125,-98.365186,-118.500121,-136.296932,-59.334896,-64.258009,-46.027886,-36.144479,-46.65569,-46.533344,-31.858853,-24.947141,-33.040224,-35.222533,-24.970032,-20.375944,200.985741,-35.630908,-208.882358,-32.419516
56,14.642395,5.813549,-9.029938,2.359916,-9.495872,-6.0336,7.796333,20.175316,7.030472,11.806091,14.318939,17.316948,19.822517,24.903854,16.118042,12.969681,30.502762,31.01136,20.342995,17.939964,39.84716,38.13295,28.376747,25.703957,-23.074752,-48.611419,-62.298176,-68.795622,-72.754774,-104.414649,-124.156049,-141.834466,-63.090816,-73.313683,-55.696359,-48.036393,-49.626238,-55.013924,-38.967271,-33.374418,-33.681256,-38.817007,-28.497593,-24.647881,10.109848,5.360241,-9.077316,-23.920921,-11.723545,-19.888035,-25.5,-30.766468,-25.763157,-32.773579,-20.711895,-10.35593,-36.88393,-38.56675,-23.903629,-13.431438,-45.104118,-48.506435,-35.702419,-26.021713,-20.756796,-44.2222,-59.316612,-65.180956,-69.318913,-99.147409,-118.706201,-136.307755,-58.960671,-63.820243,-45.030092,-34.638554,-45.962968,-46.042985,-31.04615,-23.694387,-32.2041,-34.989117,-24.406764,-19.589979,214.742804,-30.849984,-218.797628,-31.092225
57,9.833839,10.928625,-5.640449,5.15711,-8.732139,-3.951461,10.901551,23.400261,10.190484,15.523865,18.500542,22.408082,23.643128,27.393128,17.533791,14.323014,34.382218,33.351815,21.824799,19.685944,43.397622,40.709496,30.164978,27.648537,-24.107861,-49.992263,-63.3429,-68.71384,-73.560796,-105.699054,-125.645036,-143.071086,-63.599312,-73.314332,-55.363382,-48.044038,-50.304319,-54.737764,-38.844387,-33.621155,-34.798815,-39.378034,-29.318621,-25.849507,9.826904,5.069137,-8.681797,-23.133957,-11.493233,-19.615334,-25.161541,-30.200123,-24.978825,-32.962189,-20.767434,-9.844941,-35.706563,-38.043904,-23.221138,-12.501423,-43.48708,-47.346348,-34.572144,-24.946347,-20.513406,-44.153323,-59.27451,-64.396621,-68.724973,-99.377479,-118.618089,-135.896614,-58.084574,-62.672543,-43.876496,-33.551777,-44.69488,-44.596938,-29.852922,-22.482541,-30.85615,-33.391412,-23.056887,-18.432621,224.122964,-21.003445,-224.891756,-27.017201
58,6.767533,14.771235,-3.600884,7.611171,-7.741585,-2.44233,12.735672,26.051376,12.532219,18.608597,22.349075,26.922775,26.011642,30.966247,20.388084,15.772156,36.449547,36.718139,24.380813,20.939712,44.851089,43.793335,32.657821,28.76065,-24.329464,-49.700578,-62.668838,-67.04772,-73.622077,-106.133885,-126.120153,-143.154887,-63.664773,-72.015955,-54.454687,-47.441205,-50.453476,-53.336331,-38.133473,-33.351638,-35.300345,-38.654862,-29.140038,-26.209913,9.762749,5.407333,-7.264114,-20.249084,-11.218609,-20.175384,-25.483887,-29.787254,-24.545116,-32.976643,-20.812637,-10.242199,-34.910614,-37.591839,-23.004021,-12.917004,-42.068344,-46.112297,-33.565865,-24.437038,-19.691231,-42.394912,-56.302599,-60.66379,-66.485668,-97.378625,-115.808396,-132.307578,-56.057296,-59.03027,-40.691694,-31.231568,-42.283428,-40.69911,-26.828763,-20.17005,-28.459166,-29.578256,-20.055268,-16.096542,230.905277,-7.447591,-228.47786,-20.621411
59,4.478348,19.106788,-1.165752,16.495375,-6.725739,-0.808732,14.513855,27.951278,15.148429,21.977371,26.268997,31.281692,28.372352,33.393997,22.158279,17.133339,38.367347,38.98336,25.968681,22.101196,46.114929,45.482299,33.908088,29.662078,-24.121273,-48.986855,-61.28603,-64.818166,-73.466089,-105.614132,-125.534886,-142.407247,-63.530337,-70.361451,-53.387263,-47.407181,-50.316329,-51.476008,-37.198022,-33.732255,-35.482694,-36.902324,-27.982588,-26.407063,9.084457,4.147327,-9.185234,-21.947274,-11.854706,-21.577343,-26.965004,-30.971844,-25.208371,-34.571961,-22.7234,-12.458348,-35.641217,-39.174878,-24.912461,-15.23996,-42.8741,-46.773342,-34.340023,-25.651909,-19.53084,-41.565857,-54.778716,-59.33531,-66.190693,-97.162825,-115.207172,-131.592688,-56.02802,-58.25311,-40.432997,-32.453732,-42.426257,-40.221699,-26.986424,-21.554895,-28.951131,-29.099845,-19.977203,-16.895228,235.670763,10.250686,-229.356474,-5.534547
60,2.687919,24.368213,-2.514634,16.397433,-5.509186,0.838234,15.746613,28.562691,17.835915,25.742867,30.891609,36.580033,30.754784,37.196984,25.188698,18.87188,40.244522,42.412308,28.75383,23.606804,47.207703,48.055069,36.222771,31.013924,-23.126252,-46.856818,-58.580948,-62.134098,-72.7392,-104.481135,-124.28862,-141.04184,-63.412943,-67.602418,-51.316926,-46.370762,-50.619097,-49.218314,-35.935955,-33.693445,-36.520984,-35.266802,-26.819747,-26.463886,8.48584,4.269436,-7.412326,-17.818176,-11.515869,-22.224277,-27.671207,-30.777706,-24.947479,-33.750148,-22.961299,-13.768032,-35.063587,-38.227375,-25.342758,-16.902282,-41.892997,-45.644107,-34.033538,-26.09959,-18.69968,-38.855101,-49.823901,-52.901979,-62.197578,-92.026936,-108.793312,-123.649411,-52.205453,-52.964249,-36.635291,-29.776691,-38.344474,-35.048781,-23.519392,-19.213178,-25.063949,-24.189606,-16.385577,-13.849308,238.929411,32.805224,-231.300379,9.049211
61,1.648293,28.444877,-0.672992,27.664419,-4.709702,1.696838,15.916465,28.382629,20.439811,29.454643,35.52372,41.829941,33.454811,40.738426,27.964004,20.400375,42.649681,45.578911,31.298813,24.953819,49.019188,50.749283,38.41745,32.277992,-22.081021,-44.011285,-54.883964,-58.619944,-71.575669,-101.9329,-121.268528,-137.457677,-63.073631,-63.793857,-48.962958,-45.264009,-50.721776,-45.818843,-34.138327,-33.259254,-37.308611,-32.708681,-24.93502,-25.965147,7.585556,3.252891,-8.214009,-17.653622,-12.87838,-24.498528,-30.200421,-33.045216,-26.060829,-35.249714,-25.140736,-16.403435,-35.745781,-39.809658,-27.819775,-19.767437,-42.086621,-46.622235,-35.497742,-27.778725,-18.137745,-36.84883,-46.300132,-49.147332,-60.82615,-89.920092,-105.938667,-120.062197,-51.262129,-51.592086,-36.325408,-30.529373,-37.758864,-33.993719,-23.35521,-20.056484,-24.883835,-23.449966,-16.249121,-14.299765,241.224072,58.589047,-231.327003,34.052576
62,0.588638,28.871047,0.184158,34.590778,-3.33744,4.534653,18.866638,30.700493,23.249748,33.503723,40.105431,46.749664,35.647911,44.7258,31.066498,22.043953,44.311111,49.230103,34.304306,26.646835,50.105301,53.515228,40.872208,33.942993,-19.538559,-39.486344,-48.564106,-51.624005,-67.249515,-95.602772,-113.852193,-129.181436,-59.393473,-56.105233,-42.808159,-40.68253,-47.284563,-39.173529,-29.078479,-29.55878,-34.516128,-26.775856,-19.754439,-22.13832,6.599659,2.197746,-9.254253,-17.919754,-15.214909,-27.881893,-33.79874,-36.436947,-28.460529,-37.411114,-27.619148,-19.031811,-37.789993,-41.964489,-30.606296,-22.699997,-43.70628,-48.552326,-37.813282,-30.131447,-18.057852,-35.91483,-44.331813,-46.673753,-59.926422,-87.515352,-102.504573,-115.831392,-50.838997,-49.995252,-35.996989,-31.635434,-37.875807,-33.037329,-23.460686,-21.574483,-25.523798,-23.435665,-16.793204,-15.552904,242.437139,84.694537,-230.518416,65.877797
63,2.579086,25.928887,0.583466,38.891613,-3.436912,4.582215,18.455223,29.62674,22.779763,34.744721,41.559037,48.004853,34.438294,44.219811,31.197075,22.245644,42.4674,47.823555,33.800492,26.253502,47.976792,51.759362,40.060845,33.302948,-15.41278,-31.063527,-36.497835,-37.859987,-58.72442,-84.929381,-100.676995,-113.27684,-51.391219,-46.214373,-33.856047,-32.300986,-39.549126,-30.084529,-20.694132,-21.579966,-27.247024,-18.066232,-11.665573,-14.546662,5.485325,0.285164,-11.942116,-21.024365,-16.774281,-30.380379,-36.905594,-40.09322,-29.898274,-39.955857,-30.622788,-22.018467,-39.162323,-44.599137,-34.023411,-26.111161,-45.178437,-50.725125,-40.621903,-33.074478,-18.619416,-36.097753,-44.491721,-47.493396,-58.340282,-83.86371,-98.551731,-111.586193,-49.594176,-49.663435,-37.507546,-34.035036,-37.509867,-33.626897,-25.043614,-23.807253,-25.755053,-24.17347,-17.94383,-16.848945,245.461012,107.754781,-229.490163,101.900767
64,4.649277,21.897622,-3.174775,29.872441,-2.557388,4.542755,16.343216,25.920525,20.633698,33.408943,40.42598,46.849411,30.462364,40.513344,29.215416,20.891693,36.853958,42.898682,31.335114,24.373329,41.411476,46.430489,37.275444,31.12104,-12.319102,-23.648018,-26.131478,-25.942596,-47.680815,-70.54913,-83.445123,-93.290559,-41.153099,-34.263779,-22.528008,-20.273247,-30.249613,-19.745966,-10.536238,-10.198556,-19.171027,-9.373744,-2.99802,-4.670962,6.202103,2.836316,-6.262504,-12.788635,-15.069156,-29.049625,-36.235542,-39.926342,-27.834217,-36.745925,-28.696826,-21.374359,-36.586051,-41.186187,-32.331813,-25.489952,-42.244663,-48.253509,-39.428272,-32.175247,-17.185522,-32.456053,-38.751421,-40.184809,-50.886717,-72.40271,-85.166699,-96.259382,-42.342455,-41.394808,-30.978619,-27.670087,-30.464226,-25.567492,-18.150236,-17.003457,-19.076357,-16.653468,-11.25056,-10.033812,250.463797,126.940915,-232.31143,129.06172
65,-2.081131,24.61251,-1.250782,30.497535,-1.200256,7.474617,20.055908,30.56044,23.348717,37.392151,44.960999,51.369141,32.634132,43.01358,31.793129,23.635895,38.383896,44.824265,33.594086,26.792267,42.588593,48.066078,39.408074,33.281662,-9.326041,-17.287077,-16.877635,-15.137978,-41.735547,-61.873462,-72.649119,-80.779666,-34.977693,-27.436085,-16.611886,-14.800969,-23.970312,-13.357886,-4.897468,-4.747403,-13.018562,-3.645084,2.085262,0.846333,5.776806,2.081189,-7.556682,-14.952198,-15.421314,-29.155448,-36.497646,-41.121276,-26.803585,-36.087718,-28.567359,-21.945671,-34.549747,-39.823883,-31.819244,-25.600009,-39.483467,-45.903499,-38.519783,-32.395751,-14.606653,-27.571325,-32.104422,-33.086025,-46.027732,-64.904154,-76.056945,-85.939889,-38.204017,-37.173131,-26.619109,-22.936728,-27.475933,-22.174147,-13.997584,-12.299898,-17.010757,-13.2976,-7.04697,-5.403408,248.677317,149.384621,-233.267561,157.390451
66,-2.061859,19.607522,1.176316,24.531574,-0.581886,8.956833,21.829765,32.544983,24.494202,39.101738,47.164261,53.900528,33.16832,43.752045,32.652351,24.551193,38.299324,45.290977,34.558388,27.796783,42.088257,48.320068,40.394051,34.375603,-7.312348,-12.65395,-9.733878,-6.42962,-36.082575,-53.967471,-62.907386,-69.443346,-28.820091,-21.229971,-10.990802,-9.316118,-17.686961,-7.541022,0.525434,0.673524,-6.874068,1.676684,7.081648,6.266975,5.474087,1.1185,-9.192627,-17.360871,-16.830872,-30.967175,-38.790333,-44.229779,-28.606648,-36.965458,-28.801232,-22.108349,-36.221283,-40.587044,-31.980297,-25.643406,-40.928627,-46.897682,-39.140488,-32.860508,-13.851915,-25.497128,-27.362083,-27.151397,-42.753417,-58.988452,-69.087806,-77.586213,-34.808331,-30.890385,-21.295964,-18.612217,-23.909198,-16.437336,-8.898667,-8.154377,-13.464826,-7.780787,-1.906668,-0.982314,246.845203,167.765755,-231.8615,180.695637
67,-1.034843,14.916615,0.974224,16.125959,-1.690087,6.395988,18.997352,30.463531,22.887084,37.830162,46.789283,54.565475,31.786514,41.679748,30.66893,22.955841,36.779411,43.331863,32.97155,26.624244,40.296821,46.195129,38.641777,32.818359,-5.862449,-8.90688,-4.148702,0.062936,-32.518669,-48.578481,-55.92402,-61.298152,-24.874042,-17.315433,-7.189416,-5.449882,-13.669294,-3.875567,3.886916,3.874937,-2.999922,5.388637,10.321667,9.476737,5.535004,1.586838,-9.078335,-18.784264,-17.132012,-30.831368,-39.157082,-45.916981,-29.444733,-36.148705,-27.109669,-20.234127,-37.175514,-40.114128,-30.964977,-24.573704,-41.725296,-46.133434,-37.998036,-31.924999,-12.714434,-22.863782,-22.728252,-21.996954,-39.749963,-53.697386,-62.983216,-70.742538,-32.057665,-25.608452,-16.427882,-14.089159,-21.067882,-11.581586,-4.45281,-4.136178,-10.532941,-2.860464,2.826712,3.293631,246.042613,181.845275,-230.655023,195.984501
68,-4.014657,13.075254,2.356006,9.114731,-1.203712,6.568131,19.314309,30.804291,24.171822,38.177079,44.275841,50.366478,32.956238,42.118355,30.183106,22.458893,37.718331,44.300766,33.233963,26.669014,40.561112,47.241372,40.270821,35.282273,-6.039178,-9.46803,-5.648038,-1.371896,-31.772168,-42.608747,-47.54037,-52.287989,-24.380569,-15.391871,-6.367048,-5.640381,-14.270224,-3.974824,2.523418,1.865282,-4.966758,2.279393,5.482152,3.680831,5.109536,1.622956,-9.218147,-19.76873,-18.649829,-31.723834,-37.509876,-42.680912,-30.789093,-36.36026,-26.654914,-20.04832,-38.364315,-40.77214,-30.940486,-24.379829,-42.656112,-46.529102,-38.635448,-33.04161,-10.997316,-19.904566,-18.332301,-16.872695,-38.073661,-47.620695,-53.366793,-59.583454,-30.615385,-20.805677,-11.170624,-9.910632,-19.797836,-7.811847,-0.389114,-0.829406,-9.29708,-0.603635,4.71893,4.543781,242.367645,194.491129,-227.959328,204.669832
69,-11.760612,12.17155,4.646977,8.702103,-1.371666,7.972687,22.884087,36.139435,28.869827,43.179657,49.758774,55.965797,39.400841,49.06604,35.043777,26.343063,45.166328,51.955055,38.07621,30.596512,48.281731,54.575157,44.939346,39.063629,-6.877156,-11.133143,-7.212436,-3.255939,-36.945012,-47.400185,-52.605547,-58.080733,-28.596209,-18.856489,-10.91362,-12.207748,-17.41931,-6.440395,-1.42809,-4.231138,-7.056343,0.728383,2.784906,-0.697533,3.792171,-0.749073,-13.136833,-26.482533,-21.055138,-33.046715,-38.715832,-43.983284,-33.251564,-38.692062,-27.622879,-19.740234,-40.858074,-43.536587,-31.945644,-24.129318,-44.907669,-48.052918,-38.997608,-33.01379,-11.49048,-20.660095,-19.05777,-17.745315,-40.569008,-50.639932,-57.062654,-63.90439,-33.310716,-22.83981,-12.818187,-11.64425,-22.64337,-10.401647,-2.72365,-3.181455,-11.925264,-2.83322,2.75371,2.35773,230.944319,206.549077,-222.975065,213.258333
70,-5.056412,2.662011,5.250469,5.19032,-3.811111,3.252846,17.403076,30.295372,25.646553,38.87233,42.938622,47.114777,37.19941,44.804627,30.784195,22.500984,43.357086,48.344788,34.232002,26.7976,46.431336,51.437462,41.694832,36.122063,-8.077992,-13.225531,-10.260893,-6.444397,-37.260471,-45.160189,-48.999039,-53.493024,-28.828094,-18.792689,-11.545635,-12.698096,-17.609304,-6.113118,-1.665471,-4.374338,-7.267937,0.895294,2.033292,-2.141072,2.774151,-1.899147,-13.894752,-26.779152,-23.230991,-33.260273,-36.223377,-39.396629,-35.564243,-39.704693,-27.687023,-18.970184,-43.057159,-45.213924,-32.431732,-23.759617,-46.848038,-49.669338,-40.27129,-34.204754,-12.644249,-22.900659,-22.629624,-22.399295,-41.060097,-47.983615,-52.250383,-58.145164,-34.112472,-22.09925,-13.639369,-13.935611,-24.074497,-11.515291,-5.327863,-6.830658,-13.897449,-6.686977,-3.628825,-5.658141,226.065273,209.257283,-217.54723,218.494848
71,-3.733818,-0.744846,5.98074,-1.80494,-4.119415,0.958763,12.326088,21.979157,21.70855,30.898773,31.471893,32.74157,32.362061,36.677674,23.710053,16.375649,37.957421,40.591919,27.296997,20.693482,40.597069,43.759117,34.477959,29.394928,-6.511223,-11.198104,-9.769311,-6.997458,-32.391228,-36.177269,-38.170388,-41.503033,-25.656049,-15.963062,-10.555517,-12.15426,-16.313273,-5.69944,-2.694887,-5.547151,-7.60155,0.034395,-0.005237,-4.357319,3.162563,-1.588497,-13.15947,-25.318646,-22.816178,-31.295803,-31.100178,-31.545834,-34.386807,-37.824726,-25.690945,-16.936741,-41.474579,-43.66,-31.145405,-22.427204,-45.1554,-47.626923,-38.925911,-33.441765,-13.703935,-25.071507,-26.866443,-27.244504,-40.918207,-45.15431,-46.256616,-50.505032,-33.554421,-22.215341,-14.066608,-14.065558,-23.379793,-11.599247,-6.00792,-7.38425,-13.006934,-7.051761,-5.057902,-7.335541,222.300802,208.783163,-211.597143,216.960634
72,-16.529915,0.457681,4.85067,-3.71987,-4.637901,-0.304687,10.891526,20.582749,21.24765,29.084999,28.161599,27.861901,32.645508,35.575928,23.212258,16.494942,38.742256,39.105515,25.768341,19.518906,41.500328,42.309632,32.574189,27.677788,-8.382099,-15.555114,-15.149216,-12.944553,-36.136748,-39.683136,-41.769621,-45.157903,-29.687807,-21.703479,-15.920207,-16.485989,-19.922424,-10.414824,-6.899484,-8.783588,-10.046545,-3.419293,-3.523614,-7.324969,2.948261,-0.744084,-9.627686,-18.316601,-20.776005,-26.168919,-22.401616,-19.442871,-30.845032,-32.866722,-21.896954,-13.806404,-37.035702,-38.560398,-27.223618,-19.166794,-40.41417,-42.8126,-35.044339,-29.821301,-13.801884,-25.266206,-28.758327,-30.093976,-37.395345,-39.649729,-38.602739,-41.094676,-29.8593,-21.697452,-15.207175,-14.900065,-20.214787,-11.959597,-7.39991,-7.933692,-10.263387,-7.318201,-6.357884,-7.936113,205.572527,209.606345,-206.944833,213.606265
73,-16.916565,1.877003,11.814777,-2.127746,-7.464752,-5.438346,4.359124,13.656968,12.788498,20.673684,22.350106,23.710991,25.407166,28.136719,18.110161,12.479439,33.081757,33.645241,22.13562,16.906838,37.732888,37.791802,27.885407,22.692582,-9.028256,-18.545563,-20.582647,-20.350466,-40.820036,-49.741649,-55.068079,-60.313369,-35.103812,-32.152995,-24.117241,-22.904327,-25.427226,-20.421059,-14.170596,-14.157962,-15.09847,-10.594716,-7.895037,-9.568881,5.230122,2.925568,-5.314339,-13.423759,-15.907997,-20.309647,-18.71537,-17.464428,-26.932251,-29.496655,-19.434402,-11.617184,-33.895844,-35.654766,-24.664845,-16.928066,-37.964939,-40.41647,-32.247974,-26.772079,-13.960076,-26.138764,-30.408953,-32.165036,-37.182331,-42.781908,-45.391097,-49.830298,-30.105376,-25.265193,-18.845559,-17.194711,-20.541756,-15.048662,-10.654539,-10.298487,-10.635631,-8.52252,-7.287944,-8.354337,188.342405,212.042588,-195.443613,212.037759
74,-15.876628,0.123285,15.581692,-0.890836,-10.887349,-13.100281,-6.3433,1.524032,0.124729,6.736679,7.381198,8.017021,13.077747,14.890972,7.91027,3.700984,21.977039,22.511684,13.998653,9.752552,28.175067,28.143779,20.218952,15.661926,-9.18057,-20.644417,-26.28762,-28.686895,-41.717498,-52.311349,-57.286111,-61.812107,-37.454052,-39.686027,-29.96687,-26.432678,-29.390924,-29.554488,-20.976282,-18.518331,-20.170315,-19.935528,-15.780831,-15.453807,7.766235,7.377731,-0.817807,-8.423081,-9.588982,-14.066941,-12.048317,-10.484951,-21.026905,-24.933712,-16.150303,-8.928463,-28.978752,-31.794892,-21.696259,-14.340088,-34.336979,-37.529892,-30.047116,-24.824593,-13.776122,-27.31201,-33.481604,-36.686315,-38.734798,-45.496345,-48.582853,-53.713435,-32.084328,-31.017355,-23.789531,-20.713953,-22.762968,-21.023039,-15.840821,-14.228505,-12.811395,-14.260158,-12.46889,-12.284466,172.079241,212.802816,-180.248457,211.783866
75,-20.364899,-1.318186,14.842849,0.068741,-13.200886,-18.684494,-15.488045,-9.736267,-11.560467,-6.395485,-4.881397,-3.533776,1.010387,3.089161,-0.886048,-3.718334,10.65794,12.06094,6.612888,3.766239,18.15739,18.229786,12.119877,8.344597,-10.402339,-23.600952,-32.056751,-37.254258,-41.917359,-55.409083,-59.782655,-63.034876,-38.739868,-46.109058,-35.415776,-30.182879,-32.089985,-37.275414,-27.130513,-22.915319,-23.732808,-27.66379,-22.067899,-19.807915,11.505295,12.984295,6.303235,0.438813,-2.134128,-4.92501,-3.411827,-2.338348,-14.546619,-16.414443,-6.920917,0.525021,-23.447708,-24.242145,-13.770801,-6.367012,-29.768634,-30.603481,-21.838474,-16.024555,-15.395107,-30.309733,-37.598221,-41.359488,-43.535758,-54.573866,-61.51092,-69.430151,-37.175984,-38.82083,-30.62902,-25.532079,-27.052547,-27.231315,-20.989188,-17.8866,-15.769191,-17.872336,-13.877022,-11.629826,151.327841,212.058001,-165.792109,212.425978
76,-28.71373,-0.624939,15.951428,-2.883992,-17.182766,-26.105095,-23.84935,-16.098427,-17.763691,-11.827835,-9.997387,-8.376343,-3.319988,-2.098217,-5.884575,-7.968487,8.08643,8.221859,2.996555,0.731495,17.02161,16.154423,10.033321,6.802231,-12.215331,-27.917652,-37.504804,-42.990094,-48.791045,-68.941377,-75.869489,-80.587536,-45.232171,-55.351736,-41.780798,-34.852149,-37.378327,-44.690898,-31.984948,-26.408564,-27.527531,-33.542318,-26.272287,-22.941612,14.660934,20.157921,16.611477,12.194195,9.263225,6.948372,6.318443,5.482578,-3.79018,-7.215557,-0.167633,6.064087,-14.050907,-16.544437,-7.767918,-1.15123,-21.726334,-23.420059,-15.95866,-10.811211,-16.749391,-33.08429,-43.203552,-50.824041,-41.858924,-53.491047,-62.271585,-70.870861,-35.512316,-39.739971,-32.528536,-27.143838,-25.927133,-28.685857,-23.146759,-19.536002,-15.033965,-18.638089,-14.847775,-11.815188,122.478167,211.843582,-149.976625,209.952506
77,-19.310623,-2.396299,19.296661,-1.436388,-20.064892,-32.37648,-33.519928,-27.220391,-26.743916,-23.396416,-23.11369,-22.984841,-12.228939,-12.357456,-15.19645,-16.764599,-0.025051,0.048969,-3.975025,-5.769253,10.272159,9.820804,4.694126,1.860168,-9.961589,-24.968575,-36.513809,-43.18189,-48.006864,-70.100642,-78.233258,-83.88607,-45.540429,-57.225725,-42.923378,-34.688251,-38.913121,-47.498664,-33.926121,-26.968122,-30.255269,-37.493282,-29.140865,-24.387325,18.550289,27.045113,24.89645,19.475556,18.456574,15.308934,13.308426,11.24564,4.09504,-1.463413,4.804367,10.383911,-7.79322,-11.973621,-3.541866,2.737759,-16.728309,-19.032783,-12.088016,-7.56221,-15.806636,-32.581481,-42.997689,-50.576348,-44.779386,-60.636546,-72.882233,-84.49178,-39.616323,-46.281823,-36.616895,-29.534185,-30.438841,-34.583121,-26.840002,-22.17934,-19.495383,-23.92148,-18.320298,-14.376892,103.19834,209.776085,-130.649168,208.84492
78,-20.342514,-3.825191,14.968541,-2.109024,-21.19875,-35.51033,-38.870545,-32.816414,-27.92593,-28.000557,-29.744305,-31.45958,-13.196652,-16.089009,-20.42292,-22.587765,-1.036755,-3.762898,-8.786511,-10.955486,8.865085,6.346264,0.566723,-2.438027,-9.505006,-24.106404,-35.572597,-42.209593,-48.537893,-70.416212,-79.011999,-84.973896,-46.189845,-55.396863,-41.761495,-32.902478,-38.928633,-43.994452,-31.581804,-24.866669,-29.382563,-34.052215,-26.312944,-21.747062,20.228702,31.360347,31.799034,26.278049,23.226654,21.926662,21.858707,21.536281,8.98756,6.542942,12.81808,17.818553,-3.039654,-4.38913,3.588569,9.133152,-12.346985,-12.288666,-5.469155,-1.275284,-15.069089,-32.275471,-43.873458,-51.253898,-47.273337,-63.947257,-76.224289,-87.797458,-42.788404,-49.011043,-38.312845,-29.676124,-33.669264,-36.914359,-28.24018,-22.32391,-22.213426,-26.25877,-20.064919,-15.085724,82.941954,206.10088,-115.594499,206.885882
79,-17.502468,-2.663771,12.92173,-3.86213,-22.031113,-37.722794,-42.128151,-35.572014,-26.8797,-29.745186,-33.025086,-35.963837,-11.472062,-17.65709,-23.158036,-25.47329,0.820129,-5.776749,-11.686272,-13.849274,10.435363,4.972503,-1.571755,-4.557289,-8.586296,-22.800833,-33.799619,-39.73229,-50.324029,-72.348771,-82.67599,-90.357908,-48.584051,-53.873196,-40.269123,-31.176622,-40.679294,-40.411643,-28.815447,-22.671194,-30.012874,-30.217527,-22.758633,-18.729764,20.795711,33.515796,36.73241,32.310058,23.961227,25.135368,26.936267,28.15377,9.386467,10.530475,17.753871,22.676124,-2.430565,-0.335816,8.114009,13.470565,-11.316227,-8.704823,-1.453698,2.763908,-13.985283,-30.320848,-41.490843,-48.500299,-47.81327,-64.705873,-76.934919,-88.135974,-43.934257,-48.21839,-37.280119,-28.302993,-34.650466,-35.018708,-26.237948,-19.940245,-22.704379,-24.263676,-18.296005,-13.37861,65.583653,203.534773,-102.528602,203.121416
80,-13.931008,-1.437858,11.192894,-2.992153,-22.376724,-38.671875,-43.31892,-35.845939,-23.346336,-28.369949,-32.846534,-36.683029,-6.878608,-16.37471,-23.256729,-25.718788,5.719322,-4.768844,-12.034355,-14.274788,15.247742,6.845375,-0.91793,-3.927383,-7.112561,-20.832551,-30.730426,-35.571411,-53.377933,-75.631917,-88.861436,-99.63847,-52.511007,-52.63715,-38.659636,-29.731156,-43.720514,-36.909469,-26.109655,-20.975985,-31.651792,-26.25588,-19.035602,-15.99679,22.983799,38.236976,41.841018,34.728355,27.663253,27.576198,28.964767,29.594959,11.866802,13.240871,19.560527,23.33884,-1.182312,1.665378,9.466724,13.814826,-11.038823,-7.839512,-0.973195,2.773326,-12.184789,-27.664963,-39.060063,-45.986971,-47.595118,-66.284449,-78.650253,-89.693808,-44.155559,-47.204819,-35.012249,-26.22398,-35.064317,-33.285078,-24.078968,-18.310665,-23.120145,-22.132175,-16.148363,-11.851238,51.791805,202.243718,-91.196548,200.276066
81,-4.634491,0.368082,7.419467,0.504624,-23.389663,-39.813995,-45.085544,-37.774978,-25.360016,-31.018547,-35.332649,-39.474724,-8.706367,-19.382721,-26.439491,-28.774452,3.837479,-7.752388,-14.949806,-16.847763,13.241387,3.962632,-3.961029,-6.93354,-7.416509,-20.859141,-31.183291,-37.00223,-55.197767,-76.400203,-89.994415,-101.484493,-54.785645,-53.133352,-38.752459,-29.306449,-46.071513,-36.747633,-25.822195,-20.467804,-33.542725,-25.527621,-18.246555,-15.292107,23.053711,38.991978,43.111897,35.427258,24.59895,26.313012,29.011483,30.720898,8.119526,12.683716,20.804329,25.216244,-5.012191,1.164769,10.534333,15.44624,-14.907909,-9.331844,-0.709362,4.152295,-9.021785,-22.13793,-31.74154,-36.105836,-51.199774,-73.711269,-88.015906,-100.786027,-49.622433,-52.307415,-37.743877,-27.265808,-40.728386,-37.756017,-26.345282,-18.76537,-28.22389,-26.658826,-19.012248,-13.382154,47.119909,202.817268,-83.814486,200.986158
82,-3.554306,-0.107014,2.271618,-0.335564,-23.441574,-39.849952,-45.295681,-37.716202,-24.854667,-30.643799,-34.712791,-38.844154,-7.923477,-19.249878,-26.425232,-28.910934,4.65358,-8.201088,-15.303817,-17.198936,13.961312,3.717911,-4.299591,-7.358619,-8.081091,-21.711902,-32.165246,-38.442188,-56.332394,-77.176961,-90.599926,-102.037869,-56.318463,-53.335831,-39.020801,-29.675173,-47.508482,-35.973456,-25.169962,-20.150888,-34.578798,-24.814588,-17.578415,-14.955925,24.716927,41.580197,45.412926,36.450142,25.565037,27.200741,30.007279,31.759587,8.101708,14.73127,23.712742,28.203724,-5.532039,3.147744,13.234692,18.007645,-15.810379,-8.145572,1.305783,6.312229,-9.085079,-21.767415,-31.416238,-35.759874,-52.394224,-75.801891,-89.943619,-102.199402,-51.206381,-52.52511,-38.334594,-27.931342,-42.33344,-37.057571,-25.964579,-18.363152,-29.404842,-25.973187,-18.612328,-12.886224,43.433332,202.950494,-81.675139,200.890834
83,-1.84861,-0.22965,0.72567,0.194909,-22.961288,-38.972282,-44.62405,-37.200874,-23.71392,-29.37561,-33.234237,-37.168029,-6.666481,-18.540481,-25.149101,-27.061111,5.90387,-7.97818,-14.556862,-15.904426,15.324944,4.000077,-3.641029,-6.192718,-8.478776,-22.052764,-32.392944,-39.10551,-56.921418,-77.470337,-90.638119,-102.172805,-57.356055,-52.804432,-38.302829,-29.528688,-48.633142,-34.798666,-24.184944,-19.904689,-35.567805,-23.813626,-16.608934,-14.483188,24.946095,41.833145,46.043175,37.610871,25.193138,27.555142,30.068287,31.351067,7.667278,14.007626,23.19833,28.321495,-5.926288,2.195526,12.82647,18.44109,-16.251411,-9.185097,0.647484,6.37468,-9.592791,-21.915295,-31.7232,-36.597184,-52.797887,-76.984313,-90.773587,-102.35807,-51.384877,-54.352441,-40.051564,-29.488687,-42.414962,-38.558686,-27.282197,-19.116273,-29.425504,-27.238045,-19.960747,-13.892546,41.474132,202.943414,-81.060059,201.308313
84,-0.637687,-0.309036,-0.114956,0.69179,-22.422501,-38.052658,-43.910557,-36.524598,-22.571068,-27.98433,-31.736206,-35.698998,-5.483597,-17.082436,-23.825089,-25.848725,7.171898,-6.499672,-13.261391,-14.71566,16.802742,5.579979,-2.130616,-4.6558,-8.58185,-22.128939,-32.313126,-39.21366,-57.072336,-77.420073,-90.304642,-101.830813,-57.586075,-52.707434,-38.078058,-29.403545,-48.824099,-34.348703,-23.848317,-19.873703,-35.668939,-23.490536,-16.398451,-14.50285,25.085896,42.019604,46.207215,37.265705,24.836026,27.322449,29.874024,31.135208,7.196434,14.757283,23.870808,28.45998,-6.398781,2.633789,13.007321,18.195557,-16.787315,-9.396034,0.419621,5.942173,-10.17238,-22.401988,-32.3977,-37.340573,-53.470411,-77.47324,-91.00475,-102.544469,-52.050855,-53.747398,-39.442014,-29.264051,-43.05792,-38.451562,-27.275886,-19.370277,-30.071031,-27.384233,-20.205834,-14.27588,40.690997,202.81179,-81.320463,202.177515
85,1.162033,-0.171061,-0.264255,-0.582158,-22.49144,-38.35421,-44.233612,-36.952446,-22.638176,-27.919144,-31.789902,-35.760155,-5.467942,-18.075623,-24.540139,-25.931488,7.166839,-7.486611,-13.720803,-14.457894,16.855362,4.760353,-2.533448,-4.343811,-8.34416,-21.962867,-32.264923,-39.33048,-57.078474,-77.308119,-90.01197,-101.426657,-57.720975,-52.063155,-37.118617,-28.688006,-48.856246,-33.90457,-23.340865,-19.782152,-35.571139,-23.185723,-16.043164,-14.35061,25.880184,42.570659,46.821064,38.451553,24.014213,26.424122,29.260574,30.63985,6.508884,14.148239,23.063301,27.80603,-6.999676,2.00354,12.083347,17.292698,-17.053986,-9.440666,0.009075,5.223301,-10.454394,-23.86998,-35.195216,-42.175507,-52.321865,-74.518916,-87.052495,-97.942897,-50.578182,-51.372008,-37.809765,-28.648573,-41.589804,-36.681252,-26.138703,-18.848573,-28.848373,-25.917426,-19.218136,-13.725746,41.720827,202.806757,-81.716921,201.761385
86,-1.482422,-0.617948,0.79232,-0.502957,-21.018562,-36.588432,-42.084824,-34.759392,-20.494652,-25.812424,-29.654732,-33.357193,-3.003983,-15.719513,-21.364243,-22.317925,9.851761,-5.47316,-11.046181,-11.471901,19.914024,6.562317,-0.185509,-1.407829,-8.024121,-21.834946,-31.984219,-38.939267,-57.384288,-76.915251,-89.428583,-100.909084,-58.355486,-50.581331,-35.945422,-28.061746,-49.288722,-31.719137,-21.9448,-19.332424,-35.840372,-21.750039,-14.82289,-13.617448,25.298149,41.964523,45.566883,36.236103,22.939259,25.292439,28.086891,29.370873,5.127148,13.581047,22.506832,26.686787,-8.604023,1.74678,11.887459,16.313519,-18.534988,-9.695663,-0.329166,4.037601,-10.139245,-23.680283,-34.805966,-41.211707,-51.928281,-72.899375,-85.498763,-96.940181,-50.225735,-49.698313,-36.539004,-28.020312,-41.030939,-34.517629,-24.180066,-17.476886,-27.963279,-23.46123,-16.868719,-11.874456,40.115204,202.306731,-81.047802,201.37635
87,0.307091,-0.757332,-0.059475,-0.482531,-20.825913,-36.413865,-41.955597,-34.731034,-19.924553,-25.104905,-29.250916,-32.970543,-2.313652,-16.20607,-21.202103,-21.091713,10.456077,-5.992813,-10.849526,-10.250634,20.397812,5.938797,-0.132065,-0.308602,-7.498748,-21.314414,-31.304594,-38.176476,-57.112067,-76.390731,-88.684398,-100.029103,-58.367379,-48.530229,-33.73903,-26.628087,-49.094356,-29.85047,-20.508176,-18.979224,-35.38963,-19.996154,-13.311697,-12.856522,26.022228,42.111992,45.107929,35.991589,22.067505,24.599648,27.840122,29.108597,4.298618,13.770641,22.114082,26.012341,-9.309082,1.958805,11.402046,15.401608,-18.934296,-8.974308,-0.164749,3.513165,-9.989092,-24.641106,-37.549153,-46.401396,-51.034998,-69.822092,-81.393644,-92.131534,-49.049994,-45.97244,-33.296773,-26.251211,-39.770007,-31.51573,-21.976712,-16.510985,-26.944952,-20.851805,-14.804068,-10.716215,40.320706,201.626244,-81.208866,200.970664
88,0.191734,-0.252782,1.21257,-0.387866,-20.675972,-36.077522,-41.315643,-34.008614,-19.261162,-24.457787,-28.727348,-32.47229,-1.608696,-15.965149,-20.726349,-20.191498,11.133636,-5.862602,-10.406593,-9.310455,21.038773,6.061203,0.242432,0.563919,-7.324562,-21.330395,-31.328058,-37.981628,-56.927334,-76.124512,-88.277759,-99.578294,-58.208951,-47.670416,-32.879229,-26.024859,-48.725842,-29.145465,-20.004379,-18.807841,-34.768223,-19.270092,-12.756227,-12.524959,25.275387,41.071656,43.361801,33.873322,20.93454,23.032597,26.259007,27.707382,2.739853,13.013821,21.510762,25.058178,-11.215919,1.522602,11.026406,14.498268,-20.967853,-9.797481,-1.091137,1.929817,-9.538858,-24.148647,-36.922473,-45.664986,-50.788763,-68.446293,-80.031943,-91.316979,-49.001336,-44.25778,-31.893952,-25.344728,-39.712406,-29.169314,-19.704544,-14.773589,-26.73163,-18.658208,-12.559182,-8.929715,40.431187,201.43545,-80.077549,200.644786
89,3.42746,0.697323,-2.497776,-1.234823,-22.222847,-38.093354,-43.49318,-36.515763,-21.545311,-26.714493,-31.17849,-35.410241,-4.183159,-19.114518,-24.558129,-24.39077,8.295959,-8.550568,-13.474961,-12.500153,17.843216,3.273559,-2.995652,-2.945801,-7.490695,-21.339003,-31.508382,-38.61993,-56.883454,-76.515565,-88.60298,-99.639582,-58.04351,-48.443099,-33.330229,-26.326177,-48.630092,-31.190071,-21.472174,-19.603199,-34.813585,-20.556601,-13.900894,-13.311499,27.702473,43.630738,45.092995,35.437134,24.038338,25.678894,29.254406,30.450131,5.762833,15.594521,23.292355,26.735962,-8.37577,4.208599,12.852814,15.695172,-17.948341,-5.790699,1.919483,3.728726,-9.558939,-25.554297,-40.139213,-51.504759,-48.637268,-65.398725,-76.131626,-86.451824,-46.468494,-41.803831,-30.363814,-24.923776,-37.459541,-26.896899,-18.308429,-14.511779,-25.046795,-16.244039,-10.677573,-7.712503,43.818661,202.190275,-82.615311,199.467465
90,0.776344,0.713736,2.407814,0.805682,-22.505058,-38.120728,-43.263542,-35.934403,-21.721047,-26.924103,-31.132416,-35.289711,-4.273453,-18.495071,-24.364471,-24.822304,8.296783,-7.929382,-13.388329,-13.050728,17.849899,3.803513,-3.031952,-3.756661,-8.268405,-22.069745,-32.306815,-39.40978,-57.289747,-76.923884,-89.061606,-99.964735,-58.390844,-49.469576,-34.558964,-27.113,-49.075288,-32.016218,-22.179179,-19.730998,-35.377478,-21.42559,-14.71926,-13.708727,24.854576,40.108212,40.891674,30.597519,21.156521,23.454769,26.774964,28.34459,2.729176,12.594166,20.899544,24.604649,-11.50177,1.381794,10.880001,14.239586,-21.397453,-9.260524,-0.72258,1.791287,-9.505932,-24.65032,-37.699108,-46.591007,-50.635659,-66.903521,-78.36373,-89.570887,-48.661659,-44.278726,-32.400441,-25.879672,-39.232482,-28.215443,-18.840335,-14.097866,-25.955266,-17.024366,-10.894773,-7.387177,44.565588,202.942933,-80.236914,200.312069
91,1.026283,0.688073,-3.305809,-0.994367,-22.572189,-38.344368,-43.542503,-35.994324,-21.724228,-27.143188,-31.516548,-35.790252,-4.272583,-18.709762,-24.344581,-24.45195,8.266319,-8.147827,-13.361961,-12.660232,17.782677,3.556435,-3.076126,-3.455955,-8.497895,-22.384265,-32.652223,-39.667773,-57.793915,-77.170849,-89.229617,-100.138161,-58.857504,-49.221995,-34.302898,-27.246419,-49.381583,-31.623164,-21.996411,-20.136279,-35.55816,-21.16136,-14.562551,-13.912146,27.638809,43.03077,43.989521,34.522557,24.755448,26.694123,30.161328,31.123547,6.368408,16.367134,23.619553,26.843331,-7.944282,4.847088,13.104115,15.799816,-17.782093,-5.064319,2.349324,3.916214,-9.990648,-26.68565,-41.976053,-54.487057,-48.425747,-63.305287,-72.950405,-82.379588,-45.933723,-40.717147,-29.789498,-24.83294,-36.959326,-25.864012,-17.758998,-14.560043,-24.681034,-15.486694,-10.118657,-7.466082,45.565635,203.664197,-83.568959,199.350893
92,1.304924,0.599238,2.991005,0.220066,-22.669647,-38.732826,-44.098091,-36.676574,-21.965263,-27.688637,-32.243866,-36.618988,-4.667152,-19.68972,-24.951095,-24.55355,7.773537,-8.955024,-13.766029,-12.672134,17.297974,2.764595,-3.586349,-3.612098,-8.551098,-22.474371,-32.786406,-39.852555,-58.046499,-77.162166,-89.158758,-100.116295,-59.140556,-48.848466,-33.757135,-26.941927,-49.624805,-31.553781,-21.854311,-20.250875,-35.835172,-21.175748,-14.455413,-13.945207,24.471199,39.155949,40.170822,30.992249,21.035374,23.564552,26.846363,28.193287,2.961296,12.25375,20.215359,23.886738,-11.23027,0.70784,9.967404,13.587845,-21.298977,-9.784881,-1.638634,0.937821,-9.765654,-25.512121,-39.315956,-49.468786,-49.353868,-64.140721,-74.576861,-84.956896,-46.739368,-43.25667,-31.740996,-25.320027,-37.331396,-27.788179,-18.810262,-14.128691,-24.447716,-16.896506,-11.134649,-7.598153,46.839803,204.300957,-80.60871,199.608481
93,1.398789,0.521643,-3.721447,-0.458225,-22.784592,-39.183495,-44.76915,-37.403984,-22.478234,-28.459671,-33.189286,-37.717049,-5.271195,-20.957199,-25.836571,-25.011864,7.078354,-10.039353,-14.463135,-13.069863,16.600067,1.721306,-4.385239,-4.12722,-8.520087,-22.453092,-32.865842,-40.044661,-58.271332,-77.098897,-88.980411,-99.910086,-59.455878,-48.478915,-33.232096,-26.652713,-49.939893,-31.491759,-21.709506,-20.340907,-36.225991,-21.172549,-14.335519,-13.985505,27.255524,42.337464,43.889363,35.418102,24.665177,26.895287,30.457672,31.57275,6.955261,17.175408,24.728955,28.098255,-6.935898,5.626488,13.897213,16.627876,-16.706772,-4.455139,2.844876,4.461788,-9.960107,-26.166416,-40.847095,-52.775273,-48.56786,-63.823422,-74.114511,-84.104561,-45.932056,-41.700102,-30.434456,-24.841017,-36.860327,-27.162524,-18.968886,-15.502292,-24.494202,-16.436033,-11.260891,-8.655357,48.207516,204.859731,-84.361233,199.187387
94,-1.37146,-0.279433,2.376927,0.616553,-21.417527,-37.59153,-43.064759,-35.687073,-20.524521,-26.829621,-31.771569,-36.136025,-3.077477,-19.656899,-23.262314,-21.180863,9.337715,-9.124558,-12.411026,-10.019806,19.060524,2.788192,-2.340912,-0.987809,-8.329834,-22.504716,-32.746762,-39.585176,-58.69168,-76.429695,-88.100412,-99.137076,-60.074494,-46.510559,-31.487894,-25.713452,-50.210582,-28.731096,-19.666827,-19.637236,-36.132093,-19.330658,-12.662848,-13.037167,24.793007,39.79462,42.07521,34.052055,21.75484,24.276855,27.650951,29.370071,4.373657,13.532158,21.893989,25.899753,-9.325001,1.920627,11.300663,15.154998,-19.319641,-8.996132,-0.667008,2.429695,-9.623801,-24.457473,-37.391405,-46.686287,-50.151239,-66.052587,-77.345565,-88.328357,-47.720977,-45.000798,-33.062158,-25.937877,-38.434234,-30.285823,-21.196162,-16.087118,-25.588703,-19.433002,-13.812764,-10.171725,46.805872,204.615285,-82.01449,199.838927
95,0.665725,-0.477776,-0.821,-0.590136,-21.186676,-37.705078,-43.507026,-36.408416,-20.377533,-26.944953,-32.499778,-37.393913,-3.106269,-20.642967,-23.600853,-20.697944,9.105675,-10.251342,-12.824798,-9.612991,18.66211,1.691323,-2.719482,-0.375526,-7.874955,-22.132545,-32.189032,-38.612507,-58.49803,-75.832,-87.166128,-98.064162,-59.81918,-45.274401,-30.051381,-24.914574,-49.763557,-27.551588,-18.612352,-19.43609,-35.464422,-18.124561,-11.507374,-12.485476,24.940602,39.94114,43.279221,35.608143,21.926857,24.964966,28.621949,30.563782,4.7818,15.779675,23.682141,26.961949,-8.48339,4.050271,12.926457,16.207776,-18.057266,-7.40229,0.895707,3.936127,-9.842052,-24.576787,-37.568864,-47.490994,-50.534314,-66.380371,-77.451047,-88.158,-48.361206,-43.485295,-31.292453,-24.718258,-38.971549,-29.630021,-20.774345,-16.239852,-26.121375,-19.509314,-13.913936,-10.582094,47.449115,204.166406,-82.857972,199.277688
96,1.125412,-0.368699,-0.832443,-0.041879,-21.380104,-37.990768,-44.187034,-37.783218,-20.833076,-27.777465,-33.784103,-39.144241,-3.749404,-21.972679,-24.872955,-21.772544,8.263001,-11.837425,-14.202964,-10.742431,17.559311,0.164589,-4.097351,-1.493064,-7.923442,-22.130236,-32.052181,-38.338274,-58.252856,-75.418174,-86.394767,-96.955526,-59.406971,-45.46116,-30.226308,-25.166059,-49.397501,-27.579698,-18.529051,-19.411304,-35.116162,-18.058105,-11.415403,-12.418564,24.959038,40.712162,44.83548,37.175011,22.636872,25.63646,29.85902,32.746193,5.627953,17.196213,25.837235,29.284104,-7.374664,6.072109,15.184159,18.159519,-16.794033,-5.799316,2.998101,6.213078,-9.464461,-22.718915,-33.878388,-41.188562,-52.970813,-71.317799,-83.908405,-95.652037,-51.545156,-46.859942,-33.897728,-26.471253,-42.024712,-31.874673,-22.326677,-17.415061,-28.521836,-21.017234,-15.051021,-11.715795,48.556091,203.820023,-83.708851,199.258125
97,1.94497,-0.383766,-1.499885,-0.51779,-22.116738,-39.153809,-46.091584,-41.010636,-21.993737,-29.489228,-36.116455,-42.272255,-5.415848,-24.956269,-27.432679,-23.871071,6.039436,-15.343918,-16.829613,-12.665062,14.791786,-3.59356,-7.051575,-3.524781,-8.057478,-22.340151,-32.276607,-38.713816,-58.083945,-74.608182,-84.867976,-94.712541,-59.131948,-44.717549,-29.476572,-24.958949,-49.10683,-26.819303,-17.806003,-19.403449,-34.835841,-16.858246,-10.308775,-11.896205,26.205928,42.004474,46.669532,39.735809,24.462684,28.106838,32.682106,35.960506,7.317936,20.897289,28.820457,31.216907,-5.459118,10.131569,18.404468,20.200882,-14.440659,-2.009228,6.647953,9.398266,-10.46194,-24.275803,-35.662987,-43.458285,-54.697675,-72.891297,-85.212993,-96.731563,-53.647979,-46.394122,-33.523471,-26.83663,-44.075702,-31.394774,-22.095853,-17.985622,-30.40673,-20.942368,-15.123923,-12.421799,50.498051,203.449512,-85.211746,198.75359
98,2.315872,-0.747909,1.256309,-1.732901,-23.165932,-40.802559,-49.17453,-45.790238,-23.199211,-31.63472,-39.436157,-46.680863,-7.547905,-28.96138,-30.946701,-26.695427,3.047241,-20.206513,-20.529076,-15.449227,10.950004,-8.79998,-11.201111,-6.501847,-8.448296,-22.599601,-32.20137,-38.322281,-57.34636,-72.859521,-81.818271,-90.071281,-57.671698,-42.988587,-28.068069,-24.404491,-47.341398,-25.021946,-16.430451,-19.026253,-32.965704,-14.376373,-8.350088,-10.895292,24.230084,39.65007,45.353142,39.747357,22.341305,27.244675,32.366661,36.621735,5.235123,20.816185,28.583508,30.325871,-7.023205,10.52694,19.066155,20.838478,-15.382564,-1.980366,7.473278,11.013748,-10.982151,-24.464587,-34.79716,-41.223007,-56.285921,-73.622818,-85.645074,-96.931166,-55.062448,-46.9376,-33.56545,-26.449579,-44.785228,-31.319513,-21.564294,-16.819059,-30.30399,-20.862044,-14.874007,-11.713288,52.8093,202.767098,-83.96006,197.086184
99,2.853149,-1.341318,-1.923397,-2.205157,-23.853264,-42.462433,-52.535385,-51.314506,-25.901115,-35.61708,-44.536171,-52.343376,-10.985824,-34.534744,-36.656845,-32.134437,-0.806831,-26.242447,-25.930458,-20.226196,6.624893,-14.919296,-16.549667,-10.973945,-9.492569,-23.497958,-31.718568,-35.530952,-55.966732,-69.633729,-76.030985,-81.223281,-55.048034,-39.542222,-24.891319,-21.554685,-44.014224,-21.324665,-13.267879,-16.733744,-29.283132,-10.036813,-4.81027,-8.510614,24.784161,40.27945,46.965328,43.172814,23.093399,29.325646,35.326206,40.140541,5.995892,26.675411,33.699509,33.56551,-5.491859,17.340706,24.682354,24.292694,-12.606296,5.12059,13.998917,16.028069,-12.011875,-26.012435,-36.013742,-42.22592,-57.202889,-73.403172,-84.985431,-95.951106,-55.783877,-44.400053,-30.846134,-24.682134,-44.66395,-28.142318,-18.885684,-15.700771,-29.302769,-17.669868,-12.357875,-10.662654,55.651165,201.516263,-85.894741,194.97151
100,4.949593,-2.371265,-2.505764,-2.125449,-24.885773,-45.340599,-57.621071,-60.008137,-30.580742,-44.712982,-54.588879,-61.987461,-16.284325,-43.070114,-46.345574,-42.481934,-6.142479,-33.974625,-34.501969,-29.2874,1.337242,-22.051598,-24.137055,-18.930771,-10.443353,-23.00193,-28.683659,-30.559698,-53.000267,-61.640953,-62.417304,-63.038346,-49.996703,-32.468157,-17.601053,-13.921297,-37.751682,-14.738872,-6.352462,-8.865618,-22.301396,-3.401966,1.569696,-1.606869,25.275478,41.317852,49.262489,47.628479,23.786636,31.507164,38.88057,44.958687,7.314343,30.88924,38.503876,38.408283,-3.060802,22.843025,30.158993,29.232628,-8.790859,11.505432,20.009251,21.28878,-13.396913,-28.099167,-37.608829,-42.662557,-57.50475,-72.786742,-83.696861,-93.748469,-54.971156,-44.088547,-30.669306,-24.14572,-43.026724,-26.948226,-18.012719,-14.938401,-27.025698,-15.940511,-11.394273,-10.24259,60.584336,199.263389,-88.416927,192.964452
101,5.813965,-2.77825,-0.398094,-1.402389,-25.95092,-48.731758,-63.233529,-68.807991,-36.222062,-53.947472,-65.09483,-73.12809,-22.571366,-51.333161,-56.513901,-54.919762,-12.1409,-41.242745,-43.724602,-40.56189,-4.244339,-28.553444,-31.942612,-28.484276,-11.787042,-21.857077,-23.508073,-21.032783,-46.735873,-48.772451,-44.518799,-40.505825,-41.871188,-21.44819,-6.252884,-1.375873,-28.827612,-5.054296,4.33893,3.550624,-13.368346,6.168372,11.462334,9.144001,23.534878,39.422779,49.183376,49.997749,20.941109,31.151207,40.287975,48.204941,5.395008,33.369335,42.58239,43.199215,-3.464825,26.113701,34.675152,34.426826,-7.671902,14.724827,23.629681,25.311424,-15.191491,-30.383043,-38.718953,-42.334107,-58.14152,-70.967834,-80.102215,-87.982617,-54.164078,-42.759777,-28.796403,-21.230323,-40.985589,-25.356473,-16.060442,-12.256827,-24.172989,-14.649705,-10.245011,-8.916846,66.384138,196.607785,-88.829184,191.684709
102,5.425598,-2.758243,-2.710922,-0.752194,-27.185005,-51.83931,-67.91201,-75.713585,-43.142281,-64.935036,-76.917286,-84.789345,-30.048226,-59.889427,-67.199032,-67.267411,-19.098931,-48.442131,-53.729828,-52.582993,-10.448754,-34.926567,-40.084122,-38.717583,-12.435927,-18.62359,-15.512209,-9.037518,-36.994807,-30.754718,-21.761475,-14.13804,-29.2003,-5.731512,9.133455,14.498763,-15.346397,9.126131,18.975346,19.6928,-0.183769,18.74009,24.21041,22.955519,24.030647,40.646221,52.615047,56.786396,20.901958,33.799072,45.143303,54.276787,6.377758,37.568744,49.293995,51.674926,-1.341957,30.743992,41.266685,42.464859,-4.411915,19.973854,29.702694,32.185032,-16.442962,-31.75904,-39.544878,-42.863962,-57.933483,-68.892144,-75.414667,-79.827487,-52.516997,-42.112027,-27.423432,-18.591629,-38.472137,-24.349768,-14.614618,-10.128513,-21.083715,-13.21838,-8.92932,-7.436158,71.791821,193.970628,-91.558021,191.053601
103,4.990036,-1.441835,-2.947586,0.588419,-28.127083,-54.314003,-70.917183,-80.079575,-50.723007,-75.508885,-87.847538,-95.543644,-37.467316,-67.32676,-77.416661,-80.496918,-25.357796,-54.006386,-62.663796,-64.834397,-15.374199,-39.390038,-46.888527,-48.957871,-12.700157,-14.582273,-6.253575,4.215096,-25.547022,-11.546586,1.636794,12.148196,-15.527536,11.00385,26.485061,33.508367,-1.455963,24.151846,35.463435,38.845715,12.820016,31.587559,38.262211,39.264753,25.673504,43.671272,57.253154,63.934559,23.183441,38.421569,51.749462,62.19984,9.211052,40.910637,55.19704,60.164531,1.970111,34.652229,47.738731,51.518726,-0.353039,25.117115,35.789657,39.613987,-17.204208,-32.574318,-39.457587,-41.340283,-56.934608,-65.031223,-68.001196,-69.002701,-50.110484,-39.918665,-25.563262,-15.950427,-35.098032,-22.058519,-11.970576,-6.66235,-16.98939,-10.039826,-5.722756,-4.214193,76.749996,192.580932,-94.537468,191.694159
104,3.569732,0.959701,-2.469578,-0.006039,-29.085182,-56.384559,-73.384254,-83.292892,-56.137916,-83.992275,-96.867668,-104.926998,-43.175788,-73.030288,-85.481094,-91.327171,-30.690513,-58.463905,-70.177024,-75.526943,-20.108642,-43.684341,-53.386299,-58.716957,-12.406177,-9.71707,2.941443,15.43202,-13.685621,6.712665,22.676369,34.615144,-1.591679,27.02303,43.000195,51.221164,12.405287,38.535999,51.422643,57.394019,25.476503,44.000577,52.191522,55.647223,26.753116,47.356682,63.525696,72.983414,27.35075,45.98957,61.009071,72.17783,13.531059,45.322769,62.489708,70.396328,5.764881,38.086235,54.279705,61.320785,2.980373,28.670345,40.859196,46.756496,-17.662618,-31.778614,-37.110836,-37.47546,-53.175095,-56.970806,-55.444583,-52.835097,-44.668371,-33.703634,-19.567754,-9.594939,-29.040724,-16.237518,-5.787779,0.121871,-10.70168,-3.919805,0.697002,2.536695,80.29117,193.49755,-97.035604,191.645037
105,0.75396,4.438051,-1.274334,0.790986,-29.457458,-56.294586,-72.912071,-82.335033,-59.046364,-86.792782,-100.361812,-110.013439,-46.912285,-75.978493,-90.188175,-98.52182,-34.745315,-61.59098,-75.466885,-83.751732,-24.119362,-47.308525,-58.435295,-66.398048,-12.362753,-7.063358,8.233417,22.140561,-3.912432,19.540436,34.842003,46.389935,9.573673,38.502716,54.121865,62.726538,23.186526,49.064247,62.503088,69.346602,34.872718,53.52774,62.56322,66.910449,27.839584,50.526958,68.712959,80.840206,31.337013,52.564751,69.003937,81.361381,17.566727,48.724846,68.145492,79.053417,9.113102,40.274677,59.281895,69.926605,5.614883,30.667911,44.640358,53.341988,-17.337774,-29.751719,-33.766299,-34.237652,-47.05474,-46.378573,-40.701784,-34.76032,-37.255147,-25.409442,-11.223915,-0.783835,-21.731983,-9.148225,2.096365,8.995961,-3.706791,3.436176,8.83121,11.564691,81.020834,197.809392,-98.334234,192.309814
106,-1.164619,6.163803,-0.582813,2.292904,-29.287148,-54.804863,-70.479241,-78.899735,-60.37381,-88.258908,-102.367562,-112.890931,-49.53257,-78.405648,-93.934616,-103.59763,-38.306534,-64.654473,-79.985401,-90.039505,-27.872361,-50.937081,-62.862992,-72.347329,-11.632901,-5.130039,10.015781,21.755337,4.266249,28.252962,42.591754,52.985435,18.963946,46.366766,60.868826,68.928811,32.158737,56.675133,69.624651,76.630001,42.674437,60.202971,69.44192,74.615147,28.049801,53.274936,73.379825,87.608585,36.049953,60.063755,76.830413,89.632599,22.545673,53.204097,73.481437,86.32996,13.059574,43.369949,63.673553,76.746025,8.114559,32.780376,47.72319,58.107822,-16.710106,-27.109678,-30.008897,-30.596403,-39.455772,-34.509317,-26.030763,-18.558679,-28.555984,-15.194195,-1.2233,9.144865,-13.225407,0.038285,11.411834,18.642363,4.416081,12.693649,18.551985,21.858324,79.876294,203.780942,-98.896968,194.410465
107,-1.551155,7.243372,-0.38427,3.519761,-29.320015,-53.675904,-68.583435,-76.976098,-59.066781,-85.486897,-100.558342,-112.552666,-49.576905,-77.309304,-94.470555,-106.8681,-39.50837,-65.055771,-81.379406,-93.531315,-29.838318,-51.917817,-64.621811,-75.825806,-10.175047,-2.766751,10.959254,20.362792,12.937972,34.706622,47.774343,57.50932,25.862666,49.624188,62.974454,71.305115,36.537917,58.047549,70.236364,77.441106,44.098242,60.109655,69.341971,75.278458,28.322857,55.864963,77.39423,93.038406,41.585644,66.938839,84.167942,97.755363,28.308323,58.141491,79.161426,93.995968,17.763817,47.334377,68.192505,83.187778,11.023647,35.230991,50.221596,61.869369,-15.952552,-23.697622,-25.13343,-25.053735,-30.17177,-20.591836,-10.046619,-1.399487,-18.056314,-1.825033,11.159707,20.639581,-2.791662,12.054644,22.74012,29.559786,14.06499,23.912316,29.964091,33.428647,78.362778,210.78927,-99.243599,197.695182
108,-1.409661,9.657728,1.567612,5.476237,-27.372894,-50.779999,-66.341949,-76.321403,-55.889053,-82.788551,-98.908939,-111.823997,-49.714393,-79.411434,-97.777118,-111.364231,-42.829124,-70.502174,-87.204071,-99.363659,-35.908951,-59.357231,-72.172897,-82.750168,-5.221504,2.418405,13.199904,19.16098,20.751695,38.472544,49.024801,56.923345,29.594737,45.536248,53.810087,58.711748,35.113013,49.054107,56.25875,60.211159,37.563418,48.358106,54.089989,57.907573,27.904976,56.544078,78.728736,95.48109,45.120117,71.4444,89.071163,103.557266,32.301738,62.190822,83.509929,99.39188,20.998615,49.913978,70.718399,86.379272,12.254448,35.770214,50.899807,63.198497,-15.32134,-21.014407,-21.59985,-22.504185,-20.237982,-7.796249,3.493245,12.981591,-7.446853,10.103516,22.747752,32.025159,6.996877,23.023048,33.334613,40.023097,22.344707,33.832013,40.101767,44.198277,77.021204,220.195127,-97.6079,202.919548
109,-1.567062,9.179013,0.268283,8.967382,-26.214684,-48.520363,-64.309044,-75.561608,-52.920479,-80.573147,-97.493672,-110.990421,-49.436875,-80.801068,-99.833416,-113.929733,-45.281365,-74.75584,-91.717449,-103.926739,-40.74321,-65.275772,-78.326454,-88.573677,-1.259412,5.816543,13.299088,15.461723,27.189794,39.344374,45.704024,50.291648,32.107658,40.895137,44.457753,45.772678,32.891197,40.141831,42.597213,43.106407,30.504025,36.287124,38.63154,40.159899,29.215668,58.268063,80.59655,97.777394,50.86694,80.484799,97.839489,111.229901,39.121171,72.277314,93.065987,107.590588,28.093541,59.849442,79.453549,93.376339,18.529805,43.832543,58.658444,69.778954,-15.456548,-19.857685,-19.839987,-21.028399,-10.739644,5.53548,15.112339,22.688373,3.889498,23.013205,33.090243,40.062148,18.12461,35.404376,43.142382,47.760251,31.678245,44.647277,49.673266,52.645252,75.56238,229.155522,-97.231379,211.668312
110,-1.535912,8.303245,-1.115535,9.149682,-26.13826,-48.801819,-65.537773,-77.74403,-51.284912,-78.959381,-96.461998,-110.409782,-49.10646,-80.396541,-99.605015,-114.257881,-46.225158,-75.504192,-92.387752,-104.552089,-42.785774,-66.516609,-79.467682,-89.390625,-1.423273,4.051197,8.499018,7.78317,29.180935,35.960266,38.555549,40.046402,33.488582,37.41807,37.507509,36.251061,32.955281,36.744953,36.195473,34.355842,28.894512,32.587199,33.049253,33.152808,30.821228,60.720943,83.532783,101.184128,57.019901,88.131637,104.968265,117.326706,46.418506,80.629314,100.783642,114.603882,35.706505,68.291256,87.001259,99.947662,25.408035,50.916252,65.350021,75.802974,-14.905882,-18.216804,-17.865691,-19.353493,-2.63962,14.665711,23.246202,29.929177,13.160692,32.445087,40.716629,45.601864,27.359508,45.30135,51.317075,53.733739,39.561575,53.7287,57.882687,59.427596,74.117414,237.304558,-98.255968,220.663785
111,-2.0961,6.965162,-0.461186,9.523853,-26.58554,-50.164535,-67.792167,-81.096759,-49.623138,-76.519214,-94.07571,-108.039436,-47.400924,-77.861332,-97.148609,-112.118957,-44.621315,-73.054607,-89.79261,-101.834404,-41.681259,-64.165672,-76.830711,-86.385109,-1.173752,3.112838,5.487105,3.379329,30.751755,34.41348,34.305664,33.419027,34.3017,35.864812,33.3945,29.907738,32.529932,34.697421,32.003337,28.199203,26.799951,29.541978,28.620625,27.253125,32.726246,62.399094,85.358883,104.016712,61.935196,93.813034,110.816288,122.76907,51.907379,87.147995,107.292927,120.756901,41.699456,75.065815,93.735226,106.429436,31.589035,57.721813,72.348828,82.98666,-14.376929,-17.166047,-16.802535,-19.146395,3.586019,21.496442,29.42212,35.407772,20.599159,39.560883,46.281822,49.547814,34.926823,52.920708,57.603155,58.60035,46.000413,60.712856,63.881986,64.248611,72.084737,244.181797,-98.653731,230.099715
112,-2.129264,6.859977,0.761078,9.367414,-26.07193,-50.664093,-69.38324,-83.263802,-50.065545,-76.149239,-92.838868,-106.053784,-47.600991,-76.754002,-95.020352,-108.930016,-44.377785,-71.457379,-87.303795,-98.590062,-40.930161,-62.269616,-74.202393,-83.244942,-2.09261,0.463387,1.621541,-0.976793,27.307897,29.514758,28.14338,26.095872,31.63507,32.334084,28.696355,23.775675,30.75499,32.61243,28.850435,24.085316,26.059168,28.503706,26.654504,24.37968,33.444592,62.989449,86.442478,105.326145,65.224034,98.294518,115.130551,126.6339,55.714726,92.634957,112.253918,124.527546,46.127941,80.603108,98.939255,110.713703,36.598286,63.57946,78.452717,88.743187,-14.027385,-16.956972,-16.483878,-19.575264,8.658963,25.944571,32.939682,37.479486,26.585096,44.375488,49.74045,51.562866,40.690977,58.144929,61.640113,61.384824,50.66336,65.337246,67.483307,66.760951,70.008528,250.989848,-97.839598,239.415203
