takenoko1/special-research/HandMotion_SimilarSearch_自分用/NewProject/handData_new/key/d3_feature/115.csv
,vel_0x_L,vel_0y_L,vel_0x_R,vel_0y_R,posFromWrist_1x_L,posFromWrist_2x_L,posFromWrist_3x_L,posFromWrist_4x_L,posFromWrist_5x_L,posFromWrist_6x_L,posFromWrist_7x_L,posFromWrist_8x_L,posFromWrist_9x_L,posFromWrist_10x_L,posFromWrist_11x_L,posFromWrist_12x_L,posFromWrist_13x_L,posFromWrist_14x_L,posFromWrist_15x_L,posFromWrist_16x_L,posFromWrist_17x_L,posFromWrist_18x_L,posFromWrist_19x_L,posFromWrist_20x_L,posFromWrist_1y_L,posFromWrist_2y_L,posFromWrist_3y_L,posFromWrist_4y_L,posFromWrist_5y_L,posFromWrist_6y_L,posFromWrist_7y_L,posFromWrist_8y_L,posFromWrist_9y_L,posFromWrist_10y_L,posFromWrist_11y_L,posFromWrist_12y_L,posFromWrist_13y_L,posFromWrist_14y_L,posFromWrist_15y_L,posFromWrist_16y_L,posFromWrist_17y_L,posFromWrist_18y_L,posFromWrist_19y_L,posFromWrist_20y_L,posFromWrist_1x_R,posFromWrist_2x_R,posFromWrist_3x_R,posFromWrist_4x_R,posFromWrist_5x_R,posFromWrist_6x_R,posFromWrist_7x_R,posFromWrist_8x_R,posFromWrist_9x_R,posFromWrist_10x_R,posFromWrist_11x_R,posFromWrist_12x_R,posFromWrist_13x_R,posFromWrist_14x_R,posFromWrist_15x_R,posFromWrist_16x_R,posFromWrist_17x_R,posFromWrist_18x_R,posFromWrist_19x_R,posFromWrist_20x_R,posFromWrist_1y_R,posFromWrist_2y_R,posFromWrist_3y_R,posFromWrist_4y_R,posFromWrist_5y_R,posFromWrist_6y_R,posFromWrist_7y_R,posFromWrist_8y_R,posFromWrist_9y_R,posFromWrist_10y_R,posFromWrist_11y_R,posFromWrist_12y_R,posFromWrist_13y_R,posFromWrist_14y_R,posFromWrist_15y_R,posFromWrist_16y_R,posFromWrist_17y_R,posFromWrist_18y_R,posFromWrist_19y_R,posFromWrist_20y_R,posFromBody_0x_L,posFromBody_0y_L,posFromBody_0x_R,posFromBody_0y_R
6,2.092689,-3.052669,0.100593,-0.017957,1.497494,1.125263,1.801117,2.178818,-16.037693,9.460121,30.022728,41.891373,-24.812942,4.29039,24.729881,41.777825,-30.24662,-7.946331,12.634575,28.40506,-32.639042,-35.707157,-38.168793,-39.329693,-21.150072,-30.103363,-34.218102,-37.841826,-3.184951,12.356393,17.89974,21.35922,15.482952,29.137018,32.331639,33.299922,27.972307,38.34687,38.611668,38.726413,37.145861,45.989311,49.050069,51.058266,25.415863,49.234337,72.153099,90.821594,52.549782,83.051376,99.794563,113.135193,44.191418,78.820839,99.340508,113.307747,35.084015,68.253525,87.550232,100.883011,26.207405,52.738484,67.992645,80.248398,-15.085082,-19.85177,-20.293742,-26.047114,8.415815,24.078783,31.972721,37.471595,26.36251,40.921553,47.982404,51.996601,40.029964,54.267966,59.711216,62.048469,49.517383,62.494072,65.748269,65.871338,-0.746796,303.174985,-71.045998,286.337315
7,-6.883381,2.909185,0.006317,0.007113,2.806298,4.189156,7.999546,11.361614,-9.570144,18.912129,39.171444,50.437763,-17.499355,13.491314,33.272633,49.463642,-22.625393,1.476963,21.238575,36.288426,-24.792824,-27.320583,-30.542919,-33.018471,-21.673752,-31.746245,-38.483153,-45.047852,-4.13414,9.909534,15.764658,20.129214,14.192925,27.352197,30.352736,31.420697,26.508872,36.715017,36.652068,36.321914,35.050423,43.41853,46.708839,48.439456,25.293675,49.066052,72.018288,90.807106,52.380146,82.881066,99.682045,113.119629,44.067158,78.669754,99.217324,113.281357,35.013668,68.09317,87.408829,100.811463,26.117832,52.562371,67.790726,80.088341,-14.962594,-19.798441,-20.347316,-26.192536,8.474269,23.96373,31.73045,37.15505,26.366105,40.71033,47.692585,51.683477,39.999793,54.088854,59.486506,61.794663,49.510308,62.494381,65.758681,65.861187,-7.412144,306.215158,-70.821648,286.475416
8,3.783795,-1.757095,0.013893,-0.090686,1.295677,0.847847,3.295097,4.095932,-14.331597,12.884788,32.867683,44.272705,-21.665337,8.210815,28.978454,45.139457,-25.668675,-2.673935,17.69902,32.56517,-26.77961,-28.474789,-29.495053,-29.999257,-18.46283,-26.669559,-32.178214,-36.890734,-1.981719,12.414722,18.164871,22.027372,15.066162,27.701901,31.359193,32.477382,26.49247,36.240724,37.174365,37.481635,34.802532,42.661062,45.739851,47.787754,25.2235,48.994057,71.956673,90.758034,52.141709,82.662644,99.530663,113.056778,43.837521,78.427369,99.039162,113.20475,34.853829,67.886147,87.290177,100.842545,26.013977,52.487652,67.783745,80.18953,-14.957556,-19.744114,-20.305919,-26.169071,8.503834,23.982563,31.683333,37.07412,26.36251,40.649271,47.592154,51.527792,39.97671,54.047888,59.450616,61.771197,49.494388,62.487329,65.796608,65.952676,-3.446685,304.543177,-70.626091,286.469844
9,-4.204834,-0.367193,0.018345,-0.041781,2.010635,2.978462,7.081077,9.157928,-10.197647,17.558212,37.444542,48.575386,-17.121827,13.344223,33.832306,49.696334,-21.285782,2.654342,22.646255,37.020103,-22.717381,-23.467587,-24.149781,-24.534291,-18.465003,-26.716303,-32.352683,-36.981704,-1.802667,12.191544,17.881721,21.597651,15.306766,28.3209,31.835153,32.652766,26.778585,36.96245,37.797563,37.96729,34.992415,43.258214,46.529923,48.465416,25.115067,48.919911,71.838101,90.605976,51.98243,82.532856,99.4903,113.068554,43.637364,78.209896,98.914662,113.145848,34.675679,67.634091,87.116375,100.751576,25.885941,52.331852,67.649449,80.101536,-14.992753,-19.752141,-20.250454,-26.099231,8.386645,23.930273,31.64495,37.03975,26.242394,40.602761,47.575852,51.518085,39.851728,53.960759,59.416185,61.793391,49.353993,62.370485,65.747492,65.987812,-7.476202,304.244854,-70.432429,286.496933
10,3.238918,-2.897428,0.127705,-0.101196,-1.03323,-2.368424,-0.063091,-0.735203,-15.160938,11.241497,30.814693,42.022671,-20.595669,9.199871,30.500553,46.04694,-23.136051,0.851749,21.381786,35.400433,-23.162842,-21.219521,-18.887592,-16.760983,-14.132199,-19.298399,-22.175932,-23.493191,2.462903,16.801657,22.150935,25.140519,17.197465,30.196482,34.205109,34.932233,26.721503,36.864922,38.358553,38.865314,33.806053,42.098603,44.638459,46.082196,24.976009,48.754326,71.667549,90.430595,51.787571,82.355644,99.367241,112.995575,43.485992,78.016273,98.768349,113.063118,34.548923,67.459442,86.987183,100.69503,25.746185,52.16439,67.519272,80.041237,-14.977365,-19.690947,-20.10444,-25.950944,8.472329,24.002336,31.645061,36.988954,26.26371,40.581938,47.516769,51.425694,39.84328,53.91242,59.344307,61.720389,49.314472,62.315972,65.74097,66.031383,-4.097814,301.396221,-70.165254,286.444532
11,-5.810417,-0.199627,-0.19812,-0.075978,0.879398,1.765136,5.884563,6.318157,-8.810269,18.797321,37.601772,47.797497,-13.987278,16.992862,37.36465,51.85992,-17.066643,8.437259,28.148746,41.230465,-17.863117,-14.637108,-12.384819,-10.594139,-14.504171,-19.885856,-22.7418,-24.297046,2.148371,16.297181,21.314723,24.016613,16.96768,30.698958,34.272677,34.59862,26.62705,37.617338,38.680594,38.804614,33.783959,42.702238,45.123607,46.124211,24.861213,48.816501,71.826416,90.582596,51.711902,82.301948,99.347053,113.047165,43.447048,77.962578,98.739601,113.091362,34.56427,67.455986,87.026024,100.822357,25.820514,52.276737,67.646255,80.208298,-15.009302,-19.662566,-20.073083,-26.037271,8.354819,23.889617,31.504566,36.802949,26.139197,40.468046,47.388279,51.182089,39.718544,53.835973,59.281211,61.610597,49.179239,62.202314,65.6665,65.970077,-9.767881,301.254337,-70.223024,286.426297
12,-0.982395,-2.375513,-0.119534,-0.22366,1.816383,3.427814,7.047821,6.152893,-7.169712,20.282959,38.357345,47.60662,-12.625454,19.355918,39.137466,53.101066,-16.378865,10.297508,29.507446,41.699615,-18.193566,-13.733277,-11.443943,-9.647175,-14.731735,-19.952645,-21.364433,-21.258827,2.930588,18.167736,21.93918,23.140349,18.404302,33.280755,35.785611,34.917499,28.201981,40.261639,40.395798,39.784333,35.605201,45.515425,47.355118,47.778455,24.83852,48.881527,71.945858,90.61369,51.691086,82.26669,99.324795,113.046879,43.451329,77.900128,98.735974,113.111149,34.582272,67.489735,87.116123,100.972355,25.864174,52.412178,67.826947,80.406819,-14.985812,-19.544833,-19.879298,-25.782933,8.220981,23.871672,31.539282,36.881669,26.024995,40.431811,47.427873,51.22729,39.670317,53.865959,59.348321,61.68177,49.192009,62.250776,65.728818,66.041473,-10.62918,298.907374,-70.221462,286.231187
13,-4.876671,-0.118413,-0.155353,-0.105087,5.135227,9.320926,13.635086,13.685829,-0.806305,28.188492,45.747619,53.979675,-7.405792,27.195511,45.293907,58.428932,-12.785259,16.090736,33.894195,44.975212,-16.394177,-12.277096,-12.664959,-13.528496,-17.845338,-25.034803,-26.896059,-27.610314,1.316827,17.566671,20.281243,20.402558,18.7371,35.277677,36.042851,33.731125,29.810962,43.360756,41.560534,39.620275,37.893437,48.940548,50.451433,50.380852,24.863422,48.882717,71.893844,90.498436,51.75769,82.275032,99.31002,112.984543,43.526252,77.901809,98.708725,113.078659,34.618801,67.515129,87.148224,101.000747,25.84592,52.445652,67.875183,80.437568,-15.011006,-19.590923,-19.799195,-25.513257,8.059195,23.736908,31.425798,36.767764,25.851218,40.270988,47.343288,51.232255,39.534528,53.734888,59.298094,61.7051,49.142732,62.174588,65.703884,66.061875,-15.397127,298.809466,-70.268091,286.146605
14,-5.59631,0.042719,-0.078415,-0.152017,7.332665,13.902832,19.59914,20.275921,5.264717,35.743023,52.469914,59.916515,-1.664795,34.95171,52.07262,63.744244,-7.728252,23.004032,39.800388,49.589596,-12.038177,-5.794121,-5.848137,-6.725201,-17.908657,-25.30296,-27.252816,-28.411204,0.539489,17.048128,19.627936,19.53725,18.216112,35.351753,35.880608,33.271221,29.579744,43.660913,41.563869,39.245919,37.849026,49.517631,50.40097,49.548444,24.837856,48.735763,71.754432,90.345405,51.922153,82.261848,99.218994,112.848221,43.748829,77.922683,98.632599,112.99942,34.7933,67.585945,87.176056,101.052864,25.867401,52.504829,67.961815,80.569084,-14.975228,-19.567112,-19.728157,-25.253522,8.106014,23.733401,31.389908,36.692169,25.810907,40.09805,47.202867,51.151102,39.486388,53.565926,59.184917,61.665913,49.184623,62.157681,65.743354,66.183672,-20.888048,298.867073,-70.241117,286.009476
15,-6.585045,0.86148,-0.081505,0.033852,12.370651,22.765148,29.873394,32.003094,13.986889,46.630337,62.496907,68.45113,5.249897,44.875523,60.101658,70.688153,-3.091896,29.777012,44.900769,53.366101,-9.810825,-4.424984,-7.573402,-11.25127,-22.737959,-33.141014,-36.585464,-39.534899,-3.323617,14.222935,16.033704,15.117341,17.372589,35.931478,35.06507,31.29648,30.997459,46.422527,42.750588,39.321625,40.727645,53.618167,54.344537,53.130165,24.842628,48.626175,71.577461,90.117027,51.939903,82.249008,99.16198,112.725517,43.763889,77.956238,98.582245,112.869736,34.807823,67.671272,87.236298,101.051147,25.886867,52.668159,68.145905,80.718246,-15.067953,-19.693071,-19.78976,-25.173766,7.894135,23.485966,31.157726,36.496222,25.6024,39.815171,47.001153,51.087783,39.322069,53.290951,58.953007,61.526505,49.135704,61.968329,65.541405,66.014883,-27.369541,299.743857,-70.21907,286.058632
16,-2.371788,-0.143311,0.120964,0.04651,13.05463,24.406162,32.181988,34.585613,16.001827,49.446751,65.290158,71.32037,7.116188,48.01585,63.179592,73.527409,-1.296032,32.631306,47.601277,55.751896,-8.050232,-1.679329,-4.434871,-7.830768,-22.624017,-33.049153,-36.620476,-39.780084,-3.571001,14.191999,16.133951,15.14114,17.28483,36.057252,35.252397,31.359811,31.040969,46.661971,42.982412,39.389995,40.822383,54.088878,54.567876,52.931552,24.768265,48.312058,71.159225,89.690941,51.830429,82.161232,99.082809,112.618149,43.681767,77.888626,98.486321,112.727943,34.718834,67.629799,87.17688,100.907593,25.7528,52.623734,68.131989,80.675308,-15.148401,-19.896267,-19.948248,-25.083289,7.800559,23.381324,31.073487,36.453961,25.479764,39.585077,46.850297,51.141975,39.209882,52.990696,58.687159,61.389123,49.088725,61.793008,65.365961,65.872647,-29.655745,299.596289,-70.012522,286.100885
17,-2.442066,-0.344839,0.048203,0.083277,13.812881,26.239426,34.900726,37.805855,18.38625,52.288673,67.972824,74.047394,9.266064,50.920029,65.877136,76.024864,0.562626,35.082092,49.744194,57.669525,-6.482597,0.544968,-2.038765,-5.194038,-22.547952,-33.080288,-36.830872,-40.296305,-3.829958,14.236694,16.431439,15.548853,17.174531,36.273786,35.588751,31.666686,31.046218,46.938131,43.352408,39.812739,40.872796,54.447698,54.915358,53.23855,24.618747,47.953205,70.760147,89.391174,51.769329,82.092269,99.058181,112.605468,43.635326,77.819618,98.388587,112.635337,34.640625,67.495513,87.026733,100.695213,25.612289,52.453193,67.952293,80.463821,-15.246807,-20.088965,-20.109714,-25.251942,7.785257,23.208114,30.86661,36.214702,25.418433,39.414399,46.688239,51.065652,39.121961,52.75518,58.474355,61.250851,49.009091,61.604878,65.186872,65.709502,-32.024071,299.247757,-69.890579,286.180469
18,0.970482,-0.509675,0.099689,-0.067839,13.458893,25.35672,33.64389,36.223892,17.291805,50.847153,66.50869,72.476349,8.121323,49.379608,64.376129,74.529602,-0.636944,33.504776,48.33316,56.326034,-7.692204,-0.865196,-3.279671,-6.370422,-22.372495,-32.60323,-36.132723,-39.385574,-3.499952,14.816999,17.199429,16.39986,17.343937,36.591454,36.072676,32.2483,31.159184,47.31571,43.850178,40.418646,40.987552,54.732305,55.40678,53.850237,24.458736,47.662914,70.469158,89.126003,51.707291,81.962391,98.959087,112.539585,43.586231,77.722698,98.310757,112.544735,34.605,67.447163,86.938831,100.541828,25.582695,52.425785,67.896023,80.347309,-15.271297,-20.106885,-20.14359,-25.410418,7.971669,23.276645,30.89425,36.218098,25.576687,39.488771,46.738059,51.121894,39.24787,52.771889,58.428511,61.180283,49.090466,61.641608,65.14393,65.582556,-31.001209,298.731419,-69.73851,286.105967
19,0.162689,-0.074558,-0.091427,0.056452,13.215901,25.038597,33.468613,36.068802,17.175442,50.403557,66.061981,72.112953,8.096237,48.799141,63.791542,74.157326,-0.620785,32.913345,47.616531,55.70517,-7.738472,-1.470463,-4.164745,-7.376026,-22.488623,-32.881094,-36.53452,-39.932645,-3.549055,14.799512,17.193143,16.396229,17.306813,36.594567,36.051558,32.23148,31.112884,47.323454,43.834061,40.468331,40.887517,54.619796,55.395319,53.991078,24.368694,47.570492,70.387436,89.095184,51.776665,82.026146,99.018608,112.576973,43.660469,77.778717,98.321549,112.526962,34.67482,67.472054,86.861023,100.362099,25.670529,52.490158,67.847923,80.191818,-15.349485,-20.316664,-20.429716,-25.784959,7.828075,23.158529,30.839415,36.196338,25.431882,39.419561,46.699972,51.079583,39.107277,52.681166,58.355127,61.106664,48.962334,61.46599,64.91932,65.307495,-30.806208,298.654539,-69.797625,286.160097
20,0.080509,-0.108124,0.118218,-0.214817,13.095234,24.850582,33.476315,36.349423,17.264786,50.31728,65.819721,71.720959,8.204773,48.496914,63.254666,73.566868,-0.547199,32.577496,46.95789,54.858799,-7.766533,-2.102691,-5.345775,-9.027649,-22.426972,-33.003484,-36.783251,-40.2937,-3.317023,15.267912,17.349605,16.338529,17.504426,37.017568,36.127486,32.161998,31.224812,47.589659,43.760442,40.331775,40.876562,54.363568,55.073796,53.829995,24.383983,47.58863,70.373954,89.130317,51.622902,81.878151,98.907737,112.472717,43.526653,77.719642,98.362655,112.596473,34.588852,67.542938,86.941337,100.393959,25.672725,52.605468,67.943733,80.189689,-15.348275,-20.335226,-20.393951,-25.614701,7.847193,23.289279,31.000744,36.358741,25.559014,39.68342,46.907218,51.195228,39.304643,52.974517,58.557915,61.181048,49.164183,61.681585,65.041733,65.304753,-30.703091,298.544483,-69.656799,285.943348
21,-0.576885,0.063232,-0.058617,-0.178891,13.161255,25.339371,34.196411,37.381668,18.097561,51.043762,66.339409,72.130714,9.167633,49.080254,63.569481,73.578072,0.395954,33.327438,47.273621,54.689255,-6.901039,-1.031193,-4.431793,-8.377659,-22.653225,-33.503069,-37.344797,-40.586582,-3.377958,15.078364,16.955687,15.865805,17.567387,37.086902,35.980878,31.922406,31.291762,47.600713,43.567509,40.062284,40.850059,54.188802,54.615856,53.199894,24.482025,47.720249,70.48764,89.298157,51.731655,81.889046,98.874207,112.403297,43.589252,77.781326,98.389389,112.612976,34.62767,67.569283,86.920532,100.323349,25.744514,52.687214,67.957832,80.116974,-15.339198,-20.335041,-20.457023,-25.791579,7.862494,23.307335,31.018788,36.380119,25.602659,39.802734,46.981529,51.17227,39.351401,53.165869,58.752083,61.323136,49.204247,61.739889,65.050984,65.220217,-31.258301,298.604053,-69.693741,285.760795
22,-0.64262,0.416161,0.063641,-0.06616,13.428669,25.956905,34.747364,38.03944,18.806866,52.4389,67.300404,72.566265,10.081661,50.653988,64.464878,73.417911,1.480122,35.244404,48.479633,54.782307,-5.566784,1.042122,-2.593025,-7.091217,-23.059827,-34.160094,-38.133844,-41.256426,-3.466323,14.913502,16.261316,14.663092,17.62684,37.237326,35.646561,31.193727,31.342348,47.625647,43.012583,39.00755,40.762805,54.01889,53.783065,51.767346,24.582115,47.823772,70.533153,89.294048,51.715541,81.833324,98.757671,112.204776,43.585636,77.865657,98.45367,112.627933,34.686435,67.770092,87.07378,100.399303,25.933078,53.022846,68.246006,80.298603,-15.40054,-20.401953,-20.521724,-25.765063,7.730238,23.200186,30.90807,36.268611,25.53839,39.741059,46.87522,50.995553,39.351018,53.189557,58.727285,61.229214,49.26827,61.716166,64.939796,65.03031,-31.878164,299.012217,-69.607343,285.686638
23,-1.160706,0.334156,0.033554,-0.067962,13.77538,27.078335,36.164715,39.96983,20.159558,54.244549,68.909031,74.025959,11.703919,52.364079,65.712376,74.161229,3.261612,37.312169,49.933651,55.474675,-3.652896,2.969868,-1.254982,-6.403747,-23.588658,-35.061736,-39.177092,-42.245001,-3.501841,14.673442,15.537219,13.620906,17.829382,37.338053,35.366511,30.71731,31.425933,47.399604,42.384334,38.062163,40.629128,53.494283,52.836653,50.528608,24.697391,47.968963,70.609348,89.326938,51.649383,81.812336,98.695621,112.067424,43.471161,77.86964,98.443897,112.579914,34.580715,67.751506,87.075908,100.367557,25.935894,53.029255,68.227352,80.190914,-15.498588,-20.486181,-20.604013,-25.730014,7.636821,23.121812,30.831264,36.207996,25.47118,39.731561,46.855434,50.954069,39.304372,53.197165,58.758654,61.268771,49.227144,61.642768,64.865053,64.943427,-33.015118,299.345731,-69.550037,285.618034
24,-0.916339,0.058749,0.118034,-0.047795,14.160209,28.11145,37.325935,41.23265,21.629013,56.021324,70.18975,74.802475,13.112857,54.238311,66.833862,74.205116,4.570621,39.364151,51.318603,55.898185,-2.438485,5.494651,1.567577,-3.626153,-23.729769,-35.340205,-39.405297,-42.223375,-3.680485,14.72036,15.272816,13.132287,17.753417,37.5412,35.335414,30.542075,31.326738,47.483128,42.238776,37.680114,40.460525,53.385813,52.138862,49.222896,24.731312,47.955769,70.542995,89.208973,51.54356,81.786037,98.679211,111.988987,43.31591,77.873463,98.454746,112.506077,34.457863,67.766888,87.086712,100.290813,25.940495,53.046043,68.233646,80.12122,-15.558696,-20.443215,-20.517587,-25.666238,7.758272,23.134607,30.81395,36.191694,25.612922,39.821149,46.870761,50.929924,39.427144,53.287061,58.755999,61.204921,49.279212,61.667864,64.823051,64.839501,-33.90858,299.403933,-69.409126,285.569692
25,-1.803418,-0.36103,0.059944,-0.010325,14.778351,29.892048,39.438916,43.42812,23.810784,58.5042,72.429669,76.888996,15.250523,56.480564,68.737828,75.568096,6.346505,41.523182,53.085972,57.045765,-1.009712,7.648087,3.728531,-1.67728,-23.855345,-35.357273,-38.89772,-41.090045,-3.756722,14.952788,15.728127,13.932227,17.850044,37.874652,35.960661,31.527562,31.315623,47.688818,42.557347,38.078318,40.328873,53.338191,51.963528,48.912823,24.60323,47.74308,70.380604,89.009663,51.840832,81.984913,98.841923,112.106564,43.571022,77.952313,98.392651,112.405552,34.58392,67.562885,86.796238,99.98901,25.884796,52.641861,67.746243,79.700764,-15.64396,-20.50993,-20.623612,-25.889416,7.974967,23.182945,30.897819,36.362385,25.662064,39.852481,46.96582,51.179866,39.297765,53.200129,58.7817,61.402263,49.006029,61.45464,64.723485,64.911144,-35.699513,299.033573,-69.336697,285.550037
26,-2.91291,-0.754009,-0.100708,-0.248953,15.818882,32.477817,43.27177,47.956455,27.161648,62.189655,75.742206,80.083889,18.308098,59.532863,71.636524,78.260616,8.808769,44.022617,55.20647,58.809025,0.804817,9.694645,5.705898,0.181343,-23.613012,-35.119991,-38.375485,-40.534971,-3.373092,16.188685,17.269466,15.749084,18.15982,39.053838,37.621006,33.579454,31.40968,48.564772,43.695666,39.354463,40.273161,53.591219,52.396817,49.461215,24.421555,47.648598,70.395619,88.932324,52.263245,82.18729,98.953434,112.193218,44.113003,78.180966,98.504551,112.571263,35.085137,67.652493,86.804547,100.016773,26.184059,52.514271,67.483944,79.457348,-15.97225,-20.725772,-20.684918,-25.977299,8.264367,23.246968,31.155652,36.852708,25.903458,39.996261,47.308695,51.777326,39.426305,53.180097,58.913673,61.733505,49.052762,61.520726,64.98958,65.469973,-38.614866,298.255781,-69.439848,285.277301
27,2.573044,-2.016818,-0.289833,-2.137416,14.855404,30.435642,41.556324,46.434986,22.271885,55.673183,70.187748,75.764774,12.560772,51.900226,65.62611,74.504848,3.209507,36.391628,48.861225,54.292316,-4.330239,2.451873,-1.625141,-6.672901,-23.068213,-34.181496,-37.293075,-39.378275,-2.748141,18.209406,20.979863,20.707346,18.377244,40.077277,40.288105,37.172155,31.401974,49.134235,45.802121,42.446764,40.273297,53.272241,53.211009,51.483146,24.360661,47.998043,70.594677,88.921818,52.308083,82.086331,98.717594,111.925495,43.784168,77.375462,97.319561,111.39806,34.119358,66.093762,85.167286,98.641697,24.503151,50.51025,65.519371,77.715786,-15.980155,-20.355295,-20.234807,-25.451124,8.366526,24.336035,32.882959,39.242943,25.584702,41.123465,49.308717,54.49443,38.845529,53.855251,60.417962,63.883852,48.379805,61.842408,66.024664,67.107322,-36.053632,296.198279,-69.741491,283.099201
28,11.92852,-1.596298,0.842789,-3.516476,8.413673,17.921619,25.67807,29.590977,7.051094,30.359928,41.047348,45.556251,-0.899998,26.613979,36.416553,44.097462,-7.535236,15.353496,24.660953,29.353363,-12.504524,-9.302857,-13.434963,-17.510216,-21.098498,-29.445103,-30.475767,-31.032867,0.795605,19.012026,21.304238,21.58188,20.106799,38.28391,38.511509,36.082865,31.842662,46.90339,43.888328,40.890901,39.744319,50.858788,50.670486,49.3039,23.138225,46.811817,68.756779,87.238025,50.42601,79.030918,95.239712,107.540874,42.104679,73.942669,91.87334,103.677212,32.533539,61.430157,77.137836,87.110435,22.760353,45.191654,56.788868,65.161571,-17.522383,-22.033955,-21.490613,-26.14447,5.308918,22.114724,31.815405,39.301186,23.179845,40.335665,49.68306,55.78095,37.316527,53.970453,61.363743,65.407852,47.424551,62.46316,67.49777,69.106948,-24.186939,294.535151,-68.960529,279.515895
29,15.140808,-0.522643,1.047924,-11.188533,1.228283,3.374989,5.34795,5.801216,-8.509712,1.705685,6.901279,8.697865,-13.596474,-1.08308,3.061741,7.286087,-16.806461,-7.257969,-3.240429,-1.438557,-18.545689,-22.550514,-28.664921,-33.864098,-20.166005,-27.343972,-27.702173,-27.133551,1.425274,17.98135,21.477658,22.987616,19.571608,35.809496,37.626243,37.07102,31.034806,44.729788,43.79443,42.520161,38.788484,49.002027,50.200714,50.381111,21.635227,44.281872,63.113548,78.938106,52.526539,73.800155,82.79369,88.521835,45.167187,68.961181,78.082535,81.902618,35.660717,56.699615,63.935669,66.542862,24.998291,42.322586,48.534416,51.422756,-9.445046,-8.221659,-3.311168,-3.316614,11.755871,33.947524,45.077085,52.208912,25.66546,48.953702,59.510923,65.129901,37.233708,59.041249,68.033999,72.001512,45.384528,64.121567,71.293593,74.015551,-9.181343,294.091539,-68.047817,268.406393
30,16.230812,-1.699013,-5.098457,-22.237113,-5.685619,-11.291119,-15.445644,-19.078548,-24.518944,-27.113743,-27.893154,-29.426742,-26.935032,-28.839729,-30.884617,-30.838051,-26.478653,-29.752613,-31.438442,-32.939403,-24.46558,-34.913155,-42.790443,-49.02198,-19.762911,-25.176162,-22.975426,-20.389097,2.504424,17.360313,21.918778,24.86799,19.766949,33.735053,36.860772,37.931129,31.338408,43.527853,44.820968,45.338968,39.333234,48.817183,51.063663,52.256298,23.263767,47.19699,65.526557,79.21162,56.35707,77.150001,80.385623,80.972991,49.582248,72.313522,75.684448,73.853221,40.330696,60.491157,62.680343,60.202217,29.47404,46.374721,50.178314,49.739948,-1.51664,1.790811,5.157925,3.838442,14.835919,35.841199,45.043196,50.588383,22.214291,44.405746,53.45007,58.174025,28.212083,48.676306,56.896039,60.498546,31.899126,47.149848,53.672038,56.446755,6.68922,292.81836,-73.506523,246.595114
31,18.432758,-1.517949,-8.207955,-32.493586,-13.425659,-27.738601,-39.241642,-47.685367,-42.411495,-57.921386,-64.815513,-70.103702,-41.873794,-58.110008,-66.909965,-71.719894,-37.511524,-53.544845,-61.328189,-66.703113,-31.428016,-48.652874,-58.79298,-66.51361,-19.69249,-23.294293,-18.517664,-13.477509,3.562209,16.394167,21.603407,25.577663,20.03938,31.355353,35.30728,37.702406,31.689583,41.935446,44.951978,46.950074,39.797536,48.309385,51.309838,53.438461,24.978973,49.970432,67.036526,78.178059,59.479271,79.339497,79.786583,76.567612,52.819714,73.584801,72.345692,65.757328,43.432903,61.757355,59.621304,52.932049,32.302574,47.89904,48.746487,44.794693,0.947264,3.543968,5.947337,5.355434,6.209572,22.216397,30.262562,35.122684,10.92718,30.113885,38.815136,43.278925,16.036916,34.297538,42.314871,45.935125,20.253715,33.027535,38.932443,41.520804,24.164154,292.253405,-82.672302,215.054522
32,13.641587,-0.475997,-7.868053,-44.406098,-19.644013,-40.37732,-58.298596,-70.925732,-52.983857,-79.881249,-93.949414,-103.983811,-48.899758,-78.185303,-95.042565,-106.450848,-41.39193,-68.687393,-83.935215,-94.862709,-32.49448,-54.526188,-66.859108,-76.471985,-19.875605,-22.086319,-14.526463,-7.175496,4.737134,14.705799,19.279368,23.405074,20.782559,29.143935,32.896495,36.269759,32.448212,40.738452,44.321223,47.109204,40.35939,48.46843,51.381827,53.471683,22.821567,46.136421,60.276203,67.957054,60.239341,77.982204,76.566353,70.78656,55.65644,73.439815,68.8442,59.036808,48.107025,62.846191,56.251968,45.845924,38.575229,50.837013,48.044449,40.762996,-2.314918,-3.866558,-5.17881,-7.395155,-3.308797,6.963013,12.309271,15.174589,1.695129,16.305289,23.329725,26.767748,7.58434,22.826441,29.706166,32.530426,12.936316,23.360082,28.280515,30.279944,36.431174,292.919674,-91.914922,171.79069
33,3.896507,-1.09544,-10.21851,-52.273468,-20.451141,-42.51297,-63.1157,-78.743843,-53.027458,-82.83157,-99.337063,-111.780544,-48.066719,-80.182457,-99.564571,-114.330242,-40.046516,-69.980301,-88.19965,-102.149128,-30.49736,-54.972725,-68.988705,-80.554401,-21.336261,-24.492658,-16.07504,-7.839412,2.896552,14.255429,20.41418,25.327018,20.060622,29.919532,35.064256,39.504061,32.985737,42.658,47.9159,51.990785,41.75432,51.166083,54.929635,57.459599,23.64632,46.255337,58.574867,62.955729,60.990789,75.251902,71.583687,64.112955,56.365763,72.460745,66.637367,56.028545,49.039238,63.396286,56.323717,46.048405,39.975878,52.967176,50.774729,44.428385,-2.467473,-7.746886,-12.872365,-17.157189,-12.82071,-10.874286,-10.283361,-11.02897,-10.117614,0.094175,6.778191,9.954768,-5.489492,6.515965,13.547086,16.702569,-0.168394,6.929742,11.652976,14.137534,38.765699,292.955301,-103.695414,120.648289
34,2.08461,-2.213455,-11.73024,-53.961993,-21.061684,-43.81073,-65.125511,-81.234798,-54.832924,-84.854439,-101.686535,-114.469276,-49.88269,-82.442837,-102.053307,-117.094162,-41.831474,-72.158913,-90.597118,-104.749168,-32.082481,-57.047287,-71.502171,-83.430267,-21.764316,-24.271062,-13.593057,-3.987533,4.342029,15.813626,21.942193,26.996391,21.943675,31.484262,36.482427,40.837894,35.014262,44.489393,49.619173,53.655464,43.768531,53.095412,56.654199,59.056624,26.669094,50.287296,63.745594,68.063822,55.553152,70.231745,70.469261,67.03612,48.516375,69.406717,69.773392,64.270569,40.566525,60.221226,58.677458,52.583771,32.231466,48.35578,49.655725,46.134539,-10.736501,-25.634949,-38.169681,-48.395524,-35.056744,-48.644367,-54.641986,-58.641792,-31.492142,-29.731601,-21.749678,-16.40978,-25.532576,-20.042572,-12.270483,-7.010355,-18.18299,-16.891362,-12.696107,-9.357139,38.529459,292.1901,-117.746504,68.13455
35,1.407921,-0.956453,-6.977074,-51.912639,-22.118111,-45.409058,-67.197121,-83.272156,-56.612892,-87.221169,-103.981339,-116.551724,-51.603951,-84.767899,-104.209694,-119.063565,-43.622246,-74.496128,-92.775742,-106.769234,-34.032303,-59.10799,-73.44223,-85.158806,-21.646014,-24.200505,-13.467011,-3.697565,5.0478,16.45814,22.506346,27.234402,22.768884,32.36843,37.34439,41.521089,35.780029,45.283023,50.20989,53.952879,44.302451,53.703161,57.096852,59.339528,26.607228,49.228169,61.964493,66.632761,48.524615,57.072104,59.767582,58.959006,39.471137,58.285029,61.637055,58.694127,30.74318,48.392178,48.97589,44.804375,22.115645,36.499552,38.750937,36.222445,-18.607876,-38.880597,-52.483333,-62.042569,-54.60082,-77.510876,-87.37922,-94.275657,-47.633811,-48.226136,-35.69021,-27.474775,-37.408888,-33.480228,-22.385497,-14.720388,-25.57305,-24.216434,-17.468759,-12.187531,37.762293,292.342175,-126.898665,17.330439
36,0.78923,-1.053894,-5.475013,-45.024498,-22.899971,-46.527603,-68.603084,-84.76181,-57.885567,-89.015785,-105.605816,-117.909153,-52.881111,-86.673294,-105.950134,-120.668964,-44.957176,-76.416744,-94.545227,-108.314575,-35.500763,-60.74477,-74.981575,-86.641445,-21.198385,-23.45514,-12.398099,-2.812348,5.593291,17.132985,23.1619,27.741854,23.393749,33.025109,38.038909,42.168875,36.447218,46.007676,50.810018,54.399927,44.926142,54.354355,57.628659,59.734397,27.728897,49.363643,61.56134,67.913034,43.280657,46.900354,49.536758,49.885088,33.176256,49.140524,55.747604,55.266163,24.061981,39.307216,42.477613,39.76205,15.183614,27.401933,31.728716,30.790998,-22.802599,-45.336584,-60.745118,-71.78989,-63.729553,-89.999322,-103.983155,-114.131076,-57.421088,-62.63645,-47.443481,-36.436105,-48.011569,-48.480798,-34.793816,-24.532744,-36.863184,-39.066571,-30.661954,-22.723361,36.117937,291.826877,-134.807264,-27.155463
37,0.598641,-0.932999,-3.810013,-42.14946,-23.520539,-47.394951,-69.667008,-85.786824,-58.872391,-90.338196,-106.800351,-118.900727,-53.86908,-88.031594,-107.199772,-121.846608,-45.98909,-77.84911,-95.854775,-109.440388,-36.671242,-62.004216,-76.136696,-87.721665,-20.748793,-22.792769,-11.569693,-1.9411,6.006611,17.807238,23.864398,28.409018,23.903881,33.701547,38.674443,42.684836,37.053841,46.717768,51.426101,54.922249,45.580424,54.987655,58.097319,60.048533,30.926376,53.737049,68.041408,77.080107,39.814642,39.750234,41.249908,41.562017,26.896105,43.252275,49.879417,48.60466,15.89241,32.056023,36.403559,33.506973,5.234316,18.693987,25.020098,24.562872,-18.919394,-40.382889,-54.492389,-64.05449,-70.437383,-102.860019,-120.349293,-133.41135,-67.539304,-73.427326,-54.006349,-40.771343,-60.408431,-62.761578,-45.42511,-33.165106,-50.742383,-55.569385,-44.525913,-34.731483,33.994263,291.152739,-141.339592,-69.046062
38,0.737777,-0.541045,-2.568855,-35.946342,-23.846946,-47.949691,-70.48827,-86.729267,-59.600532,-91.381839,-107.798629,-119.861297,-54.658996,-89.246486,-108.428146,-123.102562,-46.888321,-79.191719,-97.23032,-110.75584,-37.760925,-63.354343,-77.509872,-89.093662,-20.517723,-22.351167,-11.02771,-1.496015,6.124196,17.948474,23.952973,28.530407,24.018601,33.819602,38.660167,42.604598,37.17171,46.846209,51.450036,54.921298,45.747978,55.040884,57.983526,59.854329,32.826255,56.055645,71.548416,82.941146,38.657592,37.82468,38.897232,39.122772,24.659202,41.355892,48.170185,46.434494,12.728061,29.499343,34.509899,31.500709,0.843601,14.807624,22.113258,21.884651,-18.05486,-37.60555,-50.478621,-59.142519,-74.236008,-108.995945,-128.399789,-143.502072,-73.028529,-81.987201,-60.158752,-45.147121,-67.65309,-72.983596,-53.529684,-40.001092,-59.263364,-67.274727,-54.691833,-43.281814,31.921182,290.916695,-146.719305,-104.687403
39,0.881882,-0.586209,-0.750939,-30.046422,-24.043694,-48.374611,-71.211731,-87.693523,-60.116158,-92.317406,-108.729527,-120.843235,-55.289154,-90.300293,-109.499565,-124.150703,-47.642303,-80.378357,-98.503017,-111.992947,-38.674713,-64.628231,-78.871021,-90.464516,-20.406893,-21.902871,-10.52658,-1.261684,6.231876,17.868581,23.778787,28.396026,24.079758,33.73593,38.450623,42.314013,37.229472,46.835514,51.341911,54.735195,45.845025,55.063744,57.867991,59.648354,32.866608,56.05172,72.659397,86.037564,39.517079,40.294121,41.67366,41.969273,25.87254,43.270066,49.670471,47.218735,13.906998,31.015801,35.690975,32.305584,1.437504,15.723335,22.802193,22.136524,-18.77408,-36.215836,-47.543254,-54.447009,-74.804385,-108.616095,-128.384956,-144.422905,-74.045247,-85.750525,-63.203131,-47.486852,-69.535,-76.937003,-56.728758,-43.320594,-61.820271,-72.026681,-58.745847,-46.826795,30.860201,290.50381,-149.413107,-134.560501
40,0.934479,-0.397401,1.657173,-23.987908,-24.288918,-48.834847,-71.943627,-88.634892,-60.624138,-93.123665,-109.598145,-121.855191,-55.821671,-91.270649,-110.515743,-125.299404,-48.268067,-81.434899,-99.716011,-113.337467,-39.508965,-65.9469,-80.405205,-92.224537,-20.346674,-21.586289,-10.186471,-1.105913,6.380189,17.746216,23.49681,28.043468,24.285227,33.564684,37.991991,41.701338,37.437126,46.772356,50.979312,54.171117,46.051667,55.037562,57.595202,59.208481,32.593872,55.285927,72.026722,86.595177,39.800606,41.952072,43.400139,43.637947,26.411282,44.722023,50.31371,46.919037,14.384709,32.424946,36.292214,32.136349,1.73885,16.711499,22.986889,21.290886,-18.978106,-34.68395,-44.695124,-50.173766,-74.093017,-106.494177,-125.801671,-141.797473,-73.719686,-86.244854,-63.61726,-47.843009,-70.028114,-77.427891,-56.815329,-43.862627,-62.985705,-73.599526,-59.863178,-47.771339,29.924023,290.92291,-149.626591,-157.731908
41,0.988701,-0.146188,4.635659,-21.996568,-24.417733,-49.160408,-72.499375,-89.297791,-61.133858,-93.965779,-110.521283,-122.887997,-56.433632,-92.124619,-111.357319,-126.109681,-49.043999,-82.326668,-100.66689,-114.28061,-40.524834,-67.000924,-81.468441,-93.250008,-20.397828,-21.563651,-10.291336,-1.353964,6.370197,17.369712,23.01717,27.58055,24.3503,33.295711,37.504175,41.093491,37.491059,46.542101,50.564733,53.629257,46.065128,54.844777,57.225675,58.705598,30.259769,52.323154,69.340393,83.759651,37.975891,40.751175,41.824459,42.027019,24.302204,45.414871,48.607715,43.245872,12.281971,32.611187,34.297817,28.797248,-0.280976,16.464283,21.398918,18.361473,-16.250282,-30.812431,-39.533191,-43.364067,-71.353946,-104.887801,-124.557181,-141.178499,-71.110916,-80.236871,-57.076629,-41.899782,-67.940311,-71.692491,-50.683337,-38.852804,-61.691234,-70.003631,-55.233882,-43.853899,29.77002,291.843559,-146.133636,-178.661639
42,0.820701,-0.009497,3.479953,-12.379278,-24.439499,-49.291626,-72.860389,-89.982193,-61.396637,-94.744812,-111.395073,-123.799118,-56.733101,-92.977157,-112.267307,-126.996265,-49.446602,-83.136852,-101.544479,-115.095623,-41.110931,-67.860466,-82.320019,-93.979923,-20.55218,-21.589093,-10.38658,-1.661889,6.08922,16.821652,22.381857,26.890094,24.145893,32.860766,36.932576,40.413323,37.300596,46.14076,50.016945,52.949286,45.867156,54.486353,56.714357,58.062393,29.404496,51.13488,67.767083,82.268784,36.736771,39.939995,40.797238,41.038685,23.205128,44.925568,47.948433,42.478478,11.28518,32.373345,33.407318,27.449833,-1.158977,15.915688,20.274422,16.657723,-15.739881,-29.15387,-36.688418,-39.1976,-69.309864,-101.333945,-120.837404,-137.428344,-69.118719,-78.903446,-56.21044,-40.522479,-66.522183,-69.834599,-49.115951,-37.13332,-60.932911,-69.010259,-54.356548,-42.720856,30.008634,293.141,-143.23577,-189.733979
43,0.683121,-0.142681,3.858845,-9.669556,-24.663643,-49.526276,-73.21471,-90.575352,-61.8666,-95.480358,-112.134293,-124.483772,-57.192947,-93.634392,-112.858875,-127.445297,-49.913612,-83.749546,-102.074387,-115.456318,-41.615341,-68.455639,-82.823479,-94.307591,-20.606149,-21.611569,-10.549242,-1.95072,5.953086,16.546888,22.106611,26.596557,24.064371,32.629153,36.701543,40.110561,37.277316,45.979888,49.787703,52.551738,45.869207,54.485118,56.60937,57.764868,27.89344,49.513413,66.053101,80.219319,35.076416,37.934624,38.522873,38.801342,21.653286,44.175705,46.309261,40.083653,9.837982,31.518505,31.610882,24.738819,-2.351921,15.426224,19.296353,14.806149,-13.12685,-26.469617,-33.077213,-33.738282,-66.821929,-98.346108,-117.866792,-134.318331,-66.916012,-75.271605,-52.785453,-37.346161,-64.530372,-66.579399,-45.825768,-34.165166,-59.314505,-66.179588,-51.265702,-40.197132,30.342053,294.298996,-139.726627,-198.102858
44,0.573303,-0.149806,3.555885,-6.347837,-24.936287,-49.842293,-73.583175,-91.057926,-62.3535,-96.103168,-112.783424,-125.093365,-57.555931,-94.137955,-113.376262,-127.963966,-50.192138,-84.15842,-102.481041,-115.80859,-41.87146,-68.816253,-83.162338,-94.587719,-20.626391,-21.604505,-10.612364,-1.997033,5.844948,16.491831,22.062755,26.462361,24.034582,32.578455,36.660689,40.003967,37.30335,45.985865,49.762446,52.407167,45.916211,54.571136,56.660054,57.677664,26.316594,47.525746,63.381695,77.0583,33.275918,35.666943,35.871289,35.980385,20.233063,42.948155,44.303971,37.524983,8.582314,30.299687,29.790699,22.164666,-3.394168,14.437489,18.250088,13.322972,-10.553995,-24.077891,-30.271232,-29.857779,-64.349313,-95.883033,-115.415494,-131.705656,-64.403777,-72.298968,-49.926419,-34.609766,-62.208205,-64.458244,-43.586757,-31.880849,-57.479442,-63.915169,-48.799076,-38.122772,30.403513,295.104666,-136.682585,-203.495219
45,0.568543,-0.08361,2.420231,-3.576646,-25.111702,-50.122444,-73.937176,-91.51854,-62.734383,-96.679356,-113.374146,-125.610295,-57.841278,-94.57972,-113.86076,-128.443852,-50.391129,-84.528855,-102.841576,-116.08548,-42.006958,-69.08289,-83.366845,-94.648144,-20.670432,-21.6338,-10.724812,-2.109444,5.70123,16.363871,22.003524,26.402809,23.948761,32.503404,36.71945,40.096358,37.272672,45.923065,49.735535,52.348838,45.9243,54.596651,56.685199,57.650197,25.062035,46.105053,61.569844,74.670227,31.892201,33.822853,33.834824,33.886334,19.351765,42.01228,43.121544,36.274075,7.909504,29.628228,28.883904,20.83469,-3.791736,14.145813,17.945721,12.716435,-8.402786,-22.253651,-28.324383,-27.397685,-62.141084,-93.797539,-113.633807,-129.965779,-62.224441,-70.915746,-48.704455,-33.310417,-60.227928,-63.59344,-42.525153,-30.554922,-55.976296,-62.502787,-47.29205,-36.850182,30.416994,295.314507,-134.817416,-206.778414
46,0.450256,-0.031962,1.41996,-1.986134,-25.247017,-50.335213,-74.264271,-91.830986,-63.102333,-97.118122,-113.857166,-126.080544,-58.085403,-94.977356,-114.317642,-128.965336,-50.533264,-84.904667,-103.233055,-116.488976,-42.112335,-69.415833,-83.722916,-94.998528,-20.777038,-21.87102,-11.170909,-2.380182,5.451289,16.237221,21.953716,26.321731,23.812083,32.425512,36.761021,40.148957,37.253764,45.871985,49.694669,52.27985,46.00775,54.649263,56.712332,57.658891,24.518727,45.639038,61.101231,74.015717,31.281338,32.982766,32.916481,33.005059,19.100224,41.634224,42.922245,36.281147,7.745728,29.526101,28.87349,20.687828,-3.813366,14.511395,18.348027,12.866112,-7.045355,-20.994232,-26.715556,-25.202606,-60.658401,-91.997891,-112.018435,-128.455756,-60.849907,-70.13974,-48.08609,-32.713828,-58.943587,-63.051964,-41.861172,-29.686517,-54.939499,-61.630164,-46.206682,-35.693835,30.420513,295.362706,-133.844193,-208.684387
47,0.349297,-0.141754,1.005993,-0.797683,-25.424035,-50.551598,-74.529957,-91.98626,-63.396218,-97.403344,-114.1722,-126.377232,-58.273568,-95.239323,-114.590676,-129.297341,-50.61628,-85.122483,-103.433796,-116.709218,-42.140488,-69.620167,-83.990673,-95.381562,-20.762008,-21.990989,-11.396718,-2.350814,5.448955,16.330699,22.085356,26.425385,23.897693,32.526387,36.935292,40.344273,37.417501,46.012912,49.787122,52.290755,46.237325,54.809925,56.848627,57.766485,24.149792,45.402718,60.866307,73.535305,31.02919,32.536652,32.438542,32.548565,19.024784,41.544205,43.029076,36.570168,7.760319,29.707134,29.172249,20.933247,-3.566585,15.101326,18.850937,13.189156,-6.030184,-20.244045,-25.780713,-23.993101,-59.704809,-90.979304,-111.234516,-127.865221,-59.903289,-69.402077,-47.393256,-32.200938,-58.061138,-62.631893,-41.447784,-29.302735,-54.22684,-60.891172,-45.251998,-34.688667,30.43859,295.132504,-133.16942,-209.570518
48,0.215766,-0.100258,0.974854,-0.219272,-25.455551,-50.658439,-74.743206,-92.179218,-63.491867,-97.520519,-114.321258,-126.567626,-58.326049,-95.436882,-114.845088,-129.67377,-50.608268,-85.331073,-103.731662,-117.147113,-42.101165,-69.817737,-84.333251,-95.940788,-20.786103,-22.104338,-11.553861,-2.272909,5.418635,16.428104,22.209301,26.489247,23.925036,32.677552,37.158458,40.556485,37.495653,46.134424,49.887132,52.352345,46.395949,54.924348,56.964705,57.910154,23.803859,45.114818,60.710907,73.481186,30.741165,32.188728,32.05077,32.188499,18.891952,41.258342,43.023433,36.900409,7.697983,29.658703,29.287937,21.204757,-3.493389,15.225094,18.936378,13.310989,-5.514343,-19.787102,-25.211196,-23.372806,-58.968723,-90.367024,-110.82342,-127.541109,-59.175798,-69.235274,-47.445145,-32.222671,-57.398308,-62.497676,-41.457875,-29.262866,-53.684947,-60.2499,-44.566196,-33.89729,30.394489,294.934665,-132.454433,-209.887371
49,0.178208,0.006027,0.828495,0.217299,-25.378853,-50.683937,-74.886681,-92.432682,-63.728897,-97.758385,-114.554478,-126.776688,-58.567612,-95.716129,-115.064701,-129.855686,-50.833054,-85.615196,-104.018211,-117.440861,-42.302307,-70.092556,-84.66338,-96.320755,-20.88126,-22.239547,-11.649611,-2.270403,5.480447,16.534438,22.282265,26.510896,24.048216,32.866693,37.288048,40.621335,37.601752,46.251651,49.931234,52.342032,46.452994,54.97465,57.007227,57.959541,23.66304,45.132431,60.953007,74.03524,30.78384,32.105335,31.911003,32.067981,18.977268,41.155151,43.062401,37.159069,7.756553,29.618133,29.328655,21.353473,-3.442806,15.195305,18.886253,13.333488,-4.990013,-19.434234,-24.738366,-22.635132,-58.512151,-89.975461,-110.521125,-127.24233,-58.751296,-69.117348,-47.369423,-32.141216,-57.024529,-62.366057,-41.338165,-29.157179,-53.431004,-59.85977,-44.098396,-33.406988,30.412937,294.857869,-131.785698,-209.752895
50,0.237991,-0.079905,0.984512,0.700673,-25.370407,-50.757499,-75.064293,-92.577644,-64.037773,-98.05291,-114.858181,-127.074119,-58.861725,-96.027065,-115.320225,-130.087601,-51.088829,-85.90591,-104.319122,-117.762955,-42.531051,-70.335285,-84.949745,-96.660908,-20.895117,-22.323874,-11.718969,-2.180902,5.544791,16.716281,22.454882,26.650773,24.103878,33.05791,37.507101,40.84292,37.617733,46.330259,50.031764,52.464162,46.421477,54.994003,57.087947,58.087266,23.439823,45.074753,61.04084,74.268711,30.830738,32.150162,32.058231,32.391518,18.961315,40.713375,42.684849,36.988953,7.656006,29.221504,29.002121,21.181,-3.606983,14.842209,18.472424,13.023171,-4.578623,-19.233407,-24.482979,-22.24428,-58.163204,-89.754296,-110.348585,-127.056987,-58.387523,-68.849502,-47.103532,-31.788127,-56.668075,-62.137048,-41.201869,-28.955735,-53.123118,-59.266475,-43.462447,-32.748612,30.521782,294.734387,-130.930332,-209.095799
51,0.300636,0.040113,0.528008,1.085205,-25.384185,-50.905014,-75.287178,-92.949119,-64.511901,-98.436275,-115.181259,-127.321712,-59.280143,-96.433628,-115.627819,-130.299533,-51.458129,-86.319179,-104.697601,-118.098209,-42.834709,-70.656772,-85.306125,-97.015823,-20.888559,-22.372298,-11.698826,-2.219804,5.728252,16.937755,22.599749,26.685144,24.243397,33.292216,37.692204,40.968125,37.670715,46.489452,50.111731,52.488406,46.374769,55.040896,57.137532,58.106841,23.32014,44.955425,61.069496,74.563877,31.241695,33.700721,34.68568,36.037674,19.326347,40.90353,42.128093,36.209232,7.935367,29.311157,28.723423,20.967739,-3.476338,14.92892,18.369964,13.019966,-4.218986,-18.969285,-24.205776,-22.086495,-57.802904,-88.998843,-109.413757,-125.903537,-58.158858,-67.830589,-46.089405,-30.784479,-56.488528,-61.394375,-40.564062,-28.266242,-53.061129,-58.668146,-42.967916,-32.317121,30.719718,294.718535,-130.505024,-208.066559
52,0.499009,0.025922,-0.636853,2.213968,-25.532639,-51.163514,-75.669274,-93.434235,-65.054581,-98.843697,-115.525029,-127.635727,-59.852669,-96.852002,-115.929016,-130.531884,-52.064301,-86.814057,-105.164646,-118.538727,-43.445206,-71.121884,-85.720585,-97.353356,-20.835885,-22.368592,-11.712892,-2.254865,5.740912,16.996122,22.650755,26.671745,24.245954,33.412444,37.845235,41.102878,37.652586,46.554982,50.16212,52.505894,46.333088,55.130175,57.258675,58.200851,23.653508,45.413281,61.925148,75.679528,32.569474,38.257862,41.922764,45.501892,20.811127,42.32404,42.210457,35.677643,9.3013,30.637081,29.430062,21.540825,-2.398739,16.024945,19.133492,13.907833,-4.561002,-19.193513,-24.478107,-22.751735,-57.185261,-86.267056,-104.372039,-118.668094,-58.117155,-67.073444,-45.225517,-30.478777,-56.867351,-61.28113,-40.264825,-28.255055,-53.825895,-59.26043,-43.403768,-33.009028,31.081753,294.567885,-131.278851,-206.029163
53,0.666092,0.046251,-0.990394,3.003908,-25.709198,-51.510155,-76.073868,-93.906659,-65.677323,-99.283974,-115.923478,-128.037793,-60.46772,-97.324185,-116.355721,-130.961266,-52.680794,-87.279568,-105.607819,-118.976441,-44.038582,-71.535416,-86.129826,-97.73592,-20.776803,-22.351179,-11.690921,-2.321692,5.895584,17.257388,22.855409,26.770101,24.390635,33.62163,37.977097,41.202889,37.729737,46.70632,50.210421,52.468597,46.304226,55.185788,57.336752,58.245583,24.182213,46.07753,62.826141,76.946937,34.235046,43.202076,49.865135,56.108917,22.615185,43.751152,41.990043,34.789501,10.890735,31.865398,29.738765,21.663585,-1.303849,17.008827,19.773903,14.683227,-5.311598,-19.794993,-24.969872,-23.116091,-56.270776,-81.931935,-96.323654,-107.078041,-58.021549,-65.997524,-44.101826,-29.963051,-57.437314,-61.03762,-39.872386,-28.198894,-55.090085,-60.445909,-44.542845,-34.316591,31.619929,294.269775,-132.397161,-203.369616
54,0.772087,0.009164,-0.945179,2.615296,-26.006768,-51.951416,-76.56712,-94.410199,-66.172875,-99.641659,-116.259659,-128.432007,-60.972039,-97.711121,-116.763039,-131.490235,-53.193283,-87.738922,-106.09322,-119.563809,-44.517472,-71.932583,-86.574601,-98.296051,-20.649819,-22.369087,-11.824771,-2.543178,5.963694,17.437588,23.036819,26.906668,24.431044,33.695076,38.070364,41.33496,37.758537,46.740122,50.237801,52.511118,46.340189,55.171165,57.355265,58.298935,24.550552,46.500984,63.359905,77.454048,35.672401,47.716827,57.332989,66.311302,24.208729,45.092216,41.731098,33.986263,12.383262,32.975189,29.798252,21.737343,-0.158638,18.170139,20.384422,15.417217,-5.861874,-19.872375,-25.121182,-23.977725,-54.79179,-76.799777,-87.289249,-94.221853,-57.380556,-64.182546,-42.798809,-29.482956,-57.486837,-60.292277,-39.407952,-28.123061,-55.662824,-60.566215,-44.903488,-34.885447,32.249972,293.851222,-133.484384,-201.182037
55,0.567787,-0.002544,-0.977429,2.162824,-26.203446,-52.23159,-76.897499,-94.899067,-66.446457,-99.902367,-116.492729,-128.70884,-61.247223,-98.025421,-117.121182,-131.916664,-53.473755,-88.07452,-106.455757,-119.994438,-44.756813,-72.213787,-86.923565,-98.743229,-20.579745,-22.335791,-11.901033,-2.791341,6.111438,17.699471,23.293503,27.105776,24.557336,33.861493,38.178946,41.407739,37.847124,46.882802,50.322584,52.559827,46.383081,55.221158,57.397453,58.330946,24.97062,46.854527,63.746292,78.056797,36.881882,51.920037,64.420739,76.01944,25.650696,46.574982,41.954842,33.730145,13.773686,34.260613,30.240704,22.160374,0.912083,19.380181,21.251816,16.389141,-6.167375,-19.7988,-25.184291,-24.447084,-53.152013,-71.242988,-77.918907,-81.31655,-56.580887,-62.419769,-41.429071,-28.973287,-57.343157,-59.449851,-38.70317,-27.875352,-55.974738,-60.774516,-45.348703,-35.519473,32.69367,293.332886,-134.585902,-199.535005
56,0.467079,-0.05539,-0.59745,1.632412,-26.38916,-52.453217,-77.163322,-95.242893,-66.503609,-100.031982,-116.657192,-128.925224,-61.390823,-98.203091,-117.341755,-132.228813,-53.706482,-88.289188,-106.69099,-120.292786,-45.080589,-72.506699,-87.220551,-99.092342,-20.562159,-22.347968,-11.910666,-2.822142,6.187428,17.862566,23.509592,27.34701,24.670636,33.966246,38.240079,41.477851,37.970353,46.97838,50.40948,52.650797,46.493207,55.276956,57.435244,58.384039,25.260429,47.132629,64.059872,78.537392,37.653248,54.406174,68.770512,82.127186,26.761459,47.438908,42.080956,33.625649,14.871769,35.249485,30.653561,22.489586,1.720276,20.334377,22.044273,17.2187,-6.456746,-19.789201,-25.324412,-24.826478,-51.31948,-65.902704,-69.120907,-69.282909,-55.432798,-61.320572,-40.733705,-28.88399,-56.839911,-59.252323,-38.620424,-28.05788,-55.886904,-61.037965,-45.762677,-35.954887,33.035351,292.723543,-135.30875,-198.456546
57,0.129272,-0.039878,0.350533,0.192381,-26.43045,-52.550056,-77.221984,-95.308834,-66.499397,-100.095233,-116.728614,-129.013927,-61.408699,-98.308399,-117.527366,-132.484268,-53.739967,-88.37836,-106.794696,-120.425342,-45.09851,-72.527732,-87.260742,-99.196243,-20.555626,-22.324318,-11.908617,-2.946113,6.283376,18.101861,23.805636,27.660578,24.723938,34.097206,38.352514,41.60697,37.990878,47.029126,50.481282,52.771667,46.461664,55.24487,57.450409,58.477924,25.097408,46.680587,63.33554,77.907394,37.273716,53.732311,68.448177,82.374675,26.593174,46.882747,41.338508,32.899658,14.750702,34.825492,29.924572,21.799976,1.460003,20.103916,21.738338,16.782451,-5.950619,-19.025972,-24.649928,-24.326723,-49.444071,-62.259129,-64.184203,-63.173491,-53.849793,-59.858111,-39.849449,-28.226558,-55.591377,-58.452672,-38.204823,-27.688283,-54.844487,-60.247055,-45.312771,-35.382746,33.098997,292.251887,-135.023843,-198.695943
58,-0.121513,-0.008954,0.491821,-1.092726,-26.45755,-52.597114,-77.271389,-95.396335,-66.419472,-100.138492,-116.767158,-129.018036,-61.314857,-98.344368,-117.540619,-132.446537,-53.655968,-88.427147,-106.818386,-120.410019,-45.04026,-72.593857,-87.318752,-99.243439,-20.598295,-22.326776,-11.88814,-2.968034,6.308891,18.107851,23.859186,27.766159,24.766596,34.127192,38.392355,41.684158,38.050727,47.031658,50.496782,52.836135,46.519611,55.248612,57.421881,58.438651,24.707817,45.840076,62.271835,76.854904,36.623829,52.695339,67.441898,81.516449,26.124252,46.24165,40.797489,32.465492,14.3619,34.416515,29.444126,21.438537,1.034992,19.861587,21.412388,16.363151,-5.066853,-17.805383,-23.59784,-23.827931,-47.707838,-59.909725,-61.959042,-61.191852,-52.149863,-58.53094,-38.940706,-27.456083,-53.957483,-57.608889,-37.598678,-27.0513,-53.089794,-58.734161,-43.956466,-33.98433,32.935255,291.945549,-134.574251,-200.086053
59,-0.275001,0.022502,0.519424,-1.340796,-26.44455,-52.556786,-77.253937,-95.356293,-66.198944,-100.112641,-116.768795,-128.957428,-61.092156,-98.331894,-117.528363,-132.346848,-53.474511,-88.429367,-106.793484,-120.287693,-44.93763,-72.60109,-87.310719,-99.158169,-20.635506,-22.35055,-11.880965,-2.897713,6.377088,18.095612,23.898298,27.902244,24.855528,34.114546,38.379042,41.74497,38.17156,47.05863,50.499709,52.884411,46.660352,55.354143,57.474023,58.47848,24.34068,45.156887,61.441578,76.378807,35.94674,51.786896,66.680546,80.927536,25.612198,45.629071,40.386074,32.040367,13.835289,34.127873,29.17741,21.052826,0.396653,19.566479,21.143795,15.897251,-4.239419,-16.890415,-22.755256,-22.922781,-46.285343,-58.077896,-60.687817,-60.648813,-50.811074,-57.648123,-38.17183,-26.607453,-52.697916,-56.918946,-36.90196,-26.309819,-51.863026,-57.822043,-43.000317,-32.997778,32.66902,291.73646,-134.046061,-201.65844
60,-0.317254,0.112632,0.553688,-1.528851,-26.443977,-52.515335,-77.195755,-95.232158,-66.112449,-100.161918,-116.82978,-128.977191,-60.980323,-98.301853,-117.501811,-132.30257,-53.359657,-88.363952,-106.70787,-120.150741,-44.831588,-72.491695,-87.152275,-98.951705,-20.660168,-22.434147,-11.97459,-2.929476,6.259405,17.931789,23.756569,27.838111,24.75353,33.964468,38.262458,41.72915,38.132498,46.987741,50.466179,52.941704,46.678619,55.385587,57.511778,58.58295,24.065564,44.626969,60.863903,76.077702,35.199028,50.71637,65.686375,80.007088,25.012906,44.945137,39.615097,31.071408,13.251412,33.756787,28.693211,20.414143,-0.25225,19.280789,20.822182,15.366543,-3.707671,-16.232921,-21.9453,-21.976487,-45.177454,-56.647034,-59.716445,-60.138621,-49.805962,-56.483114,-37.175956,-25.578212,-51.766256,-56.124134,-36.154378,-25.567579,-50.999072,-56.880435,-41.963162,-32.0076,32.365488,291.671043,-133.478651,-203.36534
61,-0.567214,0.079868,0.589085,-1.524087,-26.408913,-52.369515,-77.026131,-95.123406,-65.743584,-100.001965,-116.685288,-128.801938,-60.568612,-98.183304,-117.43752,-132.235417,-52.974885,-88.236077,-106.601784,-120.028576,-44.52562,-72.318982,-86.956067,-98.733582,-20.67174,-22.326639,-11.87963,-2.924931,6.217341,17.879289,23.702563,27.772433,24.694768,33.910017,38.27151,41.752072,38.084172,46.944887,50.449716,52.978075,46.652301,55.385439,57.500897,58.60224,23.938705,44.407356,60.587929,75.997696,34.654724,49.9296,64.968636,79.362774,24.544464,44.313103,38.977089,30.315479,12.768494,33.288483,28.203976,19.861221,-0.822842,18.84066,20.386734,14.826748,-3.283948,-15.713747,-21.267345,-21.249277,-44.231625,-55.378893,-58.699314,-59.364559,-48.99013,-55.502594,-36.295808,-24.616854,-51.022982,-55.443246,-35.477745,-24.830992,-50.319561,-56.064962,-41.094321,-31.173686,31.872992,291.642123,-132.814848,-204.998215
62,-0.353051,0.25235,0.56852,-1.475606,-26.450134,-52.309204,-77.035789,-95.279686,-65.496803,-99.949367,-116.72026,-128.873119,-60.288093,-98.112007,-117.39664,-132.209289,-52.703865,-88.162834,-106.561374,-119.985923,-44.336151,-72.260044,-86.897644,-98.644455,-20.790487,-22.44898,-12.003984,-3.134797,6.137336,17.581108,23.365046,27.485701,24.634017,33.636449,37.998992,41.537439,38.039785,46.781667,50.276975,52.852251,46.642086,55.352995,57.407258,58.506527,23.7667,44.155483,60.284774,75.859954,34.308574,49.199661,64.298938,78.721366,24.281513,43.819313,38.53799,29.840572,12.495277,33.033794,27.938381,19.571571,-1.178822,18.639656,20.162429,14.467483,-3.026462,-15.421866,-20.820068,-20.638775,-43.446744,-54.304513,-57.903587,-58.795573,-48.288143,-54.828141,-35.731928,-23.992255,-50.387737,-54.968015,-34.989611,-24.351519,-49.735539,-55.279139,-40.221427,-30.417395,31.657625,291.819792,-132.108644,-206.548502
63,-0.393036,0.179446,0.58826,-1.30889,-26.400215,-52.153518,-76.874324,-95.228496,-65.113105,-99.788726,-116.69783,-128.94992,-59.905311,-97.977047,-117.369506,-132.288322,-52.350425,-88.020629,-106.505516,-120.020404,-44.053482,-72.088909,-86.749775,-98.582954,-20.889337,-22.518313,-12.050852,-3.391555,6.00009,17.400686,23.195184,27.359718,24.506059,33.396821,37.787461,41.369862,37.941355,46.627601,50.174618,52.826947,46.573544,55.255319,57.29922,58.467847,23.597271,44.026142,60.118355,75.846371,34.014382,48.507523,63.682228,78.127236,24.028931,43.32819,38.102795,29.368321,12.212609,32.710316,27.654751,19.288971,-1.49311,18.408806,19.850418,13.967892,-2.769083,-15.29771,-20.539104,-20.098953,-42.814799,-53.442224,-57.233829,-58.274096,-47.770152,-54.209646,-35.193369,-23.466036,-49.955336,-54.613212,-34.621572,-24.0987,-49.368515,-54.632157,-39.51917,-29.988269,31.472477,291.957945,-131.312496,-207.898685
64,-0.63533,0.181114,0.517433,-1.10913,-26.274948,-51.880783,-76.570919,-95.028728,-64.734443,-99.517399,-116.492592,-128.809124,-59.494949,-97.762916,-117.230953,-132.219738,-51.924682,-87.738018,-106.28128,-119.898102,-43.663582,-71.779003,-86.43203,-98.346062,-20.93996,-22.530119,-12.09924,-3.625416,5.756645,17.194785,22.993359,27.127796,24.238297,33.209298,37.652993,41.201863,37.692217,46.441621,50.054464,52.731604,46.376005,55.121234,57.17588,58.367885,23.17733,43.609028,59.764286,75.595288,33.578968,47.917511,63.196072,77.695015,23.684178,42.852002,37.657368,28.955532,11.905701,32.386128,27.378926,19.113408,-1.764038,18.236538,19.553605,13.531781,-2.46365,-14.952602,-20.045727,-19.624243,-42.391932,-52.833164,-56.705931,-57.817347,-47.471024,-53.783309,-34.80435,-23.12329,-49.737601,-54.402029,-34.369504,-23.932931,-49.186796,-54.155219,-38.941937,-29.621851,31.158325,292.109873,-130.473885,-209.037001
65,-0.616997,0.08119,0.237271,-0.87718,-26.205986,-51.693283,-76.36631,-94.893676,-64.25901,-99.116695,-116.171688,-128.543403,-59.035331,-97.431404,-116.94437,-131.96347,-51.492599,-87.428764,-106.026832,-119.712192,-43.319641,-71.494812,-86.187835,-98.149566,-20.945011,-22.494564,-12.095733,-3.743508,5.642814,17.078595,22.872859,26.927835,24.160812,33.162219,37.655339,41.15539,37.656735,46.424713,50.032234,52.654477,46.40925,55.169362,57.160849,58.234553,22.931442,43.425854,59.538345,75.442955,33.528259,47.721519,63.031311,77.57959,23.719803,42.719032,37.547584,28.928787,11.986748,32.305229,27.337188,19.154697,-1.664932,18.280678,19.556202,13.478348,-2.189774,-14.677199,-19.684231,-19.291094,-41.975969,-52.34508,-56.322854,-57.47961,-47.117361,-53.54096,-34.715102,-23.087781,-49.468316,-54.304649,-34.310449,-23.881626,-48.999797,-54.024401,-38.822564,-29.552777,30.98604,292.168703,-129.791902,-209.936541
66,-0.541351,0.126872,0.196277,-0.765096,-26.103424,-51.528877,-76.225902,-94.75502,-64.006279,-98.92115,-116.04293,-128.504185,-58.740761,-97.167229,-116.686661,-131.70607,-51.108673,-87.069363,-105.719112,-119.497776,-42.870849,-71.122833,-85.902717,-97.968807,-20.961177,-22.611309,-12.313094,-3.987002,5.588536,16.967618,22.70864,26.756305,24.12575,33.074422,37.532049,41.043301,37.64709,46.410881,49.989564,52.582687,46.433692,55.174351,57.076869,58.05381,22.609749,43.120079,59.240879,75.204644,33.33434,47.444046,62.811551,77.38575,23.631375,42.552143,37.383706,28.769669,11.961525,32.282296,27.321087,19.155327,-1.621204,18.353886,19.480969,13.258919,-1.960604,-14.43344,-19.315045,-18.794708,-41.623588,-51.950526,-56.187556,-57.631993,-46.858553,-53.321463,-34.564979,-23.067552,-49.296185,-54.263743,-34.268388,-24.009089,-48.877718,-53.84996,-38.554278,-29.447284,30.917478,292.258883,-129.122836,-210.738329
67,-0.707771,0.084895,0.024537,-0.501988,-25.902466,-51.20842,-75.903706,-94.406834,-63.55259,-98.609253,-115.802605,-128.336392,-58.321083,-96.902424,-116.518147,-131.579659,-50.683708,-86.732826,-105.488491,-119.386906,-42.441559,-70.812985,-85.689915,-97.877484,-20.931439,-22.668675,-12.513931,-4.198596,5.429565,16.882081,22.641986,26.714734,23.934373,32.991219,37.485377,41.020823,37.501296,46.350662,49.981005,52.618662,46.395752,55.143723,57.00777,57.954416,22.408275,42.997615,59.090068,75.205822,33.294868,47.407253,62.794658,77.405376,23.653633,42.669548,37.520347,28.929473,12.014408,32.439697,27.484771,19.323062,-1.526265,18.544887,19.644939,13.382881,-1.648801,-14.229997,-19.098804,-18.488379,-41.489225,-51.691032,-56.024678,-57.580648,-46.822482,-53.246993,-34.476941,-23.014471,-49.324821,-54.253637,-34.212183,-24.031399,-48.941922,-53.852253,-38.53055,-29.530242,30.753851,292.291658,-128.554155,-211.292437
68,-0.468773,0.01661,-0.015931,-0.387197,-25.86097,-51.058594,-75.761295,-94.190769,-63.281777,-98.277397,-115.490284,-128.063152,-58.083595,-96.536911,-116.165188,-131.235832,-50.447342,-86.39003,-105.156796,-119.076359,-42.224556,-70.570931,-85.459339,-97.614967,-20.797217,-22.655793,-12.707555,-4.299347,5.328295,16.828161,22.580755,26.604202,23.794027,32.974548,37.530987,41.056985,37.392802,46.356171,50.000346,52.608499,46.383205,55.186875,57.005918,57.861483,22.286236,43.004792,59.090161,75.232636,33.223286,47.438885,62.821724,77.450158,23.642807,42.824124,37.633839,29.015602,12.071915,32.643677,27.66829,19.482663,-1.405655,18.736714,19.905774,13.694561,-1.437867,-14.066364,-18.830319,-18.090527,-41.468532,-51.479571,-55.903023,-57.598252,-46.856892,-52.97394,-34.192478,-22.746838,-49.377772,-54.004857,-33.989066,-23.823837,-48.994583,-53.761372,-38.464301,-29.432908,30.832609,292.258592,-128.022555,-211.72931
69,-0.382645,0.071483,-0.195831,-0.239888,-25.831146,-50.963402,-75.640011,-94.016281,-63.1138,-98.035366,-115.240665,-127.852123,-57.897445,-96.237476,-115.862526,-130.923122,-50.246795,-86.090114,-104.848617,-118.769577,-42.012634,-70.374641,-85.281143,-97.416595,-20.796847,-22.710814,-12.85877,-4.438719,5.284896,16.781465,22.545384,26.570869,23.744873,32.960443,37.553723,41.103779,37.352268,46.379808,50.023638,52.632778,46.372077,55.135288,56.873784,57.672624,22.406422,43.347244,59.418251,75.541145,33.451927,47.742073,63.063492,77.639809,23.891132,43.160214,37.87888,29.191452,12.336227,32.955231,27.965481,19.737408,-1.1586,18.928162,20.24469,14.125603,-1.357922,-14.127305,-18.822887,-17.918095,-41.353537,-51.303011,-55.821404,-57.601457,-46.750233,-52.745825,-34.002376,-22.550253,-49.271845,-53.85319,-33.914302,-23.729167,-48.900747,-53.727693,-38.531862,-29.434748,30.997364,292.279604,-127.670986,-212.019669
70,-0.312767,0.02507,0.024639,-0.170249,-25.760147,-50.823326,-75.456848,-93.793213,-62.975715,-97.824039,-115.022495,-127.65826,-57.765106,-95.987056,-115.606109,-130.675907,-50.11084,-85.844124,-104.57896,-118.483452,-41.856834,-70.150406,-85.0303,-97.128032,-20.767503,-22.733414,-12.898376,-4.478312,5.247834,16.779724,22.581126,26.666039,23.642924,32.915403,37.537619,41.131616,37.242674,46.306326,50.000569,52.685094,46.290888,55.03261,56.75,57.581136,22.354294,43.406285,59.511143,75.601353,33.432392,47.806469,63.113102,77.659355,23.86528,43.162216,37.878788,29.150688,12.277771,32.959763,27.99218,19.783631,-1.262672,18.817749,20.195172,14.153767,-1.333938,-14.168178,-18.782641,-17.710469,-41.403318,-51.232646,-55.812188,-57.718704,-46.851979,-52.627235,-33.793002,-22.264926,-49.342448,-53.765511,-33.819975,-23.619705,-48.873836,-53.520057,-38.354644,-29.272335,31.231086,292.239965,-127.099858,-212.254627
71,-0.207069,0.135456,-0.004051,0.012468,-25.667587,-50.655441,-75.224671,-93.5476,-62.917191,-97.674534,-114.851109,-127.470955,-57.738785,-95.851422,-115.479504,-130.573071,-50.092987,-85.744686,-104.469486,-118.360428,-41.796982,-70.073799,-84.935841,-96.97514,-20.801738,-22.809491,-12.941972,-4.529751,5.065646,16.602166,22.492798,26.661333,23.432836,32.729028,37.411475,41.058948,37.054397,46.130979,49.872362,52.625937,46.147577,54.887904,56.626573,57.497377,22.355793,43.433384,59.497112,75.544773,33.273193,47.769859,63.078449,77.656357,23.657227,43.211288,37.962044,29.224308,12.053947,32.972465,28.009506,19.778412,-1.451077,18.801292,20.193489,14.138535,-1.355644,-14.319646,-18.997527,-17.906048,-41.786013,-51.458842,-55.883205,-57.690764,-47.25714,-52.732237,-33.773051,-22.209416,-49.688609,-53.69305,-33.657004,-23.493889,-49.087857,-53.313068,-38.061259,-29.033232,31.579222,292.315755,-126.548704,-212.301825
72,-0.005974,-0.038582,0.025875,0.158318,-25.748863,-50.724701,-75.180519,-93.506332,-63.029366,-97.505779,-114.612774,-127.240505,-57.847824,-95.646618,-115.214699,-130.329975,-50.20887,-85.652859,-104.305344,-118.156963,-41.881142,-70.001141,-84.801212,-96.782066,-20.739962,-22.771884,-12.901933,-4.580287,5.128409,16.638167,22.485277,26.568177,23.482077,32.721988,37.360593,40.928532,37.091806,46.112454,49.80256,52.516626,46.196607,54.884965,56.582496,57.41357,22.328957,43.408802,59.453854,75.37999,33.05674,47.722275,62.9729,77.528011,23.341713,43.235676,38.005783,29.264214,11.732517,32.90839,27.944653,19.680325,-1.693691,18.725716,20.06028,13.974381,-1.491436,-14.531245,-19.209077,-18.085371,-42.210639,-51.823749,-56.006473,-57.587092,-47.650634,-52.778739,-33.687196,-22.040679,-50.020665,-53.552411,-33.465629,-23.262936,-49.30812,-53.093143,-37.757524,-28.726041,32.036247,292.192239,-126.05983,-212.228441
73,-0.23822,0.1689,-0.073997,0.365069,-25.647125,-50.545006,-74.949921,-93.328388,-63.011788,-97.384094,-114.376316,-126.931721,-57.859039,-95.628914,-115.122471,-130.147133,-50.239014,-85.638565,-104.200367,-117.964222,-41.864456,-69.942398,-84.678784,-96.591374,-20.873689,-22.878145,-12.878258,-4.60148,5.121308,16.58269,22.415511,26.514997,23.497687,32.700165,37.247861,40.778046,37.069032,46.026176,49.683616,52.427681,46.077873,54.684164,56.386191,57.282412,22.099811,43.187461,59.310356,75.251506,32.816104,47.556232,62.780845,77.323528,23.035034,43.009494,37.800819,29.112075,11.38108,32.624977,27.658939,19.368496,-1.996525,18.598651,19.840187,13.647182,-1.388159,-14.477758,-19.399732,-18.706861,-42.219624,-52.190578,-56.13526,-57.370506,-47.658848,-53.132846,-34.010855,-22.370235,-50.085321,-53.795996,-33.59136,-23.334931,-49.420142,-53.283957,-37.841854,-28.784038,32.199824,292.260155,-125.73203,-211.964356
74,0.045708,0.003347,-0.102242,0.405682,-25.706933,-50.619851,-75.03027,-93.45599,-63.107209,-97.375065,-114.362927,-126.937008,-57.958443,-95.585942,-115.0005,-129.962929,-50.323403,-85.6619,-104.189255,-117.839962,-41.92241,-69.900879,-84.581074,-96.385884,-20.827377,-22.854865,-12.78541,-4.481907,5.23336,16.712527,22.496737,26.571499,23.59582,32.810402,37.324876,40.872425,37.155013,46.06803,49.720592,52.504943,46.142464,54.765934,56.520733,57.466662,21.950821,43.004894,59.14143,75.114384,32.747612,47.437798,62.614769,77.158402,22.918121,42.848431,37.723091,29.135605,11.205334,32.441483,27.472252,19.194763,-2.167602,18.590538,19.697434,13.431919,-1.224063,-14.35137,-19.509453,-19.122667,-42.268824,-52.459782,-56.292118,-57.380138,-47.687997,-53.45891,-34.325424,-22.687519,-50.147927,-54.009842,-33.697904,-23.422336,-49.494895,-53.312313,-37.726257,-28.686201,32.539782,292.152296,-125.540022,-211.66988
75,0.047492,0.102172,-0.271614,0.454989,-25.680152,-50.637084,-75.060573,-93.511791,-63.19812,-97.409683,-114.37088,-126.932292,-58.039535,-95.628936,-115.009906,-129.90541,-50.388496,-85.709381,-104.226058,-117.806911,-41.958366,-69.899723,-84.543926,-96.304515,-20.865131,-22.87854,-12.758956,-4.504186,5.244636,16.77897,22.5503,26.613946,23.597451,32.824494,37.276414,40.810959,37.134673,45.999129,49.648085,52.461063,46.085988,54.667097,56.487066,57.529117,21.835293,42.750824,58.847523,74.915474,32.816471,47.493359,62.700691,77.296143,23.013142,42.873184,37.834087,29.327831,11.301693,32.42268,27.499569,19.222469,-2.064022,18.712727,19.768467,13.431988,-1.105376,-14.25867,-19.756652,-19.707937,-42.146147,-52.538572,-56.320319,-57.318883,-47.507084,-53.707262,-34.643213,-23.101598,-49.987814,-54.249112,-33.897892,-23.661112,-49.400645,-53.414698,-37.780844,-28.744804,32.772216,292.149841,-125.626694,-211.319518
76,0.086907,-0.064998,-0.323845,0.418164,-25.801575,-50.776726,-75.168068,-93.585033,-63.32016,-97.364719,-114.304058,-126.911522,-58.169838,-95.571236,-114.963581,-129.882225,-50.528137,-85.712711,-104.199921,-117.704304,-42.09034,-69.843247,-84.418808,-96.111477,-20.770715,-22.758843,-12.638,-4.467223,5.392873,17.126415,22.844923,26.774904,23.690397,33.078843,37.480264,40.944129,37.188716,46.090507,49.744674,52.541338,46.107946,54.720177,56.620521,57.722531,21.691704,42.630238,58.767906,75.081974,32.927273,47.502892,62.796341,77.432407,23.197975,42.925507,38.001469,29.544846,11.499252,32.4986,27.647427,19.393536,-1.8899,18.850079,19.893871,13.539757,-0.84737,-14.070211,-19.827118,-19.998994,-41.793253,-52.428674,-56.277457,-57.248113,-47.09183,-53.763808,-34.71446,-23.164864,-49.588689,-54.389443,-33.979068,-23.657252,-49.086501,-53.412749,-37.800418,-28.68314,32.979338,291.982816,-125.830324,-211.003381
77,-0.059967,0.077682,0.039219,0.493467,-25.769051,-50.721336,-75.125313,-93.472962,-63.361702,-97.419811,-114.348084,-126.949551,-58.158005,-95.609505,-114.996105,-129.798466,-50.479385,-85.730461,-104.171242,-117.523899,-42.036141,-69.809143,-84.316887,-95.852303,-20.796736,-22.72372,-12.489342,-4.189099,5.429491,17.350976,23.092777,27.004072,23.700734,33.355115,37.775629,41.233417,37.152296,46.211896,49.880933,52.692688,45.968933,54.699169,56.666117,57.837819,21.465523,42.432449,58.582409,75.011696,32.576466,47.076828,62.465481,77.141979,22.946468,42.47588,37.704803,29.307209,11.277489,32.172764,27.417927,19.222389,-2.093536,18.622559,19.703556,13.389976,-0.625032,-13.982165,-19.897703,-20.187658,-41.648983,-52.28455,-56.299555,-57.409065,-46.949703,-53.750523,-34.7046,-23.154194,-49.398011,-54.482074,-33.977538,-23.617363,-48.837626,-53.196802,-37.544486,-28.390061,33.049347,291.987518,-125.661129,-210.582894
78,0.352524,0.013881,0.138542,0.718713,-25.930779,-50.967133,-75.371556,-93.467812,-63.597451,-97.583462,-114.549683,-127.173661,-58.348778,-95.592156,-114.977394,-129.792641,-50.646675,-85.739685,-104.155426,-117.438927,-42.208351,-69.80373,-84.218182,-95.654892,-20.57935,-22.615495,-12.455292,-3.941541,5.371051,17.397845,23.133199,26.973334,23.583112,33.45809,37.989768,41.465982,37.040367,46.274783,49.987255,52.770186,45.906232,54.842912,56.94649,58.167345,21.527962,42.42469,58.444199,74.655979,32.25388,46.744366,62.134174,76.776764,22.649128,42.377197,37.728218,29.328301,11.045277,32.049465,27.42223,19.255955,-2.281586,18.471337,19.59391,13.327664,-0.780464,-14.151339,-20.115287,-20.375404,-41.911203,-52.527031,-56.535609,-57.572926,-47.005572,-53.514902,-34.467228,-22.921185,-49.242471,-54.13826,-33.739984,-23.42388,-48.516348,-52.773073,-37.203472,-28.03306,33.580439,291.947086,-125.344019,-209.918494
79,0.207893,0.013079,0.051464,1.321585,-26.009697,-50.986885,-75.314129,-93.274452,-63.538101,-97.41822,-114.39386,-127.017769,-58.356491,-95.532726,-115.032371,-129.943153,-50.750038,-85.71381,-104.114342,-117.408497,-42.333137,-69.741898,-84.098785,-95.50605,-20.388331,-22.371619,-12.213206,-3.647572,5.46175,17.530423,23.28671,27.040789,23.681592,33.635659,38.160236,41.516346,37.090558,46.494195,50.204258,52.887314,45.858561,54.992793,57.228429,58.457979,21.346287,42.205914,58.196022,73.838906,31.644711,46.396065,61.774864,76.258713,22.021122,42.195076,37.578541,29.209648,10.492802,31.694699,27.336937,19.262982,-2.668945,18.155354,19.61784,13.595318,-1.133154,-14.362744,-20.282247,-21.010152,-42.386045,-52.970735,-56.636201,-57.164362,-47.238994,-52.906821,-33.87648,-22.503323,-49.147888,-53.544789,-33.34961,-23.08248,-48.131544,-52.427446,-37.056604,-27.707925,33.977978,291.820619,-125.102909,-208.736455
80,0.302216,0.056242,-0.273433,2.43907,-26.169114,-51.093315,-75.419484,-93.383286,-63.540505,-97.287861,-114.305432,-126.961052,-58.4263,-95.38765,-114.836243,-129.706398,-50.939072,-85.627957,-103.935986,-117.188656,-42.645836,-69.8088,-84.051567,-95.407643,-20.250887,-22.297394,-12.227162,-3.593429,5.607271,17.544182,23.203817,26.809374,23.885418,33.832594,38.304435,41.50596,37.253061,46.812494,50.4665,53.008555,45.928117,55.300829,57.605675,58.825345,21.050914,42.187797,58.255691,73.451053,30.92863,45.997341,61.247268,75.606056,21.22697,41.92321,37.215362,28.868019,9.792835,31.280124,26.989482,18.955375,-3.071709,17.81298,19.263908,13.325843,-1.220639,-14.442878,-20.552436,-21.955248,-43.079162,-53.533757,-56.682023,-56.61721,-47.733698,-51.997709,-32.813412,-21.718432,-49.200551,-52.286859,-32.314707,-22.289141,-47.745252,-51.326217,-36.15439,-26.872411,34.529223,291.652404,-125.127313,-206.521842
81,0.11087,0.25603,-2.617962,7.374003,-26.058266,-50.904259,-75.250717,-93.265148,-63.391983,-97.002262,-114.03788,-126.674332,-58.433922,-95.24231,-114.602795,-129.341217,-51.130623,-85.531597,-103.676594,-116.808392,-43.007149,-69.88076,-83.954407,-95.199188,-20.233548,-22.388761,-12.433915,-3.700653,5.536801,17.284879,22.890248,26.385469,23.972535,33.940373,38.282378,41.231454,37.384576,47.155084,50.698187,53.009678,46.00896,55.621671,57.981364,59.160007,22.623779,44.273094,60.324245,74.029277,35.945663,53.438518,68.612651,82.153804,25.416252,47.010051,43.926304,37.287151,12.999,34.401317,29.953514,22.275707,-0.611229,20.146831,21.170643,15.621299,-3.025026,-16.251955,-23.503822,-26.717535,-46.802444,-57.85569,-59.333249,-57.631459,-51.231316,-56.583409,-37.722481,-25.827079,-52.116514,-54.216528,-34.131935,-23.390303,-50.125005,-53.304283,-37.835413,-28.103196,34.886267,291.431326,-127.499101,-199.624947
82,0.304733,0.134072,-2.346978,9.718857,-26.1129,-50.918152,-75.261326,-93.345623,-63.286056,-96.747539,-113.845642,-126.499294,-58.4916,-95.062511,-114.360786,-129.08424,-51.382232,-85.418907,-103.463997,-116.538265,-43.429138,-69.925655,-83.851055,-95.014766,-20.12709,-22.389575,-12.585895,-3.857474,5.649521,17.095738,22.579804,25.918723,24.190551,34.03684,38.308425,41.095554,37.601185,47.458205,50.951574,53.070478,46.17376,56.002659,58.476875,59.611082,23.690678,45.358612,60.63184,73.960431,39.500885,57.932488,72.800297,85.229405,28.051907,49.794022,48.051327,42.726643,14.950276,36.224591,31.955246,24.574803,1.091652,21.648789,22.388775,16.940793,-4.631571,-18.377278,-26.976733,-31.164497,-50.177292,-62.72747,-62.831801,-59.649098,-54.482839,-60.627496,-41.938209,-29.568783,-54.74279,-55.507275,-35.377367,-24.40241,-52.070748,-53.984411,-38.537203,-28.714059,35.389452,290.937918,-129.647627,-190.53357
83,0.119774,0.01729,-1.328292,11.76203,-26.092094,-50.806526,-75.149986,-93.475593,-63.021309,-96.390987,-113.533161,-126.240028,-58.302498,-94.799412,-114.091759,-128.837379,-51.329727,-85.155556,-103.183697,-116.293041,-43.50151,-69.711456,-83.598965,-94.798553,-20.064178,-22.324243,-12.661292,-4.129818,5.889792,17.144965,22.532973,25.746946,24.534007,34.249409,38.374683,41.016155,37.965957,47.903352,51.33355,53.344008,46.48618,56.53769,59.124797,60.289101,24.148899,45.462844,59.738113,71.244793,41.583126,61.090461,75.598285,87.063491,29.220554,50.853893,49.978202,45.27135,15.558403,36.765129,32.995433,25.968475,1.522029,21.945247,22.797351,17.646595,-5.789644,-19.94488,-30.174156,-36.376365,-52.605031,-67.499764,-68.88339,-66.760964,-56.421935,-62.883029,-44.258184,-31.93994,-55.780972,-55.566512,-35.929909,-25.225975,-52.306088,-53.245101,-38.004769,-28.272426,35.679451,290.21952,-130.805694,-179.507228
84,0.260719,0.060874,-0.917622,13.19987,-26.082046,-50.748436,-75.090591,-93.615623,-62.822502,-96.129226,-113.307495,-126.069889,-58.09394,-94.427478,-113.680778,-128.470676,-51.138999,-84.742343,-102.768344,-115.950874,-43.362831,-69.340072,-83.164627,-94.432228,-20.06508,-22.462429,-13.012504,-4.715669,5.758967,16.949018,22.276338,25.447592,24.441727,34.1503,38.206499,40.813725,37.972082,48.039264,51.474328,53.485342,46.607791,56.923012,59.676944,61.004689,25.208427,46.207409,59.541275,69.584793,43.383854,62.563396,75.92791,85.965248,30.117542,51.034126,51.344353,47.246899,16.09552,36.626163,33.250351,26.624233,2.183304,21.648376,22.24181,17.365334,-6.594533,-21.507147,-33.343419,-41.046141,-54.221064,-71.780584,-72.541015,-69.600297,-57.412952,-63.255127,-44.039844,-31.289915,-55.563249,-53.461126,-33.709293,-22.891467,-51.099556,-49.931472,-34.651645,-24.987492,36.317253,289.789367,-131.346233,-166.798385
85,-0.007415,-0.036581,-0.825125,20.190117,-25.965615,-50.485794,-74.730149,-93.352352,-62.358673,-95.620354,-112.843163,-125.697762,-57.579529,-93.926079,-113.30008,-128.228886,-50.616005,-84.185692,-102.30304,-115.619923,-42.743523,-68.614907,-82.499485,-93.893315,-19.944679,-22.434036,-13.200089,-5.01259,5.820372,16.96905,22.281784,25.460942,24.508553,34.197316,38.234287,40.814639,38.101634,48.261516,51.776448,53.84379,46.794882,57.373839,60.41874,61.990461,26.912516,47.555861,59.988064,68.652695,46.274632,65.210186,77.818056,86.633921,32.166544,52.618544,54.826264,52.074812,17.605648,37.595993,34.83704,28.919117,3.565315,22.265557,22.830317,18.528151,-8.513515,-24.451625,-37.77778,-46.91402,-57.23125,-77.775283,-78.044755,-74.311032,-59.976898,-66.877495,-47.755403,-34.072428,-57.270745,-53.796415,-33.733152,-21.914942,-52.000043,-49.283328,-33.838454,-23.697494,36.95525,289.568482,-131.525946,-146.792572
86,0.18853,-0.13653,1.143116,23.354432,-26.033753,-50.48124,-74.650246,-93.210835,-62.042427,-95.249417,-112.503514,-125.442341,-57.066445,-93.321167,-112.721375,-127.720826,-50.002922,-83.452172,-101.670525,-115.122998,-42.054909,-67.870777,-81.83012,-93.383492,-19.800541,-22.410571,-13.422786,-5.236015,5.969153,17.070407,22.335062,25.577243,24.605304,34.217805,38.304398,41.027925,38.197051,48.422499,52.062773,54.30393,46.914344,57.734227,61.02361,62.839529,27.360666,47.435881,59.061539,67.514259,44.678181,61.482308,73.563257,82.115416,30.490557,50.283217,53.27536,50.954344,16.300415,36.123951,34.300072,29.065727,3.020165,21.161442,22.086817,18.226359,-9.722033,-26.978323,-41.065609,-50.68275,-58.766442,-81.707407,-82.648357,-79.20499,-61.320124,-68.007969,-49.155347,-35.341482,-58.116676,-52.842016,-32.736828,-20.289208,-52.157816,-47.610608,-32.459089,-22.084493,38.002797,289.859577,-129.523813,-123.010515
87,0.227668,-0.038594,1.878754,26.865693,-25.929863,-50.326057,-74.428207,-93.043464,-61.650787,-94.69297,-111.962562,-125.027263,-56.555351,-92.676876,-112.15908,-127.323234,-49.417144,-82.72475,-101.067627,-114.742881,-41.372589,-67.139659,-81.221511,-93.016731,-19.76154,-22.499998,-13.687745,-5.601973,5.964904,17.165305,22.44147,25.732644,24.595918,34.204763,38.251638,41.002063,38.236818,48.534428,52.241244,54.59759,46.999165,57.986453,61.503756,63.567652,28.213056,47.792942,59.160776,66.258585,44.250881,60.418081,71.821844,79.719755,30.45021,50.393686,54.379492,52.57937,16.842207,36.522623,35.71348,31.217394,4.298601,21.798557,23.32243,20.225407,-11.227532,-29.396357,-43.818257,-54.375804,-60.072232,-84.005529,-84.970307,-81.637291,-61.815869,-69.175334,-51.342568,-37.602791,-57.858532,-53.03247,-33.68466,-20.54516,-51.328795,-47.186031,-32.663763,-21.962875,39.382124,290.485418,-126.4934,-95.480387
88,0.325127,0.006694,2.068039,30.481948,-25.851173,-50.204132,-74.219158,-92.840492,-61.169151,-94.095497,-111.424175,-124.600388,-56.012649,-92.024094,-111.61615,-126.931652,-48.825645,-82.080872,-100.544529,-114.40773,-40.705353,-66.520454,-80.709789,-92.677196,-19.727738,-22.572036,-13.872601,-5.743517,5.996977,17.267823,22.517028,25.821379,24.574947,34.142198,38.20367,40.988441,38.192926,48.482459,52.28274,54.748681,46.945133,58.034704,61.751881,64.040265,29.400083,48.471188,59.63106,66.888742,44.716324,60.189234,70.660337,77.161669,31.718731,51.986967,57.45825,56.640238,19.098284,38.506857,38.837179,35.103247,7.732321,24.280632,26.469612,24.110618,-13.27006,-32.676591,-46.746378,-56.522946,-61.999823,-85.075456,-83.150302,-77.561417,-62.960341,-71.638539,-55.431334,-41.61315,-58.207999,-55.12487,-36.701222,-22.652065,-51.063641,-48.022646,-34.486786,-23.498456,41.332838,291.163545,-122.799774,-64.327006
89,0.428467,0.170949,0.855966,36.128685,-25.696106,-50.100655,-74.140309,-92.721222,-60.905571,-93.696293,-111.049771,-124.280869,-55.685463,-91.618435,-111.20771,-126.524414,-48.449295,-81.625431,-100.15543,-114.121823,-40.228157,-66.14772,-80.479832,-92.570629,-19.777039,-22.789347,-14.193344,-5.792015,6.266865,17.406441,22.605073,25.940323,24.825148,34.195378,38.300212,41.171668,38.367236,48.510766,52.396633,54.96508,47.008255,58.035199,61.894723,64.378238,29.582692,48.864951,60.982436,69.002289,44.888718,62.423682,72.981308,78.567679,33.001854,55.816487,61.34051,60.510567,21.682354,43.237341,43.533028,39.686898,11.813416,29.854386,31.837601,29.289465,-16.294376,-36.305942,-49.702689,-58.530885,-63.957077,-84.225876,-80.9171,-74.952476,-63.165156,-71.900627,-57.961623,-45.503995,-57.071505,-54.704042,-38.266961,-25.149938,-48.649568,-46.282335,-34.341454,-24.308496,44.239798,291.542056,-119.465315,-27.990759
90,0.572914,0.102111,0.222342,35.774735,-25.679375,-50.176209,-74.256626,-92.851982,-60.709969,-93.446205,-110.763519,-123.973137,-55.417007,-91.313141,-110.844875,-126.145729,-48.11499,-81.262974,-99.823402,-113.860474,-39.864281,-65.891624,-80.302013,-92.464256,-19.758255,-22.769501,-14.060791,-5.482263,6.527858,17.72779,22.896509,26.217187,25.02922,34.371687,38.516844,41.514123,38.508372,48.633883,52.561691,55.204881,47.107339,58.065777,61.957461,64.532811,28.616941,48.776024,63.055407,72.25177,43.327229,64.288393,74.803305,79.12389,32.800432,59.666765,63.472887,60.998526,23.425403,48.838823,47.886658,42.947857,15.868412,36.996391,37.839071,34.203323,-19.152292,-38.986916,-51.132991,-58.655991,-63.853718,-79.427508,-74.136642,-67.538644,-59.945426,-64.832614,-52.66378,-43.042689,-51.321836,-47.61866,-33.89226,-23.84687,-40.60733,-37.435369,-27.596543,-19.913051,47.873285,291.734597,-116.1824,7.874406
91,0.558586,0.204987,1.363472,34.362332,-25.515701,-50.138786,-74.285751,-92.826565,-60.526474,-93.292065,-110.606575,-123.801945,-55.245415,-91.205921,-110.764446,-126.052048,-47.907944,-81.1306,-99.789768,-113.916881,-39.621437,-65.805267,-80.361694,-92.646995,-19.807742,-22.781703,-14.036314,-5.333223,6.644369,18.033676,23.220427,26.533744,25.134344,34.574265,38.726561,41.754319,38.600207,48.749677,52.714387,55.375682,47.189306,58.094911,61.935119,64.487091,26.366449,47.540079,64.104206,74.130855,43.294784,67.01968,76.719394,79.255205,34.827341,64.103794,65.551603,60.861837,27.373152,54.602863,52.285732,46.122013,21.410345,43.739176,43.206625,38.424906,-21.121861,-40.130083,-50.872852,-57.862964,-59.567986,-69.507989,-62.573997,-55.764693,-51.871214,-52.250798,-41.88683,-35.360317,-40.415009,-36.296417,-26.033841,-19.604922,-27.471792,-24.213158,-17.288942,-12.537313,51.439487,291.619019,-111.811312,41.916173
92,0.670326,0.078855,0.848842,35.031518,-25.469375,-50.198524,-74.393818,-92.910106,-60.429725,-93.216888,-110.469841,-123.626827,-55.179794,-91.115043,-110.643528,-125.937183,-47.835479,-81.052803,-99.735134,-113.918804,-39.517364,-65.682403,-80.254543,-92.579029,-19.65302,-22.55435,-13.775134,-5.017135,6.916935,18.427237,23.59524,26.873495,25.319237,34.74072,38.904217,42.006286,38.750705,48.904548,52.953152,55.699131,47.328122,58.24305,62.190038,64.89394,23.613425,46.540547,65.824271,76.734301,46.584,72.533987,81.357411,82.556941,40.550629,70.743496,69.830006,63.344084,34.323086,61.390074,57.225306,49.949805,28.567406,50.373328,47.794579,41.91203,-22.91437,-40.698356,-50.39491,-58.19474,-52.920952,-57.087731,-49.265488,-42.776585,-41.480021,-37.546257,-29.02654,-24.992522,-27.472931,-22.050032,-15.05345,-11.707674,-12.544139,-8.689064,-4.864892,-3.066541,54.837541,291.203677,-108.234742,76.453494
93,0.451195,0.107248,0.011651,32.971688,-25.349991,-50.117752,-74.37458,-92.976574,-60.399788,-93.262001,-110.461578,-123.574081,-55.101402,-91.196159,-110.639866,-125.84095,-47.730377,-81.059658,-99.77853,-114.016296,-39.412514,-65.756126,-80.487408,-92.933075,-19.585662,-22.437877,-13.666292,-4.864327,7.287438,18.802469,24.024368,27.394434,25.703436,35.087226,39.220058,42.364167,39.123851,49.241446,53.268351,56.04003,47.688349,58.537143,62.377586,65.045686,23.969747,48.769409,69.753771,81.26893,49.261722,76.809762,86.13002,88.419267,43.198002,74.071106,73.795646,68.504488,36.569103,64.630182,61.617262,55.326147,30.27856,52.208982,50.133682,44.736911,-23.590902,-39.098669,-48.254887,-56.832353,-44.026336,-43.457599,-35.022675,-28.664677,-30.545474,-22.881337,-15.292606,-13.197798,-15.608207,-7.749568,-2.750181,-2.225108,-0.184856,5.152235,7.013202,5.971886,57.682434,290.917232,-105.829393,109.031489
94,0.370239,-0.002458,1.326479,31.625298,-25.294647,-50.026382,-74.24707,-92.70877,-60.377288,-93.247913,-110.376663,-123.514972,-55.083961,-91.169048,-110.551712,-125.768772,-47.729393,-81.077179,-99.795341,-114.075096,-39.46463,-65.857841,-80.674163,-93.227314,-19.386146,-22.141771,-13.391836,-4.458305,7.68805,19.285827,24.441122,27.758033,26.044188,35.477712,39.499306,42.565325,39.37089,49.484335,53.51329,56.300593,47.883357,58.69247,62.435508,65.024987,23.748104,49.779642,71.784605,83.504711,52.917972,82.450292,91.47405,93.26568,47.320518,79.104292,79.581562,74.757602,40.441732,69.068945,66.764774,60.838428,33.243673,55.522173,53.798973,48.66628,-23.210662,-36.816059,-45.469444,-55.286524,-33.84077,-28.690057,-21.855953,-17.572621,-18.335495,-8.334904,-3.589833,-3.662346,-2.620243,6.039317,7.625688,5.800052,12.766678,17.925277,17.032085,14.108212,59.424585,290.659346,-103.131002,140.401359
95,0.235405,-0.111756,1.908988,27.098229,-25.114288,-49.879257,-74.075592,-92.704113,-60.421737,-93.179992,-110.159019,-123.251518,-55.236259,-91.21241,-110.490955,-125.676201,-47.936599,-81.203087,-99.852001,-114.101715,-39.666275,-66.063148,-80.947643,-93.545597,-19.242564,-21.721905,-12.783508,-3.870849,8.358153,19.893353,25.025602,28.43504,26.598262,35.924031,39.790657,42.813092,39.734168,49.813798,53.889449,56.775651,48.0394,58.785071,62.500507,65.090122,24.943268,51.409567,72.989085,85.307614,56.701836,85.73461,95.741244,99.427924,50.752728,81.171782,86.137929,85.517189,43.155081,70.238005,72.75824,70.780701,34.740572,55.022044,56.510479,54.39707,-21.851022,-33.409134,-41.411231,-51.497852,-23.889523,-16.15676,-10.036887,-6.506742,-8.237597,1.708134,5.534106,5.764034,6.573492,14.815823,15.57619,13.846694,20.443472,25.180858,23.321748,19.87693,60.11103,290.141634,-100.770974,167.093632
96,0.071892,0.344827,1.653477,23.930329,-24.824203,-48.560188,-71.720009,-89.647533,-60.40329,-92.889496,-109.688221,-122.704662,-55.552826,-91.080906,-110.318973,-125.546425,-48.308372,-81.185955,-99.753559,-113.997436,-40.032944,-66.007828,-80.853836,-93.553379,-19.281517,-22.951097,-16.943189,-10.466855,8.608921,19.805728,24.978165,28.478611,26.560087,35.862256,39.745208,42.667966,39.533355,49.602007,53.734443,56.463157,47.812529,58.659298,62.525763,65.091517,26.900288,52.892246,73.472683,87.162392,57.087181,85.151276,96.793316,103.329861,50.050267,79.577259,89.507527,94.107468,41.723179,67.999283,75.878735,78.69611,32.74205,51.872246,57.240143,58.79924,-20.271413,-29.573316,-36.712232,-46.164602,-15.08147,-5.473075,0.42672,3.933699,-0.670795,9.822416,13.559291,14.564168,12.209538,21.052432,22.067436,20.928548,23.618878,28.912593,27.448737,24.485557,60.484491,290.046739,-98.815928,190.584239
97,-0.022224,0.226575,14.202679,27.044606,-24.012543,-48.156258,-71.337559,-89.25008,-59.217865,-91.531998,-108.809624,-122.174412,-55.251435,-90.163021,-109.584412,-124.906815,-48.947663,-81.386753,-99.769787,-113.904671,-41.534157,-67.910214,-82.335205,-94.425099,-9.279753,-8.942584,-2.543821,3.845988,13.802316,23.762349,28.752893,32.088712,24.692544,33.154018,36.870034,39.214537,31.491117,38.735477,41.566549,43.02308,34.929454,42.521309,45.300398,46.908058,22.532764,43.834373,61.468632,75.701626,46.063579,70.498867,81.754875,88.697754,40.102261,65.873588,76.084099,80.296188,33.89938,56.869022,64.490421,65.841167,27.542015,44.027973,49.048038,48.762245,-21.756078,-31.098755,-37.667418,-45.519008,-13.665935,-1.68959,4.471125,8.558372,2.49957,15.508023,20.165128,21.804576,17.118128,28.502767,31.055554,30.568726,29.5813,37.302757,37.46227,35.365461,60.755917,289.875913,-84.319599,217.231444
98,-0.423134,0.203887,3.689747,22.140029,-24.252274,-48.874352,-71.518833,-89.311798,-58.052948,-89.126759,-106.773915,-120.730911,-54.531693,-87.798477,-107.40778,-123.094094,-48.771172,-79.692112,-97.777531,-111.722557,-41.801811,-67.243069,-81.302056,-92.996521,-0.282039,3.97354,10.645253,16.773215,19.702358,28.471534,32.907548,35.66253,24.350003,31.824668,34.650713,35.737384,25.856269,31.742812,33.651035,34.17311,24.855097,30.83949,33.473132,34.991365,19.043117,39.825908,58.356331,74.57492,42.760677,69.354011,81.767246,88.754665,38.869377,67.659885,79.029613,82.513744,34.690956,60.093006,68.416191,69.424358,29.946304,48.779823,54.440311,54.129959,-22.749629,-32.032038,-36.73737,-43.152879,-11.087175,2.496446,8.343926,12.060733,8.12139,22.563922,26.057303,26.838471,24.519496,36.745089,38.515535,37.759352,37.398903,46.727056,46.890484,45.021621,60.401819,289.617206,-80.560816,238.908879
99,-1.312294,1.019845,2.134723,14.847479,-24.357857,-48.818138,-70.659954,-87.905834,-54.061661,-83.15189,-100.512463,-114.40131,-51.694817,-83.36055,-103.532719,-119.891968,-47.224022,-77.201397,-95.901741,-110.83659,-41.353615,-65.768017,-80.159821,-92.585552,0.847105,5.586696,11.803382,17.285077,19.039431,25.434834,28.179714,29.282713,22.883456,28.830811,29.951618,29.05331,24.094357,29.382612,30.277895,29.321109,23.020072,29.106316,32.061568,33.446827,18.631657,39.175988,57.829148,75.395508,40.537972,67.280285,81.725281,91.454064,36.515271,66.055035,80.399735,86.81353,32.66375,58.900635,70.610012,74.571763,28.720425,47.919732,56.145379,58.231888,-22.326651,-30.180723,-33.048573,-37.86555,-7.190971,6.539838,13.878603,19.365152,12.397408,27.073616,32.07782,34.176062,28.508239,41.780687,45.319295,45.560677,40.40579,51.596582,53.308316,51.847672,59.074476,290.275117,-78.441142,253.394424
100,-1.689766,2.025488,3.183552,12.41723,-22.987152,-46.52108,-66.867634,-82.575165,-49.729385,-75.824661,-92.141201,-105.531967,-48.754212,-77.597283,-97.584549,-113.937046,-45.813995,-73.709965,-92.435085,-107.606758,-41.266411,-64.047398,-78.487415,-91.462235,0.455953,3.877049,7.831249,11.444587,16.459436,21.025744,22.300507,21.777481,20.355579,25.463672,25.170542,22.570047,21.814358,26.687948,26.320854,23.85038,21.187122,27.231895,30.284971,31.475408,17.713303,37.878777,56.876255,74.829266,39.245819,66.50045,81.806683,92.216412,35.416638,65.753987,80.910862,87.877407,31.746266,58.521824,70.872917,75.525044,28.185574,48.099724,57.052769,59.953194,-21.601887,-28.40761,-30.239386,-34.857823,-2.469893,11.450564,18.674733,24.24299,17.837076,32.515322,37.26604,39.486511,33.961121,47.561341,51.184867,51.743857,45.104304,56.939536,58.950636,57.897174,57.323221,291.997315,-75.319079,265.508364
101,-2.542969,0.975693,3.089997,9.512861,-21.569412,-44.989952,-64.282139,-79.109104,-46.064003,-67.567898,-81.067348,-92.302162,-45.644874,-70.306618,-88.580726,-103.132187,-43.620987,-68.656322,-85.916313,-99.475399,-39.815231,-61.235905,-75.588821,-88.547802,0.504069,4.352762,9.589592,13.850321,15.208942,18.459767,17.930591,15.582791,18.823885,23.086442,21.378364,17.155006,20.30072,24.922294,23.515965,20.059498,20.016582,25.810598,28.969774,30.149281,16.85503,37.210064,56.984172,74.657764,38.98241,67.883331,83.764835,94.14339,35.328746,67.472545,83.038364,89.506588,32.044899,60.685695,73.337207,77.876071,29.056583,50.737587,60.19804,63.449249,-21.106859,-27.335845,-28.284825,-32.868139,0.580442,14.583447,21.557526,26.950251,22.450857,36.90012,41.239494,42.958144,39.56812,53.185741,56.557301,56.87082,51.098935,63.441299,65.35634,64.094433,54.653732,292.76602,-72.355602,274.814237
102,-3.833931,1.409281,-9.627594,0.019871,-20.260757,-41.974823,-58.945347,-71.912063,-42.890304,-57.840809,-65.970634,-73.317295,-42.101852,-60.81364,-74.355503,-84.989113,-39.622742,-59.793228,-72.767555,-82.981727,-35.255859,-53.652397,-66.989239,-79.395023,-8.699003,-8.914364,-5.949739,-3.124028,9.447825,12.618721,10.898318,7.419929,18.52353,23.092987,20.68472,15.869646,25.141766,32.293131,31.669983,28.933192,29.231323,37.77695,41.852243,43.852821,22.851482,47.294208,69.614513,87.886539,47.638629,81.481441,100.32574,113.291347,41.239036,79.439518,100.0032,111.304241,35.531581,70.450344,88.92786,99.361805,30.615131,57.336811,71.686672,80.545726,-17.562261,-21.380363,-21.111502,-25.514171,8.203753,21.151369,27.71587,32.716048,28.228275,41.036595,44.457222,45.545659,42.531251,55.052185,57.407296,57.120675,50.985475,62.597566,63.994027,62.376821,50.655006,294.056827,-82.147991,274.715634
103,-5.111366,0.904927,1.232574,1.017869,-18.239754,-38.791283,-55.016224,-67.721558,-44.530186,-51.314255,-50.532738,-50.896637,-44.568798,-53.65725,-57.928963,-60.358189,-42.371647,-54.191128,-58.550354,-61.826706,-38.144989,-54.515007,-66.276501,-77.119354,-11.964414,-13.118554,-9.418444,-5.971141,5.624932,9.980905,7.925863,4.236585,17.279791,23.09027,21.340634,16.914945,26.264587,35.228289,35.028798,32.653754,33.11125,43.695568,48.950244,52.552775,24.875862,49.554314,71.829815,89.746113,49.94989,83.400753,102.647862,116.874241,42.038246,79.521915,101.269146,115.16367,35.164513,69.370319,89.248982,102.407192,29.496082,55.764725,71.081417,82.190472,-15.358883,-17.743437,-17.245568,-21.824966,12.393753,25.263848,31.791089,36.983113,30.394381,43.292547,47.551399,49.509937,43.037271,56.493588,59.777277,60.047842,50.40107,62.373437,64.283847,63.082455,45.409567,294.922694,-81.04949,275.694443
104,-7.794159,3.02419,3.142307,2.067676,-14.443199,-31.89196,-44.820511,-54.980072,-43.102993,-41.948982,-34.524982,-30.267345,-43.671124,-42.396332,-38.2859,-33.580502,-41.162979,-43.304375,-39.308624,-35.57,-36.535858,-50.459427,-60.813332,-69.779675,-9.962812,-10.670113,-8.054946,-5.784853,5.632094,11.491171,10.737976,8.596657,15.51216,22.362936,22.23531,19.57756,23.028988,32.288055,32.618272,31.45561,29.188716,38.976909,44.322136,48.628264,25.03664,49.410439,71.839405,89.672562,51.105938,84.142273,103.354821,117.68232,43.060845,79.958222,101.969307,116.372383,35.869492,69.444832,89.55336,103.450104,29.671578,55.466103,71.019574,83.043,-14.858396,-17.314334,-16.881463,-21.573729,13.151393,25.852823,32.147129,36.964229,30.674369,43.549849,48.138645,50.153228,42.997244,56.709751,60.576722,61.179295,50.333057,62.72282,65.065199,64.281364,37.548317,298.004914,-77.974274,277.820149
105,-4.859299,0.121994,3.135922,1.362276,-11.333404,-26.357666,-37.619156,-46.802799,-43.784466,-36.06578,-21.924659,-12.416839,-45.241298,-36.16579,-23.891166,-11.961239,-42.985679,-38.296371,-26.345672,-16.073135,-38.453178,-51.509182,-60.218525,-67.070709,-9.552048,-10.566558,-8.304504,-5.693759,6.089653,14.603997,15.02637,13.831956,15.760545,24.357981,25.221103,23.246399,22.868734,32.958628,33.407059,32.728175,29.0819,38.883209,44.51045,49.572551,25.002468,49.264938,71.665981,89.403156,51.663139,84.828037,103.598591,117.696018,43.500572,80.279033,102.12054,116.557125,35.919662,69.42691,89.505558,103.497379,29.131656,54.60672,70.202556,82.448765,-14.679382,-17.224598,-16.534352,-21.237819,13.038624,26.022253,32.207594,36.760193,30.590487,43.478724,48.344422,50.288164,42.991526,56.837351,60.990869,61.662541,50.462128,63.296642,65.950638,65.226799,32.764051,298.149829,-74.763319,279.205346
106,-10.343879,2.536855,2.839107,1.130638,-7.457932,-18.400109,-25.312729,-30.58199,-37.571022,-22.587891,-3.919899,8.508499,-40.518734,-23.431126,-4.836365,11.706504,-39.429772,-26.862099,-8.371949,5.980293,-35.391484,-46.973351,-54.363968,-60.320286,-10.440204,-12.562343,-11.120508,-8.569833,4.153827,14.174869,17.061676,18.056314,14.413621,24.130554,26.644661,26.026428,21.486649,31.577876,32.414039,32.181919,27.602175,36.926845,42.597447,47.766932,24.627743,48.817818,71.16552,88.746598,51.93552,84.948944,103.306046,117.161362,43.69661,80.348946,101.927033,116.288979,35.710007,69.189446,89.167763,103.147042,28.361962,53.700371,69.300499,81.55156,-14.686163,-17.246285,-16.102544,-20.500335,13.078181,26.257547,32.32844,36.601914,30.748679,43.702829,48.694843,50.604166,43.153349,57.098531,61.280429,61.921744,50.594681,63.497467,66.177657,65.38535,22.591742,300.675764,-71.752642,280.325064
107,-10.187485,2.87999,2.119023,0.970864,-3.740822,-10.56379,-12.877281,-14.202255,-30.054096,-9.205399,12.32048,26.605087,-34.912422,-11.697041,10.348755,29.30706,-35.792668,-17.947289,3.50695,19.642502,-33.358349,-44.574635,-52.284714,-58.778938,-11.383491,-15.230863,-15.500922,-14.825718,1.925872,13.373546,17.955797,20.663108,13.49097,24.091886,27.097291,27.062402,21.377869,31.629672,32.3328,32.160454,28.165165,36.99209,42.554135,47.682766,24.435367,48.595413,70.809139,88.217205,51.815551,84.71632,102.82204,116.564884,43.532352,80.315792,101.781406,116.256809,35.386516,69.09074,89.152759,103.307544,27.824283,53.352642,69.176319,81.67947,-14.671046,-16.941979,-15.296948,-19.745287,13.07355,26.346196,32.373852,36.513476,30.955148,43.82307,48.993913,51.076569,43.519912,57.34846,61.62685,62.454935,51.042137,63.83991,66.510912,65.731918,12.651941,303.470195,-69.385935,281.210369
108,-2.748322,0.706005,1.33913,0.92328,-0.87252,-4.418586,-4.176338,-3.313019,-24.751281,-3.148315,17.885536,31.621857,-30.649131,-7.076225,14.394654,32.820969,-32.561657,-14.559929,6.278183,21.588799,-31.067848,-42.288276,-50.19247,-57.050789,-17.240888,-24.890492,-27.850029,-28.593541,-1.219732,11.288889,16.417977,19.255458,13.716582,25.09838,27.954633,27.710867,23.989676,34.557321,34.876126,34.247074,32.409666,40.667302,45.636814,49.569192,24.234501,48.428787,70.611054,87.801132,51.655449,84.519791,102.379303,115.918854,43.256332,80.247643,101.494652,115.911713,34.863785,68.868736,89.008988,103.28199,27.036507,52.823284,68.88105,81.579323,-14.784222,-16.80372,-14.699402,-19.034466,12.856213,26.254163,32.27426,36.342563,30.895485,43.825688,49.131826,51.300229,43.5971,57.441653,61.744348,62.641038,51.155462,63.879875,66.625051,65.882107,10.172767,304.035879,-67.777657,281.993328
109,-5.143158,0.705696,0.777832,0.742685,1.251641,-0.143303,2.734383,6.406609,-19.026672,5.201203,27.274865,41.899109,-25.579467,-0.756935,20.988739,39.348107,-28.643955,-9.874946,11.021485,25.916748,-27.81736,-39.141517,-46.970958,-54.349079,-20.866255,-31.615915,-36.446526,-38.713779,-4.466963,8.838657,15.08486,18.57088,13.10403,25.464548,28.24013,27.63941,25.250015,35.881114,35.844422,34.804335,34.802865,42.998355,47.459687,50.598991,24.249447,48.548596,70.567841,87.645584,51.560818,84.223595,101.918129,115.434471,42.99638,79.955589,101.043411,115.469353,34.376598,68.430954,88.589264,102.924545,26.329628,52.274872,68.352127,80.966217,-14.764277,-16.368812,-13.96062,-18.484344,12.782026,26.391026,32.477048,36.602136,30.878713,44.022091,49.3924,51.672646,43.618959,57.487509,61.708372,62.632813,51.176963,63.721596,66.307481,65.478926,5.248512,304.556367,-66.780922,282.550805
110,-7.648864,3.066216,0.153488,0.585245,2.393577,3.418624,10.23159,17.254051,-10.811383,16.656967,38.641708,52.623298,-17.390717,9.794952,30.882225,47.78936,-20.817021,-0.280037,19.985389,33.760688,-20.153756,-30.82885,-39.068207,-47.347733,-21.436396,-32.972657,-39.413324,-43.657331,-6.3895,6.006784,12.946629,17.365933,11.224373,22.885061,26.106494,25.814081,23.603552,33.346421,33.950377,33.251004,33.099963,40.571515,44.472771,46.616177,24.130017,48.464333,70.413368,87.360901,51.418968,83.956284,101.607674,115.199501,42.882981,79.896057,100.975228,115.508148,34.282276,68.49559,88.827347,103.336006,26.238144,52.57782,68.837288,81.590241,-14.996297,-16.352756,-13.665613,-18.13365,12.469014,26.097169,32.220686,36.381873,30.559069,43.752254,49.140941,51.486629,43.320187,57.103323,61.286444,62.25148,50.945399,63.20908,65.750036,64.95721,-2.274644,307.459676,-66.501726,282.973143
111,-0.331398,-0.73972,0.005322,0.250238,1.755157,3.723701,11.638069,18.04557,-10.415085,16.727645,38.608612,52.662185,-16.786068,10.798141,31.947441,47.939003,-20.047543,0.3582,20.356041,33.792343,-19.618367,-29.313767,-36.84161,-44.113724,-20.131042,-30.833117,-36.980753,-41.229231,-5.046466,6.757977,12.924299,16.947339,12.18343,22.976031,26.062354,25.71465,24.412482,33.658877,34.420396,33.707092,33.859998,41.375431,45.385886,47.756904,24.231102,48.613426,70.478245,87.409824,51.447452,83.878429,101.52412,115.204593,42.865803,79.797901,100.865009,115.475681,34.223305,68.391781,88.721569,103.27454,26.124847,52.651771,68.898021,81.661342,-15.08181,-16.304727,-13.499703,-18.086782,11.988422,25.746587,31.991962,36.241415,30.128656,43.437709,48.938152,51.373502,43.006383,56.750221,61.038479,62.077108,50.820366,62.967327,65.536823,64.778294,-2.540645,306.578699,-66.431007,283.082124
112,0.329841,-1.863689,0.091175,-0.018427,1.061897,3.81189,12.405739,17.854019,-11.354107,15.196976,36.406792,50.051789,-17.420082,10.273934,31.432297,46.938263,-20.164902,0.44854,20.675217,34.316391,-19.305313,-27.934284,-34.547848,-40.699985,-19.384282,-29.160632,-34.038384,-36.663406,-3.31927,7.836201,13.632428,17.458224,13.63065,23.932965,27.68676,27.841692,25.544564,34.476514,35.736075,35.200797,34.677092,42.616972,47.292751,50.327079,24.305992,48.725899,70.603203,87.612465,51.734573,83.880958,101.433128,115.123077,43.103817,79.679535,100.72055,115.34198,34.242519,68.145607,88.435455,102.958694,25.825378,52.288433,68.416557,81.070312,-15.061926,-16.276902,-13.43784,-17.991106,11.77305,25.660199,31.994754,36.254198,29.754152,43.248297,48.951343,51.471636,42.587234,56.453474,60.928675,62.020323,50.485976,62.770257,65.449694,64.726165,-2.180947,304.605878,-66.309975,282.954565
113,-1.386795,-0.000815,0.009899,-0.077558,1.704918,4.852295,13.766922,19.478874,-10.035644,17.183945,38.145653,51.302124,-16.185631,12.258568,33.047562,47.9282,-19.173878,1.985092,21.664124,34.67125,-18.48167,-26.493061,-32.929642,-38.99572,-19.50104,-29.19851,-33.973509,-36.572065,-3.534421,7.595584,13.237559,16.871496,13.642419,23.894494,27.634408,27.890499,25.695902,34.522765,35.821352,35.407031,34.85124,42.750081,47.293738,50.320027,24.632744,49.043747,70.852695,88.022152,52.059242,83.955242,101.439571,115.158382,43.319515,79.573368,100.639194,115.282986,34.267193,67.877712,88.131329,102.593433,25.64621,51.971512,67.953358,80.434147,-14.954752,-16.162442,-13.361221,-17.99859,11.529802,25.624963,32.078363,36.366336,29.487106,43.248432,49.178398,51.79359,42.321682,56.377089,61.067143,62.251652,50.313519,62.744099,65.503898,64.805748,-3.551937,304.530299,-66.284271,282.802243
