takenoko1/special-research/HandMotion_SimilarSearch_自分用/NewProject/handData_new/key/d3_feature/122.csv
,vel_0x_L,vel_0y_L,vel_0x_R,vel_0y_R,posFromWrist_1x_L,posFromWrist_2x_L,posFromWrist_3x_L,posFromWrist_4x_L,posFromWrist_5x_L,posFromWrist_6x_L,posFromWrist_7x_L,posFromWrist_8x_L,posFromWrist_9x_L,posFromWrist_10x_L,posFromWrist_11x_L,posFromWrist_12x_L,posFromWrist_13x_L,posFromWrist_14x_L,posFromWrist_15x_L,posFromWrist_16x_L,posFromWrist_17x_L,posFromWrist_18x_L,posFromWrist_19x_L,posFromWrist_20x_L,posFromWrist_1y_L,posFromWrist_2y_L,posFromWrist_3y_L,posFromWrist_4y_L,posFromWrist_5y_L,posFromWrist_6y_L,posFromWrist_7y_L,posFromWrist_8y_L,posFromWrist_9y_L,posFromWrist_10y_L,posFromWrist_11y_L,posFromWrist_12y_L,posFromWrist_13y_L,posFromWrist_14y_L,posFromWrist_15y_L,posFromWrist_16y_L,posFromWrist_17y_L,posFromWrist_18y_L,posFromWrist_19y_L,posFromWrist_20y_L,posFromWrist_1x_R,posFromWrist_2x_R,posFromWrist_3x_R,posFromWrist_4x_R,posFromWrist_5x_R,posFromWrist_6x_R,posFromWrist_7x_R,posFromWrist_8x_R,posFromWrist_9x_R,posFromWrist_10x_R,posFromWrist_11x_R,posFromWrist_12x_R,posFromWrist_13x_R,posFromWrist_14x_R,posFromWrist_15x_R,posFromWrist_16x_R,posFromWrist_17x_R,posFromWrist_18x_R,posFromWrist_19x_R,posFromWrist_20x_R,posFromWrist_1y_R,posFromWrist_2y_R,posFromWrist_3y_R,posFromWrist_4y_R,posFromWrist_5y_R,posFromWrist_6y_R,posFromWrist_7y_R,posFromWrist_8y_R,posFromWrist_9y_R,posFromWrist_10y_R,posFromWrist_11y_R,posFromWrist_12y_R,posFromWrist_13y_R,posFromWrist_14y_R,posFromWrist_15y_R,posFromWrist_16y_R,posFromWrist_17y_R,posFromWrist_18y_R,posFromWrist_19y_R,posFromWrist_20y_R,posFromBody_0x_L,posFromBody_0y_L,posFromBody_0x_R,posFromBody_0y_R
6,3.060185,-0.963319,0.182682,-0.230774,6.617523,10.945312,15.292682,18.817966,-8.244255,13.885265,33.368969,45.012119,-17.319786,8.265998,30.335025,47.976024,-23.690323,-2.196637,19.849994,35.990032,-27.822911,-25.771752,-19.06366,-12.451092,-21.085938,-27.572473,-24.490868,-19.657651,-3.894401,12.233658,19.636532,24.885787,14.557054,30.52129,36.947816,40.337555,27.909828,39.95343,43.570399,46.04685,38.309758,48.285611,50.49057,51.334674,27.55798,52.96835,76.606041,96.776413,54.332623,85.412796,102.255364,114.387566,44.832436,80.276642,99.980965,113.561554,34.819302,68.06424,86.808358,100.000672,25.418656,51.232899,66.526062,78.859154,-13.298532,-13.510237,-6.700982,-3.394482,18.735779,35.834221,43.69474,48.9209,35.096785,50.974916,58.436169,62.285788,46.353898,62.933254,69.025957,70.699134,53.286419,68.885018,72.921815,72.95558,-12.558649,317.908643,-76.592017,299.126267
7,-4.772862,2.359977,-0.020965,-0.112139,6.367573,12.065987,20.311546,26.995857,-4.380169,19.115273,38.426399,50.013863,-12.685936,13.836033,36.267037,53.618752,-18.239216,4.16177,25.991615,41.843903,-21.711353,-16.581631,-7.729019,0.217186,-21.370582,-28.356221,-24.714639,-19.129623,-5.676308,8.818169,16.880377,23.293948,12.674976,27.379305,34.871149,38.972995,26.347172,37.413402,41.80845,44.33939,36.921992,45.747966,47.509915,47.756472,27.517994,52.966999,76.61483,96.711136,54.181652,85.386154,102.248886,114.43412,44.63459,80.208458,99.928459,113.573341,34.597481,67.968532,86.720878,99.963615,25.190609,51.115002,66.478741,78.89518,-13.262259,-13.522167,-6.667315,-3.192718,18.696074,35.854463,43.712524,48.933744,35.127389,50.988588,58.454719,62.351034,46.423775,63.007663,69.146605,70.852522,53.392963,69.091672,73.107956,73.074117,-17.338406,320.429161,-76.619877,299.174669
8,-0.81966,-1.03201,-0.090397,0.057021,7.00565,13.374012,21.452717,27.68922,-3.219704,19.684376,38.911755,50.516132,-11.279583,14.738663,37.657253,55.520451,-16.512634,5.626911,27.74271,44.18549,-19.750923,-13.730232,-4.02269,4.744091,-20.601703,-26.398239,-22.075389,-16.027122,-5.746258,7.544962,15.48315,22.203509,11.97669,26.864171,34.871001,39.459551,25.762853,37.559787,42.379926,45.322728,36.798343,46.020075,47.999633,48.922826,27.545609,53.07423,76.742283,96.768185,54.133919,85.47678,102.28648,114.450748,44.486298,80.196201,99.889378,113.564426,34.412556,67.925377,86.689808,99.970951,25.008659,51.064384,66.504135,79.003017,-13.333964,-13.618053,-6.670959,-3.248097,18.510019,35.725231,43.57114,48.815084,35.059747,50.902705,58.342369,62.274228,46.42354,62.924596,69.065711,70.822165,53.436213,69.009074,72.968226,72.926075,-18.168257,319.496032,-76.720465,299.330571
9,4.87294,-3.239883,-0.161648,0.138679,6.433834,10.470257,14.276356,17.071266,-8.411339,13.090313,32.744282,44.380726,-16.714645,8.534626,30.810619,48.549465,-22.193985,-0.852333,21.341732,37.619419,-25.632065,-22.498604,-14.963608,-7.795269,-19.405537,-23.420165,-18.077545,-11.810038,-1.698174,13.641296,20.863019,26.544798,15.49429,31.365998,38.429035,42.629458,28.161312,40.854789,44.813323,47.778146,38.264507,48.341581,50.643699,52.337377,27.586018,53.153881,76.862137,96.858261,54.060826,85.514237,102.302582,114.489144,44.393601,80.228073,99.935326,113.660797,34.330868,68.015625,86.779106,100.037522,24.931893,51.17014,66.656273,79.145416,-13.33184,-13.75877,-6.912477,-3.501421,18.11846,35.358594,43.215865,48.455079,34.797913,50.630966,58.120537,62.103834,46.3259,62.716312,68.870864,70.622415,53.495506,68.935233,72.834364,72.719236,-13.305187,316.320049,-76.891983,299.53315
10,-0.727661,2.421801,0.048706,0.115251,5.590793,10.095371,16.344097,20.690506,-8.56208,13.765812,33.506458,45.552395,-16.760365,9.091198,32.478001,50.752407,-21.273708,0.453426,23.080593,39.883289,-23.664608,-18.196793,-8.526444,0.306175,-19.473498,-24.369553,-19.449613,-13.484449,-3.954829,9.825343,17.84976,24.661386,13.278784,28.033909,36.160251,40.892087,26.515109,38.253936,43.010879,46.017976,37.163004,46.102759,47.835686,48.871648,27.494259,52.991009,76.735932,96.724182,54.061627,85.48478,102.272919,114.46399,44.410961,80.181542,99.870346,113.552468,34.306824,68.046627,86.745186,99.901039,24.83844,51.199127,66.69159,79.113465,-13.351106,-13.854952,-7.086848,-3.7308,17.953981,35.139257,43.072962,48.374544,34.672276,50.420767,57.983748,62.019829,46.291332,62.551413,68.711709,70.463284,53.591873,68.864405,72.696673,72.559327,-14.04376,318.783902,-76.854189,299.690453
11,-5.422394,2.827502,-0.065632,-0.019069,6.601856,13.887142,23.715626,30.542015,-2.378929,21.395771,40.52972,52.377766,-10.609932,16.271027,39.883289,57.956303,-15.102745,7.501843,29.424625,46.137806,-17.410068,-9.086391,2.468456,12.880589,-19.291026,-24.840412,-20.356258,-14.490524,-7.195133,4.717189,13.295914,21.294358,9.763654,23.818295,33.03053,38.394517,23.661894,35.011286,40.80697,44.020264,35.006889,43.481034,45.058375,45.909357,27.41605,52.871338,76.58479,96.49918,53.967843,85.364033,102.191586,114.494488,44.338864,80.004284,99.69563,113.399472,34.245129,67.930481,86.596539,99.721974,24.731575,51.119454,66.569184,78.913845,-13.334804,-13.931695,-7.202296,-3.797946,17.738473,34.96128,42.954068,48.314955,34.503451,50.292574,57.964643,62.087792,46.217034,62.433211,68.651836,70.428679,53.64535,68.884758,72.726647,72.576593,-19.476248,321.646219,-76.929915,299.706199
12,2.523113,-2.738556,0.093018,-0.079448,7.342209,13.821064,20.155953,24.069592,-4.183056,18.575959,37.74868,49.376427,-12.921707,13.379391,36.270653,54.153145,-18.272083,3.919464,25.76001,42.167611,-21.356952,-15.528019,-6.501709,1.819634,-18.805051,-23.326095,-18.974877,-13.532776,-4.797563,8.962109,16.910362,23.754161,11.91305,27.400127,35.609573,40.336937,25.171147,37.817039,42.78523,45.978134,36.132105,45.892733,48.235988,50.041533,27.339558,52.697765,76.360508,96.238483,53.752968,85.089603,101.971035,114.375813,44.154362,79.70248,99.431957,113.177433,34.104618,67.664223,86.30444,99.420444,24.608128,50.905472,66.307137,78.613049,-13.23504,-13.854952,-7.129418,-3.768467,17.787441,34.905557,42.898332,48.271717,34.547898,50.327389,58.076127,62.223186,46.261099,62.470928,68.71881,70.486959,53.694355,68.888908,72.763635,72.619189,-16.965294,318.936747,-76.849056,299.655835
13,3.363419,-2.286569,0.188255,0.005187,3.835236,7.570873,11.035595,11.593597,-9.349262,13.379871,32.818474,44.74173,-16.944317,9.259209,32.344116,49.76635,-21.21484,0.616688,22.685165,38.645393,-23.154465,-18.282658,-9.412788,-1.2911,-15.046191,-17.184102,-11.427469,-4.952197,0.690975,16.09406,23.886579,29.70516,15.577209,31.185218,39.078143,43.229834,26.610488,39.279956,44.128092,47.218021,35.716785,45.899588,48.369036,50.298453,27.107838,52.345963,75.948796,95.753529,53.523949,84.872166,101.771977,114.156681,43.966267,79.499165,99.261395,112.978787,33.919808,67.450836,86.168896,99.321293,24.388756,50.735424,66.185784,78.525616,-13.337978,-13.97413,-7.173953,-3.694317,17.633855,34.627803,42.58222,47.903858,34.432969,50.274407,58.092034,62.23724,46.169659,62.482747,68.713784,70.418812,53.608559,68.819229,72.736119,72.609407,-13.615494,316.672164,-76.67442,299.683008
14,1.041023,0.04577,0.186482,-0.133257,3.716263,6.896977,9.766491,9.870987,-10.312362,12.301998,31.705925,43.633713,-17.82708,8.554321,31.638474,49.018776,-21.942947,-0.034675,22.024086,38.075775,-23.72723,-19.372867,-10.919506,-3.039745,-14.974228,-17.330377,-11.887214,-5.573321,0.827048,16.297823,24.032124,29.787583,15.558683,31.26248,39.190417,43.354025,26.464016,39.154294,44.132599,47.266914,35.521714,45.657254,48.426513,50.678192,26.891659,51.982876,75.450096,95.107612,53.290981,84.602142,101.586616,114.025406,43.80384,79.230675,99.061958,112.787727,33.766754,67.164585,85.967399,99.205581,24.172176,50.510319,65.959144,78.324875,-13.371434,-13.999078,-7.135754,-3.491196,17.643278,34.604647,42.54549,47.817358,34.397153,50.358819,58.278618,62.426443,46.1086,62.551475,68.862565,70.577954,53.552143,68.89512,72.894237,72.804378,-12.58853,316.736484,-76.501997,299.568301
15,1.353974,0.200442,0.193805,-0.046807,3.185886,6.097194,8.870121,9.0886,-11.668385,11.031177,30.655174,42.775726,-19.303025,7.008773,29.882812,47.278633,-23.526833,-2.436997,19.295745,35.467712,-24.945065,-23.229195,-17.450684,-11.413708,-14.581471,-17.355645,-12.77621,-7.26611,1.320199,17.631694,25.243383,30.944119,16.042917,31.735043,39.195209,43.212901,26.644055,39.156529,44.22068,47.66802,35.433127,45.521094,48.818134,51.69017,26.762684,51.732365,75.068516,94.642102,52.994626,84.342968,101.374318,113.826085,43.573437,79.008442,98.921002,112.650387,33.592759,66.928254,85.828183,99.159497,24.010655,50.344414,65.828042,78.287533,-13.475496,-14.12469,-7.156008,-3.363323,17.556148,34.465202,42.349186,47.544606,34.317903,50.37138,58.328402,62.440349,46.038267,62.584512,68.939346,70.650017,53.481797,68.934146,73.023814,72.964694,-11.241416,316.960715,-76.315052,299.545283
16,1.033916,-0.121994,0.236275,0.046449,3.134468,5.10775,7.126534,6.931835,-13.111736,10.212914,30.124683,42.36375,-20.692989,5.820957,28.878582,46.658352,-24.868687,-3.753307,18.111248,34.527065,-26.260403,-25.097042,-19.893768,-14.2439,-14.598354,-17.704795,-13.673641,-8.472997,2.334066,19.300943,27.162931,32.790567,17.003025,32.773883,39.896237,43.67882,27.247196,39.78621,44.697615,48.097457,35.677399,45.943331,49.124688,51.484665,26.586285,51.465775,74.682965,94.170284,52.723458,84.147663,101.142117,113.501599,43.320442,78.860584,98.830616,112.518986,33.357514,66.721813,85.712116,99.085133,23.810795,50.171551,65.711312,78.251621,-13.75299,-14.397257,-7.274187,-3.349861,17.324288,34.264204,42.109162,47.249044,34.184521,50.312543,58.272431,62.35585,45.937576,62.595219,68.966305,70.71215,53.357765,68.887265,73.011587,73.000312,-10.20108,316.862727,-76.072357,299.615738
17,-2.930752,1.850672,0.094299,0.201195,3.167805,7.037281,12.290234,14.359246,-9.716663,14.398602,33.61496,45.801064,-17.266353,9.650093,33.108628,50.949303,-20.901901,0.485264,22.254067,39.029984,-21.626369,-17.41539,-9.571953,-1.459144,-14.409681,-17.996936,-13.994793,-8.258957,-0.10526,14.672849,23.189688,30.24592,14.514842,28.807913,37.387997,42.166367,25.464227,36.84715,42.98992,46.737553,34.549256,43.898862,46.831475,48.931594,26.366627,51.198304,74.378003,93.780682,52.755169,84.206624,101.137311,113.370129,43.381714,78.96127,98.924641,112.52496,33.371087,66.738911,85.746243,99.090123,23.747212,50.165944,65.687977,78.196667,-14.108314,-14.859409,-7.670649,-3.610658,16.831371,33.767595,41.633807,46.791399,33.786293,49.995319,58.025442,62.154087,45.606903,62.304325,68.70194,70.508794,53.071416,68.609104,72.744764,72.79351,-13.121447,318.733141,-75.967673,299.836675
18,-1.158668,0.515282,-0.062599,0.042719,6.461918,11.727974,17.081634,20.009502,-6.663941,17.310722,35.970955,47.019424,-15.524037,11.440441,33.772842,51.610679,-21.119293,0.214599,21.536133,38.155884,-24.011879,-22.596382,-18.312516,-13.307522,-18.710795,-25.008608,-23.582025,-20.377154,-2.946063,12.619907,20.525553,27.107134,13.876763,29.273042,36.678695,40.830324,26.302526,38.518079,43.52048,46.782656,36.355024,45.951026,49.353177,51.822095,26.381481,51.200077,74.300366,93.698124,52.794125,84.118389,100.971852,113.167546,43.479184,78.934491,98.867649,112.385891,33.49831,66.747345,85.651303,98.873875,23.880135,50.173668,65.534111,77.870533,-14.273213,-15.114599,-7.945278,-3.894142,16.567277,33.573847,41.544047,46.83166,33.587988,49.809055,57.933483,62.161546,45.474905,62.047209,68.504981,70.402719,52.985398,68.454123,72.596612,72.69319,-14.25654,319.265617,-76.006697,299.896588
19,-4.234303,0.487903,0.03154,0.091465,4.886524,11.148022,18.507603,21.371475,-3.129558,22.372685,40.502255,51.650494,-11.295719,16.603649,39.306942,56.714298,-16.176143,5.752602,27.247135,43.598477,-18.471668,-14.548485,-7.448662,-0.342739,-17.47575,-23.209066,-21.072366,-16.993504,-3.562727,9.968788,18.419419,25.745574,13.463602,26.88461,35.172293,39.435295,26.36519,37.158977,42.437575,45.323728,37.019804,46.001265,48.331714,49.173273,26.294735,51.197663,74.338429,93.862255,52.73608,84.077259,100.839558,112.931088,43.382733,78.934376,98.832356,112.192211,33.419323,66.791096,85.593762,98.649136,23.875763,50.183075,65.438805,77.62064,-14.487141,-15.407062,-8.199936,-4.130634,16.328167,33.462597,41.516815,46.91243,33.515283,49.70256,57.820294,62.070081,45.472805,61.941875,68.318222,70.169389,52.952744,68.297524,72.362911,72.428774,-18.457186,319.771996,-75.9415,300.006529
20,2.638104,-2.935158,-0.123848,-0.142804,5.053962,10.202133,14.098549,14.052177,-5.490692,19.12706,37.093322,47.863311,-14.01408,13.735748,35.644821,52.714805,-19.513985,2.875728,24.176445,39.940933,-22.630474,-19.377663,-12.997135,-6.570053,-17.580009,-22.343423,-19.504646,-14.961779,-1.573722,12.940527,20.619204,26.703669,15.612048,30.012195,37.581486,41.24741,28.312922,40.069188,44.297313,46.652782,38.767897,48.662622,51.336588,52.526407,26.275624,51.250271,74.366764,93.919613,52.69471,84.116284,100.883824,112.983181,43.339394,78.981709,98.886532,112.298847,33.428387,66.835408,85.648625,98.722264,23.970005,50.276333,65.493611,77.594204,-14.576864,-15.478087,-8.315286,-4.338251,16.10221,33.232602,41.261897,46.669269,33.298983,49.436008,57.511048,61.786943,45.256494,61.659787,68.042569,69.969354,52.725601,68.05377,72.091852,72.145476,-15.781997,316.854393,-76.028263,299.88128
21,2.717319,-1.537079,-0.038532,-0.631695,1.77253,4.607884,6.223904,3.137844,-9.549064,14.862316,32.961674,44.075169,-17.465206,10.696507,32.685871,49.196057,-22.194694,0.323834,22.073628,37.487377,-24.338047,-21.904072,-15.476314,-9.02536,-15.529833,-18.302069,-13.64899,-8.066753,0.59152,15.789432,23.173028,28.510202,16.75611,31.114131,38.80512,42.43166,28.433965,40.266962,44.602397,46.99709,38.210636,48.280548,51.256436,52.931243,26.358639,51.324429,74.429924,94.101791,52.639721,84.034401,100.871475,113.050026,43.32613,78.88353,98.853882,112.367088,33.469231,66.721653,85.573082,98.67865,24.06237,50.256512,65.434914,77.4627,-14.47363,-15.250227,-8.240864,-4.61798,16.280373,33.194107,41.153031,46.565875,33.319028,49.365243,57.425339,61.738124,45.12914,61.460605,67.845906,69.824279,52.486936,67.784872,71.82761,71.856867,-13.022501,315.335966,-76.024618,299.268237
22,3.499958,-4.370916,0.082375,-1.437265,1.509396,2.444184,1.064163,-4.611912,-14.44471,9.223137,28.119187,39.524208,-22.340011,5.602032,27.551033,44.455673,-27.302089,-5.025467,16.862984,31.943459,-29.623054,-30.81839,-27.593971,-24.044277,-15.356241,-17.29082,-12.085581,-6.626511,3.997178,21.85972,28.94306,32.88575,20.420836,36.499223,43.041519,45.501124,31.486386,44.799182,48.16001,50.022304,40.588311,51.599904,55.519857,57.978017,26.364887,51.324955,74.168632,93.743385,52.418724,83.765487,100.573425,112.795188,43.058738,78.586486,98.622184,112.281028,33.194171,66.361541,85.298217,98.483093,23.747863,49.872299,65.039806,76.969619,-14.456426,-15.094456,-8.218363,-5.171486,16.080708,33.230996,41.485668,47.255972,33.121488,49.43696,57.772709,62.367014,44.953991,61.387134,68.02019,70.334213,52.330707,67.540081,71.719954,71.812036,-9.42734,310.988006,-75.84704,297.853928
23,2.567562,-3.733961,0.331008,-3.206736,-3.424278,-5.027137,-6.722374,-13.121441,-20.804649,1.346958,20.683239,33.909382,-25.886089,1.447758,24.195156,41.249073,-27.577961,-4.762367,17.44447,32.591732,-26.727596,-24.204025,-17.420414,-10.928844,-7.929988,-5.317242,2.575597,10.665506,9.654565,27.200043,35.319482,39.887925,21.559785,37.876319,46.447659,49.951501,29.129855,42.975495,48.069398,50.528361,35.412082,47.385302,51.63704,53.940911,26.379479,51.24424,73.676217,92.943238,52.185322,82.948792,99.514138,111.690285,42.802746,77.543244,97.388283,111.294251,32.865189,65.095746,83.896821,97.236763,23.182995,48.53571,63.39544,75.176011,-15.054603,-15.442309,-8.715787,-6.345016,15.456437,33.162725,42.070296,48.540924,32.507578,49.715639,58.862147,64.313795,44.508449,61.569878,69.104997,72.400443,52.155583,67.884883,72.787903,73.401356,-6.700322,307.279767,-75.356576,294.672914
24,15.457249,-7.716073,0.597188,-6.396713,-6.557213,-13.491474,-20.2271,-28.894512,-30.069454,-21.31834,-5.595177,7.136581,-34.057537,-21.356392,-1.821957,15.006031,-35.245445,-24.752254,-5.622768,9.23394,-34.030884,-38.968758,-33.736107,-27.578865,1.042594,8.116289,16.76294,24.112944,23.756335,37.369621,41.729595,44.59821,30.006242,40.351486,44.814213,47.218268,31.397603,39.507408,42.127021,44.532014,31.102991,38.468,42.299502,45.957325,26.019882,50.36063,71.787414,90.224063,50.991771,80.648197,96.650699,108.333423,41.654319,74.773887,93.803478,107.371822,31.617347,61.972297,79.933937,92.75497,21.609272,45.911006,60.347534,72.006992,-15.677516,-15.992826,-9.922637,-8.136753,14.453845,32.444074,42.002383,49.223242,31.192652,50.074298,60.742139,68.058822,43.19429,61.879384,71.121593,76.497262,51.281086,68.121844,74.342865,76.381332,8.973896,299.639286,-74.542419,288.351793
25,11.416466,-10.444946,1.056736,-10.174912,-14.241257,-26.117993,-34.530636,-42.351757,-37.109768,-36.303532,-25.209961,-14.504551,-36.351609,-32.982674,-19.328797,-6.181835,-33.182453,-30.091278,-17.145893,-6.399536,-28.363827,-33.751156,-29.324856,-23.862305,3.913717,13.801538,24.780181,33.452977,27.942691,42.376924,46.722461,49.378779,33.095282,46.52428,52.605695,55.739084,33.745822,44.962538,49.489065,52.687242,32.372184,42.351063,47.516646,51.860367,25.592536,48.948715,68.91957,86.271377,48.692321,77.462951,91.075264,99.832901,38.836624,70.368816,87.0695,97.638164,28.278934,56.767959,73.038814,83.468765,18.033794,40.686561,54.130886,64.433887,-15.93641,-15.5944,-9.746067,-8.60534,12.013827,31.503702,41.573391,48.554744,28.622489,51.223449,63.592871,71.697045,40.76945,62.751065,73.102385,79.384601,49.412322,68.335056,75.487705,78.306525,20.683708,289.26962,-73.192337,278.252161
26,19.043747,-22.779974,2.637554,-9.798827,-19.786572,-35.787655,-47.690358,-57.219406,-45.322357,-53.687016,-48.261887,-41.650257,-40.475979,-46.858338,-40.057183,-31.686367,-33.699704,-38.452629,-32.01717,-25.972893,-26.137837,-34.087281,-32.722115,-30.370858,6.300259,19.189682,31.886419,40.684148,35.371377,53.825438,59.808164,63.409127,40.125307,58.720776,66.711132,71.018346,40.396193,56.457463,62.920978,67.092304,38.105377,51.7454,58.800175,64.431133,24.898784,46.304741,63.435081,77.527221,43.918579,69.202961,80.748298,87.381889,33.528648,60.753788,74.377178,81.493515,22.405941,46.320968,59.96101,67.925811,11.659836,29.608497,40.733734,48.686393,-13.868402,-13.794474,-9.11793,-8.266713,7.953861,25.858887,35.694752,42.38074,23.069275,45.180035,56.861064,64.176055,34.655801,56.458142,65.927766,71.56732,43.647377,62.026362,68.128353,70.170908,40.055392,266.600778,-70.226846,268.564466
27,22.510185,-27.774755,-8.535794,-26.467326,-27.464138,-49.374401,-64.907513,-76.531849,-53.120579,-69.012096,-68.599663,-64.673138,-43.224609,-58.369206,-57.12101,-52.743313,-31.694481,-43.757195,-43.030094,-40.744583,-19.967239,-28.282539,-27.5881,-25.998734,10.590369,27.138726,41.857381,51.762024,40.66109,61.653402,69.419974,74.160244,42.997998,65.121886,75.057428,80.319169,41.771672,61.38154,70.012877,74.858901,37.985507,54.492998,62.322888,67.543638,26.737908,49.484414,67.096459,80.203595,45.557156,67.994809,74.98209,78.438252,33.989262,57.351551,65.998066,69.418477,21.640252,42.23917,51.147526,55.530419,9.786049,24.929169,32.630024,37.416218,-12.355603,-11.333485,-7.464995,-8.262958,6.206497,25.658568,32.828285,36.595431,19.972195,43.966207,52.986534,57.74964,31.096557,54.180874,61.753648,65.3833,40.388215,59.635411,64.931361,66.22586,62.83263,239.248167,-78.495587,242.519284
28,25.734329,-34.300711,-9.274904,-29.427069,-31.144501,-56.685242,-75.589714,-88.99704,-56.873382,-78.382061,-82.765869,-82.471264,-44.718498,-66.858169,-71.412666,-71.0648,-31.031044,-50.323288,-55.414295,-56.933601,-17.275978,-29.179996,-32.271938,-33.842262,7.336338,23.160554,37.253073,44.703816,36.965946,59.032875,66.930271,71.805022,40.702858,64.187429,73.65352,78.842827,41.033458,62.0593,70.963475,76.055327,38.730822,56.062359,64.522993,70.244725,28.042179,51.539967,69.100044,81.434149,44.549326,62.448034,66.106207,67.190764,31.483332,49.881334,54.551485,54.706215,17.91778,34.22307,39.405688,40.837189,5.476015,16.969757,21.970997,24.275786,-10.003592,-9.676333,-7.933613,-10.28777,-0.376891,16.618916,22.129177,24.011827,10.998934,32.682335,39.85002,42.823185,21.006996,42.080914,48.005141,49.945888,30.257461,47.499893,51.96437,52.888348,88.762773,206.126009,-87.574677,214.270768
29,15.818825,-34.615527,-10.126499,-30.981546,-33.603859,-59.129288,-76.784981,-89.088409,-58.882988,-75.079285,-79.678825,-80.909123,-44.808357,-61.427902,-67.197292,-69.073677,-29.218483,-43.220123,-49.212433,-52.711647,-13.623848,-21.270355,-25.495812,-28.747147,-0.048579,10.737878,21.224666,26.145655,22.719779,46.052932,55.100535,59.757368,27.886177,55.530515,66.556014,71.772034,31.007055,55.887451,66.2755,71.187665,32.047012,52.171089,61.44597,66.816292,29.357266,53.356773,70.716911,82.822214,41.956564,53.403379,54.938158,54.76288,27.071337,39.263746,41.254961,39.233002,12.278303,23.206655,26.109976,25.947041,-0.344404,6.054806,8.840412,9.224253,-7.391512,-9.063362,-10.224776,-14.387201,-11.779024,-0.809465,4.395613,5.775238,-3.507288,11.443682,17.414434,18.992188,5.042266,20.215124,24.595016,24.762304,13.990945,26.225751,29.861026,30.450502,104.772646,173.199529,-97.510128,184.978269
30,14.954338,-37.208724,-10.4328,-33.078727,-32.721313,-57.741783,-75.697998,-89.024517,-54.074364,-67.369492,-71.203835,-72.056557,-39.146324,-52.350677,-56.562561,-57.619194,-23.181816,-34.445503,-38.765533,-40.972939,-7.425751,-13.03791,-16.055397,-18.368706,-0.015919,6.532342,11.79507,12.830513,11.72368,27.125061,36.157775,41.66937,13.980843,31.130384,40.467077,45.748102,15.758718,30.696593,39.460644,44.149297,16.698707,28.601902,35.378324,39.890365,29.282558,53.264591,70.321907,82.315115,38.486166,43.969923,44.357076,44.765527,22.599649,28.391309,28.427564,26.477348,7.242593,12.375188,12.639867,11.793091,-5.891367,-4.709084,-5.005932,-6.390719,-4.947603,-9.691165,-14.30878,-20.731907,-19.220689,-17.401034,-16.011335,-16.745557,-13.765599,-10.390084,-10.197169,-12.239817,-6.615649,-1.934692,-2.657441,-6.174707,1.977341,6.084194,6.037508,4.13399,120.073265,138.356173,-107.596647,154.26491
31,9.914864,-31.625097,-14.127297,-36.700542,-31.611992,-55.96978,-72.480332,-84.513863,-48.265229,-56.970131,-58.875618,-58.257821,-32.410332,-41.439469,-44.077355,-43.769806,-16.315316,-24.025933,-27.088166,-28.126168,-0.79319,-3.956978,-6.264519,-7.781914,-2.39126,-2.39418,-3.950445,-7.800114,-4.221789,-1.892267,2.305174,6.090505,-4.199237,-1.570022,2.199495,5.544465,-3.732497,-2.371302,1.513231,4.604729,-3.050822,-2.213301,0.682293,3.675262,30.009865,54.831333,72.775211,86.549864,37.896578,39.674956,38.256094,38.172449,20.941,22.946028,21.676764,20.050598,4.958308,7.167738,5.773642,4.144032,-8.590628,-9.157299,-10.895965,-13.003527,-5.506877,-13.060224,-20.375314,-29.522202,-27.291616,-33.259158,-35.482562,-38.109477,-23.37108,-29.114804,-32.702336,-36.586653,-16.866125,-20.983485,-25.058292,-30.430245,-8.483833,-11.264609,-13.182722,-16.060445,130.558875,109.496617,-121.153198,120.329909
32,6.767006,-25.356398,-4.340572,-22.002746,-31.09694,-53.684441,-68.588105,-79.931374,-42.355156,-47.85244,-48.364907,-46.748726,-26.391404,-31.793473,-32.904969,-31.849228,-10.928284,-15.304963,-16.590203,-16.41092,3.791587,2.891624,2.217155,2.28852,-6.16074,-13.109014,-20.586785,-29.258858,-20.382842,-28.418787,-29.889392,-30.161693,-21.569901,-30.212384,-32.470201,-33.320078,-21.329908,-30.601176,-32.499532,-33.309963,-19.848911,-27.610122,-29.202196,-29.32508,28.496807,51.194229,67.030987,80.572031,31.017225,29.189501,28.252058,28.026003,13.861479,12.19705,11.305201,9.852859,-1.784678,-3.579031,-4.538664,-5.826691,-14.76317,-19.353035,-21.549568,-23.544119,-5.73607,-17.277333,-27.462755,-37.950985,-37.435752,-52.698206,-57.05592,-60.916362,-35.653348,-51.168482,-57.248224,-62.950973,-30.252342,-43.056398,-49.806228,-56.777034,-21.962991,-31.887561,-36.251947,-40.570648,137.926003,86.823979,-124.893648,101.010923
33,1.896926,-22.031269,-4.242994,-18.334695,-29.437545,-50.530677,-63.568771,-73.449737,-36.141586,-38.386642,-37.138389,-34.650947,-19.82801,-22.397346,-21.794609,-19.692581,-5.007797,-6.642997,-6.272689,-5.124023,8.711289,9.807473,10.635224,11.753563,-7.273254,-20.621643,-33.854941,-45.520699,-31.850955,-49.454898,-55.514269,-58.916679,-33.608804,-53.353789,-60.737761,-65.115507,-32.946364,-52.654681,-59.601763,-64.018468,-30.421915,-46.59423,-52.324817,-55.821854,27.346847,48.456081,62.784748,76.225215,26.415344,23.320392,21.889034,20.832046,9.348083,5.816814,4.51609,2.773933,-5.866459,-10.022541,-11.305962,-12.826699,-18.571885,-25.644047,-28.620736,-30.908959,-6.563408,-21.025373,-33.172784,-44.879211,-43.56859,-64.499244,-72.379195,-78.978641,-42.965578,-64.880645,-74.851941,-83.792388,-38.162162,-56.978945,-67.375176,-76.980867,-29.823578,-44.53231,-51.815833,-58.470193,140.463237,66.574922,-128.496334,84.45844
34,-1.871452,-16.754597,-3.339913,-14.110914,-27.770554,-46.834511,-57.65126,-67.025207,-26.319992,-25.11731,-22.946983,-20.194862,-8.682587,-7.539139,-6.608345,-4.581482,6.915917,8.126061,8.153687,8.857727,21.142387,24.9329,25.9403,26.786957,-8.9557,-25.941274,-41.838381,-55.386964,-42.477788,-63.737201,-71.266892,-76.501974,-43.081521,-67.388009,-76.943817,-83.911598,-40.526672,-64.568646,-74.164314,-81.306521,-35.463694,-55.474601,-63.741165,-69.938665,26.465962,46.501797,59.866448,73.05677,23.784153,21.34615,18.577686,16.241387,6.912197,3.394913,1.150314,-1.20615,-7.940758,-12.587219,-14.935055,-17.25888,-20.852978,-28.603763,-32.659103,-35.77597,-7.597023,-23.245226,-36.165444,-48.839358,-44.018799,-67.602609,-80.190301,-90.566797,-43.489932,-69.043759,-84.218805,-97.389489,-38.778283,-61.49634,-76.408237,-89.361528,-30.419833,-48.231301,-59.066665,-68.841267,139.338278,50.921048,-131.089754,71.448249
35,0.280357,-9.757418,-2.808666,-6.059253,-27.336616,-45.561515,-54.783874,-64.478714,-24.349502,-21.815597,-19.066726,-16.113761,-7.032692,-4.760215,-2.919639,-0.482482,8.197541,10.281578,11.166092,12.371064,22.284623,26.471856,28.003144,29.151925,-8.910343,-27.307458,-44.270457,-59.032936,-44.717635,-67.22214,-78.079289,-86.36567,-44.701734,-69.742965,-82.626626,-93.054764,-41.487502,-65.964815,-78.660941,-89.166038,-35.60378,-56.197827,-66.177953,-74.921311,26.50169,46.439186,59.501404,72.557716,22.427868,19.278809,16.036743,13.209858,5.463753,1.518253,-0.840454,-3.535755,-9.372105,-14.303455,-16.525257,-18.989204,-22.400185,-30.054291,-33.670979,-36.658596,-8.291073,-24.794371,-38.19547,-51.443805,-46.923094,-71.442096,-85.031589,-96.567356,-46.294098,-72.845213,-88.796987,-102.661276,-41.58269,-65.492036,-81.078229,-94.399812,-33.247854,-52.422413,-63.705942,-73.813676,140.149417,42.029723,-133.367638,66.255089
36,-1.057159,-1.22585,-1.47924,1.110267,-27.560463,-44.658142,-53.474533,-63.123276,-22.276863,-19.647514,-17.160004,-14.12027,-4.965935,-2.114777,-0.477402,2.051056,9.892387,12.862198,13.404442,14.647339,23.464874,27.943932,29.286186,30.441628,-8.168314,-25.341925,-41.570563,-55.929065,-43.446213,-65.317067,-75.787831,-84.454569,-43.025545,-67.784199,-80.350081,-90.655508,-39.207967,-63.2049,-75.922848,-86.550619,-32.859389,-52.989418,-62.885317,-71.511596,26.804832,46.434036,59.404884,72.587562,20.791442,17.253971,14.267269,11.750667,3.654556,-1.232129,-3.363339,-5.623387,-10.937142,-16.809575,-18.711686,-20.57301,-23.315484,-31.812504,-35.399209,-37.800923,-8.043782,-23.707762,-36.977759,-50.080313,-47.335094,-72.150188,-85.292127,-96.190328,-46.524687,-73.500911,-88.835323,-101.575439,-41.689402,-65.90125,-81.007427,-93.462917,-33.291957,-52.523993,-63.622537,-73.246678,139.262684,41.571538,-134.676452,68.133021
37,-0.853065,14.165532,0.117656,4.502759,-28.231476,-46.117562,-54.848008,-62.189278,-22.28286,-18.935944,-17.655442,-15.482209,-4.036675,-1.10328,-1.053956,0.902366,11.339401,13.993103,12.83654,13.609336,24.774833,28.054664,27.715209,27.999298,-6.942062,-23.527963,-39.887283,-54.106668,-40.73285,-65.444816,-72.332407,-76.564515,-41.014568,-69.052386,-76.9802,-81.704138,-38.047763,-65.022918,-72.947917,-78.145603,-32.682048,-54.888144,-61.312682,-65.417436,25.644425,44.550305,57.917656,71.439743,18.220619,14.091843,12.221249,11.201878,0.413933,-5.515709,-6.347282,-6.862839,-14.281803,-20.785332,-21.379761,-21.759578,-25.803978,-34.372707,-37.052616,-38.14793,-6.81396,-19.655607,-30.439112,-40.667765,-45.059022,-69.638008,-78.54745,-86.165425,-43.740336,-70.612497,-81.15328,-89.565175,-38.74214,-62.648232,-73.36861,-82.200135,-30.866962,-48.720593,-56.75978,-63.798166,138.319022,56.32847,-134.649393,73.22718
38,0.126068,21.827851,-3.521713,17.07155,-28.911118,-46.798439,-55.933594,-63.440987,-23.472817,-20.445145,-19.608422,-18.055825,-5.409623,-1.286454,-0.975174,0.777809,9.882179,13.650192,12.746338,13.693542,22.972595,26.790619,26.561439,27.250946,-4.900705,-17.177625,-30.881011,-43.780586,-30.385729,-48.984064,-53.42968,-55.660402,-32.047384,-53.293477,-58.415791,-60.503462,-31.082114,-51.559143,-56.718797,-59.423126,-28.475573,-45.290161,-49.269851,-50.687956,26.883327,46.542068,60.775612,74.616852,19.078033,14.288338,14.248615,14.781074,0.382347,-5.548382,-4.640396,-4.095749,-14.656632,-20.456612,-19.758396,-19.493259,-25.692261,-33.2043,-34.641586,-35.113415,-4.850736,-14.488178,-23.082736,-32.149623,-38.2476,-60.072721,-65.421381,-69.594604,-37.540403,-62.124484,-69.226108,-73.993333,-33.447926,-55.504827,-62.443622,-67.706986,-26.670855,-43.049491,-48.520368,-52.559141,138.061879,78.982896,-138.554317,91.125305
39,4.200828,22.112025,-3.518818,20.649424,-29.890732,-49.796173,-60.91848,-68.930534,-28.278694,-25.836616,-25.169906,-24.199562,-10.03569,-5.034416,-5.243774,-4.317261,5.735184,10.735657,9.428879,9.915482,18.907791,23.104431,22.581093,23.338234,-0.71008,-8.173408,-18.415047,-29.406799,-21.069388,-33.30732,-33.492812,-32.338122,-24.173619,-37.001291,-37.120241,-35.548446,-24.792864,-36.897266,-37.067858,-36.396186,-23.989899,-33.94919,-33.926522,-32.382008,27.59848,48.510807,63.706032,77.68824,21.215321,15.068298,15.532196,16.980927,1.693932,-5.463924,-3.504456,-1.716339,-13.962215,-20.446873,-19.054974,-17.880684,-25.162571,-32.908092,-33.60704,-33.030327,-3.48347,-10.756427,-16.641662,-24.183227,-32.81625,-50.006533,-52.382701,-54.04312,-32.126047,-51.535165,-55.067825,-56.424896,-28.271228,-45.638729,-49.197454,-51.589931,-21.870606,-35.195721,-38.80244,-40.715103,141.341829,102.114414,-142.994013,112.794222
40,4.024841,22.047726,-5.982605,18.62737,-31.2667,-52.243263,-64.821006,-73.602241,-32.346313,-31.013305,-30.815002,-30.436019,-14.325416,-9.614295,-10.090805,-10.100234,1.47535,6.287591,4.675713,4.480042,14.70353,18.272072,16.996766,17.182114,0.205098,-3.903015,-11.056807,-19.826909,-15.756025,-23.22433,-20.029172,-16.216881,-19.912007,-26.511626,-22.851438,-18.311406,-21.802187,-27.88506,-24.180609,-20.302078,-22.584263,-27.524536,-24.239612,-19.7736,29.714584,52.052376,68.576214,82.714417,24.38831,18.466312,20.525997,23.408672,3.945454,-2.991566,0.060299,2.812397,-12.217976,-18.414356,-16.004414,-13.940655,-23.333931,-30.686359,-30.729114,-29.426262,-4.011276,-9.545008,-13.365092,-19.861192,-28.230578,-42.393492,-42.89246,-42.090439,-27.652754,-44.49781,-46.192494,-44.981581,-23.78829,-38.922272,-39.807551,-39.233556,-17.489303,-28.159577,-29.691765,-29.034395,144.250997,124.719546,-150.092291,131.978998
41,1.594368,16.770695,-1.933514,6.913583,-29.373779,-50.88272,-63.931434,-72.907196,-35.010795,-34.980995,-34.104629,-33.518028,-18.641624,-14.968277,-13.987381,-13.304328,-3.518692,0.035454,0.421578,1.308678,9.625054,12.567078,12.682137,13.805352,0.601486,-2.516076,-8.173031,-15.506436,-10.953226,-12.068599,-7.38031,-3.691847,-15.472572,-14.318568,-8.678446,-4.588438,-18.1646,-17.307492,-11.890925,-8.355695,-20.19738,-20.049062,-15.15972,-10.710281,29.680012,52.681286,69.517846,83.702362,25.432812,18.930554,21.307766,24.153866,4.888894,-1.852569,1.000237,3.350464,-11.279022,-17.325805,-15.282348,-13.627143,-22.347564,-29.315128,-29.633113,-28.82603,-3.166784,-7.775631,-10.522221,-16.128516,-23.685445,-33.935668,-33.486168,-33.028437,-23.230234,-36.515409,-37.611726,-37.087582,-19.721903,-31.557221,-31.630642,-31.413367,-13.939236,-22.428189,-23.310176,-22.472834,144.772602,141.698865,-153.098568,139.101205
42,0.179512,-3.052946,-1.952591,2.92398,-28.813751,-49.70018,-63.16484,-73.579147,-35.318367,-35.648574,-34.044136,-32.850288,-19.645637,-14.606689,-12.592643,-11.477371,-4.658523,1.000397,2.409714,3.239617,8.511841,14.156914,15.489647,16.659989,1.813276,0.439014,-4.067111,-10.728918,-8.55447,-4.955026,-0.967351,0.822219,-12.599641,-6.439241,-2.710479,-1.415505,-14.64035,-9.163724,-5.818458,-5.017098,-16.198955,-12.444962,-8.781316,-6.152645,31.167767,54.931012,71.288224,85.039948,27.285954,19.698773,21.582585,23.586812,7.086365,0.011639,1.468209,2.162087,-8.982719,-15.347637,-14.889026,-14.704662,-20.656757,-27.739986,-29.161548,-29.542625,-3.685128,-10.003264,-14.615211,-22.144969,-23.680233,-32.997944,-35.173677,-36.297676,-23.404764,-35.795065,-40.681739,-42.929423,-19.879155,-31.077617,-34.68528,-37.011369,-13.752378,-22.91806,-25.906619,-26.659925,144.076354,139.085578,-155.926919,142.464844
43,1.773217,-8.634029,2.325188,-9.371576,-28.688233,-49.848061,-63.893303,-74.85125,-36.05999,-36.325035,-34.864632,-32.934654,-20.258515,-16.488442,-14.684624,-13.043175,-5.035675,-0.229958,1.348457,2.680252,8.599869,13.670997,15.241722,16.847191,-0.38728,-4.033389,-9.05337,-16.505972,-14.115082,-13.489754,-11.703988,-12.258877,-16.213503,-13.116368,-12.287425,-14.435653,-16.214294,-14.11964,-13.826831,-15.998458,-15.651031,-15.351795,-13.865506,-13.488933,30.09288,53.048905,68.728718,81.928951,26.362461,18.411461,18.124981,18.32301,6.866398,-0.846187,-1.48233,-2.329834,-8.826782,-16.168396,-17.382168,-18.389179,-20.830341,-29.065441,-32.062866,-33.630134,-5.242035,-14.271539,-20.382977,-28.916662,-27.746868,-38.772904,-44.329392,-48.942499,-26.545032,-39.816029,-47.904623,-54.129281,-22.26697,-34.154288,-41.145781,-47.095402,-15.582037,-25.86261,-31.073684,-34.416536,145.01833,130.784211,-154.432972,133.42593
44,-1.761475,-11.39016,3.154118,-16.856522,-28.615013,-48.374771,-61.554657,-72.204025,-33.83464,-33.112152,-31.025345,-28.00692,-17.92099,-14.352882,-11.256637,-8.260048,-3.128837,1.168053,3.532013,5.604012,10.014748,15.091141,17.200882,18.971192,-3.982834,-10.705144,-17.596608,-26.268527,-18.775892,-22.740843,-25.255425,-29.099968,-19.105263,-22.209085,-26.554561,-32.427945,-17.391843,-21.36434,-25.861079,-30.945793,-15.289859,-20.202845,-22.212531,-24.139305,29.16299,50.560455,65.118919,77.970154,23.63689,16.319275,15.507683,14.920257,5.059021,-2.519268,-4.468655,-6.887318,-9.913056,-17.19952,-19.607723,-22.285023,-21.511723,-29.727207,-33.836254,-37.081158,-5.249915,-15.889233,-23.823173,-33.513807,-29.69087,-44.480526,-52.314486,-59.108285,-28.00551,-45.400169,-56.671793,-65.892562,-23.395373,-38.92021,-49.085897,-57.585686,-16.448902,-29.322233,-35.990839,-41.000748,142.743587,119.639284,-151.792122,116.814641
45,-2.117958,-13.323312,4.539791,-16.108626,-27.115929,-46.038185,-58.764748,-69.023598,-30.930107,-29.330841,-26.715637,-23.013908,-14.707397,-10.555183,-6.743797,-2.919754,0.08844,4.872734,8.026405,10.743988,12.996185,18.74897,21.96991,24.426178,-5.327696,-14.200965,-22.896473,-32.682838,-21.179632,-27.917936,-33.344976,-40.006802,-20.383651,-27.555029,-35.687169,-45.118223,-17.314285,-25.517148,-34.039174,-42.728371,-13.878819,-22.389218,-27.573671,-32.583908,27.471531,47.383942,60.576691,73.256161,20.912716,13.201916,10.570232,8.23439,3.254459,-4.773056,-8.301155,-12.111145,-11.069756,-18.714249,-22.602425,-26.568695,-22.423004,-31.192097,-36.30003,-40.644619,-4.49238,-16.189118,-25.550938,-35.65044,-31.413763,-47.786329,-56.848146,-65.786018,-29.728563,-48.026031,-60.576728,-72.389175,-25.316064,-41.61138,-53.841549,-65.238922,-18.457538,-32.985805,-41.170044,-48.447015,140.26609,106.565301,-147.61187,100.955344
46,-0.228264,-9.108124,1.10067,-5.030732,-27.927887,-47.014938,-59.884369,-70.187095,-28.847145,-26.086899,-23.608726,-19.708236,-11.536285,-6.156074,-2.454025,1.205315,3.709809,9.651238,12.914841,15.423821,16.677704,23.681053,27.426796,30.127625,-6.004265,-16.639408,-26.764173,-37.863612,-25.13834,-35.347307,-42.73788,-50.465809,-23.379114,-34.566362,-45.830409,-57.516063,-19.082829,-30.852143,-42.388385,-53.374858,-14.129421,-25.156272,-32.5727,-39.727165,27.219223,46.707321,59.502079,71.936542,20.131485,12.733326,9.267437,6.329658,2.82439,-5.309315,-9.184719,-13.436142,-11.386757,-18.957333,-23.177628,-27.845433,-23.016495,-31.811806,-36.902149,-41.752831,-5.487469,-18.776294,-29.11246,-40.009698,-33.899087,-52.112223,-62.330576,-72.281939,-32.113061,-51.701558,-65.344428,-78.238155,-27.567527,-45.257538,-58.960232,-71.493343,-20.331046,-36.066922,-45.081648,-53.101044,139.614984,97.712679,-146.934042,96.180114
47,0.251953,1.086924,-0.389088,1.812306,-27.122039,-45.805458,-58.393982,-68.982422,-26.449905,-23.413353,-21.111877,-17.606346,-9.184936,-4.285858,-0.896507,2.29168,5.682404,10.543831,13.608422,16.052811,18.301827,24.349274,27.924317,30.713333,-6.193406,-17.127773,-27.357927,-38.696494,-27.73274,-39.621997,-46.386316,-52.914064,-25.523149,-38.51735,-48.904399,-58.971637,-20.652752,-33.975669,-45.038367,-54.896005,-14.891964,-26.95461,-34.45694,-41.149184,27.123299,46.204456,58.997234,71.904877,19.43137,12.363304,9.239147,7.000958,1.650044,-6.2188,-9.030464,-12.129684,-12.731541,-20.065979,-23.380646,-27.184719,-24.243851,-32.545601,-36.815014,-40.893688,-5.957025,-19.694818,-30.169682,-41.168493,-34.953598,-55.860818,-64.980119,-72.904395,-33.409628,-55.984245,-68.36645,-79.014116,-29.441417,-49.594337,-61.861692,-72.166428,-22.745511,-40.007252,-48.261133,-54.950765,139.442773,98.786617,-147.747294,97.979434
48,-0.293083,6.967262,-3.137878,5.417395,-27.116432,-45.579174,-57.936756,-67.974438,-25.928936,-23.112831,-21.130302,-18.398895,-8.573467,-3.121685,-0.572021,1.762116,6.307869,11.778065,13.853909,15.20842,18.732628,25.354637,28.150475,29.803574,-5.012441,-14.731857,-24.48063,-35.316941,-27.597065,-38.923103,-42.74445,-46.312089,-26.306021,-38.867531,-45.465819,-51.471738,-22.069813,-34.574312,-41.884072,-48.071254,-16.682513,-27.593715,-32.598274,-36.579104,27.891838,47.512516,61.36362,74.587646,19.018684,13.811588,11.916298,10.858406,0.53453,-5.915554,-7.489449,-8.935902,-14.204693,-20.381195,-22.590752,-24.877488,-25.322422,-32.560685,-35.90926,-38.535279,-4.682744,-16.421479,-25.936007,-35.727844,-36.035744,-56.169799,-60.905784,-64.604837,-34.733353,-57.619149,-65.337055,-70.475616,-30.629044,-51.022785,-58.988038,-64.5703,-23.729967,-40.51744,-46.046263,-49.65518,138.885366,105.705859,-151.149496,103.348809
49,0.907883,12.853904,-7.00335,16.957558,-27.854347,-46.500195,-58.944729,-68.369213,-28.308758,-26.235146,-25.339668,-24.010872,-10.899067,-5.330349,-3.969338,-2.727402,4.451637,10.58321,11.760738,12.191894,17.493049,24.676575,26.988991,28.079224,-3.581141,-11.00803,-19.30726,-29.536065,-24.922265,-32.954531,-33.644984,-34.786684,-24.942665,-33.936662,-36.491495,-39.259766,-22.095933,-31.251621,-34.778002,-38.280275,-18.187031,-26.478194,-28.627136,-30.173777,28.04084,49.309925,65.144223,79.94141,21.246506,16.852742,16.200703,16.219368,2.520127,-2.898559,-2.940925,-2.689087,-12.46281,-17.531936,-18.085636,-18.529506,-23.943809,-30.125335,-32.027664,-33.018264,-5.976921,-17.880257,-26.450949,-35.240688,-35.751,-53.74996,-55.870636,-56.806124,-34.998534,-57.309402,-61.313157,-62.831495,-31.615667,-51.977501,-55.979626,-58.222277,-25.373688,-41.783379,-45.335509,-46.807571,139.326342,118.535751,-158.619753,120.282355
50,0.680557,14.657405,-5.78532,17.095793,-27.587608,-46.747524,-59.831692,-69.496982,-30.394901,-29.333588,-28.476791,-27.472137,-13.420132,-8.412495,-7.633827,-7.129097,2.094498,8.16441,8.65266,8.291954,15.316864,22.430809,24.083359,24.388024,-1.776448,-7.170618,-14.216371,-23.355478,-22.436293,-27.583918,-25.256042,-23.453353,-23.792853,-28.635938,-27.183467,-26.171742,-22.290904,-27.129503,-26.230565,-25.887196,-19.510299,-24.239574,-23.01792,-21.530362,28.183376,51.294193,68.558979,84.243668,23.422554,19.636311,19.770035,20.421169,3.634941,-1.638508,-0.40971,1.267777,-12.197205,-17.167099,-16.428669,-15.571506,-24.270149,-29.832756,-30.692757,-30.58366,-5.960897,-17.1817,-24.23272,-31.983644,-33.440466,-49.497944,-50.026762,-48.863965,-33.028331,-53.940331,-55.617861,-54.129849,-29.914647,-49.091367,-50.63288,-50.015332,-24.027462,-38.863331,-41.37301,-41.267182,139.430025,133.127762,-164.981947,137.312754
51,1.94957,13.261161,-9.594395,16.954354,-28.83094,-48.229626,-61.429859,-71.143788,-32.657856,-32.07415,-32.499161,-32.995056,-15.223309,-9.838864,-10.682282,-11.604836,0.929947,8.293384,6.600689,4.503616,14.944107,23.479523,23.513763,22.305885,-1.265384,-4.448469,-9.608828,-17.895007,-20.059619,-22.474801,-18.35707,-15.576767,-21.903236,-23.142029,-18.425221,-15.143465,-20.862142,-22.579264,-18.536384,-15.729136,-18.719215,-20.804276,-17.142875,-13.298927,27.446377,50.575425,67.402428,81.50988,28.254628,27.73629,28.137337,28.78632,8.444573,5.895733,7.055832,9.209542,-7.976497,-10.682556,-9.334968,-7.052055,-20.858722,-24.480777,-24.139755,-22.363369,-7.396711,-19.503275,-26.969505,-34.108914,-32.372765,-47.042137,-46.621975,-43.890754,-32.715078,-52.521362,-52.618533,-48.427946,-30.546817,-49.169241,-48.477186,-44.704624,-25.87454,-40.471096,-41.521576,-39.383659,140.757025,146.258065,-175.198912,154.13625
52,1.452049,9.008286,-7.531162,14.278634,-29.133018,-48.707485,-62.139896,-72.302593,-35.22829,-35.861984,-35.952438,-36.21833,-17.990856,-13.627911,-13.851906,-14.569954,-1.572533,5.503338,4.364284,2.315392,12.933563,21.389488,21.369209,19.972138,-1.072068,-3.130715,-6.846658,-14.149221,-16.513706,-15.268275,-11.772303,-10.290691,-18.987116,-15.204848,-10.906201,-8.9523,-18.703459,-15.760326,-11.610896,-9.678084,-17.513532,-16.65292,-12.611,-9.313124,25.745785,47.325279,61.112103,70.944363,32.28487,34.906265,34.54747,33.666515,13.771969,12.538376,12.090294,12.763195,-2.781921,-4.78957,-4.015869,-1.989052,-16.598797,-19.254192,-18.69857,-16.750946,-9.058001,-23.355716,-32.316967,-39.656028,-31.657682,-43.349777,-44.811736,-44.190682,-32.141472,-49.574033,-50.71678,-47.36955,-30.502147,-47.671207,-47.050146,-43.070764,-26.687892,-40.433354,-40.882922,-38.144217,141.571438,155.12699,-183.36771,168.275523
53,-0.683922,3.728144,-5.348431,11.388252,-27.964393,-47.195503,-60.401573,-70.953323,-34.414123,-35.816276,-35.530769,-35.187607,-17.45137,-13.684662,-12.976433,-12.965584,-1.097809,5.866791,5.68412,4.320786,13.404145,22.157662,22.754448,21.816765,-1.099491,-2.761565,-5.964584,-12.63737,-14.226721,-11.507066,-8.8481,-8.320356,-16.711774,-10.597526,-7.525665,-6.938598,-16.50801,-11.408037,-8.18419,-7.400127,-15.668044,-13.349488,-9.907199,-7.754074,23.640313,43.028275,52.594391,58.009896,35.226506,38.681237,37.414639,35.20982,18.097195,16.805809,15.378182,14.840081,1.642788,-0.711444,-0.041461,1.814587,-13.096206,-15.153728,-13.877094,-11.658954,-11.218679,-28.505491,-39.486986,-47.513169,-30.270398,-42.471143,-48.181568,-50.762155,-31.152237,-48.65373,-53.603106,-53.081025,-30.373311,-47.649174,-49.234777,-46.589358,-27.618464,-41.283781,-42.337305,-40.230702,140.280504,158.790972,-189.323153,179.599613
54,-1.807228,-0.612416,-2.938247,4.050383,-26.088135,-44.665558,-57.355659,-68.370506,-30.90699,-32.257255,-31.647056,-30.490517,-14.226265,-10.717369,-9.352386,-8.572609,1.808304,8.807785,9.449799,8.848915,15.946129,25.251068,26.426445,25.874794,-1.635522,-3.960462,-7.37873,-13.500376,-14.30699,-12.300571,-10.375768,-10.341076,-15.799214,-10.079483,-8.401545,-8.708266,-14.555301,-9.758455,-7.996802,-8.246156,-12.853571,-10.45973,-8.131622,-7.053824,22.660938,38.923279,43.726009,43.692604,36.375778,41.61914,39.577812,36.253452,20.22734,20.115944,17.589248,15.966602,3.897972,2.106903,2.502479,4.116771,-10.986923,-12.156967,-10.519638,-8.072193,-11.952793,-30.559131,-43.690368,-52.917275,-31.181192,-44.535046,-53.104157,-58.198553,-32.410075,-49.461074,-57.517996,-59.591816,-31.773589,-48.549255,-52.1939,-50.602709,-29.350601,-42.367285,-43.521049,-41.408042,138.10774,158.098218,-192.626936,183.569658
55,-0.655678,-1.67913,-3.412365,3.253221,-25.987083,-43.773651,-55.539184,-66.567375,-28.574203,-29.07875,-28.740577,-27.300476,-11.197746,-6.876938,-4.935447,-3.205078,4.995461,13.101036,14.272339,14.292321,18.906807,29.787781,31.434746,31.126809,-2.773717,-5.419599,-8.591508,-14.914077,-13.979663,-13.310449,-13.043447,-14.391903,-13.932319,-10.290712,-10.680258,-12.613596,-11.311934,-8.198491,-8.840288,-11.005251,-8.733984,-7.026592,-6.150224,-6.449596,21.513141,34.344417,34.903976,30.077247,37.159332,44.300651,42.251839,38.674644,22.657608,23.910736,20.641605,18.198795,6.871731,6.089207,6.51012,8.165474,-7.978226,-7.979084,-5.779415,-2.913105,-13.409151,-34.092415,-49.968446,-60.557443,-33.685949,-48.245078,-58.738659,-65.786252,-35.56326,-53.253086,-63.024304,-66.498129,-35.609017,-52.887313,-56.390334,-54.338751,-33.779488,-47.094075,-46.914208,-43.659881,137.211834,156.409962,-196.279529,186.813753
56,-1.134842,-2.299017,0.330528,0.622901,-24.409973,-41.883133,-53.446472,-64.973854,-26.919639,-27.533386,-26.014869,-23.056892,-9.883438,-6.260261,-2.476501,0.932122,5.991646,13.536026,16.728905,18.254769,19.318131,29.847725,32.832596,33.416039,-2.693627,-5.665761,-9.038006,-15.089794,-13.218726,-13.400994,-14.007883,-15.823877,-12.920928,-10.036542,-11.861538,-14.598316,-9.971839,-6.959099,-8.646725,-11.686019,-7.018175,-5.248575,-4.997269,-6.331455,20.989506,31.908245,29.640873,22.418198,35.158653,41.713039,39.872898,36.117622,21.399124,22.328865,19.461044,16.881867,6.025761,4.698097,5.659676,7.215351,-8.604355,-8.412849,-5.757259,-2.995399,-13.086851,-33.761914,-50.053859,-61.172743,-34.320409,-49.133358,-60.913064,-69.575467,-36.389888,-53.834244,-64.762584,-69.895742,-36.441598,-53.309476,-56.431645,-54.430969,-34.415517,-46.774189,-45.58881,-41.639883,135.983276,154.179905,-196.042717,187.505614
57,-0.920471,-1.595026,-0.433628,-0.387916,-23.827354,-40.901939,-51.838119,-63.45623,-25.681961,-25.747307,-23.974251,-20.568832,-8.412643,-3.85318,0.763848,4.899491,7.55745,16.17405,20.07827,22.153748,20.805519,32.32473,36.161522,37.326622,-2.711423,-5.696253,-9.120369,-14.824791,-12.720671,-13.601368,-14.826311,-17.120659,-11.734467,-9.79769,-12.223858,-15.615536,-8.136629,-5.713753,-7.964247,-11.530654,-4.726987,-2.599704,-2.458574,-4.142168,20.925465,31.956825,30.103363,23.371307,34.039227,40.241844,38.878201,35.679794,20.311729,21.73716,19.681858,17.579865,5.094852,4.61713,6.227955,7.869759,-9.439133,-8.545349,-5.312988,-2.46698,-12.56338,-32.448433,-48.416905,-59.718459,-33.712316,-48.783906,-60.955326,-70.67996,-36.140972,-52.74522,-63.889218,-70.114727,-36.144035,-52.021424,-55.118029,-53.585921,-33.907003,-45.261872,-43.778436,-39.74903,134.983,152.657309,-196.55615,187.190128
58,0.903855,-0.223931,0.300797,-0.27185,-23.979836,-41.126358,-52.028527,-63.891541,-25.827736,-25.788369,-23.914032,-20.423951,-8.595635,-4.057503,0.434555,4.362213,7.437011,16.216644,19.905098,21.604202,20.8778,32.312942,35.792678,36.398735,-2.776311,-5.908366,-9.256202,-14.676517,-12.863445,-13.948887,-15.278812,-17.636159,-11.61479,-9.908601,-12.464883,-15.873302,-7.767949,-5.385328,-7.895142,-11.577529,-4.111479,-1.828442,-1.51522,-2.984521,20.52341,31.315143,29.58736,23.509849,32.93629,38.64093,37.886936,35.437213,19.264114,20.745483,19.020801,17.237617,4.064987,4.006713,5.7621,7.354808,-10.579995,-9.312047,-6.010243,-3.302685,-12.613324,-32.336159,-48.130593,-59.616225,-33.099826,-48.30915,-60.339409,-70.326105,-35.512711,-51.702576,-62.917563,-69.710009,-35.425285,-50.970278,-54.267361,-53.107972,-33.091416,-44.201599,-42.701558,-38.645859,135.801533,152.490284,-196.340675,186.975184
59,9.042022,5.89525,0.546695,-0.127082,-27.12014,-47.054008,-60.263717,-73.261139,-32.751205,-35.968208,-35.372383,-32.894737,-16.097648,-15.395668,-12.46051,-9.484657,0.149597,5.152199,7.10273,7.776238,14.728981,23.295891,24.885727,24.081414,-5.037327,-10.418357,-14.727622,-21.008966,-17.39012,-20.074491,-20.627392,-21.6034,-16.104903,-16.974132,-18.458958,-20.359938,-12.561312,-13.50061,-15.36018,-17.709932,-9.103419,-9.927132,-9.616676,-10.057426,20.301178,31.14196,29.756642,24.412194,31.856049,36.972393,36.174854,33.768093,17.981404,19.199593,17.401863,15.510647,2.697041,2.815888,4.512634,5.91909,-11.989425,-10.400139,-7.069233,-4.602413,-12.390603,-31.813775,-47.385395,-58.633745,-32.649172,-47.850839,-60.026106,-70.183048,-34.962911,-50.863765,-61.926246,-68.65312,-34.784106,-49.934909,-52.956845,-51.645149,-32.422709,-43.177623,-41.486755,-37.281787,144.770307,158.447951,-195.867228,186.910519
60,8.466751,5.506889,3.252697,-3.402843,-29.54116,-52.177711,-67.804229,-81.741005,-39.33728,-45.640113,-46.200897,-44.8591,-23.606346,-26.748733,-25.675438,-24.23426,-7.455162,-6.175094,-5.940925,-6.376327,8.112305,13.509407,13.35466,11.510811,-6.636267,-14.255379,-19.867009,-26.914102,-21.437427,-24.884168,-24.275359,-23.93454,-20.687623,-23.042919,-23.215938,-23.486238,-17.982035,-21.528509,-22.31466,-23.063754,-15.225231,-19.050138,-18.635564,-17.909194,21.872074,36.664364,40.154274,40.338043,32.590279,35.994129,35.078465,32.869938,16.889958,17.193203,16.039616,14.845276,0.872624,0.304047,1.822849,3.181263,-14.099155,-13.492264,-10.69804,-8.647213,-11.682314,-29.789893,-43.178284,-53.490214,-31.49431,-45.632554,-55.957729,-64.41338,-33.121377,-48.88488,-58.300497,-63.782902,-32.249659,-47.138789,-50.217627,-49.474165,-29.412685,-39.703008,-38.607926,-35.306286,153.146267,163.995534,-192.705322,183.54837
61,7.218888,5.423564,2.980671,-3.373092,-32.021988,-56.698311,-74.309487,-89.181084,-44.600235,-52.858086,-54.722718,-54.613289,-29.378678,-34.89267,-35.858689,-36.09462,-13.013191,-14.12899,-15.943131,-17.817124,3.52272,6.645263,4.432296,1.125229,-8.546616,-18.158771,-24.820115,-32.261602,-25.457083,-30.44057,-28.828625,-27.241429,-24.813879,-29.371362,-28.243762,-26.897381,-22.513021,-29.078442,-28.888974,-28.002725,-20.128313,-27.014317,-26.583479,-24.688303,24.399548,43.490433,52.102112,57.580341,34.992325,37.350575,35.573662,32.957096,17.054077,16.501145,14.722126,13.172253,-0.133106,-1.38509,-0.787651,-0.206898,-15.509331,-16.153313,-14.214798,-12.668289,-11.450391,-28.5886,-40.266171,-50.159476,-30.637195,-43.797924,-52.970312,-60.388049,-31.673077,-46.488717,-55.427633,-60.376971,-30.188479,-44.100977,-48.233549,-48.472128,-26.835247,-36.542875,-36.687241,-34.385457,160.241181,169.46106,-189.848625,180.21724
62,6.534897,4.591822,5.658817,-5.875947,-34.137154,-60.549935,-80.059433,-95.712777,-49.182633,-58.043358,-60.484017,-61.290116,-34.470406,-41.186119,-43.126259,-44.509049,-18.020714,-20.386208,-22.966828,-25.687912,-0.890671,0.698845,-2.802842,-7.249627,-10.608326,-21.94869,-29.41203,-37.580368,-28.771999,-35.45227,-33.657815,-31.568521,-28.178016,-34.785285,-33.234226,-31.061143,-26.160568,-35.174319,-34.451098,-32.640829,-23.946587,-33.418557,-32.743242,-29.905348,26.766404,48.229329,60.17807,69.666882,34.974587,34.999672,31.944066,28.470887,15.395588,13.012391,10.716729,8.693837,-2.168838,-5.196521,-5.68618,-6.00753,-16.959983,-19.777061,-18.961406,-18.190132,-10.927525,-25.81308,-34.849752,-44.017996,-27.275144,-39.228054,-47.551701,-54.118629,-27.652495,-40.978561,-50.2126,-55.311184,-25.928658,-38.244419,-43.59621,-45.173254,-22.789804,-31.457308,-32.883551,-31.853314,166.672554,174.093508,-184.293332,174.381919
63,3.193748,2.217976,7.868718,-7.970162,-35.952095,-62.813988,-82.849022,-99.078369,-51.416954,-60.116569,-63.316338,-64.971863,-36.515167,-43.353882,-45.788338,-47.876816,-19.780083,-21.920174,-24.915573,-28.099937,-2.268883,-0.282967,-4.530785,-9.534897,-12.243118,-24.57927,-32.319585,-40.812891,-30.948979,-39.00177,-37.237468,-34.872088,-29.991335,-38.420378,-36.3148,-33.609273,-27.574103,-38.554518,-37.208717,-34.827152,-24.820133,-35.527902,-34.404538,-30.805978,28.946022,51.964496,66.788601,79.914493,33.287075,31.273716,27.186447,23.223724,12.314827,7.759163,4.735038,2.127102,-5.343499,-10.537182,-12.431546,-13.647274,-19.246788,-24.249276,-24.7836,-24.787709,-9.611038,-21.352799,-27.777373,-36.074017,-23.089844,-32.810551,-39.968665,-45.85966,-23.125925,-33.531233,-42.878437,-48.196073,-21.261606,-30.677321,-37.217863,-40.375532,-18.095928,-25.061294,-28.135705,-28.990862,169.773485,176.343464,-176.517431,166.443737
64,-7.299568,-5.930213,6.763607,-6.50385,-33.408989,-57.793762,-75.750664,-91.137657,-44.900276,-50.33606,-52.409569,-53.111229,-29.117111,-32.150208,-32.909317,-34.002205,-12.3349,-10.64328,-11.886269,-14.154144,4.109894,9.209198,6.630798,2.748413,-10.25767,-20.741118,-27.462391,-35.169422,-26.799031,-34.107692,-33.420861,-32.465131,-25.558724,-32.50475,-31.780078,-30.717477,-22.465825,-30.920636,-30.494953,-29.581208,-18.990166,-27.146827,-25.994565,-23.251963,30.677318,56.182411,74.255207,90.703972,32.929218,28.941249,24.361129,20.205745,10.352451,4.283203,0.59975,-2.463341,-7.722302,-14.421181,-17.503281,-19.812928,-21.367722,-28.222664,-30.172749,-31.443982,-7.922745,-17.485308,-21.732082,-29.437731,-20.037774,-28.691427,-35.142691,-40.320067,-19.917657,-29.002896,-38.6085,-44.111549,-17.959156,-26.224931,-33.707345,-37.980968,-14.682982,-21.038835,-25.538834,-27.779355,162.373592,170.458125,-169.854149,159.984761
65,-7.299889,-6.005907,2.603336,-3.015075,-31.101402,-52.841148,-68.700142,-83.313011,-38.855919,-41.961662,-43.038963,-42.719993,-22.103805,-22.116371,-21.246872,-20.994278,-5.094383,-0.14447,0.209542,-1.069885,10.660996,18.547966,17.574395,14.704102,-8.875103,-17.226741,-22.593191,-29.377264,-23.120917,-29.615368,-29.70067,-29.535438,-21.520148,-27.081489,-27.321525,-27.188305,-17.605123,-23.870338,-24.023541,-23.929106,-13.271991,-18.967343,-17.660439,-15.386572,30.840099,55.365349,72.40646,87.368202,31.925377,27.383789,22.247349,17.478493,9.584942,3.221191,-1.525452,-5.721439,-8.085674,-14.938568,-19.036308,-22.53067,-21.221649,-28.371151,-30.99004,-33.010036,-6.841087,-15.53846,-19.621675,-27.421221,-17.87567,-26.551621,-33.956175,-39.905315,-18.148119,-26.152516,-37.455497,-44.293886,-16.648893,-24.20421,-32.956207,-38.054717,-13.828196,-20.233708,-25.706258,-28.375562,154.993171,164.497648,-167.331345,157.015116
66,-6.54023,-6.214191,3.908501,-3.632394,-28.736274,-48.422927,-62.448097,-75.975952,-33.64714,-35.298728,-35.315483,-33.93132,-16.290916,-14.363616,-11.670433,-9.927429,0.658219,7.745362,9.967827,9.951394,15.577744,25.758912,26.754593,25.29197,-7.080562,-13.565374,-17.882913,-24.129714,-19.412181,-24.60058,-25.041515,-25.316903,-17.765871,-21.694062,-22.813764,-23.559116,-13.337169,-17.298958,-18.146902,-19.08021,-8.372454,-11.369776,-9.855119,-8.143336,30.275791,53.564506,69.558666,83.580597,29.207004,23.342193,18.389763,13.463081,7.512416,-0.080738,-4.735405,-9.201908,-9.301506,-17.126736,-21.511563,-25.329586,-21.413681,-29.585553,-32.69355,-35.017159,-6.017028,-13.282094,-16.792796,-24.620284,-15.099983,-23.301326,-31.267469,-37.88402,-15.78653,-23.381602,-35.152175,-42.673246,-14.897361,-22.188189,-30.853291,-36.307847,-12.810463,-19.039418,-24.304987,-27.028081,148.401357,158.315382,-163.474428,153.414647
67,-5.76567,-5.127371,2.559311,-2.347195,-26.519554,-44.605591,-57.003411,-69.850067,-29.306534,-30.363648,-29.76487,-27.392716,-11.393029,-8.491356,-4.866005,-1.930046,5.501884,13.72483,16.695877,17.428505,19.772873,31.530395,33.92324,33.544304,-5.105067,-10.159629,-13.838533,-19.720877,-16.342136,-20.626361,-21.586197,-22.225196,-14.687181,-17.360746,-19.323606,-20.730355,-9.922958,-12.08024,-13.839379,-15.76593,-4.647559,-5.425145,-4.173908,-3.385244,29.764446,52.63322,68.200607,81.812896,27.678085,21.216648,16.688461,11.893249,6.161819,-1.864563,-6.749199,-11.510674,-10.347657,-18.511918,-23.380143,-27.425801,-22.077553,-30.349595,-33.846497,-36.367585,-4.926794,-11.436812,-15.203884,-23.194585,-14.309762,-22.196185,-30.307713,-37.159953,-15.592448,-22.458915,-34.169343,-41.97328,-14.881528,-21.457873,-29.912523,-35.67341,-12.692198,-18.618391,-23.927821,-27.014088,142.605297,153.196202,-160.945507,151.075643
68,-3.500382,-3.030105,0.173183,0.788318,-24.434898,-42.02536,-53.902954,-66.238472,-26.767273,-27.613952,-25.992874,-22.444954,-8.640014,-5.202621,-0.571106,3.624596,8.058609,16.236901,20.135491,21.751145,21.731919,33.539406,37.274597,37.955475,-4.046332,-8.532419,-11.773766,-17.346259,-14.59392,-17.8598,-19.241157,-20.688105,-12.561152,-14.198921,-17.274301,-19.77339,-7.480865,-8.294717,-11.128017,-14.138054,-2.038517,-1.793566,-1.373799,-1.766099,29.270027,52.971119,68.899143,82.260109,28.768478,21.634003,17.838947,13.480637,7.229851,-0.787113,-5.116882,-9.552361,-9.313946,-17.026268,-21.419037,-25.475796,-21.337578,-29.283474,-32.613304,-35.209991,-4.72863,-12.227026,-16.738709,-25.203616,-15.720815,-24.590181,-33.11435,-39.865621,-17.01632,-25.387286,-37.066864,-44.800813,-16.094306,-24.251146,-32.328557,-37.856973,-13.600849,-20.535816,-25.335737,-27.928705,139.092235,150.139724,-160.785004,151.837588
69,-1.453262,-0.896604,1.384792,-0.782662,-23.679497,-41.131302,-53.077263,-65.430885,-26.517197,-27.047836,-25.186501,-21.470902,-8.308869,-4.416412,0.25827,4.391304,8.404404,16.823845,20.790756,22.202408,22.048874,33.902161,37.612358,38.049225,-4.213755,-8.672957,-11.598388,-16.805276,-14.409193,-17.170752,-18.106802,-19.395879,-12.082067,-13.421903,-16.204308,-18.538715,-6.764332,-7.222723,-9.901963,-12.981554,-1.271132,-0.767706,-0.506329,-1.165453,29.303902,52.898312,68.77668,82.18903,29.523777,22.733334,19.065697,14.676636,8.435795,0.466164,-3.689094,-8.164467,-7.780208,-15.526588,-19.952007,-23.943935,-19.533336,-27.6198,-31.02166,-33.267688,-5.371458,-13.411467,-18.456605,-27.151798,-16.816316,-25.48311,-34.074741,-40.951848,-17.788138,-25.803545,-37.66483,-45.705833,-16.51905,-24.246614,-32.499445,-38.477237,-13.784661,-20.228372,-24.56703,-27.13833,137.635552,149.190271,-159.403633,151.002077
70,-0.86776,0.013931,3.605999,-1.779745,-23.700004,-41.413833,-53.905334,-66.836632,-26.81456,-27.269989,-26.475586,-24.194114,-9.244125,-5.323494,-2.194954,0.089585,7.129006,15.203865,17.68293,17.570618,20.783867,32.020889,34.318543,33.500015,-4.576169,-9.021599,-11.69961,-16.641378,-14.511125,-16.494202,-16.99619,-18.143068,-12.474695,-12.736887,-14.997224,-17.052938,-7.689699,-7.3616,-10.157548,-13.398154,-2.791674,-2.677949,-3.121656,-4.243143,29.371411,51.96682,67.320649,80.815098,29.008816,22.416115,19.203404,15.486626,8.709538,1.026673,-2.417038,-6.121582,-6.970207,-14.513351,-18.184536,-21.264908,-18.311039,-26.364589,-29.459564,-31.01025,-6.240954,-14.28794,-19.794836,-28.365855,-18.744171,-27.204805,-34.966214,-41.023744,-19.108548,-27.006438,-37.570402,-44.565569,-17.242463,-24.544091,-31.747616,-36.994567,-13.778882,-19.797114,-23.528432,-25.697267,136.759895,149.126356,-155.805531,149.144486
71,2.835068,0.309777,3.654442,-1.446405,-27.071846,-45.790398,-59.395065,-73.901688,-32.528366,-33.854553,-35.821793,-35.848709,-16.21907,-14.052727,-15.268456,-16.145691,-0.827179,4.286156,2.768509,0.289902,12.568245,19.721329,18.63414,15.673599,-4.857504,-8.865358,-10.884362,-16.05854,-15.919744,-16.688679,-17.47762,-18.983398,-14.074265,-13.608259,-14.750556,-15.957764,-9.979305,-9.488321,-11.384948,-13.75354,-5.703682,-6.415034,-6.706187,-7.19969,29.595314,51.187958,66.205444,79.783859,29.048836,23.663773,21.893875,20.049339,9.723118,3.422917,1.641449,-0.384487,-5.522117,-12.18528,-14.251648,-15.655128,-16.83926,-23.699032,-25.683449,-26.189392,-6.543956,-15.373821,-21.764964,-30.245957,-22.281549,-30.519721,-36.62357,-40.799936,-21.863147,-28.964494,-37.898451,-43.181797,-18.806094,-25.370107,-31.928094,-36.292625,-13.764173,-19.441932,-23.216438,-25.236979,139.612581,149.222872,-152.133471,147.48482
72,0.922783,-0.39703,2.829117,0.079201,-29.521774,-49.779831,-64.50277,-79.777794,-36.596581,-40.015526,-44.043892,-46.10614,-21.0233,-21.977715,-25.759186,-28.793083,-6.234398,-4.625702,-8.806114,-13.220787,7.148689,10.385353,6.872131,2.361465,-5.563818,-9.05555,-10.287885,-14.189763,-17.742555,-16.75687,-15.905894,-16.337727,-15.361947,-12.640205,-11.356445,-10.965503,-10.906574,-8.195756,-8.04059,-9.095033,-6.026909,-5.570573,-5.098899,-4.945418,30.121891,51.269325,66.371132,80.437626,30.311542,27.530067,27.628658,27.451321,11.837208,8.725044,9.546032,9.274017,-3.26936,-7.070961,-5.983887,-5.639076,-14.926907,-19.246124,-18.56852,-17.595737,-7.331391,-18.095902,-26.052492,-34.582521,-27.916447,-36.417385,-38.501394,-39.525642,-26.142531,-33.833186,-38.323726,-40.244318,-21.283897,-28.163628,-31.308107,-32.781984,-14.122084,-19.022276,-20.868082,-21.142069,140.558527,148.370448,-149.281191,147.108627
73,0.043144,-0.479245,2.39431,-1.686521,-30.598411,-52.9953,-69.822578,-85.977058,-41.988052,-49.052147,-55.839065,-60.454834,-27.455337,-33.380791,-40.131203,-45.502304,-13.189018,-16.838287,-23.878418,-30.187248,0.214096,-1.781731,-7.855087,-14.036201,-6.566829,-9.180409,-9.240962,-11.812527,-18.947108,-15.010636,-11.735679,-9.846604,-16.271444,-9.593112,-4.745662,-1.394498,-11.426185,-4.756783,-1.192654,0.542452,-5.757306,-2.098323,0.273165,2.153113,31.062904,52.189133,67.692444,82.168922,32.099991,34.602379,35.485256,35.647797,14.43932,17.650326,18.857643,18.569286,-0.285896,2.136452,3.603401,3.624435,-11.680698,-10.785645,-9.096474,-8.317944,-7.687395,-19.53812,-28.635592,-37.328186,-33.500302,-37.458331,-35.948521,-35.882849,-30.804267,-32.531395,-33.178459,-34.106111,-24.083117,-24.670636,-25.141532,-26.081639,-14.606331,-14.576777,-15.041604,-15.478185,140.637772,147.205813,-146.85078,144.736716
74,-0.422127,-0.02249,2.02486,-1.708288,-31.523208,-56.612388,-75.547348,-92.687942,-48.803238,-60.615646,-70.529846,-78.451034,-35.525779,-47.600898,-58.06501,-66.833473,-21.894607,-32.142128,-42.485275,-51.258156,-8.508041,-16.607437,-25.302681,-33.407684,-7.982247,-9.426015,-7.902768,-8.766119,-18.915016,-11.078925,-5.326547,-1.32228,-15.255489,-4.047369,4.26533,10.92781,-9.667354,0.992823,7.761965,12.737103,-3.072114,3.77823,8.457195,12.61966,31.006966,52.421574,68.699273,83.730721,33.730889,41.677769,45.810631,48.586213,17.261547,27.037903,31.056645,32.503189,3.383366,12.352867,16.846733,18.773953,-7.212043,-0.579048,3.648194,5.896832,-8.998968,-20.680305,-29.657093,-37.760933,-37.214763,-37.531079,-32.978215,-30.935616,-33.241414,-30.21757,-25.964319,-23.73839,-24.331817,-20.145541,-16.750719,-15.339136,-12.359413,-8.861629,-7.426512,-6.980433,140.271955,146.03274,-144.76961,141.877845
75,-2.140434,0.23895,1.771798,0.011004,-32.139381,-59.344345,-79.571114,-97.236763,-55.586609,-71.390099,-83.590782,-93.733704,-43.013031,-60.594177,-73.720894,-84.794655,-29.901352,-46.190094,-58.835609,-69.475616,-16.682419,-30.309517,-40.604668,-50.417267,-8.834749,-8.52052,-4.554458,-3.858259,-17.003588,-5.05655,3.586451,10.089319,-11.273397,3.94842,15.674434,25.275616,-3.78251,10.832288,21.128576,29.092236,4.578762,15.210954,22.835629,29.438743,30.30344,52.739353,70.152305,85.929897,35.826381,48.700275,56.149692,61.346946,20.324718,35.798034,43.204147,46.951961,7.032749,21.486911,29.550956,34.040107,-2.842438,8.811618,15.820014,20.026886,-9.954697,-21.369656,-30.089704,-37.933216,-38.96798,-35.968855,-28.290636,-23.7406,-33.58151,-25.640932,-18.022488,-13.395103,-22.737132,-13.782735,-7.497784,-4.146633,-8.910516,-1.599861,1.995687,3.821486,138.216625,144.371547,-142.912708,139.988706
76,-7.276566,2.723946,1.296009,1.313221,-30.097961,-58.549186,-79.497894,-97.097488,-56.860862,-75.88449,-89.095115,-100.53527,-44.514404,-66.123344,-79.635543,-91.782325,-31.389816,-51.575889,-64.781524,-76.472396,-18.079238,-34.244796,-44.636329,-55.138481,-10.26064,-8.215312,-1.959532,0.956607,-12.819231,2.468658,14.603225,24.490121,-5.060317,13.918179,28.531037,40.772093,4.677754,23.404407,36.55901,46.748792,15.074362,29.629157,39.42418,47.616891,29.585003,54.058776,73.238834,89.43172,39.295509,56.414383,66.433216,73.537834,24.410614,44.859672,55.461639,61.542446,11.288314,31.11375,42.311393,49.121452,1.684158,17.884861,27.288333,33.493572,-11.067835,-21.361449,-29.229261,-36.754555,-38.510706,-31.114674,-20.788208,-14.476556,-31.720482,-18.35326,-7.431248,-0.640765,-19.499508,-5.62942,4.171265,9.697507,-4.450346,6.754483,12.915173,16.367966,131.048069,144.924447,-141.508689,139.130881
77,-6.426338,6.447817,1.24736,3.824771,-29.499092,-58.670883,-80.482223,-98.932731,-59.203994,-80.8358,-95.969169,-109.08094,-47.959373,-72.612785,-88.870605,-103.472671,-35.664413,-59.472564,-75.07283,-88.331611,-23.069275,-42.407318,-54.318741,-66.264747,-11.457338,-7.983908,0.194162,3.854523,-8.301286,9.902519,23.986331,36.293966,1.084356,22.37115,38.37304,52.41396,12.208656,32.890789,47.529157,59.316668,23.499787,39.903833,51.137801,60.831715,29.34993,56.516327,77.561096,94.107548,43.882782,64.90036,77.173679,86.56755,29.863918,54.775657,68.074962,76.839763,17.022159,41.50478,54.86697,64.123901,7.321941,27.383457,38.254635,46.261207,-11.77589,-20.237227,-26.556808,-33.965678,-36.010444,-23.625429,-12.238221,-4.764136,-28.069088,-8.971717,3.121762,10.856699,-15.308507,3.461315,14.452697,20.768294,0.280952,14.235947,21.11556,24.976122,124.733911,149.192823,-140.149149,140.776211
78,-5.99842,10.112433,1.907661,7.389098,-30.614182,-59.656403,-81.22538,-100.134636,-59.927308,-82.209664,-98.810372,-113.355034,-49.767678,-75.184342,-93.742493,-110.741387,-38.620263,-63.713494,-81.5327,-96.435997,-27.170998,-47.881348,-61.192681,-74.417496,-12.271653,-7.947784,1.514886,5.973612,-4.98106,14.039969,29.157927,42.978102,6.194561,27.346565,43.785464,59.041644,18.532163,38.606321,53.540683,66.136124,30.385834,46.418007,58.292278,69.017398,29.77406,59.106457,81.729275,99.329212,48.414368,70.912285,86.193924,98.530495,35.45929,61.666649,79.129772,91.890393,22.845017,48.416153,65.764263,79.160523,12.643067,33.703011,47.146019,58.455048,-13.251503,-19.830682,-24.43068,-31.01315,-31.265197,-18.403068,-5.846189,4.523557,-21.774103,-2.759793,10.790397,21.513245,-8.698972,9.033863,21.511139,30.781419,6.701476,19.642349,27.766332,34.137604,118.855872,157.08929,-138.121107,145.949343
79,-8.123909,13.173092,3.14756,10.716043,-31.517785,-60.043534,-80.379776,-97.157479,-61.942475,-85.995415,-101.883831,-114.710484,-52.773285,-80.15181,-99.187489,-115.507462,-42.278298,-68.883248,-87.816353,-102.909485,-31.066086,-53.04538,-66.965241,-80.287697,-12.420614,-7.282325,3.607928,9.633027,-1.337057,18.039518,32.57743,45.55996,11.513204,33.220388,49.563314,64.146674,24.673526,44.94836,59.602795,71.49911,36.46058,52.488616,64.169509,74.555694,31.071591,62.117627,86.061036,104.542992,53.212109,76.352177,92.45081,105.63945,40.904618,67.41243,86.998043,102.28196,28.055317,54.109234,72.867932,88.223145,16.808052,38.319638,52.59375,65.290787,-13.339583,-18.300908,-22.074618,-29.006021,-26.558377,-12.271635,1.816481,14.483658,-16.308852,3.381737,17.276333,29.099783,-3.501582,14.505802,27.351073,37.888855,11.454973,24.499624,33.08713,40.919219,110.855141,168.25647,-134.850369,154.659474
80,-7.24347,14.368988,7.141537,14.009835,-32.55011,-60.680992,-80.037689,-94.238136,-63.3666,-87.517158,-100.741481,-110.326984,-55.181259,-83.476913,-102.689529,-118.345298,-45.301025,-72.799507,-92.313011,-107.340065,-34.534996,-57.023986,-71.321548,-84.300224,-12.63821,-6.933571,4.55734,11.965735,2.196301,21.143526,32.87892,42.747229,16.136321,37.28081,52.208059,65.061357,29.615732,49.698238,63.351069,73.952824,40.937608,57.172594,68.377527,77.919782,31.799687,63.242123,87.412983,104.929642,59.207382,84.598526,98.378643,108.096005,47.841259,76.519936,93.293839,104.921848,35.183704,63.612351,79.950485,91.906929,23.28281,47.006298,60.517719,71.179504,-13.34863,-17.118375,-19.723786,-26.437439,-19.788346,-1.202571,13.237855,24.712058,-8.248392,14.946242,29.426911,40.161665,4.898629,25.308492,38.351007,48.04592,19.76848,33.475071,41.795025,48.657583,103.779396,181.157916,-127.541107,167.201767
81,-6.142067,13.996694,5.63887,15.42324,-34.162948,-62.35057,-80.610626,-91.900634,-65.178726,-89.146865,-101.764309,-110.716415,-57.629287,-85.704597,-104.555111,-119.389251,-48.568199,-75.89344,-95.279365,-109.947578,-38.671554,-60.692802,-75.045547,-87.788612,-11.732714,-4.779248,7.075844,15.357352,8.135431,26.203923,35.736766,42.963652,21.797747,41.601993,53.850558,63.486809,34.302279,53.653574,65.369245,73.724483,43.858304,60.426508,71.012825,79.412277,33.014202,64.403149,88.698555,106.021305,62.155484,89.542031,103.304455,112.650856,51.032261,81.739575,98.165245,109.301983,38.742611,69.357502,85.771752,97.122918,26.737301,52.445538,65.958962,75.835888,-13.044553,-16.247374,-18.024699,-23.935479,-14.512706,5.539431,19.778014,30.922815,-2.224337,21.065671,35.514786,45.752992,11.146789,31.802499,44.283295,53.276168,25.752342,39.796275,47.671194,54.004897,97.810318,193.87846,-121.729248,181.348857
82,-5.707443,14.01806,6.255112,15.314163,-34.795189,-62.380234,-79.825378,-89.379639,-66.095146,-90.215721,-102.831425,-111.676494,-59.695244,-88.267937,-106.700123,-120.608356,-51.958488,-80.0606,-98.261616,-111.423672,-43.643349,-65.970817,-79.447906,-90.429909,-7.514865,1.918177,14.493328,23.173509,17.378566,32.824654,39.302099,42.931986,27.887721,43.733852,51.988128,56.778614,36.238562,51.536992,58.791233,62.584487,41.22471,55.132657,62.78767,67.954451,33.241539,63.850525,87.715107,104.936108,63.441204,91.514191,105.291355,114.275494,52.534916,83.895103,100.057846,110.712879,40.747227,72.066238,88.321037,99.059406,29.063999,55.823547,69.123688,78.594543,-13.284143,-15.782256,-16.788541,-22.043563,-9.475032,11.133834,24.528548,35.282099,3.365904,26.909953,41.068026,50.985463,17.042793,38.054001,50.16296,58.67003,31.31561,46.098758,53.711521,59.554728,92.294357,206.755262,-115.282654,195.521762
83,-5.456062,12.331816,6.857231,14.867104,-36.147354,-63.619332,-79.804024,-87.181412,-67.811257,-92.571808,-104.766529,-112.753578,-61.73069,-90.915688,-108.556984,-120.817738,-54.374977,-82.954079,-99.8092,-111.259083,-46.368942,-68.62143,-81.507981,-91.348595,-4.948505,6.411731,19.22194,27.837321,25.830901,38.536357,41.457992,41.047957,34.415234,47.296419,51.47544,51.21515,39.960026,52.813263,56.196926,55.63081,41.660237,53.900033,59.166219,61.467398,32.763062,62.61462,85.797901,102.572067,63.612225,91.998058,106.195805,115.450699,52.868157,84.655014,101.07494,111.621781,41.601265,73.453709,90.115654,100.704048,30.495678,57.95129,71.513077,80.938225,-12.849051,-14.715556,-15.358464,-20.805974,-4.883173,15.979067,28.755919,39.324762,8.402008,32.144066,46.169437,55.887408,22.282549,43.882115,56.009056,64.183897,36.11915,51.777757,59.241974,64.4843,87.000801,218.193524,-108.262917,209.495312
84,-2.778923,10.427842,9.733097,15.788172,-37.214447,-64.239945,-80.432236,-88.651589,-66.233574,-89.068268,-102.519757,-112.207524,-60.343369,-87.242386,-105.049782,-117.877373,-53.870545,-80.762306,-96.827946,-107.425953,-47.051857,-67.980149,-80.492249,-89.530724,-3.727391,7.627003,18.208023,23.929396,31.846601,43.022092,44.404486,42.575439,38.290491,48.64564,49.804029,46.47042,41.360796,52.058672,52.444056,48.840376,40.725014,51.3345,54.363506,54.36584,31.339531,60.194618,82.218785,97.755101,61.167549,91.695385,105.314747,113.066746,50.575173,84.894493,100.790875,109.035301,39.947182,73.927323,90.256405,98.816483,29.71677,59.251431,73.053086,81.080704,-13.60406,-15.969595,-15.695176,-19.273674,-2.281443,20.227928,32.15775,40.872697,12.748089,37.532592,50.548653,58.236851,27.551972,49.909178,60.665457,66.710872,41.186784,57.733116,64.385932,67.800903,84.337401,227.972438,-98.414297,224.634556
85,-2.353272,9.454111,4.08157,11.320555,-38.200493,-65.291473,-81.387634,-90.23307,-66.10675,-88.069244,-102.027466,-111.654854,-60.192032,-85.025253,-100.259388,-109.689766,-54.229385,-79.323784,-92.000827,-98.275623,-48.167221,-67.550445,-77.811927,-83.712959,-2.212542,8.812574,17.440194,20.826352,35.16008,44.541844,46.425343,45.428543,39.722311,47.851049,47.531108,42.994651,40.723285,49.032408,47.346993,42.055723,38.307535,46.750286,47.837538,46.455379,30.966064,59.620834,81.459446,97.553833,57.55307,87.747482,103.737236,114.945076,46.456032,80.436207,99.665634,112.015251,35.698929,68.917076,87.874054,99.748581,25.433578,53.766071,68.578857,78.62503,-12.98421,-14.891285,-14.320242,-18.309825,-0.791937,19.718018,31.210301,40.920405,14.335889,37.00675,49.530932,57.968422,28.889523,50.064245,60.266587,66.46907,41.670858,58.587877,65.208472,69.023647,82.02622,237.003818,-94.290636,235.53238
86,-2.280739,8.27689,5.47784,10.161117,-37.705352,-64.642112,-80.881073,-90.416782,-66.797126,-87.751934,-98.572013,-104.34914,-61.108131,-84.027854,-95.007247,-99.33316,-55.116394,-77.979217,-85.494037,-86.038753,-49.134979,-66.647666,-73.094421,-74.383987,-0.192674,9.519258,16.657741,19.166241,33.204221,42.128724,45.284059,45.33998,36.937009,45.384342,46.735095,43.386444,37.058188,45.441016,44.584217,39.806785,34.185497,42.195452,42.959477,41.196836,29.66478,57.753205,78.962014,95.263287,54.78273,84.534176,101.027218,112.918133,43.875698,77.697888,97.671055,110.749844,33.450417,66.198544,85.458882,97.96748,23.50803,51.562191,66.677101,77.467953,-12.6699,-13.962472,-12.880642,-17.537228,1.057624,20.627589,32.264874,42.671572,16.876338,38.886148,51.360584,60.136478,31.537504,52.277689,62.447907,68.856007,43.851721,60.538177,67.030591,70.796946,79.743564,245.070071,-88.814713,245.48286
87,-8.89389,9.503376,4.713387,8.864506,-34.985733,-61.981178,-79.229896,-90.782604,-70.746071,-84.592014,-87.234535,-86.301956,-65.014801,-78.421497,-80.564026,-77.125797,-57.604866,-70.364994,-69.819878,-64.314354,-49.572029,-60.492794,-61.792877,-58.878296,5.390576,15.273606,21.589846,24.734708,31.987368,42.634892,47.382622,49.293427,33.083499,44.509054,49.450236,49.806239,31.050219,42.368427,45.717633,45.285887,26.85492,36.401299,39.633427,41.023491,28.612324,55.982334,76.943001,93.271625,52.550342,82.399795,99.354412,111.986606,41.907383,75.83345,96.228916,109.829807,31.722278,64.238994,83.608921,96.667339,21.978504,49.686676,64.907226,76.184646,-12.395555,-13.559686,-11.967958,-16.505515,3.006479,21.694883,33.031543,43.18499,19.501027,40.37463,52.48375,61.233524,34.196291,54.170388,64.145772,70.638952,45.952236,62.334719,68.956562,73.074832,70.803366,254.483171,-84.147634,254.25709
88,-10.47892,8.382433,4.040142,7.714084,-30.015747,-56.168941,-74.281162,-87.349583,-71.427864,-77.289036,-72.782043,-66.320698,-66.145157,-69.893005,-64.24284,-54.263454,-58.151001,-61.235287,-53.27449,-42.47612,-49.193996,-54.054371,-50.183418,-42.852745,12.499617,23.485213,30.063583,34.284446,31.83619,44.825501,51.836766,56.241781,29.029313,43.065132,51.428225,55.45245,23.807093,37.596652,44.521775,48.038548,17.65259,28.508695,33.836052,37.978788,27.368671,53.83501,74.651802,91.018478,50.744224,80.74601,97.460884,110.086189,40.273819,74.348236,94.682716,108.25573,30.135738,62.479317,81.607338,94.703407,20.33947,47.951546,62.918392,74.247276,-12.553229,-13.629045,-11.220235,-15.148475,4.815519,22.881726,33.777129,43.398659,21.771355,41.484285,53.174428,61.833343,36.283801,55.350735,64.85978,71.185331,47.481262,63.514905,69.967057,74.175002,60.2677,262.818556,-80.164238,261.924126
89,-11.099922,8.07273,0.702484,4.589142,-24.551605,-49.232723,-67.684055,-81.647644,-70.893139,-70.724407,-59.12003,-46.961552,-66.306576,-61.688175,-48.155502,-31.686699,-57.897904,-52.339748,-37.124474,-20.989311,-48.242912,-47.181393,-38.034988,-26.632645,20.992596,34.577477,42.419495,49.53749,33.469341,46.862363,54.585351,59.985956,26.131737,40.80193,51.12245,57.192046,17.092193,31.939067,41.480815,47.720768,8.123081,19.838271,27.288223,33.772733,26.754673,52.407578,73.384255,90.314667,50.993031,79.135117,96.490769,110.797829,40.730175,72.803673,93.827774,109.541954,30.391377,60.926205,80.798309,95.917168,20.049351,46.147282,61.335812,74.415985,-11.529901,-11.901379,-9.417024,-14.444545,8.027714,23.838389,34.643723,44.958339,24.195392,41.739401,53.937997,64.010156,37.727439,55.365358,65.8014,73.590547,48.064125,63.689647,70.728453,76.167985,49.177363,270.854387,-79.452169,266.476369
90,-12.926651,7.794952,1.796311,5.678976,-18.314575,-40.104321,-57.420662,-71.327866,-65.995422,-59.71051,-42.893303,-27.44664,-62.473938,-49.807125,-30.650185,-11.022263,-54.52644,-40.418713,-20.480896,-1.997086,-45.058971,-38.388027,-25.641563,-12.026436,27.473178,43.39462,52.609437,62.289753,35.926575,50.401736,58.550049,64.416622,24.699387,40.82878,52.466966,59.478219,12.41355,28.905343,40.397935,48.422845,1.017659,13.81852,22.876132,31.001103,26.205745,51.189033,72.202377,89.430107,51.066982,78.746772,96.332336,110.985237,41.222431,72.810607,94.080528,110.156501,31.132427,61.413597,81.413108,96.982315,20.879459,47.162326,62.56937,76.261138,-12.071687,-12.512869,-9.534622,-13.809517,9.538005,24.399724,34.673696,44.519342,25.820502,42.124673,53.920484,63.794869,39.055332,55.404544,65.596338,73.432021,49.067038,64.089579,70.96219,76.433659,36.268473,278.61294,-77.638097,272.118946
91,-17.517586,9.046732,1.871978,5.121764,-9.745788,-25.238903,-39.017601,-51.725887,-53.946453,-39.630604,-19.131958,-2.842163,-53.457413,-31.768741,-8.930923,11.77327,-48.332805,-26.500889,-3.698387,14.508774,-41.089771,-33.653137,-22.61301,-11.881393,22.345794,35.651501,43.783574,52.713239,32.69362,48.266098,55.603269,60.836444,24.237308,40.941165,51.01288,57.244114,13.64116,30.155628,40.096,47.643246,3.816608,15.979957,25.14809,34.075495,25.839386,50.213379,71.239403,88.599678,52.022267,79.434838,96.689095,110.975167,42.436444,73.39769,94.177048,109.965019,32.085903,61.77237,81.339592,96.654557,21.235737,46.847569,62.052841,75.631783,-12.597566,-13.30152,-9.973223,-13.433012,11.050063,25.613849,35.260202,44.164142,27.242121,43.147149,54.607445,63.989927,40.048711,56.187984,66.229849,73.815677,49.617012,64.902857,71.791165,77.116644,18.780092,287.582889,-75.736914,277.163927
92,-12.616802,4.98931,1.556202,4.727846,-4.588062,-12.506607,-18.493366,-24.87339,-37.003704,-19.179932,0.962482,16.35593,-38.862145,-14.61153,8.248363,27.699863,-36.885727,-14.537132,7.7616,24.989582,-32.550316,-26.689877,-17.823097,-9.17696,11.29089,19.904689,26.430732,34.187979,25.143421,41.225513,49.271382,54.968055,23.715072,40.156577,49.826926,55.631884,19.502114,35.634335,44.658577,51.182174,15.330021,27.863601,36.66853,44.73721,25.43795,49.546498,70.706028,88.091091,53.070683,80.457493,97.226132,110.772068,43.667725,74.321995,94.561077,109.875172,33.131035,62.524945,81.742138,96.648319,21.920037,46.931431,61.881466,75.157482,-13.063633,-13.924903,-10.223781,-13.189974,12.021225,26.763172,35.940704,44.079828,28.159497,44.057585,55.02,63.653362,40.722631,56.7932,66.335319,73.246721,50.01545,65.360724,72.058297,76.94809,6.218399,292.464679,-74.125603,281.784253
93,-7.724968,4.472533,1.171131,4.06009,-0.22633,-2.876232,-4.925972,-8.744728,-26.207027,-6.354973,13.786983,27.929134,-30.553551,-4.485809,18.556629,37.299076,-31.861668,-9.065266,13.057011,29.217831,-30.486557,-28.375179,-23.497032,-18.925713,0.11777,3.413525,7.397773,12.916877,18.55259,35.329559,43.079335,48.243979,23.657731,40.881106,49.294674,53.833898,24.841758,41.566894,48.534613,53.237166,25.342072,37.858041,46.295481,53.896636,25.122551,49.10146,70.628243,88.243538,54.009705,81.620247,98.166916,111.163651,44.740677,75.524437,95.514908,110.457619,34.062481,63.474083,82.515129,97.077599,22.688439,47.252312,62.139416,75.269097,-13.436173,-14.22548,-10.141789,-12.687783,12.861079,27.856191,36.684573,44.125053,28.944962,44.831528,55.159852,63.000821,41.287671,57.303938,66.312965,72.547743,50.325388,65.662646,72.061162,76.414356,-1.426666,296.833027,-72.874569,285.740158
94,-8.132996,4.083777,0.644154,3.500927,1.307408,3.916111,7.587021,7.585362,-15.845523,7.812767,28.391636,42.375241,-22.01762,6.531063,29.971608,47.779164,-25.503238,-1.749652,20.803128,36.197857,-26.148651,-25.140781,-20.998157,-17.168472,-10.013707,-10.799369,-7.742872,-3.156447,11.500446,28.541448,36.838789,42.472526,22.904586,39.510284,47.878404,52.556578,29.642902,44.792711,50.741054,54.882827,34.955833,47.007908,54.15805,60.356631,25.174187,49.29586,71.176609,89.101696,54.779583,82.733997,99.02116,111.464046,45.661148,76.560207,96.180599,110.645817,35.112694,64.34008,83.061848,97.166347,23.951271,47.960358,62.625,75.432918,-13.67427,-14.53785,-10.152817,-12.249775,13.528404,28.789969,37.349996,44.292126,29.635616,45.58907,55.406175,62.624427,41.798175,57.806537,66.332811,71.939477,50.539501,65.713257,71.808616,75.598769,-9.507317,300.832709,-72.17807,289.15699
95,-11.154499,3.387689,0.328743,2.90432,6.068734,14.884621,22.058945,23.694352,-2.251728,24.550095,44.674118,57.019707,-10.45618,20.157601,42.961487,59.896225,-17.083053,7.696026,29.663338,43.295563,-20.950298,-22.778457,-22.61618,-22.84893,-20.701616,-26.504722,-25.801965,-23.468244,3.838875,21.13787,28.779496,33.827987,21.487871,39.016689,45.863735,49.277249,33.136728,48.80986,52.884794,55.533973,42.539476,55.010354,61.793699,67.447913,25.233147,49.497711,71.63316,89.881267,55.57037,83.891064,100.044262,112.091869,46.666569,77.797703,97.209354,111.365375,36.246185,65.462025,83.926495,97.616558,25.198517,48.864899,63.384544,75.970699,-13.979281,-14.903623,-10.172664,-11.76853,14.026618,29.360196,37.67321,44.208564,30.115317,45.742457,54.893362,61.432002,42.095799,57.904485,65.915921,70.935242,50.570919,65.506504,71.28885,74.628942,-20.589707,304.148894,-71.777218,291.989806
96,1.628746,0.261439,0.004543,2.203983,5.767342,14.297036,20.352677,20.728798,-3.331283,23.492043,43.881752,56.145012,-11.996555,18.864235,41.843125,58.895531,-18.847721,5.646469,27.557854,41.125878,-22.830356,-25.427845,-25.694687,-26.153125,-20.373363,-25.551197,-24.121872,-20.917335,5.196248,22.813072,30.031164,34.835729,22.186738,40.027593,46.464493,49.216054,33.590384,49.899372,53.173477,55.085221,42.957217,55.916813,62.346155,67.645464,25.260956,49.670758,72.092903,90.623589,56.202324,84.816147,100.854607,112.642525,47.616142,79.098656,98.391312,112.35759,37.406513,66.883942,85.143975,98.47728,26.5765,50.272568,64.664578,77.098824,-14.27031,-15.22139,-10.191288,-11.477166,14.423846,29.550314,37.623699,43.810052,30.501628,45.550488,54.005564,59.8515,42.315878,57.68106,65.088454,69.413539,50.530856,65.131766,70.51182,73.303062,-18.890826,304.382295,-71.70254,294.165751
97,1.410336,2.481625,-0.165676,1.395275,5.651344,13.713238,18.123859,16.644504,-4.790657,22.078983,42.784367,55.213039,-13.53582,17.466396,40.008236,56.434719,-20.353901,4.431541,25.92857,38.820248,-24.35099,-28.304627,-29.314602,-30.544762,-20.815409,-26.138677,-24.62373,-21.304818,4.347748,21.251849,28.108553,32.535465,21.484463,38.395456,44.514489,46.876739,33.047969,48.319957,50.714527,52.078569,42.723283,54.952149,60.703508,65.253785,25.494392,49.958771,72.434956,91.041813,56.602787,85.520542,101.572895,113.257038,48.256748,80.219479,99.652943,113.591366,38.244186,68.214832,86.593403,99.758,27.617901,51.698158,66.201519,78.546513,-14.620188,-15.356203,-9.999306,-10.819672,14.605035,29.547066,37.445265,43.416838,30.644334,45.19819,53.112789,58.460153,42.304726,57.259688,64.205201,68.020932,50.300737,64.562551,69.533829,71.777135,-17.386225,306.87879,-71.773951,295.575896
98,-4.363529,0.509429,-0.006248,0.651541,5.163334,15.645721,24.143715,25.431015,-0.472813,27.370949,48.416748,61.938034,-9.261006,22.435455,45.205421,60.849014,-15.581829,9.871353,31.557907,44.350708,-19.088814,-19.951882,-17.930329,-16.387551,-20.237253,-24.684974,-22.226258,-17.427597,4.447685,20.384206,27.393557,31.870993,21.865623,37.109503,43.45584,46.003637,34.018697,47.619559,50.281545,51.588258,43.870061,56.198012,61.248369,64.4895,25.807731,50.23114,72.602199,91.254581,56.788387,85.80273,101.788135,113.343555,48.698948,80.805393,100.245929,114.11919,38.881656,68.960575,87.321041,100.323406,28.384941,52.630016,67.104847,79.306697,-14.683507,-15.344026,-9.71124,-10.094599,14.901276,29.70574,37.478412,43.340465,30.858756,45.103082,52.726602,57.761657,42.402897,57.132531,63.830561,67.288485,50.265391,64.403852,69.141344,71.0067,-21.641527,307.411295,-71.671972,296.250513
99,-1.533222,0.411739,0.051887,0.44301,8.013988,19.19308,26.474521,26.309795,1.843654,29.277362,50.288394,63.302639,-7.895554,23.245456,45.613163,62.07423,-15.482438,9.337726,30.16666,42.56322,-20.130925,-23.724679,-24.895066,-26.150483,-22.032102,-27.391531,-25.690839,-22.132521,2.60998,19.382961,25.983215,29.981344,20.738493,37.833786,43.113977,44.450232,33.409209,49.220698,51.190363,51.935975,43.611908,56.573826,62.149616,66.163801,25.987255,50.296383,72.557797,91.165753,56.862969,85.997669,101.941532,113.389858,48.795513,81.223721,100.678906,114.50005,38.949635,69.321751,87.725063,100.648602,28.442974,52.842178,67.386326,79.60738,-14.886765,-15.516409,-9.519765,-9.327239,14.72919,29.630071,37.326481,43.112977,30.749247,44.952435,52.359002,57.194948,42.305775,57.026913,63.524674,66.749552,50.117449,64.22564,68.817895,70.464074,-23.069486,307.838086,-71.514822,296.708575
100,3.426841,0.040817,0.110069,0.237233,6.995831,16.732853,23.506314,22.739125,-1.892967,25.24625,46.614979,60.011204,-11.95721,19.062069,41.714321,58.691311,-19.152134,4.712666,25.430752,38.153927,-23.082939,-27.974304,-29.362793,-30.47129,-21.736453,-26.722886,-24.62415,-20.826191,2.465349,19.725577,26.73883,30.98259,20.6103,37.756228,43.231612,44.561333,33.480642,49.334763,51.275875,52.151298,43.892737,56.767018,61.928859,65.642763,25.902455,50.147004,72.423237,91.023983,56.713131,86.03452,102.000103,113.385807,48.665142,81.446034,100.904629,114.575947,38.826783,69.531132,87.950673,100.786343,28.405175,53.010167,67.574788,79.770779,-15.056467,-15.749258,-9.617022,-8.896419,14.587596,29.613509,37.31954,43.105529,30.645469,44.962401,52.338155,57.095098,42.186115,57.022183,63.418834,66.453656,49.911079,64.106375,68.594025,70.028795,-19.550274,307.876022,-71.312382,296.942927
101,-4.808933,1.28163,0.026127,0.098133,8.584579,20.176804,28.571548,28.742729,3.373146,31.499565,52.714325,66.013847,-6.449684,24.740433,46.989166,63.673553,-14.070328,10.00256,29.855095,41.826462,-18.598148,-22.630852,-23.959866,-25.177311,-22.157419,-27.887029,-26.682291,-23.739983,0.666472,17.659902,24.597499,28.607064,19.382862,36.752178,42.244149,43.53777,32.671513,48.453931,50.561917,51.733865,43.235514,55.984134,60.744016,64.005105,25.92881,50.116162,72.350441,90.972176,56.522496,85.981476,102.005448,113.383507,48.425949,81.456299,100.968407,114.543503,38.588505,69.462044,87.963066,100.75335,28.265751,52.933514,67.568779,79.75502,-15.135347,-15.873807,-9.645747,-8.409801,14.488833,29.841455,37.571112,43.288459,30.647113,45.199585,52.546291,57.176634,42.231873,57.234568,63.512572,66.345409,49.940004,64.255491,68.675314,69.955214,-24.275997,309.138855,-71.203045,297.022263
102,-5.899372,-0.785848,0.104588,0.169752,11.676361,25.170833,33.972713,34.388958,10.061794,38.479031,58.970249,71.314075,0.092903,31.519993,53.418423,70.090794,-8.491963,16.148231,35.398716,46.418369,-14.255871,-16.83157,-18.696659,-20.807385,-22.949034,-28.997067,-28.084297,-25.668905,0.419977,17.933629,23.907055,26.682773,19.268586,38.845776,43.190239,43.416134,32.402158,50.511281,52.054017,52.791094,42.435464,56.324539,61.020152,64.392539,25.844776,50.022617,72.328594,91.069164,56.453853,85.978626,101.938556,113.21545,48.341457,81.475628,100.886867,114.339397,38.51247,69.427196,87.863033,100.581196,28.252807,52.90068,67.49715,79.653293,-15.125491,-16.0124,-9.78576,-8.240963,14.557425,30.01942,37.749336,43.458928,30.763043,45.405918,52.708843,57.317647,42.355905,57.416003,63.577298,66.271913,50.040447,64.398356,68.737175,69.911643,-30.115826,308.31478,-71.038914,297.153788
103,-0.473625,0.848809,-0.007519,0.304195,13.649322,26.888752,33.117611,31.3847,11.387878,39.548252,59.592991,70.843265,1.419193,32.207279,53.198421,70.089122,-7.995404,15.877018,33.58089,43.469066,-14.72628,-19.424389,-24.365124,-29.426823,-24.099605,-31.164297,-31.360663,-30.254923,-0.53461,17.2852,22.677925,24.87461,18.341774,39.18922,42.95513,42.562039,31.247944,50.542008,51.415221,52.100267,41.124527,54.803799,59.447554,63.261778,25.800419,49.974838,72.273857,91.016647,56.49329,86.114868,102.030258,113.217293,48.273663,81.519035,100.806976,114.097023,38.384399,69.357994,87.739311,100.356079,28.115444,52.77142,67.368393,79.454155,-15.18366,-16.265256,-10.141307,-8.383359,14.360108,30.014381,37.777964,43.453493,30.740479,45.543103,52.83716,57.409296,42.429709,57.611739,63.706789,66.2864,50.152178,64.551683,68.835062,69.921029,-30.543972,309.114026,-71.000954,297.40842
104,-2.256272,0.605586,0.063973,0.140297,14.453637,28.368794,34.90836,33.538823,14.180981,42.796635,62.482624,73.359684,4.416115,35.536732,56.094853,72.334843,-5.286266,18.921696,36.155377,45.51376,-12.501663,-16.408023,-21.125244,-26.131302,-24.156366,-31.584138,-32.025406,-31.122516,-0.663076,16.550543,21.707542,23.755334,18.258621,38.828832,42.529843,42.238208,31.13646,50.187635,50.943361,51.652528,40.905029,54.720399,59.24747,62.84442,25.771076,49.905235,72.197914,91.061302,56.512195,86.141052,102.045913,113.205642,48.223411,81.479187,100.692649,113.800369,38.295295,69.292694,87.61782,100.129348,28.006645,52.666831,67.238159,79.270706,-15.261701,-16.361142,-10.206565,-8.344358,14.458155,30.246377,38.036266,43.686576,30.901574,45.815459,53.112839,57.663276,42.62011,57.889097,63.961089,66.498908,50.349668,64.885728,69.156028,70.202487,-32.755904,309.659726,-70.892641,297.488831
105,-1.175892,0.118549,0.070644,0.095429,14.874127,29.163643,35.684807,34.119851,15.655129,44.303193,63.792092,74.435509,5.964501,36.944756,57.29171,73.381714,-3.912414,20.287365,37.390046,46.654358,-11.476684,-14.957187,-19.435386,-24.233882,-23.919529,-31.394564,-31.945502,-31.314598,-0.615331,16.394956,21.635776,23.762237,18.275491,38.909848,42.760332,42.633349,31.090616,50.19176,51.077149,51.990771,40.750998,54.770738,59.382679,62.986704,25.90844,49.983639,72.223057,91.158337,56.560593,86.079288,101.852062,112.883114,48.216339,81.401653,100.498684,113.471271,38.25745,69.199459,87.446194,99.860081,27.927944,52.548546,67.094479,79.10899,-15.313966,-16.373307,-10.142073,-8.345482,14.619954,30.514312,38.358726,44.010112,31.125555,46.106489,53.357667,57.876648,42.867087,58.132962,64.120146,66.623384,50.585493,65.182364,69.454814,70.518415,-33.89403,309.724209,-70.784231,297.530194
106,-1.415817,-0.352509,-0.053078,0.114807,15.260754,30.107025,37.204239,36.142937,17.338692,45.876366,65.180832,75.612854,7.723377,38.634613,58.825333,74.76622,-2.294746,21.941426,39.060333,48.373261,-10.219448,-13.408092,-17.758541,-22.537903,-23.814182,-31.02915,-31.400319,-30.723769,-0.088809,16.693471,22.018653,24.315868,18.812337,39.369445,43.363165,43.526705,31.559104,50.595139,51.584133,52.678906,41.129282,55.160075,59.868136,63.58088,25.966301,50.029988,72.313328,91.246044,56.502766,86.063931,101.822674,112.799275,48.111672,81.353932,100.45966,113.365231,38.15744,69.165997,87.424702,99.77084,27.871433,52.55056,67.132725,79.140255,-15.362947,-16.396711,-10.201057,-8.468057,14.834857,30.692054,38.543508,44.189249,31.374297,46.335212,53.537866,58.030604,43.10485,58.286806,64.226764,66.709723,50.76442,65.342371,69.630493,70.694156,-35.268122,309.322035,-70.795584,297.595336
107,3.313351,-0.568017,0.007908,0.110187,13.9552,27.362926,33.622799,31.871921,13.326382,41.621807,61.109608,71.404003,4.003567,34.410038,54.369083,70.310406,-5.551758,18.039013,34.927769,44.211285,-12.894047,-17.234642,-22.39278,-27.979282,-23.513767,-30.761289,-31.304742,-30.82714,1.544711,18.495681,23.737303,26.249371,20.126349,40.490498,44.371104,44.683067,32.457437,51.440761,52.162598,53.390616,41.768707,55.49407,60.348505,64.466627,26.008301,50.108002,72.418236,91.363037,56.350456,85.918282,101.592774,112.466766,47.863461,81.192856,100.218887,112.992279,37.863842,68.955963,87.162026,99.411873,27.586464,52.253128,66.854874,78.840889,-15.327539,-16.368466,-10.239564,-8.581467,15.141448,31.004474,38.823423,44.403696,31.735834,46.67495,53.809297,58.257537,43.439315,58.558632,64.430503,66.88176,51.023859,65.58615,69.852227,70.920484,-31.919008,308.690986,-70.751913,297.642491
108,0.843441,0.355781,-0.117439,-0.005607,13.938229,26.811424,32.023521,29.587234,13.261619,41.349335,60.484657,70.189018,4.040119,34.331749,53.969833,69.374565,-5.787243,17.938133,34.912514,44.151764,-13.556248,-17.844292,-23.013554,-28.78109,-23.608726,-31.028199,-31.676158,-31.283981,1.892107,19.026586,24.1268,26.667113,20.234918,40.716962,44.469362,44.858834,32.27883,51.359571,51.964676,53.162288,41.486434,55.196433,60.152632,64.43322,26.065899,50.199737,72.536339,91.363884,56.218746,85.759643,101.429443,112.295883,47.723156,81.08448,100.128067,112.928879,37.746391,68.916755,87.121353,99.366119,27.518303,52.219127,66.859314,78.872406,-15.188156,-16.149882,-10.095427,-8.516086,15.548976,31.337877,39.141561,44.726453,32.019219,46.92893,54.024583,58.487644,43.596878,58.654777,64.493131,66.956886,51.084412,65.645591,69.949743,71.085284,-31.049395,308.978783,-70.84318,297.5689
109,7.150371,-0.401415,-0.253533,0.147435,11.620388,21.965115,24.946003,21.034756,5.954556,32.844166,51.961316,61.532422,-3.624584,26.259671,45.942502,61.440571,-12.936504,10.102444,27.446812,37.014645,-19.88277,-25.69115,-31.464374,-37.589401,-23.120811,-30.243079,-30.565206,-29.916531,3.279799,20.910221,26.096416,28.727058,21.226951,41.44085,45.172736,45.481315,32.897742,51.759776,52.124091,52.991042,42.068432,55.382809,60.38353,64.854976,26.01986,50.268082,72.739129,91.577797,56.288132,85.876946,101.54068,112.355988,47.890847,81.299698,100.332322,113.161103,38.000473,69.235039,87.404526,99.633408,27.895237,52.664463,67.255074,79.188378,-15.267159,-16.163701,-10.172664,-8.660581,15.41215,31.189047,39.059334,44.685958,31.835993,46.850915,54.003502,58.512789,43.381888,58.534821,64.353019,66.823098,50.869706,65.40579,69.68986,70.843284,-23.877388,308.500069,-71.075077,297.639036
110,4.041218,2.149001,-0.201461,-0.095923,9.408943,18.680214,21.648743,18.178231,1.533726,28.268509,48.025475,58.432411,-8.0881,21.950501,42.419998,57.809761,-16.576378,6.154541,24.074639,34.412888,-22.317547,-28.476059,-32.96569,-37.459717,-22.610877,-29.687523,-29.8048,-28.604149,2.002233,19.175899,25.149103,28.689377,20.085767,38.329481,42.768348,43.758602,32.178263,48.723273,49.66004,50.700942,42.028911,54.089113,58.731916,62.575892,26.014892,50.264488,72.809623,91.704391,56.194656,85.911804,101.750404,112.725334,47.790367,81.241676,100.407165,113.316444,37.899341,69.148155,87.38063,99.631965,27.852768,52.587513,67.168762,79.024475,-15.105299,-15.940819,-9.981583,-8.4335,15.414916,31.379349,39.265173,44.843075,31.900066,47.160346,54.458133,59.016598,43.515726,58.851008,64.740985,67.209013,51.094811,65.670514,69.896292,70.955843,-19.813128,310.568976,-71.253496,297.463019
111,3.943543,2.902689,-0.20739,0.059725,7.402038,15.246322,19.631836,18.282875,-2.551392,24.249115,44.57016,55.687294,-11.909066,18.415924,39.604088,55.03244,-19.399807,3.299137,22.314079,33.908088,-23.715649,-30.618176,-34.778321,-38.700474,-21.569233,-28.8409,-29.864006,-29.511781,0.962183,18.053561,24.993912,29.765465,18.396004,35.452839,40.288624,41.751096,30.504247,45.669419,47.224628,48.191467,40.522881,51.795295,56.557067,60.293115,26.030697,50.3302,72.902641,91.789032,56.353306,86.027435,101.824722,112.75058,48.000606,81.384224,100.480499,113.387947,38.104133,69.317665,87.472114,99.724937,28.017631,52.658146,67.16716,78.9841,-15.031631,-15.844773,-9.876916,-8.326425,15.351017,31.316215,39.2444,44.843495,31.78495,47.155937,54.534358,59.141075,43.414381,58.892146,64.823224,67.321905,51.072383,65.716826,69.957054,71.046616,-15.841512,313.37907,-71.432813,297.430149
112,4.237587,2.137256,-0.197262,0.05155,6.221054,13.106941,17.563453,16.664634,-6.002095,19.971771,40.391464,52.185631,-15.574608,14.637748,36.269623,51.627777,-22.391098,-0.044277,19.951355,32.958206,-25.736355,-32.469258,-35.534993,-37.716099,-19.713695,-26.714648,-27.65281,-27.013594,0.407158,16.686752,24.38236,29.92488,17.293141,32.624991,38.282687,40.160196,29.220604,42.344691,45.143886,46.485822,39.292318,49.705093,54.600431,58.154315,26.053963,50.244678,72.793842,91.703579,56.471065,86.154568,102.118778,113.203205,48.206428,81.455601,100.660915,113.656414,38.32497,69.489178,87.66647,99.915104,28.224312,52.909527,67.414547,79.237598,-14.922938,-15.651556,-9.659617,-8.084846,15.272395,31.292441,39.343916,45.038885,31.61973,47.130384,54.654869,59.329758,43.301784,58.901,64.89389,67.420174,51.133206,65.867954,70.099895,71.17245,-11.558143,315.437533,-71.584293,297.402906
113,3.615406,2.190794,-0.118252,0.234528,4.436176,10.410244,16.496074,17.312244,-9.866467,15.899128,36.574024,49.405826,-19.501019,10.853679,33.20589,48.943943,-25.196709,-2.631535,18.25645,32.69157,-26.978966,-31.279324,-31.199238,-30.05072,-18.007124,-24.742378,-25.97394,-25.66956,-0.427066,15.205322,23.674527,29.896956,16.05733,29.561799,35.838704,38.074501,28.122706,39.278856,42.998034,44.42337,38.25291,47.908452,52.052337,54.697947,25.971565,50.104923,72.69056,91.757538,56.499584,86.201409,102.206291,113.322716,48.304711,81.539246,100.766075,113.725228,38.433975,69.658241,87.797402,99.961304,28.313782,53.035412,67.506294,79.264893,-15.00209,-15.749974,-9.673054,-8.003854,14.978698,31.124307,39.228011,44.930353,31.419276,47.033535,54.603518,59.273553,43.267772,58.934914,64.875094,67.352384,51.287718,66.038792,70.175675,71.143328,-7.878788,317.534608,-71.638596,297.543715
