takenoko1/special-research/HandMotion_SimilarSearch_自分用/NewProject/handData_new/key/d3_feature/124.csv
,vel_0x_L,vel_0y_L,vel_0x_R,vel_0y_R,posFromWrist_1x_L,posFromWrist_2x_L,posFromWrist_3x_L,posFromWrist_4x_L,posFromWrist_5x_L,posFromWrist_6x_L,posFromWrist_7x_L,posFromWrist_8x_L,posFromWrist_9x_L,posFromWrist_10x_L,posFromWrist_11x_L,posFromWrist_12x_L,posFromWrist_13x_L,posFromWrist_14x_L,posFromWrist_15x_L,posFromWrist_16x_L,posFromWrist_17x_L,posFromWrist_18x_L,posFromWrist_19x_L,posFromWrist_20x_L,posFromWrist_1y_L,posFromWrist_2y_L,posFromWrist_3y_L,posFromWrist_4y_L,posFromWrist_5y_L,posFromWrist_6y_L,posFromWrist_7y_L,posFromWrist_8y_L,posFromWrist_9y_L,posFromWrist_10y_L,posFromWrist_11y_L,posFromWrist_12y_L,posFromWrist_13y_L,posFromWrist_14y_L,posFromWrist_15y_L,posFromWrist_16y_L,posFromWrist_17y_L,posFromWrist_18y_L,posFromWrist_19y_L,posFromWrist_20y_L,posFromWrist_1x_R,posFromWrist_2x_R,posFromWrist_3x_R,posFromWrist_4x_R,posFromWrist_5x_R,posFromWrist_6x_R,posFromWrist_7x_R,posFromWrist_8x_R,posFromWrist_9x_R,posFromWrist_10x_R,posFromWrist_11x_R,posFromWrist_12x_R,posFromWrist_13x_R,posFromWrist_14x_R,posFromWrist_15x_R,posFromWrist_16x_R,posFromWrist_17x_R,posFromWrist_18x_R,posFromWrist_19x_R,posFromWrist_20x_R,posFromWrist_1y_R,posFromWrist_2y_R,posFromWrist_3y_R,posFromWrist_4y_R,posFromWrist_5y_R,posFromWrist_6y_R,posFromWrist_7y_R,posFromWrist_8y_R,posFromWrist_9y_R,posFromWrist_10y_R,posFromWrist_11y_R,posFromWrist_12y_R,posFromWrist_13y_R,posFromWrist_14y_R,posFromWrist_15y_R,posFromWrist_16y_R,posFromWrist_17y_R,posFromWrist_18y_R,posFromWrist_19y_R,posFromWrist_20y_R,posFromBody_0x_L,posFromBody_0y_L,posFromBody_0x_R,posFromBody_0y_R
6,-0.802883,1.097589,0.294835,-0.081387,7.163784,9.792446,11.412861,12.840202,-10.143974,14.805073,33.518291,44.633846,-19.796837,8.043514,28.533108,45.372219,-24.979568,-1.774853,17.7243,32.884975,-26.395214,-25.238239,-22.553993,-18.652473,-19.509364,-30.919308,-35.600051,-37.8975,-11.67504,2.50514,10.13097,14.409532,5.591981,19.342575,24.78911,27.514514,18.601163,29.402285,31.714925,32.873535,28.525442,37.074144,38.227617,37.914864,26.325348,51.518142,75.034744,95.442878,51.843372,83.726806,101.248878,114.18013,42.949974,78.970298,99.514457,112.825813,34.217422,67.938823,86.838546,99.29512,26.277511,51.806694,67.127563,79.055465,-14.069288,-15.516854,-10.260449,-6.898287,15.265702,32.450792,40.004856,44.383108,32.77723,48.151106,54.552191,56.640096,45.224668,61.009901,65.562487,65.17199,53.012901,68.639979,71.88894,70.030549,-2.874533,325.939818,-69.442171,296.259717
7,-5.725296,5.377077,0.291172,-0.160267,7.694721,12.071423,16.369778,20.216549,-4.942474,21.425961,39.17767,49.574512,-13.760353,15.075794,34.58955,50.777767,-18.311005,5.851856,24.472309,39.161602,-18.972782,-18.489407,-18.909485,-17.861492,-19.663739,-32.796866,-39.883751,-43.813275,-15.55993,-2.686278,6.042785,11.524109,0.792629,14.340904,20.548895,24.080599,13.310326,24.219636,27.235637,28.80406,22.829819,30.470346,32.613419,33.307123,26.018142,51.200145,74.833522,95.255916,51.539234,83.437076,101.014812,114.028782,42.583912,78.535183,99.158489,112.481083,33.747802,67.400001,86.362026,98.896968,25.668239,51.175964,66.527,78.564388,-13.965906,-15.378607,-10.076667,-6.778071,15.322006,32.426067,39.993667,44.464656,32.800534,48.114426,54.581436,56.687409,45.214652,61.097932,65.669945,65.257625,52.962735,68.795529,72.100608,70.234165,-8.787214,331.289845,-69.338384,296.0724
8,1.587238,1.159389,0.077579,-0.081807,6.341584,9.632675,14.025055,18.373146,-7.311779,18.633271,36.163971,47.08326,-15.363624,12.729218,31.78244,48.198532,-18.870071,4.679238,23.195664,37.917939,-18.257789,-20.372383,-23.4333,-24.343849,-18.863417,-31.945835,-39.548755,-44.419097,-15.703043,-3.471756,5.315735,10.382146,-0.333032,12.938169,19.348677,22.946367,11.6031,23.037436,26.053178,27.419048,20.935897,28.282776,31.623436,34.09985,25.873993,51.055229,74.749558,95.131691,51.458851,83.300308,100.884979,113.948547,42.419586,78.214256,98.823372,112.152626,33.454651,66.928814,85.863213,98.419922,25.224495,50.621349,65.96267,78.044953,-13.893744,-15.298109,-9.995576,-6.748925,15.379619,32.366602,39.952344,44.495247,32.787307,48.10078,54.637826,56.800869,45.146504,61.163993,65.784467,65.39849,52.853573,68.851672,72.209771,70.367978,-7.3499,332.427767,-69.410729,295.969126
9,8.706047,-4.066302,-0.101406,-0.169752,4.213406,4.553582,4.996903,5.279663,-16.592434,6.559044,25.087716,37.067688,-25.35823,1.247166,21.384064,38.611908,-28.765079,-6.779056,13.283776,29.123246,-27.994125,-31.182483,-32.054649,-30.285392,-18.105739,-30.599576,-36.808235,-40.197591,-13.151454,0.62715,9.022896,13.023718,3.061104,16.382928,22.78568,25.853107,15.409359,26.741745,29.798761,30.802835,25.02743,33.21856,35.821711,37.336041,25.739456,50.985363,74.779919,95.171299,51.517639,83.291096,100.872402,113.965725,42.436993,78.054417,98.638722,111.973789,33.358292,66.692276,85.585659,98.144268,24.982361,50.341805,65.640129,77.733341,-13.835167,-15.175287,-9.833086,-6.652829,15.440406,32.349571,39.98995,44.655206,32.761298,48.054875,54.719325,57.016638,45.087755,61.183383,65.894198,65.605984,52.788179,68.897825,72.320304,70.577226,1.23282,328.347818,-69.635462,295.785727
10,-1.172664,-1.859675,-0.004257,-0.19192,5.119285,5.780513,6.033085,5.34415,-15.61805,7.67332,26.545246,38.41325,-24.944172,1.862732,22.339702,39.726894,-28.909973,-6.826115,13.188938,28.95441,-28.792122,-30.432724,-29.228474,-25.612175,-19.424148,-31.529736,-36.853152,-39.462206,-12.684881,1.518245,9.732334,13.903772,4.257901,17.89191,24.069076,27.137454,17.085968,28.070169,31.02873,32.275718,27.040604,35.555776,37.435706,38.104981,25.653454,50.936588,74.779484,95.140674,51.612785,83.277363,100.835094,113.945263,42.466862,77.903263,98.457973,111.782123,33.266453,66.455555,85.348858,97.938457,24.770164,50.070568,65.365185,77.487614,-13.734601,-14.971943,-9.586925,-6.482139,15.620347,32.526473,40.229343,44.957968,32.883798,48.208559,54.952581,57.242879,45.186049,61.379959,66.13831,65.84828,52.872061,69.015693,72.504826,70.862463,-0.044563,326.471424,-69.744438,295.577088
11,-0.235955,-0.190167,-0.172074,-0.052031,5.277546,6.170117,6.051075,4.948094,-14.729267,9.032101,28.377354,40.291157,-24.24979,2.319581,23.045987,40.434758,-28.593784,-7.250358,12.653378,28.317639,-29.070671,-31.501865,-31.675975,-29.801559,-20.39001,-31.95007,-36.93134,-39.24172,-13.016764,0.681935,9.039631,13.929189,4.422392,17.834816,24.189168,27.577784,17.607068,27.869554,30.942601,32.523769,27.776941,35.714759,37.408598,37.474868,25.670735,50.984883,74.885708,95.206799,51.915608,83.415081,100.914013,114.035695,42.750035,77.902966,98.301281,111.574345,33.455876,66.360272,85.136502,97.700009,24.844288,50.042199,65.259934,77.363469,-13.681866,-14.904166,-9.492496,-6.412966,15.629251,32.550272,40.309076,45.053829,32.840153,48.22922,55.087271,57.410136,45.141416,61.373364,66.248324,66.014685,52.855475,69.007678,72.536529,70.95599,-0.336239,326.276894,-69.972233,295.520694
12,6.535401,-4.968178,-0.185497,-0.051611,4.129772,3.048694,0.073093,-3.60878,-21.195946,1.178226,21.599911,34.399486,-31.624317,-5.910221,15.935726,34.042499,-36.381764,-15.988003,4.93008,21.203441,-37.359822,-39.066479,-35.930134,-30.963467,-20.13513,-30.484647,-33.510924,-34.521704,-9.726147,5.020481,12.381118,16.33102,8.832359,22.229086,27.919411,30.63596,22.676826,32.611034,35.1769,36.463803,33.364167,42.131058,42.878238,41.914685,25.679901,50.991245,74.897988,95.259613,52.205338,83.564644,101.003014,114.109223,43.071922,77.995583,98.261879,111.442887,33.707348,66.382965,85.019486,97.494461,25.006771,50.090103,65.196121,77.23011,-13.66833,-14.882739,-9.434376,-6.356514,15.592263,32.571502,40.468577,45.341932,32.792692,48.131334,55.159605,57.616864,45.127534,61.271896,66.241223,66.095356,52.888746,68.933393,72.473951,70.957769,6.161516,321.314203,-70.195376,295.47457
13,-3.4147,-0.505551,-0.021515,0.099122,5.774563,6.155159,3.886917,0.491558,-16.957969,5.49511,25.723847,37.900543,-27.95858,-1.83863,20.108918,38.020088,-33.808113,-12.766834,7.961243,24.080612,-36.235096,-34.878696,-28.999511,-21.85469,-20.889078,-31.838364,-34.934727,-35.157375,-10.145556,4.793005,11.802727,15.999878,9.289411,23.054368,28.399299,31.106548,23.695399,33.300614,35.770495,37.232448,34.517184,43.932726,43.648081,40.798349,25.664692,50.928028,74.900345,95.445076,52.339451,83.582497,100.949547,113.985627,43.252247,78.082169,98.278519,111.385369,33.916615,66.515271,84.995636,97.316757,25.28524,50.277535,65.279114,77.181679,-13.689437,-14.973376,-9.547602,-6.586126,15.687321,32.596523,40.577653,45.546869,32.928666,48.125393,55.147378,57.561264,45.284541,61.282627,66.168826,65.943882,53.065475,68.898948,72.360466,70.808826,2.719825,320.813774,-70.243882,295.578814
14,-7.176315,1.478972,-0.041416,0.1256,6.546261,9.824432,12.44783,12.868938,-10.052811,15.10778,34.309616,45.483902,-20.232857,7.821087,28.989395,45.980713,-25.73259,-3.390987,16.098289,31.452599,-27.662968,-25.867996,-21.895111,-16.675369,-20.529814,-30.795351,-33.127676,-33.07751,-10.412836,3.320603,10.735124,16.139977,8.187215,21.340757,26.789514,29.874466,22.059272,31.485843,34.414233,36.427198,32.669426,41.164714,41.433921,39.877292,25.693874,50.922341,74.924412,95.63998,52.327664,83.550968,100.943287,113.982617,43.295014,78.181172,98.379559,111.463658,34.042351,66.665669,85.045292,97.250256,25.515427,50.48568,65.39962,77.151707,-13.712815,-15.088133,-9.71702,-6.846688,15.641824,32.550025,40.54805,45.551809,32.904893,48.097186,55.077625,57.436195,45.269276,61.203081,66.027505,65.751345,53.063524,68.829158,72.210932,70.571681,-4.476665,322.296936,-70.305473,295.708604
15,8.090103,-2.394323,-0.114349,0.146472,3.542988,4.026123,3.519722,1.828114,-18.208683,5.229996,25.323006,37.455139,-27.915161,-1.509029,20.307266,37.671364,-32.827572,-12.44133,7.865547,23.634522,-34.200886,-35.002453,-31.82032,-27.284717,-19.43656,-29.146664,-30.789756,-30.005254,-7.360093,6.627165,13.249428,17.980324,11.287333,23.663795,28.725081,31.538825,24.86878,33.717763,36.294521,38.203103,35.245394,43.64881,44.031477,42.903544,25.777828,50.927788,74.916172,95.756756,52.328087,83.47546,100.89085,113.971744,43.366619,78.249103,98.439411,111.550174,34.166725,66.756271,85.056988,97.205005,25.666157,50.602295,65.444149,77.11021,-13.753249,-15.226182,-9.928799,-7.083773,15.505948,32.460302,40.454856,45.490466,32.776909,47.971919,54.957953,57.3503,45.15652,61.037133,65.861668,65.626806,53.007443,68.691195,72.033251,70.377685,3.599001,319.915438,-70.434259,295.867901
16,-0.352821,-1.016486,0.038257,0.059626,4.135528,4.920479,4.504921,2.441883,-18.093693,5.337181,25.18515,36.870392,-28.370762,-1.222538,20.641685,38.021599,-33.672146,-12.712292,7.916839,23.745231,-35.288315,-35.878968,-32.474785,-27.725029,-19.232709,-29.170771,-30.805589,-29.866427,-6.908883,8.178262,14.659128,19.057511,12.118543,24.939361,29.767268,32.116167,25.789232,34.768705,37.319306,39.077056,36.203748,44.584921,44.586502,43.152028,25.727143,50.795334,74.857132,95.810532,52.322091,83.435395,100.853737,113.906502,43.411034,78.313225,98.568924,111.702416,34.190918,66.81379,85.072701,97.139717,25.643063,50.537075,65.3466,76.945977,-13.773911,-15.289464,-10.090993,-7.335665,15.601217,32.44915,40.433948,45.50194,32.828174,47.906439,54.898833,57.28955,45.168203,61.012013,65.800585,65.527388,53.008876,68.665026,72.013948,70.3518,3.233626,318.912828,-70.408556,295.941403
17,-9.110871,4.405423,-0.059795,0.147534,5.884392,9.748833,13.665116,15.881859,-8.823223,16.305428,35.571076,46.68425,-18.509033,9.419037,30.617707,47.55391,-24.059063,-1.889831,17.625367,32.671624,-26.106124,-25.501384,-23.239402,-19.817882,-20.058066,-30.767637,-34.236121,-34.770262,-9.819143,3.85556,10.774459,16.012091,8.660285,21.321268,26.348345,28.956151,22.159604,31.116168,33.765347,35.482243,32.277125,39.867721,40.15917,38.809356,25.781868,50.786568,74.88731,95.90221,52.229965,83.36285,100.824543,113.916309,43.37463,78.353062,98.685871,111.900066,34.223019,66.901302,85.165134,97.21455,25.731995,50.627232,65.402321,76.934681,-13.830326,-15.453077,-10.334685,-7.634685,15.498995,32.275841,40.205076,45.262892,32.725681,47.76634,54.722042,57.103298,45.05935,60.850956,65.605984,65.335678,52.926068,68.560285,71.874454,70.193879,-5.884724,323.327643,-70.47583,296.098329
18,1.630314,-0.089897,-0.111317,0.004039,4.813168,8.163517,11.960278,14.628857,-11.160404,13.936924,33.253796,44.80695,-20.564048,7.320843,28.321255,45.406025,-25.494713,-3.64595,16.247418,31.67902,-26.670742,-28.651577,-28.857662,-27.445141,-19.556491,-29.836465,-33.216929,-34.211049,-8.905125,5.028892,12.092806,16.918008,9.1163,21.766131,26.83789,29.265484,22.245735,31.730869,34.267194,35.566731,32.116069,39.484264,40.531736,40.089763,25.86097,50.831452,74.894783,95.903504,52.215615,83.365929,100.822266,113.932411,43.398503,78.42199,98.78254,112.033676,34.246033,66.939904,85.258141,97.373841,25.717644,50.640599,65.430817,77.023522,-13.902229,-15.546531,-10.377947,-7.658175,15.278163,32.067569,39.990246,45.082543,32.530956,47.504913,54.558885,57.080895,44.907036,60.6207,65.460043,65.304358,52.809187,68.421321,71.774307,70.148381,-4.253975,323.246076,-70.586712,296.110698
19,3.317826,-1.67661,0.10286,0.005199,5.407482,7.184131,7.678241,7.913509,-13.752377,10.172412,29.503543,40.88721,-23.728936,3.0611,23.665798,40.646015,-29.410744,-7.838688,12.145855,27.123035,-31.562188,-32.881291,-31.630497,-29.071255,-20.28732,-31.604713,-36.260941,-38.217342,-7.83178,6.701044,12.463123,15.738958,10.823637,24.157342,28.183481,29.859992,24.113956,33.859505,35.143716,35.723379,33.862963,42.252954,42.743512,41.314607,25.973076,50.810062,74.809982,95.720283,52.266884,83.317543,100.635933,113.636947,43.441006,78.394478,98.660248,111.87767,34.205841,66.820804,85.125503,97.25988,25.571434,50.393257,65.207176,76.883766,-13.878862,-15.576047,-10.457692,-7.709366,15.156836,31.904388,39.805859,44.874136,32.402689,47.305509,54.443585,57.044104,44.792464,60.483355,65.371506,65.261232,52.714363,68.270897,71.707357,70.193768,-0.920906,321.573653,-70.468609,296.120084
20,-7.955464,1.992056,0.179752,-0.046202,7.360405,12.0737,17.314957,21.703217,-5.999142,20.285317,39.042664,49.715515,-16.126373,12.437233,32.880318,49.388626,-22.188446,1.295689,20.746674,35.164925,-24.619743,-23.123932,-20.692165,-17.700874,-20.638754,-32.517606,-37.542003,-39.803105,-10.073394,4.068389,10.736297,15.023925,8.592385,22.225406,26.759492,28.661232,22.206412,32.12107,33.850674,34.404329,32.17793,40.177795,40.481397,38.56412,25.964493,50.740494,74.674633,95.570538,52.059014,83.152691,100.416172,113.344311,43.22826,78.288975,98.554058,111.748203,34.012001,66.729984,85.08466,97.246319,25.450882,50.256706,65.124928,76.904011,-13.918715,-15.62877,-10.472956,-7.7004,15.037399,31.770254,39.615755,44.640756,32.359032,47.171671,54.280947,56.892038,44.796145,60.411985,65.267543,65.164481,52.716339,68.243159,71.678557,70.175651,-8.850763,323.566456,-70.26325,296.074629
21,1.206242,-1.714426,0.232155,-0.01009,6.011478,10.485454,16.311069,20.366123,-7.627419,18.746418,37.60873,48.64056,-17.208012,11.390407,32.038341,48.4697,-22.521664,0.460739,19.594059,34.189716,-24.282074,-22.51125,-19.104309,-14.783936,-19.798034,-30.656634,-34.272689,-35.768284,-8.500352,5.267088,11.943901,16.458955,9.96112,22.923692,27.780794,29.828771,23.479668,33.056848,35.2912,36.093746,33.620506,41.707994,41.95733,40.41026,25.947762,50.644192,74.452984,95.312725,51.839962,82.963268,100.187084,113.04388,42.968353,78.107563,98.335613,111.468327,33.756592,66.554272,84.915287,97.049,25.244213,50.086487,64.990791,76.812298,-13.989741,-15.748788,-10.487727,-7.633882,14.840452,31.589313,39.38881,44.391285,32.254081,47.069598,54.113455,56.733969,44.745707,60.310195,65.108634,65.029186,52.683266,68.15435,71.522674,69.994821,-7.60576,321.845889,-69.992334,296.058398
22,0.264541,-2.211566,0.200935,-0.093144,6.739998,11.439801,17.431515,21.006375,-7.530338,18.579724,37.175114,48.209782,-17.420562,11.189679,32.252186,49.051449,-22.635349,0.028885,19.509053,34.534665,-24.035923,-22.2117,-18.678188,-14.171161,-18.740262,-28.062141,-28.966958,-28.318863,-8.016118,4.714039,11.095264,15.551594,10.420419,23.116612,28.541991,30.927163,24.301059,34.164379,36.945555,38.164533,35.203119,43.324299,43.797715,42.903976,25.82016,50.494652,74.24326,95.045575,51.671025,82.797535,99.981045,112.770069,42.698456,77.917454,98.130467,111.205571,33.42191,66.307057,84.709202,96.837719,24.894974,49.737282,64.728928,76.639309,-14.071523,-15.723483,-10.396559,-7.586075,14.903832,31.617236,39.347894,44.29756,32.358451,47.138412,54.09094,56.689496,44.840692,60.414812,65.150686,65.073585,52.712646,68.181298,71.561169,70.066476,-7.307408,319.626107,-69.757588,295.957038
23,7.561123,-3.389419,0.111077,-0.075508,5.652603,7.824761,9.681359,8.972592,-14.157234,10.012482,29.484879,40.859253,-24.561401,2.247174,24.051453,40.83252,-30.218788,-9.358497,10.523827,25.388741,-32.27037,-30.624801,-24.796016,-18.374336,-18.205762,-26.976235,-27.041728,-26.059686,-5.287391,8.001606,13.294444,17.088291,13.625612,25.889824,30.623549,32.668871,27.533138,36.545315,38.98984,40.506122,38.516363,46.939206,46.829487,45.754981,25.691665,50.363674,74.095493,94.785564,51.646934,82.736606,99.873012,112.605915,42.613277,77.769298,97.888904,110.891933,33.273605,66.088382,84.437061,96.493961,24.681129,49.488785,64.467659,76.311527,-14.103053,-15.72746,-10.381233,-7.558794,14.866275,31.515965,39.168595,44.071318,32.298454,47.146513,54.053149,56.659535,44.775631,60.393891,65.121218,65.100223,52.644486,68.158758,71.510447,70.005194,0.276552,316.227064,-69.623674,295.871906
24,-3.029823,0.952785,0.07695,-0.101864,6.512672,9.827522,12.75975,12.944126,-11.528549,13.604416,32.821358,43.703339,-22.348537,5.553898,27.4384,44.119904,-27.997124,-6.394855,13.539322,28.56308,-29.854694,-27.894653,-22.52227,-16.615528,-18.37365,-26.791639,-26.392139,-24.998062,-6.574937,6.805438,13.3701,18.41585,12.21496,24.523855,30.221973,32.966457,26.207949,35.202637,38.524266,40.547271,37.258296,45.037712,45.117358,44.173231,25.555515,50.225509,73.9258,94.602482,51.545196,82.59145,99.724537,112.418964,42.485618,77.603336,97.734272,110.659641,33.137844,65.939266,84.251552,96.206348,24.553184,49.344669,64.288708,76.03062,-14.16752,-15.74943,-10.342132,-7.5202,14.938277,31.584657,39.245746,44.178937,32.381966,47.228074,54.083604,56.70202,44.855376,60.446799,65.12443,65.117427,52.718056,68.220052,71.517858,69.964501,-2.756281,317.168926,-69.549734,295.759119
25,0.541534,0.195563,-0.032936,-0.094614,6.090569,8.429535,10.057824,8.802922,-12.238906,12.733498,32.15712,43.175538,-22.769039,4.878605,26.892861,43.665162,-28.110935,-6.776802,13.264801,28.38517,-29.650875,-28.022941,-22.605571,-16.555091,-18.180717,-25.850464,-24.852836,-22.797758,-7.055602,5.206733,11.587144,16.532648,11.415107,23.597142,29.462406,32.469404,25.456435,34.706288,38.029164,40.071621,36.603421,44.325767,44.69154,44.302636,25.461284,50.117534,73.81699,94.389713,51.768722,82.711544,99.846325,112.593029,42.686828,77.529018,97.53709,110.476329,33.240131,65.763508,84.00452,95.981403,24.492119,49.152694,64.026798,75.778942,-14.138671,-15.75295,-10.45763,-7.642107,15.158936,31.772588,39.385463,44.268599,32.443963,47.284155,54.144552,56.830028,44.782152,60.411997,65.189058,65.322266,52.581378,68.167083,71.562157,70.156767,-2.236908,317.350511,-69.604831,295.650527
26,2.807705,-2.382491,0.055195,-0.211705,6.803994,7.941639,6.589337,3.023507,-14.729358,9.049977,28.990139,40.055615,-25.932666,0.70942,22.956951,39.749302,-32.223541,-10.957031,10.062916,25.137005,-34.757114,-32.581855,-25.74139,-18.887008,-18.028367,-25.408183,-24.330811,-22.184466,-5.749915,7.986106,13.937117,17.798123,12.916877,26.465102,31.81832,34.295734,27.088572,37.389516,39.983021,41.642958,38.148132,47.19684,47.512496,46.635899,25.37622,50.029998,73.746048,94.297142,51.806144,82.712196,99.900672,112.739112,42.683509,77.448234,97.453811,110.442054,33.193759,65.714859,83.975257,96.011444,24.404239,49.059402,63.947525,75.751144,-14.053171,-15.634834,-10.442328,-7.711959,15.458919,32.092294,39.657152,44.482613,32.644985,47.505889,54.285627,56.905203,44.894069,60.616353,65.362367,65.486065,52.629222,68.324139,71.783076,70.490677,0.512146,314.955195,-69.608287,295.425997
27,0.175862,-0.066888,0.10033,-0.250645,6.008148,7.015182,5.918976,2.496586,-15.266556,8.910873,28.841926,39.610634,-26.355034,0.813732,22.389358,38.350868,-32.688515,-11.191017,9.4067,23.92614,-35.410664,-33.371693,-26.298935,-19.366562,-19.251408,-27.816647,-27.765221,-26.293313,-5.427849,9.650712,16.127392,20.371461,13.723918,27.425494,32.368615,34.626901,27.791365,37.5031,39.617384,41.065259,38.471284,47.173276,46.815951,45.205624,25.340286,49.971622,73.620335,94.081249,51.882328,82.770435,99.947605,112.786549,42.735077,77.351864,97.272411,110.25127,33.1852,65.574177,83.77486,95.815807,24.321567,48.945362,63.780006,75.563061,-14.017763,-15.66109,-10.530829,-7.667425,15.511197,32.145536,39.690757,44.49768,32.631005,47.596761,54.444585,57.129061,44.825476,60.676251,65.52256,65.745651,52.554837,68.428163,71.946418,70.727872,0.62835,314.874311,-69.567615,295.161356
28,-7.271462,0.945127,0.118572,-0.374751,5.831394,9.096829,11.971321,11.225785,-8.931335,17.153298,36.40947,46.728653,-19.088527,10.088883,31.797638,47.967224,-24.700973,-1.934944,18.166008,32.948364,-26.598449,-23.948948,-17.584614,-10.984302,-18.816549,-25.716552,-23.764128,-20.509597,-7.050872,6.966212,14.751383,20.631998,11.48633,24.741661,30.95621,33.996035,25.648651,35.365967,38.668021,40.731041,36.637828,44.893587,44.727997,43.522481,25.446098,50.090733,73.639595,94.074074,51.741943,82.73188,100.033196,112.993584,42.564182,77.243546,97.268463,110.350113,33.061913,65.495602,83.780342,95.90213,24.279236,48.869705,63.783669,75.722077,-13.889693,-15.507949,-10.461125,-7.541022,15.760706,32.258934,39.723065,44.438388,32.886948,47.746086,54.533864,57.177387,45.034526,60.845164,65.66981,65.865558,52.715648,68.665372,72.217465,70.984828,-6.698485,315.80371,-69.504416,294.770877
29,3.669525,-2.117348,0.181824,-0.640401,4.319424,6.082043,7.531495,5.166001,-12.163181,12.860894,32.434685,43.1521,-21.877281,6.876435,28.538773,44.640541,-27.350669,-5.038021,15.030327,29.536354,-29.28788,-27.215904,-20.468628,-13.55738,-18.104924,-24.247349,-21.715199,-18.114533,-4.801996,9.885624,16.745279,21.154197,13.686781,27.432868,32.798176,34.712155,27.643128,38.09499,40.48935,41.570229,38.413203,47.794992,47.731735,46.419835,25.40451,50.082344,73.573242,93.828667,51.699486,82.867401,100.273064,113.419006,42.507271,77.188866,97.327309,110.65805,32.980522,65.390991,83.883087,96.283035,24.11364,48.823368,63.887855,76.09639,-13.862078,-15.426327,-10.497928,-7.707736,15.612777,31.991061,39.405853,44.047532,32.65568,47.703811,54.537507,57.149364,44.736654,60.799246,65.806377,66.100988,52.420419,68.642166,72.332024,71.182108,-3.070891,313.669816,-69.364523,294.11393
30,1.296982,-2.575276,0.408062,-1.620096,3.531223,5.500477,7.312432,4.693085,-13.877449,11.060005,30.898544,41.979057,-23.495373,5.713898,27.58683,43.661888,-28.744377,-6.55228,14.005646,28.990219,-30.289112,-30.10746,-25.301548,-19.793781,-17.883068,-23.418498,-20.791648,-17.5025,-3.07338,13.637702,21.185381,26.014312,15.276101,29.324493,34.720688,36.550662,28.795353,39.651619,42.276419,43.792528,39.423439,49.012438,49.958578,50.153573,25.569237,50.098926,73.30244,93.324016,50.851478,82.140461,99.584987,112.848873,41.752487,76.702572,97.133983,110.800861,32.541103,65.09008,83.826771,96.466335,24.036896,48.812416,63.897846,76.219127,-13.959446,-15.230789,-10.2212,-7.881378,15.056393,31.328837,39.012947,44.001244,32.222056,47.848455,55.099571,58.097986,44.352962,60.787785,66.205309,66.966506,52.04957,68.29603,72.333482,71.610187,-1.817814,311.080563,-69.000366,292.479857
31,2.657479,2.000046,0.56361,-3.719549,-0.844105,-2.552388,-2.646733,-6.198086,-19.175446,0.366714,16.605754,26.465915,-25.932175,-0.207448,20.841842,36.258567,-28.022152,-7.553227,11.796569,26.047439,-26.605546,-26.856869,-23.224011,-18.982464,-10.379367,-12.725339,-10.129796,-7.15376,0.34416,14.041291,21.1406,26.306911,12.778124,24.733375,30.004353,32.151946,21.404521,31.221058,34.561558,36.434226,28.109541,36.466743,38.219689,39.389316,25.912994,50.591949,72.784813,91.866302,49.288536,79.956619,97.065376,110.414703,40.057835,73.991501,94.164574,108.380333,30.967953,62.066551,80.32663,92.892563,22.6184,46.218269,60.632961,72.146118,-14.664228,-15.505948,-10.082681,-7.40706,13.024509,29.572125,37.973404,43.959464,30.234126,47.009712,55.389725,59.740128,42.592397,60.208715,66.999136,69.242602,50.625199,67.295007,72.184787,72.099226,0.803536,313.109984,-68.472885,288.789683
32,16.032726,-9.016264,2.622459,-6.86588,-7.891983,-16.289475,-22.372616,-29.078339,-31.175343,-23.703793,-12.296162,-4.309193,-34.777886,-22.123158,-8.208595,2.808494,-34.068958,-23.938763,-11.339562,-1.886444,-30.149094,-34.842396,-34.678951,-33.67582,-9.215149,-10.876001,-9.207814,-7.215708,3.578783,14.55088,19.029773,22.357824,16.077029,28.230004,32.767807,34.809177,24.450237,36.12824,40.174769,42.543367,30.133497,41.3811,45.3477,48.461057,25.503582,48.93417,68.630871,86.137894,46.49239,74.018521,89.138054,100.336006,37.647171,67.911084,85.008671,96.021687,28.854939,55.931408,70.403595,79.460656,20.569886,40.692776,51.883736,59.969799,-11.840481,-10.887474,-3.745063,0.988464,11.859957,29.398149,39.344177,46.619042,27.533867,45.762613,56.156356,62.235141,39.291145,58.131245,66.404022,69.884127,47.482325,64.380893,70.023967,70.868824,16.824108,304.21697,-65.86258,282.047053
33,15.135429,-10.448639,3.233494,-12.229817,-13.118877,-27.674068,-39.352272,-49.477215,-40.012081,-43.989075,-38.964168,-34.819908,-40.693428,-41.080787,-35.155884,-29.683513,-37.634697,-38.109638,-32.687874,-28.620792,-32.138431,-40.692501,-43.497528,-45.455692,-8.625581,-10.35342,-10.395694,-10.323434,6.085491,17.529114,22.112773,24.961826,18.482133,32.469231,37.182887,39.126827,26.80168,40.515471,45.013655,47.241054,32.13489,45.292161,50.258204,53.267153,20.075512,41.760109,60.214623,76.602219,48.412491,70.409775,79.583965,84.853512,42.68153,66.280243,74.773155,78.507099,35.865692,56.950173,63.789311,66.12822,28.622166,45.733051,51.707703,54.493939,-12.81883,-13.572691,-7.914093,-3.208415,10.585182,30.176648,41.612244,49.421498,26.70031,47.72551,59.125674,65.637761,39.191677,60.370266,69.662579,73.450806,48.496538,66.410469,73.610357,75.610551,31.979605,294.119389,-62.609018,270.168294
34,9.911614,-11.366596,-2.833797,-18.376021,-17.972981,-36.23473,-49.355622,-59.441529,-45.53088,-58.372639,-57.408886,-54.284077,-42.441697,-53.119641,-51.607064,-48.497647,-36.125393,-45.354184,-44.429856,-42.39497,-28.03529,-40.003842,-44.55019,-47.158997,-8.562003,-9.630903,-10.216346,-12.001921,7.420671,19.109987,22.593291,24.672032,19.464508,34.066542,37.659551,39.140005,27.703631,42.115424,45.811396,47.43269,32.828495,45.756722,49.993369,52.563618,17.92686,38.759365,55.38089,68.811241,50.090755,70.292507,76.428817,78.378387,44.818382,64.646782,66.722694,66.183551,37.638725,54.427643,55.29871,53.705532,29.463421,43.775997,45.585548,44.972625,-13.242363,-15.58452,-12.340548,-9.788626,8.132393,27.587132,37.551871,43.97957,23.757718,42.962182,51.396881,56.289872,36.066217,54.489947,60.575326,63.072538,45.409598,60.607721,65.207336,66.171136,41.83928,283.391008,-65.494754,252.430488
35,13.865261,-14.850665,-4.547676,-21.054346,-22.362694,-45.146645,-62.228222,-74.306546,-52.503834,-74.795746,-76.741654,-74.431412,-46.095955,-67.179039,-69.412663,-67.767723,-37.198483,-54.90057,-57.734196,-57.439865,-27.614182,-41.769882,-45.710038,-47.158688,-8.216732,-9.243049,-10.600076,-14.138881,8.953637,19.90606,20.228138,19.464916,20.751238,35.163365,35.908976,35.25268,28.924473,43.048917,43.990957,43.416814,33.718751,46.517586,48.188083,48.193529,15.972141,36.389556,50.400421,58.784134,49.342334,65.490669,65.66716,63.042469,44.84745,60.30463,56.075695,51.170677,37.903461,50.956718,46.13245,40.777622,29.564563,40.566215,38.116127,33.971065,-15.136916,-20.570668,-20.895648,-20.786282,2.352567,18.416825,25.266107,30.124345,18.310244,32.622644,37.816458,41.875091,31.352722,44.841494,47.72446,49.586186,41.524398,52.070578,54.046517,54.666404,55.604107,269.637734,-70.142864,232.473533
36,12.214164,-23.89284,-7.645581,-22.873983,-23.64878,-46.580223,-62.962669,-72.640686,-49.264801,-76.474502,-77.30215,-74.332637,-41.594673,-70.634708,-74.870258,-74.092186,-32.770935,-59.035217,-63.672306,-64.17192,-24.107505,-43.657333,-47.77581,-48.751613,-16.088996,-21.894757,-25.612984,-31.911588,1.046534,14.722892,14.073203,11.741446,18.000702,34.654566,33.537563,31.733784,31.398035,46.612953,45.285048,43.425236,40.922554,54.111405,54.037835,52.986127,15.051144,33.753754,45.303234,49.690625,47.528046,62.462963,57.686463,50.350548,43.41647,58.162239,48.478283,38.626808,36.658207,49.714268,40.351879,31.203793,28.59549,39.656388,34.153439,27.10207,-16.651036,-26.383802,-31.626493,-35.494545,-6.606275,6.582013,12.015037,15.033088,9.343924,20.652635,23.75626,25.800989,23.298998,33.541601,34.06643,33.921687,34.98682,42.657246,42.754565,42.672202,67.696603,247.241499,-77.910113,211.096155
37,2.393807,-21.084172,-9.313144,-21.605617,-21.692848,-42.830773,-57.372345,-65.795769,-44.990341,-68.377178,-66.530216,-62.407482,-37.333603,-61.477924,-61.147133,-57.709843,-28.620689,-51.137581,-51.335358,-48.755779,-20.437431,-38.353088,-39.367504,-37.391876,-17.824151,-25.83786,-30.851494,-38.616472,-5.974275,9.972738,10.575438,8.34714,10.346832,26.679877,24.616252,21.794302,24.276829,37.793222,34.404798,31.095408,35.461014,45.705809,43.138647,40.431496,13.355358,30.923492,41.413948,43.397129,45.093738,60.42818,52.256836,42.309127,41.003299,56.857544,44.323024,33.358291,34.972835,49.964058,38.721027,28.972572,28.135803,41.005405,34.758464,27.541477,-21.79587,-37.682572,-49.08623,-59.430721,-17.618115,-9.238078,-6.192572,-5.045126,-0.127052,6.463675,6.591609,6.351024,15.445445,21.119468,19.20213,17.550307,28.541942,32.579875,30.853433,29.810752,69.88373,228.331198,-87.429937,191.664409
38,1.119552,-22.86509,-10.101185,-18.995773,-19.230857,-37.764473,-49.664279,-55.436496,-42.770599,-59.484512,-53.847393,-47.373275,-36.111259,-51.409423,-46.829452,-41.141029,-27.943565,-42.138999,-38.309829,-33.481567,-20.016197,-32.620834,-30.252902,-25.836502,-21.771275,-34.123383,-42.010263,-51.363573,-15.956088,-2.552871,-2.757638,-5.468558,0.940428,14.230364,10.731079,7.267084,15.739698,26.102325,20.86471,16.689493,28.058535,35.043624,30.955685,27.966829,16.91003,32.813976,40.346351,39.186962,34.854675,55.9342,49.530681,40.631515,28.11692,51.245304,41.867351,33.149906,21.450142,43.085312,34.331417,26.482498,15.597381,32.14872,27.699119,21.897388,-23.026673,-41.786837,-55.888464,-70.510307,-29.196793,-25.190611,-24.305431,-25.094355,-11.932316,-10.224961,-11.587879,-13.259932,4.239845,4.773282,1.387618,-1.256843,18.090993,17.652195,13.450302,11.020818,70.702119,208.118559,-97.832285,175.321087
39,1.739113,-23.754569,-4.707447,-13.795857,-17.191635,-34.390617,-45.055103,-49.091171,-36.358337,-54.021617,-46.964,-40.134235,-30.54689,-47.270061,-40.50167,-33.800674,-24.178093,-39.124969,-33.031196,-27.312492,-18.349525,-31.260109,-26.608829,-21.279258,-23.424383,-39.069498,-49.573212,-60.809292,-26.235116,-15.853878,-15.480797,-17.63266,-9.603751,1.008946,-1.523457,-4.463635,5.895065,13.360165,9.122228,5.762981,19.545043,24.193262,20.611368,18.309584,17.434948,30.339088,35.575287,32.844269,23.766872,48.073665,40.645786,30.123356,17.161102,45.724605,37.734798,28.17437,12.584827,40.181614,32.398613,23.401989,10.369549,30.466072,26.403946,19.626995,-25.165349,-47.122826,-63.443485,-79.188747,-41.042677,-39.246358,-36.225824,-36.881916,-23.252933,-21.600053,-19.659738,-20.21908,-5.533479,-4.859597,-4.928869,-6.586367,10.295016,9.207023,7.268579,6.045958,72.11713,187.040951,-102.863834,164.202191
40,-0.419563,-25.952123,-1.878456,-11.602267,-16.459648,-32.704147,-42.676357,-45.004761,-34.006096,-50.26244,-43.559109,-37.995907,-28.591507,-44.046558,-36.219223,-30.38546,-22.625381,-36.714432,-29.340019,-24.102814,-17.070007,-29.859787,-24.456699,-19.341362,-26.223634,-45.751109,-58.781286,-71.376141,-36.068407,-27.460745,-25.036433,-25.805865,-18.954376,-9.794394,-10.899936,-12.155921,-2.324391,3.848267,1.224239,-0.487335,12.759673,16.343203,13.892175,13.020241,18.252262,27.53952,30.722934,28.551384,14.589763,43.698463,39.178859,28.832153,7.059379,41.070407,35.371742,25.38319,3.108799,35.92044,29.941772,20.032539,2.959888,27.465763,24.850856,17.292022,-25.489668,-49.387473,-66.905484,-83.791023,-49.590632,-46.771132,-39.714018,-39.574579,-32.62733,-28.061227,-22.777633,-23.27996,-14.476939,-11.176694,-8.201078,-9.889365,2.630611,3.567192,3.614561,2.344522,71.292532,163.732842,-105.147325,155.243938
41,-3.500633,-19.017534,2.114776,-8.705258,-15.564194,-30.766594,-39.535504,-40.622086,-31.212914,-49.052937,-42.277371,-36.440037,-25.917961,-43.885998,-35.59243,-29.741478,-20.813187,-37.19783,-29.607926,-24.059807,-16.721878,-30.923195,-25.261082,-19.901344,-27.424309,-48.784647,-63.643439,-77.722582,-41.643913,-35.52383,-31.930261,-32.106895,-24.424659,-16.926727,-16.419311,-17.355262,-7.321036,-2.477742,-3.576436,-4.75175,8.30979,10.275719,8.935636,8.566338,17.43869,23.995056,25.468907,23.234883,5.716622,36.854485,35.511818,26.1568,-2.050838,34.442002,31.181832,21.290051,-4.959205,30.220997,26.222763,16.010685,-3.16468,23.599491,22.39309,14.542614,-25.311592,-50.243395,-67.803835,-85.279381,-52.277565,-49.900903,-41.498722,-41.009986,-35.296251,-31.034571,-24.684041,-25.057854,-16.917458,-14.333752,-10.307774,-11.468292,0.401816,0.861857,1.499158,0.229687,67.235247,147.241925,-103.589201,149.065297
42,-3.684403,-15.048119,-1.002479,-5.176438,-14.89199,-29.092414,-36.950706,-36.716949,-26.003311,-48.416633,-41.899818,-35.440567,-20.561416,-45.231193,-36.28379,-29.495956,-16.56887,-39.065185,-31.051231,-24.689094,-14.289985,-32.58641,-26.649261,-20.935798,-26.924803,-49.469971,-65.907628,-81.303908,-46.772584,-41.045387,-36.034397,-36.155854,-29.889218,-22.32278,-20.028116,-21.008453,-12.42141,-7.53426,-7.021806,-8.006212,3.798997,5.475823,5.097448,4.805288,19.457771,24.845855,24.819191,20.805221,2.76543,35.083625,36.353359,28.60532,-5.80148,33.068515,32.501461,23.223232,-8.988201,28.442459,27.055378,17.033741,-6.977921,21.715278,22.372158,14.721645,-27.427575,-53.683949,-72.752946,-89.730258,-55.365876,-52.816257,-43.25076,-42.745346,-38.289769,-33.780513,-26.36629,-25.918537,-19.529932,-17.150547,-12.267096,-12.773598,-1.469024,-1.086962,0.284564,-0.131584,62.778431,134.244673,-105.364093,145.939726
43,-3.387451,-11.544134,1.342117,-2.66616,-14.768188,-27.695114,-34.598579,-32.956283,-18.449501,-49.311012,-42.433639,-34.360611,-12.43927,-48.192627,-38.439606,-29.617264,-9.667328,-42.527389,-33.754852,-25.64788,-9.463142,-34.940529,-28.818786,-22.243538,-25.089334,-47.935777,-65.249061,-82.149154,-49.885361,-42.729241,-36.74838,-37.875301,-33.284645,-24.529271,-20.896803,-22.274405,-15.425438,-9.454933,-7.699072,-8.913499,1.533954,3.676823,4.297094,3.820381,20.039783,24.46756,23.223415,18.394077,0.594372,29.409336,33.669605,28.539459,-8.139118,27.264885,30.557671,23.630001,-11.370358,22.902935,25.148323,17.106182,-9.26936,17.060326,19.943527,13.635166,-29.629861,-56.686131,-76.733909,-93.501517,-57.2587,-57.139342,-46.398649,-44.466633,-40.333888,-37.861049,-29.708426,-27.658084,-21.541817,-20.621433,-15.493265,-14.591864,-3.067792,-2.8344,-1.362116,-0.765897,58.492676,124.293045,-104.92028,144.866072
44,-4.5615,-8.801632,3.707233,-2.644042,-14.140412,-24.246117,-28.999466,-25.20076,-12.10334,-45.227715,-38.462036,-29.275223,-6.039734,-44.280213,-34.936661,-25.58796,-3.577561,-39.020005,-30.49894,-21.958123,-3.71901,-30.626084,-24.884697,-18.273491,-24.987298,-49.048809,-67.546997,-84.60934,-52.714061,-45.609441,-37.797094,-38.983152,-35.439438,-26.548836,-21.645384,-23.000022,-16.968655,-10.324058,-7.742569,-9.211982,0.701676,3.263806,4.368372,3.510147,20.140778,23.610581,21.165665,16.089146,-2.192607,26.106617,31.378899,26.514222,-11.366558,24.087937,28.304512,21.306427,-14.765682,19.27089,22.905842,15.134674,-12.764991,13.801003,17.803414,11.713337,-29.979992,-58.036452,-78.457208,-96.409862,-57.404541,-57.127597,-46.150609,-43.883393,-39.843743,-37.890448,-29.940101,-27.770815,-20.821695,-20.372047,-15.169359,-13.888075,-2.19958,-1.925322,-0.420039,0.22479,53.001635,116.946885,-102.142588,143.677502
45,3.008926,-3.016347,1.54279,-0.789547,-14.191864,-23.124458,-26.356247,-21.479141,-6.758194,-43.698189,-36.673485,-26.309143,-0.493126,-43.901504,-34.920364,-24.72805,1.041206,-39.353325,-31.162971,-21.817474,-0.851006,-30.981216,-25.446098,-18.459114,-24.522219,-49.379063,-68.989827,-86.54608,-54.264854,-48.658386,-39.932639,-40.850386,-37.012283,-28.902256,-23.015614,-24.331206,-18.208931,-12.183795,-8.739709,-10.255231,-0.098325,1.583311,3.084377,2.207898,20.124939,24.645206,22.585155,17.184116,-0.377564,27.79137,31.811863,26.680126,-9.569561,26.650944,29.330051,21.569939,-12.969967,21.235039,23.766369,15.535663,-11.479065,15.279602,18.900524,12.947365,-31.071819,-59.945311,-81.676516,-99.618803,-56.872037,-57.336029,-47.035418,-45.369312,-38.269274,-37.776376,-30.472124,-28.516606,-18.863831,-20.119328,-15.369937,-14.125129,-0.289819,-0.966116,0.459108,1.313777,55.061577,115.092965,-101.548782,144.050382
46,1.719223,-0.495016,3.045444,0.657951,-12.590996,-18.883736,-20.117157,-15.108124,-3.021675,-36.810081,-30.978195,-21.351952,2.755577,-37.961265,-29.768669,-19.773262,4.022255,-34.017906,-26.269386,-16.995804,2.404038,-25.932815,-20.72628,-13.721878,-25.513893,-51.402822,-71.235041,-87.47911,-54.695891,-49.954182,-40.884158,-41.330205,-36.957239,-30.778239,-24.788653,-25.548313,-18.05072,-13.482036,-9.916764,-11.161646,0.103907,1.216137,2.557338,1.887167,19.762356,24.815987,23.398785,18.405945,1.085656,29.601986,32.180821,25.97667,-7.571525,29.192505,30.445256,21.75158,-10.5699,23.4669,24.893498,16.104058,-8.96846,17.148262,20.150917,14.24683,-32.556775,-61.8276,-84.237788,-102.025717,-57.052243,-57.904992,-47.836427,-46.787985,-38.130108,-38.5354,-31.374551,-29.377567,-18.8231,-20.78706,-16.177521,-15.127122,-0.447271,-1.576958,-0.258148,0.701904,55.953724,115.504198,-99.330414,145.614582
47,3.646454,0.738788,8.313881,-0.619659,-11.182457,-14.810875,-13.89473,-8.703735,1.059677,-31.451935,-26.353088,-16.780678,6.618187,-33.060265,-25.729065,-15.726746,7.624397,-29.893158,-22.477913,-12.825279,5.791054,-22.282196,-17.352036,-9.971283,-25.850655,-51.63998,-71.327852,-86.608559,-52.063149,-47.537301,-39.299895,-39.879305,-34.180551,-29.122056,-24.002953,-24.630794,-15.654044,-11.82069,-8.773295,-10.004061,2.106374,2.781313,3.917193,3.487089,17.628845,21.641339,20.212635,16.343422,-3.162918,27.870999,30.315251,22.838505,-10.760776,28.303379,28.379471,18.261029,-12.561962,23.211777,23.585736,13.850086,-9.847435,17.312508,19.336602,12.651043,-31.414954,-60.212364,-81.837315,-100.340684,-55.26573,-55.866457,-45.563586,-44.389383,-36.247653,-36.609652,-29.626428,-28.156151,-17.15805,-19.083922,-14.383005,-13.582096,0.633886,-0.788065,0.428097,0.835124,58.949936,116.946833,-91.666775,145.69877
48,8.647018,4.240913,2.649216,-0.527886,-12.778633,-16.417648,-14.708107,-8.911628,-0.248657,-31.464477,-26.717994,-17.611335,5.707764,-33.835258,-26.496208,-16.713592,7.050499,-31.07357,-23.489433,-13.691917,5.129311,-23.743881,-18.986457,-11.452194,-26.390835,-52.103836,-71.96921,-86.962308,-49.050729,-45.843963,-38.034048,-37.770961,-30.811294,-26.722361,-22.794108,-22.835098,-12.182634,-9.232606,-6.964378,-7.798459,5.318891,5.402359,5.668602,5.648113,18.598652,24.081802,23.551598,19.329472,-0.9188,34.071121,33.107815,22.975994,-8.935558,34.807114,31.095497,18.558083,-11.061436,28.938835,26.007362,14.30373,-8.904156,21.456917,21.443745,13.100956,-30.386606,-59.003315,-81.14739,-99.907801,-53.49516,-52.283771,-42.452766,-42.159958,-34.210068,-32.499156,-26.566707,-26.471667,-15.053756,-15.570984,-11.377032,-11.745676,2.232611,1.405476,2.782171,2.675194,67.118562,121.787241,-89.495951,145.770379
49,6.399445,7.060882,0.57811,0.672283,-13.713043,-18.382004,-16.39476,-10.918922,-3.144356,-32.564049,-28.368599,-19.972939,2.699341,-35.639992,-28.658066,-19.348137,4.035942,-33.3284,-25.651039,-15.863937,1.919678,-26.928131,-21.748375,-13.750443,-26.784037,-52.737149,-72.853309,-87.77684,-48.610097,-45.284936,-37.979863,-37.470947,-30.627408,-26.245043,-22.741639,-22.938388,-11.941986,-8.909362,-6.382239,-7.280732,5.416073,5.442126,6.192936,6.794466,18.902343,24.935268,24.749965,20.394092,1.130916,35.576294,33.483661,23.106834,-6.813355,36.829891,31.76667,18.850937,-8.930626,31.282848,26.646389,14.094944,-7.180001,23.745689,22.825756,13.673275,-31.12088,-59.4875,-82.138787,-100.487915,-52.787988,-52.413126,-43.044033,-42.922039,-33.637537,-32.297306,-26.828584,-27.013329,-14.601206,-15.397114,-11.752437,-12.421806,2.43346,1.398838,2.583618,2.474339,73.136656,129.377101,-89.299192,146.97164
50,-0.242317,6.60044,-0.207596,-0.7224,-13.829293,-19.20726,-17.320633,-12.055596,-4.85891,-34.981957,-30.997559,-22.572396,0.650894,-37.376061,-31.067574,-22.027313,1.913452,-34.985985,-27.781929,-18.323525,0.039184,-28.466286,-23.569863,-16.027519,-25.706184,-50.730341,-70.45078,-85.291929,-48.149396,-43.170232,-36.259941,-36.050675,-30.426077,-25.086235,-21.239641,-21.919173,-12.039015,-8.17489,-4.846308,-6.081872,5.060032,5.646667,7.004368,7.158521,18.581108,22.909527,22.422134,18.303268,-1.281841,32.749969,31.119106,20.230202,-8.980087,34.165432,29.754925,16.896458,-10.725254,29.171642,25.095417,12.522949,-8.376331,22.291351,21.385929,11.709286,-31.588016,-59.565682,-81.438277,-100.397167,-52.665265,-51.989197,-42.726981,-42.682076,-33.648337,-31.279405,-26.10109,-26.689454,-14.751056,-14.397954,-11.14992,-12.2441,2.245924,2.148902,2.853746,2.336821,72.601885,136.3874,-89.799242,146.659099
51,-1.974724,6.224305,-4.659428,-0.550202,-14.993385,-22.96685,-23.303627,-18.854622,-10.024956,-42.910744,-38.025673,-29.047623,-4.404717,-43.859917,-37.544472,-28.419823,-2.834061,-41.042015,-33.972359,-24.900742,-4.631699,-33.786049,-30.346207,-24.941414,-25.046306,-48.937355,-68.218261,-84.453673,-48.347522,-41.596769,-35.024586,-35.458957,-30.911342,-23.740063,-19.717666,-21.040668,-12.601715,-7.434329,-3.881118,-5.612365,4.607872,5.47365,6.638503,5.830345,18.991356,22.075127,20.974606,16.205132,-2.760212,31.145405,29.740208,18.699291,-10.704792,32.724461,28.929566,16.520645,-12.558334,27.893269,24.111557,11.657261,-10.179909,20.737061,19.822918,9.933998,-32.001565,-60.383054,-82.375908,-101.817229,-53.81307,-52.294028,-42.753157,-42.316273,-34.744666,-31.326571,-26.445158,-27.207837,-15.598926,-14.413701,-11.62107,-12.881186,1.765518,2.180215,2.555985,1.923142,70.264538,142.788447,-94.821293,146.285639
52,-4.04924,5.166898,-7.962925,-0.550629,-16.716248,-28.334725,-31.640465,-28.326325,-17.196327,-52.488396,-45.98346,-36.787605,-11.893662,-52.856255,-45.056305,-35.681603,-10.217331,-49.527226,-41.739281,-33.020142,-11.748276,-41.623329,-38.158379,-33.640412,-25.123766,-48.212313,-67.009978,-84.354212,-49.619691,-42.478213,-35.696758,-36.454318,-32.219802,-24.289487,-19.891975,-21.315587,-13.556444,-8.291938,-4.310592,-5.824718,4.035137,4.576274,5.845171,5.115911,19.828675,21.964897,20.132275,14.728524,-3.855491,29.900746,28.79139,17.756871,-12.14669,31.149731,28.065949,16.185952,-14.133911,26.275933,23.029221,11.039601,-11.562561,19.363804,18.809326,9.055126,-32.168599,-61.284264,-83.611064,-102.997161,-55.401469,-53.288327,-43.40584,-42.906242,-36.285943,-32.2555,-27.412434,-28.278076,-16.891306,-15.25476,-12.567338,-13.869309,0.935223,1.789848,2.247932,1.652985,65.872942,147.817694,-103.126574,145.597359
53,-9.047356,1.720978,-4.466022,-0.406929,-15.274154,-28.272262,-33.544395,-31.355324,-19.272766,-56.382156,-49.083778,-39.514755,-14.799957,-56.366558,-47.765465,-38.429581,-13.618996,-52.681606,-44.61486,-36.139915,-15.306312,-44.941864,-41.107887,-36.834823,-24.986143,-47.360084,-65.596561,-83.53605,-50.910658,-43.131619,-36.848194,-38.269812,-34.206313,-25.93224,-20.946796,-22.768266,-15.816189,-10.593851,-6.029767,-7.466323,1.772496,2.234927,4.21236,3.492153,18.444179,17.884048,14.542122,9.302364,-9.472046,25.215957,26.198192,15.680408,-17.36911,26.544102,24.759624,13.095703,-18.678612,22.283706,20.14682,8.418468,-14.96291,16.000923,15.896084,6.243828,-32.165258,-62.123329,-84.261012,-104.29116,-57.794853,-54.63409,-43.957389,-43.019437,-38.4134,-34.356595,-28.597696,-28.957645,-18.778831,-17.25559,-13.865351,-14.473061,-0.42157,-0.312105,0.369583,-0.014036,56.384874,149.11659,-108.033308,144.768348
54,-6.691795,-1.108321,-3.690537,-0.581472,-13.764748,-27.269051,-34.360085,-32.337319,-19.635773,-58.34095,-50.152313,-40.155167,-15.311348,-58.305691,-48.889321,-39.303658,-14.366226,-54.427265,-46.240471,-37.942978,-16.387551,-46.387848,-42.948052,-39.314186,-24.58618,-46.502105,-64.157054,-82.420171,-50.703572,-44.021257,-37.993868,-39.030793,-34.02917,-26.9328,-21.911084,-23.098365,-15.706748,-11.688186,-7.399502,-7.863291,1.753107,1.144581,2.441858,1.771638,17.900677,16.18729,12.229969,7.131958,-12.268318,23.068428,25.620232,15.593651,-19.92564,24.219269,23.602021,12.320813,-21.138393,19.635258,19.354203,8.845631,-17.015384,13.139031,13.913624,5.290501,-31.883115,-62.378426,-84.302756,-104.804949,-58.928307,-54.645175,-43.806014,-42.417532,-39.374743,-34.977694,-28.904078,-28.802727,-19.614438,-17.928133,-14.541772,-15.001565,-0.986241,-1.344931,-0.914042,-1.323762,49.163933,147.426003,-112.252991,143.60461
55,-5.64624,-2.186928,-0.186893,-0.115708,-12.276604,-23.723877,-30.635376,-28.194809,-16.220833,-53.099511,-44.916573,-34.551087,-11.815407,-53.920933,-43.680611,-33.419335,-10.840691,-49.918408,-41.369934,-32.847245,-12.518052,-41.552399,-37.964791,-34.289772,-24.258896,-46.413487,-63.886266,-82.348676,-50.413042,-43.724565,-37.894703,-39.32294,-33.535191,-26.314771,-21.65277,-23.047643,-15.338697,-11.37006,-7.715831,-7.825969,1.949491,1.630705,2.431799,2.068565,17.444916,15.222816,10.403446,5.127502,-14.172787,21.66711,25.13808,15.703239,-21.724949,22.744812,22.42345,11.262462,-22.938275,18.08099,18.401424,8.260094,-18.89518,11.343681,12.622078,4.649757,-31.021345,-61.881527,-83.731774,-104.091182,-58.518309,-53.525696,-42.425818,-40.44744,-39.032269,-34.818767,-28.344996,-27.429515,-19.389265,-18.184515,-14.247333,-14.047762,-0.874084,-2.423642,-1.705256,-1.75415,43.045481,144.616763,-112.912096,142.86659
56,1.803154,-2.896094,2.697029,-0.425794,-12.250878,-22.149102,-27.417572,-23.982308,-14.253571,-44.955986,-37.1857,-28.130906,-9.859589,-47.389241,-37.13324,-27.76973,-8.89753,-44.251179,-35.532578,-27.521691,-10.295037,-37.473702,-32.63601,-27.553185,-24.526406,-47.152683,-64.551812,-81.222305,-47.51002,-43.438803,-37.466495,-37.901909,-30.41503,-24.774747,-21.030215,-21.430499,-12.474738,-9.3506,-6.68928,-6.24535,4.093478,3.918335,4.490873,5.05897,16.891777,14.773281,9.431122,4.236637,-13.670139,21.375652,25.35482,16.850006,-21.208202,21.993347,21.782078,11.183647,-22.769062,16.659004,17.70932,8.665306,-19.247395,9.08781,10.90567,4.262936,-29.352886,-59.678167,-81.171201,-101.219701,-56.007031,-51.103017,-40.3272,-37.805689,-36.961135,-33.132159,-26.24516,-24.247257,-17.689264,-16.952637,-12.763767,-11.90932,0.522464,-1.834234,-1.025854,-0.735126,44.500277,141.277255,-110.563425,141.997382
57,4.015297,-2.20286,4.079819,0.109669,-11.989037,-19.477021,-23.006928,-18.626954,-10.460747,-37.763398,-30.78328,-21.979935,-5.336197,-40.426953,-30.781563,-21.750573,-3.741555,-37.131867,-28.631379,-20.662926,-4.632317,-30.359986,-25.459603,-19.879281,-24.092658,-47.303866,-64.739669,-80.551646,-44.985434,-40.521645,-35.103084,-35.193313,-27.770667,-20.91282,-18.693844,-19.495574,-9.925088,-5.310893,-4.073699,-4.198509,6.315876,7.636513,7.464489,7.789734,16.248298,15.18956,10.40887,5.781772,-11.348259,22.266884,25.934108,17.920292,-18.846085,22.724201,21.905124,11.449138,-20.958573,16.612323,17.86623,9.671699,-18.26175,8.076805,10.170616,4.779979,-28.099575,-57.444902,-78.518786,-98.315629,-52.898991,-47.909261,-37.7307,-35.147705,-34.358559,-30.639752,-23.862613,-21.48802,-15.610684,-15.13875,-11.169026,-10.221528,2.16132,-0.600313,-0.258204,-0.083715,48.277743,138.988923,-106.721437,142.021579
58,4.063545,0.774739,5.215255,0.987494,-11.866974,-17.159752,-18.48642,-13.248963,-5.198136,-31.065537,-25.4664,-16.936524,0.631508,-33.809029,-25.63028,-16.605126,2.47641,-30.782616,-23.048058,-14.984162,1.684799,-23.742943,-19.301148,-13.56585,-24.218054,-48.405913,-66.39345,-81.561271,-44.946482,-39.402166,-33.669455,-34.119344,-27.222187,-19.513296,-17.796771,-19.166204,-9.446936,-3.875536,-3.167191,-3.672383,6.813986,8.746866,8.120297,8.370102,15.415387,15.343495,11.202736,6.935933,-9.788875,21.244812,24.949528,17.58791,-17.151947,21.973034,21.420136,11.578984,-19.457565,15.509079,17.512299,10.511422,-17.258422,6.816101,9.524437,5.546299,-27.194666,-55.282921,-75.797822,-94.946693,-49.227027,-45.270969,-35.583947,-32.814435,-31.337964,-28.180134,-21.877122,-19.241873,-13.192655,-13.175735,-9.665088,-8.626693,4.134999,1.339916,1.190646,1.265846,52.2804,139.943736,-101.56707,143.189147
59,7.647102,1.838878,1.606499,2.8215,-14.937126,-20.485657,-20.629646,-15.289467,-6.749977,-30.587036,-25.522865,-17.674942,0.422218,-33.430824,-25.284096,-16.243652,3.349823,-29.991211,-22.083572,-13.80249,3.538513,-22.780472,-18.418968,-11.993225,-25.221653,-49.890498,-68.637305,-83.058404,-45.377086,-38.373231,-32.212096,-32.775044,-27.40813,-17.453099,-16.42979,-18.181044,-9.528508,-1.617113,-1.535275,-2.855734,7.017008,10.606794,9.763901,9.933981,15.831162,17.630791,14.687554,10.696198,-6.666962,24.108582,26.186943,18.283699,-14.156307,24.841404,23.129551,13.022324,-16.602344,18.275894,18.669582,10.935917,-14.813003,9.83107,11.684979,7.250782,-26.870001,-53.618748,-74.058721,-92.791727,-46.25942,-43.288126,-34.39653,-32.26041,-28.62068,-25.757894,-20.124799,-17.895258,-10.86225,-11.074906,-7.831639,-6.950608,5.786291,3.323938,3.196602,3.382323,60.130314,142.062726,-99.757759,146.290759
60,5.767204,2.462996,0.127888,4.280902,-16.251091,-22.927894,-22.559761,-17.835777,-7.793884,-31.766121,-27.506836,-20.603965,-0.191139,-34.772369,-27.603332,-19.308792,2.924698,-31.226326,-23.854797,-15.779525,2.889634,-24.370102,-19.951881,-12.950225,-25.985259,-51.080966,-70.345452,-84.499252,-45.568976,-38.393473,-31.862892,-32.379897,-27.64432,-17.115825,-16.326402,-18.175975,-9.483888,-0.617659,-0.740832,-2.597933,7.476462,11.408703,10.710164,11.023961,16.195747,19.085186,17.249634,13.946411,-4.655251,26.542396,27.839676,19.330398,-11.967625,27.295017,24.937809,14.439228,-14.207234,20.993362,20.33337,12.067268,-12.113674,12.900707,14.058529,9.185898,-27.27859,-53.869515,-74.376364,-93.509655,-45.843345,-43.627153,-34.85878,-32.962715,-28.224686,-25.605598,-20.362272,-18.508525,-10.414873,-10.618545,-7.808395,-7.059813,6.232111,3.864372,3.566852,3.661374,66.243375,144.872243,-99.284014,150.918182
61,-1.421058,3.487972,-0.811752,3.776162,-15.65799,-21.58152,-20.629669,-16.113922,-3.736222,-31.657105,-28.596978,-20.848778,3.746704,-34.629776,-28.444084,-19.396385,6.355568,-30.838578,-24.021263,-15.116593,5.572517,-23.30468,-18.989685,-11.44645,-25.712995,-51.569177,-71.381173,-86.189817,-48.928804,-39.957889,-32.884392,-34.095533,-30.915634,-19.243658,-17.43723,-20.257217,-12.404429,-2.924395,-1.829399,-4.145534,5.149126,9.068968,9.402136,9.662575,17.103446,20.370414,19.138881,16.328372,-4.546223,28.679889,29.568008,20.077903,-11.902028,29.641788,26.504081,14.841682,-13.791321,24.020748,22.109481,12.357502,-11.064171,16.743965,17.014617,10.503902,-28.263942,-55.491422,-76.454371,-96.264206,-47.620325,-45.530104,-36.126962,-34.572765,-29.429018,-26.856662,-21.646515,-20.464581,-11.19012,-11.499798,-8.397809,-7.777088,5.80108,3.310853,3.363378,3.51989,65.254635,148.738767,-99.663448,155.072896
62,1.639801,2.714733,-2.111321,3.434662,-17.412895,-24.960503,-24.318489,-19.467453,-5.789978,-35.272888,-32.297356,-24.427368,2.037254,-37.87555,-31.789421,-22.601074,4.642547,-34.027199,-27.070862,-17.885582,3.851028,-26.604767,-22.241318,-14.191818,-26.706621,-52.88162,-73.258509,-88.163694,-50.90418,-42.251188,-34.796684,-35.982058,-32.39179,-21.366044,-19.108053,-21.591871,-13.566473,-4.653252,-3.029407,-5.237108,4.397117,7.684808,8.142675,8.366582,18.233128,21.633053,20.872421,18.510922,-4.342346,31.036411,31.647984,21.303806,-11.60479,32.275532,28.780277,16.275513,-13.041115,27.28791,24.405888,13.248882,-9.643547,20.647156,20.135204,12.026436,-29.539458,-57.863186,-79.323597,-99.776766,-50.775029,-48.900441,-38.998349,-37.73438,-31.834887,-29.69555,-24.154809,-23.255106,-12.964276,-13.578699,-10.087664,-9.542618,4.463277,1.458354,2.06268,2.471431,67.359616,151.730096,-101.309589,158.784154
63,0.316063,2.213123,-2.44035,1.552474,-18.209175,-26.859925,-26.652924,-22.456833,-9.664078,-36.202675,-33.415673,-26.575241,-1.834374,-39.229706,-33.203705,-24.695,1.210373,-35.693344,-28.629593,-19.579674,1.049377,-28.540261,-24.024582,-15.710724,-26.95663,-53.157034,-73.635755,-88.699546,-51.00823,-43.688868,-35.97211,-36.515384,-32.406925,-22.167361,-19.536855,-21.438817,-13.348723,-4.501791,-2.55995,-4.737159,4.683589,8.244118,8.811098,8.99152,19.473851,23.051079,22.783185,20.725331,-3.306587,34.550972,34.096699,22.416699,-10.69551,35.441941,30.839562,17.226437,-12.080268,30.670636,26.301281,13.621834,-8.458271,23.899556,22.248826,12.571255,-30.352705,-59.809943,-81.909495,-103.067767,-53.525572,-50.936495,-40.328879,-39.376997,-34.171894,-31.367647,-25.443053,-24.945876,-14.914176,-14.922623,-11.020788,-10.80644,2.844817,-0.300515,0.752182,1.095748,68.169674,154.113641,-103.255944,160.50705
64,-4.602127,1.586361,1.211586,-0.159415,-16.296479,-23.755623,-22.788941,-18.791222,-6.431603,-33.19352,-30.978997,-24.228836,0.938392,-36.265709,-30.930222,-22.551911,3.637733,-32.87114,-26.323655,-17.34066,3.187728,-25.697411,-21.138016,-12.876503,-25.767983,-52.07335,-72.437586,-87.853441,-50.129713,-42.438094,-35.163117,-36.249474,-31.80119,-22.020721,-19.348435,-21.598064,-12.916864,-4.368792,-2.271729,-4.522309,4.903206,8.439108,9.39272,9.670942,19.25076,21.502224,20.63506,18.65094,-5.803882,32.757489,33.048214,21.171227,-13.062149,33.823586,29.753174,16.025391,-14.130271,29.574406,25.731881,13.073491,-9.840969,22.467053,20.834713,10.956151,-30.886216,-61.494809,-83.720184,-105.440737,-55.920037,-53.284042,-41.636981,-40.012365,-36.389715,-33.751114,-27.139498,-26.344226,-16.794871,-17.071334,-12.726217,-12.303813,1.565188,-2.285383,-1.132639,-0.90431,63.989382,155.857227,-101.622523,160.50486
65,0.490974,0.70519,-2.05315,-0.193711,-17.398155,-25.753784,-25.556053,-21.1707,-8.195366,-36.477447,-33.262871,-25.66777,-0.643707,-39.046051,-32.603027,-23.420197,2.215302,-35.268425,-27.797195,-18.289421,2.002396,-27.638123,-22.730736,-14.152176,-25.97557,-51.560593,-71.666849,-86.862174,-49.190773,-41.251776,-34.524192,-35.485516,-30.807447,-20.358104,-18.437154,-20.638686,-11.883329,-3.077233,-1.584102,-3.944826,5.925557,9.84083,10.158388,10.098416,20.639843,23.997631,23.15799,20.258755,-2.977901,34.709725,34.206734,22.730141,-10.97557,35.463501,31.063294,17.860188,-12.634563,30.851761,26.644409,14.092587,-8.940216,23.226609,21.600243,11.929596,-31.817122,-62.747447,-85.757743,-106.931188,-58.18038,-55.208123,-43.706195,-42.504278,-38.44367,-35.466522,-28.845118,-28.451428,-18.449066,-18.889778,-14.39877,-14.318717,0.326697,-3.306821,-1.985066,-1.781561,64.880081,156.704212,-103.275948,160.452944
66,0.892433,-0.412394,-1.181488,-0.667547,-18.199745,-27.290474,-27.557831,-23.083099,-9.317825,-39.17601,-35.545807,-27.728576,-1.323921,-41.970039,-34.735794,-24.929329,1.704094,-37.787132,-29.897896,-20.051056,1.436257,-29.833854,-24.577835,-15.639221,-25.754349,-50.720356,-70.76604,-86.161282,-47.164619,-39.249723,-33.033006,-34.01924,-28.818942,-18.047651,-17.097398,-19.290168,-9.863893,-0.500116,-0.088612,-2.459482,7.867435,12.045838,11.568224,11.587897,20.673523,24.63889,24.162232,21.44228,-1.827736,35.144108,34.29681,22.809849,-9.721298,35.890549,31.396969,18.343106,-11.375015,31.196766,26.866757,14.314144,-7.923774,23.973656,22.497196,13.105316,-32.573898,-63.253973,-86.312052,-106.873963,-57.504855,-55.285415,-44.333486,-43.450066,-37.836546,-35.53651,-29.203881,-28.88872,-18.083447,-18.920128,-14.725139,-14.683976,0.33239,-3.325358,-2.092412,-1.688256,66.215332,156.396688,-104.014618,159.890267
67,-0.83464,-0.305195,0.639714,-0.896344,-17.953514,-26.986016,-27.157975,-22.491257,-8.890709,-38.944702,-35.246888,-27.373169,-1.057984,-41.782883,-34.637238,-24.776825,1.900108,-37.604897,-29.794396,-19.9235,1.675895,-29.556794,-24.445153,-15.59459,-25.559539,-50.284657,-70.184339,-85.530224,-46.711519,-39.119584,-32.651802,-33.543207,-28.485397,-17.842893,-16.690636,-18.761597,-9.566219,-0.280977,0.255375,-1.990389,8.081721,12.240636,11.834442,11.923041,20.187274,24.077178,23.339904,20.205356,-2.647397,34.059448,33.429519,21.990325,-10.52084,34.70668,30.420307,17.407001,-12.046521,30.113937,25.959846,13.456832,-8.449162,22.930755,21.587745,12.505931,-32.642157,-62.85065,-85.719613,-105.888094,-56.387061,-54.66609,-43.752285,-42.80383,-36.846934,-34.625593,-28.477197,-28.163702,-17.156555,-17.942953,-14.025174,-13.959675,1.226277,-2.25494,-1.276505,-1.023451,65.848749,156.170651,-102.906847,159.073081
68,-0.173081,-1.323558,0.066295,0.677711,-17.947197,-26.803825,-27.038589,-22.040016,-7.139122,-40.213646,-36.120941,-27.383285,0.750458,-42.925415,-35.266388,-24.579918,3.350258,-38.350754,-30.425148,-20.222511,2.528435,-30.014168,-24.798912,-15.904907,-25.252757,-49.862773,-69.622021,-84.859627,-46.118104,-37.829927,-31.398535,-32.528938,-27.942766,-16.879772,-16.051767,-18.398708,-8.967679,0.270726,0.614416,-1.551813,8.722986,12.545275,12.158718,12.383501,19.953701,23.451336,22.467671,19.192269,-3.632503,33.502499,33.330128,22.105065,-11.304874,34.4534,30.436066,17.513821,-12.558346,30.098763,26.170658,13.736801,-8.569244,22.655491,21.344273,12.391136,-33.009325,-63.309678,-86.206206,-106.369735,-57.08523,-55.65414,-44.849263,-43.86606,-37.193008,-35.634644,-29.43854,-28.893197,-17.202992,-18.667094,-14.74611,-14.502758,1.401475,-2.564791,-1.692406,-1.397881,66.189777,154.919743,-102.326443,159.823442
69,2.77842,-1.46162,-0.692814,0.81818,-19.917527,-30.121857,-30.916947,-25.31012,-9.754051,-44.267075,-39.021378,-29.688423,-1.465576,-46.234955,-37.597641,-26.50763,1.471824,-41.001206,-32.366478,-22.089775,1.09021,-32.191933,-26.828545,-17.961571,-25.994157,-50.236109,-70.056571,-85.2578,-45.96077,-36.910383,-30.700638,-31.698228,-27.464416,-15.29312,-15.119607,-17.512602,-8.145824,1.493532,1.318211,-1.050406,9.827467,13.910317,12.762217,12.526466,19.962605,23.580677,22.603157,19.23,-3.607338,33.93758,34.330685,23.405445,-11.262176,34.916199,31.138424,18.385254,-12.498779,30.332474,26.712227,14.594605,-8.386757,22.262329,21.188942,12.797322,-33.155025,-63.487093,-86.482322,-106.623831,-57.548413,-56.13809,-45.396284,-44.24743,-37.5772,-36.115642,-29.951815,-29.143341,-17.392528,-19.147629,-15.281973,-14.757329,1.437834,-2.854906,-2.127338,-1.687935,69.53001,153.520682,-102.457444,160.704181
70,-1.556145,0.049857,2.075375,-0.316199,-18.76458,-27.969887,-28.169197,-22.945633,-7.207123,-42.073425,-37.381691,-28.270592,0.857368,-44.593872,-36.430321,-25.524055,3.308693,-39.750114,-31.567818,-21.401276,2.252678,-31.447151,-26.102486,-17.320221,-25.915956,-50.821867,-70.930951,-86.32715,-46.784403,-37.410802,-30.835013,-32.138218,-28.289871,-16.407208,-15.780077,-18.429892,-9.008774,0.506551,0.594928,-1.684008,8.84813,12.663873,12.018384,12.135413,18.465248,20.512871,19.04583,16.159332,-7.620461,31.539596,33.398838,22.29998,-14.556816,32.817329,29.853813,16.77824,-15.113949,28.661899,25.928833,13.972881,-10.024361,20.487797,19.578701,11.252838,-32.360995,-62.840424,-85.351432,-106.07164,-56.831411,-55.353668,-44.259639,-42.504142,-36.778786,-36.003133,-29.481598,-28.012537,-16.688154,-18.815912,-14.79312,-13.762283,2.065897,-3.05767,-2.378181,-1.798703,68.539621,153.620844,-99.816313,160.438287
71,2.094864,-0.574946,1.111153,0.552283,-19.940025,-30.323525,-31.044479,-25.40863,-9.688889,-45.198967,-39.41272,-29.876061,-1.311813,-46.855911,-37.85598,-26.922249,1.551453,-41.567093,-32.61541,-22.476151,1.092132,-32.87352,-27.26992,-18.436707,-26.437086,-51.110291,-71.254875,-86.591096,-47.615366,-37.479628,-30.797845,-32.091442,-28.917853,-15.969305,-15.355512,-18.022932,-9.434993,0.66236,0.86463,-1.602769,8.694681,13.068326,12.20576,11.956053,17.894851,18.940944,16.905933,13.719623,-9.568703,30.480537,32.798881,21.666057,-16.385663,31.828376,29.123542,16.033618,-16.752469,27.947044,25.632236,13.95433,-11.142083,18.976558,17.938854,9.705951,-31.994043,-62.823337,-85.386246,-106.677733,-58.356065,-56.027031,-44.559745,-42.608265,-38.098096,-36.969162,-30.054592,-28.362322,-17.661877,-19.810853,-15.433422,-14.285951,1.493348,-4.177254,-3.51697,-3.22673,71.169966,153.070178,-98.169679,161.01485
72,-1.736481,0.170617,-0.071904,0.080437,-18.834411,-28.134613,-28.255142,-23.114937,-7.312431,-43.349441,-38.057625,-28.55246,0.867302,-45.592254,-36.896232,-25.895393,3.314896,-40.518448,-31.841743,-21.547577,2.169983,-32.10086,-26.208778,-17.163711,-26.306275,-51.489173,-71.860511,-87.335417,-48.033293,-37.677002,-30.767754,-32.258218,-29.331162,-16.678589,-15.74546,-18.768309,-9.868105,0.082041,0.433488,-2.05837,8.169629,12.338461,11.918595,11.92619,17.761975,18.263146,16.011475,12.872258,-10.410862,29.958298,32.316136,21.112336,-17.287662,31.225159,28.570175,15.632309,-17.657592,27.339924,25.271084,13.924221,-11.907875,17.936795,16.878376,8.789612,-31.962143,-62.904151,-85.472407,-106.939068,-58.912543,-55.935166,-44.580118,-42.695952,-38.367032,-37.106292,-30.258116,-28.541523,-17.76544,-20.056096,-15.674188,-14.53367,1.508043,-4.417403,-3.904133,-3.634037,69.970247,153.243577,-97.704821,161.098069
73,0.71434,-0.423435,-0.544487,-0.836076,-19.752731,-29.559974,-29.883911,-24.412376,-9.46994,-44.475219,-38.648094,-29.166687,-1.043953,-46.5401,-37.407119,-26.494422,1.861084,-41.19136,-32.002578,-21.750984,1.382195,-32.66249,-26.778808,-17.659401,-26.741621,-51.609284,-71.904526,-87.086273,-47.888519,-37.443882,-30.77514,-31.983898,-29.166047,-15.942999,-15.597605,-18.477267,-9.778968,0.55868,0.482999,-2.020992,8.159637,12.675853,11.694429,11.543758,17.725983,18.08812,15.793156,12.821926,-10.508743,29.121483,31.44841,20.228566,-17.59338,30.547383,27.971752,15.078129,-18.081573,26.611634,24.727192,13.497437,-12.420376,17.653004,16.609074,8.390168,-31.555523,-62.043727,-84.40607,-105.781414,-57.547241,-54.849723,-44.065632,-42.455057,-37.046561,-36.05937,-29.580572,-28.021164,-16.664893,-19.084928,-14.949145,-13.857707,2.247258,-3.252148,-2.757588,-2.391495,71.167797,152.741132,-97.766098,160.182983
74,-2.502319,0.818477,-0.493171,0.082424,-18.210136,-26.73072,-26.598953,-21.939377,-7.122139,-41.057236,-36.444534,-27.532173,1.022049,-43.965317,-35.736259,-25.140907,3.566231,-39.337463,-30.755447,-20.435165,2.592316,-31.22097,-25.393982,-16.150886,-26.299285,-51.584868,-71.971717,-87.27426,-48.065335,-38.474885,-31.39541,-32.439752,-29.594361,-17.326808,-16.323197,-19.059104,-10.461638,-0.591594,-0.185041,-2.341137,7.228318,11.401534,11.056102,11.368325,17.747154,17.844051,15.341606,12.52367,-10.562542,27.998428,30.306484,19.227825,-17.67247,29.796512,27.359298,14.608165,-18.219967,26.016574,24.197261,13.016807,-12.69952,17.834095,16.870582,8.508762,-31.405982,-61.753499,-84.064973,-105.374849,-56.937869,-54.16777,-43.815919,-42.414055,-36.409191,-35.394311,-29.163009,-27.729788,-16.226403,-18.368426,-14.487165,-13.57773,2.330868,-2.618304,-2.101774,-1.685206,69.154472,153.33197,-97.770275,160.037768
75,1.660652,0.324128,-0.795948,0.739523,-19.418449,-29.062591,-29.53807,-24.46923,-9.99646,-43.201767,-38.087585,-29.202781,-1.625473,-45.708023,-37.06176,-26.522735,1.351616,-40.849983,-31.773422,-21.486786,1.009392,-32.53537,-26.742737,-17.477165,-26.872711,-51.577649,-71.668257,-86.516656,-47.659042,-38.940718,-32.021893,-32.522738,-28.958714,-16.725149,-16.067322,-18.330684,-9.690344,-0.03479,0.196366,-1.834691,8.142088,12.14265,11.335634,11.507708,17.609607,17.587738,15.021995,12.540699,-10.321141,27.618152,29.514049,18.353118,-17.243042,30.051349,27.211258,14.335853,-17.647694,26.442913,24.205146,12.849414,-12.150799,18.845363,17.658794,9.010826,-31.413472,-61.482094,-83.559867,-104.566801,-56.297184,-54.350897,-44.254612,-42.970642,-35.830485,-35.503918,-29.359128,-27.883201,-15.861532,-18.293405,-14.430732,-13.549745,2.407587,-2.461532,-1.769013,-1.222053,71.349048,153.211791,-98.032299,160.332984
76,-1.59066,2.299622,-0.650998,1.386865,-18.758812,-27.817177,-27.715347,-23.071953,-9.420044,-41.450455,-37.319092,-29.010727,-1.395172,-44.527679,-36.712921,-26.59449,1.405884,-40.050888,-31.609657,-21.466965,0.801682,-32.151741,-26.479751,-17.221207,-26.45752,-51.724992,-71.965881,-86.937114,-48.064921,-39.828769,-32.47188,-33.022793,-29.513084,-18.173375,-16.756017,-18.934405,-10.27349,-1.077298,-0.236788,-2.212715,7.562585,11.052608,10.802358,11.141368,17.097382,17.272076,14.821953,12.563141,-9.858112,27.223549,29.13802,18.320469,-16.50991,30.225838,27.304551,14.691365,-16.785106,26.76241,24.26429,13.045212,-11.489353,19.682007,18.413029,9.891518,-31.397448,-61.053003,-82.79557,-103.348379,-55.26371,-53.96886,-43.997113,-42.346234,-35.18636,-35.177518,-29.170215,-27.540709,-15.616228,-18.151966,-14.348122,-13.38694,2.322322,-2.503473,-1.817315,-1.200626,70.258661,154.590813,-98.183024,160.799249
77,0.09375,2.965527,-3.009384,1.609154,-19.175857,-28.892876,-29.104683,-24.602463,-11.454414,-43.718101,-39.164863,-30.491043,-3.742721,-46.373543,-38.445259,-28.295654,-0.948463,-41.994461,-33.349777,-23.014023,-1.438614,-34.105797,-28.317032,-19.047638,-25.674562,-50.827419,-70.979067,-86.149235,-48.259596,-39.933399,-32.61997,-33.226483,-29.954909,-18.755262,-16.872868,-18.856613,-10.815357,-1.921908,-0.500117,-2.471493,7.022874,10.359002,10.564532,10.857698,17.864434,20.113014,18.57359,15.687367,-5.383163,30.843293,30.944481,20.238831,-12.331398,33.57193,29.581421,17.276768,-13.178512,29.491814,26.040631,14.880616,-8.955436,21.990418,20.414097,11.978886,-31.424229,-60.26395,-81.949682,-101.837656,-52.924259,-51.788082,-42.752058,-41.602778,-32.585359,-32.823561,-27.875217,-26.866987,-13.058946,-15.811039,-12.822016,-12.340764,4.561379,0.115893,0.466487,1.036826,70.843946,155.976876,-100.700873,160.828939
78,-0.942856,3.4784,-1.975216,4.479498,-18.036049,-28.311287,-29.442604,-26.136589,-12.86325,-46.654289,-41.597946,-32.386619,-5.943992,-48.65673,-40.658958,-30.530044,-3.546821,-44.366798,-35.630699,-25.260338,-4.172287,-36.495414,-30.382095,-21.269302,-24.241939,-48.890203,-68.630013,-84.131392,-47.405062,-38.215613,-31.066342,-32.388764,-29.515999,-18.292448,-15.848718,-18.328164,-10.625764,-1.829677,0.141384,-2.288211,7.06132,10.19813,11.00543,11.034848,18.323708,22.399063,21.627995,18.28188,-2.142471,33.96983,32.95007,22.233548,-8.817718,36.724434,31.723801,19.181294,-9.676906,32.336048,27.896279,16.522957,-6.031448,24.734631,22.869221,14.559197,-32.208088,-60.653823,-82.589156,-101.659487,-52.2587,-51.914318,-42.964244,-42.103938,-32.038293,-32.725063,-27.890043,-26.799932,-12.651282,-15.700925,-12.992348,-12.617869,4.82209,0.504304,0.854367,1.476836,70.345092,157.309962,-102.232087,163.163123
79,-0.143486,3.748374,-0.150478,4.695872,-17.133568,-29.580116,-33.579437,-31.850876,-16.999328,-52.033996,-46.083847,-36.525032,-10.652847,-52.632316,-44.295044,-34.470451,-8.096832,-48.162643,-39.255661,-29.432235,-8.361602,-40.025459,-34.13031,-25.916839,-23.439796,-45.874499,-63.757307,-78.829496,-44.373068,-34.503883,-28.273958,-29.900025,-26.953487,-15.101391,-12.966685,-15.489381,-8.430241,0.723974,2.345243,-0.501969,8.95891,12.25637,12.55497,11.773469,18.14859,23.690872,23.71661,20.379261,0.049232,36.203602,34.923283,24.469391,-6.349583,38.642143,33.168182,20.527599,-7.253597,33.975414,28.982964,17.439663,-4.141708,26.204556,24.197376,15.891769,-31.949385,-59.2718,-80.79703,-99.482235,-49.632851,-50.035402,-41.764261,-41.116228,-30.247309,-31.104751,-26.697154,-25.586839,-11.490831,-14.222268,-11.887399,-11.614746,5.348611,1.526199,1.62285,2.250803,70.523695,158.293692,-102.060476,165.094351
80,-3.519493,4.620981,-2.153744,6.443137,-14.77858,-28.115433,-35.088821,-36.53183,-18.247055,-51.656685,-49.178238,-42.953567,-12.515121,-50.545303,-47.159889,-41.550739,-9.539841,-45.6641,-41.905861,-36.285805,-9.217827,-37.205223,-34.715172,-30.194435,-22.022099,-41.644682,-56.661666,-70.109102,-39.209425,-29.51272,-23.947205,-25.216047,-22.883721,-11.335783,-8.415062,-10.212129,-5.500282,3.589428,5.87318,3.588329,10.650748,15.0754,16.539242,15.882218,19.131054,27.356026,28.975617,25.443352,5.538117,41.75132,41.209511,32.164925,-1.038769,42.929363,37.951561,26.314511,-2.752773,37.758213,33.039482,22.139878,-0.726436,29.431984,27.47818,19.539322,-31.463181,-57.527005,-78.589972,-97.554876,-47.676184,-46.394635,-39.023068,-38.316946,-28.241347,-27.600501,-23.995673,-23.382615,-9.46049,-11.38672,-10.014398,-10.549354,7.280571,4.128917,3.139465,2.958635,67.182375,159.741931,-104.036047,168.364746
81,-0.835647,7.756259,-1.558731,8.113263,-15.087708,-30.850411,-41.376275,-45.16539,-29.572976,-62.162121,-58.592858,-51.89906,-24.4124,-58.465691,-53.990834,-47.838787,-20.275864,-52.077954,-47.72786,-41.758461,-17.673409,-42.745263,-39.88987,-35.311821,-22.00216,-38.840657,-50.145447,-60.010082,-32.150185,-22.354785,-19.03872,-20.736227,-15.663758,-4.834761,-3.785183,-5.747994,1.039161,8.677069,9.054648,6.834783,16.309741,20.429235,20.308982,19.060747,19.531494,30.862976,34.616741,30.955856,11.152016,46.264218,47.831452,42.179123,4.102009,46.42511,44.161892,35.450661,1.209835,40.56649,38.115933,29.343258,1.908016,31.263851,30.790352,24.223686,-31.102188,-55.719249,-76.225165,-94.818937,-45.687036,-43.344849,-37.4145,-37.261594,-26.512447,-24.409611,-21.953395,-21.52092,-7.522324,-7.941856,-7.730213,-8.711933,9.578008,8.223945,6.306755,5.519696,66.516604,164.464822,-105.424902,173.444641
82,0.547828,9.231378,0.180679,9.650589,-16.169883,-34.398422,-48.495804,-55.825103,-38.598541,-69.920173,-69.788143,-65.72343,-33.962379,-66.060756,-64.715023,-60.414573,-28.923042,-58.773422,-57.512512,-53.642578,-24.440597,-48.206016,-48.07109,-45.500839,-22.066306,-35.621682,-42.890509,-49.54469,-25.268929,-14.658862,-12.17552,-13.582392,-8.754473,2.788229,2.940196,0.98156,7.47485,15.704414,14.968596,12.60458,22.049084,27.086373,25.823084,23.649197,18.130085,31.529904,37.198414,35.015591,14.041844,48.78653,55.320477,54.318146,7.257226,48.396,51.410019,47.169171,3.792458,42.684941,44.910885,39.876572,3.853169,32.968506,35.210267,31.039525,-30.417395,-53.564184,-72.913225,-91.061962,-43.675721,-40.434231,-34.66355,-33.878203,-25.402656,-21.501024,-18.801605,-17.570153,-6.712801,-5.305941,-5.281982,-5.91648,10.404389,10.806125,8.525534,7.28524,67.202739,171.073428,-105.105916,180.472458
83,1.050934,12.106847,1.794869,8.352373,-18.299446,-39.309814,-56.839851,-67.374596,-45.779365,-76.025207,-80.958286,-81.002964,-41.313652,-72.261543,-76.812092,-76.944786,-35.716461,-64.631813,-68.955322,-69.17942,-30.22332,-53.216629,-57.47319,-58.938148,-22.725399,-33.349693,-36.361081,-38.445584,-20.043078,-10.226053,-8.194699,-9.020858,-2.815991,8.161466,8.511331,7.308137,13.430542,21.35743,20.78057,19.050558,27.440686,32.972571,32.098087,30.021445,16.58638,31.602791,39.224281,38.958115,19.461971,53.253834,63.655266,67.301239,12.883598,52.169529,60.375355,61.105671,8.692726,45.642551,52.269505,51.365147,7.659954,35.050747,39.199768,37.048634,-27.937306,-48.885442,-66.027468,-83.832341,-37.192501,-31.333641,-26.781999,-26.031102,-18.606548,-12.657908,-11.479352,-11.551168,-0.19397,2.800443,1.309541,-0.569981,16.134481,17.244754,13.617349,11.018447,68.481411,180.90154,-103.083309,186.546096
84,2.154488,14.183255,-1.27969,9.158068,-21.037102,-44.056412,-63.608666,-76.395527,-52.598122,-81.383183,-91.376187,-95.86044,-48.562638,-78.214714,-88.895462,-93.94661,-42.536797,-70.011177,-79.966667,-84.375469,-35.946785,-57.852906,-66.099621,-71.137047,-23.151489,-31.854067,-31.669502,-29.597257,-15.720334,-6.606603,-4.041774,-3.945271,2.264807,12.483908,13.981454,13.981602,18.478181,26.091303,26.771224,26.257078,31.870289,38.091507,38.82241,38.037006,16.742638,34.624352,44.929321,46.583954,24.914601,57.208317,71.217407,80.187412,17.90498,55.273201,69.043591,75.883358,12.938679,48.430412,60.328079,64.968064,10.764473,37.535511,45.014237,46.797798,-25.908509,-44.640379,-59.973606,-76.468475,-32.682746,-24.576454,-20.053977,-18.240961,-13.70191,-5.753632,-4.170771,-3.970354,4.813333,9.807892,8.872521,7.319449,21.223851,24.197553,21.112676,18.330375,70.943447,193.396594,-104.055451,194.015963
85,3.634208,15.178646,0.360272,8.824418,-24.213913,-48.663528,-68.844635,-82.568161,-60.351997,-88.941341,-98.960609,-103.317581,-56.902587,-87.035373,-97.550857,-102.070942,-50.896339,-79.009872,-88.667759,-92.599491,-43.58448,-66.321189,-74.78358,-80.231998,-22.690954,-30.094409,-27.598284,-23.013946,-11.882409,-1.871333,0.919983,0.69058,6.708046,17.246977,19.172565,19.146951,23.020912,30.998102,31.9827,31.712394,36.110233,42.414876,43.356014,43.145594,16.453182,35.63451,48.031768,53.07574,29.228393,58.700637,75.4873,88.637786,21.857299,56.598976,75.3101,87.551078,16.134773,48.912243,65.779998,75.673107,12.574344,37.119289,48.046154,53.917659,-23.617816,-39.583891,-52.676115,-66.984655,-24.822221,-16.769769,-12.594194,-10.370858,-7.073732,1.86795,3.960054,5.193963,9.974383,17.037766,16.823282,16.393894,24.963925,30.448523,28.630974,26.919734,74.955225,207.411584,-103.317609,201.676725
86,1.479927,13.098918,2.819,11.666876,-25.179634,-50.632736,-71.49797,-86.979309,-57.959449,-86.01313,-99.911476,-107.980419,-54.710609,-85.246433,-100.595088,-108.795742,-49.12841,-77.937892,-90.63763,-96.654087,-42.53675,-65.207176,-76.12231,-83.835559,-14.514496,-17.284941,-12.593021,-6.201397,-6.328528,2.505387,6.510778,6.865312,6.925407,17.164626,21.445004,22.17708,19.063488,27.931131,31.288563,31.61253,28.831971,35.984904,39.032596,39.416374,16.288753,35.872055,49.664978,57.863262,31.986717,63.098602,80.71146,93.838096,26.014801,62.140274,81.732914,93.677753,21.426086,54.76141,72.460373,82.623768,18.246437,43.153358,54.961887,61.222355,-22.956383,-36.641114,-47.165274,-59.642685,-18.177309,-8.901273,-4.3744,-1.533164,0.463399,10.980322,14.294059,15.625275,17.401673,26.694332,28.1211,28.163325,31.667822,39.392267,39.624288,38.609655,76.788431,219.622408,-100.14533,212.455507
87,-0.333389,12.672345,1.272617,10.215901,-25.28286,-50.528,-70.919105,-85.742706,-56.756607,-83.147816,-96.097378,-103.861908,-53.687897,-81.916374,-97.721123,-107.233715,-48.361564,-75.28688,-88.520405,-95.492203,-41.994804,-63.011238,-74.719425,-84.057781,-13.347796,-14.896842,-8.881438,-1.11935,-3.820547,3.911321,7.402985,7.334875,9.081818,18.228092,22.791102,23.508827,20.70169,29.297817,33.052365,33.527226,29.917877,37.809283,42.139383,43.511292,18.448036,38.792633,54.019924,64.812298,35.941933,67.16034,84.687939,98.101227,29.752281,65.879093,85.845738,98.295376,24.916317,57.496422,75.789711,86.910942,20.961651,45.579792,58.157158,65.524292,-20.653079,-31.780899,-39.907698,-50.855786,-10.659158,-0.381407,4.401854,7.982501,8.32524,19.441018,23.441321,25.019118,24.482483,35.421914,38.027312,38.358603,37.247552,46.369607,47.867166,47.345103,76.788608,231.554801,-98.539147,221.931456
88,-1.534321,11.277181,-1.186054,10.492062,-25.913829,-51.012966,-70.536815,-84.739597,-58.229616,-84.277227,-94.289554,-99.154472,-55.259794,-82.594505,-94.971765,-101.125883,-49.736526,-75.860721,-86.144193,-90.058708,-42.883793,-63.134376,-73.309524,-80.606929,-9.814258,-8.596738,-0.448493,8.470928,2.186657,9.286441,11.648672,10.834981,13.109681,21.186382,24.469527,24.000484,22.585633,30.618603,32.908728,32.32941,29.787485,38.167887,41.837998,42.889416,21.635639,43.598042,60.592678,73.833504,39.189423,69.514057,87.602165,101.685734,32.197826,67.578163,88.191124,101.598335,26.766495,58.947601,78.258785,90.796497,22.064655,46.775013,60.997032,70.509808,-18.966342,-27.534891,-33.753096,-42.63183,-5.584892,5.125655,11.034305,16.367663,12.341759,24.895951,31.070696,35.080002,27.529075,40.840537,46.241549,49.079858,39.375089,51.221806,55.35596,57.070077,75.470895,242.332847,-99.508593,231.924383
89,-2.468536,10.217038,2.321743,12.826685,-27.628773,-53.582394,-72.706158,-86.6819,-62.186583,-89.505117,-95.25452,-95.399746,-58.909578,-87.415947,-94.286367,-94.240866,-53.070488,-80.233761,-85.90539,-84.407043,-45.597988,-66.478569,-74.375645,-78.044346,-4.276506,1.404754,13.023916,24.156657,10.383332,16.112208,16.457856,14.107555,18.274152,24.379285,25.045585,21.983777,24.502724,30.936605,30.30785,27.259677,28.419207,36.282671,37.86221,37.143256,23.703266,46.554497,64.441257,79.184521,44.458855,76.571411,93.86776,105.717144,37.4618,74.617104,93.854656,104.40881,31.435112,64.972973,82.764736,92.744625,25.820366,51.019203,64.55785,72.478992,-19.593962,-26.254003,-30.370817,-37.031438,0.136036,12.899562,18.31947,22.477372,18.433943,33.340579,38.161186,40.231109,33.082351,48.550273,52.913199,54.133523,43.696357,57.871732,61.875938,62.781384,73.149044,252.180213,-97.040165,244.381396
90,-2.595841,8.199134,2.444561,10.674633,-28.947589,-55.750636,-75.026298,-89.96228,-66.386163,-93.279893,-93.921913,-89.33258,-63.342458,-91.019542,-91.442041,-85.163618,-57.550609,-84.370914,-84.297655,-76.988822,-49.980182,-71.476043,-77.168037,-77.382671,4.607957,14.151916,27.068058,39.50293,17.514108,24.240846,24.82674,22.254731,21.385804,27.926698,29.016481,25.143755,23.919071,30.884153,31.064205,27.553719,24.692915,33.287961,35.783406,35.464299,25.395309,49.424068,68.340225,83.588848,47.715157,81.360649,98.259682,109.240768,40.583416,78.460155,96.921638,106.399315,34.264378,68.206272,85.173992,94.118099,28.345219,53.530849,66.48793,73.538933,-18.514169,-23.653829,-25.79721,-30.769292,4.565047,19.136749,25.557162,30.095175,23.750715,40.158886,45.628763,47.379041,38.697983,55.774503,60.793935,61.538929,48.972696,64.681457,69.248616,69.581068,70.622571,260.0411,-94.526236,254.717782
91,-1.942703,7.946611,-0.256886,7.122367,-29.941074,-56.932743,-76.642101,-92.545955,-72.275373,-97.463853,-91.39135,-81.308601,-70.038923,-95.143352,-88.095194,-75.26489,-64.731617,-89.52737,-83.408083,-70.973945,-57.242031,-79.051666,-83.637176,-82.000488,5.823811,15.811199,29.503569,42.1786,18.764814,29.598609,32.064963,30.466239,24.231288,33.897592,36.508634,33.511862,27.882064,37.297193,39.188695,36.779663,29.439188,39.66773,43.228221,44.371351,28.199318,53.762867,74.15292,90.656697,52.445137,84.380723,101.274479,113.324124,43.415841,79.257569,98.796811,110.870854,35.143708,67.28357,85.375603,96.786587,27.387921,51.241368,64.639527,73.606751,-15.315881,-18.616181,-19.032206,-22.494564,10.236254,25.814191,32.692915,37.514536,28.487984,45.493257,51.260375,53.572792,42.050536,59.628569,64.862286,66.044128,50.681662,66.825258,71.29069,71.940576,68.72335,267.646589,-94.73964,261.499027
92,-2.03286,7.422819,2.897313,8.449012,-30.701122,-58.798885,-79.484287,-96.773929,-78.203676,-100.128599,-88.319126,-74.338474,-76.572309,-97.535408,-83.461584,-64.614572,-71.491138,-92.61621,-79.569963,-61.464099,-64.033859,-84.775028,-86.643871,-81.772098,11.124985,23.807396,38.930609,52.516966,22.812714,36.740118,41.779057,41.922497,25.817607,37.814927,42.961145,42.226562,27.266228,38.444751,42.678001,42.322812,27.104158,37.837756,41.976158,44.175911,29.05141,54.811992,75.952686,93.316681,54.910629,86.150253,102.926433,114.650596,45.556995,80.542041,100.051574,112.229255,36.904655,68.251213,85.985057,97.555423,28.679935,51.949573,65.078064,74.423687,-14.159728,-16.415569,-15.478519,-17.986339,13.775072,30.097744,37.000205,41.405232,31.600489,49.539243,55.617979,58.026516,44.55349,62.799267,68.546205,70.15736,52.657627,69.434757,74.386769,75.613985,66.710741,274.771438,-91.822076,269.650069
93,-2.021816,7.430378,3.502452,8.778821,-28.310531,-55.494758,-76.67157,-94.482342,-79.331051,-96.403347,-79.835071,-63.002918,-78.989513,-94.208004,-74.911068,-52.102455,-74.716427,-90.762611,-72.780556,-51.358005,-67.88348,-86.789875,-86.649868,-79.935299,9.605486,20.060091,33.446839,45.189347,20.72061,38.676555,46.542459,48.66571,25.054513,40.015465,48.023234,50.132541,27.953325,40.874796,47.865968,50.248027,29.436977,41.03547,46.207981,49.84434,29.081955,54.818024,76.553387,94.29879,56.542019,88.554463,105.134663,116.329251,47.354313,82.875733,102.438893,114.560589,38.498509,70.359478,88.050156,99.507672,29.946866,53.631375,66.842663,76.523896,-14.088727,-15.785776,-13.594131,-15.536416,16.059776,32.409605,38.901513,42.577231,33.977498,51.478095,57.016082,58.609922,46.659797,64.728227,69.904628,70.669568,54.478721,71.393665,75.864272,76.452766,64.66452,281.917616,-88.344029,278.14469
94,-2.032722,6.743281,1.932438,5.62177,-24.146508,-49.006394,-69.987694,-87.81752,-77.288842,-86.688423,-66.342419,-48.160355,-78.839482,-85.28001,-62.346897,-37.917824,-75.770943,-83.803002,-62.151799,-39.646569,-70.013558,-84.643776,-82.24086,-74.561451,6.58825,12.858214,22.587325,31.465428,16.156872,38.257467,49.107262,53.341228,22.614075,40.957504,52.284074,57.594238,27.861353,43.139924,53.467644,58.865161,32.073077,45.102636,52.079853,57.396649,29.134827,54.633992,77.063347,95.544274,56.838559,87.631714,104.6624,117.122795,47.604676,81.511906,102.073494,116.491837,38.690083,69.097699,88.01009,101.761368,30.150856,52.887726,66.780247,78.479153,-11.675656,-12.552302,-9.358373,-11.366497,19.096093,34.067134,40.982131,45.423542,36.062685,51.675067,58.297428,61.625849,47.891162,64.701131,71.007948,73.249574,55.113737,71.05163,76.174913,77.924339,62.5618,288.349937,-86.481589,283.4555
95,-3.225746,8.215435,2.918644,7.521818,-19.206391,-42.078255,-62.842518,-79.847844,-72.825726,-77.995434,-56.247654,-37.990998,-75.970448,-77.549218,-53.376366,-29.066071,-74.029393,-76.937199,-53.882996,-31.815674,-69.278023,-79.705388,-74.302655,-65.159798,-1.432931,0.737633,8.869014,15.587348,9.57902,32.983229,44.727725,50.117487,20.187148,38.958681,50.633535,57.464933,29.188852,44.186026,54.329704,60.576092,36.899292,49.532994,55.30588,59.741696,28.745819,54.050835,76.733906,95.740872,56.551918,87.684906,105.08955,117.612568,47.508557,82.121304,103.111485,117.736096,38.739533,69.95406,89.229092,103.284634,30.411164,53.962132,68.485051,81.202023,-11.966106,-12.638729,-8.801657,-10.408057,20.125546,34.2821,40.597277,44.641892,36.664468,51.011138,56.723484,59.681168,47.925075,63.527181,69.070726,71.153518,54.744717,69.761737,74.360711,76.191758,59.219702,296.272493,-83.679297,290.684439
96,-4.337769,6.773008,2.357449,6.106029,-14.861252,-34.929954,-54.209587,-69.539555,-65.159122,-67.260418,-46.60857,-29.086235,-69.117496,-68.300697,-45.245453,-22.376312,-67.881409,-68.404552,-46.835999,-26.859329,-63.876961,-71.12035,-64.119244,-54.640148,-9.030578,-10.313283,-3.847385,1.472883,5.957766,27.830947,38.75194,44.101218,19.63337,36.941331,47.573184,54.027189,31.067002,44.226015,52.984941,58.545046,40.456474,52.137935,57.068063,60.44854,27.944893,52.946857,75.410728,94.315132,55.967537,87.755653,105.376785,118.058899,47.330326,82.690693,103.772964,118.420235,38.89262,70.921669,90.52288,104.565216,30.984524,55.406708,70.629032,83.822193,-12.848371,-13.422724,-9.018265,-10.320618,20.361025,33.952822,39.704626,43.254434,36.987694,50.387323,55.143748,57.247547,48.082452,62.807974,67.408602,68.596606,54.694587,69.01457,72.961039,74.174496,54.735792,302.818124,-81.467989,296.563091
97,-3.963547,3.031945,1.658386,4.602604,-12.991012,-31.718857,-50.564472,-65.511062,-63.026642,-62.523823,-41.183876,-23.45446,-67.473381,-63.903431,-40.095703,-17.030983,-66.331764,-63.62558,-41.667503,-21.939079,-62.349289,-65.930729,-55.912033,-44.730789,-9.375713,-11.577227,-5.585115,-0.255721,6.094827,27.139232,36.97422,41.54028,20.832143,37.23498,46.979046,51.980299,32.982117,45.298089,52.691281,56.673145,42.899135,54.183553,57.794717,59.824639,26.986599,51.845822,74.236633,93.137032,55.495892,88.161575,105.938301,118.608215,47.101719,83.448372,104.496689,118.931786,38.752728,71.71003,91.459946,105.178597,31.060112,56.236565,71.858334,85.059792,-13.721189,-14.302692,-9.463794,-10.131847,20.197386,33.46366,38.942341,42.22135,36.856869,49.527375,53.587242,54.982653,47.703959,61.802505,65.588608,65.867337,53.89676,67.829802,71.317502,71.895832,50.571642,305.682413,-80.010206,300.998039
98,-5.651321,4.676951,1.072197,2.596197,-10.187073,-26.515869,-43.610264,-57.383251,-56.919525,-53.243603,-32.697876,-15.803513,-62.142597,-55.731365,-32.250984,-9.942833,-61.712151,-56.199314,-34.423119,-15.478912,-58.42638,-58.621937,-46.7524,-34.666283,-10.531903,-13.570863,-8.288276,-2.858402,4.80543,23.429552,32.304086,36.526579,19.818079,34.262476,43.312579,47.443916,31.8179,42.60114,49.214276,52.334907,41.363366,51.560977,54.512708,55.605987,26.357094,51.163994,73.332081,92.119263,55.254101,88.376633,106.210373,118.850372,46.726193,83.548187,104.228554,118.290596,38.248638,71.609001,91.081375,104.296005,30.603767,56.061024,71.719963,84.554009,-14.224664,-14.665834,-9.422619,-9.378282,20.271734,33.521038,38.847542,41.875968,36.945012,49.601661,53.403461,54.399334,47.521512,61.582155,64.983417,64.694536,53.34192,67.17316,70.4074,70.518971,44.72422,310.216863,-79.13411,303.451735
99,-3.557671,1.072803,0.450897,1.455396,-9.955444,-25.48201,-42.313362,-55.925262,-56.360286,-50.562893,-29.238029,-12.195144,-61.997085,-53.20673,-28.573517,-5.891556,-61.692867,-53.979274,-30.936378,-11.361351,-58.499084,-56.264476,-42.047939,-28.56768,-9.980732,-12.884088,-6.988924,-0.550407,4.63874,22.739823,31.155602,34.815166,20.297977,34.210963,42.86206,45.944492,32.653741,43.197735,48.652964,50.553123,42.433771,52.197265,53.500519,53.271796,25.896412,50.812706,72.879776,91.649872,55.253025,88.863968,106.686402,119.268059,46.504624,83.953286,104.348534,118.136994,37.81675,71.776738,90.984124,103.833435,30.114373,56.142186,71.87835,84.511437,-14.971808,-15.46197,-9.763197,-8.946721,19.558134,32.899903,38.208252,41.128145,36.5207,49.35167,53.101525,53.870874,47.17172,61.388418,64.635947,64.015244,52.950854,66.717232,69.731936,69.475796,40.939802,311.165365,-78.90996,304.78283
100,-7.578209,2.456629,0.303177,-0.1133,-7.7742,-20.566749,-34.950668,-46.858554,-50.605327,-40.889591,-19.802993,-3.399856,-56.54417,-43.78236,-19.251205,2.9133,-56.595222,-45.65158,-22.497551,-3.303703,-53.681751,-49.667118,-35.786945,-22.823295,-10.733753,-14.366259,-9.471242,-3.707619,4.605666,20.951223,28.374993,31.548186,20.304387,32.774908,40.47695,42.784168,32.102236,41.760865,46.064177,47.29028,41.09895,50.365365,50.505155,49.347471,25.646645,50.483345,72.449673,91.112892,55.30592,88.957764,106.770882,119.426468,46.488533,83.936737,104.228874,117.986366,37.701851,71.594307,90.7248,103.532021,29.859902,56.135594,71.919731,84.45298,-15.136891,-15.338135,-9.369155,-8.387954,19.631876,33.035458,38.270892,41.0763,36.613227,49.644095,53.483551,54.264657,47.173993,61.720278,65.173373,64.636947,52.830355,66.632103,69.717129,69.464162,33.14352,313.488848,-78.824856,304.536384
101,-1.138916,-0.992428,0.359368,-0.311728,-8.135032,-21.471954,-36.763286,-49.256984,-54.887214,-42.502807,-19.437904,-2.150894,-61.130756,-44.866882,-18.182624,5.150048,-60.997604,-46.598453,-21.262046,-0.847274,-57.704006,-51.306472,-35.219501,-20.702797,-8.832841,-12.130795,-6.665365,-0.26223,6.201705,23.141917,30.185997,32.793001,22.096891,34.735619,42.11546,43.866146,33.751688,43.852055,47.109784,47.518312,42.748772,52.035009,50.487816,48.253834,25.51538,50.345707,72.410144,91.190757,55.552562,89.18827,106.954124,119.496803,46.650684,83.987182,104.201019,117.856155,37.688564,71.462677,90.514,103.231407,29.62207,55.867767,71.64252,84.139434,-15.094691,-15.09768,-9.044756,-7.997617,20.113702,33.445282,38.704232,41.572872,36.943233,49.885934,53.769677,54.605345,47.358725,61.979827,65.485188,65.011327,52.864898,66.822911,70.008603,69.842642,31.766378,312.350507,-78.703714,304.078743
102,-5.662056,4.391467,0.224498,-0.181448,-3.935119,-14.2332,-27.529152,-38.717136,-46.993675,-32.028362,-9.987533,6.095902,-53.971824,-35.263984,-9.674926,12.248017,-54.709854,-38.631225,-14.339515,4.748909,-52.271816,-44.627266,-29.25246,-15.502578,-14.449387,-20.894845,-17.623173,-13.377239,2.462285,17.686479,23.883812,26.460928,20.158335,31.272397,37.636036,39.369407,32.946747,41.62715,44.063587,44.505201,42.615342,51.112878,49.093504,46.256356,25.561787,50.361409,72.517754,91.424481,55.458252,88.932484,106.616604,119.25816,46.582993,83.739064,103.871533,117.609478,37.645935,71.296429,90.328114,103.273167,29.613442,55.794342,71.593438,84.250798,-15.054985,-14.913441,-8.652554,-7.449137,20.474066,33.850279,39.10603,42.01871,37.332002,50.418977,54.279514,55.050307,47.776035,62.633591,66.120044,65.614605,53.290865,67.319262,70.396606,70.125806,25.865032,316.562462,-78.718506,303.717783
103,2.013474,-2.028501,0.223927,0.038508,-5.70266,-17.565354,-32.416386,-44.758907,-52.52393,-37.183022,-13.388214,3.559662,-59.389813,-39.473808,-12.323479,10.32534,-59.585163,-42.343117,-16.427696,3.651901,-56.572289,-48.126949,-31.190174,-16.436165,-11.983137,-17.495053,-13.347352,-8.134296,5.057013,21.229384,27.21968,29.336311,22.461749,34.340157,40.449977,41.587111,34.979755,44.550032,46.155913,45.746347,44.521911,53.362791,50.244704,46.681829,25.508617,50.274456,72.565212,91.651588,55.200394,88.687019,106.358528,119.121666,46.350643,83.482544,103.625908,117.484085,37.490982,71.141853,90.253212,103.465439,29.559666,55.774464,71.600429,84.404846,-15.088639,-14.915788,-8.551271,-7.316473,20.665528,34.152757,39.370704,42.244346,37.562491,50.761457,54.531875,55.170448,48.037337,63.047948,66.525645,66.003755,53.51198,67.552443,70.55912,70.24675,27.634134,314.358775,-78.738951,303.581105
104,-5.436104,3.797144,0.453976,0.180076,-2.91996,-12.404297,-24.725281,-35.509746,-45.253475,-28.398468,-5.688377,10.335503,-52.045372,-30.769913,-4.807846,16.692879,-52.57774,-34.24332,-9.536957,9.278458,-49.932163,-40.257042,-24.463417,-10.929474,-14.488104,-21.274549,-18.68365,-15.28592,3.548759,17.510663,22.621905,24.732954,20.888052,31.008488,36.373055,37.584598,32.98928,41.219079,42.468969,42.222795,42.008274,50.059848,47.08517,43.491,25.312454,49.932964,72.279258,91.477855,54.975082,88.432102,106.05067,118.87318,46.174552,83.241176,103.300975,117.146633,37.37162,71.025924,90.090511,103.39571,29.513923,55.834213,71.702384,84.584713,-15.155169,-15.004238,-8.690098,-7.582691,20.839208,34.394696,39.587745,42.401649,37.81326,51.054537,54.732206,55.253874,48.340038,63.342041,66.724507,66.149363,53.788895,67.702411,70.518736,70.081877,21.955616,318.000392,-78.527389,303.605654
105,4.061417,-2.447898,0.209541,0.209334,-5.158242,-16.740624,-31.433316,-43.884201,-51.337464,-35.234677,-11.395912,5.379936,-57.954838,-36.881047,-9.772614,12.428787,-57.995293,-39.521427,-13.593293,6.176582,-54.917713,-44.774906,-27.258087,-12.448128,-12.612991,-18.486554,-14.488129,-9.201812,5.018999,20.024461,25.370886,27.221039,22.45103,33.555594,39.270039,40.075215,34.867148,43.715389,44.776619,44.004715,44.361706,52.489616,49.013809,45.122483,25.179577,49.74678,72.154404,91.410724,54.836037,88.315235,105.964954,118.866543,45.951725,83.055874,103.007847,116.812603,37.131512,70.856609,89.972065,103.406811,29.316044,55.759987,71.724129,84.679149,-15.283758,-15.255995,-9.021822,-7.874573,20.936737,34.538549,39.711011,42.489347,37.996202,51.32777,54.931932,55.341856,48.540739,63.550017,66.858122,66.261428,53.916878,67.671437,70.3394,69.815436,25.736538,315.423997,-78.598343,303.686491
106,-6.261978,4.554809,0.10017,0.047696,-2.397721,-11.398247,-23.193833,-33.501137,-42.873894,-25.49643,-3.161019,12.230323,-49.449933,-26.994736,-1.352967,19.433807,-49.78125,-30.309746,-5.892678,12.547599,-47.162499,-36.235463,-19.718331,-5.931748,-15.430119,-23.255983,-21.080232,-17.528669,2.026241,14.534269,19.250321,21.393505,19.562457,28.946815,33.958701,34.876806,32.00703,39.7006,40.561956,39.984639,41.395624,48.922258,45.628578,41.539675,25.111107,49.670391,72.110962,91.344933,54.671207,88.172356,105.875084,118.950211,45.719685,82.825768,102.674515,116.511887,36.934948,70.631813,89.772537,103.39888,29.211536,55.742466,71.767364,84.805252,-15.293712,-15.273273,-9.124167,-7.974893,21.134523,34.733236,39.853988,42.560731,38.235942,51.77073,55.289294,55.574976,48.719309,63.913171,67.153684,66.513715,53.948433,67.602672,70.134846,69.529247,19.17302,319.848479,-78.799713,303.60386
107,3.162002,-2.658318,0.118618,-0.016364,-4.192451,-14.800781,-28.272537,-39.164898,-48.002312,-31.517475,-8.169777,8.036087,-54.623978,-32.754066,-5.895515,15.80674,-54.719604,-35.528801,-9.845238,9.569641,-51.929111,-41.234207,-23.468628,-8.748413,-13.372719,-20.423615,-17.571611,-12.679138,3.36536,17.170863,22.463083,24.515852,20.940158,31.536763,37.131474,37.716917,33.654654,42.117684,43.117213,42.240975,43.445614,51.255707,47.665415,43.484887,25.18166,49.739845,72.201965,91.496532,54.770771,88.157101,105.795673,118.876522,45.826126,82.703213,102.41843,116.245617,37.052959,70.525818,89.587612,103.228947,29.310162,55.773296,71.747772,84.758114,-15.253661,-15.156564,-8.998085,-8.002421,21.373139,34.884463,39.94528,42.592335,38.43132,51.923316,55.389441,55.649484,48.857247,63.979454,67.194131,66.584803,54.046554,67.581899,70.026931,69.431361,21.986223,317.083737,-79.029894,303.481072
108,-7.834762,4.494825,0.087467,0.027356,-0.940224,-8.164238,-17.835194,-25.724843,-38.722985,-20.534867,1.172241,15.892478,-45.406174,-22.065468,3.400154,23.836715,-45.786095,-25.326725,-1.227196,16.799629,-43.36036,-31.601349,-14.937676,-1.353333,-16.196676,-25.151585,-24.123651,-21.06871,-0.206987,11.634395,16.527461,18.689553,17.551245,27.042555,32.09553,32.631326,30.408892,38.137907,39.101868,38.251774,40.238964,47.715667,44.502484,40.125418,25.233021,49.786171,72.284901,91.607414,54.758286,88.027771,105.603333,118.6726,45.822499,82.571091,102.169327,115.940369,37.077255,70.460861,89.456658,103.054756,29.362942,55.84362,71.82114,84.813858,-15.183278,-15.047736,-8.861012,-7.88554,21.543693,35.004147,40.072399,42.7496,38.593439,52.070775,55.539555,55.821545,49.018205,64.107697,67.2934,66.698126,54.219541,67.656505,70.029215,69.413094,13.752486,321.468461,-79.341402,303.398327
109,3.57756,-3.272932,-0.201542,-0.086574,-1.942955,-10.414192,-21.994389,-31.030197,-44.532188,-26.533356,-3.672295,11.766243,-52.006496,-28.372479,-1.464912,19.904114,-52.499382,-31.51791,-5.930031,13.16835,-50.072834,-38.043182,-19.895531,-5.016861,-15.175312,-23.449608,-21.088804,-16.097147,0.31132,14.247536,20.020372,22.244993,18.731147,30.162766,35.837073,36.088966,32.404232,41.505909,42.70961,41.533747,43.026995,51.316321,47.855371,43.290027,25.373246,50.055943,72.621861,92.042164,54.620911,88.016888,105.709545,118.890232,45.608437,82.501614,102.16824,116.005841,36.897938,70.34491,89.385578,102.980679,29.29311,55.773732,71.742474,84.67313,-15.062223,-14.848665,-8.675909,-7.791149,21.524551,35.031255,40.145276,42.85996,38.566701,52.067799,55.582398,55.920901,49.017637,64.071795,67.27038,66.702585,54.251652,67.70451,70.079616,69.453529,16.863419,318.089152,-80.009571,303.205376
110,-8.705109,3.258927,0.076287,-0.095417,1.300816,-3.346412,-10.28025,-16.071327,-35.182228,-15.204471,6.480652,20.710739,-42.736015,-17.138706,8.654023,28.780976,-43.59621,-20.960334,3.350762,21.196312,-41.567012,-27.781185,-10.547081,3.187775,-17.095021,-26.859095,-26.223226,-22.812331,-1.92213,10.990857,16.685566,19.373278,16.280854,27.174096,32.459302,33.098023,29.71415,38.74474,40.030952,39.326874,39.957,48.338346,45.261718,40.864619,25.383659,50.12257,72.724273,92.208858,54.206497,87.823024,105.620784,118.838733,45.22451,82.408115,102.18362,116.012638,36.634277,70.322239,89.320964,102.787685,29.237182,55.753681,71.672538,84.509067,-14.909946,-14.653361,-8.475232,-7.493079,21.408374,35.057351,40.236173,42.989241,38.505198,52.041481,55.578001,55.9303,49.045561,64.068127,67.240048,66.650319,54.315946,67.910337,70.272907,69.565161,7.68806,321.240757,-80.403534,303.002637
111,4.477272,-5.184379,-0.024525,0.039298,-0.492382,-6.649063,-15.229065,-22.101528,-41.418102,-22.017872,1.10804,16.515564,-49.553375,-24.977371,2.370507,23.876313,-50.69173,-28.885791,-2.786499,16.527649,-48.787799,-35.471649,-16.863933,-1.91098,-14.612507,-22.413016,-20.401052,-15.180425,0.760777,16.52005,23.255513,26.032096,18.996131,32.110177,38.44299,39.203545,32.572366,43.33077,45.144565,44.410427,43.026686,52.860575,49.962369,45.78362,25.492756,50.328117,72.962013,92.534065,53.950264,87.716926,105.571175,118.758751,44.918655,82.331886,102.186699,115.924347,36.364048,70.270054,89.249153,102.506973,29.092586,55.681263,71.585049,84.278023,-14.908217,-14.645568,-8.374072,-7.295848,21.116047,34.94189,40.218327,43.014534,38.299421,51.873372,55.474001,55.849876,48.958703,63.895955,67.054278,66.447037,54.308129,67.962528,70.315206,69.555182,11.694259,315.976683,-80.899132,302.96224
112,-6.723701,3.9809,0.001385,-0.053896,1.983295,-1.293663,-6.057266,-10.032452,-33.410454,-12.684036,9.019501,23.057098,-41.444321,-15.626312,10.4347,30.665268,-42.732868,-19.96899,4.711166,22.728836,-41.040321,-26.827458,-9.260983,4.570427,-16.947795,-26.334438,-25.480418,-21.018531,-2.435621,11.730813,18.168133,21.254505,15.872969,27.837099,33.680095,34.6837,29.533827,39.637886,41.542775,41.078178,39.9436,49.258712,46.622265,42.377196,25.512199,50.436836,73.119255,92.725788,53.498474,87.557659,105.581051,118.83134,44.349529,82.202922,102.236469,115.944019,35.841316,70.180538,89.253788,102.399479,28.767208,55.556991,71.530735,84.16032,-14.822359,-14.571195,-8.28546,-7.037633,20.792475,34.909966,40.290119,43.124154,38.110465,51.885697,55.561872,55.94696,48.919158,63.954568,67.080806,66.401638,54.327173,68.103183,70.484637,69.635359,4.537703,319.886097,-81.330602,302.836858
113,7.368919,-5.177784,0.057895,-0.103271,-0.650791,-6.612739,-14.428688,-20.934345,-41.856079,-22.544723,0.645241,16.002434,-50.281437,-25.961952,1.396729,22.88118,-51.630295,-30.169922,-3.869774,15.462845,-49.79314,-36.653641,-17.928966,-2.977592,-14.1445,-21.512905,-19.10454,-12.920076,1.309516,17.829888,24.859036,27.977494,19.347367,32.711058,39.208906,40.630746,32.743872,43.914411,46.025682,45.792463,42.971581,53.373734,50.733583,46.882938,25.546326,50.510811,73.197087,92.818199,53.16623,87.451744,105.58683,118.864586,43.928479,82.103096,102.254792,115.93412,35.422818,70.055397,89.180947,102.265435,28.442414,55.357144,71.356053,83.926529,-14.802451,-14.540926,-8.253005,-6.91307,20.58303,34.923452,40.36286,43.190523,37.993299,51.916696,55.637294,56.023888,48.881749,63.988988,67.099912,66.389893,54.283391,68.19382,70.605915,69.711003,11.521848,314.643111,-81.657481,302.668385
114,-2.402481,2.299351,0.148888,-0.042559,-0.068378,-5.327614,-11.696113,-17.292915,-37.592365,-18.413498,3.683212,18.542359,-45.378582,-21.769855,4.502175,25.53994,-46.572235,-26.053779,-1.074463,17.547615,-44.611542,-32.134128,-14.707432,-0.739014,-14.82536,-22.575445,-20.867823,-16.152969,1.241405,16.382569,22.95064,26.235465,18.619466,30.412004,36.72607,38.71216,31.251896,41.352151,43.687836,44.06681,40.70991,50.543539,48.377372,44.945865,25.616913,50.588367,73.295219,92.848846,53.114147,87.448769,105.565865,118.773354,43.816669,82.044777,102.173378,115.767311,35.265621,69.961052,89.064903,102.098625,28.266655,55.229588,71.215393,83.73024,-14.820741,-14.576172,-8.321954,-6.930421,20.53368,34.918833,40.369888,43.19881,37.969686,51.998466,55.72645,56.091691,48.840118,64.03603,67.137815,66.416792,54.177638,68.13559,70.578869,69.682129,8.820225,316.890341,-81.807735,302.573705
