takenoko1/special-research/HandMotion_SimilarSearch_自分用/NewProject/handData_new/key/d3_feature/13.csv
,vel_0x_L,vel_0y_L,vel_0x_R,vel_0y_R,posFromWrist_1x_L,posFromWrist_2x_L,posFromWrist_3x_L,posFromWrist_4x_L,posFromWrist_5x_L,posFromWrist_6x_L,posFromWrist_7x_L,posFromWrist_8x_L,posFromWrist_9x_L,posFromWrist_10x_L,posFromWrist_11x_L,posFromWrist_12x_L,posFromWrist_13x_L,posFromWrist_14x_L,posFromWrist_15x_L,posFromWrist_16x_L,posFromWrist_17x_L,posFromWrist_18x_L,posFromWrist_19x_L,posFromWrist_20x_L,posFromWrist_1y_L,posFromWrist_2y_L,posFromWrist_3y_L,posFromWrist_4y_L,posFromWrist_5y_L,posFromWrist_6y_L,posFromWrist_7y_L,posFromWrist_8y_L,posFromWrist_9y_L,posFromWrist_10y_L,posFromWrist_11y_L,posFromWrist_12y_L,posFromWrist_13y_L,posFromWrist_14y_L,posFromWrist_15y_L,posFromWrist_16y_L,posFromWrist_17y_L,posFromWrist_18y_L,posFromWrist_19y_L,posFromWrist_20y_L,posFromWrist_1x_R,posFromWrist_2x_R,posFromWrist_3x_R,posFromWrist_4x_R,posFromWrist_5x_R,posFromWrist_6x_R,posFromWrist_7x_R,posFromWrist_8x_R,posFromWrist_9x_R,posFromWrist_10x_R,posFromWrist_11x_R,posFromWrist_12x_R,posFromWrist_13x_R,posFromWrist_14x_R,posFromWrist_15x_R,posFromWrist_16x_R,posFromWrist_17x_R,posFromWrist_18x_R,posFromWrist_19x_R,posFromWrist_20x_R,posFromWrist_1y_R,posFromWrist_2y_R,posFromWrist_3y_R,posFromWrist_4y_R,posFromWrist_5y_R,posFromWrist_6y_R,posFromWrist_7y_R,posFromWrist_8y_R,posFromWrist_9y_R,posFromWrist_10y_R,posFromWrist_11y_R,posFromWrist_12y_R,posFromWrist_13y_R,posFromWrist_14y_R,posFromWrist_15y_R,posFromWrist_16y_R,posFromWrist_17y_R,posFromWrist_18y_R,posFromWrist_19y_R,posFromWrist_20y_R,posFromBody_0x_L,posFromBody_0y_L,posFromBody_0x_R,posFromBody_0y_R
6,8.759262,0.076793,-0.430355,-0.457855,13.456169,20.376915,20.475208,16.079567,1.18927,28.450378,44.294723,48.976799,-7.609028,21.011272,36.750641,46.306412,-16.878399,6.828586,22.702228,30.417709,-23.897633,-28.352451,-34.973545,-43.394795,-22.101361,-30.186553,-31.611851,-33.495918,1.75491,22.760535,24.478209,22.72267,20.938342,42.481678,41.225057,36.882805,32.893667,51.654331,48.655422,44.987658,42.34742,54.098338,56.137337,57.191021,25.064701,49.741676,72.289032,92.359119,50.032825,82.029865,99.361599,111.69334,40.72594,77.009845,97.319263,110.4379,31.206596,66.035511,85.248218,97.816326,22.787372,50.385841,66.225918,78.24424,-16.084772,-15.957788,-7.428525,-2.273588,12.409462,30.371594,37.267819,41.46429,30.292356,46.308437,52.065996,54.542817,42.979546,59.429177,63.351909,63.621277,50.672722,65.443519,67.824664,66.56004,-21.949951,303.26954,-75.341045,292.915157
7,2.13913,1.499856,-0.364998,-0.179051,11.553497,17.443817,17.723236,13.400665,-1.702721,25.427032,42.063331,47.977272,-11.108918,17.963195,35.237274,45.847892,-19.61356,3.989421,20.923015,29.99208,-25.451031,-28.649243,-32.78492,-38.326676,-21.037266,-28.743125,-28.76018,-29.097338,1.269033,20.493369,23.174831,22.890421,20.053483,39.29711,38.8675,35.577228,32.079969,48.457796,46.439447,43.738891,41.646886,52.252322,53.407264,53.531691,25.268291,49.966976,72.563553,92.750324,50.410297,82.445858,99.812839,112.059666,41.116928,77.426033,97.75478,110.848308,31.558582,66.443722,85.649288,98.170498,23.054741,50.726475,66.558311,78.563438,-15.981427,-15.817381,-7.229949,-2.06486,12.531208,30.629921,37.604839,41.839609,30.412485,46.532751,52.329522,54.775011,43.092722,59.596483,63.518993,63.716927,50.737596,65.553348,67.996206,66.767694,-19.295871,304.194262,-75.191093,292.160972
8,6.775222,-0.178792,-0.308624,-0.26181,9.328835,12.568657,10.741425,4.958874,-8.850425,16.752148,33.979843,40.744835,-18.330139,9.927407,27.616677,39.099472,-26.200195,-3.960537,13.308335,22.985138,-31.298572,-36.24654,-40.540844,-45.882282,-20.530604,-28.124744,-28.093054,-28.54167,2.638755,21.84175,24.521311,24.083648,20.956373,39.767537,39.526426,36.352208,32.534118,48.732486,46.888397,44.230918,41.6251,52.080668,53.421788,53.770023,25.447059,50.218975,72.929752,93.228069,50.725158,82.900646,100.331737,112.582454,41.435268,77.895149,98.261066,111.324428,31.851505,66.896209,86.09412,98.552112,23.325164,51.1012,66.921592,78.881904,-15.813354,-15.569279,-6.923345,-1.733013,12.841727,30.999497,38.01259,42.300292,30.706072,46.850099,52.692862,55.148429,43.363474,59.870001,63.834785,64.017813,50.958083,65.773575,68.242184,67.046337,-12.224688,303.606188,-75.203756,291.48988
9,3.763367,2.449688,-0.321648,-0.318817,6.474289,8.24762,6.698124,1.023491,-13.15123,11.54401,29.51358,37.579399,-22.962307,5.020409,23.830399,36.350281,-29.866653,-8.911617,9.067669,20.049316,-33.60973,-39.642277,-43.357418,-47.361385,-19.990288,-27.300833,-25.946683,-24.738438,2.110234,19.205477,22.653917,23.698548,19.752709,35.540833,36.260669,34.290251,31.127271,44.654366,43.79727,42.108088,40.130654,48.937597,50.131813,50.530943,25.678013,50.570549,73.398548,93.810963,51.142868,83.404095,100.859264,113.063702,41.830387,78.417618,98.759525,111.799473,32.195377,67.325546,86.460812,98.846065,23.603519,51.374748,67.206985,79.144489,-15.626436,-15.339457,-6.696746,-1.498522,13.328604,31.397701,38.413153,42.709561,31.155281,47.235101,53.102365,55.615508,43.729036,60.244418,64.234618,64.4246,51.248754,66.076077,68.561989,67.378036,-8.278656,305.745516,-75.342739,290.860703
10,6.297958,0.105037,-0.307606,-0.427239,4.490319,4.088494,0.667042,-6.128231,-19.838081,3.027466,21.588204,30.60315,-29.788536,-3.21199,16.308838,29.987687,-35.979755,-16.500263,2.106183,13.89354,-38.811573,-46.297634,-50.067501,-53.797325,-19.534372,-26.864998,-25.501512,-24.163059,3.053781,20.039578,23.481941,24.440665,20.34917,35.552985,36.46005,34.598991,31.320279,44.410477,43.764345,42.041336,39.950912,48.426946,49.827211,50.390794,25.945553,50.969273,73.917446,94.380821,51.496193,83.830445,101.284104,113.486298,42.108868,78.83598,99.171158,112.211449,32.393772,67.580807,86.690758,99.041908,23.736191,51.405842,67.259411,79.185196,-15.339062,-14.964397,-6.362281,-1.090265,13.908268,31.883775,38.882036,43.193277,31.689151,47.774589,53.62097,56.167446,44.17543,60.758824,64.777084,64.966238,51.60535,66.488398,68.972678,67.776511,-1.861548,305.620171,-75.531195,290.203082
11,-3.406208,2.490036,-0.21262,-0.476577,4.571286,5.617321,4.7757,-0.1902,-16.74702,7.350003,26.27528,35.824665,-27.094951,0.800606,21.034069,34.869976,-32.951374,-12.739586,6.10928,18.498837,-35.127479,-41.141613,-43.299545,-45.126045,-19.73222,-27.074974,-24.539996,-21.528676,1.071358,16.31462,20.624848,23.227344,18.37717,31.356749,32.97146,31.937215,29.728032,40.330837,40.427946,39.509717,38.704541,45.942505,46.404583,46.038415,26.208847,51.365307,74.3848,94.800534,51.866764,84.147252,101.482579,113.60748,42.442566,79.161599,99.385174,112.394703,32.667756,67.770779,86.782895,99.07996,23.900162,51.405293,67.229348,79.134648,-15.066273,-14.585262,-5.980861,-0.624742,14.493155,32.312372,39.294578,43.601904,32.217968,48.27431,54.113788,56.670872,44.622045,61.218185,65.27489,65.463316,51.989265,66.93447,69.41013,68.189979,-5.195292,307.928229,-75.671351,289.544527
12,-1.480327,1.483542,-0.156761,-0.277964,5.091247,6.844173,8.088558,5.703472,-15.492119,8.914272,28.254158,38.110588,-25.218521,2.576225,22.946869,37.148277,-30.840866,-10.42479,8.431995,20.979515,-32.800095,-39.250386,-42.558254,-45.594681,-19.936294,-27.779843,-26.155808,-23.868066,-0.401538,15.135384,19.897761,22.885431,16.750565,30.5791,32.515284,31.657213,28.225903,39.385623,39.893631,38.984109,37.134326,44.228436,45.460863,45.914864,26.386517,51.672844,74.777539,95.125363,52.234555,84.392544,101.614208,113.701138,42.860195,79.447941,99.503071,112.488384,33.085659,67.999741,86.877606,99.117657,24.242867,51.558552,67.34396,79.215351,-14.866609,-14.379608,-5.804897,-0.354818,14.868672,32.502206,39.471037,43.753391,32.545963,48.537516,54.348279,56.89147,44.903381,61.470288,65.540418,65.704514,52.281505,67.233565,69.665284,68.390978,-6.625717,309.263527,-75.77821,289.118319
13,-4.977631,-0.218881,-0.261543,-0.396215,6.938519,10.723423,13.826203,12.809097,-10.434505,14.587097,33.990189,43.887291,-20.291668,7.739983,28.479698,43.179772,-26.462517,-5.437603,13.900829,26.984047,-29.111641,-34.666523,-37.617267,-40.321987,-20.140094,-27.881299,-26.134676,-23.454486,-1.75833,13.672023,19.077765,22.603096,15.668389,29.852471,32.407716,31.927754,27.581822,39.004487,40.103126,39.60527,36.907814,44.159177,45.774494,46.35764,26.48045,51.927795,75.080029,95.324673,52.64106,84.648823,101.789967,113.865223,43.329403,79.721649,99.698719,112.749744,33.549053,68.175636,86.982159,99.213375,24.603607,51.619675,67.367317,79.2663,-14.770773,-14.158616,-5.53138,-0.142853,15.313534,32.724804,39.700538,44.024153,32.937275,48.777774,54.575582,57.237371,45.207007,61.658725,65.753333,66.032408,52.547686,67.478294,69.893451,68.614304,-11.583429,308.935051,-76.019834,288.612509
14,-2.63887,-2.617056,-0.405167,-0.309481,9.307926,14.190857,16.817379,15.626724,-7.484207,17.810829,36.954277,46.222435,-16.877529,10.926384,31.077942,45.764992,-23.875443,-2.148697,17.034622,29.654594,-27.894768,-33.044163,-36.43396,-40.123673,-20.504459,-28.42148,-27.721316,-26.06002,-1.074136,16.098258,21.200509,23.686235,16.824109,33.682651,36.044036,35.089177,28.820177,42.803125,43.531126,42.487334,38.102857,46.93613,49.21467,50.092823,26.628788,52.289955,75.533776,95.690014,53.097508,85.07182,102.146084,114.20731,43.810067,80.079815,100.005444,113.127262,33.998715,68.431332,87.20509,99.470959,24.964085,51.789688,67.484986,79.444702,-14.707182,-13.988691,-5.259159,0.009806,15.4863,32.754457,39.765747,44.1614,33.118154,48.860804,54.697033,57.470714,45.375105,61.701321,65.824038,66.218153,52.714993,67.653196,70.052533,68.810263,-14.206695,306.228352,-76.409397,288.213385
15,-6.839516,-0.128491,-0.391262,-0.24526,11.614987,19.187622,24.149094,24.468601,-0.419449,26.173107,45.217026,54.250923,-9.962929,18.737377,38.949211,53.60923,-17.794018,5.174996,24.546971,37.248757,-22.82286,-26.52848,-29.395637,-32.678318,-20.784707,-28.712373,-27.915817,-25.858664,-2.19314,14.738268,20.326433,23.357773,16.018378,33.248917,36.02771,35.391323,28.404968,42.593384,43.701582,43.018017,38.064708,47.08012,49.527388,50.406652,26.866871,52.709118,76.017918,96.110138,53.61026,85.492447,102.501412,114.547051,44.372761,80.465699,100.321541,113.514153,34.576081,68.816037,87.526863,99.793076,25.495549,52.193905,67.829647,79.804493,-14.608579,-13.809059,-5.043823,0.011856,15.6479,32.723433,39.763931,44.235204,33.27106,48.858322,54.733886,57.610195,45.538805,61.695269,65.836338,66.329057,52.909284,67.71092,70.08857,68.892946,-21.035214,306.0305,-76.789662,287.898764
16,-3.437862,-2.810446,-0.460407,-0.289968,13.685337,22.403847,27.115516,27.167473,3.551411,30.578636,48.889103,56.89825,-5.717537,22.968361,42.30891,56.602192,-14.67041,9.232498,28.366321,40.276348,-21.312035,-25.040119,-29.180729,-34.252533,-20.883854,-28.851769,-29.073465,-28.230164,-0.57896,18.005778,22.790274,24.415001,17.881437,37.851101,39.943192,38.549547,30.092841,47.16757,47.410447,45.942763,39.568923,50.153314,53.531519,55.148428,27.191677,53.170086,76.55262,96.60046,54.098488,85.927471,102.920666,115.005398,44.879677,80.836464,100.701336,114.027889,35.068405,69.140202,87.875027,100.221989,25.924931,52.490868,68.112476,80.177021,-14.450967,-13.592006,-4.833044,0.00105,15.805908,32.706341,39.789335,44.350888,33.405664,48.905512,54.885372,57.931878,45.672013,61.701679,65.93483,66.582469,53.079494,67.810944,70.238007,69.129352,-24.463268,303.157003,-77.240261,287.545745
17,-2.368286,-3.334671,-0.41367,-0.319187,15.86721,25.684513,29.001125,27.107483,7.142109,34.004116,51.271305,58.058498,-2.706539,25.757457,44.005748,57.539715,-13.234394,10.855407,29.612674,40.606533,-21.823036,-25.903839,-30.916729,-37.140415,-21.410646,-29.5813,-30.441965,-30.506025,1.16302,21.119543,24.773302,24.878612,20.232968,41.947327,43.191079,40.961284,32.34268,51.3727,50.670931,48.619793,41.923022,53.83338,57.56408,59.319521,27.484314,53.55795,76.953473,96.965104,54.612374,86.42157,103.359673,115.369698,45.333413,81.260125,101.132355,114.507889,35.437066,69.458096,88.20456,100.572876,26.191613,52.682236,68.292389,80.438782,-14.306052,-13.35717,-4.568629,0.054809,15.953194,32.786356,39.947119,44.648203,33.547652,48.997334,55.089839,58.28194,45.804133,61.760316,66.073447,66.879178,53.194521,67.871088,70.351565,69.35826,-26.826816,299.758844,-77.649193,287.16307
18,-1.908268,-0.215224,-0.288173,-0.230354,16.28017,26.841373,30.701442,29.117271,9.090522,36.701568,53.62278,60.068802,-0.899426,28.270706,46.115959,59.148742,-11.707478,13.047157,31.499885,42.006294,-20.583687,-24.202515,-29.133591,-35.349163,-21.624711,-29.810913,-30.558019,-30.576507,1.62527,21.518042,24.853849,24.890133,20.700158,42.456261,43.411428,41.17473,32.757037,51.777782,50.786552,48.667241,42.349568,54.24954,57.826272,59.517171,27.80587,53.940674,77.363273,97.343021,55.106083,86.824253,103.715526,115.681949,45.75618,81.521209,101.261524,114.598331,35.725158,69.672077,88.306103,100.643406,26.318367,52.849216,68.4062,80.54393,-14.07739,-13.161792,-4.419292,0.203295,15.883268,32.92979,40.205483,44.968255,33.444369,49.039287,55.244549,58.491768,45.75787,61.767023,66.182943,67.049844,53.29783,68.017795,70.49737,69.531112,-28.736006,299.486519,-77.938288,286.875615
19,-1.134671,-0.026417,-0.16816,-0.185091,16.56308,27.782319,32.132779,30.77583,10.291432,38.0957,54.933896,61.092488,0.278389,29.511509,47.131634,59.772801,-10.627143,14.433461,32.737622,42.833714,-19.558044,-22.900302,-28.046436,-34.648155,-22.030015,-30.400543,-31.3638,-31.61037,1.899171,21.650559,24.637241,24.659977,20.980604,42.712994,43.300352,41.013747,32.959257,51.983559,50.667695,48.504677,42.543539,54.319219,57.826469,59.607919,28.016087,54.102219,77.494503,97.47836,55.416928,86.989735,103.872654,115.824887,46.018101,81.622399,101.269993,114.586132,35.914948,69.743889,88.26495,100.525761,26.42989,52.892556,68.373356,80.404827,-13.840083,-12.980937,-4.376622,0.244705,15.924357,33.082475,40.445075,45.256531,33.402354,49.112882,55.421896,58.748972,45.708038,61.795897,66.290611,67.204604,53.331867,68.037851,70.53999,69.601322,-29.878436,299.409319,-78.114207,286.639741
20,3.269818,-0.05276,-0.12109,-0.099171,15.286503,24.987121,27.90406,25.411388,6.86063,34.751701,51.231972,56.895675,-2.950424,26.73547,43.76635,55.674911,-13.456135,11.788124,29.601837,39.070564,-21.922989,-25.996227,-31.734696,-39.000355,-22.235273,-30.396393,-30.934042,-31.041759,2.908556,22.559451,24.901582,24.593423,21.687325,43.170504,43.267909,40.872092,33.363303,52.398028,50.413222,47.993779,42.79926,54.57494,57.858901,59.743042,28.1586,54.184708,77.533894,97.469193,55.595753,87.106064,103.953141,115.886399,46.187645,81.644085,101.221848,114.529038,36.047047,69.744439,88.173546,100.386978,26.501049,52.86842,68.26307,80.227707,-13.735218,-12.983852,-4.494998,0.178014,15.725817,33.009535,40.473171,45.319875,33.176323,49.020923,55.468061,58.865346,45.521033,61.650105,66.23674,67.183411,53.273785,68.028564,70.544078,69.592949,-26.617927,299.299649,-78.244606,286.48366
21,1.873958,0.158415,0.059876,0.054007,14.406178,23.256226,25.342026,22.189213,4.811566,32.528241,48.935566,54.377621,-4.682029,24.890271,41.748814,53.458203,-14.884643,10.208107,27.866307,37.182942,-23.047268,-27.75999,-33.87648,-41.527599,-22.421031,-30.498553,-30.916579,-31.204781,3.174465,22.667427,24.76126,24.450792,21.778876,42.910867,42.928639,40.633092,33.269529,52.137293,49.949081,47.509346,42.671399,54.33888,57.620433,59.693543,28.160339,54.036403,77.359016,97.267341,55.582924,87.005562,103.853668,115.755615,46.209022,81.611252,101.125305,114.367584,36.071445,69.811317,88.130379,100.209434,26.4948,52.942383,68.262634,80.084289,-13.666428,-13.05605,-4.694168,0.041434,15.349423,32.842784,40.409704,45.285714,32.787406,48.770562,55.317995,58.76557,45.224754,61.406203,66.011832,66.96416,53.144356,67.845128,70.33446,69.370314,-24.757365,299.400729,-78.198126,286.480332
22,1.960865,0.049536,0.11713,-0.028381,13.750294,21.697335,22.917996,19.153084,2.833592,30.256371,46.414902,51.495003,-6.507328,22.643727,39.271477,50.888627,-16.536541,8.165852,25.686253,35.000588,-24.500564,-29.863288,-36.302879,-44.211925,-22.467949,-30.485561,-30.773874,-31.319315,3.103316,22.734291,24.784059,24.440183,21.710444,42.830592,42.815846,40.508826,33.19959,52.178604,49.760334,47.195679,42.654912,54.271004,57.487744,59.618207,28.126305,53.86433,77.180443,97.164837,55.431496,86.77232,103.704517,115.711315,46.12888,81.374073,100.86755,114.125004,36.042824,69.723736,87.980679,100.035198,26.481182,52.978169,68.207062,79.942749,-13.622178,-13.083467,-4.800551,-0.058761,15.129321,32.811526,40.438147,45.301399,32.515063,48.617174,55.213563,58.699707,45.006232,61.192905,65.82715,66.799534,53.070898,67.745068,70.217431,69.27202,-22.81176,299.402489,-78.096256,286.404175
23,4.575154,0.093342,0.255604,0.104606,12.022968,17.966583,17.474979,12.401287,-1.94997,24.217666,40.438099,45.684093,-11.251396,16.918178,33.862255,45.9585,-20.862568,3.008514,20.981186,30.86388,-28.303906,-34.77594,-41.364636,-49.219963,-22.279783,-30.199706,-30.212958,-30.612755,3.184283,22.892347,25.028516,24.70466,21.649213,42.404761,42.613169,40.404776,33.038767,51.750982,49.361834,46.743925,42.479578,53.893956,57.309717,59.710005,28.046928,53.594604,76.839661,96.858124,55.114666,86.445877,103.394485,115.436737,45.837696,81.095924,100.651062,113.960586,35.816425,69.518291,87.811546,99.908729,26.319878,52.843071,68.044132,79.739777,-13.605987,-13.174031,-5.000401,-0.337294,14.889444,32.547703,40.154032,44.987805,32.280077,48.43375,55.074365,58.559261,44.802974,61.018064,65.630103,66.554211,52.900886,67.502092,69.984039,69.055646,-18.250196,299.435877,-77.854242,286.448827
24,2.509781,-0.144768,0.285599,0.06627,7.466034,10.489837,8.519806,1.554645,-5.871506,20.063026,36.81007,43.430019,-14.858952,13.888881,31.879245,44.449276,-23.113232,0.321911,18.835762,29.588504,-28.801175,-34.858441,-39.25256,-44.199749,-18.868147,-23.781244,-20.67074,-18.406081,4.81799,23.189231,26.261252,27.035405,22.076884,40.322426,41.851268,40.437702,33.001421,49.492054,48.314696,46.473101,42.146657,53.076925,56.145759,58.000705,27.86721,53.30999,76.574615,96.672592,54.838051,86.163047,103.116485,115.162307,45.588672,80.868702,100.441108,113.70211,35.584476,69.361072,87.62883,99.652244,26.084255,52.751381,67.952739,79.596851,-13.655647,-13.253972,-5.108809,-0.485346,14.650495,32.357624,39.957506,44.721291,32.079327,48.298949,54.962103,58.394055,44.651167,60.895589,65.476383,66.339567,52.804692,67.382321,69.812706,68.84793,-15.750738,299.223906,-77.578966,286.447894
25,-0.669033,0.294648,0.206154,0.147584,8.084781,11.851764,11.205997,5.343727,-3.941254,20.725376,37.432411,44.398956,-13.298584,13.449085,31.849891,45.23307,-22.007229,-0.183266,18.615371,30.136528,-28.253506,-34.359684,-38.217041,-42.274716,-18.883523,-24.193947,-21.60737,-19.851411,2.951682,21.523354,25.261625,26.339886,20.547376,38.85331,40.875883,39.683273,31.937659,48.031484,47.551708,46.274141,41.350447,52.10727,55.423082,57.292848,27.752071,53.160759,76.448249,96.707611,54.565406,85.966392,103.041297,115.080825,45.257343,80.767524,100.361938,113.47229,35.25674,69.339145,87.486099,99.246162,25.85099,52.738575,67.930755,79.398571,-13.696019,-13.327678,-5.277154,-0.736337,14.649087,32.334183,39.881157,44.537163,32.107497,48.260342,54.834217,58.19812,44.657416,60.822463,65.261441,66.020588,52.767801,67.251558,69.532124,68.443724,-16.42939,299.464393,-77.382431,286.541317
26,0.633316,0.153981,0.010219,-0.011301,8.191509,12.071491,11.779586,6.062015,-3.235749,20.564609,37.081169,44.149658,-12.979981,12.515819,30.906761,44.385635,-22.010605,-1.472992,17.275177,29.053093,-28.638302,-34.713536,-38.140263,-41.513111,-18.721873,-24.164788,-21.714112,-20.192841,1.739855,20.697676,24.777242,25.82175,19.432114,37.986976,40.235815,39.091148,31.139659,47.111217,47.035487,46.134845,40.691867,51.477181,54.846309,56.649816,27.684712,53.127365,76.415989,96.81023,54.527619,85.951985,103.039112,115.09837,45.113159,80.700371,100.254238,113.271687,35.045815,69.161659,87.250271,98.940891,25.637673,52.478623,67.687992,79.140118,-13.7944,-13.524291,-5.579532,-0.99554,14.781777,32.35198,39.812553,44.381787,32.252487,48.3164,54.818286,58.121835,44.717697,60.844608,65.2453,65.938177,52.683439,67.239394,69.480107,68.297611,-15.802465,299.560091,-77.378603,286.471733
27,1.353286,0.413358,-0.074718,-0.016228,7.968327,11.565033,11.372429,5.560044,-3.919212,19.06081,36.163102,44.040619,-13.70882,10.636471,29.525963,43.596199,-22.582019,-3.366783,15.536156,27.715325,-29.12463,-35.655567,-38.872604,-41.83525,-18.479416,-24.0465,-21.847667,-20.289642,0.949523,19.86896,24.143521,25.220523,18.558172,36.952669,39.399838,38.421155,30.332765,45.969056,46.296494,45.898315,39.779072,50.510107,54.032302,55.941797,27.478775,53.025158,76.389312,96.914566,54.302581,86.057922,103.222709,115.221153,44.814411,80.867763,100.512268,113.384376,34.780712,69.261451,87.376419,98.91909,25.552368,52.555938,67.859836,79.245082,-14.08102,-13.896028,-5.989753,-1.326189,14.875724,32.356327,39.729808,44.243244,32.467959,48.433837,54.791647,57.984897,44.863972,61.003084,65.258021,65.807982,52.617502,67.191439,69.338402,68.012793,-14.455222,299.907966,-77.459364,286.390022
28,-2.984012,0.380419,-0.328389,0.038718,9.403358,14.551037,15.473076,10.138996,0.649017,23.848995,40.836674,48.72353,-9.267037,14.646835,33.324886,47.066219,-18.631714,-0.021435,18.294914,30.025028,-25.874943,-31.983078,-35.176266,-38.14872,-18.564323,-24.263935,-22.438161,-21.072229,0.153438,19.127758,23.387635,24.317806,17.746093,36.63857,39.001375,38.117282,29.531418,45.488404,45.990966,45.973268,38.797821,49.596474,52.890784,54.470495,27.317883,52.995804,76.46394,97.017621,54.642426,86.56136,103.732212,115.672337,45.194424,81.388447,101.034634,113.881451,35.176072,69.583271,87.669262,99.174397,25.920136,52.686951,67.950577,79.424595,-14.453499,-14.564774,-6.749691,-2.066379,14.850554,32.004053,39.385722,44.002726,32.477802,48.265097,54.677124,57.92879,44.781991,60.79533,65.15239,65.768486,52.377724,67.061034,69.465681,68.297598,-17.443256,300.187488,-77.791775,286.327843
29,-5.721279,-1.285619,-0.194984,-0.844412,15.315982,24.978515,28.762424,26.034588,7.618263,31.37812,48.513244,56.252929,-3.012452,20.341804,39.020416,53.463524,-13.909047,5.273014,23.739269,35.307953,-23.039544,-29.087849,-34.009621,-39.124443,-21.324702,-29.64888,-30.728092,-31.513927,-1.566632,19.225102,23.386524,23.705477,17.105148,39.629426,41.852503,40.736426,29.333014,48.229468,48.883145,48.866213,38.714767,50.310938,54.504298,56.905327,27.19606,52.934647,76.397083,96.855618,54.898796,86.610432,103.719601,115.760365,45.576748,81.484062,101.263859,114.397785,35.632999,69.52335,87.703205,99.478237,26.330498,52.689548,67.82198,79.427422,-14.921111,-15.159517,-7.411742,-3.058647,15.196282,32.049921,39.692201,44.805012,32.752319,48.62446,55.623128,59.578254,44.89245,60.893699,66.035841,67.505229,52.424012,67.24153,70.314181,69.823821,-23.171968,298.799539,-77.994192,285.381101
30,2.23201,-2.366214,-0.073597,-3.034959,14.57888,23.034656,25.028972,21.210388,3.430229,27.354126,44.67517,52.976554,-7.656109,16.333946,34.895038,49.564384,-18.24685,1.02143,18.750824,29.818908,-26.507275,-33.218285,-38.53529,-44.077389,-21.520031,-28.661058,-28.751733,-28.23855,0.251411,20.995474,25.642526,26.46346,18.041198,40.50312,43.594346,43.078607,29.520834,48.894668,50.033148,50.159588,38.302212,50.123649,54.782088,57.881033,27.514584,53.394424,76.432468,96.358681,55.287483,86.1847,102.795433,114.923698,45.831104,80.311947,99.594475,113.040848,35.410309,67.363792,85.245014,97.346947,25.406742,49.814209,64.159596,75.140808,-15.162097,-15.106522,-7.318091,-2.93743,15.271704,32.568365,41.076806,47.289021,32.278262,49.154131,57.27841,62.471743,44.14821,61.166784,67.801384,70.703197,51.570733,67.290424,71.506965,71.763488,-20.971864,296.298135,-78.099695,282.210952
31,10.074359,0.997467,2.789749,-6.773378,7.615483,10.735806,9.586659,5.001538,-9.352192,4.296296,16.340664,22.060776,-17.807682,-4.726684,7.58891,17.630871,-25.077724,-14.957576,-3.40924,3.365891,-29.752567,-39.435138,-45.973434,-52.292598,-21.989346,-30.144748,-31.838809,-32.155984,-0.1658,18.055647,23.370814,24.982475,17.257301,37.33399,41.363526,42.214632,28.927055,46.628724,48.877785,50.016302,37.867958,48.807983,53.473634,56.722014,26.652294,51.597862,72.390358,90.047791,54.710964,82.246548,95.296166,103.773812,45.527447,74.47078,87.962574,95.895195,34.664337,59.382878,70.494724,77.033673,23.677048,42.21064,51.363075,57.656891,-12.681077,-10.509179,-0.986846,5.302372,14.651236,34.411813,45.557601,53.300399,29.86618,50.894899,61.818535,68.149829,41.115783,62.166239,70.992151,74.926418,48.552805,66.60476,72.477125,73.797411,-10.913905,297.159597,-75.326346,275.301569
32,10.139866,-1.867876,-0.452316,-16.382409,0.27166,-1.873249,-7.174473,-14.029106,-20.519623,-17.660831,-12.141678,-9.974727,-25.880733,-23.955642,-19.079475,-14.566978,-29.4417,-28.929039,-24.665039,-22.747444,-30.388378,-43.415073,-51.806476,-59.403202,-21.323504,-27.89271,-27.60215,-26.048757,1.855761,18.077149,23.984317,26.737595,18.842323,36.943197,41.973768,43.97337,30.455871,47.005118,50.669362,52.63042,39.125111,49.970842,54.937563,58.291512,24.783829,49.674969,70.682934,86.716392,57.817772,83.634556,90.616516,93.884331,51.529735,76.286236,83.476135,86.275864,42.532276,62.901958,68.181747,69.687767,32.525883,49.024876,53.471866,54.813137,-2.24774,3.420219,11.302931,15.630758,19.762836,38.427763,49.10247,55.857545,27.264783,48.392797,59.592593,65.498699,32.116167,52.905246,61.963895,65.681888,34.501931,51.390409,57.942672,59.795172,-0.823242,295.155586,-75.827865,258.783025
33,12.525559,-1.633385,-3.557304,-26.133676,-7.18879,-15.923275,-25.986077,-34.853531,-33.899929,-41.917122,-42.98861,-44.730458,-36.30296,-45.684677,-48.256199,-49.324162,-36.084469,-45.461289,-48.248337,-51.076573,-33.194229,-49.869038,-59.98581,-68.680447,-21.2497,-26.790959,-24.169691,-20.62607,2.944099,17.732199,24.364058,28.379378,19.871196,35.676857,41.600944,44.749622,31.85663,46.630984,51.527743,54.384094,40.597068,51.165502,56.231469,59.766137,25.562805,51.014762,71.492053,85.216312,61.004642,85.456123,86.765796,85.566719,55.94054,78.009304,79.224712,77.059272,47.37704,65.441768,65.234882,61.974197,37.171279,52.388374,52.56538,49.632888,6.719161,14.731882,20.451205,22.11039,19.156497,35.242813,45.373696,51.277802,18.337427,37.256753,48.307891,53.511351,17.135851,35.303353,44.869084,48.770722,15.486441,29.533258,36.856203,39.541395,11.420883,293.567575,-79.666603,232.694723
34,17.404152,-0.101962,-3.029767,-37.339048,-16.507588,-33.889309,-50.647648,-63.287625,-50.866528,-70.867802,-79.289349,-85.901837,-50.157978,-72.030041,-82.88007,-90.41874,-46.134728,-66.878083,-77.46642,-85.529309,-39.460923,-61.099331,-73.328545,-83.557881,-21.575965,-26.178013,-21.321232,-16.501785,3.423183,16.498191,23.205323,27.773841,20.252493,32.949205,38.93172,42.925021,32.624879,45.170229,50.241123,53.553613,41.462993,51.501918,56.105609,59.39104,21.048191,43.883023,61.037407,70.65556,58.376839,80.550728,78.478112,73.85875,56.427807,75.090146,70.707333,63.851578,50.145253,64.332047,58.387791,50.9931,41.60693,54.088841,49.415886,42.244835,4.549456,7.836825,7.936775,5.906483,8.151512,20.272883,28.319079,32.43438,7.137378,22.738719,31.711165,35.269934,6.853759,22.584337,30.415295,33.019829,6.806409,18.755101,24.462204,25.783335,28.518906,293.594387,-83.002499,195.484449
35,9.188209,0.273962,-5.644741,-45.830334,-23.23336,-45.681072,-65.930111,-80.575332,-58.814174,-89.118793,-104.23621,-115.3362,-54.483822,-87.654453,-105.963775,-119.839737,-47.014274,-77.31213,-94.57061,-107.487053,-37.497001,-61.943744,-75.734997,-87.099003,-21.168449,-25.440305,-19.0502,-13.249971,3.527109,15.21976,21.835637,26.725059,20.935934,31.881861,37.752028,42.28273,34.113039,45.186494,50.796951,54.677544,43.235514,53.030476,57.082093,59.564978,20.333153,40.926934,54.677502,59.522255,53.904007,70.724694,65.175843,57.914132,49.791939,61.245953,52.494713,42.267941,42.23172,51.138199,42.819752,33.693695,33.249768,42.36874,36.586087,28.753659,5.175728,4.187511,-0.386842,-4.971032,-5.6934,-2.058302,3.432582,6.218303,-10.077482,-4.528399,-0.557495,-0.524903,-11.491178,-3.609614,3.137427,5.664927,-11.29767,-5.695068,-0.647243,1.556487,37.126247,294.093896,-89.228108,149.879662
36,2.015969,-3.009616,-10.834774,-50.456713,-23.779473,-47.240639,-69.327576,-85.798771,-58.926545,-90.038235,-106.234955,-118.223008,-54.077694,-87.996575,-107.274605,-121.944134,-46.137864,-77.561532,-95.749398,-109.215146,-36.473031,-61.810582,-76.261723,-88.138493,-20.626898,-22.570875,-12.211626,-3.331781,5.497676,17.762827,24.432377,29.783792,23.130321,34.05303,40.061259,44.740581,36.324272,47.459193,53.212133,57.086835,45.142984,55.399283,59.439118,61.814533,19.970341,38.245354,49.188389,50.884163,44.744992,56.153572,49.642285,42.83083,39.00895,50.445305,46.241364,40.009255,31.449692,42.951908,40.237118,35.365975,23.177811,34.574456,33.15461,28.650959,1.140821,-8.111404,-20.077967,-30.831005,-23.117532,-32.25458,-34.944817,-37.836055,-27.79244,-31.529822,-28.285856,-27.591529,-28.945765,-29.343116,-22.833196,-19.221007,-27.813886,-29.137734,-24.228027,-20.993639,38.412249,291.697656,-100.792849,100.036325
37,1.442985,-0.512899,-10.213302,-50.092539,-23.847725,-47.890617,-70.548122,-87.217186,-59.702534,-91.083515,-107.615993,-120.049564,-54.938667,-89.213985,-108.54808,-123.447956,-47.125923,-79.009952,-97.14014,-110.714058,-37.705318,-63.34116,-77.727665,-89.469772,-21.28249,-23.492451,-12.673741,-3.413785,5.172387,17.657678,24.347224,29.629972,23.049835,33.858862,39.846738,44.661862,36.466014,47.36837,52.929933,56.860631,45.411957,55.597131,59.3006,61.548364,20.51881,34.897602,40.204181,38.106216,30.684803,34.97937,29.86227,24.742389,21.230152,30.228195,31.372982,29.726474,11.585506,21.940956,24.520076,24.411792,2.157852,11.415996,14.392055,14.567814,-11.269574,-29.892312,-46.043046,-59.695179,-46.444035,-64.026776,-71.407099,-77.348208,-45.537662,-56.40274,-52.388111,-49.318362,-40.875512,-46.931628,-39.292775,-33.061615,-33.837491,-39.31356,-34.441119,-29.754177,38.548056,291.787178,-112.313329,50.546207
38,0.836403,-1.023044,-10.400105,-41.961949,-24.399559,-48.553642,-71.379971,-88.285812,-60.211578,-91.937817,-108.549831,-120.964462,-55.296719,-90.00238,-109.265316,-124.158016,-47.465538,-79.784191,-97.91502,-111.438492,-38.159431,-64.059849,-78.410477,-90.046349,-21.012826,-22.944823,-12.068192,-2.660998,5.664674,18.064107,24.701943,29.797328,23.525054,34.418457,40.438208,45.244638,36.882125,47.90634,53.382095,57.264318,45.713521,56.093704,59.785279,61.978925,18.830212,28.758007,29.360562,24.457077,17.332855,15.303086,12.895992,10.48613,5.888294,10.227162,16.576046,19.284519,-4.407566,1.963223,9.560669,13.819966,-13.637295,-8.00053,-1.149971,2.886521,-25.85893,-52.951015,-73.302821,-89.599394,-66.057164,-88.335375,-99.051372,-106.562173,-59.310381,-75.97453,-72.216082,-66.782058,-49.638458,-60.577898,-53.487111,-45.184888,-38.321398,-47.871408,-44.149951,-37.909782,37.332653,291.23123,-124.76524,9.051354
39,0.9356,-0.824899,-11.711162,-38.397783,-24.749885,-49.161484,-72.127842,-88.984531,-60.784126,-92.873554,-109.519844,-121.86383,-55.749744,-90.749611,-109.965145,-124.770572,-47.889667,-80.573993,-98.6693,-112.047237,-38.721279,-64.749561,-79.042316,-90.491569,-20.810692,-22.568664,-11.64551,-2.058339,6.09994,18.496409,25.01335,29.878357,24.043523,34.968406,40.829261,45.410289,37.391307,48.371876,53.637556,57.307754,46.133016,56.557042,60.122337,62.172723,22.0475,30.265125,28.40158,21.069454,8.430748,0.186882,-2.86488,-4.8387,-6.868035,-5.383896,5.317199,11.320175,-19.649746,-14.660351,-1.936318,5.47744,-30.60664,-26.341404,-14.643208,-6.922886,-27.413707,-55.297676,-76.214375,-92.781226,-74.634213,-101.378304,-114.164131,-122.718267,-69.916753,-91.11964,-85.087032,-76.496624,-61.883679,-77.302837,-67.815856,-56.24975,-51.614854,-65.360786,-60.182606,-50.972217,35.475254,290.791536,-139.269401,-28.961224
40,1.18499,-0.685343,-10.467018,-29.449235,-25.072426,-49.581138,-72.651375,-89.398556,-61.281475,-93.582516,-110.259762,-122.599159,-56.255401,-91.365978,-110.577839,-125.38155,-48.456745,-81.342247,-99.443493,-112.754745,-39.45029,-65.600578,-79.894638,-91.276291,-20.509856,-22.255318,-11.344885,-1.759492,6.418622,18.724651,25.10668,29.789905,24.406455,35.198611,40.922269,45.359024,37.780915,48.575788,53.616783,57.068619,46.545793,56.882923,60.222015,62.035106,21.038612,27.007793,23.543426,15.269851,1.657596,-8.599469,-11.042496,-12.739415,-11.717789,-8.867318,5.741878,13.58979,-22.952248,-17.085526,-2.133225,5.812912,-33.133198,-28.439724,-15.13765,-6.756375,-32.409951,-62.204731,-84.720515,-103.299118,-80.492403,-106.753893,-120.879797,-130.730034,-74.470163,-94.314103,-83.03585,-69.772899,-66.117389,-81.544556,-70.855467,-57.809658,-55.553999,-70.274284,-64.889513,-54.570559,33.627691,290.395515,-152.768972,-58.121137
41,1.196572,-0.692222,-9.028954,-22.835012,-25.242829,-49.802937,-72.975724,-89.717034,-61.35735,-93.886757,-110.642418,-123.063904,-56.338978,-91.720459,-111.023049,-125.92257,-48.594155,-81.811432,-100.057377,-113.500546,-39.738167,-66.101086,-80.5337,-92.092713,-20.206637,-21.83712,-10.919066,-1.300699,6.768191,19.078147,25.279791,29.694846,24.718331,35.486405,41.023206,45.235832,38.050789,48.775464,53.676842,56.963606,46.786656,57.078771,60.295646,61.96865,20.903801,25.944397,22.255783,13.077324,1.156071,-7.969551,-7.172092,-6.715164,-11.113941,-10.681503,4.100956,12.208214,-22.00597,-18.647175,-3.283756,5.100574,-32.187183,-29.220818,-15.629253,-6.476704,-35.555893,-64.865016,-87.803652,-106.390198,-81.24351,-104.986751,-113.723233,-118.10498,-75.801277,-98.58967,-88.587122,-74.864637,-68.31625,-87.010113,-77.220335,-63.499844,-58.547412,-75.672354,-71.534515,-60.61807,31.360199,289.548849,-165.26199,-81.110593
42,1.238502,-0.334564,-6.185062,-15.561777,-25.309639,-49.960476,-73.281521,-90.015747,-61.558857,-94.304077,-111.073116,-123.487713,-56.555763,-92.195904,-111.610931,-126.592438,-48.852894,-82.267742,-100.61063,-114.136848,-40.081055,-66.546535,-81.085236,-92.824608,-20.022695,-21.555426,-10.676659,-1.273788,6.942994,19.133279,25.207197,29.544361,24.882674,35.316431,40.61868,44.712176,38.196051,48.592251,53.299362,56.47868,46.906749,56.911143,59.886426,61.404535,20.871311,25.340572,21.488891,11.590129,1.7555,-6.23132,-2.155083,0.631713,-9.881333,-11.185799,3.170963,10.540855,-20.670594,-19.471322,-4.622258,3.15295,-31.16256,-29.644364,-16.412545,-7.524113,-37.552954,-66.476495,-89.538721,-107.329175,-81.363232,-103.225039,-106.667313,-105.555574,-76.441452,-99.898279,-90.019794,-76.035666,-69.491712,-89.53434,-79.891435,-65.740622,-60.197716,-78.722698,-74.801655,-63.198845,29.372257,289.045944,-174.673496,-96.840711
43,1.128914,-0.026899,-2.496769,-15.806148,-25.275902,-50.009995,-73.482582,-90.256153,-61.895771,-94.700798,-111.49181,-123.944561,-56.990456,-92.694592,-112.225834,-127.260372,-49.356617,-82.814232,-101.252049,-114.899174,-40.611717,-67.038689,-81.685822,-93.624252,-19.97627,-21.552474,-10.727874,-1.612266,6.901572,18.993945,24.937818,29.1993,24.837992,35.039815,40.117143,44.055498,38.156346,48.333209,52.855228,55.904266,46.898957,56.688336,59.448505,60.815758,20.193306,24.05484,19.882999,9.047504,1.063041,-6.748936,-1.11493,2.179813,-10.055935,-12.28632,1.419559,7.997589,-20.746388,-20.587452,-6.368214,0.777282,-31.693074,-30.580639,-17.543187,-8.91663,-35.257966,-63.019105,-85.363309,-101.422217,-78.423381,-100.300706,-99.809247,-95.000724,-73.74224,-96.801974,-85.914126,-71.47281,-66.870679,-86.55127,-75.980371,-61.473989,-57.47289,-75.88124,-71.627044,-60.111111,28.049091,288.83623,-179.622345,-112.829674
44,1.121498,-0.019266,-1.269619,-8.903045,-25.275467,-50.018452,-73.610538,-90.470055,-62.1408,-94.93737,-111.777637,-124.305508,-57.398025,-93.032146,-112.612656,-127.756725,-49.900017,-83.289597,-101.776302,-115.551807,-41.197266,-67.493408,-82.130928,-94.185791,-19.855017,-21.58866,-10.884362,-2.008098,6.686829,18.693147,24.548802,28.727058,24.539849,34.583096,39.593796,43.513811,37.852842,47.84496,52.374538,55.455723,46.708172,56.369382,59.068271,60.375823,19.65802,23.128166,19.117653,9.020897,0.961326,-5.591446,2.834724,7.762779,-9.607521,-13.604645,-0.0691,6.21437,-20.101159,-21.782467,-8.026841,-1.140919,-31.280766,-31.497288,-19.012116,-10.52528,-34.233616,-61.492792,-83.28601,-98.678461,-75.427171,-96.264335,-91.783459,-83.199602,-71.171233,-94.250391,-83.438638,-69.023434,-64.599245,-84.601846,-74.486508,-60.169413,-55.399465,-74.330184,-70.569176,-59.054333,27.326797,288.675074,-182.735756,-121.874609
45,0.682869,0.008374,0.320789,-8.519123,-25.173569,-49.863693,-73.47036,-90.470593,-62.20546,-95.09372,-111.960114,-124.507118,-57.594624,-93.354435,-112.956951,-128.133671,-50.197609,-83.672962,-102.139881,-115.967342,-41.475105,-67.728642,-82.356766,-94.504383,-19.841853,-21.62865,-11.079741,-2.463471,6.424031,18.363819,24.223118,28.376747,24.214571,34.189116,39.186848,43.109148,37.486958,47.386969,51.996551,55.176191,46.346092,55.950554,58.781007,60.214086,18.829639,21.932362,17.664024,7.869999,0.243462,-5.838673,4.512165,10.645889,-9.866249,-15.076824,-1.955441,4.35648,-20.060268,-23.091923,-9.893749,-2.798504,-31.310967,-32.672596,-20.694603,-11.951008,-32.401359,-58.833199,-79.927347,-94.579886,-71.371049,-92.428999,-85.080385,-73.581754,-67.136073,-90.297211,-80.145382,-65.87002,-60.709711,-80.906709,-71.322322,-57.095003,-51.752758,-70.988401,-67.842767,-56.627607,26.586016,288.647957,-183.838617,-130.429223
46,0.439911,0.062553,1.367042,-7.223996,-25.200325,-49.871349,-73.49691,-90.64333,-62.494068,-95.392456,-112.225468,-124.753452,-57.976845,-93.681622,-113.210529,-128.351463,-50.642532,-84.006008,-102.363613,-116.085514,-41.889794,-68.021496,-82.517613,-94.534458,-19.97674,-21.858349,-11.374278,-2.946569,6.052158,17.949572,23.827742,27.986447,23.857691,33.793481,38.814864,42.74834,37.147195,46.993903,51.656516,54.854533,46.04685,55.625882,58.546924,60.009137,17.885331,20.876874,16.663067,7.503605,-0.535171,-6.69136,2.993866,8.999943,-10.386795,-15.819042,-3.048065,3.255753,-20.46817,-23.795299,-10.948596,-3.906646,-31.841938,-33.655712,-22.024337,-13.351112,-30.156907,-55.685728,-76.152044,-90.576597,-67.955337,-88.894609,-82.752795,-72.23737,-63.886615,-86.737935,-76.746354,-62.640825,-57.563626,-77.460507,-67.863712,-53.736604,-48.617063,-67.670881,-64.807113,-53.906871,26.091293,288.845487,-183.406209,-137.518242
47,0.121124,-0.217683,1.668034,-5.906028,-25.405563,-50.008198,-73.5298,-90.772419,-62.706734,-95.446541,-112.20718,-124.694607,-58.234451,-93.781563,-113.186039,-128.272716,-50.966743,-84.174236,-102.404159,-116.050781,-42.228767,-68.200664,-82.525806,-94.38509,-20.005293,-21.959607,-11.536064,-3.27061,5.762993,17.79842,23.756026,27.826317,23.618335,33.784083,38.895325,42.767385,36.958017,46.95925,51.670188,54.784842,45.924461,55.680445,58.775845,60.252977,17.167648,20.397789,16.481323,8.152107,-0.360088,-6.723118,0.698708,5.342869,-10.217617,-15.64975,-3.122394,3.429531,-20.436893,-23.824917,-11.038135,-3.970241,-32.08445,-34.316883,-22.8796,-14.295525,-28.015894,-52.737242,-72.454075,-86.7355,-64.719573,-85.71747,-83.566564,-77.066179,-60.896957,-83.953792,-74.404535,-60.344022,-54.690272,-74.624524,-65.072328,-51.086805,-45.754206,-64.975633,-62.467816,-51.820582,25.62957,288.811694,-182.321022,-143.24038
48,0.112839,-0.232984,2.355972,-4.090459,-25.58178,-50.18763,-73.616455,-91.033573,-62.888466,-95.532601,-112.238743,-124.6936,-58.413403,-93.873985,-113.191658,-128.270966,-51.17442,-84.306542,-102.426922,-115.971119,-42.456871,-68.433209,-82.641232,-94.30711,-20.056583,-22.017826,-11.607917,-3.507918,5.621288,17.702225,23.705798,27.75392,23.543419,33.79458,39.00035,42.895022,36.918558,46.925472,51.685799,54.77595,45.890942,55.685842,58.92307,60.425137,16.502644,20.089486,16.538521,8.867318,0.252114,-5.899509,-0.902629,2.318882,-9.983825,-15.018287,-2.874813,3.971089,-20.466098,-23.507812,-10.723434,-3.510143,-32.352184,-34.516399,-23.244392,-14.829128,-25.148886,-49.69901,-69.056248,-83.72818,-62.187806,-84.093854,-87.231238,-86.344073,-58.324045,-81.722493,-71.901834,-57.829378,-51.983071,-72.0694,-61.888514,-47.805761,-42.933249,-62.456108,-59.614987,-48.873351,25.369177,288.759549,-180.338282,-147.15
49,-0.310616,-0.220177,1.652001,-2.152866,-25.669738,-50.111492,-73.517223,-90.942283,-62.572872,-95.434078,-112.154972,-124.607952,-58.052284,-93.954918,-113.371238,-128.395591,-50.841316,-84.350406,-102.516769,-116.009262,-42.237762,-68.456863,-82.652252,-94.217388,-19.987435,-22.094199,-11.909605,-3.740766,5.553412,17.638449,23.737352,27.850806,23.531674,33.849068,39.094025,42.988117,36.928845,47.079996,51.780771,54.850655,45.8378,55.73786,58.928442,60.450849,16.288524,20.354107,16.611786,8.923897,3.162826,-2.231873,-0.001362,1.460815,-8.369328,-12.831757,-1.926567,4.84061,-19.781628,-21.923779,-9.876366,-2.888569,-32.094509,-33.757805,-23.017307,-15.275356,-21.466728,-45.757716,-64.78936,-79.259871,-60.897148,-84.796463,-93.656427,-98.479528,-56.565977,-77.863938,-66.191209,-52.320782,-49.641119,-67.342845,-55.392837,-41.958896,-40.35303,-57.914526,-52.876177,-42.500814,24.804926,288.670363,-178.939916,-149.171875
50,-0.235725,-0.16543,1.543831,0.189891,-25.717049,-50.028397,-73.481918,-90.839836,-62.275108,-95.420506,-112.258175,-124.752297,-57.766045,-93.993874,-113.567288,-128.559792,-50.597271,-84.399445,-102.708767,-116.174103,-42.139801,-68.593609,-82.810272,-94.285023,-19.954534,-22.203707,-12.154407,-3.851015,5.280587,17.354015,23.544308,27.765604,23.310089,33.657754,38.95894,42.870952,36.790105,47.009836,51.66037,54.701603,45.759797,55.692462,58.771078,60.250396,15.36494,19.936844,16.836994,10.749618,5.228805,-0.145695,-0.544842,-0.460842,-7.35521,-11.656998,-2.032494,4.671489,-19.272766,-21.267781,-10.182747,-3.602818,-31.225502,-33.12378,-23.353981,-16.55563,-18.210156,-40.057072,-56.468942,-68.446713,-58.757094,-84.154387,-97.094208,-106.325856,-54.252951,-70.631649,-57.565932,-44.821311,-46.315214,-59.246117,-46.549279,-34.619528,-36.418136,-50.171335,-43.817471,-34.461586,24.442074,288.563065,-177.523212,-148.923852
51,-0.213547,-0.273912,0.077362,11.633099,-25.717529,-49.914516,-73.378006,-90.638466,-61.895817,-95.200012,-112.187862,-124.788929,-57.407089,-93.950386,-113.723568,-128.760715,-50.304245,-84.392658,-102.828907,-116.308834,-41.942802,-68.545555,-82.773983,-94.2243,-19.813312,-22.21129,-12.41329,-4.012258,5.137548,17.167207,23.458388,27.798837,23.127987,33.546467,38.933289,42.885994,36.635136,46.979466,51.63378,54.682237,45.630887,55.641641,58.691667,60.201292,16.782165,21.941047,17.614448,10.904709,7.814529,2.131748,-0.727352,-2.882572,-6.719319,-9.045651,-0.199196,5.855518,-19.418564,-19.4114,-9.245922,-3.6339,-31.154354,-31.691036,-22.836582,-17.27797,-15.944438,-36.94634,-52.416541,-62.541617,-58.269291,-86.608034,-103.11219,-115.958402,-54.470292,-69.822658,-56.683238,-44.817078,-46.90816,-58.54111,-46.009253,-35.253119,-37.661237,-49.825429,-42.507425,-33.87753,24.225975,288.345269,-177.448402,-137.234637
52,-0.052666,-0.065246,0.507705,13.271871,-25.671089,-49.779293,-73.295059,-90.428237,-61.653728,-95.200447,-112.282779,-124.927413,-57.203704,-94.031696,-113.979457,-129.039665,-50.122112,-84.451881,-103.022495,-116.533802,-41.764022,-68.520973,-82.83356,-94.301868,-19.824068,-22.3762,-12.76008,-4.20582,4.910479,16.827222,23.130914,27.518318,22.871451,33.233492,38.694488,42.711945,36.393878,46.77942,51.464572,54.533074,45.372733,55.404582,58.439652,59.966937,17.367417,22.665997,16.521286,8.676705,9.478157,3.122704,-0.868675,-4.029041,-7.242073,-8.578262,0.011754,6.049324,-20.938648,-19.470256,-10.022769,-4.801082,-32.443508,-31.947704,-23.657569,-18.773048,-12.618752,-32.065322,-45.49938,-53.939667,-58.746261,-87.689543,-104.66689,-118.229199,-56.116888,-63.382185,-48.270816,-38.206626,-48.230132,-52.066169,-38.829545,-30.793375,-38.777305,-44.377357,-35.447414,-28.762657,24.239427,288.386175,-176.874579,-123.856614
53,0.098809,-0.056637,-0.647804,14.260597,-25.667702,-49.678734,-73.229931,-90.229763,-61.340618,-95.047772,-112.232254,-124.941193,-57.009636,-94.019852,-114.092663,-129.208706,-50.012982,-84.474026,-103.131134,-116.67524,-41.707787,-68.499493,-82.8284,-94.309101,-19.694368,-22.448424,-13.052839,-4.466358,4.714076,16.480184,22.800598,27.19971,22.610024,32.872856,38.377399,42.446838,36.14648,46.590537,51.307911,54.399334,45.144009,55.22527,58.263774,59.812672,18.066445,23.610981,15.716435,6.623257,11.248821,3.833553,-0.95446,-5.124698,-7.238914,-8.093422,0.353108,6.615738,-21.895511,-19.707619,-11.012123,-5.846489,-33.189777,-32.178978,-24.444053,-19.937221,-10.531873,-27.548746,-38.329867,-44.867634,-58.803096,-87.337128,-103.525486,-116.414645,-57.782068,-55.670223,-38.977033,-30.850472,-50.026791,-45.124262,-31.785194,-26.62399,-40.627449,-38.714366,-28.644068,-24.169911,24.423523,288.526673,-177.437096,-109.398882
54,0.163055,0.02081,-0.2654,14.402474,-25.646278,-49.679249,-73.159321,-90.106098,-61.331486,-95.096111,-112.309433,-124.994224,-57.055343,-94.023319,-114.119087,-129.293667,-50.048664,-84.431545,-103.09758,-116.664345,-41.662147,-68.407757,-82.759907,-94.259937,-19.814645,-22.487339,-13.020569,-4.513437,4.539952,16.280817,22.578507,26.921166,22.432097,32.637538,38.123321,42.172419,35.967639,46.310499,51.091846,54.196521,44.94584,54.938921,58.062294,59.647576,18.472767,24.432564,15.574539,5.663441,11.209454,2.500958,-2.811115,-7.583725,-8.09246,-8.67081,0.234547,7.184681,-23.125339,-20.663189,-11.900356,-6.178642,-34.086914,-32.827125,-25.073662,-20.14698,-9.776803,-24.603448,-33.022978,-38.346598,-58.86375,-85.606189,-100.507524,-112.615362,-59.697711,-51.008362,-34.197044,-27.27599,-52.444353,-41.454206,-28.742776,-25.043759,-43.134753,-35.941361,-26.135337,-22.92057,24.722986,288.776105,-177.566088,-94.767786
55,0.377518,0.181978,-0.552395,13.38974,-25.7211,-49.832268,-73.302967,-90.20533,-61.398434,-95.098881,-112.305336,-124.970329,-57.18639,-94.034935,-114.093178,-129.343289,-50.186131,-84.472092,-103.08522,-116.666039,-41.706688,-68.343212,-82.656979,-94.130768,-19.927154,-22.638973,-13.129866,-4.643236,4.458022,16.132258,22.377769,26.63872,22.362023,32.487744,37.942183,42.004248,35.865343,46.114874,50.998591,54.179552,44.779966,54.737677,58.008312,59.682996,19.877427,26.329995,15.929798,3.51939,12.51725,3.389969,-2.503795,-8.416946,-7.874805,-7.887485,1.473622,8.95522,-23.692817,-20.534523,-11.390522,-4.966289,-35.09943,-33.003513,-24.654899,-19.016452,-8.844017,-23.633976,-32.083019,-38.31349,-60.335768,-85.891852,-100.964106,-113.581364,-62.811191,-50.608902,-33.221715,-26.574246,-56.486868,-42.06694,-28.972422,-25.850525,-47.632106,-37.036248,-26.429441,-23.729818,25.248093,289.190196,-177.970894,-81.145933
56,0.327759,0.317447,1.165364,2.486264,-25.653534,-49.752743,-73.221875,-90.123871,-61.283306,-95.12415,-112.356102,-125.007912,-57.141198,-94.026581,-114.04414,-129.305283,-50.186257,-84.471257,-103.090771,-116.686524,-41.771897,-68.469052,-82.816166,-94.260475,-20.122014,-22.787631,-13.198496,-4.80023,4.199719,15.815009,22.004697,26.177839,22.170584,32.222377,37.616572,41.655827,35.705348,45.869305,50.760901,53.951792,44.598061,54.543459,57.867632,59.566596,18.976947,25.318691,14.50082,1.704345,12.385093,3.415306,-2.609001,-8.69553,-8.109158,-9.549099,-0.138279,8.383415,-24.331696,-22.415303,-12.888314,-5.217167,-36.033097,-34.818432,-25.809254,-19.025986,-7.136045,-20.779663,-27.65491,-33.900507,-60.341055,-83.169531,-97.720682,-110.675634,-63.307347,-44.085528,-24.756093,-18.615397,-56.381193,-35.318359,-21.005212,-18.91945,-46.556162,-30.667639,-19.01336,-17.272072,25.690871,289.646569,-176.690511,-78.520743
57,0.098007,0.296846,0.27182,1.380486,-25.550812,-49.629273,-73.058556,-89.954006,-61.166691,-95.010887,-112.23761,-124.871876,-57.064808,-93.931435,-113.890434,-129.148945,-50.143776,-84.394329,-102.963055,-116.538311,-41.768028,-68.469372,-82.797615,-94.201229,-20.175527,-22.823471,-13.267138,-5.017962,4.120173,15.732387,21.90728,26.069789,22.132879,32.164024,37.497987,41.508257,35.698235,45.816855,50.684751,53.908061,44.609696,54.519624,57.82074,59.509082,18.777065,25.520965,15.037124,1.845852,12.539543,3.943233,-1.897076,-7.988148,-7.718468,-9.533936,-0.462078,8.252083,-23.98486,-22.699047,-13.029042,-4.753521,-35.820271,-35.081978,-25.797341,-18.449696,-6.914688,-20.038546,-26.777881,-33.042232,-59.699397,-82.051379,-96.750271,-110.134123,-62.737601,-43.196069,-23.758132,-17.301225,-55.964275,-34.479714,-19.951929,-17.324579,-46.137086,-29.804405,-17.82627,-15.815998,25.866612,290.040228,-176.340957,-77.043444
58,-0.206268,0.293426,0.516014,0.165503,-25.443924,-49.441304,-72.876675,-89.896225,-61.067723,-94.980618,-112.160557,-124.737545,-56.903298,-93.829457,-113.720158,-128.930306,-49.95123,-84.25811,-102.80539,-116.353455,-41.585701,-68.350308,-82.678082,-94.064347,-20.259816,-22.865029,-13.324059,-5.192716,4.123087,15.751369,21.907688,26.084992,22.161655,32.183462,37.491787,41.52588,35.711708,45.776124,50.621357,53.929512,44.596913,54.487032,57.752381,59.476737,18.590858,25.454052,15.206795,1.97485,12.157368,3.925506,-1.806507,-7.782692,-7.859917,-9.863354,-1.070252,7.500023,-24.018265,-23.027275,-13.264321,-4.86414,-35.858906,-35.590416,-26.134735,-18.519608,-6.647,-19.765689,-26.861485,-33.302565,-59.438625,-81.645095,-96.357535,-109.831645,-62.256951,-43.695654,-24.320807,-17.449246,-55.414721,-34.504068,-19.711806,-16.50499,-45.506515,-29.660804,-17.449271,-15.134371,25.711253,290.361957,-175.774034,-76.849638
59,-0.096932,0.263872,0.02671,-0.37958,-25.374893,-49.388786,-72.885544,-90.008949,-61.050865,-94.878822,-112.051254,-124.639297,-56.864456,-93.681061,-113.547455,-128.774631,-49.907284,-84.15905,-102.702507,-116.241508,-41.548141,-68.317886,-82.665882,-94.0769,-20.244959,-22.926162,-13.410967,-5.395405,4.145799,15.761891,21.950419,26.247729,22.167508,32.113141,37.432717,41.572736,35.746239,45.749744,50.608501,54.038798,44.693182,54.551339,57.817763,59.596891,18.569298,25.578701,15.527024,2.332238,12.268868,4.217812,-1.445205,-7.427295,-7.647857,-9.758228,-1.132564,7.269734,-23.784805,-23.03199,-13.368633,-5.03778,-35.710865,-35.701686,-26.285305,-18.698433,-6.329664,-19.316393,-26.522691,-33.075781,-58.847247,-81.037069,-95.797733,-109.402985,-61.663053,-43.872587,-24.635753,-17.781191,-54.922879,-34.628099,-19.856314,-16.557724,-45.161806,-29.90071,-17.633015,-15.187088,25.657019,290.650155,-175.704626,-77.204892
60,-0.363258,-0.061936,0.041851,-0.706239,-25.199684,-49.179348,-72.649807,-89.916504,-60.962448,-94.654873,-111.807896,-124.443672,-56.697659,-93.414631,-113.288773,-128.518788,-49.692307,-83.81123,-102.376213,-115.905773,-41.301476,-67.961254,-82.318989,-93.747872,-20.113208,-22.660672,-13.10545,-5.310931,4.426023,16.168432,22.389576,26.803186,22.317068,32.367862,37.761933,42.027985,35.857587,45.994906,50.894307,54.436212,44.821018,54.74626,57.991652,59.809461,18.384453,25.345047,15.327244,2.384034,11.955689,4.104355,-1.503833,-7.465736,-7.885459,-9.920173,-1.241111,7.029808,-24.002563,-23.26522,-13.633449,-5.501094,-36.006443,-35.982582,-26.606884,-19.157203,-6.033652,-18.896194,-26.122296,-32.622595,-58.321813,-80.228658,-94.961269,-108.607885,-61.062642,-43.726492,-24.639304,-17.851056,-54.258877,-34.53716,-19.782498,-16.437429,-44.435127,-29.733423,-17.619295,-15.197777,25.329586,290.608609,-175.62695,-77.890741
61,-0.305672,-0.096689,-0.717098,-0.344537,-25.235229,-49.278408,-72.668587,-89.934025,-61.230274,-94.634422,-111.642105,-124.219231,-56.882389,-93.297626,-113.174766,-128.470127,-49.761063,-83.616714,-102.156647,-115.740051,-41.184334,-67.64883,-82.044846,-93.600758,-20.011246,-22.486869,-12.929017,-5.167756,4.823263,16.686011,22.854705,27.198574,22.610309,32.718481,38.150109,42.425547,36.056523,46.305547,51.287534,54.888348,44.939085,54.901995,58.179472,60.028934,18.29575,25.393398,15.943989,3.240532,12.28117,4.462189,-1.152717,-7.145988,-7.506111,-9.749657,-1.161232,7.187519,-23.610935,-22.954754,-13.356239,-5.074047,-35.582176,-35.418457,-26.188659,-18.691772,-5.932146,-18.383147,-25.846728,-32.753851,-58.098542,-79.934756,-94.623222,-108.321356,-60.834103,-43.529267,-24.320739,-17.166423,-54.058762,-34.266866,-19.193331,-15.166815,-44.327169,-29.570988,-17.240869,-14.279782,25.076946,290.523357,-176.291016,-78.223841
62,-0.085487,-0.154462,-0.704613,-0.007348,-25.370362,-49.525086,-72.908558,-90.231652,-61.411194,-94.598603,-111.52295,-124.07103,-56.979733,-93.192204,-113.099522,-128.483872,-49.755982,-83.456051,-102.046761,-115.718251,-41.060692,-67.426529,-81.899597,-93.598103,-19.909679,-22.238312,-12.558219,-4.845123,5.114033,17.070345,23.238965,27.552243,22.83114,32.991294,38.484573,42.831506,36.244231,46.597676,51.635991,55.257023,45.105168,55.11596,58.45336,60.331511,18.318993,25.420979,16.262913,3.708424,12.27324,4.618401,-1.01445,-7.02745,-7.351879,-10.050338,-1.539459,6.917405,-23.394378,-22.8899,-13.309307,-4.859722,-35.312404,-35.129173,-25.999832,-18.419071,-5.809997,-18.281061,-26.120579,-33.317984,-57.766035,-79.649427,-94.157405,-107.766087,-60.381955,-43.552152,-24.169729,-16.673605,-53.651376,-34.260796,-18.924463,-14.438809,-44.026099,-29.537476,-17.127403,-13.879412,25.150498,290.353994,-176.83659,-78.24609
63,-0.166169,-0.205629,-0.785533,0.233589,-25.414123,-49.603935,-72.926273,-90.131034,-61.464729,-94.546394,-111.422275,-123.945762,-56.958892,-93.117565,-113.062168,-128.485267,-49.6352,-83.264717,-101.894004,-115.615676,-40.830917,-67.166999,-81.69374,-93.479782,-19.838666,-22.090728,-12.292284,-4.481215,5.303088,17.471229,23.663474,27.92902,22.96998,33.264848,38.77953,43.102244,36.372166,46.84038,51.92807,55.527823,45.231781,55.316649,58.669252,60.515416,18.347671,25.499485,16.653362,4.215889,12.58168,4.786846,-0.93195,-7.010422,-7.014061,-9.927796,-1.43002,7.137416,-23.086739,-22.560769,-12.915722,-4.300335,-34.981099,-34.605114,-25.434906,-17.695038,-5.776386,-18.239669,-26.398541,-33.760432,-57.822672,-79.731458,-94.242036,-107.924359,-60.435319,-43.675078,-24.144441,-16.304337,-53.778001,-34.238627,-18.673979,-13.751415,-44.214628,-29.564658,-16.967512,-13.350914,25.258449,290.121025,-177.348003,-78.039841
64,-0.040191,-0.145175,-0.595059,0.583542,-25.53598,-49.769154,-73.050522,-90.162872,-61.521069,-94.545857,-111.388516,-123.868298,-56.929115,-93.066811,-113.025719,-128.42823,-49.532971,-83.107372,-101.76677,-115.487812,-40.677109,-66.965412,-81.515454,-93.315628,-19.774866,-21.923249,-12.065277,-4.056595,5.435963,17.698878,23.939239,28.228534,23.075598,33.497363,39.071239,43.398004,36.455949,47.068634,52.205329,55.792139,45.272574,55.460861,58.872484,60.743151,18.391365,25.560288,16.921806,4.552414,12.635353,4.810845,-0.961304,-7.048405,-6.953201,-10.008442,-1.46743,7.228706,-23.024094,-22.473415,-12.767681,-4.037132,-34.841171,-34.427822,-25.205795,-17.324592,-5.823941,-18.493717,-26.925261,-34.348951,-58.114344,-80.074143,-94.525508,-108.19299,-60.644722,-43.947509,-24.327217,-16.240247,-53.939479,-34.358473,-18.699643,-13.520043,-44.348596,-29.5911,-16.966296,-13.217645,25.604828,289.93516,-177.556492,-77.496989
65,0.066948,0.038075,-0.44743,0.777277,-25.695259,-49.960453,-73.233044,-90.309117,-61.535179,-94.607426,-111.418843,-123.840969,-56.906159,-93.07814,-112.983399,-128.375084,-49.485535,-83.086327,-101.707501,-115.439724,-40.606385,-66.920906,-81.473809,-93.293301,-19.858723,-22.018616,-12.149171,-3.974911,5.424786,17.697779,23.982736,28.251703,23.148241,33.599807,39.183625,43.456852,36.537632,47.125123,52.30003,55.881505,45.30582,55.525649,59.047782,60.984448,18.433445,25.770905,17.478871,5.103241,12.934594,4.92001,-0.989353,-7.204536,-6.676654,-9.922462,-1.417213,7.401375,-22.820468,-22.370258,-12.596763,-3.663082,-34.623733,-34.287471,-24.94923,-16.83633,-5.838977,-18.715136,-27.540523,-35.102942,-58.514184,-80.635349,-95.10436,-108.870515,-61.101267,-44.437449,-24.582339,-16.196546,-54.461702,-34.689375,-18.86585,-13.428343,-44.909994,-29.94183,-17.154586,-13.204825,26.138346,289.927425,-177.537352,-76.765522
66,0.094116,0.173123,-0.102928,0.641797,-25.713982,-49.979725,-73.330616,-90.496021,-61.425041,-94.602917,-111.461437,-123.866982,-56.767513,-93.069901,-112.914368,-128.241531,-49.361355,-83.02589,-101.612057,-115.284164,-40.523232,-66.82552,-81.314243,-93.041164,-19.925104,-22.148884,-12.230558,-3.960066,5.359652,17.589642,23.934633,28.291742,23.147834,33.631288,39.218687,43.533041,36.558665,47.115602,52.322075,55.957816,45.326927,55.538815,59.137073,61.161239,18.561081,25.991501,17.645977,5.1908,12.844334,4.800213,-1.158485,-7.442024,-6.796737,-9.753547,-1.17081,7.606007,-22.954811,-22.28873,-12.474357,-3.617786,-34.763797,-34.412327,-24.929867,-16.790119,-5.831388,-18.993877,-27.924383,-35.303754,-58.692699,-80.918209,-95.40636,-109.195242,-61.304,-44.747566,-24.969156,-16.59296,-54.639142,-34.966035,-19.330998,-14.10267,-45.027159,-30.163039,-17.506767,-13.726246,26.761156,290.05661,-177.111586,-76.167663
67,0.05452,0.263205,-0.126846,0.629551,-25.617394,-49.898564,-73.292485,-90.459011,-61.443489,-94.743977,-111.612065,-123.937203,-56.776429,-93.169899,-112.902295,-128.078865,-49.376679,-83.072525,-101.577668,-115.140587,-40.527031,-66.724022,-81.133633,-92.761174,-20.051445,-22.399146,-12.467741,-4.045109,5.343054,17.535561,23.884047,28.279417,23.159925,33.605945,39.159815,43.473365,36.522442,46.972168,52.207948,55.933919,45.227188,55.37793,59.059144,61.242824,18.752964,26.333221,17.919182,5.294128,13.054161,4.949238,-1.060123,-7.384392,-6.697403,-9.172611,-0.520294,8.205379,-22.891125,-21.82235,-11.973919,-3.219372,-34.714829,-34.05724,-24.433273,-16.296501,-5.935511,-19.372036,-28.339129,-35.513223,-59.014066,-81.183946,-95.717961,-109.581493,-61.65523,-44.932557,-25.155568,-16.740098,-54.94354,-35.064304,-19.538361,-14.358718,-45.25143,-30.117596,-17.488853,-13.761357,27.310032,290.28069,-176.744076,-75.577237
68,0.462822,0.15676,0.088955,0.761198,-25.731789,-50.131085,-73.552575,-90.773186,-61.601773,-94.772782,-111.601994,-123.907071,-57.009934,-93.145512,-112.726113,-127.875493,-49.694104,-83.134873,-101.513878,-115.064141,-40.87777,-66.750298,-81.022442,-92.601357,-19.937343,-22.329492,-12.439744,-4.026856,5.429887,17.518938,23.854073,28.26488,23.209078,33.646861,39.210116,43.561433,36.537175,47.015912,52.318889,56.088109,45.209292,55.425243,59.288707,61.636482,18.858684,26.532074,18.149048,5.387798,12.954838,5.085194,-0.853844,-7.118271,-6.82893,-8.699215,0.00341,8.582279,-23.009514,-21.411976,-11.599182,-3.080258,-34.849308,-33.822807,-24.143543,-16.146389,-6.085337,-19.806494,-28.832639,-35.719631,-59.180978,-81.400968,-95.877234,-109.650262,-61.654057,-45.075096,-25.398062,-16.940491,-54.770695,-35.133651,-19.758774,-14.589258,-44.953751,-29.917995,-17.463653,-13.858398,28.213303,290.411567,-176.214672,-74.841922
69,0.513061,0.114485,0.266441,1.178475,-25.815857,-50.277523,-73.675609,-91.132725,-61.540226,-94.615505,-111.531063,-124.01001,-57.02465,-92.943787,-112.518585,-127.807938,-49.774521,-82.922584,-101.276642,-114.988769,-40.947578,-66.474804,-80.673305,-92.343773,-19.861662,-22.243412,-12.296594,-4.230446,5.500888,17.675475,23.953664,28.2447,23.203619,33.799829,39.360355,43.737274,36.445884,47.125902,52.575425,56.446212,45.036008,55.459972,59.557544,62.116296,18.788418,26.490475,18.243153,5.441757,13.104229,5.545407,-0.262573,-6.483112,-6.76514,-7.927471,0.740399,9.124043,-22.993709,-20.745987,-11.032825,-2.803756,-34.939888,-33.456024,-23.771393,-15.955112,-6.38272,-20.437817,-29.536562,-36.052033,-59.385642,-81.821086,-96.371215,-110.103738,-61.758118,-45.018051,-25.208765,-16.511473,-54.761327,-35.037085,-19.586076,-14.27901,-44.851714,-29.74647,-17.276116,-13.639573,29.102966,290.509898,-175.571629,-73.679601
70,0.50734,0.14236,0.230416,2.195666,-25.830071,-50.408272,-73.782761,-91.464089,-61.453709,-94.381325,-111.430699,-124.145577,-56.934151,-92.598942,-112.26178,-127.693703,-49.698819,-82.542572,-100.963852,-114.841313,-40.867104,-66.109463,-80.283017,-92.035298,-19.777855,-22.061978,-12.059609,-4.321541,5.457736,17.779882,24.033939,28.24486,23.113846,33.931382,39.537208,43.98241,36.323247,47.322539,52.903529,56.869289,44.867133,55.555721,59.786502,62.475732,18.82806,26.444709,18.57265,6.133415,13.459613,6.594715,1.122825,-4.808384,-6.455075,-6.637768,1.861106,9.972736,-22.704106,-19.425888,-9.943554,-2.068325,-34.788723,-32.664769,-23.111058,-15.567982,-6.679369,-21.216948,-30.386581,-36.787468,-59.697402,-82.373101,-96.938483,-110.596998,-61.893055,-44.983563,-25.0927,-16.07864,-54.71993,-35.013984,-19.55554,-14.04221,-44.677436,-29.80551,-17.315544,-13.569307,30.057684,290.596985,-174.893835,-71.539208
71,0.410339,0.226772,0.518978,3.505917,-25.859459,-50.376331,-73.601601,-91.466274,-61.277618,-94.007549,-111.196632,-124.194134,-56.765453,-92.15094,-111.923515,-127.533314,-49.502918,-82.033402,-100.507816,-114.538834,-40.593407,-65.624909,-79.765709,-91.606155,-19.693442,-21.898166,-11.810557,-4.314291,5.215748,17.760184,24.036669,28.223223,22.830177,33.943954,39.668082,44.201105,36.055683,47.394454,53.178504,57.293749,44.674805,55.618843,59.979781,62.76013,18.793098,26.176929,18.878929,6.767051,13.87215,7.924518,2.925956,-2.595658,-6.018837,-5.078179,3.22126,10.993595,-22.211598,-17.768933,-8.646092,-1.282791,-34.4198,-31.438259,-22.135575,-15.053627,-7.058091,-22.066263,-31.438345,-37.691254,-59.693346,-82.897434,-97.376451,-110.831023,-61.645023,-45.082111,-24.959714,-15.483935,-54.341888,-35.038154,-19.492561,-13.632176,-44.301358,-30.104518,-17.647348,-13.655703,31.065302,290.68757,-173.777578,-68.169478
72,0.632011,0.120957,1.286052,4.809739,-25.890266,-50.382488,-73.556282,-91.725059,-60.752025,-93.306038,-110.734188,-124.11343,-56.253158,-91.455013,-111.37635,-127.277195,-49.041103,-81.328766,-99.894058,-114.165676,-40.211586,-65.257839,-79.429939,-91.420017,-19.544883,-21.59554,-11.474672,-4.223025,5.151133,17.795579,24.062542,28.187889,22.7531,34.163464,40.015773,44.616512,36.014408,47.830288,53.797786,57.977684,44.663134,56.028952,60.553565,63.343733,18.55465,25.381279,18.852677,7.397736,14.032025,9.35241,5.132195,0.329396,-5.656917,-3.411632,4.600251,11.758919,-21.639129,-16.196766,-7.405529,-0.754062,-33.88726,-30.255352,-21.229568,-14.717445,-7.332867,-22.590869,-32.072503,-38.087005,-59.324127,-83.454311,-97.91522,-111.129005,-60.793818,-44.734511,-24.388269,-14.377867,-53.221982,-34.646705,-19.000385,-12.72416,-43.153022,-29.992008,-17.636763,-13.38471,32.579263,290.684118,-171.609576,-63.484148
73,0.262917,0.645983,2.112935,6.039678,-25.73037,-50.106777,-73.340195,-91.689926,-60.471657,-93.039002,-110.492523,-123.968422,-55.835838,-91.088894,-111.0863,-127.081982,-48.50885,-80.726967,-99.362263,-113.797669,-39.612534,-64.924004,-79.26321,-91.456261,-19.931637,-22.140425,-12.028523,-4.659884,4.805763,17.469834,23.684655,27.759046,22.641097,34.000296,39.816678,44.400152,36.08951,47.961286,53.821449,57.905597,44.884349,56.288057,60.682463,63.316279,18.329109,24.916099,19.34737,8.770534,13.853782,10.823513,7.786102,4.150314,-5.417851,-2.300046,5.229,11.5433,-21.050641,-15.176365,-6.692242,-0.743145,-33.143647,-29.499287,-20.879128,-15.029515,-7.611516,-22.498676,-31.412823,-36.899909,-57.987632,-83.174482,-97.524265,-110.45307,-58.983975,-43.63013,-22.771823,-12.135752,-51.015689,-33.654091,-17.67863,-10.830287,-40.737092,-29.090014,-16.840313,-12.267472,33.74334,291.211568,-168.595481,-57.563003
74,0.560669,0.457447,2.272705,13.118388,-25.639938,-50.061344,-73.405769,-91.733872,-60.427746,-92.939461,-110.424534,-123.933987,-55.73093,-90.892628,-111.007164,-127.131008,-48.326042,-80.473469,-99.18211,-113.754364,-39.346596,-64.711109,-79.124737,-91.444954,-20.000823,-22.414646,-12.519525,-4.806331,4.599282,17.19418,23.298974,27.291299,22.50474,33.760828,39.523178,44.049064,36.051743,47.917492,53.781361,57.913834,44.978247,56.39386,60.766444,63.411844,19.003555,26.593734,21.969577,11.415824,14.782436,13.364662,11.34169,8.595222,-4.142716,0.248611,7.063407,12.337749,-19.573769,-12.765679,-4.830391,0.480514,-31.938504,-27.4609,-19.049904,-13.533715,-8.268584,-24.179677,-34.195927,-39.670318,-59.214607,-85.185194,-100.144132,-113.554028,-59.678099,-46.87036,-25.831044,-14.375675,-51.752051,-36.487189,-20.211688,-12.500501,-41.42146,-31.768185,-19.305118,-13.998325,35.415665,291.60264,-165.21112,-44.51099
75,0.26461,0.570611,3.80896,14.21705,-25.499565,-49.744984,-73.232609,-91.778503,-60.336628,-92.904899,-110.215313,-123.551983,-55.519558,-90.851086,-110.845493,-126.87046,-48.006363,-80.221081,-98.902313,-113.533504,-38.950744,-64.561363,-79.047329,-91.479458,-20.230682,-22.85936,-13.076255,-5.001129,4.325122,16.759037,22.814468,26.864825,22.433468,33.603277,39.25654,43.675227,36.213764,48.089961,53.817139,57.864236,45.438114,56.913502,61.31643,63.957915,19.224826,27.524528,24.138977,13.97945,14.393497,14.517219,13.783424,12.357742,-4.087922,1.247943,7.982093,12.603664,-19.07063,-11.643609,-3.789975,0.895912,-31.311264,-26.131291,-17.576031,-12.278252,-8.506304,-25.169264,-35.636885,-40.750844,-59.464331,-86.025558,-100.941632,-114.166727,-59.208678,-48.795799,-27.501966,-15.120274,-50.813092,-37.525855,-20.923411,-12.13797,-40.1114,-32.087663,-19.869912,-13.955111,37.043175,292.283806,-160.03926,-30.183385
76,0.585365,0.274814,3.484108,13.252688,-25.415634,-49.662071,-73.396453,-92.050289,-60.305442,-93.026207,-110.198501,-123.383159,-55.43272,-90.926021,-110.886817,-126.85493,-47.856422,-80.224147,-99.012245,-113.823909,-38.706413,-64.413242,-79.063556,-91.760982,-20.328631,-23.165445,-13.570987,-5.167769,4.508657,16.621568,22.515028,26.532917,22.721978,33.581171,38.97108,43.188127,36.662146,48.501762,54.036662,57.987749,46.09977,57.927209,62.477511,65.245424,19.698074,29.209327,28.107742,19.551979,14.868438,16.504829,17.47879,17.557422,-3.258122,2.880592,9.845066,13.789112,-18.001076,-10.334656,-2.072674,2.238567,-30.02417,-24.563679,-15.940327,-10.867436,-8.190914,-23.308687,-32.530203,-36.436392,-56.881262,-83.605179,-97.75943,-109.845967,-56.121528,-46.991866,-25.364377,-12.171568,-47.090506,-34.96961,-18.00253,-8.293469,-35.792761,-28.229275,-16.154019,-9.530972,39.131223,292.739165,-155.052469,-16.750152
77,0.355202,0.379518,1.019027,4.857615,-25.378052,-49.623504,-73.477775,-91.972206,-60.564674,-93.461357,-110.430221,-123.392177,-55.566845,-91.182609,-111.075977,-126.87157,-47.861023,-80.327236,-99.206898,-114.15097,-38.525665,-64.063293,-78.808994,-91.719131,-20.482105,-23.606404,-14.198001,-5.357256,4.505137,16.492115,22.271385,26.259165,22.880318,33.516086,38.619671,42.593224,36.968872,48.687606,54.08663,57.979919,46.589624,58.652962,63.399099,66.431365,20.482384,31.574318,33.161728,27.231423,17.726326,21.204128,23.285317,24.291653,0.00166,6.060597,12.322689,15.896931,-14.762741,-7.771133,-0.05159,4.207947,-26.635746,-22.075607,-14.258892,-9.628841,-7.41615,-20.124188,-28.71785,-32.821758,-42.906403,-63.407225,-74.097913,-82.677553,-41.36297,-31.129334,-11.609145,1.052931,-33.488206,-22.17695,-7.458165,1.421661,-24.566055,-17.807596,-7.364126,-0.953408,41.126083,293.205341,-152.393784,-11.805879
78,0.721092,0.004841,4.015354,27.81643,-25.387664,-49.744285,-73.686344,-92.167694,-60.704475,-93.726562,-110.726108,-123.709098,-55.679454,-91.315143,-111.21001,-126.914749,-47.941154,-80.494629,-99.499603,-114.553802,-38.492569,-63.836322,-78.587757,-91.570507,-20.408499,-23.536256,-14.232161,-5.102523,4.651659,16.568834,22.301557,26.330981,23.038289,33.703659,38.670072,42.470822,37.125089,48.980427,54.518463,58.544318,46.801317,59.311036,64.462466,67.918587,21.62423,34.931351,38.69212,33.252674,19.837418,24.172909,27.051762,28.702023,2.095436,10.03925,16.925595,20.336769,-12.530548,-3.236858,4.626252,8.531605,-24.405384,-17.306476,-8.807132,-3.992591,-8.171907,-21.793665,-31.847769,-37.023738,-45.488336,-65.078333,-76.013806,-84.866419,-43.75168,-35.527426,-16.750194,-3.745471,-35.754921,-25.229279,-10.943087,-1.380591,-26.295709,-19.921695,-9.859342,-2.793131,44.011476,292.883652,-146.214129,15.684021
79,0.285622,0.041731,2.643986,19.699783,-25.353584,-49.582615,-73.530567,-92.15316,-60.772453,-93.944881,-110.770214,-123.606789,-55.609188,-91.458881,-111.150375,-126.566196,-47.774597,-80.552387,-99.549156,-114.552853,-38.234665,-63.722294,-78.553585,-91.610779,-20.520465,-23.555608,-14.156973,-4.945739,4.893609,16.696212,22.413399,26.50219,23.40905,34.043546,38.897906,42.578823,37.592354,49.531463,54.976812,58.936187,47.390823,60.231969,65.537664,69.120731,21.227726,35.093205,42.272907,40.392494,21.849186,28.526093,32.807476,35.223393,5.109352,16.308048,23.818977,27.315228,-8.522358,3.220619,11.228794,14.897701,-19.119118,-10.115124,-1.861084,2.265919,-7.729793,-18.933435,-26.171004,-30.16113,-41.731688,-60.075623,-68.011755,-74.063586,-38.799352,-28.883749,-10.843316,1.090976,-29.186746,-16.697922,-2.952978,6.356619,-18.450955,-10.170027,-0.829394,6.249111,46.453571,292.279458,-141.41367,34.737879
80,0.506561,-0.122031,-0.146072,26.180323,-25.459465,-49.755134,-73.660251,-92.030857,-60.977199,-94.279472,-111.099357,-123.863067,-55.741321,-91.593155,-111.204631,-126.424278,-47.854866,-80.717331,-99.762314,-114.741462,-38.245971,-63.644107,-78.536853,-91.705707,-20.375487,-23.401825,-14.150613,-4.812568,5.312919,17.069975,22.724917,26.761764,23.769574,34.319656,39.083701,42.684207,37.863018,49.751689,55.241276,59.252472,47.581014,60.572202,66.02648,69.812657,22.200531,38.736706,49.829567,52.338752,27.08329,36.656364,43.028183,46.829876,11.871425,28.225948,37.299041,41.186954,-0.302067,15.681083,24.599922,28.532844,-9.388825,3.086162,11.41341,15.534439,-9.350692,-18.7042,-23.589843,-25.800508,-38.764871,-54.237579,-60.066139,-64.078613,-34.479028,-22.23801,-5.080546,6.245368,-23.689021,-9.232471,3.93439,12.626816,-11.903856,-1.672405,7.217647,13.632885,48.699852,291.089766,-139.820022,59.850541
81,0.406952,0.115683,2.545875,30.63391,-25.464409,-49.809128,-73.66666,-91.943092,-61.208084,-94.553982,-111.3685,-124.065834,-55.887645,-91.738048,-111.162838,-126.184559,-47.978279,-80.853218,-99.769729,-114.594269,-38.418228,-63.884708,-78.720886,-91.767299,-20.404522,-23.354561,-14.057568,-4.710432,5.341324,17.216843,22.921852,26.974902,23.86914,34.509131,39.303557,42.932048,37.949667,49.805968,55.355404,59.410825,47.612705,60.446478,65.907141,69.74614,22.592709,41.678788,55.476185,60.863571,31.178879,45.732857,53.538208,57.302777,18.383995,39.070759,49.49049,53.785252,8.159523,27.98576,38.070946,42.683419,0.750103,16.913178,26.16671,31.149136,-12.308747,-21.643477,-25.134629,-25.366915,-36.971293,-46.980023,-48.206948,-48.802969,-30.050141,-18.014744,-2.589016,7.594034,-17.771009,-3.736314,8.245217,16.055267,-4.806517,5.087184,13.226042,18.742596,50.586021,290.116384,-135.79493,89.395386
82,0.390015,-0.007015,4.229439,41.830068,-25.521034,-49.755066,-73.515381,-91.782303,-61.341202,-94.534561,-111.31255,-124.056599,-56.025925,-91.664818,-111.023895,-126.070084,-48.116249,-80.854706,-99.675373,-114.411163,-38.537933,-64.062424,-78.857861,-91.823353,-20.18017,-23.01959,-13.753101,-4.529145,5.654535,17.507699,23.214438,27.265796,24.059122,34.78134,39.704725,43.499658,38.008626,49.883897,55.53117,59.723912,47.560279,60.242887,65.669106,69.492877,23.700234,46.38121,63.381157,70.785828,36.306988,57.200501,66.24004,69.326363,24.755322,53.006344,65.192917,68.962441,15.86166,42.976936,54.461769,58.527191,9.581074,32.021038,42.91547,48.371956,-14.9111,-23.702809,-23.780003,-20.250331,-43.123307,-50.108353,-49.61895,-50.378771,-33.576379,-20.788214,-5.567003,3.159491,-18.224843,-2.56174,9.743561,16.942912,-1.670077,9.377183,17.18635,21.681194,52.024138,289.035366,-130.517389,130.151451
83,0.075485,0.17116,-0.19923,20.179195,-25.604645,-49.494621,-72.973995,-91.200279,-61.228798,-94.247154,-110.969078,-123.698879,-55.977539,-91.456741,-110.721119,-125.692634,-48.152092,-80.71233,-99.416199,-114.022304,-38.657158,-64.142715,-78.90881,-91.820743,-19.716536,-22.401876,-13.512892,-4.886829,6.081465,17.789664,23.504677,27.596543,24.297491,35.148594,40.076536,43.975013,38.081726,50.043065,55.617855,59.796296,47.430776,59.995836,65.393612,69.132242,25.981636,51.207573,71.221825,83.370998,44.258446,69.367321,80.640049,85.729317,33.966522,64.879726,78.732124,84.847801,25.403938,54.12252,67.316849,73.908256,18.878631,41.909397,52.859367,59.313423,-14.210344,-18.678845,-14.569485,-8.058064,-29.414562,-28.647634,-22.979335,-19.293033,-18.094921,-1.652811,12.433106,20.250844,-2.671026,15.043802,26.595483,32.798725,12.943986,26.013905,33.256845,36.810205,52.570164,288.476198,-130.246078,149.600318
84,0.561539,0.221845,6.528282,28.351843,-25.873604,-49.690109,-72.444569,-89.608189,-60.815953,-93.484589,-110.599446,-123.528134,-56.054215,-91.136181,-110.853802,-126.046692,-48.651421,-80.767021,-99.712532,-114.564057,-39.549134,-64.618458,-79.30283,-92.187664,-18.900912,-21.738195,-14.924223,-9.124217,7.035113,17.881462,23.170471,26.795344,24.742093,35.402771,40.156638,43.704718,38.033375,49.880365,55.391947,59.273195,46.949048,59.242036,64.74133,68.480997,28.937496,56.750816,77.773613,90.452316,53.523068,79.99997,88.061222,89.82375,44.021645,74.9263,84.257469,85.575073,34.947063,63.533409,72.954758,75.6106,26.551392,50.25824,59.121677,63.115871,-12.305412,-13.77296,-8.040385,-0.645193,-15.546987,-1.80857,8.575428,14.213241,-3.701227,19.781282,34.532461,41.58973,10.956777,33.309778,45.603063,50.783799,25.554507,41.186451,49.296676,52.36225,53.347807,288.247206,-123.501692,177.501324
85,-0.006432,-0.493942,5.989105,23.565217,-26.285774,-50.086384,-71.357986,-87.442371,-59.725937,-90.178493,-107.106605,-120.076,-56.069481,-89.47594,-109.226475,-125.003906,-49.575565,-80.318413,-99.548321,-115.225719,-41.016495,-64.772152,-79.603214,-93.24741,-18.017004,-21.10571,-16.355893,-12.916074,9.349951,17.0762,19.433695,20.256556,25.965048,34.715896,36.840716,37.742309,38.402606,49.461574,53.417367,55.571036,46.569184,59.107532,64.817851,68.36566,31.483841,60.700402,82.353001,95.576592,59.014733,88.609749,96.932659,98.16053,49.126877,80.536766,89.890892,91.394074,39.121102,68.634396,78.645161,81.680992,29.51595,53.907635,63.269554,67.201618,-10.824377,-9.05219,-1.75996,5.05626,-2.938838,18.418395,31.624795,38.860115,10.860231,36.275119,49.028518,54.060498,25.204407,48.231938,58.317275,61.35521,38.240956,54.193508,60.648353,62.295434,53.576013,287.6571,-117.277949,200.970377
86,-0.516701,-0.777944,3.714295,21.223975,-26.670227,-50.874401,-70.792522,-86.050083,-60.321109,-87.022453,-101.277511,-111.43048,-56.925041,-85.999683,-102.11499,-113.889907,-50.847496,-78.399879,-93.686256,-105.145385,-42.689392,-64.201812,-76.771579,-87.629768,-11.288395,-11.69764,-7.257353,-3.726119,13.851581,21.552265,24.39844,25.027491,26.287768,35.69238,38.74227,39.54321,35.220002,46.559465,50.89196,52.537856,40.501922,52.464435,58.44763,62.035415,34.223259,64.213245,86.61676,101.246395,65.028476,94.515918,103.454715,106.193023,53.889759,85.689525,95.396427,98.370014,42.526725,71.841087,82.059482,86.118644,31.248539,54.716663,63.758594,67.872711,-8.304949,-4.077034,4.017778,9.194315,8.838757,33.966,46.976466,54.003391,22.864152,51.550714,63.944849,68.81419,35.899269,61.595974,71.31113,73.992962,46.698762,65.045933,71.359554,72.889989,53.212034,286.848636,-113.410932,222.163832
87,-0.797424,-0.071334,4.571766,18.628432,-25.387916,-49.619762,-68.681671,-83.278118,-61.101986,-82.129989,-90.637539,-95.201328,-58.252315,-81.365478,-90.533111,-95.408764,-52.661407,-74.926014,-83.845585,-89.273254,-44.755131,-62.526661,-71.257393,-78.040581,-10.059673,-10.370426,-7.090948,-5.26111,15.000632,23.902337,28.404844,30.322441,26.421458,37.14165,42.111015,44.201352,34.744289,46.732625,52.170873,54.355343,39.67911,51.675079,58.071026,62.016618,35.706207,65.214466,87.65094,103.881935,67.354236,94.853725,105.192329,110.664642,56.043056,86.058139,97.204547,102.914852,44.219673,71.446106,82.872894,89.420047,31.949443,53.80545,63.184501,68.713794,-6.285228,-1.284458,5.741875,7.951601,16.992701,42.077744,54.967821,62.997561,30.68751,59.106013,72.192345,78.726823,42.537858,68.591148,79.330495,83.458066,51.712685,71.398013,78.868096,81.764548,52.507393,286.751219,-108.746383,240.766181
88,-1.49382,-0.105396,6.276958,16.851132,-23.05545,-46.274586,-63.642174,-76.828205,-59.651585,-74.715179,-77.490063,-76.566845,-57.706375,-74.356579,-76.480774,-74.659973,-52.930595,-69.396858,-71.821507,-71.348579,-45.748707,-59.431126,-64.026901,-66.689816,-8.592965,-8.847129,-6.384288,-4.754547,16.307815,26.440773,31.99941,34.477627,26.149855,38.011183,44.561098,47.675678,33.489385,45.830255,52.472166,55.291813,37.976257,49.894469,56.732525,60.975482,35.267532,64.285595,87.001408,103.738506,67.445881,96.000069,106.590099,112.013718,56.207703,87.762817,99.45377,105.310433,44.544537,72.742001,84.492657,91.11557,32.49004,54.934994,64.656841,70.403755,-6.377632,-2.010161,4.549264,5.141981,20.977875,46.623648,59.197687,66.907658,35.782239,64.243844,76.972074,83.109348,47.676196,74.160812,84.854267,88.816408,56.288341,76.611427,84.004025,86.718129,51.137129,286.632698,-102.345869,257.604188
89,-2.963631,0.869323,1.662758,9.944336,-19.591644,-40.925502,-56.735138,-69.411655,-56.456417,-65.42807,-61.713936,-55.450229,-54.937214,-64.731113,-59.04071,-50.443222,-50.502983,-60.868938,-56.332958,-49.779567,-43.65794,-53.10696,-53.326023,-51.789379,-8.05281,-8.483815,-5.382129,-1.926959,15.632438,27.006814,33.464092,36.662837,24.392265,36.799145,44.637236,48.723508,31.124702,43.087177,50.680144,54.296964,35.281357,46.897635,53.904713,58.288251,34.788403,63.814075,87.612614,106.665871,64.844799,96.406837,112.467144,123.395908,53.460903,88.211941,107.129322,120.129124,42.40884,73.697994,91.806438,104.651367,31.805489,55.67308,69.245556,79.881237,-8.896617,-5.898177,0.170122,-0.547801,20.279848,40.355783,50.309431,57.617629,36.568063,58.804855,68.903159,75.002791,48.541257,70.032068,78.408586,82.127393,56.385931,74.395686,79.937242,81.888345,48.38237,287.411467,-100.474239,267.45797
90,-2.756653,2.438832,4.018215,6.438345,-16.154846,-35.720878,-51.209953,-64.05907,-57.634162,-60.160663,-48.747768,-36.625865,-57.039619,-58.303962,-43.902557,-27.512947,-53.140628,-55.864128,-42.199436,-27.803741,-46.888092,-52.660366,-47.218803,-39.889972,-6.264048,-6.176856,-1.946336,3.724378,14.065892,30.24718,39.667773,45.421491,22.395751,37.766453,48.744219,55.623289,28.627615,41.46434,50.455583,55.612631,32.699103,43.972395,50.223068,54.57252,33.757153,62.12352,86.090286,105.873276,63.785236,95.541973,112.408676,124.767815,52.79821,87.962036,107.926804,122.43306,42.079067,73.167629,91.86945,105.968685,31.7066,55.118351,69.137409,81.152321,-9.370218,-7.629276,-2.068528,-3.21301,20.762007,38.955296,48.413768,55.758349,36.761551,57.121749,67.259104,73.799535,48.175473,68.714734,77.759144,82.383126,55.494465,73.38787,79.687078,82.395661,45.897834,289.72526,-96.183907,273.771276
91,-5.955894,4.115887,4.265534,4.209266,-10.018753,-24.928986,-38.41777,-49.322067,-51.836895,-48.653103,-32.780125,-18.112793,-53.436916,-48.530777,-29.388622,-10.253746,-50.959305,-47.814754,-30.094288,-13.68821,-45.8508,-47.782494,-39.582298,-30.613667,-12.641025,-15.935002,-13.103301,-9.136825,8.432464,25.309457,34.267774,40.12096,20.308278,35.155745,45.476203,52.488332,29.564727,41.515321,50.11004,55.793202,36.380564,47.379659,52.95582,56.99442,32.555305,60.536579,84.747757,104.833351,62.175464,95.092655,112.405426,125.015029,51.604877,88.135368,108.619033,123.241905,41.272487,73.888858,92.87582,107.003814,31.427398,55.909698,70.554462,83.081634,-10.211653,-9.434031,-4.13829,-5.28959,19.974887,37.454169,46.182762,52.803246,36.305636,55.393861,64.546594,70.001984,47.666971,67.146842,75.311642,79.017865,54.773937,71.974675,77.703853,79.767181,40.221479,293.716943,-91.638834,277.856338
92,-9.880188,2.687675,3.584323,2.447589,-4.346123,-14.567528,-25.651611,-35.404163,-42.111397,-33.406448,-15.807884,-2.008713,-46.261585,-34.874714,-14.723511,3.729309,-46.51141,-37.554314,-18.327278,-2.176941,-44.157303,-44.580952,-36.727146,-28.635555,-14.104881,-18.594124,-16.902014,-13.21302,5.421476,22.932905,29.912307,33.858591,18.471055,33.721455,41.327253,46.00402,28.289358,40.184179,46.390083,50.70204,35.747844,46.774257,51.115336,54.171302,31.719841,59.33305,83.447995,103.427868,60.920884,94.627694,112.092579,124.596302,50.647271,88.035496,108.545231,122.905667,40.514958,74.078019,93.138222,106.976109,31.055558,55.931832,70.80201,83.339653,-11.456814,-11.228424,-5.515177,-5.472063,19.102317,36.329113,44.503929,50.286991,35.798801,54.110614,62.118913,66.229984,47.059112,65.812255,72.810021,75.170703,53.859116,70.574261,75.608513,76.564385,30.635817,296.325827,-87.759985,280.225136
93,-11.171597,2.718228,2.525666,1.550034,-1.298126,-7.546508,-14.886714,-22.683345,-34.413597,-19.214778,-0.115551,12.844014,-40.150383,-22.090908,-0.204196,17.906079,-41.645359,-27.318031,-6.489177,9.875256,-40.321517,-38.137859,-29.276001,-20.845779,-14.891396,-19.058276,-16.035581,-11.676138,3.137193,20.191199,26.633348,30.530305,17.263699,31.687335,38.362864,41.987267,27.747523,38.719139,43.769347,47.158728,35.804383,46.103055,48.818061,50.589334,31.313083,58.737613,82.898872,103.042133,60.286834,94.361675,111.887912,124.04298,50.171425,88.08902,108.377048,122.209659,40.190174,74.627884,93.59341,106.84457,31.10947,56.839863,72.11531,84.853912,-12.2797,-12.266361,-6.064953,-4.824202,18.199069,35.4467,43.394781,48.613592,35.111605,52.791279,60.098502,63.286861,46.493429,64.563489,70.581042,71.806503,53.267548,69.530099,74.168345,74.50344,19.713626,299.012352,-84.984913,281.743467
94,-14.067192,2.289236,1.600296,0.767545,4.441189,3.652337,-0.427333,-6.745479,-20.712352,0.358395,19.152501,30.044918,-28.698875,-4.467418,16.209446,31.540707,-33.565315,-13.654815,6.634793,20.969639,-35.832275,-30.770897,-22.333202,-15.098373,-17.094477,-22.061594,-20.081345,-16.538193,0.369453,18.186015,23.323501,25.914129,16.386905,32.476197,36.814311,38.230137,28.076085,40.778194,43.312394,44.671409,37.120297,48.54169,49.214634,48.904635,30.938667,58.108635,82.245575,102.750721,59.646995,93.443287,110.79063,122.505123,49.577076,87.340461,107.266765,120.694141,39.626449,73.896812,92.553486,105.408588,30.69675,56.210609,71.379902,83.816322,-12.508065,-12.451798,-5.763759,-3.347292,18.210987,35.731579,43.621973,48.503874,35.199242,52.926068,59.957723,62.728897,46.453625,64.530786,70.211021,70.963524,52.898441,69.156596,73.647135,73.704032,5.809061,301.338521,-83.22199,282.547945
95,-11.31792,0.819725,0.932373,0.579528,9.238769,13.070469,11.973381,7.526848,-6.631554,16.841251,34.618629,44.084449,-15.860276,10.255302,29.664825,43.290847,-23.215039,-1.544976,17.433517,30.244354,-28.361676,-22.065159,-14.36451,-7.938927,-19.985151,-25.650158,-23.947514,-21.262359,-2.671521,14.594154,19.482292,21.82467,14.905536,31.555473,35.063674,35.675411,27.957103,41.394141,43.130489,43.919523,38.079392,49.883007,49.984797,48.875327,30.684917,57.745571,81.962356,102.82806,59.024895,92.928211,110.217075,121.640041,48.995979,87.016743,106.769085,119.85902,39.098064,73.694847,92.284,104.898319,30.359081,56.043079,71.329513,83.809513,-12.859166,-12.816768,-5.726647,-2.258546,18.146988,35.841161,43.733741,48.40511,35.202366,52.847398,59.655047,62.18348,46.400828,64.306162,69.629023,69.968428,52.725342,68.858563,73.211214,73.086071,-5.410057,302.161806,-82.190815,283.131033
96,-6.560566,-0.922193,0.558769,0.139111,11.024917,16.548317,16.50214,11.85276,0.859989,25.794033,43.452724,52.030208,-8.962601,18.603046,37.1823,49.713695,-18.16975,5.106788,23.734577,35.880993,-25.525395,-19.353802,-12.037228,-6.074993,-20.305228,-25.630892,-23.572936,-20.172316,-2.916855,14.838327,19.453676,21.350106,15.068545,33.141903,35.951756,35.775657,28.309834,43.200279,43.940061,43.918387,38.524093,51.526322,51.032528,49.31026,30.677273,57.716652,81.925438,102.993542,58.627613,92.490955,109.775265,121.093655,48.651833,86.692692,106.428509,119.39748,38.805302,73.55381,92.179356,104.643688,30.120953,55.896618,71.293442,83.819366,-12.874195,-12.673642,-5.243055,-1.135146,18.228079,36.040084,43.926958,48.529834,35.264252,52.814584,59.475848,61.954349,46.485093,64.267507,69.457172,69.706631,52.862675,68.907865,73.190775,73.002251,-11.917619,301.184665,-81.579042,283.215196
97,-5.979401,0.226364,0.46764,0.300897,12.856018,21.497612,24.50861,21.676037,8.856285,34.600056,51.187283,58.841366,-0.953762,26.962315,44.410687,55.493717,-11.01487,12.609696,30.156635,41.224285,-19.585945,-11.986782,-4.298527,1.822975,-21.074773,-26.190671,-23.748257,-20.254407,-4.514276,12.461974,17.119783,19.201637,13.956421,31.887888,34.815846,34.5107,27.816733,42.957477,43.789082,43.402636,38.476126,51.743647,50.77766,48.347893,30.635307,57.724056,81.98917,103.209572,58.45982,92.363045,109.563194,120.720749,48.552921,86.593529,106.210121,119.039612,38.762695,73.542709,92.019653,104.304932,30.10191,55.897877,71.241577,83.796799,-12.915345,-12.768021,-5.230013,-0.832482,18.114731,35.698296,43.511243,48.119219,35.146334,52.351888,58.929542,61.448996,46.394036,63.853705,68.962848,69.228523,52.81593,68.734273,72.941267,72.734946,-17.871122,301.338308,-81.085504,283.443372
98,-4.56681,-1.097292,0.469437,0.333082,15.607063,26.015762,29.092586,26.306556,16.906757,42.528728,58.03767,64.480648,6.960342,35.580562,50.931118,59.999805,-4.826466,19.953346,36.386135,45.983219,-15.833302,-6.554467,1.452243,7.07516,-20.539484,-24.895309,-22.175487,-18.635953,-4.972773,12.354442,16.244113,17.607364,13.329419,32.149907,34.497349,33.981474,27.072912,43.478625,43.625073,42.921908,37.818212,51.982571,51.08078,48.788272,30.582973,57.602222,81.869442,103.234199,58.193,92.161262,109.363563,120.52304,48.455463,86.513053,106.140358,118.994888,38.859546,73.738689,92.182319,104.413604,30.368167,56.307106,71.685733,84.369644,-13.024804,-12.996387,-5.335137,-0.75359,17.820206,35.152818,42.844375,47.495984,34.906915,51.765543,58.22329,60.831788,46.268485,63.344178,68.356076,68.685156,52.854314,68.523629,72.637664,72.469431,-22.426191,300.159478,-80.604326,283.694916
99,-2.833226,-1.315062,0.523521,0.157908,16.750466,28.248665,32.826691,31.555493,20.08794,46.562073,61.957077,68.190789,9.685879,39.516838,55.110215,64.277642,-2.653656,23.342549,40.294098,50.256295,-14.255859,-3.139457,6.135567,12.558564,-19.645016,-22.720891,-18.274552,-13.631662,-5.48393,11.524319,16.086044,18.389532,12.874245,31.253267,34.731322,35.313925,26.951894,43.063947,44.195351,44.114186,38.133733,51.976656,51.625173,49.965902,30.615383,57.512947,81.758114,103.14283,58.107914,91.975365,109.13411,120.29496,48.442188,86.346565,105.938072,118.791573,38.867958,73.697022,92.109192,104.283577,30.312424,56.33178,71.712124,84.413876,-13.111699,-13.161124,-5.386958,-0.619134,17.434019,34.715032,42.428165,47.192839,34.537697,51.245037,57.756692,60.553949,46.013258,62.873603,67.920501,68.388594,52.77189,68.291127,72.367679,72.254404,-25.245569,298.754208,-80.066957,283.762616
100,-4.873295,-0.385298,0.736084,0.118598,19.063443,32.829907,39.91261,40.460164,26.181244,54.705014,68.916974,73.714383,15.334202,47.520596,61.997944,69.510281,2.300778,30.694909,46.853566,55.5462,-10.039089,4.102696,13.919827,20.077996,-19.908802,-23.095296,-19.018311,-14.805155,-6.799696,10.026526,14.677382,17.297551,12.178824,30.778048,34.326079,34.802644,26.914733,43.392311,44.730258,44.311701,38.647027,52.767432,52.151496,49.833237,30.470947,57.212952,81.397453,102.681084,58.001987,91.694756,108.763206,119.885948,48.38863,86.044235,105.594223,118.427261,38.803219,73.492172,91.891022,104.053368,30.169556,56.221664,71.598942,84.305992,-13.18664,-13.231211,-5.368568,-0.468488,17.094021,34.389422,42.124686,46.947196,34.180286,50.816699,57.422239,60.292781,45.741432,62.479499,67.619035,68.187473,52.618625,68.054475,72.132892,72.055024,-30.119534,298.282243,-79.331543,283.794547
101,-5.894542,-0.044114,0.712978,0.180879,21.595001,38.215576,48.313133,50.956501,33.72472,64.465942,77.221367,80.339035,22.335262,56.929229,69.877693,75.256622,8.451313,39.223034,54.058479,60.991836,-4.734284,12.621254,22.652149,28.336281,-20.51161,-24.00588,-20.493282,-16.97709,-8.732892,7.941943,12.558737,15.394192,11.091745,30.126877,33.651332,33.930246,26.714229,43.765481,45.216764,44.391136,39.158246,53.715201,52.637718,49.467329,30.24131,56.88255,81.056134,102.263134,57.918148,91.348332,108.261944,119.315953,48.325596,85.675381,105.132969,117.916912,38.696343,73.135529,91.477581,103.633267,29.96719,55.945977,71.290306,83.967831,-13.366975,-13.464442,-5.525303,-0.537648,16.778452,34.168072,41.885873,46.722968,33.896469,50.51947,57.212819,60.144581,45.528419,62.194978,67.424522,68.06885,52.474216,67.845697,71.938057,71.886804,-36.017235,298.184375,-78.621724,283.921672
102,-2.103813,-0.581454,0.738144,0.206259,22.744068,40.013214,50.764778,54.067714,36.640033,68.018898,80.237754,82.748977,24.781196,60.463691,73.158737,77.956169,10.448295,42.408851,57.360992,64.073478,-3.215424,16.344417,27.957813,34.404796,-19.931243,-22.834685,-18.670361,-14.44273,-8.492806,8.037952,12.776321,15.909055,11.155113,30.276177,34.231328,34.974914,26.722244,43.954882,45.885965,45.311526,39.123554,53.860969,52.823414,49.587915,29.99017,56.503601,80.678341,101.836201,57.566449,90.905926,107.757328,118.830517,48.074833,85.256596,104.712605,117.513073,38.50985,72.896141,91.223339,103.345722,29.825512,55.862995,71.161732,83.754238,-13.341115,-13.48813,-5.528045,-0.436427,16.612059,34.03101,41.739598,46.601715,33.723147,50.323832,57.04923,60.030416,45.395988,61.972392,67.227451,67.926824,52.408217,67.668238,71.713236,71.684188,-38.130197,297.595039,-77.892729,284.120049
103,-1.432492,0.795135,0.646843,0.169517,24.704304,43.554589,55.754139,59.973164,39.289467,70.99268,82.900395,85.157536,26.5872,62.330807,74.775273,79.266735,11.647156,43.902386,58.615643,65.000187,-2.381881,17.524327,28.757515,35.129929,-22.018073,-26.866678,-25.073088,-22.748988,-10.361015,5.997694,10.58302,13.517684,10.532669,30.140524,33.590532,33.67744,27.072035,44.636718,46.437409,45.525244,39.945526,55.21092,53.894673,50.008621,29.824208,56.315472,80.487877,101.570767,57.248417,90.5285,107.32861,118.422444,47.805989,84.87656,104.312542,117.057781,38.262944,72.608483,90.872418,102.856327,29.592282,55.663937,70.893494,83.326092,-13.26484,-13.458638,-5.534294,-0.398413,16.485248,33.90604,41.657952,46.570086,33.613294,50.149992,56.964261,60.048139,45.321592,61.785165,67.070408,67.84214,52.392458,67.579219,71.533703,71.4619,-39.574602,298.401777,-77.257799,284.301169
104,0.851681,0.304158,0.573269,0.305418,24.214405,42.770313,54.754852,58.754425,38.079002,69.368729,81.52565,84.096359,25.717289,60.935463,73.66008,78.485344,11.183704,42.987282,58.004036,64.692764,-2.487202,17.113609,28.497173,35.021221,-22.319847,-27.634989,-26.229871,-24.009758,-10.024488,6.177622,10.634816,13.520314,10.850683,30.395294,33.638944,33.640883,27.208158,44.708261,46.337954,45.440992,39.855173,55.139783,53.726823,49.773895,29.641171,56.158791,80.302059,101.302162,57.015244,90.210594,106.915718,118.03878,47.597878,84.547119,103.916496,116.624542,38.073612,72.344341,90.494133,102.379189,29.440979,55.487663,70.622944,82.914597,-13.245883,-13.561613,-5.687892,-0.48484,16.343877,33.749712,41.48773,46.39322,33.51159,49.984464,56.851974,59.989648,45.251146,61.610053,66.89532,67.676883,52.362768,67.450296,71.276327,71.119468,-38.738926,298.728159,-76.700535,284.628811
105,0.474083,0.370367,0.442349,0.232861,23.855083,42.071377,53.764549,57.491798,37.090771,67.99189,80.562057,83.618385,25.079613,59.671463,72.979477,78.426361,10.906471,42.118011,57.679871,64.964859,-2.492306,16.799114,28.635601,35.656242,-22.355527,-27.579328,-25.680243,-22.811615,-9.538105,5.980725,10.324533,13.321712,11.030377,29.915678,33.238184,33.611811,27.09981,44.013717,45.707926,45.158409,39.537306,54.460528,53.130881,49.431624,29.553497,56.051834,80.228016,101.249874,56.800094,89.914272,106.562336,117.699062,47.43647,84.278995,103.612186,116.29343,37.948494,72.17292,90.222988,102.005184,29.343612,55.367523,70.406353,82.585224,-13.134004,-13.551622,-5.719521,-0.477776,16.162874,33.619604,41.386114,46.300841,33.371837,49.814378,56.758743,59.989302,45.181047,61.425827,66.718035,67.521025,52.408007,67.449678,71.197459,70.995869,-38.277775,299.122349,-76.271118,284.885495
106,0.951416,0.202269,0.30075,0.247248,22.541782,39.67852,50.318001,53.34201,35.172203,65.171516,78.57074,82.516685,23.900036,57.571884,71.90213,78.564423,10.280914,40.667118,57.196815,65.634224,-2.881783,15.90992,28.563286,36.356209,-21.684806,-26.167503,-22.978489,-18.871444,-8.585851,6.169879,10.424729,13.681594,11.256779,29.081715,32.708539,33.817305,26.732816,42.734101,44.556208,44.603471,38.843442,52.971776,51.952944,48.995173,29.536194,55.927163,80.095585,101.11488,56.482911,89.564633,106.254628,117.456746,47.248982,84.065289,103.482891,116.231427,37.861187,72.132443,90.191883,101.911206,29.317349,55.359204,70.352108,82.437321,-12.967883,-13.516214,-5.776751,-0.450592,15.903572,33.293019,41.034829,45.942443,33.109966,49.496796,56.483411,59.814228,44.985089,61.139083,66.427018,67.257586,52.357681,67.376332,71.045023,70.769974,-37.339972,299.345845,-75.983981,285.15397
107,0.9398,0.670387,0.228939,0.225241,21.926148,38.560742,48.76347,51.608746,33.843556,63.475811,77.099293,81.329006,23.06757,56.188442,70.639538,77.56168,9.829479,39.663162,56.193524,64.760388,-3.006626,14.895207,27.127259,34.740715,-22.155035,-26.775509,-23.47763,-19.13996,-8.489162,5.719805,9.663014,12.717757,11.289939,28.591034,31.912724,32.97204,26.634509,42.143483,43.715439,43.779832,38.595416,52.380998,51.283656,48.423685,29.516602,55.780152,79.888184,100.863099,56.313687,89.295914,105.933014,117.092995,47.122902,83.83548,103.214882,115.910454,37.726204,71.904236,89.95649,101.626282,29.153126,55.129418,70.099801,82.113556,-12.977479,-13.564404,-5.8736,-0.504291,15.634426,33.093343,40.89363,45.839739,32.81633,49.213473,56.300432,59.758492,44.730492,60.845139,66.18277,67.081584,52.207331,67.24179,70.898822,70.591453,-36.401047,300.033272,-75.755917,285.396251
108,0.370548,0.115535,0.241036,0.25288,21.235394,37.373726,47.236313,50.1083,32.592442,62.264466,75.982544,80.264992,22.421174,55.457726,70.085862,77.129517,9.661973,39.436078,56.207909,64.880768,-2.795608,15.324624,27.950959,35.678902,-22.069943,-26.213012,-22.022098,-16.704548,-8.04057,5.936475,9.834247,12.906936,11.425778,28.262089,31.685224,33.013759,26.557309,41.661954,43.215804,43.359349,38.402767,51.772719,50.644897,47.902833,29.371925,55.500137,79.55722,100.522613,55.973293,88.914482,105.522514,116.617927,46.821762,83.55677,102.970459,115.639435,37.465988,71.63982,89.7434,101.399895,28.974037,54.918377,69.892605,81.841095,-13.062311,-13.682384,-6.025481,-0.612131,15.443568,32.986132,40.801721,45.716671,32.636933,49.062815,56.180278,59.618195,44.570423,60.702002,66.019576,66.861445,52.063292,67.114881,70.758204,70.38233,-36.026677,300.156807,-75.511059,285.657131
109,-1.633678,0.353287,0.218891,0.142607,22.366058,39.647141,50.638722,54.043636,34.552391,64.586186,78.21056,82.218327,24.113606,57.516644,71.64465,78.08495,11.078156,41.408363,57.31406,65.305286,-1.473358,16.559326,27.962666,35.057247,-22.629797,-27.454678,-24.740093,-20.943233,-8.692112,5.874477,9.616787,12.2343,11.142294,28.642731,31.627931,32.150586,26.553591,42.056118,43.530212,43.234847,38.484264,52.268488,51.011212,47.809046,29.114891,55.125641,79.106953,99.941128,55.795395,88.661396,105.28323,116.338268,46.631207,83.320072,102.727924,115.329449,37.238125,71.387947,89.507137,101.119778,28.737717,54.652393,69.659729,81.626278,-13.044614,-13.585461,-5.935067,-0.484939,15.379854,33.034852,40.876797,45.739147,32.53292,49.051687,56.220823,59.671559,44.454554,60.696814,66.029258,66.887169,51.955722,67.073211,70.766034,70.446154,-37.651548,300.515046,-75.283361,285.80469
110,-1.759758,0.113682,-0.000938,0.090057,23.139336,41.425919,53.315907,57.048191,36.743912,67.249432,80.675869,84.128826,26.195,60.386936,73.767872,79.19759,12.944939,44.184746,58.856472,65.68166,0.283562,18.333733,28.036995,33.888874,-23.187798,-28.589539,-27.27465,-25.051327,-8.854762,6.653743,10.07936,12.032673,11.310292,29.856658,32.226898,31.697919,26.829937,43.103332,44.292237,43.32346,38.640024,52.974234,51.540883,47.854013,28.8582,54.777431,78.630249,99.270732,55.764152,88.51086,105.146541,116.170543,46.623825,83.204074,102.647106,115.238742,37.155441,71.201625,89.349826,100.922252,28.549942,54.430355,69.463325,81.429668,-13.069129,-13.574779,-5.92,-0.424065,15.324278,33.005965,40.823185,45.646238,32.435737,49.002076,56.187218,59.659666,44.337129,60.629111,65.97556,66.860876,51.873915,67.022378,70.745174,70.48003,-39.403811,300.625017,-75.276804,285.891036
111,-2.184917,0.123439,-0.059533,0.159266,24.778953,44.595932,57.828758,62.292846,39.282096,70.924141,83.803527,86.411087,28.149788,63.637527,75.981788,80.043731,14.500053,47.043846,60.407135,65.814537,1.749252,20.267463,28.369251,32.990192,-24.079313,-30.573567,-31.264542,-30.890693,-9.453642,6.992827,10.163772,11.46678,11.448144,31.178833,32.82894,31.076809,27.400535,44.541968,45.362125,43.523766,39.301631,54.405151,52.570695,47.998114,28.575531,54.433651,78.166386,98.600499,55.726227,88.333455,104.932332,115.930767,46.582695,83.062237,102.48119,115.039113,37.1013,71.00528,89.113736,100.649311,28.499085,54.31287,69.33046,81.268971,-13.151726,-13.643914,-5.998385,-0.442108,15.365417,33.13684,40.986231,45.780657,32.49345,49.130283,56.306903,59.677229,44.367819,60.72906,66.047228,66.845068,51.854625,66.948685,70.661602,70.404745,-41.580551,300.733423,-75.32816,286.035269
112,-0.906269,0.219708,-0.247764,0.077991,25.559589,45.880153,59.245662,63.524128,40.543293,72.771549,85.276485,87.333721,28.817333,65.103046,76.956882,80.313663,14.682266,47.941635,60.750949,65.489193,1.579731,20.618282,28.088104,32.247928,-24.262107,-31.26185,-32.899582,-33.296229,-9.720391,7.303654,10.592567,11.706804,11.414292,31.793435,33.278112,31.061964,27.519775,45.153001,45.873529,43.681291,39.494489,55.054988,52.998119,47.903512,28.353561,54.226719,77.875671,98.162372,55.785278,88.322124,105.011181,116.135502,46.648235,83.052944,102.572994,115.212673,37.153862,70.964195,89.085995,100.632557,28.53471,54.340233,69.357136,81.28989,-13.129904,-13.65992,-6.050651,-0.518679,15.416052,33.119377,40.914057,45.612337,32.578937,49.231936,56.40521,59.670992,44.428285,60.866257,66.181683,66.901743,51.885043,66.969742,70.691563,70.447785,-42.478889,300.922515,-75.567993,286.082644
113,-0.908375,0.323968,-0.360432,0.014882,26.387203,47.255401,60.775772,64.723938,42.133472,74.4776,86.794006,88.567131,29.685379,66.295715,77.752189,80.595108,14.840629,48.368774,60.590584,64.851265,1.14093,19.819679,26.357551,30.084148,-24.643861,-32.170767,-34.841497,-36.272587,-10.34643,7.171507,10.58176,11.473436,11.155656,32.239445,33.568166,30.841119,27.516786,45.683733,46.391368,43.957549,39.617669,55.69818,53.583463,48.199222,28.220307,54.073105,77.635952,97.75042,56.040791,88.471642,105.208122,116.424408,46.90511,83.117111,102.652634,115.347016,37.341477,70.946011,89.055336,100.635567,28.603203,54.382233,69.38879,81.353371,-13.171536,-13.683422,-6.028693,-0.449074,15.435367,33.125835,40.938522,45.644855,32.574355,49.281361,56.504196,59.778981,44.393655,60.902776,66.286721,67.041694,51.851166,66.938101,70.709396,70.553081,-43.354791,301.208228,-75.895952,286.059271
