takenoko1/special-research/HandMotion_SimilarSearch_自分用/NewProject/handData_new/key/d3_feature/130.csv
,vel_0x_L,vel_0y_L,vel_0x_R,vel_0y_R,posFromWrist_1x_L,posFromWrist_2x_L,posFromWrist_3x_L,posFromWrist_4x_L,posFromWrist_5x_L,posFromWrist_6x_L,posFromWrist_7x_L,posFromWrist_8x_L,posFromWrist_9x_L,posFromWrist_10x_L,posFromWrist_11x_L,posFromWrist_12x_L,posFromWrist_13x_L,posFromWrist_14x_L,posFromWrist_15x_L,posFromWrist_16x_L,posFromWrist_17x_L,posFromWrist_18x_L,posFromWrist_19x_L,posFromWrist_20x_L,posFromWrist_1y_L,posFromWrist_2y_L,posFromWrist_3y_L,posFromWrist_4y_L,posFromWrist_5y_L,posFromWrist_6y_L,posFromWrist_7y_L,posFromWrist_8y_L,posFromWrist_9y_L,posFromWrist_10y_L,posFromWrist_11y_L,posFromWrist_12y_L,posFromWrist_13y_L,posFromWrist_14y_L,posFromWrist_15y_L,posFromWrist_16y_L,posFromWrist_17y_L,posFromWrist_18y_L,posFromWrist_19y_L,posFromWrist_20y_L,posFromWrist_1x_R,posFromWrist_2x_R,posFromWrist_3x_R,posFromWrist_4x_R,posFromWrist_5x_R,posFromWrist_6x_R,posFromWrist_7x_R,posFromWrist_8x_R,posFromWrist_9x_R,posFromWrist_10x_R,posFromWrist_11x_R,posFromWrist_12x_R,posFromWrist_13x_R,posFromWrist_14x_R,posFromWrist_15x_R,posFromWrist_16x_R,posFromWrist_17x_R,posFromWrist_18x_R,posFromWrist_19x_R,posFromWrist_20x_R,posFromWrist_1y_R,posFromWrist_2y_R,posFromWrist_3y_R,posFromWrist_4y_R,posFromWrist_5y_R,posFromWrist_6y_R,posFromWrist_7y_R,posFromWrist_8y_R,posFromWrist_9y_R,posFromWrist_10y_R,posFromWrist_11y_R,posFromWrist_12y_R,posFromWrist_13y_R,posFromWrist_14y_R,posFromWrist_15y_R,posFromWrist_16y_R,posFromWrist_17y_R,posFromWrist_18y_R,posFromWrist_19y_R,posFromWrist_20y_R,posFromBody_0x_L,posFromBody_0y_L,posFromBody_0x_R,posFromBody_0y_R
6,-6.566665,3.122434,1.468323,0.648614,6.11388,11.677391,19.300106,23.679531,-5.650589,19.642742,37.672405,48.062725,-15.853615,12.520374,32.750759,48.388996,-21.672249,0.313991,18.734264,32.635059,-24.163754,-22.015469,-19.206551,-16.08664,-20.925448,-30.245364,-30.333296,-28.354023,-9.667187,4.622723,11.858154,17.660038,9.674302,22.342954,27.403981,29.877678,23.909031,33.193984,35.32089,36.101329,34.417012,41.539243,41.978264,41.06747,27.498561,51.306621,74.208812,93.965892,53.005806,83.745494,100.8941,113.41167,44.508293,78.439441,98.058185,111.213558,35.386882,67.163669,84.979396,96.614215,26.612022,50.568637,65.552719,77.508373,-11.877334,-13.010145,-8.133135,-6.209078,16.84366,31.664055,38.516053,42.551554,33.611515,48.15943,54.477843,56.933657,45.973873,61.573163,66.161305,66.011474,54.265311,70.205093,73.445236,71.778469,-7.346139,325.875872,-68.681161,299.037217
7,1.353916,-2.090115,0.832775,0.44028,4.841469,10.614406,18.804886,22.706588,-7.42495,17.390693,35.282455,46.037704,-17.492821,10.486541,31.215042,47.094818,-22.996113,-1.156998,17.617149,31.810409,-25.216244,-21.744919,-17.417988,-13.010742,-20.39069,-28.613746,-27.298993,-24.968643,-7.815676,6.88238,13.82893,19.080704,11.224113,23.870659,28.889004,31.064718,25.362537,34.975507,37.307005,37.840418,35.839618,43.832023,44.273526,43.352321,26.920166,50.451851,73.214058,92.91838,52.09909,82.735496,99.920585,112.575142,43.602962,77.561325,97.242485,110.437133,34.533451,66.327255,84.137855,95.813049,25.831329,49.851288,64.815147,76.761566,-12.035353,-13.340571,-8.66425,-6.740576,16.460227,31.208337,37.985964,41.948994,33.285139,47.655152,53.957374,56.421265,45.649832,61.046779,65.619718,65.555102,53.88956,69.749709,72.914195,71.177267,-6.324114,324.612172,-68.180277,300.303912
8,-1.098748,-0.735929,0.523384,0.351335,5.116963,11.842518,21.066102,26.208275,-6.151439,17.903527,35.543221,46.648957,-16.095199,11.100197,32.11084,48.649888,-21.713665,-0.423934,18.546685,33.140488,-24.121353,-20.103241,-15.086677,-9.980747,-20.342043,-28.596196,-27.256916,-24.252919,-8.291611,6.415682,13.643346,19.032144,10.673324,24.037014,29.444263,31.494686,25.055439,35.230771,37.777506,38.026175,35.950991,44.607336,45.286332,44.093474,26.507583,49.888607,72.529724,92.13359,51.417183,82.088493,99.268867,111.996254,42.799679,76.874794,96.646614,109.850944,33.756946,65.651596,83.479683,95.12487,25.192486,49.26598,64.216518,76.131202,-12.18469,-13.624746,-9.084449,-7.362662,15.995988,30.700551,37.50494,41.538601,32.947538,47.269545,53.508214,55.903266,45.377785,60.747141,65.273767,65.214166,53.547203,69.366461,72.537406,70.817695,-7.577889,324.396685,-67.81192,301.175689
9,7.146321,-2.324681,0.3185,0.300181,3.46336,7.140426,12.046772,13.953724,-14.385372,9.176937,28.399921,40.566067,-24.496514,2.027962,23.549091,41.027355,-29.970612,-9.90255,9.821354,25.046802,-32.141899,-31.305565,-28.475636,-24.960709,-20.072861,-29.237746,-28.583031,-26.449974,-5.38245,11.839863,18.486949,22.787866,14.154096,27.738038,31.810836,33.158946,28.178269,38.4206,39.924371,39.856124,38.684126,47.684002,48.539862,47.649681,26.089005,49.403446,71.990788,91.581425,50.851891,81.633602,98.851559,111.644223,42.156269,76.403515,96.271946,109.463024,33.147698,65.181919,83.091214,94.759404,24.695984,48.895844,63.872052,75.829685,-12.437829,-13.959187,-9.375046,-7.723087,15.474654,30.22106,37.086557,41.198023,32.584544,46.905601,53.109393,55.460614,45.085224,60.481577,64.987011,64.944428,53.174095,68.991661,72.163199,70.449909,-0.479633,322.404381,-67.541485,301.808247
10,-7.868111,1.027428,0.218251,0.267812,4.622738,10.727532,20.050427,25.985333,-7.598408,17.924801,37.135952,49.143894,-17.785538,10.863556,32.261295,49.287449,-23.575836,-0.947113,18.407398,33.287213,-25.861896,-21.80199,-16.0406,-9.830681,-21.214749,-30.696204,-29.703331,-26.788218,-7.412865,8.97893,16.492349,21.518747,12.585796,26.666965,31.537776,33.037261,27.222076,37.624464,39.777392,39.617829,37.982901,47.175302,47.419451,45.259186,25.687076,48.967266,71.565994,91.179267,50.539512,81.431877,98.680709,111.471313,41.767307,76.190597,96.078689,109.167045,32.718212,64.911644,82.824279,94.411308,24.31739,48.648548,63.613437,75.532173,-12.674037,-14.298666,-9.711463,-8.130146,15.23253,29.980331,36.81089,40.94198,32.386955,46.610112,52.778966,55.169288,44.862094,60.196969,64.653126,64.671923,52.847559,68.581131,71.72729,70.063499,-8.36859,323.62418,-67.34408,302.26843
11,0.394627,0.244309,0.078449,0.227402,3.85271,9.892696,19.888847,26.327888,-7.496006,17.992767,37.293892,49.604759,-17.11369,11.129848,32.532943,49.164253,-22.666729,-0.833714,18.250854,32.800049,-24.852494,-21.36026,-15.530583,-9.453118,-20.748965,-30.240078,-29.686621,-27.45732,-6.916132,8.699016,16.163134,21.377635,12.764008,25.958033,30.826263,32.189761,27.25163,36.915866,39.106536,38.824843,38.050135,46.646015,46.965647,44.973986,25.462269,48.673942,71.208675,90.792583,50.098343,81.09518,98.413639,111.243885,41.26807,75.964908,96.025806,109.115055,32.253536,64.788448,82.827953,94.37566,23.981197,48.585365,63.593788,75.418499,-12.871058,-14.593623,-10.058673,-8.469402,14.85789,29.801687,36.667469,40.876747,32.102372,46.550486,52.689453,55.091544,44.625714,60.076148,64.44578,64.440927,52.589047,68.288879,71.37041,69.685463,-7.977699,324.013007,-67.269367,302.64035
12,-1.680645,-0.690258,0.145546,0.079609,4.856872,11.546036,21.265514,27.528911,-5.345673,20.955242,39.547245,51.332348,-15.203991,14.260299,35.166469,51.459858,-21.032158,1.63163,20.373379,34.817676,-23.615845,-19.338375,-13.27652,-6.672753,-20.318195,-29.762093,-29.340461,-26.626012,-6.895669,7.486188,14.842601,20.252641,12.991842,25.617282,30.864424,32.460648,27.59658,37.091151,39.369383,39.078723,38.620819,47.590487,48.218068,46.168844,25.287975,48.471256,70.966861,90.48769,49.911884,80.853733,98.200275,111.043911,41.108413,75.771503,95.881771,108.997089,32.091591,64.632511,82.705204,94.235103,23.796123,48.454468,63.486477,75.310718,-12.917507,-14.655843,-10.176777,-8.581566,14.799807,29.67763,36.541411,40.748689,32.045499,46.482956,52.575054,54.954853,44.534113,60.019078,64.332246,64.268754,52.480131,68.162846,71.241672,69.534977,-9.668867,323.447747,-67.134344,302.844957
13,7.799457,-2.186866,0.12529,0.03784,3.609043,7.346878,11.529076,12.451275,-14.184059,10.836708,30.529885,42.470032,-24.464824,4.717369,26.257576,42.984124,-29.967212,-8.108871,11.875397,26.933258,-32.053299,-31.273624,-27.912494,-23.471008,-18.644636,-27.636212,-27.131489,-24.378804,-4.355837,11.588502,18.216643,22.69109,15.595165,28.586316,32.984835,34.103394,29.835107,39.758657,41.264453,40.969546,40.546419,49.596807,50.749205,49.823604,25.083778,48.266258,70.715915,90.146724,49.84655,80.640461,97.956104,110.844234,41.126335,75.506458,95.56715,108.731792,32.113804,64.370453,82.482959,94.170284,23.76321,48.39711,63.437519,75.357776,-13.119925,-14.776812,-10.219804,-8.565708,14.918418,29.79103,36.572707,40.694806,32.09348,46.58272,52.603904,54.915358,44.443365,60.034393,64.329468,64.2424,52.290916,67.937791,71.031536,69.381133,-1.881621,321.362637,-67.021265,302.984553
14,-5.098457,2.380676,0.248348,-0.075446,4.126728,8.823441,15.911842,19.581264,-9.683453,16.975548,36.483902,47.768509,-19.563114,10.978123,32.020065,47.789131,-24.89518,-1.389462,18.180656,32.769447,-26.490234,-25.072666,-21.619228,-17.295273,-19.628357,-29.080925,-28.575744,-25.195552,-6.920826,8.924725,16.401576,21.621351,13.051987,26.927267,31.924284,33.199775,27.596864,37.938971,39.901671,39.478792,38.436618,47.137547,48.388771,47.265544,24.888485,48.082054,70.478302,89.793571,49.668251,80.361099,97.631699,110.523537,40.968258,75.199539,95.261307,108.415993,31.965362,64.107296,82.266861,94.052353,23.636261,48.284935,63.346733,75.316681,-13.282934,-14.825694,-10.168947,-8.401675,15.040412,29.985234,36.715448,40.792853,32.221834,46.874429,52.780794,54.945207,44.486664,60.24732,64.436863,64.230703,52.225448,67.836038,70.922188,69.303043,-6.989954,323.838757,-66.782793,303.004551
15,-2.429638,3.513598,0.174431,-0.071619,4.946423,10.023914,16.380421,20.005531,-5.919548,20.589489,39.607716,50.542065,-15.149311,14.054169,34.491886,49.722439,-20.651001,1.752914,20.494824,34.242474,-22.78759,-22.760147,-21.825806,-20.233372,-19.375266,-29.535568,-31.379373,-30.509186,-8.470452,6.121664,13.408127,18.700581,10.307675,23.726657,28.618809,30.518054,24.372863,34.695754,36.337364,36.278602,34.979423,43.362449,45.410759,45.487416,24.738258,47.936325,70.204536,89.353225,49.546703,80.151191,97.357818,110.287491,40.834991,74.917534,94.986534,108.220733,31.861919,63.847652,82.096596,94.094787,23.568638,48.231582,63.347706,75.444214,-13.543606,-14.974758,-10.118731,-8.163935,15.076833,30.068425,36.77799,40.790384,32.355426,47.135374,52.914707,54.903897,44.598445,60.47581,64.60317,64.286329,52.256077,67.823244,70.89119,69.247653,-9.429863,327.436956,-66.618633,303.017533
16,9.499157,-1.791713,0.183449,-0.132627,3.475376,5.298546,5.634956,3.437977,-16.114254,8.274536,28.425865,39.983231,-25.64835,2.415459,23.962807,40.459602,-30.596214,-9.557304,10.799103,25.779259,-32.12986,-35.747475,-37.413403,-37.915466,-18.192993,-27.802196,-29.404163,-28.559948,-6.703723,9.703188,16.547085,21.049876,11.912742,25.827888,30.339571,32.000262,25.64959,36.441253,37.761279,37.75808,36.291693,44.786191,47.516584,48.886764,24.468589,47.716037,69.987762,89.047096,49.717163,80.166984,97.295585,110.217842,41.012374,74.739784,94.716545,107.975669,31.946033,63.544361,81.765358,93.933059,23.503875,47.989757,63.05754,75.257606,-13.677198,-15.012711,-10.080681,-8.060022,15.285141,30.1569,36.8605,40.799164,32.526375,47.307052,53.085112,54.986593,44.670754,60.662901,64.819667,64.444138,52.243183,67.91524,71.042392,69.419801,0.063189,325.705225,-66.441289,302.944888
17,1.615528,1.351939,0.071582,-0.041546,4.291557,5.013989,3.273892,-0.305076,-18.439442,5.218563,26.390247,38.638744,-28.33128,-1.078319,20.957279,38.55193,-33.260914,-12.478283,8.408466,24.037022,-34.503651,-40.020069,-43.295357,-44.98241,-19.412576,-29.71499,-32.458857,-32.735486,-8.146682,9.744524,16.802584,21.010084,10.672892,26.214446,30.026187,31.165828,24.399552,36.064982,36.88956,36.783856,34.696606,43.279555,45.846149,47.078601,24.342144,47.659024,69.923779,88.965855,49.83474,80.258,97.337986,110.220257,41.092038,74.737942,94.684742,107.893696,31.970021,63.507546,81.733029,93.969876,23.492089,48.006626,63.047619,75.230839,-13.925113,-15.215598,-10.163154,-8.032765,15.215462,30.198928,36.923832,40.851381,32.483385,47.43747,53.217123,55.072822,44.612005,60.744041,64.853062,64.417832,52.125326,67.846191,70.94059,69.311935,1.678625,327.096205,-66.369799,302.942383
18,-7.627579,4.255764,-0.074627,-0.094527,6.055825,8.969925,11.661839,13.218373,-9.846897,15.736233,36.374531,48.29044,-19.453411,8.320267,29.538174,46.438031,-24.709247,-2.818393,16.840199,31.783436,-26.221561,-30.024318,-33.134056,-35.005165,-21.924842,-33.856503,-38.157382,-39.385339,-12.12452,3.754512,11.402436,16.727903,6.857828,21.970365,26.201948,28.071676,20.945481,32.015774,33.164714,33.316213,31.232148,39.247142,41.788962,42.530325,24.343529,47.72334,70.033516,89.135994,50.08096,80.424752,97.440674,110.237938,41.302346,74.92804,94.885804,108.067887,32.118874,63.684792,81.873642,94.056359,23.564873,48.026482,62.990868,75.04683,-13.987135,-15.273026,-10.224139,-8.110151,15.080204,30.17151,36.967464,40.91297,32.386769,47.413547,53.294804,55.211525,44.570015,60.709287,64.80003,64.343447,52.136379,67.91461,70.975763,69.303339,-5.941613,331.384209,-66.437085,302.880096
19,-4.082702,3.036219,-0.113971,-0.123415,7.64629,12.263637,15.194011,17.46429,-3.502236,21.631199,41.543667,53.61327,-12.81839,13.523071,34.294155,51.379635,-18.772808,2.207771,20.927662,35.356098,-21.650013,-24.150341,-26.727928,-28.249031,-22.009786,-34.677093,-40.979451,-44.594332,-14.396244,-1.173172,5.809688,11.03938,3.688315,17.761604,22.074735,24.599993,17.635868,28.523886,29.921668,30.645235,27.985929,36.508671,39.424464,40.432527,24.443859,47.796901,70.170101,89.430484,50.386345,80.539982,97.470051,110.169445,41.663292,75.131458,95.019893,108.162197,32.449596,63.881069,81.956508,94.053188,23.783672,48.060619,62.921493,74.86948,-13.929275,-15.268715,-10.2932,-8.185943,15.168273,30.229976,37.049247,40.997939,32.445174,47.370137,53.339512,55.333063,44.635149,60.706966,64.812467,64.382585,52.253137,68.084733,71.112145,69.389457,-10.016041,334.434492,-66.542782,302.770745
20,12.061832,-5.131287,-0.041176,-0.044275,4.940083,6.105995,4.357224,1.362042,-16.119758,6.520935,27.524986,40.410645,-25.991237,-0.358646,21.687607,40.137177,-31.21281,-11.730881,8.852257,24.834297,-33.134994,-38.601791,-41.808048,-43.496258,-20.577077,-31.908031,-36.053768,-37.793487,-10.396632,5.499208,12.089607,16.560411,8.012116,22.594933,26.507674,28.097451,21.667763,32.982933,34.226302,34.413999,32.105485,40.869387,43.760616,44.937974,24.588581,47.930225,70.364399,89.73016,50.724197,80.765041,97.630291,110.178165,42.01411,75.42786,95.204121,108.184559,32.728489,64.143917,82.048611,93.926273,23.933098,48.131401,62.851375,74.593128,-13.826349,-15.245621,-10.343292,-8.243618,15.130852,30.199459,37.085408,41.087292,32.331059,47.229618,53.329348,55.431283,44.522825,60.540536,64.684619,64.28602,52.207763,68.061539,71.074206,69.332449,2.057064,329.315079,-66.572685,302.738344
21,-9.477527,1.050585,-0.062119,-0.097355,7.379367,11.839611,14.236782,14.785606,-7.015789,18.114246,38.289814,50.409107,-17.020512,10.618778,31.821224,49.470623,-22.693268,-0.661538,18.763927,33.85802,-24.858742,-26.88144,-28.157296,-27.863137,-22.350426,-34.051635,-38.545608,-40.453967,-12.326444,2.650068,9.570301,14.423797,6.629611,21.587635,25.658074,27.404425,20.670382,32.040572,33.377234,33.672302,30.926842,40.027617,42.117597,41.956836,24.842526,48.230839,70.669705,90.140774,50.82034,80.833615,97.667782,110.140629,42.105572,75.645573,95.417782,108.313374,32.825718,64.451535,82.296856,93.994389,24.014981,48.293084,62.953606,74.525357,-13.894164,-15.400121,-10.419431,-8.149968,14.755915,30.066275,37.003428,41.07898,32.024603,47.012478,53.192385,55.401568,44.352196,60.351184,64.526846,64.20299,52.169391,68.064132,71.043515,69.26246,-7.41283,330.378342,-66.627171,302.653667
22,0.660575,-0.06674,0.143658,-0.186487,5.614781,9.85262,13.604268,15.20913,-7.346809,18.290875,38.60677,50.680561,-16.388992,11.33511,32.777493,49.857869,-21.431991,-0.2345,19.258976,34.096951,-23.102989,-26.219432,-28.249855,-29.322063,-21.619239,-32.700449,-36.606385,-38.555648,-11.331855,2.997797,9.82512,15.041783,7.172335,20.698059,24.791815,26.70441,21.009602,31.628363,33.153969,33.592693,31.366974,39.874229,42.410578,43.115126,25.097385,48.451744,70.887154,90.509377,50.965702,80.901123,97.654221,110.029404,42.213043,75.718163,95.384834,108.188141,32.889164,64.506409,82.292702,93.916283,24.034435,48.229374,62.819893,74.294426,-13.790731,-15.382571,-10.486059,-8.109928,14.593796,30.059743,36.99708,41.08723,31.787099,46.897833,53.171872,55.472643,44.122757,60.207442,64.486771,64.273213,51.992958,67.933284,70.977542,69.245776,-6.758257,330.323581,-66.489515,302.479159
23,2.514302,-2.25163,0.45845,-0.521531,3.643215,6.824043,9.381019,8.782551,-9.639462,15.728393,35.807945,47.802292,-18.256897,9.585617,31.336738,48.379669,-22.792317,-2.122525,17.648941,32.506096,-24.052483,-28.213806,-30.374874,-31.473645,-19.432151,-27.977975,-29.635221,-30.760041,-7.94792,6.504813,13.35533,18.410774,9.451765,22.324874,26.560865,28.491702,22.306447,32.930383,34.950079,35.803457,32.25082,41.009301,44.17848,46.025657,25.193871,48.556343,71.029747,90.699257,51.192353,81.07441,97.837235,110.183556,42.424977,75.843201,95.428551,108.166306,32.976746,64.491692,82.276543,93.906487,23.947907,48.078221,62.665467,74.1614,-13.703503,-15.263961,-10.356631,-7.861149,14.481966,30.126606,37.159323,41.373504,31.43895,46.712964,53.217172,55.737021,43.692368,59.970407,64.546174,64.620139,51.572524,67.706424,70.969785,69.451479,-4.266351,328.098097,-66.053461,301.983774
24,5.951088,-7.623718,0.898247,-1.062651,2.32711,3.961841,4.173248,-0.003262,-15.851349,8.816574,28.860397,40.103233,-24.748341,3.870369,25.696701,42.490722,-29.26949,-8.100952,12.307228,27.09201,-30.36509,-35.946831,-38.681076,-40.233342,-18.494335,-24.925208,-23.972473,-23.321624,-2.06481,15.237544,22.039994,26.565126,15.742242,29.873948,33.66241,34.941285,28.243008,39.688966,41.110806,41.799076,37.976726,47.482115,51.090685,53.64609,25.426907,48.787251,71.17955,90.661835,51.443493,81.332176,98.11496,110.512985,42.678909,76.029236,95.594307,108.537209,33.049187,64.418907,82.261345,94.043999,23.648907,47.631569,62.128807,73.711372,-13.760326,-15.41946,-10.355396,-7.842957,13.995534,29.761859,37.173155,41.840449,30.692623,46.23404,53.304957,56.51688,42.878696,59.073927,64.263765,65.031792,50.913548,66.986613,70.677719,69.684686,1.648487,320.506337,-65.191464,300.953081
25,-3.370079,-2.64829,1.975628,-2.672903,2.06195,3.273227,4.027393,0.221958,-12.116719,10.453903,27.380287,37.167434,-20.061905,8.237365,28.776397,43.932266,-24.06641,-2.158585,16.597686,29.940651,-24.798031,-26.67976,-26.781716,-25.966061,-9.563348,-10.429953,-6.759669,-3.827266,4.032129,18.851524,25.724394,30.422353,16.309124,30.282093,35.15567,37.025942,24.309544,36.186964,39.000585,40.44689,29.833538,40.552928,44.951299,47.598243,25.814793,49.474457,71.733707,90.985851,51.610165,80.996258,97.580761,109.990643,42.907642,75.489018,94.788242,108.029881,33.184673,63.791645,81.606113,93.67091,23.461945,46.914986,61.183434,72.655872,-14.328146,-15.832942,-10.554764,-8.128281,12.076095,27.948038,36.0851,41.623507,28.846606,45.399273,53.594022,58.02596,41.413407,58.08902,64.279264,66.204531,50.026898,66.281064,70.43142,70.006047,-1.817974,317.958302,-63.312218,298.380433
26,14.163562,-6.567724,3.449238,-6.565588,-6.248313,-10.612106,-12.68383,-16.905246,-25.39104,-13.7322,-2.513832,4.374505,-29.529132,-13.483635,0.675202,11.404793,-30.043533,-18.287441,-5.68547,3.04382,-27.628269,-33.283138,-36.034984,-38.189827,-8.649035,-8.595559,-5.351205,-2.375971,9.424891,23.986453,30.38466,34.325658,20.856856,35.113729,40.368492,42.240492,28.141231,41.022638,44.871183,46.809158,33.086179,45.007096,50.72858,54.716953,26.038078,49.754894,70.36029,88.234337,52.02539,79.395172,95.018715,106.646873,43.042785,72.591293,90.191299,102.355453,32.664219,58.750236,73.743725,83.767399,21.775108,41.09388,52.197418,60.707897,-12.095646,-11.637261,-4.806344,-0.705696,12.392653,29.319738,38.57915,45.153828,27.643807,45.660527,55.434728,61.647511,39.131038,57.489658,65.658793,69.872493,47.097323,63.856373,68.989857,70.158138,12.213953,311.619144,-59.994615,292.043411
27,12.198945,-7.344582,3.169555,-15.115494,-11.420334,-21.121834,-28.479355,-35.932721,-32.880948,-32.819596,-28.426335,-25.583703,-33.753296,-30.284535,-24.051636,-18.419278,-31.74685,-29.490807,-24.041806,-20.542248,-27.69674,-35.66557,-39.643857,-42.799851,-7.465872,-7.100161,-4.574779,-1.359361,12.050704,26.700582,33.456991,37.176378,22.980428,39.064113,45.263299,47.682631,29.975045,45.061634,50.078658,52.871345,34.490754,48.93094,55.643679,60.109432,27.623561,52.410656,72.381249,88.425957,54.548047,81.651249,94.725243,103.801198,45.28481,73.563149,87.578247,96.894494,34.340579,58.338433,69.245207,75.97367,22.63147,39.827712,47.081973,52.038214,-11.676479,-10.443446,-2.69054,3.42913,8.636468,26.233668,36.065717,42.573272,23.280565,43.133113,53.312082,59.488136,35.049367,55.18604,63.80118,68.33311,43.9451,61.386806,66.325845,67.573698,24.270607,304.6226,-56.967351,277.275955
28,14.805713,-8.674352,2.8839,-23.404481,-15.129639,-29.272659,-41.197346,-51.564537,-40.502174,-51.526153,-53.805668,-55.258232,-38.562057,-46.854057,-48.387955,-48.093635,-34.039638,-40.905887,-42.369896,-43.872757,-28.122608,-38.419155,-43.734157,-48.041107,-8.048203,-7.752233,-4.498925,-0.176668,12.938576,27.90506,34.84325,38.390083,24.717047,42.255992,49.005053,51.745746,32.424499,49.129443,54.88095,58.218165,37.054915,53.447155,60.363078,64.636231,30.717242,57.471085,77.739933,91.605595,58.941376,87.584702,96.438893,101.120774,49.347073,78.174923,86.63657,91.276119,37.998476,62.399082,67.917818,70.077501,26.002362,43.093123,45.811644,46.593973,-12.918131,-12.251313,-4.43426,4.131751,0.914678,18.731994,28.462129,33.661502,15.925783,38.066566,47.303347,51.442934,29.320892,51.393491,58.773758,61.488782,40.666055,58.831908,62.296162,61.984495,38.909935,296.350021,-54.249836,254.273247
29,13.351296,-4.779371,5.32124,-34.804792,-19.725609,-37.569718,-51.311222,-62.245835,-44.822033,-65.006173,-73.401959,-78.513131,-39.562523,-58.256928,-66.611092,-71.28875,-31.543305,-46.654908,-54.452179,-60.468384,-22.781559,-34.336235,-40.880356,-46.449452,-7.467168,-7.513753,-4.453934,0.614392,10.307589,23.969744,31.594882,35.82418,21.790745,39.135719,47.028583,50.742747,29.503186,46.732835,54.218097,58.619814,33.828642,50.643736,57.842019,62.120149,31.45408,59.147495,78.930702,90.75206,61.90234,90.751934,94.913131,95.196842,53.294861,81.418739,84.22142,84.018173,42.997232,66.4766,66.440031,64.041624,32.258503,48.788183,47.025781,43.445142,-15.24509,-16.342191,-8.87401,1.562773,-10.210876,6.8874,16.737122,20.687407,4.638258,27.002973,35.800696,38.072383,19.284431,41.415995,48.204508,49.416106,32.769585,49.96177,52.689243,51.460681,52.105408,292.136571,-49.084419,220.034376
30,23.481399,-17.873706,-1.2029,-40.213795,-25.864586,-47.005348,-62.201134,-72.389751,-53.586307,-80.859535,-93.317631,-101.178016,-45.098774,-74.517906,-89.672676,-98.65583,-34.319046,-58.762825,-73.000831,-83.152588,-23.263161,-39.300361,-49.228912,-57.793041,-15.817208,-17.696878,-13.863474,-8.499747,7.997777,24.323129,33.210779,38.110391,25.178064,45.076578,53.647869,57.919886,37.749126,57.295033,65.442506,70.213911,45.909554,64.499441,72.25244,77.168502,33.457517,62.107738,81.774707,94.00906,66.339374,94.158897,98.470951,98.626625,57.328296,84.029903,86.22607,84.993725,46.688982,68.360172,67.822923,64.890787,35.548256,50.115743,48.230993,44.511286,-10.732413,-12.129177,-5.943175,4.422867,-19.610603,-9.476898,-2.704384,-0.294204,-8.919674,4.501938,10.726275,12.05255,3.220166,16.841961,21.483024,22.051887,16.034914,25.958669,26.422297,24.486483,75.4613,275.24474,-50.412826,180.802456
31,20.606186,-22.630131,-3.817955,-44.498298,-27.822349,-51.093292,-68.399574,-80.129265,-55.733643,-84.268444,-96.684906,-104.008037,-46.382606,-77.010143,-92.326778,-101.27219,-35.068314,-61.183021,-75.532299,-85.180962,-24.158546,-41.995148,-52.046471,-60.017578,-14.0487,-11.943937,-3.139106,5.746197,8.342259,26.844757,37.744471,43.973346,26.042607,48.760287,58.72878,63.663638,39.501455,61.921276,70.768727,75.534623,48.306706,68.84677,77.190807,82.318129,35.276247,65.132434,86.230396,99.132145,70.089214,98.531067,102.837719,102.280037,61.12231,88.457393,90.51353,88.233547,50.707609,74.07613,74.531942,71.637891,40.000419,56.18094,56.403723,54.157716,-9.946695,-14.099002,-10.511476,-1.228704,-34.637504,-33.629904,-30.351451,-29.417841,-27.416751,-24.412309,-21.18527,-21.206432,-17.180651,-13.952919,-11.795199,-12.350663,-4.69313,-2.665123,-4.358122,-7.329305,95.909283,253.917545,-54.388984,137.607094
32,20.554115,-25.919686,-4.143975,-40.291415,-29.888923,-53.269088,-69.703468,-79.697845,-58.836959,-87.222187,-96.825061,-101.232341,-49.616844,-80.695129,-92.222843,-97.020881,-38.165176,-65.259384,-76.326027,-81.822464,-26.7201,-45.729103,-54.775909,-60.20169,-12.612126,-7.253265,5.505395,17.501809,10.795936,30.868612,39.873501,44.491382,27.997847,52.573943,60.46593,63.503951,41.19638,64.918789,71.303461,73.698771,49.692224,70.505398,76.9957,80.208611,37.19299,67.52995,88.806691,101.540303,72.38641,97.867184,103.638256,105.647358,62.001172,86.509312,90.974614,91.23341,50.32544,71.545796,74.627564,74.451085,38.463181,52.445206,54.61306,54.727387,-8.008189,-13.48558,-12.23598,-5.761925,-41.970242,-50.482172,-52.845046,-55.491452,-39.292985,-47.30131,-49.47209,-52.830219,-32.281628,-39.595692,-42.386582,-46.011461,-21.637851,-28.333078,-33.544948,-38.870125,116.419389,230.084014,-58.576968,99.401834
33,27.98497,-36.924893,-3.260273,-40.952052,-32.000976,-58.076362,-76.509246,-86.217819,-63.892707,-94.94062,-101.118461,-101.10736,-55.373428,-89.435577,-97.00811,-97.401168,-44.767593,-75.225265,-82.692718,-83.868255,-33.707931,-55.680175,-63.117668,-65.659355,-14.45847,-9.059403,4.275549,17.798543,6.53194,26.259381,34.095798,37.605766,25.163194,50.299119,56.857778,58.183461,39.954776,64.123468,68.86396,69.179789,50.084795,71.300743,76.298673,77.49505,35.557721,64.496739,84.247925,97.155693,70.752915,93.960389,101.441781,104.671441,59.718396,82.71151,89.749237,91.531472,47.316159,66.485527,72.306759,73.883767,34.290093,45.408646,49.848164,51.681199,-4.629145,-10.974568,-11.959944,-8.237147,-49.528493,-68.719156,-74.139045,-76.24847,-51.822286,-72.513009,-76.128934,-77.697438,-48.624671,-67.338077,-70.699782,-72.317958,-40.73369,-56.274163,-61.504849,-65.022511,144.675476,195.563222,-61.566124,60.853883
34,32.002236,-47.320409,-7.167938,-29.917488,-34.700432,-63.313797,-84.346184,-93.934113,-68.527451,-103.813385,-107.423172,-103.118614,-60.837959,-99.436936,-103.824097,-99.832718,-51.419769,-86.704399,-91.307442,-88.037979,-41.258469,-67.655022,-74.340729,-74.503533,-17.581862,-13.733101,-1.334575,13.109334,-0.352774,16.749076,25.481011,28.826864,19.341618,42.869173,50.03022,50.527595,36.246608,59.087283,63.659364,62.479196,48.961413,69.841747,74.617919,74.861636,35.450363,64.270855,83.551094,95.874344,70.145222,90.977761,101.836121,108.201897,56.742794,76.852925,87.753205,93.117714,41.950196,57.386982,66.085362,70.684044,26.136475,32.53917,38.243969,42.073849,0.139889,-4.812766,-6.58549,-5.497837,-53.14117,-80.378498,-89.798462,-92.440318,-59.861418,-90.936034,-98.801299,-101.064683,-59.992267,-88.597318,-96.341221,-99.392324,-54.166455,-76.8124,-85.281111,-90.497285,177.019753,150.416989,-68.392021,33.110571
35,24.51297,-41.199826,-0.928837,-23.836937,-33.690514,-61.584229,-82.190781,-91.705719,-64.253037,-97.891915,-100.575279,-94.703751,-57.728829,-95.167282,-98.035195,-91.767723,-49.832245,-84.372734,-87.222084,-81.577973,-41.292641,-67.631424,-73.64859,-72.234696,-17.000049,-17.665379,-10.878236,-1.326782,-15.424555,-7.220049,0.272443,4.066833,0.188475,14.134021,20.98957,22.10708,14.990425,29.192538,33.630151,33.347168,27.515959,41.306129,44.979395,44.94781,33.778954,61.603569,79.821041,90.060139,67.270329,87.684185,97.9567,104.426709,52.897396,71.373997,81.28513,86.658657,37.164391,50.526421,57.347695,61.104882,20.404198,23.638756,26.584259,28.590683,-0.852088,-5.822089,-6.900967,-4.916118,-55.480659,-83.56616,-94.304365,-98.746332,-63.127212,-95.355314,-106.43034,-112.015458,-63.596305,-93.377109,-104.369022,-110.798434,-57.91339,-81.253335,-91.25442,-98.529387,201.630736,111.340121,-69.222845,11.396592
36,21.087021,-42.958977,2.160508,-15.623318,-31.349098,-56.048561,-75.008103,-84.536591,-55.464501,-86.157212,-89.100884,-82.793656,-50.455307,-85.068421,-88.127632,-80.829575,-44.910439,-77.189186,-79.923729,-72.971306,-38.849465,-63.946495,-70.158074,-68.178841,-19.569175,-27.848911,-28.390339,-24.683937,-34.059255,-36.869998,-30.895096,-26.207443,-22.165187,-20.422831,-14.18591,-11.979061,-9.200157,-6.56197,-2.316771,-1.192006,3.246237,7.75106,9.693172,9.472822,32.028797,58.432674,75.06277,84.67567,65.334652,85.335376,95.809124,103.419513,50.261535,67.671146,77.734439,84.646762,33.470558,44.745781,50.83144,55.397174,15.548091,15.734218,16.890266,18.622627,0.422638,-3.027468,-2.305945,1.435426,-50.965085,-77.29141,-88.122889,-93.091185,-59.577409,-90.65376,-104.120633,-112.300491,-60.323434,-89.85752,-104.460498,-114.542642,-54.600418,-78.013377,-89.889019,-99.300766,222.834658,70.181353,-66.945436,-2.426517
37,23.375908,-46.946455,4.719909,-10.60375,-29.647087,-52.865158,-71.274651,-82.219712,-48.99392,-75.304757,-80.526421,-77.391289,-44.843285,-74.006974,-79.780426,-76.689125,-40.955384,-68.423447,-73.361802,-70.003189,-37.071877,-59.052864,-65.863404,-65.912156,-23.680567,-39.233717,-46.538852,-48.860359,-52.501179,-66.073475,-62.499617,-58.664361,-42.693342,-53.41925,-49.634938,-47.897346,-30.387094,-38.996324,-36.523281,-35.632705,-17.245982,-21.372271,-21.394554,-22.263537,28.099858,52.50745,67.800396,78.481098,63.308567,85.253392,96.765278,105.059017,49.540215,67.65968,77.225041,83.751606,33.518143,44.575699,50.095871,54.172589,16.042259,15.820015,16.567051,17.998581,2.803488,0.984493,4.164065,11.369505,-47.740657,-70.72744,-78.784423,-81.364491,-57.175916,-86.448928,-98.642606,-105.551967,-58.802157,-87.425863,-101.407681,-110.884579,-54.069414,-76.761091,-88.100739,-96.942975,246.232436,24.292343,-62.203657,-11.972822
38,13.821304,-41.915031,7.322514,-0.711087,-23.589867,-41.81781,-57.737686,-69.452866,-37.586311,-57.08606,-65.727768,-67.488625,-35.767799,-58.151024,-67.253517,-68.883247,-34.687317,-57.08194,-65.773842,-67.332687,-34.136421,-54.173218,-63.883919,-67.93792,-24.622381,-45.228845,-57.858972,-64.86522,-64.405575,-87.413352,-87.342154,-85.431658,-58.185984,-80.49705,-80.369714,-80.086981,-47.731793,-66.037184,-66.399628,-66.833249,-34.831577,-45.167382,-46.577749,-48.013443,25.579319,48.396869,62.613602,74.152153,63.199173,84.670486,99.08091,111.591224,50.315025,66.52185,78.067955,88.051643,34.570461,43.393215,50.39439,57.624069,17.250904,15.271259,15.928436,18.48365,5.895034,6.567595,12.232837,22.033714,-38.395523,-55.927144,-62.860807,-65.636729,-49.105039,-74.919132,-88.048791,-96.728846,-52.422641,-78.899384,-94.781689,-106.549502,-49.3554,-70.836312,-83.334688,-93.683967,259.8265,-16.516321,-55.108383,-11.577542
39,9.57502,-38.153369,10.315784,-0.141902,-18.055184,-32.995468,-46.819496,-59.274811,-30.03772,-42.728234,-54.064385,-60.197342,-29.961342,-45.867142,-58.325295,-65.017182,-31.180367,-49.163796,-61.737648,-68.590027,-33.434578,-52.109528,-64.545662,-72.573784,-24.765595,-47.847514,-63.047967,-73.597985,-71.219569,-101.521086,-107.394952,-108.849162,-67.77607,-99.757071,-105.909107,-108.340835,-59.154255,-85.658723,-90.947637,-93.852333,-47.119507,-62.604967,-67.190401,-70.733924,24.807141,47.025467,61.188,74.385716,64.597206,86.226849,101.487683,115.417294,52.94727,70.12452,82.475819,93.548596,38.041683,48.826733,57.300865,65.674427,21.320984,22.2705,24.619572,28.392403,8.834638,11.441437,18.854049,31.987275,-28.867533,-42.996651,-49.227855,-52.715376,-40.969225,-63.43027,-75.818681,-84.919994,-46.554327,-69.756106,-84.179279,-95.159061,-46.415457,-66.417125,-78.070465,-87.937166,269.42506,-52.171114,-44.769059,-9.220868
40,0.611274,-32.260641,11.257153,-2.69233,-12.30027,-24.861579,-38.640357,-51.839424,-23.167671,-32.957702,-44.260185,-52.337699,-26.072639,-39.161224,-52.513824,-62.304817,-30.663642,-47.724494,-61.954078,-71.859832,-36.137695,-55.514053,-69.668426,-80.457229,-29.416547,-54.61242,-69.885794,-79.163377,-76.121521,-108.346381,-119.151255,-125.473802,-71.420283,-106.506567,-118.939602,-126.279137,-61.406385,-90.069729,-100.615257,-107.971821,-47.498695,-62.908023,-69.768774,-75.618811,25.667599,48.176548,62.701515,76.679855,65.801124,86.994163,103.113762,117.886871,54.788601,73.174278,86.919113,99.04882,40.086868,52.908325,63.430012,73.075321,23.385052,27.226364,31.844742,37.075252,11.316528,15.567822,24.591737,38.863085,-19.741323,-31.586898,-37.329804,-40.419585,-32.211454,-52.172707,-63.518969,-72.054339,-38.888977,-59.752083,-73.292157,-83.556443,-40.248869,-59.017098,-70.589638,-80.425132,270.594841,-81.432037,-32.953399,-8.91348
41,-7.418243,-27.281851,12.392189,-9.699804,-7.738151,-20.115715,-34.504509,-48.944137,-19.650558,-28.177551,-40.681091,-51.914749,-24.240669,-36.580078,-51.016045,-63.97776,-30.862038,-49.368645,-65.521271,-78.623932,-38.616829,-60.534874,-76.455093,-89.686981,-31.494081,-56.871148,-71.652578,-79.980832,-76.692934,-110.558977,-125.453458,-135.250646,-70.688858,-107.820099,-125.281974,-136.197673,-58.947616,-87.551386,-102.492821,-113.622413,-43.201382,-56.158702,-63.950249,-71.518688,26.794533,50.325233,65.661484,80.082298,69.820198,91.757995,109.004677,125.020248,59.576958,78.659843,93.42263,106.605469,45.211647,58.718307,70.52536,81.540161,28.704414,33.987636,39.922405,46.488304,12.651936,16.998591,25.823355,40.446797,-17.127002,-27.937801,-32.718537,-35.075828,-29.755443,-49.818081,-60.247759,-67.974471,-36.800196,-57.803141,-70.670087,-79.868088,-38.52365,-57.664653,-69.417529,-79.11691,263.825706,-105.164274,-19.912102,-15.06367
42,-13.121132,-17.314819,12.016102,-17.67537,-3.654098,-15.860229,-31.019691,-45.848236,-19.356285,-29.180008,-42.605575,-54.985565,-26.321937,-40.928444,-56.528572,-70.614532,-35.044807,-56.779335,-74.482635,-88.729591,-44.569267,-69.791336,-88.067917,-103.516502,-32.020166,-57.830622,-72.251915,-79.188249,-77.864246,-111.610317,-126.957681,-137.391057,-70.940457,-107.9726,-125.805193,-137.385572,-57.832329,-85.457219,-100.587234,-111.809686,-40.394859,-50.006425,-56.565196,-63.311298,28.438648,52.73727,68.9267,83.265804,72.124637,94.530933,111.698467,127.16978,62.528331,82.174495,97.275341,110.030948,48.606914,63.128757,75.342487,86.047863,32.333587,38.724952,45.197101,51.849735,12.905873,16.612515,23.452997,36.251295,-18.053085,-28.85774,-33.768732,-36.062235,-31.507052,-52.601935,-62.545458,-68.776782,-39.030222,-61.253337,-73.030817,-80.228442,-40.903628,-61.021995,-72.414668,-80.837761,251.507732,-118.658397,-7.092842,-28.918344
43,-25.000465,-10.342082,8.512069,-18.966022,-8.316284,-23.634499,-39.382141,-52.945473,-28.866371,-44.703118,-58.933686,-69.989914,-33.77076,-55.255852,-68.839371,-78.958512,-40.048485,-66.953316,-81.286286,-90.61084,-47.02993,-75.128082,-91.061302,-102.846657,-34.114247,-59.895735,-74.790512,-81.320254,-79.508305,-108.512784,-120.160459,-127.434788,-70.272238,-99.26256,-110.416336,-117.621875,-55.036966,-75.338133,-84.653519,-92.235961,-36.060438,-42.537729,-46.047977,-50.248052,31.527409,56.990078,74.092839,88.477673,72.505543,94.413586,110.808575,125.739544,62.322201,81.989674,96.903317,109.434987,48.299206,63.61282,75.659214,85.986248,32.122433,40.154675,47.410687,54.781964,10.613445,11.549402,15.573973,25.352623,-22.816768,-37.183125,-45.168262,-50.675692,-35.237073,-58.59684,-70.584472,-79.037489,-41.906087,-65.727821,-79.362062,-88.72163,-43.010067,-64.000594,-76.807104,-87.023306,226.676022,-124.520947,1.587982,-43.404834
44,-34.862549,-2.062899,3.840083,-24.244383,-12.320812,-29.935776,-45.127956,-56.858837,-34.260853,-51.546741,-64.470818,-73.005638,-36.170345,-62.612457,-73.035027,-78.994148,-39.842846,-71.616509,-81.667442,-85.933228,-44.404507,-74.973267,-87.568623,-94.845772,-36.985077,-63.109614,-77.297522,-81.2529,-78.800436,-102.174765,-112.016174,-117.908347,-65.615474,-84.546755,-90.002275,-94.097305,-47.121866,-58.513947,-63.773983,-69.123757,-25.905902,-28.01678,-29.597859,-32.211531,29.091877,53.427103,70.763139,85.455946,66.054101,86.732214,102.955484,117.260416,58.726873,77.696909,92.005537,103.370882,47.562372,63.03737,73.897916,82.866537,34.13257,41.93886,48.149751,54.30364,3.842604,-0.046299,0.197822,6.18949,-34.658648,-52.934755,-61.247446,-66.266666,-44.72821,-71.33198,-82.596785,-89.485979,-47.964906,-73.367851,-86.257998,-95.080403,-45.101608,-65.157862,-76.651052,-85.68706,191.036036,-122.64726,4.650628,-63.712631
45,-43.18103,1.732108,-0.567032,-26.566908,-16.229473,-35.099144,-47.324215,-55.750431,-35.059239,-50.117764,-60.641625,-65.521752,-31.730496,-61.868019,-69.00103,-70.81968,-31.831593,-68.748322,-74.770043,-74.494057,-34.056141,-67.876717,-76.897488,-79.334633,-40.607853,-68.30049,-82.170913,-82.662232,-75.446857,-94.043739,-103.786078,-109.430037,-55.632615,-63.81983,-64.604216,-66.176246,-31.573773,-33.561883,-36.792103,-41.47066,-6.973506,-3.873316,-5.74674,-9.090957,20.777618,42.531595,60.478174,75.826269,54.781007,73.027685,88.137468,100.306452,54.328977,72.021875,84.870466,93.646791,49.848009,65.68226,73.587667,79.250158,42.389139,50.508836,53.839548,56.688223,-7.38057,-17.722956,-22.266259,-19.852643,-54.096081,-76.943976,-83.371028,-85.344866,-61.463175,-92.096361,-100.026675,-101.951389,-60.016428,-86.232264,-94.747194,-99.340418,-51.75091,-69.075443,-76.30013,-81.266295,146.37957,-117.685751,2.60816,-87.050138
46,-28.525132,23.654903,-7.687626,-25.341112,-19.982563,-41.514015,-54.762187,-62.305767,-45.62463,-64.981109,-71.226368,-70.907558,-41.065212,-75.010002,-78.202789,-75.32135,-38.520778,-76.971965,-78.378799,-73.060958,-36.875827,-70.49842,-76.644607,-75.578384,-40.783894,-68.726663,-83.056291,-83.398822,-67.044176,-82.495703,-92.947615,-98.99092,-44.350595,-48.855413,-49.649699,-50.826433,-19.434793,-19.400049,-22.269616,-25.865049,4.254951,8.835345,6.909254,4.12812,22.904079,46.674574,66.739225,82.186357,50.052114,67.023828,79.422346,88.22402,47.546579,64.216146,76.354219,83.474355,41.957754,56.61006,64.370699,69.520265,33.516157,39.366526,41.079969,42.081293,-8.204274,-18.695276,-24.006833,-24.147962,-57.875386,-80.52019,-85.333988,-85.978262,-67.387354,-98.781194,-108.062636,-111.087743,-67.315852,-94.596898,-104.674396,-111.193762,-59.501405,-78.339062,-86.8521,-93.526614,115.589298,-92.033163,-7.344606,-110.393565
47,-20.605476,26.802844,-19.384495,-21.845184,-23.215565,-47.187652,-61.559772,-68.839817,-53.429524,-77.149332,-81.643495,-78.20097,-47.427223,-85.826923,-87.240875,-81.387869,-42.403759,-83.452738,-82.974678,-75.088938,-37.555378,-71.885937,-76.050642,-72.482609,-41.10487,-67.064256,-79.585445,-78.339016,-59.007678,-71.712615,-81.010855,-85.675429,-33.546617,-33.622457,-32.548721,-31.945202,-7.424193,-3.54234,-4.483568,-6.750182,15.964172,22.676718,21.881397,19.872054,21.213146,44.122759,63.224607,77.938059,44.834227,60.777792,72.766451,81.232332,40.774664,55.973883,67.204439,74.392599,34.420836,47.44705,54.334414,59.653616,25.559252,29.305842,29.335905,29.260237,-11.658654,-23.780021,-30.526179,-32.072695,-63.75748,-87.973968,-93.966059,-95.739218,-72.165647,-104.254567,-115.440222,-121.413319,-70.725819,-98.012233,-109.766716,-118.904133,-61.529216,-79.412089,-89.093167,-98.17657,91.782944,-65.618393,-29.929979,-132.626823
48,-4.823891,32.500767,-24.082718,-22.778295,-22.49097,-46.757309,-61.960613,-70.055271,-54.43642,-78.075296,-82.501916,-80.016609,-49.674568,-87.856647,-92.412712,-90.1308,-44.747303,-85.000986,-88.825721,-85.761228,-39.025509,-71.32996,-77.473279,-77.151454,-38.6962,-61.247629,-69.693545,-65.931324,-50.379256,-63.214789,-73.502162,-79.365583,-24.3612,-25.285806,-26.947171,-28.207931,1.483612,4.753371,1.61846,-1.97987,24.182062,32.362801,31.202863,28.629862,17.468926,38.581198,54.75067,65.357294,39.47814,54.86962,66.062491,73.048697,34.502455,47.779616,56.844275,61.857828,27.610823,38.211416,42.373415,45.396898,18.696242,20.199,18.162787,16.040571,-10.909164,-22.18937,-27.596088,-28.210126,-65.280166,-88.677517,-93.292405,-93.245156,-73.910413,-106.514616,-117.550904,-122.784707,-71.701359,-99.402228,-110.710453,-119.26098,-61.489393,-78.206833,-86.3105,-93.794973,84.162111,-35.14207,-56.809639,-157.429562
49,8.001137,29.206478,-30.127264,-9.696502,-21.947983,-47.336815,-65.383438,-75.952034,-57.956932,-85.567434,-91.810838,-90.611961,-55.416767,-95.840046,-103.613365,-103.317209,-50.750519,-91.36072,-98.994232,-99.1499,-43.924164,-74.914249,-83.525568,-86.354519,-34.919876,-53.225492,-58.440549,-54.066371,-43.704582,-57.719262,-65.987086,-70.19466,-19.68918,-22.350707,-24.269421,-25.325533,4.172479,6.631846,3.700199,0.468701,25.162095,34.542693,34.407215,32.466749,18.250511,38.281334,51.020554,58.412396,39.715954,55.615162,66.04438,72.479313,30.632355,42.464481,49.883091,53.848972,20.24849,27.620052,30.631519,33.104439,8.33234,5.893696,2.482887,-0.496055,-7.106784,-17.05991,-23.455736,-25.3138,-62.640487,-84.399856,-89.620458,-90.92359,-73.162843,-105.383089,-118.478793,-126.571817,-72.796484,-101.729211,-115.338046,-126.349928,-64.391665,-82.931438,-93.079166,-102.641155,89.776399,-9.642244,-89.323752,-170.832716
50,20.833008,24.372029,-29.402698,-6.472558,-23.445374,-49.676216,-70.909309,-84.168137,-65.371445,-100.482611,-110.059107,-111.575066,-65.711071,-107.931004,-118.199203,-119.187647,-61.721855,-100.696764,-110.3554,-112.120726,-54.14447,-82.652905,-92.908098,-97.872631,-28.485705,-41.460211,-43.696342,-41.207579,-36.278811,-50.608374,-54.824143,-55.450391,-17.85858,-25.414163,-27.521883,-27.421551,1.125028,-0.764155,-2.008015,-2.848111,18.55314,26.295549,28.303941,28.631641,23.34716,42.910663,51.922279,55.432869,42.977394,60.856521,69.797309,75.426899,25.99039,35.519165,41.054329,44.464187,8.578399,11.432956,13.27462,16.003944,-8.648461,-15.436787,-19.734696,-22.311379,1.574908,-2.920982,-5.639393,-4.39879,-46.160923,-64.927481,-72.021992,-76.123851,-59.034351,-89.850427,-106.792859,-119.42786,-62.264701,-92.21153,-110.351524,-125.691118,-57.970805,-79.69147,-93.825393,-107.283004,108.509108,9.22971,-120.826749,-182.805349
51,21.931412,-2.11605,-30.144528,16.355508,-23.218438,-50.375633,-72.88115,-87.681359,-64.340515,-98.933802,-110.945624,-115.009838,-64.57552,-105.974293,-117.786003,-120.515299,-60.856316,-98.556273,-109.479721,-113.053625,-53.94056,-81.349995,-92.023871,-98.008358,-25.004786,-34.329941,-33.963928,-30.006398,-37.024195,-52.998684,-54.842551,-53.440354,-22.72502,-31.595009,-31.371673,-29.538047,-6.778229,-10.229314,-9.90443,-9.725094,8.998461,13.520296,15.696562,16.554025,17.002133,31.15464,34.850876,34.754231,38.09998,54.874157,63.749314,69.43618,22.260361,29.657364,32.621235,33.887043,5.955895,7.057594,5.690518,5.30817,-9.693798,-17.720981,-23.639065,-27.613769,0.427686,-4.866371,-8.036529,-6.635499,-46.832965,-67.200443,-77.303533,-84.334288,-57.241766,-88.82185,-105.408947,-118.238178,-58.238838,-87.707144,-104.79628,-119.738923,-52.554581,-72.604033,-85.313473,-97.877713,129.429543,2.048755,-151.982254,-171.514746
52,19.713478,-15.660541,-17.413639,27.185075,-21.509926,-47.38607,-69.43705,-84.563416,-60.761353,-93.083061,-104.375817,-107.837094,-62.136955,-99.632492,-109.204216,-110.347607,-59.782219,-93.085007,-100.657105,-102.022671,-54.625878,-78.788635,-85.970398,-89.302506,-27.021214,-37.540156,-38.25179,-35.402641,-43.513085,-62.328013,-62.591279,-59.28929,-30.418527,-42.864048,-41.415893,-38.072516,-15.211618,-22.652953,-21.74818,-20.088499,0.369669,-0.340915,1.088404,2.674861,14.578663,26.575871,28.578289,27.126686,34.507977,49.332779,56.361591,60.350453,19.132897,24.871124,26.223805,25.784947,3.016022,2.457985,-0.704006,-2.892036,-12.41542,-21.732193,-28.696323,-33.877773,2.541014,-0.863579,-1.082626,2.893399,-41.547744,-60.611282,-69.46869,-75.582566,-51.882663,-82.189159,-97.534816,-109.286597,-52.935117,-81.404442,-97.821668,-112.617823,-47.205869,-66.86612,-78.562159,-90.263456,149.714298,-16.678117,-168.824616,-147.396002
53,15.444786,-28.252635,-9.478489,36.075882,-22.629707,-47.123177,-66.895203,-80.514404,-58.77356,-86.077744,-95.500259,-98.297241,-58.181946,-89.109696,-96.773117,-97.404053,-54.678154,-82.165672,-87.321602,-87.508278,-48.865288,-69.679459,-75.287361,-77.645851,-24.302433,-37.06277,-41.909424,-42.719818,-45.989508,-69.456684,-72.85078,-71.834288,-37.800292,-57.80704,-60.567771,-59.477674,-27.31791,-43.173548,-46.169576,-46.188285,-15.867058,-24.6442,-27.292506,-27.920134,14.123715,25.92746,28.971691,29.937676,34.595856,48.673302,55.263966,59.105988,20.184677,25.69717,26.913975,26.141442,4.906254,4.45768,2.326069,0.568886,-10.232048,-20.042976,-26.972637,-32.251133,3.431578,2.395758,4.603589,10.930848,-36.355772,-53.19888,-61.093831,-66.56564,-46.991195,-73.935995,-87.294816,-97.561097,-49.001282,-74.690901,-89.347122,-102.478086,-44.425715,-63.459478,-75.369893,-87.145255,166.690865,-47.291084,-176.771324,-113.680452
54,12.552521,-34.662359,4.224003,30.448992,-19.49524,-41.608475,-59.447846,-72.619057,-52.55143,-76.159035,-85.661064,-90.054749,-53.055222,-78.892136,-87.218262,-90.090798,-51.952584,-76.228775,-82.118019,-83.787003,-49.375054,-70.009896,-76.456604,-79.588028,-25.763911,-42.184732,-50.578601,-54.057885,-53.825605,-81.329717,-87.94609,-89.166001,-47.38835,-75.297143,-82.912497,-84.416331,-37.638741,-60.828129,-67.147305,-68.662811,-26.149885,-40.077431,-45.338384,-47.771875,13.007961,25.536541,30.258659,32.550591,37.097431,52.009964,58.948414,63.256508,24.971077,28.494644,26.22583,23.765488,11.318241,10.903278,6.267872,2.862305,-2.276665,-6.942741,-10.547333,-12.734882,7.287873,11.176337,18.714883,30.30948,-24.65308,-39.301195,-45.305814,-48.486536,-35.608076,-57.005779,-65.370763,-71.531188,-39.032815,-59.158855,-68.799432,-77.576407,-36.870736,-52.996813,-63.167027,-73.279757,181.809157,-83.497154,-169.98155,-84.775171
55,5.564735,-38.369353,10.642799,32.619618,-15.269417,-35.980797,-53.3619,-67.230652,-46.144752,-66.981445,-77.086121,-83.254486,-48.688705,-71.672127,-82.237541,-88.415451,-50.095184,-73.276176,-82.611809,-87.897972,-50.492477,-72.25898,-81.222954,-87.128609,-29.230348,-49.750447,-62.212909,-67.570035,-65.002335,-97.695267,-107.190059,-110.392203,-58.93583,-93.182471,-104.105016,-107.639038,-48.592704,-76.956838,-86.192397,-89.753633,-36.092819,-53.22544,-60.359005,-64.553314,12.805447,26.636547,33.096405,37.043873,45.325974,62.822617,70.131237,74.048184,34.07967,42.214829,41.42442,39.646557,20.211491,23.260827,20.420403,17.973954,5.554619,3.28608,1.231018,0.382176,11.342729,17.754874,26.875737,39.224436,-20.907634,-33.921128,-37.936937,-38.925252,-32.997287,-52.963013,-58.655923,-62.438327,-37.511946,-56.952059,-62.936199,-67.802381,-36.248054,-51.124475,-57.478352,-63.431622,191.677694,-121.915716,-155.034949,-52.204762
56,-12.121536,-34.11186,17.894017,15.195288,-11.512825,-29.303513,-45.374428,-58.650627,-38.010704,-56.589112,-68.514839,-76.92144,-42.913193,-64.581299,-77.730721,-86.74363,-46.988823,-70.798783,-83.790985,-92.596825,-50.193398,-73.333763,-84.672432,-93.139664,-32.502533,-55.84782,-69.480653,-75.294598,-72.761759,-106.22153,-116.650764,-120.902398,-65.201,-101.291175,-114.103824,-119.511545,-52.408884,-81.042357,-91.775418,-97.21648,-37.066001,-52.519896,-59.778022,-65.00533,14.956672,30.264747,38.682026,44.780502,50.841945,70.42963,79.927173,86.633857,40.399772,51.399009,53.266742,54.669914,26.581501,32.867729,33.275276,34.075081,11.187561,12.187431,12.638546,14.147964,13.221875,21.825276,32.889616,46.875726,-15.241508,-26.459959,-29.784187,-30.049939,-27.458006,-44.761249,-49.720437,-52.941178,-32.811359,-50.086809,-55.088787,-58.731425,-32.76086,-46.473314,-52.586762,-58.018186,183.93009,-155.099958,-132.767,-36.081856
57,-20.613419,-24.275078,20.477382,-0.235528,-9.710678,-26.591148,-42.259163,-55.721878,-34.728515,-51.692207,-66.613403,-79.062172,-39.817268,-61.366516,-79.020263,-93.002929,-44.759033,-70.972595,-90.05143,-104.375427,-48.909439,-74.573982,-91.644859,-105.916981,-30.712815,-54.686057,-69.101206,-75.573314,-75.165654,-108.25741,-121.15311,-128.081734,-68.964744,-105.382972,-120.948077,-129.307918,-56.706746,-84.405057,-97.197595,-104.979716,-40.896307,-53.496344,-61.073042,-67.757679,16.824154,34.317479,43.363804,48.616207,59.311661,81.914749,91.605423,97.125424,49.397827,65.425473,68.531708,69.914852,35.805016,47.457424,49.57893,50.810017,20.665512,27.076321,30.070164,33.19114,15.494413,26.862108,39.168564,52.613018,-10.830386,-25.372571,-30.30571,-31.129,-25.612503,-43.98108,-47.853556,-49.557361,-33.662484,-50.896888,-53.729951,-54.645243,-36.795416,-50.375637,-54.400341,-57.283863,167.127514,-177.836497,-108.478775,-34.778845
58,-34.050476,-16.251677,14.048447,-13.016995,-3.289398,-20.300812,-38.722458,-54.770828,-30.602028,-51.40995,-68.744007,-82.770126,-40.636963,-66.965629,-83.582977,-95.703827,-50.130203,-80.55146,-96.732136,-107.29953,-58.40871,-86.917831,-101.572471,-112.38248,-35.898707,-60.272063,-73.08368,-77.856162,-82.76145,-113.095652,-123.710957,-128.460799,-73.553205,-104.399755,-115.37417,-121.004778,-57.149542,-77.386972,-84.511293,-89.256412,-37.007839,-42.845957,-45.695912,-49.630383,18.333301,37.293125,47.037412,51.589322,64.930976,89.603142,99.00036,103.222369,55.01984,74.313011,78.205925,79.46396,41.11084,55.892901,58.220118,58.833343,25.751916,35.243703,39.349299,42.841967,15.655179,27.607166,39.283527,51.176628,-11.353871,-29.104994,-35.233208,-36.593813,-28.131297,-49.283449,-53.419635,-54.829333,-37.845985,-57.055375,-59.052698,-58.848573,-42.558723,-57.304907,-60.337639,-62.104784,135.114115,-190.313507,-92.393251,-44.021173
59,-44.32732,-4.760411,5.774059,-20.324678,0.061844,-15.28492,-33.289051,-48.321277,-26.699676,-46.695499,-62.664757,-75.545868,-38.678204,-64.443508,-77.794304,-87.071113,-49.410229,-77.543251,-88.831142,-95.228752,-58.31002,-84.187824,-94.641598,-101.627525,-35.997436,-59.70212,-71.889099,-76.287514,-84.572327,-112.207814,-121.937529,-126.343264,-76.175079,-102.321065,-109.616782,-113.108854,-60.832456,-77.020368,-80.347655,-82.567007,-41.778635,-46.326912,-47.250219,-49.533033,20.635915,40.740338,51.027869,55.193233,67.157762,92.581135,101.468485,104.485597,55.348149,78.722202,86.542397,89.375717,39.878643,57.113317,62.458449,64.5668,23.018569,30.117431,31.96243,32.960149,12.984905,22.927318,32.838006,42.384956,-18.53959,-39.012531,-47.018487,-50.097373,-36.162346,-62.545563,-70.667473,-74.667211,-45.865126,-69.863073,-75.273028,-77.432392,-49.631031,-66.835306,-70.277644,-72.144978,91.503653,-191.452185,-85.902334,-60.724118
60,-50.515488,5.568288,-1.985744,-25.572025,5.364716,-5.654594,-20.610958,-32.381916,-17.591285,-33.037479,-45.658916,-55.656486,-30.951816,-52.953952,-62.599983,-68.856628,-42.800983,-65.78128,-71.907806,-74.258194,-52.382938,-73.890827,-80.406818,-83.871711,-34.474498,-57.669461,-69.693995,-74.250757,-85.322174,-110.463399,-120.161462,-125.333629,-78.749215,-100.70179,-105.01456,-106.746053,-65.819521,-79.107867,-79.425992,-79.226306,-49.243557,-54.433533,-55.235678,-57.041608,22.368696,43.738186,54.789945,59.019991,65.249021,89.526775,99.208305,103.766218,52.96915,74.211078,81.542633,84.562494,37.904354,53.892626,58.829029,60.796944,21.47759,27.806654,29.28903,29.796221,8.424338,15.075184,21.741784,29.057929,-27.597103,-50.305784,-60.757481,-66.710351,-45.33026,-73.212481,-84.134837,-91.176329,-54.984177,-79.95788,-88.93131,-94.986961,-58.570449,-77.214916,-84.269338,-90.071896,39.407095,-182.897382,-89.469148,-83.309628
61,-53.25365,14.128683,-7.755249,-30.669735,11.639099,7.965065,-1.080483,-7.506981,-3.313271,-11.217568,-18.213684,-23.605362,-17.517815,-33.411759,-39.15976,-42.581268,-30.571083,-46.257317,-47.400467,-46.280846,-41.624039,-57.838143,-61.102158,-61.926052,-31.973209,-55.150818,-68.92803,-75.300552,-86.446409,-109.501079,-120.425444,-127.974115,-83.216473,-102.058819,-104.284415,-104.727732,-73.992638,-86.359515,-84.849209,-82.592286,-60.944382,-68.850627,-71.493395,-74.272593,23.084764,45.720234,57.921209,62.102251,63.395662,87.352237,96.341972,100.234079,49.821682,69.319095,74.946956,76.407194,34.410953,48.471651,51.408233,51.682606,18.048563,22.286424,22.065954,21.015043,4.113033,7.147942,9.867029,14.530759,-36.416333,-61.549469,-73.271731,-80.795501,-53.942482,-84.667642,-97.166423,-105.443294,-62.864972,-90.266918,-100.483717,-107.838492,-65.208976,-84.776932,-92.39559,-98.997566,-16.517189,-167.076598,-99.895031,-112.287262
62,-39.989491,30.470972,-18.667603,-25.202285,8.12653,2.225521,-8.079036,-14.717651,-10.420143,-22.401924,-29.199131,-33.216385,-23.835731,-43.610904,-48.184078,-49.318885,-35.367004,-52.550892,-51.871135,-48.223446,-44.406692,-60.195888,-61.09457,-58.826488,-31.953102,-51.700998,-61.853532,-65.461019,-78.620868,-97.267359,-105.150349,-110.195663,-73.53361,-86.728632,-85.740546,-83.81932,-63.020398,-70.756765,-66.750901,-63.507677,-49.567182,-54.279983,-54.967972,-56.554198,22.892149,44.441689,56.504156,62.708044,57.056105,79.374092,89.344883,95.463908,42.354836,57.904759,62.983235,65.022383,26.635174,35.654028,37.860718,38.571511,10.167326,8.983481,6.592386,4.288851,-0.625706,-3.270103,-5.664077,-4.002772,-48.291218,-71.511956,-83.43941,-92.456388,-62.697899,-93.840643,-108.356543,-119.295378,-68.175125,-96.68803,-109.642446,-120.358586,-66.609901,-86.635222,-96.731451,-106.29489,-59.240622,-135.579788,-121.296576,-136.463709
63,-27.539554,35.280814,-20.234482,-20.35194,2.797428,-4.281189,-13.319699,-18.136803,-15.855023,-27.15477,-32.271973,-34.384323,-26.07042,-45.219246,-52.850258,-56.91584,-34.228032,-51.424061,-56.182652,-58.258747,-40.014542,-54.833725,-59.956147,-62.99754,-29.48417,-47.960151,-57.425414,-60.429802,-67.328634,-83.833404,-90.629122,-95.27936,-60.514232,-72.051572,-71.287658,-69.880232,-49.842958,-57.015603,-54.457474,-52.195646,-37.274338,-41.089663,-41.593642,-42.855388,22.063217,42.222943,53.792161,60.999822,50.343227,70.818547,81.145769,88.409378,34.703991,46.375088,50.517666,52.52474,18.6866,23.336166,24.336085,24.815301,2.175027,-2.997531,-7.482121,-11.086667,-5.262071,-12.407332,-18.697309,-19.367008,-58.343155,-80.462589,-92.915502,-103.106441,-70.108153,-101.472856,-117.670674,-130.67373,-72.605076,-101.877559,-116.872857,-129.761997,-67.765755,-87.50991,-99.760636,-111.867529,-87.696859,-101.465202,-142.447741,-157.981877
64,-13.826016,38.610146,-21.8684,-14.789694,-4.44984,-15.5954,-26.050642,-31.526302,-28.3409,-42.95858,-48.677021,-50.639726,-35.906341,-58.330459,-68.858402,-74.742708,-40.606851,-60.97357,-70.05936,-75.734993,-42.620386,-58.480535,-66.579901,-72.740837,-28.707356,-45.335602,-52.96718,-54.663347,-56.440352,-70.778187,-75.802746,-79.087756,-46.357455,-55.308124,-54.53087,-53.544219,-33.972589,-38.734885,-37.145385,-35.914211,-20.94596,-21.747904,-21.414974,-22.261292,20.426133,38.733959,48.814776,56.364123,43.391976,61.732155,71.518472,78.789342,26.91798,34.875275,37.565185,38.832816,10.719246,11.221284,10.550028,10.117149,-5.543882,-13.687486,-19.954551,-24.865302,-8.372154,-18.859474,-27.914483,-30.570655,-66.035991,-87.91631,-101.285627,-112.708806,-75.541031,-107.217357,-124.727981,-139.37779,-75.396136,-105.221262,-121.795023,-136.272815,-67.856194,-87.274157,-100.993102,-114.702635,-101.798237,-63.85603,-164.591503,-173.772545
65,-0.112476,41.939478,-22.623711,-8.270862,-13.615277,-31.717112,-46.271868,-54.886151,-47.877777,-69.813355,-78.414276,-81.982596,-53.343498,-82.944546,-96.208512,-102.79949,-54.503466,-81.199419,-93.501263,-100.652184,-52.224226,-71.13632,-80.965834,-88.056381,-29.62266,-43.827352,-48.478828,-48.161653,-45.956024,-58.101708,-60.671221,-61.620849,-31.063279,-36.498288,-35.470181,-34.811282,-15.409293,-15.914609,-14.814637,-14.663373,-0.58205,3.745292,5.56803,5.228091,18.147137,34.002148,41.392227,47.995491,36.152756,52.481323,61.167172,67.376862,18.960709,23.985283,25.262776,25.306172,2.779885,-0.263191,-2.524097,-4.256149,-12.837066,-23.54401,-31.326473,-37.613067,-10.076469,-22.571044,-33.086244,-36.83668,-70.992843,-93.635652,-108.179617,-120.664516,-78.749305,-110.928293,-129.248858,-144.881385,-76.55953,-106.732172,-124.03669,-139.222858,-66.985978,-85.946908,-100.199561,-114.518948,-101.195137,-22.426663,-186.499638,-182.553518
66,12.054119,39.775932,-22.366974,-1.236944,-23.549904,-50.55554,-71.000055,-83.665501,-71.949497,-104.469807,-118.565334,-125.752779,-75.216877,-114.12751,-131.179974,-139.650759,-72.347963,-106.933096,-123.1371,-132.573372,-65.065413,-87.810259,-99.623674,-108.197433,-31.263705,-43.304162,-44.312864,-40.916144,-35.818789,-45.675007,-45.411846,-43.33475,-15.143143,-16.356149,-14.366332,-13.281599,4.94133,10.17791,12.423371,12.489509,22.70253,34.377628,40.090353,42.129135,15.364586,28.06612,31.943539,37.960007,29.343293,43.349991,50.623055,55.192601,11.611485,14.079792,13.689068,12.012486,-4.38422,-10.326084,-14.29026,-17.758117,-19.103885,-31.563091,-40.551956,-48.181572,-10.28488,-23.553991,-34.674635,-39.316478,-73.415326,-97.627545,-113.403022,-126.772132,-79.968009,-112.450688,-131.088373,-147.198758,-76.292609,-106.5358,-123.934655,-139.224605,-65.357934,-83.862699,-97.79834,-111.69018,-87.458628,17.159992,-207.184222,-183.979739
67,6.241653,21.970519,-18.280346,2.840454,-23.639866,-49.841921,-69.382902,-80.410102,-72.343071,-104.096672,-118.301948,-125.477777,-75.460956,-114.662819,-133.158233,-143.223238,-71.845888,-106.508543,-124.016407,-135.358383,-63.811929,-86.739412,-99.317064,-109.005146,-30.295657,-42.460763,-43.698331,-40.852869,-33.054094,-43.411065,-44.154385,-43.421386,-11.845764,-12.649093,-10.793132,-9.871773,7.960567,14.42162,17.303753,17.991711,24.829807,37.437039,43.363217,45.547977,14.070958,25.352749,27.301804,31.275284,24.187615,36.064042,41.960301,45.238942,5.815304,5.507504,3.611721,0.625924,-10.143848,-18.460693,-24.335598,-29.48204,-24.407123,-38.334491,-48.282989,-56.743686,-10.456423,-23.735818,-34.530142,-39.078699,-74.400729,-100.209856,-116.68247,-130.282869,-79.97822,-113.122216,-131.990341,-148.294034,-75.330502,-105.827861,-123.289614,-138.693103,-63.557817,-81.855038,-95.383682,-108.930375,-79.269871,38.910272,-223.517464,-181.359524
68,7.651234,15.863934,-13.373977,4.275592,-23.722149,-49.233324,-68.907228,-79.42012,-74.160084,-106.045075,-121.294029,-129.468962,-77.407001,-118.264355,-137.117924,-147.590612,-73.580812,-109.113459,-126.604466,-137.488838,-65.155661,-88.874891,-100.827936,-109.233799,-30.072571,-41.155754,-40.775671,-37.120359,-31.723898,-42.033524,-43.851246,-44.157605,-10.678582,-11.204949,-9.906335,-9.085412,8.912215,16.047577,18.835552,19.488535,25.631105,38.84703,43.894894,45.437765,12.912884,22.653408,22.701954,25.741985,19.999614,30.276088,35.083843,37.321392,1.12587,-1.214825,-4.115387,-8.219548,-14.62381,-25.045853,-32.06773,-38.43203,-28.242394,-43.92738,-54.413327,-63.553517,-9.89152,-23.266267,-33.83644,-38.369161,-74.726177,-101.633277,-118.438934,-132.242206,-79.30171,-113.18033,-132.130506,-148.521492,-73.762009,-104.343725,-121.919148,-137.750975,-61.324829,-79.895654,-92.734698,-105.627595,-70.022495,54.470218,-235.295299,-177.38792
69,5.76947,7.550686,-8.71645,4.806424,-23.650898,-48.311233,-67.75684,-76.91415,-74.311981,-105.739723,-121.789192,-130.827976,-77.654331,-118.678447,-138.26168,-150.056694,-73.799675,-108.906212,-127.192508,-138.99567,-65.149395,-88.66999,-100.814289,-109.634742,-29.742494,-40.304247,-38.389286,-33.358141,-30.933332,-41.178077,-43.881677,-45.180881,-10.239398,-11.103323,-10.079322,-9.33602,9.03566,16.233665,19.234438,19.904381,25.524304,38.858207,43.79982,45.371183,12.305042,20.947334,19.921314,22.957901,17.413937,26.715237,31.240036,33.251942,-1.711784,-5.154293,-8.409393,-12.986011,-17.202816,-28.71516,-36.170608,-43.098896,-30.305832,-47.447193,-58.272984,-67.820572,-9.321657,-22.572489,-32.793955,-37.297644,-75.055878,-102.498901,-119.324148,-133.158118,-78.999919,-113.12195,-131.959419,-148.313759,-72.999447,-103.334983,-120.795148,-136.83477,-60.203493,-78.823387,-90.914355,-103.175989,-62.36962,61.862542,-242.128344,-172.739858
70,4.067173,-0.91537,-3.964256,4.163892,-22.974758,-46.498501,-65.470127,-72.977073,-72.639599,-103.032474,-119.74213,-129.605518,-75.871181,-115.921314,-136.815891,-151.031009,-72.057918,-106.012104,-125.993797,-140.132137,-63.446937,-86.255527,-99.414997,-110.110634,-28.949037,-39.825224,-37.301003,-31.429428,-30.210611,-40.650203,-44.300455,-46.652609,-10.221589,-11.915359,-10.971436,-10.218952,8.492028,15.170576,18.741059,19.653495,24.614598,37.736041,43.403747,45.736641,11.951992,20.084026,18.87767,22.503193,16.117389,24.571518,29.037426,31.188434,-3.016148,-7.337757,-11.010144,-15.995785,-18.33086,-30.349045,-38.124756,-45.450543,-31.216278,-49.033642,-60.028565,-69.762268,-9.200114,-22.680963,-32.793896,-37.260356,-75.782711,-103.091064,-119.696352,-133.577384,-79.164254,-113.074006,-131.797325,-148.217745,-72.776919,-102.639477,-120.205563,-136.606742,-59.824139,-78.419991,-90.035336,-101.92586,-56.289889,60.895085,-244.080042,-168.628053
71,3.77488,-3.573922,-0.687767,2.881805,-22.804207,-45.948738,-65.072571,-72.220024,-71.582543,-101.077927,-117.984192,-128.402733,-75.205181,-114.930668,-136.479218,-151.9212,-71.964581,-105.699646,-126.601319,-141.722454,-63.833851,-86.618031,-99.906922,-110.927193,-28.741433,-39.710807,-36.71929,-30.71597,-29.796877,-40.582118,-44.879631,-48.041487,-10.235989,-12.961949,-12.236888,-11.856851,8.103439,13.926959,17.38933,17.937889,23.964946,36.439838,42.070593,44.440759,11.98566,20.259933,19.215477,22.456283,15.803467,24.042926,28.511581,30.729274,-3.250431,-7.716008,-11.387799,-16.484104,-18.497006,-30.464939,-38.236279,-45.690686,-31.31725,-49.278694,-60.131069,-69.809613,-9.332543,-23.001287,-32.795359,-37.015849,-76.456984,-103.218649,-119.686121,-133.611821,-79.422626,-113.089037,-131.714254,-148.124495,-72.854866,-102.041336,-119.670609,-136.236114,-59.996333,-78.410613,-89.777502,-101.556922,-50.436647,57.431406,-242.689447,-165.636005
72,3.517776,-3.841222,1.158416,2.229357,-22.542286,-45.734951,-65.298809,-72.723942,-70.929794,-100.011909,-116.801204,-127.296867,-74.724346,-114.512684,-136.141903,-151.918121,-71.76717,-105.719238,-126.904976,-142.17437,-63.870666,-86.982136,-100.601761,-112.005146,-28.710878,-39.960013,-37.175415,-31.109178,-30.150682,-41.775617,-46.625043,-50.239869,-10.855994,-14.560117,-14.208238,-14.242775,7.350121,12.086662,15.181975,15.409587,23.198358,35.057136,40.538133,42.930789,11.747727,20.159581,20.045449,24.853146,15.786198,24.415787,29.232594,31.807045,-3.126411,-7.412452,-11.009365,-16.099147,-18.248462,-30.068149,-37.67942,-45.006099,-30.985565,-48.817405,-59.65607,-69.320137,-9.62575,-23.632087,-33.220394,-37.372066,-77.283276,-103.461701,-119.527938,-133.287106,-80.122745,-113.529522,-132.00229,-148.378469,-73.370512,-102.204024,-119.885473,-136.460029,-60.37122,-78.556063,-89.886109,-101.665577,-45.089962,53.762082,-239.702122,-163.23475
73,3.768402,-2.908432,1.67521,2.121071,-22.524124,-46.112388,-66.072693,-73.840278,-70.373085,-99.827808,-116.521682,-126.848179,-74.313652,-114.242511,-135.917976,-151.854961,-71.550876,-105.689163,-127.055843,-142.518654,-63.918285,-87.23814,-101.268036,-113.147747,-28.908758,-40.222489,-37.582554,-31.393001,-31.232882,-43.343589,-48.408099,-52.163833,-11.853794,-16.181047,-16.224445,-16.591168,6.435597,10.457908,13.039026,12.909492,22.299241,33.714484,39.092846,41.44826,11.715225,20.49488,21.182739,27.247432,16.27415,25.281166,30.595184,33.818401,-2.481766,-6.358544,-9.781815,-14.589455,-17.551449,-28.934212,-36.338517,-43.387471,-30.341,-47.887482,-58.665322,-68.181885,-9.637103,-23.998702,-33.448429,-37.460165,-78.088835,-103.89898,-119.723767,-133.531798,-81.019559,-114.068984,-132.387389,-148.841634,-74.2895,-102.929281,-120.697846,-137.400581,-61.241008,-79.350888,-90.61498,-102.36805,-39.805807,50.906832,-236.511159,-161.060497
74,3.924374,-1.639312,2.524017,2.341236,-22.317799,-46.290115,-66.644589,-75.231022,-69.867817,-99.627903,-116.301739,-126.529541,-73.763603,-114.070141,-135.893738,-152.097954,-71.015122,-105.847435,-127.463356,-143.209557,-63.61124,-87.474815,-101.75687,-113.749695,-28.813984,-40.276225,-38.255449,-32.777101,-32.087898,-44.666358,-49.998475,-53.924993,-12.518773,-17.222839,-17.662903,-18.324719,5.827349,9.302835,11.459203,11.117284,21.658364,32.742569,38.077304,40.478191,11.753872,20.78873,22.039558,28.847179,16.734512,26.162636,31.732899,35.223507,-1.886559,-5.409119,-8.630528,-13.203804,-16.966335,-28.003464,-35.08873,-41.759033,-29.884541,-47.26815,-57.926193,-67.18261,-9.942354,-24.672951,-34.15118,-37.905589,-78.51616,-104.083191,-119.722546,-133.541463,-81.546571,-114.466617,-132.746795,-149.238981,-74.868933,-103.46298,-121.284671,-138.01683,-61.833192,-79.925854,-91.232286,-103.075458,-34.665842,49.146613,-232.771551,-158.840168
75,3.891884,-0.164164,3.013527,3.131203,-22.251068,-46.635739,-67.416516,-76.648133,-69.172909,-99.440838,-116.189026,-126.41058,-73.077954,-113.788616,-135.698422,-152.092495,-70.446671,-105.886563,-127.695477,-143.72049,-63.27982,-87.567375,-102.082512,-114.229717,-28.819701,-40.249363,-38.513232,-33.42346,-33.096411,-45.857035,-51.293492,-55.34012,-13.293419,-18.219002,-18.94242,-19.809514,5.205276,8.280712,10.073863,9.62566,21.082103,31.864682,37.162812,39.705441,12.117485,21.320171,22.956264,30.707416,17.504482,27.381706,33.218422,37.018158,-1.055443,-4.339337,-7.296776,-11.503968,-16.210339,-27.098099,-33.812748,-39.961819,-29.312977,-46.559498,-56.996567,-65.839131,-10.183387,-25.115489,-34.507992,-37.991027,-78.640754,-103.968159,-119.558142,-133.382012,-81.880318,-114.795603,-133.104778,-149.513563,-75.394728,-104.084869,-121.882391,-138.490033,-62.484155,-80.644562,-92.000619,-103.910344,-29.891796,48.589905,-228.875862,-156.101509
76,3.917312,1.092711,3.658058,4.487575,-22.104881,-46.592147,-67.626331,-77.480449,-68.608017,-99.266601,-116.0018,-126.05603,-72.524551,-113.428688,-135.174465,-151.429927,-69.965458,-105.751464,-127.406364,-143.284504,-62.974056,-87.555759,-102.30083,-114.618919,-28.821653,-40.264986,-38.855157,-33.886657,-33.991595,-46.711939,-52.079791,-56.092068,-13.904538,-19.064082,-20.060264,-21.222098,4.745784,7.420596,8.721714,7.984025,20.650931,31.025099,36.098772,38.509786,12.622696,22.074097,24.522411,33.90192,18.661686,28.960625,35.103012,39.279053,0.204334,-2.8568,-5.57428,-9.296848,-14.9748,-25.669418,-31.79068,-37.068569,-28.270111,-45.430664,-55.56926,-63.776745,-10.503415,-25.694819,-35.250503,-38.607895,-78.558162,-103.801519,-119.294528,-133.05725,-82.107956,-115.096511,-133.413201,-149.577073,-75.925268,-104.817858,-122.542941,-138.803399,-63.224919,-81.511981,-92.930341,-104.822308,-25.32197,48.772013,-224.56529,-152.524537
77,3.911568,1.956543,4.952488,6.208522,-21.808102,-46.441921,-67.76429,-78.088818,-67.649677,-98.809891,-115.453594,-125.225704,-71.803287,-112.665138,-134.153561,-150.026916,-69.577091,-105.449833,-126.897171,-142.472431,-63.05048,-87.897549,-102.733326,-114.985748,-28.925776,-40.34323,-38.877572,-33.697527,-35.112007,-47.533053,-52.472653,-56.191516,-14.854803,-20.220728,-21.292357,-22.654787,3.933458,6.140782,6.921066,5.712907,19.954411,29.649189,34.220084,36.057109,13.280582,23.129963,26.433391,36.490562,20.015076,30.676689,37.295952,42.129192,1.802811,-0.977692,-3.323216,-6.38205,-13.403526,-23.866642,-29.158344,-33.398209,-26.973244,-43.829888,-53.154556,-60.249516,-10.795071,-26.50323,-36.586791,-39.874748,-77.941393,-103.281293,-118.615509,-132.177735,-81.752826,-114.962182,-133.346476,-148.856054,-75.844165,-104.968285,-122.653316,-138.358487,-63.450629,-81.986653,-93.537846,-105.347606,-20.970383,49.496259,-219.172783,-147.548312
78,3.932236,2.112339,6.156235,7.828255,-21.479016,-46.353367,-68.141178,-79.073456,-66.328469,-98.274388,-114.749245,-124.248608,-70.517349,-111.338677,-132.423489,-147.549042,-68.584133,-104.775124,-125.928887,-141.108811,-62.552239,-87.895798,-102.955914,-115.414135,-28.748213,-39.987708,-38.426145,-33.293858,-35.900602,-47.367129,-51.489537,-54.706808,-15.65011,-20.934525,-21.733687,-23.002238,3.25224,4.741808,4.941194,3.309878,19.586533,27.94229,31.642258,32.735561,14.907611,25.688484,30.444648,41.131794,22.144638,33.161476,40.23484,45.680511,4.266769,2.502239,0.588913,-1.778378,-11.004765,-20.718602,-25.025505,-28.085347,-24.952343,-41.260392,-49.579605,-55.242566,-10.302986,-25.865951,-36.570259,-40.04212,-76.350448,-101.594508,-116.561373,-129.648155,-80.655244,-113.730683,-131.852804,-146.143848,-75.154195,-104.077868,-121.113218,-135.392852,-63.287945,-81.971811,-93.529342,-104.861547,-16.801512,50.303534,-212.779913,-141.025121
79,4.090988,2.581402,7.836914,9.806589,-20.749409,-45.352203,-67.069382,-78.809258,-64.930264,-97.863693,-114.390736,-123.756134,-69.162403,-109.953724,-130.524159,-144.553104,-67.577625,-104.082493,-124.505882,-138.640205,-62.141647,-88.175217,-103.195381,-115.296135,-28.275408,-39.248494,-37.791085,-32.893833,-35.95259,-45.977103,-48.699975,-50.832605,-15.964655,-20.38822,-20.612602,-21.582775,2.92973,4.181565,4.150264,2.334963,19.596086,26.727678,29.622809,29.879191,16.910431,28.741916,35.210449,46.620575,24.605919,35.786407,43.375911,49.422924,7.243171,6.753524,5.436916,3.467525,-7.994385,-16.21407,-19.018376,-20.914971,-22.206322,-37.26297,-43.948883,-47.930065,-9.339747,-24.561906,-35.670944,-39.177194,-73.362722,-98.543883,-112.885519,-125.140031,-78.086345,-110.919564,-128.414603,-140.978676,-73.020786,-101.830045,-117.803132,-130.243946,-61.839373,-80.913526,-92.205753,-102.333192,-12.719473,51.613643,-204.951948,-132.489825
80,4.125973,3.583074,9.104221,11.672921,-20.523239,-45.16388,-66.570099,-79.15939,-64.321095,-97.827885,-114.014031,-122.893467,-68.110817,-108.410065,-128.191773,-140.75996,-66.356724,-102.849083,-122.239277,-135.004166,-61.089249,-87.590092,-102.232945,-113.632256,-27.569527,-38.015832,-36.406505,-31.369357,-35.079341,-42.884105,-43.81603,-44.58313,-15.48935,-18.412713,-17.740671,-18.212456,3.181672,4.676785,4.898222,3.26916,19.912767,25.955199,28.28448,27.954788,19.072884,31.939831,39.913342,51.665176,26.818188,38.494789,46.774864,53.533276,9.451057,11.360561,11.659527,10.979668,-5.937275,-10.771465,-10.955372,-11.122089,-19.902912,-31.262993,-34.905327,-36.339008,-8.104025,-22.700177,-34.273541,-37.982784,-68.665782,-93.853547,-107.067346,-117.455135,-74.1639,-106.818009,-120.827579,-128.89482,-69.895603,-97.935413,-109.285956,-116.415461,-60.004889,-78.844837,-87.189581,-93.210594,-8.728895,54.147355,-195.983122,-121.866266
81,4.079132,4.989075,10.347679,18.198559,-20.770878,-45.919441,-67.259663,-80.830902,-63.873265,-98.134747,-113.815487,-122.048229,-66.721173,-106.725689,-125.68364,-136.847592,-64.444748,-101.137699,-119.481709,-130.846367,-59.043183,-86.159294,-100.523117,-111.249607,-26.565719,-36.298417,-34.182169,-28.698059,-33.896721,-38.494323,-37.17058,-36.279762,-14.898565,-15.256322,-13.109773,-12.590767,3.556213,6.351209,7.505837,6.619175,20.420337,25.933383,28.209805,27.800919,21.742098,36.582705,46.142527,58.255949,29.753248,41.571259,50.461716,57.757296,12.588244,16.874108,19.322353,20.050535,-2.840017,-4.250553,-1.596502,-0.102316,-16.735697,-24.230467,-24.639582,-23.749506,-7.360726,-21.631791,-33.451687,-37.450101,-65.612938,-91.143958,-102.317008,-109.691571,-71.130718,-103.197527,-113.431341,-116.756703,-67.220397,-94.249235,-101.4998,-103.771422,-58.113355,-76.255352,-81.828053,-84.091826,-4.891027,58.384656,-185.876707,-104.419481
82,3.517467,6.636799,10.769589,24.191095,-21.633705,-47.294712,-68.11203,-81.965984,-64.046882,-98.511543,-113.344757,-120.95002,-65.442821,-104.836647,-122.578605,-132.200729,-62.372589,-98.684028,-115.744114,-125.65456,-56.713577,-83.986221,-97.794788,-107.773269,-25.400248,-34.060181,-30.742369,-23.863076,-31.77223,-32.366256,-28.608028,-26.058717,-13.525687,-10.607881,-6.75113,-5.068542,4.629089,9.263309,11.730293,11.960851,21.549615,26.987425,29.619567,29.696014,25.082628,43.039667,54.306009,67.302789,33.811563,45.502052,54.808982,62.221052,16.857347,23.627002,28.691677,30.932035,1.45495,3.664409,9.328725,12.441095,-12.5054,-16.027422,-13.305777,-10.585608,-7.150442,-21.101596,-32.914169,-37.514374,-64.246597,-90.532259,-98.882983,-102.232707,-69.235515,-100.288843,-106.456911,-105.044907,-65.452391,-91.172555,-94.721699,-92.530805,-56.724157,-73.643724,-76.597655,-75.468612,-1.613056,64.837887,-175.346614,-80.411954
83,3.944744,9.373539,11.899646,24.764891,-22.631813,-48.423717,-68.530975,-82.419765,-63.943405,-98.396587,-112.691333,-120.112255,-63.945293,-102.497852,-119.437637,-128.164753,-60.027946,-95.486675,-111.826423,-120.954883,-54.029903,-81.258911,-94.576343,-103.938537,-24.310908,-31.996358,-27.525067,-19.368603,-29.423879,-26.252317,-19.955257,-15.471874,-11.994894,-5.659925,-0.028145,2.972233,5.713778,12.555428,16.849249,18.802902,22.4128,28.624348,32.275848,33.376203,26.426932,46.284434,58.790457,72.579111,35.593798,47.815121,58.1311,65.827406,19.213091,28.503079,36.780648,40.844943,4.164294,9.757553,18.603648,23.311655,-9.411707,-9.664655,-3.827882,0.892954,-6.250441,-19.590199,-30.667034,-35.617441,-61.202715,-86.926464,-91.802112,-91.275263,-64.952715,-94.234298,-95.760206,-90.024409,-60.727897,-84.90105,-84.579502,-78.858854,-52.060775,-67.670127,-68.00301,-64.217856,1.758413,73.791869,-164.020243,-56.06662
84,4.386074,11.350387,9.756043,30.041594,-23.904911,-49.824279,-69.443172,-83.136863,-63.4384,-98.05466,-111.712806,-118.90258,-61.908886,-100.160831,-116.630733,-125.037071,-56.996429,-92.001812,-108.245933,-117.546295,-50.378196,-77.509677,-90.714935,-100.27209,-22.993371,-29.172729,-23.213863,-13.401532,-26.285384,-19.729837,-11.303438,-5.112008,-10.008198,-0.707197,6.856482,11.559677,7.118204,16.039756,22.179729,26.155505,23.445526,30.860972,35.82087,38.520135,29.06064,51.494802,65.4373,80.084787,41.228022,56.270222,67.85646,75.395262,25.452009,39.301781,50.855278,56.34205,10.671621,21.167862,33.172331,39.372637,-2.75239,1.612604,10.36857,16.647634,-5.99025,-18.777681,-29.154615,-34.522755,-59.458043,-83.517918,-84.344917,-80.052592,-62.634438,-89.112243,-85.344106,-75.636653,-58.387767,-80.200689,-75.699799,-66.522561,-49.542729,-63.383762,-60.810251,-54.550761,5.57583,83.955348,-154.832857,-27.211934
85,4.971051,13.400512,8.271801,29.731749,-25.007115,-50.87019,-70.04052,-83.333016,-62.916779,-97.265454,-110.737965,-118.385971,-60.049897,-97.626023,-113.852486,-122.396714,-54.371361,-88.649735,-104.889679,-114.582321,-47.332386,-74.038777,-87.069123,-96.815506,-21.771058,-26.479052,-19.260497,-8.416031,-23.310033,-13.654689,-3.319492,4.558768,-7.979258,4.124817,13.707283,20.26924,8.491022,19.556794,27.518182,33.400137,24.33803,33.351466,39.784333,44.096593,31.657774,56.385183,72.02445,86.536062,45.83856,64.409523,76.30133,82.614401,31.380083,50.461338,63.283195,67.717089,17.813707,33.525867,45.063509,49.169683,5.202741,13.489672,22.134458,26.674856,-5.788215,-18.069561,-27.616187,-33.899949,-58.7951,-78.505044,-74.223765,-66.597529,-59.744652,-80.501651,-72.753759,-61.585118,-53.758879,-69.719579,-63.357003,-54.63431,-43.133314,-52.372917,-48.323363,-42.307223,10.001347,95.53723,-147.10659,0.701185
86,5.719391,15.771272,8.721783,27.12716,-25.656132,-51.230496,-69.609604,-81.952893,-62.517529,-96.146233,-109.816189,-118.298951,-58.768685,-95.389435,-111.720887,-120.645699,-52.645134,-85.872082,-102.376992,-112.825653,-45.416932,-71.378426,-84.213971,-94.443112,-20.894104,-24.293835,-16.378229,-5.061892,-20.326285,-8.210557,3.499155,12.682571,-5.75659,8.522507,19.664215,27.633964,10.057246,22.691226,32.097709,39.420771,25.255054,35.442927,42.963559,48.597253,32.712392,58.636247,75.753776,89.76515,48.467119,71.344236,83.731464,89.071146,35.201116,59.475116,73.505178,77.545423,22.840587,43.486238,55.25045,58.533039,11.384817,23.27988,32.008346,35.816865,-6.802854,-17.770039,-24.873705,-29.987686,-55.028799,-69.137435,-60.742775,-51.07706,-53.776921,-67.918772,-56.879589,-44.92972,-46.071562,-55.962493,-47.451517,-38.86997,-33.854333,-38.732887,-33.2665,-27.330349,15.151858,109.196743,-138.953687,25.716586
87,6.567672,17.398302,9.171764,24.522571,-25.871303,-51.104324,-68.965553,-80.925682,-61.786411,-94.655113,-108.978801,-118.697799,-57.402282,-92.956237,-110.003105,-120.012783,-50.773716,-83.250835,-100.417305,-112.129795,-43.092693,-68.226299,-81.132007,-92.270931,-20.175045,-23.371525,-16.903595,-7.427358,-17.287392,-3.429871,9.146786,19.295095,-3.328409,12.534691,25.147966,34.415974,11.645856,25.512182,36.438449,45.202462,25.984289,37.496523,46.306813,53.310458,32.224497,58.247995,76.625278,89.772051,49.113699,77.074362,90.146862,94.765497,36.91511,66.343117,81.521227,85.827055,25.752262,51.048975,63.733154,67.462704,15.793836,30.98323,39.990234,44.073664,-9.034169,-17.879116,-20.927169,-22.785964,-48.15914,-55.415089,-43.901947,-33.491185,-44.731245,-51.363604,-37.721595,-25.670459,-35.325818,-38.929433,-27.983342,-19.229542,-21.705786,-22.463673,-15.63966,-9.62014,21.109886,123.759765,-130.391567,47.403877
88,3.22443,17.706301,6.476595,28.103301,-25.04611,-48.749233,-65.091121,-75.975906,-58.803205,-89.681677,-103.481906,-113.162338,-54.246729,-88.464924,-105.552583,-115.495868,-47.567813,-79.169746,-96.092868,-107.661415,-39.705282,-63.57328,-76.353532,-87.623428,-19.803456,-23.538547,-19.544836,-12.53652,-14.145439,0.207172,12.490237,22.321545,0.240209,17.509564,30.744171,39.986454,14.945643,30.503647,41.893745,50.342282,28.630893,41.999036,51.558074,58.84519,32.763262,60.158695,80.248461,93.018534,53.165983,86.070534,98.070385,100.596308,41.941893,76.873678,90.709694,93.09351,31.765314,62.564163,74.074625,76.228941,22.836811,42.777729,50.969661,53.51548,-12.751222,-20.377405,-20.540929,-20.228108,-43.770301,-44.596438,-30.616935,-19.961834,-38.105988,-36.990139,-21.498357,-10.040117,-27.03664,-23.440809,-10.645494,-2.05825,-11.958814,-7.5936,0.61265,6.78448,24.026985,138.628558,-124.222303,72.66967
89,-0.313133,18.423426,6.562019,26.486481,-23.069807,-44.473766,-58.662128,-67.62656,-53.471826,-80.937853,-93.189777,-101.769665,-49.301645,-81.174534,-97.654432,-106.317684,-43.089329,-72.981148,-89.013519,-99.203602,-35.457167,-57.4128,-69.89102,-80.541481,-20.389078,-25.837545,-25.244967,-21.39493,-12.074928,1.853692,12.9516,21.337225,4.135055,22.901647,35.887314,43.720225,19.259213,36.845502,47.748296,54.270072,32.491604,47.957322,57.734653,64.177914,31.527849,60.026196,81.908541,94.517401,54.703577,90.902344,100.463665,100.263754,44.614168,83.873571,94.357338,93.630947,35.497072,70.752308,78.800428,77.465338,27.623097,51.364941,57.371006,57.106087,-16.428577,-23.211205,-21.246662,-19.739557,-39.537582,-34.018679,-18.177531,-7.917447,-30.415172,-21.293296,-4.777617,5.398023,-16.787023,-5.163996,8.838002,16.368048,-0.139723,10.215367,19.398576,24.856189,23.397549,154.722224,-117.976587,96.826391
90,-6.997009,17.585295,5.188019,26.678685,-18.164091,-34.799349,-44.9198,-51.288168,-42.139195,-63.374005,-73.7444,-81.320772,-38.339985,-64.990843,-80.409845,-88.256195,-33.034,-58.584612,-73.210373,-82.154125,-26.462185,-44.497318,-55.868614,-65.431492,-19.228881,-25.234806,-27.688307,-27.352431,-7.412334,6.095945,15.76015,22.721046,8.659804,28.030575,40.16763,46.744543,22.333216,40.935207,50.812765,55.712741,33.561825,49.035193,58.03016,63.602572,31.135706,61.108646,84.487204,98.76063,57.519671,94.335892,104.850036,106.462881,47.927942,87.461889,99.32618,101.610306,38.866796,74.77747,85.238874,87.641493,30.741074,55.687076,63.365433,65.779381,-18.812501,-24.651182,-21.306579,-18.610667,-33.824545,-25.063832,-9.691715,0.352514,-22.663013,-9.580058,6.417522,16.044263,-7.905646,5.751983,19.561381,27.307202,9.43616,20.79827,29.538735,34.66481,16.031593,170.239739,-113.157515,121.437296
91,-13.683403,15.925851,3.134171,25.041616,-10.898432,-20.420168,-24.681198,-27.85988,-25.050911,-36.999779,-45.168835,-52.185785,-21.352341,-39.365381,-53.123034,-60.667843,-17.227055,-35.430777,-47.835571,-55.484299,-12.47279,-24.240097,-33.414276,-41.041935,-16.15899,-21.359165,-26.191607,-29.85386,0.204122,13.323374,21.482178,27.259923,14.186416,33.407788,44.349257,50.125218,24.30156,43.23394,51.772058,55.595551,31.76448,45.68574,53.216431,57.98615,31.762481,63.350171,88.293519,104.845401,61.627876,96.865316,108.381259,112.507644,52.41703,90.386724,103.441915,109.041406,42.973737,78.197198,90.241876,95.928079,33.753015,59.118267,68.158275,73.123369,-19.222106,-24.295678,-21.142634,-19.61227,-27.805732,-17.109708,-2.49635,7.792794,-15.446952,-0.062855,15.080757,24.738355,-0.414419,14.991509,28.491579,36.624759,16.6527,29.135728,37.79987,43.35431,1.937594,184.243092,-110.43394,144.556414
92,-9.62463,16.675464,5.204212,24.591416,-4.408819,-9.720755,-12.044541,-14.83497,-14.188591,-17.84,-22.46719,-26.751921,-11.775593,-20.468702,-29.64065,-33.608379,-9.447956,-18.521845,-26.272499,-29.897358,-6.520615,-11.47197,-16.380604,-19.797535,-5.211469,-5.038247,-7.030485,-9.722719,10.788921,22.845041,28.701061,32.02582,17.617245,35.624912,44.512896,48.192689,20.786887,38.204591,44.604144,46.067104,21.489582,32.310144,37.831082,40.502472,32.688903,65.115835,90.757307,107.742073,67.052089,102.446153,112.104435,114.547645,58.067974,97.059396,106.474634,108.523527,47.905111,84.628275,93.680734,96.182447,37.247618,64.48542,72.633281,75.502859,-17.524384,-21.969978,-20.776565,-22.279573,-20.874087,-5.65726,8.409632,17.17275,-7.398032,12.912759,27.674414,35.758092,8.192267,28.46175,41.885626,49.081862,25.063903,41.019311,50.108314,55.234015,-8.192997,199.117584,-105.735689,167.346858
93,6.307571,17.850396,3.741125,21.035281,-3.293907,-9.670755,-14.071357,-18.988626,-18.075582,-20.294225,-22.051162,-23.106714,-16.753355,-21.960256,-25.79536,-25.239189,-14.970188,-20.320821,-23.016655,-21.908718,-12.250139,-15.154941,-15.982584,-14.796112,5.760955,11.288475,12.493979,11.320196,20.56259,31.304742,35.648661,37.169302,19.896409,35.326577,42.759437,44.62638,15.937621,30.318396,35.577141,35.953881,10.26574,17.421742,21.312586,22.759824,34.19815,67.086674,93.084869,110.638161,69.566562,104.308124,115.304855,119.631603,60.244823,98.489708,109.708191,114.106739,49.615745,86.184494,97.027038,101.478401,38.319877,66.209015,75.978229,80.611416,-15.672878,-19.389419,-19.457573,-23.237019,-13.682366,3.264424,16.166369,24.442851,0.726062,22.056902,35.785784,43.510724,16.434749,37.492776,49.970015,56.762473,32.525461,49.206681,57.870547,62.751918,-2.404587,215.096235,-102.513725,186.510394
94,5.439492,17.065319,4.446773,17.736188,-5.006997,-13.174079,-19.239968,-25.186919,-19.641512,-20.370856,-21.529541,-21.749365,-17.21184,-19.670615,-21.425984,-19.468289,-14.630448,-17.72132,-18.608551,-15.990235,-11.508196,-13.591771,-13.369635,-11.185902,10.810422,19.907363,24.226027,25.621345,24.166369,34.070777,37.55229,38.356886,20.30674,32.301869,38.351754,39.412299,13.697699,24.655278,29.09609,29.401569,6.192078,10.659998,14.025272,15.528209,35.242092,67.740853,92.934643,110.949967,69.554638,101.41935,115.104756,123.38459,59.68071,94.353081,109.336865,118.693085,48.662991,81.95715,96.492291,105.698582,36.858136,63.171456,75.34631,83.575184,-13.589845,-16.734905,-17.659951,-22.888049,-5.708319,11.237637,22.675703,31.392922,8.684986,29.037638,41.781675,50.321782,23.619533,43.587356,55.273202,62.627194,38.330037,54.709667,63.104624,68.462126,2.473961,230.290449,-98.627896,202.375477
95,15.967941,16.767429,5.960461,17.800396,-8.739647,-22.191181,-33.689221,-44.528046,-34.222424,-37.438809,-35.350205,-31.28952,-32.886292,-34.804321,-30.215412,-22.307682,-30.189491,-31.717323,-26.415733,-18.25676,-26.118977,-28.623047,-23.78294,-16.938332,20.456874,34.266156,41.319646,45.000526,30.432986,38.184219,41.465179,42.078027,20.597245,29.278451,34.95403,35.353976,8.629472,16.30012,20.818608,21.302262,-3.196547,-1.185003,1.56105,2.635557,34.527317,66.226971,90.907436,109.061497,68.096111,98.300491,112.155716,120.915882,58.135563,91.39468,106.52203,116.194439,47.145229,78.909599,93.71838,103.293297,35.265953,60.772511,73.134647,81.681015,-12.809468,-15.639922,-16.95775,-23.429551,0.136024,17.184745,28.069663,36.691354,14.816888,35.542438,47.467431,55.863783,29.159385,49.98339,61.160943,68.431782,42.301725,59.962528,68.457088,74.055256,17.751864,245.6788,-93.357473,218.796795
96,21.850525,14.808391,8.060051,17.439688,-16.415016,-38.009766,-57.006317,-72.53912,-50.914124,-61.375157,-59.114388,-52.903301,-49.355198,-57.521061,-50.822766,-39.269669,-45.71085,-52.486279,-45.559674,-34.357178,-39.895134,-47.431206,-41.725857,-32.732414,26.67288,43.682488,53.44303,61.269018,34.977619,40.612196,42.105012,40.711528,21.969821,28.122138,31.512347,29.51866,7.357117,12.143675,14.815961,13.423317,-7.047451,-5.524254,-3.304326,-3.383836,33.575157,63.829445,87.042492,103.877895,66.44553,99.63834,111.649578,116.86124,55.877792,92.899315,105.439236,110.45731,44.767502,79.519924,91.974575,97.328762,33.401264,60.984592,72.055389,77.350239,-13.630836,-15.949366,-16.813983,-22.935474,4.555488,25.786428,34.731716,39.926001,20.6236,44.771123,53.642101,58.107532,35.449935,58.669782,66.799224,70.701578,47.912848,67.923254,74.346668,76.911459,38.71578,259.463675,-86.184031,235.212967
97,17.613682,11.991386,1.84465,12.861709,-23.284012,-49.951138,-71.955735,-89.115899,-65.548359,-80.195675,-75.598687,-66.267495,-63.030144,-75.055218,-65.626374,-50.845871,-57.836014,-68.209408,-58.843586,-44.731968,-50.058175,-60.693364,-54.371201,-43.770447,26.135405,42.03027,50.337047,58.076251,32.807562,38.28969,41.364131,41.416002,21.474163,28.205983,32.969361,31.948935,8.398983,14.340015,18.826133,18.965009,-4.374806,0.385545,4.450279,6.148168,33.171044,63.094631,86.197895,103.71793,63.550232,95.923313,110.133991,118.460118,52.834351,89.020844,105.453701,115.105534,42.106877,75.900078,91.678322,100.966931,31.46632,58.327515,71.102211,79.116966,-13.292097,-15.714047,-15.969002,-21.883111,7.000459,26.563866,35.277677,41.417113,23.593844,45.495678,54.041095,59.121067,38.120024,59.243555,66.649591,70.120606,49.661497,68.353828,74.107768,76.219731,55.347983,270.782024,-85.32086,247.401639
98,2.845802,7.988639,3.633728,11.187137,-24.961029,-52.596829,-74.623593,-91.783516,-68.384846,-79.66761,-72.57407,-61.870926,-65.221081,-74.014801,-62.615044,-46.354042,-59.35136,-66.564102,-55.129292,-39.798191,-50.902943,-58.751564,-50.934952,-39.369999,26.425039,41.533648,48.95932,57.079512,31.152836,38.632466,43.666668,45.73522,21.158075,29.933858,36.672853,38.129422,9.349074,17.95371,24.326908,26.748426,-2.00553,6.070942,12.117728,16.030209,32.32457,61.246926,83.648449,101.534489,61.863808,92.973622,107.486149,116.62975,50.99952,86.33931,103.095852,113.399288,40.203656,72.781517,88.761429,98.740368,29.524269,55.361676,68.188442,76.728413,-12.314897,-14.642344,-14.725917,-20.696367,9.838322,29.259877,37.971069,44.295077,26.235428,47.95595,56.576283,61.86775,40.10089,61.265597,68.680796,72.186911,50.6992,69.665975,75.449074,77.655441,57.101526,278.45933,-82.779391,258.277443
99,4.790199,5.748148,3.486786,9.488482,-24.337601,-52.840759,-75.992248,-95.030731,-74.94817,-83.330417,-72.356438,-58.720676,-72.86507,-77.271721,-61.067207,-41.103779,-67.271633,-69.465774,-53.000713,-34.165169,-58.647789,-62.630813,-50.489868,-35.158699,33.148511,50.060787,57.76325,65.910574,36.668111,46.705147,53.330188,56.693226,22.578248,34.159167,42.661001,46.015086,6.889407,18.044347,26.329017,30.835081,-7.971447,1.747734,8.908448,14.390464,31.673584,59.819,82.115353,99.896931,60.376007,91.985218,106.600079,115.584171,49.162731,85.428555,102.428456,112.562473,38.299851,71.676464,87.683167,97.485409,27.88266,53.94896,66.957733,75.543858,-11.624651,-13.55014,-13.282946,-19.098304,11.921213,31.860149,40.525634,46.405348,28.721635,50.815204,59.0751,63.767155,42.371119,63.731834,70.688648,73.635909,52.289335,71.206907,76.538672,78.352788,60.752495,284.20231,-80.431835,267.760757
100,-1.845566,4.146022,3.203591,7.931902,-23.428115,-50.727722,-72.644325,-90.228069,-72.612201,-76.025653,-63.746143,-50.103698,-69.545654,-69.563827,-53.246017,-33.764591,-63.081447,-61.601257,-45.089756,-27.003845,-54.01514,-54.679561,-42.880325,-28.494644,32.786665,49.099148,57.182981,66.591656,36.320468,49.539342,56.854481,60.671471,23.123158,37.608112,46.893843,51.34543,8.665805,22.531317,31.829953,37.407004,-5.155987,7.394982,16.081882,23.106534,31.472751,58.902385,81.08916,98.734668,59.874366,92.326572,106.946056,115.695865,48.365615,85.69598,102.924419,112.963954,37.328384,71.434902,87.475948,97.162593,26.987251,53.359634,66.448104,75.063663,-11.174305,-12.7152,-11.804493,-16.937447,14.214957,35.034331,43.425001,48.408272,31.36869,53.79455,61.324334,64.993815,44.738754,66.266578,72.314919,74.103273,53.982877,72.71689,77.12109,77.872889,57.739586,288.382687,-78.395587,275.727014
101,-3.772087,4.511559,1.291385,5.652348,-18.995132,-42.568107,-61.511261,-77.269809,-70.516044,-67.636539,-51.035522,-35.154533,-69.227634,-62.153801,-41.753929,-20.023041,-63.509308,-55.626823,-35.170898,-15.231834,-55.068237,-52.197029,-40.332607,-26.769104,28.874245,43.37339,51.977594,61.279861,31.829225,47.823014,56.995087,62.568061,21.629057,37.936958,49.582271,56.247388,10.605337,26.21715,37.946764,45.847581,0.219831,14.550188,24.96705,33.743821,31.118557,58.216587,80.960129,99.175667,58.593155,89.081909,105.394386,117.071594,47.581753,82.555161,102.310982,115.968224,37.024899,68.8652,87.269692,100.4011,27.052059,51.698387,66.181469,77.656964,-9.628704,-11.217715,-10.144407,-15.107534,15.796546,33.64817,43.199699,50.024157,32.550248,52.349283,61.894476,67.627533,45.228052,65.104102,72.949517,76.309678,53.779583,70.841036,76.223375,78.222236,52.846956,292.919786,-78.224745,281.404902
102,-10.287002,3.521379,2.648049,5.712679,-13.32589,-31.840508,-47.978062,-61.965226,-60.123471,-51.834687,-34.064129,-19.5271,-61.167595,-48.178608,-27.561104,-7.113396,-57.619343,-45.147652,-24.263581,-5.829872,-51.477448,-48.18116,-38.204167,-27.249894,20.094584,31.786111,40.795805,50.199441,29.120049,46.843307,54.893263,59.502573,23.995716,40.454621,50.535092,56.28487,16.784157,32.383731,41.996023,48.83251,9.838273,23.588077,32.818751,40.859902,30.410373,56.751754,79.251068,97.746872,57.56797,87.844528,104.410469,116.327659,46.790004,81.509536,101.550888,115.382423,36.565132,68.196579,86.845138,100.204399,27.152252,51.49443,66.15644,78.128208,-9.968072,-11.230597,-9.825812,-14.222614,16.928579,34.242839,42.952722,48.992246,33.528943,52.109518,60.635052,65.654125,45.53857,64.38408,71.460133,74.577047,53.120965,69.507067,74.318288,76.073087,41.516482,296.460548,-76.620168,287.136964
103,-12.989674,6.275954,2.030662,4.383576,-7.731525,-19.328098,-28.597126,-37.619465,-45.329315,-31.881374,-13.631367,0.230816,-48.20256,-30.779446,-10.112469,8.93668,-46.713055,-31.458218,-10.743404,6.643993,-42.514698,-40.194878,-33.332508,-25.816967,9.83337,16.827604,22.940623,29.095694,22.275448,39.227245,46.305053,50.629335,22.976414,38.060903,46.397901,50.927034,20.807221,34.574191,42.409009,47.845812,18.034677,29.762352,37.22668,43.983731,29.447937,55.474068,78.094116,96.460808,56.302689,87.108376,103.728745,115.818672,45.973663,80.965302,100.999443,114.894539,36.17569,68.166023,86.919205,100.471253,27.305466,51.773953,66.58643,78.70491,-10.856464,-12.073663,-10.080138,-13.450858,17.129267,34.083349,42.128983,47.529773,33.886711,51.605733,59.299599,63.44635,45.673605,63.72803,70.158002,72.572455,52.870579,68.645277,72.938228,73.967187,27.537329,302.777622,-75.578985,291.56166
104,-11.14888,5.279413,1.688999,2.873617,-2.984196,-8.408649,-11.416111,-15.700584,-32.799362,-14.957668,3.489109,16.366711,-37.632008,-16.565105,4.130802,21.970219,-38.207279,-20.952793,-0.732273,15.774731,-35.851215,-34.282505,-29.754536,-24.473156,-0.647737,1.404056,5.108117,8.976213,14.148798,30.089543,36.634086,40.999099,21.011133,34.541142,41.855713,45.608187,24.233961,35.94074,42.483048,46.85888,26.185966,35.97658,41.23117,46.233398,28.73655,54.329464,76.998104,95.369992,55.347313,86.54179,103.123066,115.325833,45.449295,80.548634,100.370053,114.146015,35.865704,68.038445,86.68974,100.151493,27.200993,51.627903,66.462101,78.578808,-11.611869,-12.883396,-10.164563,-12.365767,17.158315,33.767978,41.290969,46.115763,33.948573,50.878572,57.9527,61.338092,45.58902,63.000796,68.904753,70.61025,52.601137,68.008779,71.918259,72.215946,15.484692,308.117658,-74.793743,294.4959
105,-9.278366,5.286045,1.052891,1.464361,1.181568,0.77457,3.385174,3.526417,-21.593662,-0.902744,17.540073,29.479374,-28.366573,-5.589672,15.140385,32.116436,-31.187141,-13.549015,6.210789,22.149136,-30.839218,-31.575623,-29.965874,-27.306828,-10.703236,-13.791621,-13.167275,-12.763378,5.570789,20.685351,27.144777,31.825582,18.295079,30.403099,36.752795,39.901856,26.630631,36.651969,41.780502,45.189544,32.976918,40.847576,44.582081,48.404604,28.117252,53.480953,76.217903,94.640923,54.55719,86.158676,102.731827,115.018066,45.028599,80.309029,99.880074,113.603577,35.654858,68.11853,86.732277,100.157776,27.180737,51.721665,66.71117,79.053909,-12.164596,-13.409806,-10.110629,-11.645572,16.928839,33.065123,40.15554,44.629703,33.642156,49.657236,56.352537,59.294265,45.175305,61.896872,67.527484,68.824268,52.153768,67.264094,71.078195,71.061646,5.418943,313.467911,-74.528235,296.024469
106,-8.227009,4.864734,0.444546,0.395895,3.422218,5.948181,12.201691,15.111168,-13.628895,9.915779,28.160614,39.499191,-21.15461,3.896897,24.400292,40.732407,-24.972004,-6.002323,13.493523,28.897453,-25.438167,-27.571209,-27.5667,-26.88145,-15.727484,-22.598958,-25.50208,-28.454861,-0.770101,13.309499,20.017582,25.305801,14.820248,26.477219,32.197122,34.809585,25.430055,35.216952,39.340076,41.958652,33.95381,40.261652,43.065071,46.433964,27.585354,52.784798,75.616093,94.172184,54.009258,85.846767,102.461254,114.806614,44.636993,80.081325,99.498791,113.124515,35.320598,68.021461,86.511143,99.751499,26.917293,51.575718,66.588787,78.925564,-12.515278,-13.847283,-10.349147,-11.592047,16.7713,32.723914,39.708874,44.026574,33.387274,48.73834,55.274967,58.148424,44.791167,60.861428,66.317139,67.470896,51.710276,66.595546,70.393456,70.30745,-3.451756,318.386442,-74.727379,296.474161
107,-6.078609,0.635758,0.71545,-0.135184,5.667297,10.953632,19.229313,23.011585,-5.933087,20.465412,37.27264,46.713695,-13.683735,13.75938,32.136074,46.034946,-18.501984,2.734863,20.400592,33.532413,-20.070546,-21.106602,-22.410427,-23.634465,-17.662581,-26.242653,-31.004672,-35.488295,-3.626132,11.381367,17.343727,21.747458,13.506655,26.424632,30.846208,32.041918,25.433056,36.045963,38.909552,40.273903,34.73846,41.408678,43.350827,45.533766,27.319611,52.404694,75.367767,94.083984,53.596344,85.476906,102.158798,114.610863,44.25428,79.714211,99.05056,112.635864,34.918648,67.686001,85.936043,98.973244,26.465939,51.250042,66.193886,78.487473,-12.454663,-13.977058,-10.359114,-11.304426,16.451013,32.310322,39.328491,43.58533,33.115239,48.167742,54.759833,57.683962,44.645053,60.353358,65.802128,66.906657,51.774756,66.585172,70.273166,69.954151,-10.024028,319.083775,-74.505592,296.400552
108,-5.72271,-3.28196,0.898029,0.078904,8.399963,16.281246,23.743481,26.063061,1.226727,28.884373,44.05418,51.099964,-6.923367,22.588863,38.408146,49.457645,-13.219254,10.513939,26.395855,36.686108,-16.769051,-15.18663,-16.431988,-18.519333,-18.429485,-26.518863,-29.971798,-33.063814,-2.675164,14.780541,19.510536,22.209066,15.057405,30.612766,33.435032,32.978252,27.174874,40.171076,41.344408,41.004286,36.485749,45.088706,46.273758,46.83313,27.150673,52.092717,75.162083,94.089718,53.379513,85.153141,101.805371,114.215641,44.040425,79.396946,98.665501,112.111073,34.637467,67.384644,85.470166,98.278233,26.121907,50.950585,65.825238,78.077466,-12.575274,-14.247882,-10.487048,-11.073257,16.133839,31.994185,39.053258,43.253706,32.828767,47.780703,54.412277,57.317634,44.420703,59.972457,65.389302,66.424993,51.654096,66.418558,70.051298,69.657145,-16.110947,315.869468,-73.971772,296.547109
109,-5.301933,-1.772237,0.794243,0.059626,10.660286,20.605282,27.04343,27.942798,7.416538,36.114681,50.496448,55.954777,-0.862221,30.198681,44.032459,52.840313,-8.321755,17.5834,32.026966,39.623577,-13.456146,-11.275532,-13.977253,-18.253887,-19.923696,-27.833566,-30.767365,-33.44905,-1.321743,17.546639,20.689438,21.73181,16.651418,34.112323,35.00621,33.085722,28.533309,43.53651,42.51569,40.781071,37.299793,47.256639,48.183735,48.224466,26.918003,51.871971,75.05428,94.085026,52.875092,84.562741,101.246121,113.728283,43.568596,79.050305,98.374844,111.749508,34.262581,67.284268,85.47868,98.307164,25.859276,51.064202,66.101715,78.43134,-12.741197,-14.306607,-10.516972,-11.103847,16.129134,32.124874,39.165878,43.352297,32.892765,47.69965,54.223926,57.031829,44.526605,59.95413,65.170373,66.052033,51.725431,66.260082,69.761232,69.374007,-21.71616,314.177578,-73.480809,296.687082
110,-5.333794,-2.001504,0.496445,0.264119,12.684986,24.445484,29.516567,28.63123,12.890282,43.523953,56.906513,60.484165,4.258495,38.407734,49.820446,55.696232,-4.294304,24.901371,37.396557,41.793789,-10.810169,-6.899265,-10.54573,-16.370418,-21.235263,-29.000896,-30.782531,-32.151859,0.263823,20.224952,21.429431,20.488836,18.566669,37.928746,36.715708,33.0351,30.32107,47.061854,43.739225,40.607355,38.711815,50.397549,50.557495,49.721667,26.682358,51.609798,74.842655,93.87775,52.628117,84.227039,100.822117,113.266445,43.431816,78.942799,98.220165,111.572605,34.274597,67.336464,85.513172,98.376926,25.996593,51.278572,66.35527,78.740467,-13.046194,-14.714864,-10.954004,-11.325383,15.850121,31.896817,38.880307,43.029824,32.704328,47.380807,53.841592,56.636663,44.391939,59.737003,64.876095,65.755877,51.613032,66.054465,69.461767,69.041407,-27.264187,312.257072,-73.198597,297.032199
111,0.431019,-3.42658,0.420742,-0.03269,13.028824,24.27594,26.432693,22.645008,12.318306,43.877724,57.076698,59.490761,3.220367,39.248268,49.281235,53.208549,-6.187431,25.081501,36.243782,38.386871,-13.528862,-8.308914,-11.687256,-17.360733,-21.743579,-28.626564,-28.652932,-28.226051,3.412896,24.790877,24.562462,21.77821,21.885124,42.654135,40.197333,35.111309,33.391029,51.09633,46.334941,42.142619,41.273642,54.854435,54.582363,52.937875,26.361683,51.245499,74.402252,93.290497,52.430672,83.813484,100.354179,112.809906,43.298504,78.653069,97.877678,111.203659,34.213589,67.150303,85.415932,98.410378,25.951286,51.265801,66.413166,78.813492,-13.28407,-14.900301,-11.096204,-11.22399,15.938645,32.067458,39.02274,43.183631,32.794532,47.435234,53.819003,56.599736,44.444562,59.815043,64.875551,65.725953,51.568436,65.891802,69.276157,68.905852,-27.009453,308.900974,-72.95414,297.069991
112,4.017368,2.527469,0.358807,0.028911,10.37233,19.867916,23.138569,20.278519,7.595948,37.637684,51.342556,55.490719,-1.087005,33.21159,44.868977,50.298947,-9.085888,20.143433,32.558338,36.468876,-14.708873,-9.488674,-10.408939,-13.201011,-21.454674,-28.658341,-28.454021,-27.575585,1.92875,20.143751,21.078541,19.93165,20.097907,38.09362,37.399384,33.849711,31.654583,46.954915,43.63788,40.588361,40.016478,52.011212,51.301428,49.38756,26.030822,50.874126,74.011333,92.807659,52.29277,83.574314,100.075824,112.539173,43.233787,78.500324,97.634136,110.942264,34.189167,67.033493,85.337436,98.448864,25.896263,51.209427,66.406299,78.865711,-13.476595,-15.068125,-11.346984,-11.458184,15.971596,32.087923,38.950011,43.058822,32.783603,47.428491,53.743434,56.504665,44.347615,59.791603,64.805687,65.660769,51.348839,65.642541,69.036862,68.761603,-23.146082,311.480381,-72.74933,297.15084
