takenoko1/special-research/HandMotion_SimilarSearch_自分用/NewProject/handData_new/key/d3_feature/131.csv
,vel_0x_L,vel_0y_L,vel_0x_R,vel_0y_R,posFromWrist_1x_L,posFromWrist_2x_L,posFromWrist_3x_L,posFromWrist_4x_L,posFromWrist_5x_L,posFromWrist_6x_L,posFromWrist_7x_L,posFromWrist_8x_L,posFromWrist_9x_L,posFromWrist_10x_L,posFromWrist_11x_L,posFromWrist_12x_L,posFromWrist_13x_L,posFromWrist_14x_L,posFromWrist_15x_L,posFromWrist_16x_L,posFromWrist_17x_L,posFromWrist_18x_L,posFromWrist_19x_L,posFromWrist_20x_L,posFromWrist_1y_L,posFromWrist_2y_L,posFromWrist_3y_L,posFromWrist_4y_L,posFromWrist_5y_L,posFromWrist_6y_L,posFromWrist_7y_L,posFromWrist_8y_L,posFromWrist_9y_L,posFromWrist_10y_L,posFromWrist_11y_L,posFromWrist_12y_L,posFromWrist_13y_L,posFromWrist_14y_L,posFromWrist_15y_L,posFromWrist_16y_L,posFromWrist_17y_L,posFromWrist_18y_L,posFromWrist_19y_L,posFromWrist_20y_L,posFromWrist_1x_R,posFromWrist_2x_R,posFromWrist_3x_R,posFromWrist_4x_R,posFromWrist_5x_R,posFromWrist_6x_R,posFromWrist_7x_R,posFromWrist_8x_R,posFromWrist_9x_R,posFromWrist_10x_R,posFromWrist_11x_R,posFromWrist_12x_R,posFromWrist_13x_R,posFromWrist_14x_R,posFromWrist_15x_R,posFromWrist_16x_R,posFromWrist_17x_R,posFromWrist_18x_R,posFromWrist_19x_R,posFromWrist_20x_R,posFromWrist_1y_R,posFromWrist_2y_R,posFromWrist_3y_R,posFromWrist_4y_R,posFromWrist_5y_R,posFromWrist_6y_R,posFromWrist_7y_R,posFromWrist_8y_R,posFromWrist_9y_R,posFromWrist_10y_R,posFromWrist_11y_R,posFromWrist_12y_R,posFromWrist_13y_R,posFromWrist_14y_R,posFromWrist_15y_R,posFromWrist_16y_R,posFromWrist_17y_R,posFromWrist_18y_R,posFromWrist_19y_R,posFromWrist_20y_R,posFromBody_0x_L,posFromBody_0y_L,posFromBody_0x_R,posFromBody_0y_R
6,1.357635,-0.633225,-0.163089,-0.103037,6.601238,11.299599,14.479614,13.446133,-11.5131,14.546448,33.939697,44.693504,-22.297096,7.998413,29.438461,44.500465,-27.510361,-4.099274,15.626015,29.828636,-29.215965,-25.532078,-20.220898,-14.995754,-17.906422,-25.998653,-26.112545,-26.275702,-5.640728,9.163674,14.740663,18.788229,13.060693,25.191821,29.360591,30.369359,26.798147,35.791712,37.501988,37.776296,37.324246,44.207799,43.307712,41.722567,27.411255,51.827144,75.267631,95.495292,50.796306,83.125076,100.417808,113.089988,42.049438,78.865837,98.830215,112.299064,33.769809,67.787498,86.439972,99.200706,26.716713,52.37099,67.538246,79.832817,-12.771751,-14.549335,-10.554664,-9.312888,15.787975,31.38981,37.777742,41.677935,32.570156,46.859708,52.898614,55.448906,44.192399,59.399895,64.207992,64.888531,51.171949,65.952009,69.475093,68.8741,-5.727882,320.527342,-72.68843,299.394757
7,-6.726276,2.625639,-0.278206,0.008473,7.056976,14.658222,23.347217,26.979618,-3.145169,22.301204,40.123043,50.816745,-12.79152,15.502086,36.569309,52.109012,-17.753311,4.755684,23.671589,38.061412,-19.598214,-12.833268,-4.72086,2.805633,-18.363362,-26.056043,-25.948918,-25.799421,-8.313803,2.989696,9.51133,14.953727,9.786761,20.739444,26.393856,28.699949,23.721841,31.774033,34.619788,35.615279,34.580305,40.833103,39.659338,37.729712,27.671882,52.122219,75.5354,95.841224,50.817489,83.299873,100.643532,113.32386,42.039436,79.009987,99.072258,112.602699,33.827865,67.956665,86.704582,99.524734,26.892013,52.629982,67.878021,80.210861,-12.806591,-14.606962,-10.609932,-9.295846,15.735536,31.32833,37.71809,41.651875,32.613998,46.908848,52.883979,55.433888,44.309144,59.522271,64.306101,64.971684,51.329214,66.072372,69.540535,68.877237,-12.774215,323.172661,-73.286693,299.42291
8,2.579647,-1.677363,-0.234329,-0.01303,6.361896,12.962402,20.274948,22.870033,-5.811024,18.632354,36.970207,48.021652,-15.556137,11.828842,33.166053,49.217537,-20.8862,0.738384,19.927528,34.536506,-22.932118,-18.791119,-12.267861,-5.774346,-17.551678,-24.931099,-24.940547,-24.940164,-6.291169,5.858311,11.68613,16.306394,11.78882,23.262331,28.324086,29.920347,25.432809,34.10206,36.567828,37.180936,36.208428,42.857614,41.923923,40.252253,27.852001,52.34967,75.725326,96.025589,50.828064,83.387672,100.749939,113.463958,41.976516,79.034866,99.150238,112.727829,33.790363,68.005188,86.840766,99.731391,26.934562,52.794662,68.10514,80.437843,-12.780445,-14.575406,-10.586787,-9.295697,15.718518,31.339915,37.751979,41.735202,32.682456,47.042032,52.975283,55.487352,44.436017,59.695939,64.465874,65.084107,51.450196,66.119464,69.541869,68.829232,-10.441091,321.516343,-73.767545,299.430925
9,0.282131,-0.42178,-0.0294,0.113127,6.531555,13.029179,19.001804,20.080089,-6.670086,17.601391,35.972797,47.207737,-16.930721,10.540432,31.61594,47.193088,-22.489998,-0.450142,18.635319,32.945698,-24.672958,-19.184681,-11.265781,-3.458874,-17.91929,-25.552852,-25.12565,-24.283967,-6.809749,5.430763,11.438152,15.784072,11.832194,23.47868,28.635457,29.913357,25.860233,34.318495,36.627874,36.915174,37.053532,44.015261,42.795518,40.416361,27.854644,52.385856,75.768665,95.997471,50.98859,83.584476,100.898128,113.576534,42.058273,79.134761,99.176044,112.685154,33.803249,68.086475,86.862842,99.693546,26.916618,52.888675,68.240238,80.538746,-12.801676,-14.623523,-10.661147,-9.417247,15.788321,31.326453,37.717646,41.655025,32.816083,47.144958,53.020855,55.444522,44.615167,59.879955,64.579174,65.062037,51.634682,66.182276,69.512871,68.710449,-10.325272,321.118559,-73.963257,299.568048
10,4.238583,-3.430853,-0.076344,0.069173,6.231056,11.078659,12.848602,10.455585,-12.129788,11.573822,30.578292,41.800163,-22.961747,4.802536,26.017707,41.758918,-28.945508,-6.440255,13.304809,27.515464,-31.254673,-26.989346,-19.919575,-12.745114,-17.887933,-25.445739,-24.936175,-23.900151,-4.280464,10.150582,15.227713,17.999381,14.986269,27.923808,32.272939,32.364675,28.948914,38.418019,39.886814,39.470147,39.959877,48.154033,47.253317,44.901701,27.887077,52.491978,75.85183,96.001602,51.093796,83.767319,101.022995,113.661461,42.08606,79.203301,99.261109,112.794571,33.783886,68.168083,86.940239,99.745217,26.859467,52.913246,68.343567,80.66565,-12.870021,-14.714197,-10.746029,-9.442898,15.738488,31.230481,37.560528,41.425622,32.880847,47.19374,52.982162,55.327171,44.768172,59.954969,64.580421,64.981749,51.83458,66.284473,69.545599,68.650872,-6.207979,317.720634,-74.160891,299.670149
11,1.291729,-0.38804,0.043911,0.132566,5.531284,9.343379,9.639049,6.171157,-15.303097,9.162517,29.063999,40.68996,-26.450718,2.052394,23.440692,38.962039,-32.457699,-9.677422,10.074726,24.087055,-34.553055,-31.002228,-24.289444,-17.384617,-18.889735,-27.240984,-26.246864,-25.199552,-3.708791,12.368077,17.843078,20.467706,16.101779,29.374807,32.982155,32.654038,30.077453,39.460144,40.451324,39.992642,41.030716,49.211423,47.922791,45.21448,27.741532,52.341087,75.745823,95.887516,51.287888,84.014202,101.170155,113.684521,42.273972,79.428166,99.412869,112.855145,33.897743,68.426296,87.100994,99.779423,26.882412,53.094074,68.564633,80.865727,-12.989447,-14.929521,-10.941939,-9.593693,15.603662,31.072832,37.367026,41.14236,32.839079,47.152503,52.905505,55.142784,44.838122,59.982707,64.554152,64.8519,51.990858,66.351497,69.551045,68.578019,-5.007625,317.369947,-74.208355,299.840068
12,-2.491551,1.712809,-0.052952,-0.118907,6.086025,10.069588,10.396523,7.754093,-13.248997,12.534714,32.919251,44.403191,-24.521072,4.859047,25.928307,40.882736,-30.953167,-7.25584,12.188393,25.516205,-33.558781,-30.486443,-24.98156,-19.351753,-19.224941,-28.476351,-29.370448,-30.312549,-4.668035,11.758365,17.129292,19.80206,15.145326,28.82214,31.872907,31.702908,29.075008,38.860991,39.566551,39.166804,39.666118,48.212881,47.182057,44.321716,27.758194,52.352978,75.753846,95.891098,51.520386,84.225861,101.318001,113.7827,42.462262,79.531906,99.426956,112.845772,33.985142,68.518524,87.111649,99.742676,26.815041,53.015236,68.478287,80.798905,-12.978566,-14.879527,-10.810929,-9.428819,15.579481,31.116564,37.413216,41.135852,32.827248,47.225764,53.00564,55.225592,44.831664,60.012447,64.603911,64.918134,52.006963,66.420793,69.67851,68.738039,-7.563149,319.123443,-74.32528,299.761848
13,1.943207,0.324696,-0.099037,-0.058626,5.744831,8.932869,8.430794,5.298511,-14.697167,10.535248,30.732879,42.099129,-26.077011,2.764412,23.797783,38.739189,-32.41111,-9.511837,9.929031,23.281883,-34.962032,-33.055607,-28.226326,-23.051926,-19.094994,-28.405252,-29.18138,-29.726019,-4.890547,11.663961,17.140531,19.886942,14.723323,28.53757,31.746788,31.734537,28.597221,38.462541,39.289724,39.008229,39.217489,47.636367,46.931449,44.586477,27.792732,52.323292,75.699051,95.886635,51.451676,84.269966,101.478104,114.006683,42.348873,79.560768,99.511093,112.946251,33.835213,68.446999,87.114716,99.753479,26.615273,52.77039,68.289528,80.655327,-12.898574,-14.79735,-10.723947,-9.220386,15.811094,31.307089,37.585969,41.26864,33.016402,47.356107,53.068131,55.25291,44.944753,60.096897,64.647371,64.932608,52.076309,66.569118,69.853104,68.879831,-5.655384,319.482053,-74.459759,299.737136
14,-2.396198,0.227204,-0.102264,0.061306,6.409103,10.263073,11.62009,10.714004,-12.47231,13.093998,33.057231,44.029003,-23.561715,5.695278,27.029811,42.4136,-29.959053,-6.046566,13.927951,27.492885,-32.77192,-29.619416,-24.050251,-18.566197,-19.411995,-29.355257,-30.793374,-31.558647,-5.229482,11.063735,16.325525,19.128079,14.530971,28.603865,31.567379,31.375014,28.506139,38.494404,39.00734,38.462269,38.942268,47.483486,46.751077,44.122263,27.795227,52.273224,75.592964,95.768898,51.370559,84.322998,101.562858,114.085556,42.244114,79.566879,99.574562,113.062637,33.711078,68.372772,87.07077,99.662498,26.43576,52.542721,68.107979,80.515342,-12.933624,-14.89331,-10.776435,-8.989526,15.744675,31.132767,37.450711,41.190588,32.950007,47.239633,52.928106,55.127841,44.885609,59.989364,64.533701,64.79945,52.061068,66.625162,69.920905,68.873618,-8.071815,319.72802,-74.582256,299.817205
15,-3.056557,1.034567,-0.071205,-0.075965,5.077343,10.426723,15.801533,17.432842,-9.080967,17.316227,36.873951,48.093601,-19.354168,9.882099,31.12801,46.169002,-24.869602,-1.963669,17.445454,31.146847,-26.915692,-24.467697,-19.239349,-13.652367,-19.38779,-28.98531,-29.764848,-29.354701,-6.46806,8.275123,14.430602,18.70457,12.94317,25.92302,30.16825,31.29086,26.957055,36.351936,38.295604,38.548522,37.590476,45.552896,45.303634,43.047496,27.832031,52.222091,75.488296,95.639236,51.327438,84.342613,101.687164,114.311988,42.132179,79.437492,99.500084,113.033775,33.520843,68.115577,86.883934,99.504501,26.126999,52.186775,67.806793,80.239036,-12.811717,-14.744344,-10.640868,-8.739079,15.934088,31.272224,37.651967,41.464685,33.056564,47.348215,53.092967,55.349623,44.913915,60.064045,64.653249,64.937054,52.065477,66.722975,70.049939,68.962341,-11.140612,320.771818,-74.665701,299.750471
16,-1.848152,-1.765247,-0.091256,0.037136,4.882621,11.165577,18.708149,21.724216,-6.693146,19.676571,39.108112,50.315288,-16.464535,12.589771,34.079624,49.434711,-21.687607,0.910778,20.67445,34.688404,-23.568157,-21.95802,-17.583973,-12.789769,-18.266155,-26.498782,-27.086584,-26.051894,-4.954186,9.733606,15.969817,20.529184,13.714062,27.209022,32.178461,33.887132,27.393928,37.827734,40.575183,41.232701,37.815804,46.471088,46.983517,45.519415,27.853215,52.207158,75.454972,95.606438,51.291768,84.352227,101.763726,114.443047,42.033795,79.350998,99.477791,113.032563,33.367207,67.949318,86.76828,99.36065,25.901413,51.92894,67.624741,80.067376,-12.764007,-14.706601,-10.634347,-8.611996,16.024121,31.265061,37.684931,41.542343,33.125317,47.39585,53.106651,55.302879,44.95971,60.124796,64.689991,64.89462,52.103652,66.814588,70.13371,68.939716,-12.988661,319.01819,-74.756854,299.799226
17,9.558952,-4.720313,-0.115024,0.08839,2.865246,5.691547,8.067478,6.110664,-17.423492,7.111507,27.560085,39.381855,-27.627377,0.894642,23.335224,39.368694,-32.425644,-10.808052,10.483646,25.55611,-33.571964,-34.341682,-30.426201,-25.546715,-17.21431,-24.294452,-22.766883,-19.501212,-0.739918,16.393672,22.273349,25.951315,18.211654,32.340309,36.919522,37.921138,31.556079,42.450012,44.734617,45.138316,41.898902,51.331599,51.815265,50.75075,27.745308,52.059894,75.29076,95.380062,51.208191,84.30241,101.774357,114.516758,41.943901,79.290676,99.497005,113.138958,33.246059,67.765125,86.647419,99.262333,25.715435,51.639953,67.37788,79.86343,-12.699689,-14.748308,-10.789884,-8.653468,16.047833,31.164828,37.609335,41.505687,33.090699,47.308757,53.03812,55.266223,44.856228,60.014472,64.633798,64.836389,51.956204,66.761371,70.176935,68.977742,-3.411444,314.312234,-74.853613,299.901973
18,-5.361546,1.473217,-0.049679,-0.007657,3.419129,8.149109,13.670449,14.472165,-12.926857,13.178284,33.353508,44.975579,-22.466537,7.159539,29.873612,45.97593,-26.772193,-3.807735,17.582428,32.90458,-27.56052,-25.240425,-19.345562,-12.992729,-17.879264,-24.65668,-22.431356,-18.284062,-2.401968,13.202127,19.704692,24.436688,16.433069,29.815272,35.139121,37.070378,29.987828,40.27946,43.191091,44.058511,40.347694,49.437478,49.742822,48.214993,27.645275,51.982018,75.234787,95.320175,51.33989,84.28569,101.713806,114.440369,42.048477,79.208382,99.413933,113.078476,33.239262,67.637672,86.515183,99.131653,25.569374,51.448093,67.212616,79.715195,-12.670049,-14.685743,-10.808706,-8.800237,16.055132,31.244486,37.711977,41.577577,33.059837,47.362652,53.137106,55.343226,44.819054,60.07369,64.725151,64.914676,51.926638,66.764101,70.204846,69.019374,-8.732403,315.806742,-74.862705,299.915607
19,0.960995,0.646045,-0.05682,-0.004607,3.174145,7.488156,13.199467,14.215943,-13.249466,12.817394,33.379795,45.369244,-22.427593,6.463703,29.314282,45.581417,-26.436378,-4.769439,16.355519,31.79044,-26.971367,-26.255745,-21.839744,-16.664978,-16.870348,-22.711308,-20.818744,-17.70472,-2.030069,13.708443,20.331792,25.372009,16.128232,29.239228,34.705263,37.024485,29.336151,39.754977,43.096699,44.47797,39.514657,48.247165,48.730066,48.062013,27.555061,51.954701,75.255398,95.36134,51.402111,84.276592,101.674496,114.389317,42.089802,79.191593,99.397099,113.062328,33.230896,67.610928,86.498623,99.145283,25.523621,51.389145,67.181728,79.709255,-12.648682,-14.641084,-10.813139,-8.877894,16.089527,31.33001,37.805368,41.635784,33.085698,47.493107,53.286641,55.443583,44.838629,60.180198,64.823582,64.958494,51.915239,66.76436,70.213504,69.016521,-7.728916,316.485076,-74.877033,299.943289
20,-0.872394,1.705732,-0.079994,0.079609,4.141708,8.451072,14.903869,17.105884,-11.477761,13.761657,33.818115,45.782936,-20.641755,7.634903,30.65847,47.629531,-24.783554,-3.14732,18.363121,34.39199,-25.444657,-24.453003,-20.313755,-15.546078,-17.348359,-23.34751,-21.886112,-19.238798,-4.161163,10.611388,17.308887,22.5492,14.05448,26.989524,32.286536,34.653022,27.603027,37.743012,40.882984,42.513713,38.120443,46.324195,46.785434,46.794091,27.456665,51.970871,75.322803,95.424648,51.434006,84.30962,101.663601,114.289936,42.151771,79.308666,99.477024,113.104969,33.325859,67.76231,86.584087,99.162792,25.667931,51.545414,67.293949,79.757458,-12.678249,-14.724954,-10.941654,-8.980906,15.992504,31.249389,37.71972,41.514629,32.987033,47.485239,53.254889,55.374262,44.746189,60.124104,64.731524,64.827422,51.801519,66.625224,70.061709,68.865862,-8.556198,318.222601,-74.911915,300.054691
21,0.851463,1.853389,-0.158226,-0.049956,4.125767,7.922699,13.918442,16.620289,-11.640667,12.924019,32.704079,44.897736,-20.650658,6.734276,29.835113,47.595428,-25.048965,-3.562992,17.712135,34.008957,-26.105267,-23.896202,-18.569218,-12.721081,-17.934703,-24.761582,-23.717271,-21.476028,-5.5184,8.363266,15.080982,20.25327,12.845518,25.336799,30.387736,32.417731,26.594531,36.061746,38.76513,40.005214,37.211675,44.902466,45.055126,44.733246,27.403072,52.063179,75.49126,95.556095,51.545448,84.411724,101.767399,114.391628,42.301815,79.42535,99.59325,113.225613,33.523224,67.91534,86.720867,99.315296,25.904045,51.716022,67.432491,79.908794,-12.707618,-14.748111,-10.972295,-8.966889,16.015377,31.233049,37.698441,41.474343,33.006842,47.512014,53.3302,55.491736,44.741458,60.126697,64.751272,64.8416,51.767111,66.608539,70.086569,68.9153,-7.655577,320.10144,-75.020983,300.030185
22,-6.927063,2.41885,-0.06387,0.0041,4.675243,11.395683,23.254211,30.675842,-3.898533,21.630226,40.347061,52.337173,-12.242752,15.368637,38.006813,55.73616,-16.519924,5.06171,25.0681,41.112465,-17.443691,-14.228565,-9.101337,-3.379154,-18.489061,-25.388027,-24.486237,-22.402024,-8.051006,4.021002,11.525825,17.749403,10.137812,21.792597,27.657503,30.212155,24.140484,33.020168,36.719944,38.353823,34.99197,41.599375,41.967889,42.034777,27.397465,52.20393,75.725647,95.815453,51.5705,84.524415,101.905426,114.51931,42.314301,79.55951,99.747757,113.300011,33.582516,68.125191,86.937287,99.486374,26.056492,51.979042,67.717736,80.14991,-12.746113,-14.748691,-10.969652,-8.926368,16.092244,31.319401,37.779235,41.523459,33.130652,47.735316,53.519996,55.596885,44.888869,60.357557,64.875551,64.813763,51.90253,66.692038,70.074232,68.805397,-14.541756,322.547994,-75.043969,300.061989
23,0.875519,1.704719,-0.098911,0.107841,4.007023,10.605514,24.143806,33.06411,-3.140728,21.527778,39.827957,52.214744,-11.133351,15.031746,37.271896,55.263931,-15.346699,4.553947,23.729507,39.803512,-16.226246,-14.63752,-10.720425,-5.86385,-18.230006,-25.766063,-25.874534,-24.86326,-8.740697,2.554861,10.258695,16.785096,9.325226,20.232942,26.166095,28.640644,23.245066,31.598229,35.533039,37.172439,34.115287,39.932966,40.18266,40.430922,27.379635,52.349293,75.969669,96.05991,51.764855,84.858341,102.179455,114.689015,42.582676,79.930126,100.067768,113.572094,33.931481,68.529637,87.22395,99.660061,26.472874,52.374825,68.065258,80.458935,-12.831625,-14.940043,-11.168328,-9.021513,15.939041,30.976551,37.417748,41.171284,33.038088,47.573406,53.358642,55.423502,44.84557,60.242986,64.729672,64.563859,51.89822,66.662756,70.04632,68.701372,-13.638811,324.284138,-75.115454,300.201255
24,0.167038,0.599473,-0.024811,-0.073989,3.630844,10.420349,24.223434,33.560028,-2.53228,21.170768,38.693619,50.981666,-10.293629,14.982696,36.940384,55.410621,-14.574177,5.170063,24.007919,40.167595,-15.688763,-13.127587,-8.092449,-2.213356,-18.903234,-27.102664,-27.286013,-25.600214,-9.76279,0.264983,7.930889,14.420685,8.462326,19.103404,25.37753,27.817486,22.626771,30.678642,34.552245,35.899862,33.815933,39.516003,39.669662,39.51641,27.484944,52.510586,76.194477,96.388813,51.889698,85.053875,102.377941,114.860745,42.742436,80.145436,100.257306,113.701207,34.14235,68.748654,87.378468,99.736325,26.730858,52.559624,68.2057,80.568661,-12.788412,-14.910539,-11.139009,-9.114966,16.06122,30.942254,37.323888,41.009189,33.204888,47.61058,53.385059,55.432887,45.001353,60.296263,64.7335,64.506369,52.045964,66.817132,70.203771,68.812559,-13.445469,324.913736,-75.113961,300.157391
25,0.183849,0.854304,0.085511,-0.003804,3.677502,10.790325,24.397991,33.867565,-2.292789,20.81535,38.090778,50.205792,-9.950191,14.646458,36.138805,54.550037,-14.426811,4.737877,22.774441,38.619289,-15.961224,-13.224907,-7.981762,-1.807411,-18.808064,-27.446267,-27.892315,-26.378059,-9.737385,0.281632,8.043399,14.422328,8.316781,18.855798,25.246002,27.48664,22.290108,30.082306,34.078521,35.169701,33.331885,38.754312,38.679866,37.958065,27.49736,52.482902,76.175205,96.394809,51.786998,85.030346,102.356311,114.852024,42.715072,80.196636,100.288753,113.687679,34.214595,68.874355,87.472492,99.792858,26.910289,52.703281,68.345523,80.756824,-12.830612,-15.016033,-11.213085,-9.196415,16.072545,30.858867,37.210761,40.929544,33.293574,47.570924,53.276205,55.302878,45.112294,60.336191,64.742083,64.526414,52.166896,66.946252,70.32563,68.942359,-13.243578,325.797245,-75.010408,300.182792
26,0.736301,0.083178,0.263191,0.035864,3.451035,10.590226,24.117348,33.051384,-2.950355,20.041054,37.152283,48.998909,-10.663513,14.041558,35.408982,53.557343,-15.048534,3.875966,21.805069,37.674798,-16.414924,-14.641193,-10.587009,-5.31126,-18.57955,-26.984893,-27.252482,-25.678032,-9.230995,0.749095,8.272691,14.583163,8.614751,18.762122,25.015018,27.268352,22.273028,29.768577,34.018302,35.51365,33.180991,38.233212,38.305658,38.130077,27.407398,52.262638,75.884456,96.086048,51.707943,84.91785,102.171421,114.581966,42.738132,80.201809,100.185459,113.512653,34.272972,68.867992,87.357502,99.604717,26.953468,52.671718,68.226322,80.622791,-12.938304,-15.205335,-11.276996,-9.210234,15.995543,30.736762,37.065673,40.8457,33.221944,47.361331,53.067069,55.195396,45.046605,60.148496,64.582867,64.506173,52.136182,66.868953,70.26204,68.988178,-12.509062,325.901261,-74.749002,300.239494
27,-0.190315,0.248002,0.417972,-0.189981,3.728096,10.778984,24.183609,33.274269,-2.884437,20.284973,37.337998,49.109894,-10.601406,14.029312,35.564873,53.804215,-15.038303,4.328293,22.578713,38.490578,-16.70684,-12.893715,-6.555622,0.411621,-18.701211,-27.266796,-27.604175,-26.047571,-9.113249,0.995973,8.804819,15.351523,8.575478,18.980521,25.531177,27.923994,22.231149,29.802132,33.99895,35.346455,33.188599,38.613286,38.559934,37.952236,27.26223,52.005581,75.485802,95.657937,51.697438,84.696534,101.910164,114.294022,42.795742,79.980172,99.939721,113.275635,34.306195,68.605477,87.094689,99.379601,26.894268,52.396145,67.799126,80.151513,-13.030251,-15.174237,-11.067069,-9.141284,16.17189,31.038548,37.401582,41.298083,33.307135,47.504814,53.271957,55.483437,45.068217,60.191214,64.700328,64.755224,52.158264,66.90893,70.429655,69.395508,-12.739992,326.160967,-74.371645,300.061217
28,-3.676517,-4.782026,0.692666,-0.675105,6.713081,15.411312,27.000698,33.548618,0.378181,23.718624,41.369831,52.948551,-7.832611,17.543758,39.3372,57.554867,-13.481953,7.119117,26.053814,41.620296,-16.674168,-12.797745,-6.821137,-0.386811,-18.622183,-26.090413,-25.90573,-24.487212,-5.861522,7.299973,15.160183,20.907257,11.656169,25.106137,32.020232,34.18677,24.692656,35.015967,39.696413,41.329465,35.10958,42.676142,43.756515,43.791491,26.965312,51.477573,74.692955,94.659759,51.639839,84.03804,101.189987,113.633193,42.652896,79.08847,99.098831,112.564498,33.927349,67.637351,86.25119,98.769699,26.102451,51.360763,66.535091,78.852287,-13.337126,-15.276373,-10.752216,-8.980906,16.611441,32.294021,39.385203,44.049545,33.532672,48.594944,55.252145,58.428524,45.122348,60.758738,66.057145,67.130627,52.180506,67.211038,71.268596,71.112713,-16.489111,321.391974,-73.751581,299.399145
29,4.880058,-6.449559,0.469963,-2.10559,7.041401,14.289333,21.384144,23.700153,-5.287617,15.998325,34.422169,46.248402,-14.690403,9.630661,31.758877,50.367062,-20.827606,-1.29332,18.616436,34.686436,-24.182831,-23.413982,-19.738953,-14.928715,-16.905435,-22.202817,-19.993523,-17.432721,-1.185916,16.132518,25.650381,32.252414,15.571256,31.604318,40.828051,45.095449,27.550601,40.240966,46.979035,50.787751,37.289172,46.552981,49.621372,51.884339,26.730068,51.148876,73.736938,93.152435,51.290096,82.624122,99.596077,112.184967,42.131641,77.20008,97.066474,110.798561,33.223503,65.651699,84.142753,96.775062,25.042453,49.897922,64.719005,76.872917,-13.76676,-15.102484,-9.925366,-8.08308,17.087944,34.289213,42.645131,48.665265,33.78223,50.534697,58.91382,64.005018,45.156261,61.920411,68.880646,71.787929,52.226275,68.037654,73.234395,74.488151,-11.876392,315.030134,-73.548957,297.381274
30,5.567413,-3.666949,0.984603,-4.554599,3.043969,5.613568,7.089878,3.88987,-13.176292,5.816471,24.187901,36.059132,-21.531246,0.931767,22.146023,39.481442,-26.768131,-9.526565,9.739643,24.991391,-29.535713,-31.398891,-28.975788,-24.994251,-10.981718,-12.853114,-8.798013,-4.996806,2.930082,20.975232,31.337161,39.029336,16.781798,33.625742,44.577758,50.579923,26.679364,40.598339,48.709676,53.772889,34.82822,44.89523,49.34405,52.915744,26.522816,50.657776,72.188416,90.609902,50.193364,79.369812,95.341897,107.53798,40.60429,73.213028,91.974518,105.549477,31.12785,60.550198,77.827664,90.101899,22.278683,44.170132,57.157963,67.710995,-14.345214,-15.136076,-10.062106,-8.288684,16.968222,35.647142,45.661169,53.320641,33.40407,52.604731,63.136857,70.550994,44.650586,63.529565,72.650582,77.712263,51.535325,68.435375,74.669475,76.709535,-6.780156,311.556464,-73.035531,293.019954
31,12.476635,-5.139586,1.739331,-6.724311,-3.860218,-8.226631,-13.261699,-20.342788,-26.311706,-17.622425,-5.159454,3.304276,-31.863498,-20.881611,-6.784595,5.701584,-34.562473,-26.336414,-13.334289,-3.153556,-35.212589,-40.573597,-40.529365,-38.937652,-10.407031,-10.951954,-6.856864,-3.331792,8.062925,24.980142,33.856961,40.551805,21.435359,37.591786,47.491106,53.256791,30.537074,44.289829,51.789145,56.749172,37.435743,48.774625,54.333595,58.501624,25.224552,48.12862,67.992702,85.477192,47.390762,73.944774,88.089397,98.236828,38.032551,67.521137,83.616955,94.058384,28.544403,54.492531,68.577598,77.379032,19.399601,37.975067,47.643356,54.47842,-15.932447,-17.443244,-12.972663,-11.569274,14.045316,34.284742,45.897105,54.875541,30.809318,53.164165,66.703153,76.596705,42.71907,64.403456,76.182656,83.722332,50.612971,69.154274,77.216173,81.091196,5.120235,306.782271,-71.872444,286.661036
32,14.154465,-6.142869,-1.830872,-13.226469,-9.876469,-20.692017,-32.755314,-44.459896,-38.103413,-40.433567,-34.661247,-31.068558,-41.172363,-42.025886,-36.448585,-30.819603,-41.410984,-43.603031,-38.223221,-34.144169,-39.717659,-52.023891,-57.308086,-60.46138,-10.252421,-9.109606,-2.615908,2.216124,11.875876,29.268127,37.51981,43.584219,25.472403,41.975411,51.366969,57.366343,34.456718,49.312768,57.077894,62.536977,40.892395,53.638014,60.239256,65.2865,24.396424,46.605629,65.111687,81.502499,43.731846,66.568291,79.387894,88.424458,34.978764,60.899529,75.960125,85.363392,26.347046,49.476071,62.587143,70.337139,18.095684,35.107968,43.81889,49.397061,-16.955737,-19.570237,-17.126848,-17.359486,10.635816,30.917529,42.793826,51.522049,27.925907,51.645216,65.403405,75.026503,40.642318,63.469271,75.638894,83.452409,49.438985,69.073813,77.677671,81.910773,18.500965,301.119088,-74.477051,273.914253
33,17.578789,-1.636769,-5.213836,-18.137727,-19.23983,-37.780586,-55.323555,-70.053749,-52.714497,-66.920723,-68.65012,-69.874695,-52.556294,-66.625019,-69.518521,-70.598454,-49.187359,-63.332085,-66.043579,-67.572853,-44.06622,-62.131291,-70.932278,-77.119045,-10.010137,-7.92054,0.634646,7.446248,12.755017,27.421642,35.188806,41.507998,26.474946,40.141597,48.98906,55.542224,35.952856,48.940783,56.557265,62.258668,42.46419,54.545177,61.066465,66.407888,23.751571,45.254985,61.706932,75.770164,39.63446,57.343162,68.03516,75.551387,31.318782,51.629825,64.123867,71.700691,23.500785,41.84579,52.679454,58.968841,16.48566,30.288448,37.53804,41.931072,-17.450592,-21.838675,-22.888667,-26.102059,4.126126,22.38907,33.522002,42.264588,21.377845,44.62049,58.701029,69.121275,34.736373,57.615667,70.365373,78.925141,44.293633,64.202583,73.543444,78.855276,34.881312,300.167903,-80.889329,256.46211
34,9.635353,-0.121006,-6.843293,-20.708908,-25.805351,-49.276314,-69.768219,-86.017399,-58.998814,-82.682053,-91.997486,-98.529625,-55.075173,-80.489571,-91.962776,-100.30402,-48.808342,-72.883759,-84.096153,-92.170143,-41.356934,-62.912968,-74.332169,-83.333576,-11.257026,-9.371823,-0.372861,6.885245,12.829896,24.135038,29.752868,34.537809,27.152447,38.432098,44.47203,49.043758,37.307154,48.877934,54.821954,58.934408,43.744264,55.690795,61.415762,65.582989,22.763987,42.297083,56.21608,67.724219,34.825745,46.537325,54.513605,59.737496,26.448395,39.750738,49.257014,54.630066,18.948549,31.061417,39.28192,44.021776,12.745079,21.626805,26.972706,30.020016,-18.722262,-26.524028,-31.825319,-38.674079,-4.413518,9.968239,18.87962,25.974943,12.155612,31.671385,43.961891,53.011537,25.446326,45.034742,56.21718,63.783402,35.303952,52.542456,60.872117,65.923511,43.104132,300.967939,-89.145155,236.674244
35,8.708015,-3.079394,-9.226879,-22.387451,-28.032142,-53.599617,-75.945282,-92.15324,-63.361198,-95.746799,-111.657451,-123.085315,-57.792125,-93.436374,-111.917919,-125.478401,-49.993034,-81.891002,-99.563781,-112.71191,-41.093673,-64.964756,-78.406597,-89.811275,-16.951822,-16.724864,-7.449915,-0.192167,13.663119,24.750207,29.053902,32.223625,30.90949,41.531598,45.256852,48.155009,42.904199,54.155185,58.614269,61.728911,50.131887,63.015036,68.21652,71.72319,21.614359,38.238734,49.235333,58.185511,29.831989,35.34244,40.718679,43.493809,21.012726,26.426531,33.302439,36.647369,13.753447,19.209217,25.328482,28.77883,8.314602,12.922451,17.268357,20.085102,-20.641403,-32.963898,-42.270445,-53.164036,-14.103702,-4.862666,0.435476,4.41772,1.157814,13.680637,22.48816,28.519174,13.501301,25.995101,33.783156,39.024587,23.400744,35.20977,41.454885,45.976485,50.502239,298.891717,-99.681942,215.289965
36,0.969429,-1.107135,-11.213562,-21.935118,-26.929504,-51.962837,-75.205902,-92.904625,-61.195221,-94.544757,-111.443802,-124.512645,-55.793953,-92.230259,-111.862449,-127.217067,-48.242065,-81.32714,-100.104229,-114.258567,-39.6324,-64.770034,-79.021991,-91.219665,-17.431796,-17.09223,-6.128457,2.405018,12.39143,24.864754,30.239448,33.875115,30.2403,41.844623,46.146922,49.323561,42.999948,55.494811,60.456926,63.752718,50.871014,64.173955,69.034367,72.199174,20.008799,33.254122,40.280182,44.758982,26.636948,27.565035,30.755396,32.705624,17.854511,16.052336,18.325155,19.559372,10.236757,8.571499,11.364802,13.739634,4.458733,4.501293,7.570633,10.650994,-21.269379,-36.364548,-48.215126,-60.793805,-23.463816,-23.164753,-24.280706,-26.006016,-9.079836,-6.682024,-3.828883,-2.263615,3.242261,6.424063,8.632152,10.126395,13.251423,17.969673,20.398082,22.201799,50.236095,298.829201,-112.131077,194.399466
37,0.164383,-0.326994,-10.046379,-21.488439,-26.920074,-51.804199,-75.491352,-94.264949,-60.558815,-94.144352,-111.219223,-124.52536,-55.147705,-91.682384,-111.200878,-126.55561,-47.833213,-80.946167,-99.753845,-113.837997,-39.583946,-64.297989,-78.55759,-90.747024,-17.39099,-17.089241,-6.30111,2.289706,12.445969,24.599537,29.860585,33.479357,30.163558,41.272667,45.397582,48.485806,42.863135,54.939293,59.750638,63.06561,50.59998,63.642173,68.376479,71.592391,18.192473,27.605478,30.559685,31.621473,18.810642,13.220907,13.266317,12.923779,9.959175,0.814333,-1.797586,-3.663815,2.509672,-6.201828,-8.221739,-8.77561,-2.849624,-8.850529,-9.318741,-8.228084,-23.329133,-42.316665,-57.098306,-72.050535,-32.163869,-36.787975,-40.519472,-43.870886,-18.421482,-22.035517,-22.284421,-22.250748,-5.867518,-8.43489,-9.127625,-9.138474,5.105728,5.307528,6.041432,7.258767,49.194008,299.536376,-123.383926,173.945196
38,0.252571,-0.139234,-6.294342,-17.185831,-26.435188,-51.320388,-74.931518,-93.782295,-60.365318,-93.632629,-110.6865,-123.984924,-55.074897,-91.269802,-110.72549,-126.023712,-47.82534,-80.597408,-99.337371,-113.378574,-39.514686,-63.943176,-78.124328,-90.248107,-17.469365,-17.416803,-6.877761,1.436685,12.309957,24.364823,29.645212,33.331242,29.950555,41.020662,45.11432,48.237285,42.60356,54.623685,59.433709,62.787769,50.35341,63.348401,68.225609,71.584486,15.559485,20.470488,20.177238,19.453234,10.992588,1.017672,-2.630339,-6.705792,2.158081,-12.043173,-18.584398,-23.811791,-4.925806,-18.594486,-24.409475,-28.446653,-9.931389,-20.342995,-23.92234,-25.842132,-25.796766,-48.123686,-63.929414,-79.585759,-39.444008,-47.87184,-54.121544,-60.496462,-26.028744,-34.470562,-38.207833,-41.781731,-13.033857,-20.497611,-24.681164,-27.768401,-0.750502,-4.693902,-6.691046,-8.020669,48.469711,300.28129,-130.655136,157.643513
39,0.594773,0.166121,-3.3834,-14.520307,-26.1381,-51.01664,-74.670834,-93.555966,-60.379006,-93.418167,-110.396794,-123.544888,-55.140724,-91.101059,-110.46175,-125.630802,-47.942459,-80.473881,-98.995262,-112.8074,-39.711457,-63.940521,-77.874687,-89.670914,-17.596768,-17.693457,-7.367343,0.851686,12.004613,24.086266,29.401384,33.120389,29.672345,40.750122,44.869442,48.087639,42.376652,54.364025,59.0823,62.405126,50.178236,63.035104,67.950869,71.424367,12.950306,14.373734,11.924011,10.14996,3.638901,-9.243896,-15.846748,-22.734055,-4.33659,-21.489693,-31.169941,-39.239983,-10.479504,-26.991829,-35.837551,-42.840157,-14.732483,-27.663563,-33.669674,-38.226139,-27.05866,-51.48322,-67.607476,-83.418212,-45.193972,-55.958409,-63.842232,-71.865654,-31.558765,-42.511713,-48.440747,-53.911975,-17.430184,-27.212641,-33.62702,-38.527305,-3.420911,-9.1513,-12.657328,-15.526981,48.279454,301.09341,-134.823566,143.769205
40,0.853157,0.244161,0.914269,-12.327821,-26.08445,-50.950928,-74.615444,-93.494431,-60.389008,-93.274555,-110.188042,-123.275048,-55.151024,-90.923962,-110.230797,-125.393051,-47.953469,-80.324444,-98.765328,-112.519043,-39.710976,-63.771973,-77.56818,-89.222935,-17.558236,-17.780118,-7.397453,0.871063,11.839641,24.003336,29.345636,33.079881,29.50279,40.622854,44.833911,48.228924,42.218497,54.20692,58.94309,62.341795,50.067555,62.882939,67.924897,71.541261,9.584976,8.428367,4.335285,1.744468,-1.376118,-15.424691,-24.319874,-33.495163,-7.433327,-25.228077,-38.053551,-49.042466,-12.140694,-29.331196,-40.727555,-50.314774,-15.581543,-28.871315,-36.930302,-43.766007,-26.91882,-51.332994,-67.427387,-82.868689,-47.370927,-60.282414,-69.080304,-77.27885,-33.218326,-45.147579,-52.439185,-58.501594,-17.543941,-26.981225,-34.449505,-40.220779,-1.664137,-6.29472,-10.054696,-13.520043,48.409853,301.955841,-134.632055,132.059654
41,0.752106,0.392905,8.029186,-12.569426,-26.152863,-51.034928,-74.668614,-93.553963,-60.293496,-93.165333,-110.037713,-123.066811,-54.945008,-90.75737,-110.012524,-125.221196,-47.726464,-80.168931,-98.643906,-112.517315,-39.525857,-63.561768,-77.41,-89.1885,-17.492014,-17.835297,-7.562585,0.78575,11.910988,24.134939,29.373449,32.952243,29.600542,40.617309,44.716104,48.061976,42.289585,54.125792,58.732509,62.078826,50.085969,62.848668,67.95355,71.689339,8.79158,7.078995,3.337795,1.571079,-3.206703,-19.357784,-29.539089,-39.712258,-9.195019,-29.115509,-40.722931,-49.801449,-13.328282,-31.579113,-42.176537,-50.125603,-15.972027,-30.315434,-38.435864,-44.506199,-27.801808,-53.271803,-71.038835,-88.183714,-46.655469,-58.454842,-65.218081,-70.200549,-32.943666,-43.93695,-50.317713,-54.781286,-17.862011,-26.921439,-33.433149,-38.181707,-2.21195,-6.639201,-10.145,-13.012362,48.518326,302.978467,-127.246502,120.119949
42,0.055984,0.243939,10.988365,-7.344539,-26.077492,-50.856514,-74.452984,-93.529243,-60.068253,-93.075657,-109.907341,-122.822971,-54.621735,-90.553425,-109.698647,-124.716225,-47.327957,-79.937691,-98.469612,-112.383682,-39.073746,-63.251884,-77.223003,-89.081383,-17.424929,-17.787787,-7.849194,0.306406,12.159051,24.319881,29.413327,32.818874,29.892646,40.794348,44.63305,47.685978,42.525113,54.285121,58.762124,61.943419,50.184338,63.015307,68.150756,71.865302,7.178352,6.270985,4.142521,3.314495,0.422996,-11.93858,-21.404526,-31.511856,-4.706566,-21.836037,-31.860935,-39.995029,-8.862259,-25.41338,-34.419869,-41.264145,-12.068802,-25.685783,-32.441471,-37.680599,-27.935053,-52.208899,-69.462723,-86.101193,-45.549864,-56.668501,-63.271491,-68.104585,-32.369337,-42.673999,-48.36756,-51.983967,-17.679322,-26.405106,-32.311508,-36.621174,-2.501793,-6.912502,-10.934139,-14.178419,48.148979,303.90828,-116.683468,113.461284
43,0.017532,-0.127403,12.023094,-5.180254,-26.242241,-51.084823,-74.653564,-93.786838,-60.021537,-93.046783,-109.791298,-122.64846,-54.533752,-90.382404,-109.42828,-124.378074,-47.183784,-79.665928,-98.211181,-112.227802,-38.867523,-62.947403,-76.945747,-88.881134,-17.493522,-17.878758,-8.05339,0.123599,12.323282,24.429599,29.367162,32.637933,30.053555,40.823728,44.502274,47.366221,42.668991,54.418637,58.919723,62.041528,50.260451,63.229272,68.529965,72.377164,6.917645,7.569248,7.016235,6.331101,5.633022,-3.436809,-11.337753,-19.737614,1.225823,-12.779537,-20.989883,-27.323101,-3.276558,-17.439537,-24.352512,-29.120338,-7.425945,-18.998657,-24.005562,-27.633259,-28.001879,-51.210426,-68.650403,-85.293041,-43.108846,-53.080228,-59.28901,-63.802348,-30.449307,-40.148537,-45.313144,-47.878559,-16.519433,-24.947883,-30.300365,-33.720363,-2.389698,-6.48656,-10.112377,-12.813501,47.999885,304.497787,-104.827,108.99794
44,-0.173698,-0.636351,10.698715,-2.616606,-26.511086,-51.306633,-74.774323,-94.012459,-60.038292,-92.994381,-109.709827,-122.639328,-54.440712,-90.076881,-109.022484,-123.991825,-46.990654,-79.233891,-97.818569,-112.019634,-38.522278,-62.389984,-76.436302,-88.567955,-17.366031,-17.8062,-8.051895,0.019995,12.625502,24.428809,29.33767,32.637477,30.376436,40.97272,44.608695,47.422353,42.975175,54.761056,59.314433,62.432149,50.523891,63.748507,69.239169,73.199655,6.898419,8.563717,7.771809,6.054177,11.445191,4.443684,-2.413845,-9.459926,6.990818,-6.208614,-13.157421,-17.205265,1.255074,-12.325836,-17.638023,-20.01551,-4.588737,-15.551044,-19.388351,-21.221214,-26.627216,-48.949842,-66.166005,-80.98527,-41.448179,-53.731466,-61.056232,-66.023985,-29.784743,-40.486633,-43.599514,-44.581642,-17.07841,-26.29251,-29.709828,-31.540635,-4.59278,-9.990544,-12.595849,-14.157548,47.932983,304.516516,-94.021489,107.036414
45,-0.043511,-0.765359,4.091177,-0.340649,-26.659606,-51.473487,-74.858905,-94.157649,-60.081939,-92.853847,-109.537994,-122.548107,-54.426223,-89.767353,-108.719524,-123.820289,-46.87841,-78.79668,-97.411914,-111.811672,-38.220542,-61.772277,-75.776802,-88.075458,-17.23559,-17.837348,-8.373887,-0.539748,12.576842,24.304579,29.235337,32.513444,30.243845,40.891024,44.599791,47.390551,42.849228,54.850236,59.675215,62.939404,50.444862,63.966992,69.755439,73.957493,7.797467,10.149977,9.086747,6.793213,13.321902,6.894465,0.728188,-5.383598,8.738182,-4.18119,-10.130264,-12.926216,2.572094,-10.585573,-15.380367,-16.99827,-3.568353,-14.280904,-17.681116,-18.869236,-26.70412,-49.319011,-66.642672,-80.761808,-41.237379,-53.209858,-60.334994,-65.584894,-29.265367,-38.842624,-40.396644,-40.652522,-16.596378,-25.547699,-27.711797,-28.662683,-4.655932,-10.604713,-12.456627,-13.238196,48.055458,304.305045,-89.764326,107.249653
46,0.090912,-0.695359,-6.044506,2.060938,-26.601928,-51.413017,-74.72192,-93.958053,-60.046714,-92.447788,-109.075103,-122.156639,-54.352729,-89.348693,-108.371589,-123.657817,-46.728469,-78.397327,-97.00819,-111.563873,-37.864792,-61.198356,-75.11309,-87.532699,-17.164317,-17.904841,-8.375258,-0.632275,12.297335,24.219549,29.329433,32.659052,29.92178,40.866719,44.848497,47.818605,42.560669,54.85131,59.974927,63.46837,50.292018,64.07818,70.161275,74.6314,7.70802,9.572771,7.561581,5.128487,9.151011,2.160376,-4.241752,-11.203731,5.508248,-5.694271,-12.310066,-16.993126,0.752484,-10.607076,-16.160694,-19.793844,-3.686319,-12.809183,-16.862703,-19.888424,-26.877811,-49.531487,-66.786229,-81.262937,-41.224553,-50.843051,-56.78755,-62.271625,-27.994228,-34.678454,-36.367652,-37.685328,-14.092978,-20.281395,-22.390387,-24.049927,-1.064064,-4.348797,-5.242282,-5.619423,48.178316,303.943055,-95.776886,109.64396
47,0.548584,-0.281496,-9.147182,4.333169,-26.550865,-51.393104,-74.653461,-93.83472,-60.039024,-92.182537,-108.815242,-122.005474,-54.260719,-89.050621,-108.176651,-123.680683,-46.575004,-78.029159,-96.640903,-111.304458,-37.610412,-60.741256,-74.532623,-87.008045,-17.089117,-17.897393,-8.169987,-0.384359,11.957708,24.047291,29.411672,32.915156,29.619166,40.802487,45.100612,48.300271,42.374195,54.930487,60.24243,63.899129,50.275827,64.255491,70.556231,75.243063,7.937405,7.440073,2.956627,-1.235447,5.216463,-5.115664,-14.176941,-23.705429,1.297291,-12.241379,-21.913296,-29.77961,-2.952267,-15.706473,-23.896156,-30.549711,-6.685667,-16.169523,-22.559012,-28.546189,-28.020022,-51.751094,-69.153962,-84.1462,-42.811663,-52.070341,-57.619872,-62.935542,-28.753956,-34.876,-36.598833,-38.297948,-14.508596,-20.052968,-21.814417,-23.164012,-1.270046,-4.163392,-4.236251,-3.812174,48.380453,303.774328,-105.270515,114.089898
48,0.622353,0.165405,-11.693367,3.306567,-26.422531,-51.203545,-74.48164,-93.683155,-59.644295,-91.89378,-108.671734,-121.945519,-53.798264,-88.801884,-108.072704,-123.648766,-46.133125,-77.745323,-96.466335,-111.154163,-37.260773,-60.432747,-74.220738,-86.697281,-16.963332,-17.762506,-8.057132,-0.397228,11.782905,24.086712,29.601863,33.159897,29.458997,40.862619,45.297793,48.593906,42.25225,55.004229,60.402302,64.163507,50.207383,64.278993,70.65597,75.448197,7.959663,4.904337,-2.690506,-7.883148,0.023237,-14.02101,-25.260842,-37.221394,-3.933358,-20.551689,-33.003731,-43.637902,-7.413517,-22.863402,-34.123284,-43.529921,-10.153319,-21.655569,-30.57395,-38.857144,-28.759167,-53.733041,-71.328163,-86.663134,-44.365722,-53.644173,-58.75882,-63.820628,-29.000315,-34.591978,-36.742069,-39.104247,-13.691749,-18.967728,-21.013705,-22.952831,0.411091,-2.516063,-2.706989,-2.543851,48.437782,303.980646,-117.528906,117.437378
49,0.606354,0.464252,-10.578495,2.110846,-26.346749,-51.074181,-74.328827,-93.5621,-59.385086,-91.717976,-108.566265,-121.83157,-53.510422,-88.678196,-107.98795,-123.518017,-45.879296,-77.604309,-96.397042,-111.049748,-37.076958,-60.342362,-74.187493,-86.663304,-16.93794,-17.755046,-8.053229,-0.420335,11.713522,24.029543,29.56506,33.153562,29.40173,40.822234,45.289049,48.594783,42.185597,54.905367,60.307466,64.06767,50.150881,64.133286,70.490948,75.237789,7.881065,3.180376,-5.698425,-11.040127,-5.570521,-22.768885,-34.791081,-47.810005,-9.099953,-26.948536,-41.093491,-54.499581,-10.9678,-27.186899,-40.71508,-53.151873,-11.639254,-23.653261,-33.968359,-44.028557,-31.04389,-57.069484,-75.956703,-93.235292,-44.082974,-49.98724,-53.333578,-57.527138,-26.951363,-30.365781,-34.807263,-38.878328,-10.173378,-13.898866,-17.994209,-21.500765,5.388279,4.247138,3.205371,2.643183,48.378502,304.458131,-128.773035,119.561457
50,0.426017,0.516394,-3.238775,0.906592,-26.201889,-50.843605,-74.109512,-93.3819,-59.099006,-91.614841,-108.524219,-121.751998,-53.249725,-88.655857,-107.920085,-123.251232,-45.685844,-77.563854,-96.370216,-110.897129,-37.004699,-60.36161,-74.255493,-86.627552,-17.103765,-17.839904,-7.985526,-0.232083,11.721192,23.890111,29.399075,33.08056,29.568407,40.831583,45.191792,48.423895,42.394239,54.971168,60.217322,63.846542,50.324165,64.189837,70.370918,74.910857,7.578014,2.081874,-7.476666,-13.037556,-9.356358,-28.506466,-40.325856,-52.525235,-12.919442,-31.767975,-45.961579,-59.318528,-13.97889,-30.891289,-44.934414,-57.710724,-13.479928,-25.823742,-36.423295,-46.441269,-31.674059,-57.885819,-77.454938,-95.229065,-43.369087,-47.586325,-49.974325,-53.298702,-25.680274,-28.032193,-33.446315,-38.0916,-8.334268,-11.088256,-16.160793,-20.445303,7.982858,7.744298,6.129599,5.045428,48.132305,304.96035,-132.684024,120.453874
51,0.01236,0.359128,3.959564,1.848331,-26.137894,-50.745506,-73.98024,-93.213352,-58.900886,-91.696506,-108.593822,-121.694435,-53.060028,-88.705353,-107.79055,-122.814674,-45.50489,-77.535919,-96.293838,-110.688206,-36.873917,-60.348175,-74.310963,-86.621006,-17.304713,-17.97468,-8.100579,-0.16065,11.869158,23.781936,29.139686,32.81097,29.859227,40.821234,44.951645,48.006919,42.734904,55.083813,60.185422,63.657895,50.609798,64.364937,70.437596,74.818998,7.203335,1.979988,-6.877247,-12.478157,-5.379032,-23.757397,-35.181851,-47.05885,-9.276558,-29.022686,-43.063305,-56.038433,-11.129849,-29.027699,-43.341156,-55.845417,-11.827481,-24.751591,-35.153881,-44.672848,-32.381261,-58.841282,-78.571829,-96.286466,-43.394546,-48.433812,-51.892329,-56.057555,-26.160179,-29.116208,-34.319755,-39.134737,-9.306633,-12.353176,-17.66925,-22.399671,6.543426,5.570678,3.360464,1.578236,47.802578,305.39239,-129.066547,122.375117
52,-0.266785,0.018155,7.817505,1.791491,-26.282569,-50.816986,-73.963382,-93.140361,-58.771453,-91.666545,-108.558952,-121.620575,-52.9785,-88.618309,-107.576282,-122.448818,-45.460235,-77.416179,-96.114257,-110.496517,-36.856865,-60.183677,-74.142723,-86.464004,-17.410405,-18.175444,-8.450742,-0.403169,12.091447,23.801177,28.998697,32.59304,30.112465,40.872746,44.833936,47.768686,42.930479,55.204251,60.263561,63.647261,50.688233,64.455129,70.520971,74.843327,6.43293,2.895938,-4.085301,-8.465138,-0.904026,-18.771058,-28.767254,-38.487259,-4.848164,-25.99577,-37.817334,-47.679989,-7.680462,-27.101715,-39.025738,-48.352433,-9.569527,-23.488758,-31.963898,-38.775204,-32.301888,-58.84164,-78.837918,-96.322714,-42.727383,-48.451633,-52.058654,-56.417214,-26.103955,-30.959205,-35.986436,-40.705773,-9.751353,-14.907037,-20.641483,-25.537896,5.727598,2.557047,-0.460893,-2.613432,47.843055,305.651356,-120.94178,124.407419
53,-0.340072,-0.23974,9.905559,1.093705,-26.387352,-50.974182,-74.002728,-93.076241,-58.819084,-91.629502,-108.547291,-121.656052,-53.049019,-88.483612,-107.400742,-122.294449,-45.516838,-77.263813,-95.947861,-110.422646,-36.840157,-59.977204,-73.913647,-86.293133,-17.502895,-18.41322,-8.648293,-0.458929,12.053866,23.637564,28.820387,32.455152,30.145242,40.745985,44.679782,47.604998,43.017745,55.191888,60.241318,63.590685,50.828604,64.663253,70.71709,74.975708,5.90752,4.279587,-0.295864,-3.756775,3.749542,-12.570442,-20.922912,-28.222526,-0.437118,-21.379783,-30.622444,-37.431747,-4.218384,-23.327328,-32.304874,-38.668339,-7.149547,-20.451942,-26.430267,-30.788063,-32.126449,-57.780892,-77.660394,-94.711627,-41.583061,-47.371094,-50.832686,-55.157395,-25.767515,-31.754575,-36.218463,-40.555837,-10.180235,-16.346909,-22.024205,-26.556975,4.801743,0.554012,-2.694251,-4.638277,48.278647,305.670051,-110.260557,125.759559
54,-0.519058,-0.268688,9.690296,1.444015,-26.289849,-50.910782,-73.868878,-92.862637,-58.789994,-91.415646,-108.294789,-121.460278,-53.021645,-88.206173,-107.114823,-122.049008,-45.451104,-76.939248,-95.58545,-110.138604,-36.692482,-59.742142,-73.621445,-85.994534,-17.638228,-18.586146,-8.771313,-0.521606,11.900453,23.614148,28.834601,32.481605,29.995781,40.696016,44.721537,47.756793,42.930615,55.266816,60.502485,64.03556,50.804077,64.810144,70.938317,75.288881,5.610295,5.783432,3.28188,0.90342,9.272518,-4.000866,-11.431251,-17.561714,4.823662,-14.17155,-22.063728,-27.115986,-0.296001,-18.628704,-25.824417,-30.016159,-5.061504,-17.760578,-22.536953,-25.561191,-31.693399,-56.442551,-76.105957,-92.952402,-42.384396,-50.456095,-55.552412,-61.392791,-27.359434,-35.31876,-39.010903,-42.70929,-12.104403,-19.58741,-24.652901,-28.450811,2.76254,-2.781381,-6.110587,-7.9795,48.783589,305.709963,-99.546261,127.512174
55,-0.478112,-0.142903,6.74445,2.577406,-26.254852,-50.854568,-73.757171,-92.735721,-58.724922,-91.16653,-108.052047,-121.309066,-52.926704,-87.919018,-106.873901,-121.930561,-45.330253,-76.649574,-95.288967,-109.954227,-36.51503,-59.617973,-73.527328,-86.006824,-17.655221,-18.717019,-8.884847,-0.560323,11.722994,23.550211,28.858153,32.56671,29.79345,40.573639,44.748103,47.939154,42.778697,55.243215,60.650081,64.364257,50.743018,64.829238,71.024076,75.454607,5.352116,6.241104,4.728447,2.842987,15.237625,5.137562,-1.831719,-7.925778,10.777084,-6.760483,-14.145619,-18.331741,4.315842,-13.67078,-19.544895,-22.188549,-2.45763,-15.091003,-18.747288,-20.72176,-31.084027,-54.970433,-73.401294,-88.876429,-43.983515,-55.445831,-62.965172,-71.222116,-29.85993,-40.752104,-43.391946,-46.366439,-15.156558,-24.81415,-29.069605,-31.848349,-0.742326,-8.028134,-11.424746,-12.941744,49.48094,305.860718,-91.626348,130.383238
56,-0.22174,-0.019242,3.385014,0.586407,-26.244896,-50.776635,-73.647023,-92.679085,-58.701348,-91.023102,-107.943982,-121.291787,-52.832909,-87.688008,-106.740315,-121.942028,-45.181435,-76.281819,-94.93047,-109.667759,-36.314576,-59.391266,-73.29855,-85.81049,-17.67298,-18.841582,-8.93689,-0.597274,11.452145,23.458834,28.907591,32.744762,29.497073,40.454881,44.850189,48.284154,42.518679,55.225024,60.872766,64.851642,50.545491,64.728375,71.005342,75.537402,5.259841,5.985694,3.761867,1.377742,15.830795,7.046607,0.816249,-4.095063,11.322669,-4.897568,-11.134209,-13.43089,4.25362,-12.977063,-16.499611,-16.807744,-3.21127,-15.370503,-17.310643,-17.513363,-29.028597,-51.118862,-67.414574,-80.014214,-44.788655,-58.807357,-67.807306,-77.471048,-31.524598,-44.397812,-46.038656,-47.932541,-17.035259,-28.144498,-31.583378,-33.079579,-2.614809,-10.799647,-13.960737,-14.756249,50.305968,306.048262,-87.194566,131.176431
57,0.074203,-0.008262,2.046512,-0.8676,-26.108345,-50.713234,-73.590935,-92.669392,-58.744972,-90.932522,-107.881462,-121.289795,-52.804916,-87.586475,-106.750683,-122.091099,-45.078117,-76.135883,-94.869564,-109.700066,-36.101051,-59.288498,-73.246994,-85.818603,-17.546046,-18.677425,-8.711007,-0.388039,11.372969,23.573504,29.126397,33.053044,29.29137,40.406234,44.955671,48.56602,42.311321,55.178353,61.030884,65.283869,50.422114,64.669688,71.012665,75.666003,6.199642,5.609734,1.291695,-2.454998,15.131035,7.79171,2.218609,-1.953472,10.251217,-4.924507,-11.040413,-12.614479,2.831726,-13.720344,-16.710171,-16.081959,-4.848553,-16.344692,-17.802956,-17.365871,-26.663062,-47.004852,-61.135297,-71.089093,-45.26446,-62.477529,-73.922949,-85.538313,-32.70253,-46.251157,-46.343128,-47.146464,-18.3813,-28.995628,-31.11778,-31.702007,-3.901669,-11.305339,-13.709845,-14.153015,51.247467,306.147014,-84.280758,130.415845
58,-0.019363,-0.053673,0.404743,-0.867395,-26.055428,-50.606026,-73.393273,-92.53735,-58.598557,-90.617009,-107.512299,-120.930886,-52.607666,-87.287762,-106.503857,-121.964894,-44.844727,-75.880989,-94.613869,-109.507428,-35.816529,-59.075066,-73.08767,-85.790657,-17.325128,-18.288027,-8.211484,0.025058,11.561986,24.016526,29.641741,33.518753,29.419094,40.710478,45.357839,49.00378,42.411393,55.414066,61.423468,65.807834,50.50418,64.785803,71.194742,75.906669,7.287712,6.200329,0.741143,-3.761398,14.561806,8.165589,3.036358,-0.860218,8.843743,-5.61478,-11.452148,-12.444351,0.848076,-15.286102,-17.742462,-16.260189,-6.961761,-18.373981,-19.407646,-18.151611,-24.974658,-44.794453,-58.284572,-67.045597,-45.873109,-66.046635,-80.071988,-93.704355,-34.326073,-48.785351,-47.995292,-47.899418,-20.563036,-31.339347,-32.310947,-31.913854,-6.515033,-13.874682,-15.45075,-15.330417,51.878254,306.161708,-83.225865,129.616817
59,0.118538,0.00042,-0.213432,-1.787854,-26.063347,-50.615433,-73.361962,-92.502675,-58.389565,-90.370377,-107.282559,-120.717579,-52.396134,-87.07528,-106.354924,-121.908726,-44.64917,-75.721356,-94.518803,-109.501065,-35.606369,-58.877152,-72.956646,-85.809437,-17.076249,-17.951561,-7.949205,0.251213,11.89345,24.413395,30.024384,33.841646,29.647657,40.969237,45.627453,49.26312,42.552702,55.542581,61.582907,65.965013,50.581281,64.813627,71.239956,75.961763,7.824177,5.926964,-0.743752,-5.915405,13.32859,6.921295,2.004467,-1.719658,7.018856,-7.838654,-13.007916,-13.088413,-1.151665,-17.248924,-18.813057,-16.360966,-8.699329,-20.024666,-20.316982,-18.265194,-23.249542,-42.285317,-54.627971,-61.90861,-44.527438,-65.637489,-80.236497,-94.396434,-33.730767,-48.134823,-46.317292,-45.662954,-20.635623,-31.388346,-31.71185,-31.110543,-7.247386,-14.409563,-15.695781,-15.661806,52.50812,306.200246,-82.927969,127.867081
60,-0.003777,0.097763,-2.470654,1.543427,-25.979553,-50.54306,-73.268463,-92.3871,-58.149078,-90.112175,-107.013622,-120.417206,-52.149261,-86.875969,-106.185539,-121.766075,-44.425484,-75.564423,-94.416103,-109.432549,-35.416878,-58.724442,-72.833347,-85.757915,-16.946252,-17.748872,-7.826383,0.301107,12.09367,24.69168,30.294505,34.018203,29.788102,41.163269,45.803701,49.409135,42.630558,55.609531,61.643806,66.011832,50.607575,64.79362,71.24082,76.019845,8.141293,7.367455,1.742123,-2.95087,14.107934,7.927369,2.192723,-2.439468,7.568688,-6.051544,-12.439716,-13.958519,-0.390392,-14.256397,-17.230751,-16.381393,-7.454967,-16.922779,-17.935249,-16.868911,-26.998639,-47.849517,-61.94487,-70.916353,-46.225278,-64.264092,-76.858021,-89.319742,-34.433851,-45.631183,-45.087119,-45.280589,-20.769881,-29.340949,-31.084138,-31.731561,-6.963736,-13.257356,-15.456295,-16.276198,52.891531,306.318334,-85.011435,129.430833
61,0.040947,0.075088,-2.572528,1.751285,-25.93087,-50.543861,-73.306744,-92.453568,-57.924294,-89.787392,-106.785267,-120.279236,-51.966751,-86.641136,-106.084888,-121.783276,-44.30056,-75.451344,-94.473301,-109.574261,-35.350502,-58.717621,-72.900112,-85.876968,-16.791839,-17.460237,-7.611355,0.401551,12.324765,24.967569,30.588413,34.263439,29.933327,41.376518,46.060472,49.664301,42.708611,55.695327,61.679263,65.975721,50.660014,64.920567,71.425726,76.249372,8.92979,9.697013,5.980453,2.626236,15.57859,9.302307,2.802532,-2.49963,8.283771,-4.479641,-11.276963,-13.487286,0.198623,-12.071274,-15.667454,-15.661927,-6.830109,-14.630482,-15.923539,-15.448002,-30.266971,-53.283239,-70.216776,-81.89867,-47.558204,-63.071445,-73.998069,-84.814197,-35.101725,-44.700512,-45.364625,-46.270763,-21.079818,-28.942109,-31.981823,-33.70876,-6.84822,-13.016178,-16.065148,-17.666626,53.240805,306.40961,-87.275636,131.198306
62,-0.196381,0.080103,-2.738034,1.783531,-25.938995,-50.513237,-73.267662,-92.340843,-57.671013,-89.463478,-106.530281,-120.094677,-51.71688,-86.338909,-105.843921,-121.572498,-44.103515,-75.227176,-94.32296,-109.427147,-35.232582,-58.73236,-72.986709,-85.975044,-16.768114,-17.285398,-7.393599,0.601721,12.606408,25.248496,30.901178,34.559149,30.21008,41.675971,46.492651,50.190315,42.942879,55.88206,61.855252,66.123601,50.858541,65.115217,71.634331,76.477984,9.508232,11.922776,10.359558,8.367153,17.34842,11.583378,4.242623,-2.135433,9.658596,-1.045921,-8.601597,-12.108249,1.566399,-8.293831,-12.992077,-14.559883,-5.462768,-11.27972,-13.108486,-13.536289,-33.09157,-58.178101,-77.98998,-92.412023,-48.406691,-61.085033,-70.118494,-79.235393,-35.14056,-43.04436,-45.409753,-47.428713,-20.405238,-27.508753,-32.56994,-35.735525,-5.528372,-11.17709,-15.301981,-17.756232,53.290054,306.520175,-89.76804,133.012299
63,-0.261795,0.377493,-2.010852,2.201143,-25.78125,-50.399162,-73.237278,-92.276012,-57.606468,-89.415355,-106.519695,-120.055652,-51.563392,-86.287491,-105.784,-121.413334,-43.904915,-75.055572,-94.200176,-109.266781,-35.041259,-58.671684,-72.954197,-85.865284,-16.799583,-17.369811,-7.644714,0.451531,12.66759,25.23906,30.912243,34.590827,30.265223,41.800867,46.712297,50.477318,42.969123,55.967337,61.931353,66.167814,50.862468,65.154959,71.712037,76.581132,9.251575,12.399021,12.05302,10.863544,18.512146,13.085609,5.016506,-2.024277,11.153789,1.655799,-6.820965,-11.430039,3.412445,-4.965546,-10.892418,-13.944615,-3.648469,-8.122822,-10.794343,-12.474106,-35.497577,-61.87106,-83.077214,-98.842514,-49.034811,-59.328067,-66.392617,-73.594827,-34.678643,-41.350892,-44.888493,-47.842997,-19.114439,-25.554371,-32.3148,-36.787987,-3.468521,-8.481129,-13.762401,-17.135369,53.265438,306.93637,-91.541713,135.252144
64,-0.019432,0.303787,-2.249508,2.467892,-25.850899,-50.477531,-73.386097,-92.485359,-57.712921,-89.478813,-106.627121,-120.184055,-51.553505,-86.298271,-105.807884,-121.413952,-43.817802,-74.960163,-94.099376,-109.118706,-34.958244,-58.705856,-73.012459,-85.814632,-16.803967,-17.343949,-7.616617,0.57833,12.73007,25.239073,30.937413,34.641203,30.322367,41.988255,46.992002,50.823565,42.983634,56.191257,62.220728,66.525213,50.81681,65.194467,71.766181,76.636337,9.413337,13.671112,14.699924,14.002887,19.628242,15.208889,6.893554,-0.398953,12.640262,4.623058,-4.608101,-10.212387,5.130363,-1.550137,-8.477635,-12.840157,-2.026738,-4.972195,-8.243122,-10.960488,-37.874288,-65.622539,-88.179539,-105.849919,-49.86426,-57.091436,-62.040163,-67.310456,-34.710987,-39.023247,-43.567948,-47.451085,-18.502566,-23.182395,-30.957346,-36.334924,-2.200704,-6.056295,-11.897501,-15.662134,53.486189,307.291453,-93.551038,137.771332
65,0.121948,0.081992,-0.682721,-0.947387,-25.909721,-50.624816,-73.609668,-92.713451,-57.898521,-89.690448,-106.866634,-120.419677,-51.654075,-86.404037,-105.921398,-121.513492,-43.852706,-74.91949,-94.080287,-109.107193,-34.974266,-58.770973,-73.10012,-85.835655,-16.726482,-17.133763,-7.371295,0.930381,12.9675,25.486482,31.125505,34.768286,30.462158,42.296822,47.375805,51.264389,43.011212,56.481373,62.612213,66.980462,50.722863,65.274224,71.930202,76.840669,10.203782,14.423996,15.403862,14.695485,19.34142,15.024743,7.651154,1.151791,12.28434,4.152661,-3.332714,-7.721454,4.679364,-2.337593,-7.635131,-11.018932,-2.797714,-5.913253,-8.051399,-10.073833,-34.946534,-61.885405,-84.310147,-102.251754,-47.20961,-54.96093,-59.950579,-65.11371,-33.018106,-38.222517,-41.923238,-45.441801,-17.195156,-22.493421,-29.705184,-34.76505,-1.017159,-4.302621,-9.648113,-13.196508,53.849189,307.4415,-93.992707,136.892
66,0.189423,0.097492,-0.291709,0.099653,-25.94577,-50.693298,-73.785759,-92.932651,-58.053932,-90.025188,-107.211983,-120.718025,-51.726791,-86.621452,-106.078411,-121.551887,-43.884704,-75.002827,-94.152729,-109.15979,-35.042541,-58.920776,-73.258587,-85.939682,-16.66409,-17.09307,-7.427957,0.9473,13.103894,25.595385,31.212178,34.813029,30.585176,42.543156,47.623313,51.474612,43.066812,56.730684,62.919335,67.294623,50.671647,65.26112,71.914505,76.820439,10.289073,14.569061,15.601135,14.788192,19.207363,14.86544,8.337867,2.616302,12.302936,4.466571,-1.634995,-5.187756,4.584411,-2.419968,-6.313637,-8.738389,-3.207253,-6.483845,-7.947442,-9.483284,-32.989503,-59.271819,-81.245308,-99.101415,-45.222989,-53.16495,-58.218789,-63.62024,-31.738792,-37.171871,-40.012748,-43.190184,-16.741377,-21.760722,-27.003066,-30.840404,-1.523229,-4.330304,-8.654673,-11.674218,54.331324,307.59437,-93.991704,137.047031
67,0.330528,0.069568,0.13385,-1.154875,-25.971588,-50.74942,-74.027183,-93.277954,-58.159607,-90.357101,-107.565307,-121.030517,-51.800331,-86.934803,-106.38573,-121.793003,-43.942085,-75.151302,-94.320682,-109.312969,-35.166595,-59.090217,-73.415908,-86.031612,-16.696497,-17.195959,-7.622088,0.84104,13.067375,25.57523,31.140325,34.657196,30.59271,42.65606,47.65919,51.398968,43.037332,56.871178,63.079787,67.418902,50.521865,65.143794,71.782161,76.64077,10.204364,14.593963,15.675888,14.984481,18.850055,13.484378,7.7681,3.17213,11.832996,3.019535,-1.580372,-3.766091,4.033561,-3.788109,-6.134102,-7.104103,-3.794804,-7.297017,-7.882382,-8.710785,-30.925539,-55.608284,-76.19886,-93.611778,-40.963426,-47.394083,-52.04912,-57.316652,-28.23114,-31.782048,-33.684059,-36.283258,-14.923142,-18.348178,-21.662341,-24.288456,-1.878225,-3.760816,-6.777219,-8.901865,54.929866,307.686878,-93.58984,135.915096
68,0.33014,-0.233812,-0.0523,-0.106353,-26.065957,-50.856194,-74.270131,-93.498127,-58.289086,-90.691384,-107.918805,-121.340836,-51.95057,-87.282418,-106.737065,-122.060647,-44.103196,-75.443173,-94.640603,-109.581723,-35.374077,-59.397698,-73.784123,-86.385304,-16.903459,-17.36597,-7.657113,0.905656,13.085801,25.672129,31.172546,34.639005,30.634565,42.726135,47.617607,51.296178,43.028107,56.887752,63.065585,67.409207,50.389596,64.906278,71.436384,76.272985,9.945625,15.093762,17.075947,16.635121,18.193382,13.736286,9.657578,6.286766,11.28566,3.653355,0.552063,-0.771309,3.408314,-3.499924,-4.350963,-4.185276,-4.292965,-7.161575,-7.000145,-7.249569,-28.584692,-51.690578,-70.856838,-87.55163,-38.22884,-45.113042,-50.508601,-56.282962,-26.331895,-29.336021,-30.874792,-33.201424,-14.107178,-15.785622,-16.77884,-17.85481,-2.43522,-3.051261,-4.36492,-5.296104,55.46786,307.352842,-93.434286,135.708519
69,0.139617,-0.483135,0.954746,-2.298505,-26.041786,-50.849487,-74.431537,-93.579929,-58.26194,-91.053909,-108.331707,-121.698108,-51.952102,-87.646694,-107.092792,-122.240753,-44.11148,-75.756717,-95.032756,-109.931442,-35.448921,-59.68103,-74.108676,-86.674518,-17.152919,-17.631768,-7.877167,0.824084,12.758524,25.502796,31.067595,34.65396,30.445843,42.643945,47.515225,51.098663,42.920772,56.807341,62.953631,67.218262,50.311136,64.845787,71.31208,76.108074,9.266087,14.388714,17.165234,17.358021,15.445473,11.691605,9.542427,7.838391,9.23489,2.885502,2.491013,3.440277,2.365563,-2.999439,-1.221862,1.205796,-3.866077,-5.34383,-3.09732,-1.597068,-25.777357,-46.21247,-63.283261,-78.383348,-31.140041,-35.979822,-40.065396,-44.833621,-19.288568,-20.652666,-21.095021,-22.767024,-8.033537,-8.174377,-7.661645,-7.957565,1.79172,2.874902,2.982718,3.08578,55.776643,306.46015,-92.310374,133.000457
70,0.338448,-0.71633,-3.05286,7.513914,-26.130775,-50.925224,-74.650085,-93.825371,-58.284851,-91.377834,-108.830463,-122.366123,-52.03244,-87.925415,-107.481617,-122.642292,-44.239243,-76.066017,-95.437363,-110.321526,-35.679543,-59.940399,-74.389515,-86.960232,-17.245124,-17.827245,-8.181695,0.489372,12.437385,25.291401,31.016639,34.801384,30.228037,42.507193,47.482967,51.059032,42.7908,56.667365,62.853855,67.112028,50.237492,64.692893,71.126891,75.924775,10.188789,17.870522,22.717575,23.762867,17.545441,17.705395,15.773289,14.420529,12.185108,11.637222,11.507961,12.218983,6.450531,6.872692,8.669815,10.818329,1.651302,4.039078,5.901753,6.870094,-25.185974,-44.460661,-60.655583,-75.310944,-28.77915,-31.090375,-34.371391,-38.388162,-15.494271,-14.46856,-15.107603,-16.837343,-3.510795,-1.635015,-0.653406,-0.941348,6.537992,8.586809,8.839825,8.821287,56.305716,304.957864,-95.172609,139.728415
71,0.128769,-1.098354,-3.387634,9.394893,-26.160599,-50.961136,-74.684383,-93.82164,-58.239121,-91.47963,-109.006863,-122.614506,-52.02816,-88.108749,-107.77842,-122.979916,-44.251946,-76.289417,-95.77858,-110.756161,-35.695084,-60.139343,-74.728203,-87.441044,-17.49036,-18.06643,-8.342864,0.351681,12.33315,25.254819,30.982157,34.810955,30.193049,42.51296,47.460922,51.005531,42.805274,56.682951,62.906886,67.179335,50.243914,64.656966,71.024904,75.762,11.713154,22.009312,28.835071,30.963764,19.169781,24.697506,25.103462,25.813156,13.2155,19.068844,22.59573,25.873833,7.637947,14.47752,19.668777,24.161259,3.681496,10.876156,15.332165,18.459125,-24.087292,-41.739431,-56.906191,-71.037594,-25.642982,-25.0716,-26.457773,-28.394766,-11.40645,-7.248943,-7.057825,-7.876987,1.30378,5.732482,7.068205,7.330892,11.893463,15.775563,16.613102,17.118159,56.629995,302.957198,-98.364733,148.220996
72,0.06839,-1.046905,-3.302994,12.292451,-26.231186,-51.102219,-74.745598,-93.881996,-58.547402,-91.671444,-109.191971,-122.906502,-52.432114,-88.283947,-107.964798,-123.235851,-44.697922,-76.547585,-95.933453,-110.929871,-36.099335,-60.314324,-74.818257,-87.554569,-17.563521,-18.273293,-8.67061,-0.225154,12.170253,24.96605,30.631539,34.467166,29.997412,42.197095,47.093051,50.644119,42.645724,56.424057,62.639297,66.899866,50.16979,64.505642,70.864465,75.628348,13.365143,26.194004,35.095882,39.144058,21.143578,32.00425,36.299172,40.490215,14.500282,26.557079,33.932247,39.844448,8.256432,20.993511,29.466728,35.845551,3.930313,14.449093,20.988648,25.525394,-23.02295,-38.941311,-52.991246,-66.530678,-23.495699,-21.520766,-21.176594,-20.932056,-8.83013,-2.86086,-1.300093,-0.751077,4.546436,11.012574,13.255504,14.47316,15.757167,22.093241,23.776181,24.671685,57.001087,300.856278,-101.365025,159.459432
73,0.131447,-0.943632,-3.229488,12.767657,-26.224526,-50.914788,-74.519944,-93.883805,-58.492035,-91.528279,-109.156117,-123.119568,-52.662735,-88.371872,-108.2039,-123.654591,-45.14383,-76.900315,-96.314164,-111.381317,-36.632721,-60.771378,-75.352078,-88.206814,-17.567807,-18.554591,-9.214273,-1.001567,11.827525,24.295502,29.86177,33.70377,29.648447,41.674896,46.517697,50.027244,42.35872,55.990346,62.1664,66.388312,50.013054,64.208807,70.442177,75.038446,15.776069,30.354892,40.38565,46.361309,24.313282,37.884178,44.614059,51.13686,16.616649,31.998584,42.230266,50.434101,9.683624,25.783481,36.931572,45.200546,4.861896,16.901939,25.083606,31.217285,-21.047826,-34.58338,-47.492631,-60.4148,-18.779486,-12.775148,-9.62048,-6.675646,-4.407448,4.983808,7.878766,9.546626,8.236214,16.628404,18.967102,20.259971,18.437852,26.371285,28.301825,29.184227,57.499821,298.863516,-104.227226,171.177959
74,-0.096543,-0.844548,-2.63284,22.718477,-26.030731,-50.499298,-74.041042,-93.636326,-58.344131,-91.314903,-108.969761,-123.004566,-52.785095,-88.425579,-108.397407,-124.014988,-45.468704,-77.169571,-96.632755,-111.737503,-37.052078,-61.218727,-75.944858,-88.958221,-17.60529,-18.760059,-9.611835,-1.751069,11.699208,23.889629,29.311018,33.080004,29.41981,41.293735,46.040613,49.554607,42.067678,55.536554,61.643868,65.848515,49.691989,63.742023,69.877346,74.366317,17.842633,35.022961,46.905167,54.783749,28.913727,48.23069,56.993145,64.449944,20.252095,43.454087,55.686127,63.75087,12.878403,36.227887,48.822018,56.79665,7.455563,24.752152,33.755723,39.7305,-22.123185,-35.750716,-47.950418,-60.624221,-20.994535,-12.908133,-8.684689,-4.878715,-5.211723,5.635491,9.128267,11.176837,9.071617,18.694258,21.206252,22.633786,21.080553,29.125965,30.766031,31.082033,57.722568,297.125205,-106.540776,193.002673
75,-0.446983,-0.471465,0.192479,13.459231,-25.904961,-49.744331,-72.343735,-90.266396,-58.096436,-90.827248,-108.427734,-122.322716,-52.919289,-88.536289,-108.566414,-124.199341,-45.786026,-77.487499,-96.960354,-112.099377,-37.374252,-61.756599,-76.576504,-89.658108,-17.85397,-19.451528,-10.577228,-2.646437,10.890501,22.83923,28.316109,32.124195,28.664196,40.549927,45.341969,48.873488,41.486162,54.766675,60.848473,64.93866,49.387511,63.30903,69.405685,73.681987,18.052768,35.865142,49.402404,59.56446,28.580864,49.775013,63.053146,74.316192,18.881515,43.823707,61.436279,74.068004,10.956653,35.669941,53.098674,65.344928,5.05783,24.179638,36.77124,46.206573,-20.075627,-31.666118,-41.762292,-52.679882,-16.728545,-6.858236,-0.723616,4.741505,-1.265081,11.501125,17.691307,21.755683,12.410585,24.084315,29.046727,32.362835,23.594215,33.714885,37.329186,38.83471,57.521439,296.034973,-106.102443,205.843137
76,-0.489807,-0.388533,-1.571789,12.61141,-25.638748,-48.764191,-69.970082,-84.667374,-58.000923,-90.229569,-108.029572,-121.800671,-53.205826,-88.452633,-108.853123,-124.71698,-46.311402,-77.588722,-97.10178,-112.349156,-37.968544,-61.928604,-76.695088,-89.831326,-17.595706,-19.764405,-11.331584,-3.221383,11.239377,22.363405,27.433151,30.880282,28.522923,40.235469,45.029141,48.50275,40.990318,54.161126,60.188065,64.142833,48.813305,62.706419,68.871766,73.132408,19.503937,38.576923,53.371708,65.653015,30.638706,53.313892,68.980808,81.995533,21.506264,48.297672,67.316631,81.096714,14.238544,40.126476,58.432892,71.51944,8.67017,28.415829,41.538723,51.337486,-18.440625,-27.834579,-35.462089,-45.037873,-11.386393,0.20553,7.412865,13.957458,4.174229,18.961514,26.224609,31.249833,17.447048,31.243547,37.47998,41.369157,27.64456,39.658683,44.447687,46.502012,57.153843,295.072047,-107.552021,217.880154
77,-0.580628,-0.696088,1.86066,16.231441,-25.825927,-48.552269,-68.407997,-81.640789,-58.323028,-89.402561,-107.366478,-121.256893,-53.946533,-87.895156,-108.533477,-124.750499,-47.267463,-77.317897,-96.886562,-112.549472,-38.760933,-61.74575,-76.504692,-89.999313,-17.107655,-18.895181,-11.092782,-4.017494,12.553624,23.048823,27.787006,30.868364,28.975195,40.829459,45.459221,48.724792,40.889036,54.381735,60.451319,64.484671,48.544568,62.287764,68.681859,73.293367,19.524891,38.630837,54.587208,68.23827,29.640027,55.932026,72.722443,85.115891,22.573025,53.902554,73.587788,86.147335,17.988499,47.747326,66.216786,78.207619,14.928235,37.953747,51.482701,60.608357,-19.578845,-28.47146,-34.169269,-40.7097,-9.466696,3.899131,11.809705,18.402969,8.242408,23.768179,31.00114,35.068393,22.965979,37.683523,43.753588,46.597652,33.980165,46.251763,51.066714,52.561358,56.490697,293.873548,-105.773879,233.609184
78,-0.737526,-0.345123,0.098866,13.907799,-25.752525,-48.099037,-66.580364,-78.20795,-58.404487,-88.346099,-106.38565,-120.347717,-54.642334,-87.3311,-108.186687,-124.899639,-48.308075,-77.10783,-96.795169,-113.025135,-39.859954,-61.701622,-76.429287,-90.434166,-16.613887,-17.708116,-10.198142,-3.686771,12.924917,21.379265,24.439356,26.015177,28.610275,39.405346,42.521593,44.270834,40.361033,53.792019,59.672338,63.432456,48.282338,62.100265,68.911669,73.980834,19.798519,40.282654,57.878334,73.029396,30.692882,61.35902,79.536312,92.569942,24.148476,60.71719,81.974361,95.28154,20.514667,54.80278,74.425186,86.857052,18.508713,45.705208,60.589062,70.323315,-20.169525,-28.064179,-31.984466,-36.627862,-6.43359,8.873472,17.441268,24.36439,13.145477,29.948641,37.866526,42.357164,29.211464,45.610954,52.387567,55.42733,41.125576,54.744679,59.94131,61.451466,55.502363,293.049958,-105.925821,247.038516
79,-0.872016,-0.0072,-1.020069,7.196973,-25.833298,-48.144654,-65.152245,-75.362504,-58.141663,-86.156422,-103.537835,-117.167004,-55.021409,-85.785611,-106.494038,-123.515522,-49.062767,-76.508355,-96.135819,-112.786961,-40.5187,-61.234681,-75.915917,-90.451252,-15.957677,-16.772437,-9.529768,-3.131512,13.276264,19.364633,20.282194,19.690329,28.359531,37.293408,38.709345,38.673431,40.162789,52.964921,58.557854,61.806716,48.603996,62.27082,69.381466,74.633758,21.216465,42.738029,61.423633,78.134605,33.029537,63.793602,83.422256,98.172844,26.220691,61.915787,84.664066,99.923458,22.257431,55.113476,76.011886,90.362549,20.066505,45.80825,61.331074,72.600139,-18.085127,-23.670143,-26.194772,-29.480733,-0.100653,15.657805,24.456782,31.808576,18.692504,36.624948,45.306339,50.901038,33.454768,51.468561,59.360535,63.434099,43.786093,59.181595,65.454523,67.881129,54.304299,292.636978,-107.271938,253.829709
80,-0.861123,0.486383,0.907608,7.491017,-25.561111,-48.407501,-65.218986,-76.050693,-57.132568,-83.515915,-100.564144,-114.312893,-54.704338,-83.565593,-104.104499,-121.266723,-49.485466,-75.625545,-94.970718,-111.5732,-41.425689,-60.868789,-75.519802,-90.447086,-15.618309,-16.025578,-8.80488,-2.599989,14.186194,17.69563,16.239198,13.393479,28.755364,35.5003,34.749242,32.52267,40.408062,52.484726,57.168309,59.333427,48.955579,62.734195,69.756563,74.647319,22.823959,45.00642,63.96611,81.553562,35.571979,67.522453,87.55434,102.206932,28.264149,65.087585,87.956657,102.543491,23.757717,57.109588,78.174888,92.020477,21.202675,46.885952,62.547237,73.663765,-17.442701,-21.374337,-22.252132,-24.184426,4.643248,21.504964,30.211685,37.223914,23.28692,41.980585,50.187968,55.425564,37.278736,56.339396,64.039129,67.85607,46.394406,62.515808,68.902653,71.556044,52.958959,292.734874,-106.848547,260.932239
81,-0.853637,0.737275,3.619709,6.842279,-25.717026,-49.206894,-66.366898,-79.716099,-56.17788,-81.21547,-97.999317,-112.23412,-54.142731,-81.38039,-101.645691,-119.13303,-49.417786,-74.785149,-94.023079,-110.908665,-41.677712,-60.547509,-75.250374,-90.644566,-15.280238,-15.274829,-8.540921,-3.160571,15.098112,17.433426,14.500689,9.923489,29.392011,34.695544,32.266246,28.186458,40.992752,52.196636,55.772145,56.606097,49.661818,63.49501,70.485366,75.109126,22.681263,44.720615,64.343914,82.49485,36.259048,68.690552,88.925342,103.643761,28.448479,65.769894,88.966942,103.365509,23.261135,56.750667,77.810325,91.436989,20.120796,45.985462,61.551555,72.587459,-16.843067,-19.744904,-19.511265,-20.171451,7.865916,25.867247,34.63462,41.15597,26.484011,45.502866,53.768776,58.804275,39.978662,59.646464,67.115868,70.613634,48.445977,64.955061,71.13477,73.794002,51.571066,293.129446,-103.763094,267.431815
82,-1.114014,1.565003,0.274807,2.706928,-25.691826,-49.715721,-67.372478,-81.621483,-54.894791,-78.964966,-95.316307,-109.536976,-52.837761,-79.200634,-99.03305,-116.337685,-48.307045,-73.476334,-92.589912,-109.257488,-41.012604,-60.111717,-75.09367,-90.815254,-15.582692,-16.398168,-10.855439,-5.454463,14.298789,16.151462,12.680089,7.21146,28.935008,33.432241,30.015455,24.505787,40.829385,51.368179,53.816941,53.068008,49.605452,63.523217,70.032414,73.722322,23.916962,46.962536,67.323143,85.866131,40.491955,71.895401,91.968407,107.376835,31.029911,66.904735,90.562443,106.559933,23.87511,55.659153,77.210232,92.611301,18.850502,43.567852,59.465813,72.22657,-13.925261,-15.246387,-14.3896,-15.851664,12.919038,31.334271,40.089763,46.531998,29.934636,49.434934,58.149659,64.168188,41.901384,62.248849,70.422998,74.81838,49.055503,66.298935,72.831523,76.338292,49.898867,294.415637,-104.046472,269.859931
83,-1.411102,1.049053,2.310322,4.814976,-25.996102,-50.824105,-68.966915,-83.76408,-54.458954,-76.251354,-90.984947,-104.034874,-51.731346,-76.066738,-94.404328,-110.072582,-47.034004,-71.310711,-88.907799,-103.706555,-39.902092,-58.620896,-72.839722,-87.504948,-14.184588,-15.274903,-11.302845,-5.809429,16.020033,20.255494,18.260424,13.287713,29.455416,35.238107,32.942881,27.82455,40.06074,51.040618,52.791143,50.76715,47.602083,61.601816,67.586592,70.325049,24.431808,47.537189,68.475551,87.186401,42.328502,73.142486,93.36074,108.988517,32.926231,67.994487,91.839512,107.828613,25.564716,56.369705,77.775203,93.380287,20.148079,43.897453,59.546539,72.535606,-13.089383,-14.14802,-12.671814,-13.904686,15.165617,32.984328,41.437565,47.414115,31.810774,50.823158,59.500313,65.392945,43.408477,63.346327,71.307042,75.625223,50.209705,67.245989,73.674404,77.312294,47.904934,295.249456,-102.318981,274.459673
84,-0.844483,1.17143,2.779323,4.753818,-24.744346,-50.101913,-68.828087,-84.290863,-55.148941,-73.894054,-83.151992,-90.729229,-52.513206,-73.086548,-83.971687,-92.147243,-48.168548,-68.869342,-79.301399,-87.118206,-41.792999,-58.55365,-68.552559,-78.295669,-11.110962,-11.696504,-8.719998,-3.70668,17.375887,25.155722,25.580343,22.29322,28.47745,37.601444,37.705604,34.00983,36.88315,49.047661,51.46451,49.552927,42.764149,56.678826,62.306697,64.615495,24.574883,47.828877,69.321842,87.993599,43.927849,74.909729,94.925205,110.476536,34.605686,69.718575,93.514195,109.638806,27.00436,57.951645,79.385422,95.052235,21.14724,45.055847,60.867668,74.131382,-13.05043,-13.87591,-11.48381,-12.086655,16.212188,33.777155,41.865718,47.407706,32.747911,51.018253,59.403329,64.865523,44.205391,63.473582,71.312155,75.416668,50.908423,67.639895,73.889592,77.36314,46.488544,296.249053,-100.111565,279.041658
85,-1.088012,1.061391,3.486374,4.214528,-23.81044,-48.935372,-67.527855,-83.26997,-55.433281,-70.423485,-73.998207,-76.011715,-52.333557,-69.008458,-72.843842,-73.91375,-47.627999,-64.68417,-68.398568,-69.955101,-41.091317,-55.892327,-62.311318,-67.992257,-8.799595,-8.985365,-6.732623,-2.635631,18.517071,29.744519,32.412532,30.802822,27.423123,39.44499,42.204727,40.671699,33.815217,46.496109,49.98986,49.172211,38.10897,50.947585,56.303865,58.881092,24.588478,47.763634,69.540196,87.984547,45.862255,76.902557,96.604031,112.183033,36.654797,71.754273,95.356419,111.765461,28.622841,59.703484,81.087685,97.030209,21.963741,45.954689,61.844639,75.463177,-13.448635,-14.028076,-10.66789,-10.84341,16.857516,33.772436,41.368811,46.45071,33.226007,50.543181,58.644724,63.667305,44.550057,63.049332,70.751448,74.66393,51.18362,67.556087,73.579358,76.697902,44.906617,297.173012,-97.119106,283.118754
86,-5.100243,2.875914,3.761101,3.677978,-20.629761,-43.498421,-61.845703,-78.174385,-56.101021,-64.098518,-58.867962,-54.053638,-54.447269,-62.855198,-57.581234,-50.561291,-50.362415,-60.003639,-55.061222,-49.479687,-44.528469,-58.356663,-62.955677,-66.32159,-9.354842,-9.748982,-7.069002,-1.563138,14.91454,29.163892,33.818823,33.969914,24.559176,38.262803,42.680094,42.117461,31.200581,44.411588,48.139843,47.585287,35.797739,47.637294,52.632099,55.18123,24.684631,47.874046,69.916008,88.392277,47.386803,79.017551,98.454037,113.582027,38.41753,73.788208,96.91769,113.008701,30.201198,61.833996,83.057476,98.855564,23.082321,47.490131,63.637905,77.619884,-13.73917,-14.3185,-10.164575,-9.896035,16.839337,33.038854,40.180536,44.76769,33.166936,49.459511,57.062901,61.38995,44.50982,62.029511,69.317233,72.677839,51.224523,67.216459,72.931621,75.420051,39.321213,299.920859,-93.843166,286.668665
87,-7.466034,3.838665,3.8008,2.908827,-14.900505,-34.076866,-50.980511,-66.350956,-52.542538,-51.969818,-39.152607,-28.242279,-53.497284,-52.283901,-38.494446,-24.302936,-50.984779,-52.360416,-38.860725,-26.44067,-46.203918,-58.596016,-61.706463,-63.329784,-10.382294,-11.265091,-8.09228,-2.517429,11.146962,27.931564,34.268082,36.174651,21.091619,36.180085,42.04362,43.453382,27.691873,41.155736,45.446265,46.281106,32.636081,43.424668,48.408791,51.621479,24.790478,48.259255,70.461777,88.992874,48.619721,80.885365,100.008637,114.679779,39.561825,75.469254,98.17051,113.853974,31.04504,63.451962,84.371842,99.725556,23.523457,48.511677,64.634709,78.509274,-14.253341,-14.720088,-9.465646,-8.594595,16.282583,32.229763,39.182736,43.699186,32.880761,48.563982,55.863214,59.755565,44.38606,61.139985,67.8948,70.666826,51.191857,66.647566,71.826783,73.585039,31.416389,303.638934,-90.481156,289.456902
88,-9.703583,5.958569,3.214337,1.629112,-8.592338,-22.935814,-35.937343,-48.067772,-45.986641,-37.314937,-18.429153,-3.099106,-49.528083,-39.884239,-19.337494,0.130509,-48.627559,-42.216373,-22.064941,-5.075912,-44.665283,-56.238681,-58.896423,-60.32341,-12.834514,-16.16301,-14.172572,-10.502683,4.47483,21.068858,28.683894,32.288907,16.12176,31.173226,38.026361,40.80918,23.993431,36.548895,41.46697,43.736483,30.255948,39.394095,44.193387,47.969054,24.915744,48.505714,70.64915,89.179035,49.581127,82.224987,101.060474,115.399921,40.537216,76.674007,98.99168,114.578601,31.714553,64.541416,85.296878,100.474811,23.652855,49.140358,65.261535,79.141216,-14.595266,-14.842477,-8.611762,-7.344705,16.034248,31.749999,38.607037,43.086943,32.789407,47.995619,55.089037,58.776808,44.392322,60.527766,66.913154,69.317567,51.282371,66.440837,71.246291,72.468678,21.356083,309.47224,-87.623542,290.960751
89,-6.69255,1.703224,2.412792,0.912807,-4.946251,-15.48713,-27.315491,-38.668957,-42.34702,-29.591526,-8.615731,6.866501,-48.229328,-33.309792,-11.447388,8.219169,-48.986653,-38.296727,-16.850441,0.099678,-46.397358,-58.451672,-62.850575,-66.058777,-16.740734,-20.666566,-17.369131,-12.297458,0.642933,17.670659,25.236591,28.976801,15.169137,29.491701,35.959723,38.66696,24.999754,37.181023,41.208446,43.154671,32.677479,41.141052,45.928512,50.028221,25.124073,48.83218,70.772381,89.279732,50.698082,83.606804,102.088989,115.905304,41.526157,77.825821,99.611984,114.868927,32.318321,65.3004,85.703796,100.570587,23.735309,49.399933,65.319065,78.927086,-14.864374,-14.952492,-7.928407,-6.375804,15.653853,31.109005,37.977454,42.540315,32.568674,47.477434,54.387589,57.968187,44.195745,59.980509,65.967261,68.000801,51.081188,66.097258,70.581622,71.337707,14.313773,311.040764,-85.56051,291.738858
90,-10.84211,2.9502,1.236511,0.285818,0.059051,-5.374901,-13.698761,-22.342072,-35.77953,-16.728619,6.279762,22.140472,-44.538219,-22.251778,1.250015,21.075165,-47.238304,-30.434567,-7.465141,9.960136,-45.99844,-57.403702,-62.918873,-67.172459,-19.801912,-25.063627,-21.828696,-16.18829,-4.311895,13.064436,21.448611,25.955156,12.929932,27.25289,33.450384,36.059672,24.824926,37.238129,40.778379,42.451173,34.251373,43.057229,47.690078,51.522951,25.434174,49.356445,71.205895,89.817192,51.302651,84.476326,102.657394,115.939087,42.020187,78.422928,99.699989,114.46122,32.652855,65.724117,85.679009,100.033997,23.88612,49.689159,65.286049,78.424393,-14.882171,-14.924766,-7.367331,-5.731525,15.312953,30.774343,37.877381,42.763778,32.437133,47.38198,54.354083,58.040126,44.128474,59.635633,65.396366,67.219782,51.052869,65.805709,70.080135,70.613695,3.174368,313.867192,-84.621294,291.900904
91,-1.468575,-1.179642,0.222794,-0.340171,0.340096,-4.914253,-13.249042,-21.593673,-34.04013,-15.458324,7.266541,22.888459,-43.199935,-20.874424,2.626557,22.302041,-46.576767,-29.516979,-6.478523,11.068657,-46.013752,-57.117645,-62.247345,-65.937904,-18.621133,-22.313339,-17.359165,-10.849795,-3.628306,14.249611,22.910749,27.600483,13.073303,28.085668,34.667323,37.539162,24.693656,37.806232,41.6766,43.546477,33.979152,42.790059,47.754125,51.998354,25.806747,49.903679,71.493942,90.081253,51.753547,84.956016,102.984283,116.149269,42.308841,78.625465,99.665405,114.359985,32.777881,65.666656,85.408378,99.555244,23.845058,49.509235,64.803485,77.549698,-14.931941,-14.694832,-6.559894,-4.703183,15.355574,30.887544,38.179181,43.401598,32.607873,47.740528,54.835403,58.712885,44.315615,59.814364,65.524992,67.348568,51.213235,65.891827,70.039874,70.453182,1.451334,312.58233,-84.652959,291.455513
92,-2.874733,0.482221,-0.266991,-0.449815,0.576622,-3.815734,-10.775173,-18.073379,-32.071472,-12.160778,10.6027,25.735177,-41.101043,-17.650142,5.683182,25.06984,-44.490051,-26.432659,-3.647964,13.799057,-43.901081,-54.383972,-59.36602,-62.808998,-18.235205,-21.833711,-16.862296,-10.075333,-4.292345,13.353872,22.073166,26.762962,12.488589,27.645635,34.292758,36.917348,24.340296,37.311686,41.261934,42.944966,33.803781,42.358844,46.905428,50.578033,26.094749,50.168701,71.631981,90.251198,52.133949,85.245644,103.22715,116.35865,42.7374,78.846291,99.772545,114.549408,33.13345,65.733147,85.406822,99.571495,24.026184,49.43613,64.650215,77.341804,-14.846552,-14.466355,-6.163778,-4.136944,15.599525,31.212265,38.554302,43.769927,32.766597,47.990457,55.102165,58.966753,44.392878,59.984943,65.770982,67.647824,51.261018,66.095072,70.284727,70.630047,-1.63325,312.946796,-85.129801,290.887943
93,4.168259,-3.866786,-0.050709,-0.145941,-0.956474,-6.78376,-16.949032,-27.851738,-36.503723,-19.496715,3.843544,19.376015,-45.769237,-23.561176,0.493836,20.605911,-49.356743,-32.524326,-9.37587,8.5494,-49.467625,-60.347957,-64.793815,-67.224804,-17.679625,-19.070997,-11.216073,-1.599607,-1.567324,17.611971,25.526435,29.226593,15.33816,31.09726,37.361901,39.019641,27.131772,40.865484,44.32631,45.010406,36.506769,45.652178,50.381334,53.978456,26.279995,50.364098,71.854168,90.549626,52.549038,85.529835,103.355221,116.317806,43.112457,79.053669,99.796177,114.349674,33.424359,65.913998,85.349247,99.246609,24.212208,49.577683,64.696907,77.236668,-14.929668,-14.537059,-6.077253,-3.842666,15.429934,31.214982,38.700997,43.993279,32.700623,48.046452,55.228556,59.048103,44.422382,60.088548,65.90209,67.722085,51.37002,66.234406,70.379328,70.645485,2.353969,308.981762,-85.36155,290.643754
94,-3.808708,2.363793,0.024662,-0.274764,-0.289101,-5.123062,-13.509075,-23.171516,-33.089161,-13.232929,9.787628,24.759407,-42.146771,-17.72105,6.087662,25.513367,-45.380894,-26.794544,-3.74025,14.123131,-44.894131,-54.770989,-59.502216,-62.365036,-18.061291,-20.574681,-13.851778,-5.196408,-3.547425,15.177622,23.521411,27.723762,13.524835,29.333089,35.461101,37.42201,25.756431,39.071647,42.460325,43.309652,35.480923,44.377428,48.346226,51.062392,26.385464,50.48029,72.077042,90.843041,52.551373,85.460449,103.227448,116.150437,43.03941,79.031204,99.768563,114.17498,33.274521,65.901489,85.34951,99.139069,24.052071,49.5023,64.740486,77.279091,-14.886098,-14.397072,-5.91028,-3.452021,15.592312,31.687495,39.20998,44.44849,32.937781,48.489721,55.657931,59.339713,44.711003,60.613537,66.372331,68.060736,51.62038,66.609774,70.734368,70.933834,-1.567182,311.266117,-85.449331,290.289552
95,4.705879,-2.049051,0.28125,-0.249892,-2.018989,-9.012909,-20.228977,-32.380394,-37.396751,-19.996479,2.968048,17.510948,-45.956154,-23.550522,-0.069443,18.999962,-49.017929,-32.115646,-9.296951,7.844925,-48.810413,-60.173836,-65.432224,-69.053158,-17.53981,-19.160227,-11.485713,-2.023314,-1.670744,17.60067,24.985266,28.142182,15.384337,31.384684,36.917249,37.896956,27.404067,41.085451,43.713413,43.621429,36.903071,45.556527,49.753776,52.784956,26.336254,50.453018,72.097779,90.908203,52.296913,85.335503,103.065056,115.9384,42.692734,78.952973,99.68113,113.920304,32.937596,65.862694,85.30497,98.953995,23.844738,49.391865,64.739125,77.30793,-14.858285,-14.298913,-5.726227,-2.941715,15.717543,32.091899,39.622374,44.796528,33.18193,48.900016,56.005808,59.557383,45.057325,61.197857,66.792444,68.270873,51.947238,67.182485,71.222567,71.251763,3.06764,309.158048,-85.239138,289.980642
96,-5.593757,2.5342,0.394478,-0.030467,0.54824,-3.900307,-11.956582,-21.624768,-31.694996,-9.980805,12.240211,25.783767,-40.755066,-14.732174,8.375701,26.434227,-44.171494,-24.061181,-1.493866,15.202949,-43.925183,-52.218853,-55.822941,-58.138173,-19.129685,-23.182476,-18.20874,-11.258311,-4.074811,14.703538,22.256071,25.748563,13.671022,29.685337,34.839594,36.144195,26.336884,39.306854,41.770596,41.890553,36.193188,44.954781,47.941439,49.555088,26.219021,50.346222,72.080269,90.934204,52.107147,85.142647,102.744598,115.493546,42.49046,78.888931,99.522102,113.57531,32.747429,65.8843,85.296433,98.815498,23.735767,49.366299,64.820709,77.458031,-14.977686,-14.355674,-5.727722,-2.701754,15.811365,32.318066,39.825001,44.860229,33.320608,49.121514,56.118144,59.530892,45.232633,61.520342,66.942077,68.219372,52.090152,67.519839,71.45024,71.33284,-2.556982,311.626866,-84.875525,289.884793
97,5.03215,-2.266105,0.04763,-0.075447,-1.447289,-7.764267,-18.330586,-30.157574,-36.349102,-17.839451,4.914436,19.093666,-45.182076,-21.31192,1.987884,20.563659,-48.475411,-30.326283,-7.663422,9.095444,-48.550358,-58.097122,-61.524914,-63.393322,-18.390063,-21.462368,-15.01171,-6.347967,-1.513033,16.960653,23.494686,26.067023,16.039966,31.312893,36.018201,36.289668,28.361545,41.147165,43.135615,42.381605,37.763366,46.780667,50.020638,51.724245,26.155255,50.448647,72.347695,91.289772,51.840134,84.954461,102.553276,115.329323,42.239628,78.940224,99.613678,113.583825,32.609368,66.163399,85.658364,99.117005,23.812271,49.73917,65.347355,78.025635,-15.016008,-14.399406,-5.791929,-2.470856,15.736524,32.392809,39.874501,44.812138,33.345766,49.215634,56.131137,59.469611,45.367151,61.748621,66.987575,68.064997,52.253334,67.783686,71.585079,71.31029,2.481411,309.291178,-84.821652,289.739763
98,-5.963013,1.91388,0.14708,-0.022959,-0.042435,-4.490089,-12.436397,-22.177517,-30.635628,-8.252804,13.882668,26.945549,-39.536064,-12.42913,10.428017,28.187325,-43.045692,-21.763412,0.732674,17.407997,-43.086433,-49.677292,-51.864006,-52.504898,-18.557789,-22.562637,-17.025786,-9.392941,-3.165684,14.680309,21.410375,24.570366,14.557289,30.027003,34.575316,35.394546,27.178999,39.419833,41.531154,41.2905,36.619859,45.587452,48.057579,48.858581,26.169754,50.428413,72.385277,91.385719,51.718769,84.886116,102.57074,115.365646,42.136917,78.980209,99.724388,113.647659,32.512504,66.272346,85.843345,99.2975,23.75029,49.804699,65.548714,78.33815,-14.91144,-14.367765,-5.844281,-2.394409,15.803783,32.513074,39.981008,44.81635,33.400897,49.291167,56.167594,59.415765,45.476412,61.918904,67.065616,68.023649,52.424284,68.028576,71.79629,71.447141,-3.409716,311.100323,-84.602686,289.612069
99,6.087914,-1.600052,0.12093,0.136345,-2.152909,-8.842095,-19.670872,-31.898976,-36.23021,-16.930321,5.804237,19.53376,-44.745037,-20.027653,3.094345,21.47921,-47.904946,-28.824761,-6.011719,10.881408,-48.014397,-56.5597,-59.241589,-60.306141,-17.838162,-21.188937,-14.691287,-5.902289,-1.453259,16.340542,22.403149,25.002606,16.221463,31.06625,35.528557,35.691183,28.64761,40.667574,42.668448,41.840128,37.905812,46.785694,49.652346,50.568055,26.074607,50.387443,72.47787,91.535556,51.689643,84.940509,102.624195,115.364307,42.153545,79.161655,99.845478,113.638492,32.557846,66.538341,85.980182,99.244205,23.843101,50.001995,65.707065,78.456104,-14.894558,-14.538542,-6.095605,-2.538584,15.59598,32.233159,39.731734,44.618501,33.242828,49.025764,55.905847,59.196291,45.397483,61.691712,66.753492,67.635856,52.41333,67.983869,71.662156,71.207932,2.811167,309.362629,-84.348787,289.610772
100,-5.641823,2.27701,0.030235,0.256314,-0.522652,-5.701355,-14.466969,-25.2552,-30.716583,-8.35389,13.903267,26.939506,-39.281262,-11.977295,10.903312,28.926201,-42.509869,-20.876805,1.930733,18.988746,-42.485928,-47.996407,-49.316963,-48.925827,-18.401574,-22.427367,-16.494635,-8.260032,-3.315701,13.663489,20.124027,23.44978,14.273076,29.179527,33.741252,34.796221,26.888006,38.451919,40.543962,40.305111,36.123731,45.05683,47.190887,47.366456,26.030422,50.34256,72.575146,91.784649,51.936825,85.05344,102.737926,115.487858,42.491855,79.409534,100.030849,113.751514,32.866653,66.865436,86.250561,99.453907,24.07243,50.300846,65.996853,78.774502,-14.9663,-14.76035,-6.44042,-2.883967,15.271642,31.851776,39.371395,44.224546,32.896618,48.578876,55.488648,58.772844,45.12105,61.277366,66.313965,67.139531,52.280331,67.76505,71.38376,70.886459,-2.634252,311.463011,-84.122148,289.690458
101,5.68634,-1.694407,0.058834,0.201985,-2.477348,-9.660621,-21.159313,-34.290951,-36.036873,-16.811691,6.010964,19.657585,-44.348396,-19.627979,3.407478,22.157662,-47.183727,-28.340057,-5.443268,11.744888,-47.036957,-55.709987,-58.851436,-60.017933,-18.005914,-21.137005,-13.970388,-4.249602,-1.69537,15.160924,20.950001,23.522967,15.867608,30.259789,34.761271,35.223324,28.325779,39.920555,41.82658,41.145164,37.497345,46.125273,48.911476,49.65321,26.062042,50.351108,72.711204,92.079391,52.093586,85.113693,102.837616,115.60318,42.702679,79.613663,100.235161,113.853928,33.03622,67.122757,86.454826,99.541443,24.165424,50.480152,66.154106,78.863823,-14.940833,-14.92027,-6.780417,-3.223248,14.932312,31.604392,39.16757,44.012878,32.604094,48.268963,55.252219,58.549221,44.963513,61.035676,66.032606,66.792778,52.288928,67.678266,71.264113,70.714584,3.297186,309.588911,-83.818216,289.71275
102,-7.457519,2.113433,0.318077,0.288041,-0.435402,-5.388222,-13.78513,-24.347729,-28.65239,-5.505581,16.628311,29.035766,-36.953247,-9.181092,13.456695,31.173751,-40.027634,-17.795334,4.712539,21.301757,-39.741944,-45.078701,-46.630543,-46.60278,-18.811967,-23.027816,-17.165923,-8.878401,-4.184455,12.29384,18.689293,22.064879,13.85962,28.844197,33.337429,34.561112,26.810633,38.134596,40.055874,39.793521,36.21238,44.886967,47.091098,47.124419,26.035767,50.220932,72.658813,92.206718,52.310074,85.251251,102.948051,115.643188,42.974979,79.807617,100.348686,113.832779,33.270916,67.335663,86.547775,99.49157,24.29845,50.581913,66.186172,78.833221,-15.048946,-15.183413,-7.134605,-3.661663,14.681581,31.317154,38.894843,43.734482,32.380162,47.937771,54.936464,58.211447,44.828132,60.752587,65.700648,66.389338,52.279504,67.54922,71.092175,70.499927,-3.871038,311.541953,-83.210844,289.8404
103,5.138076,-2.092808,0.216602,0.089489,-1.970031,-8.529441,-19.181682,-31.904846,-33.483902,-13.031604,9.741234,22.992188,-41.677562,-16.002342,6.989342,25.292015,-44.419452,-24.567592,-1.952087,14.525666,-43.973487,-52.05384,-54.719959,-55.760753,-18.41054,-21.976836,-15.384412,-6.265629,-2.226066,14.635539,20.462666,22.987183,15.742032,30.432986,34.63173,34.922908,28.483588,40.188959,41.67555,40.73608,37.880913,46.751904,49.430957,49.949488,25.966233,50.203766,72.734951,92.386677,52.412567,85.296582,102.934674,115.603466,43.097088,79.897946,100.359181,113.77676,33.411118,67.455586,86.590474,99.458989,24.441983,50.666806,66.202435,78.789357,-15.145919,-15.308335,-7.353795,-3.835096,14.529736,31.160703,38.714174,43.532324,32.28419,47.804711,54.763316,58.021366,44.767542,60.65123,65.552916,66.184462,52.210541,67.45694,70.975133,70.34355,1.579948,309.300882,-82.681332,289.781626
104,-8.006149,1.759689,0.25605,0.134752,0.697151,-3.006111,-9.701351,-19.066784,-25.401272,-0.957413,20.948685,32.799042,-33.835373,-4.866886,17.506806,34.463448,-37.059162,-13.887646,8.186417,23.915131,-36.668014,-41.533401,-42.836174,-42.705322,-18.860614,-23.580087,-18.519418,-11.129549,-3.94022,12.634184,19.082693,22.447522,14.195975,29.373078,33.50649,34.248162,27.08851,38.503049,40.08381,39.679394,36.50488,45.312205,47.297827,47.255911,25.996113,50.2328,72.74635,92.456372,52.525704,85.345036,102.973034,115.650959,43.258496,79.922253,100.358906,113.752568,33.624287,67.506718,86.58585,99.384831,24.661744,50.746308,66.226719,78.764363,-15.166655,-15.424241,-7.592102,-4.038687,14.428033,30.957309,38.5194,43.316543,32.222192,47.691745,54.656351,57.870263,44.76874,60.619317,65.510369,66.049216,52.308156,67.555395,71.05242,70.305499,-6.120283,310.942844,-82.119364,289.798651
105,6.394913,-1.815746,0.21951,0.003186,-0.591866,-5.670136,-14.491734,-25.818409,-31.43375,-9.758492,13.203255,26.10276,-40.354054,-13.544872,9.836815,27.745056,-43.531426,-22.955578,0.000595,16.37265,-43.011761,-51.074249,-53.584385,-54.54728,-17.986771,-22.971277,-18.467338,-11.725737,-2.810854,14.455561,20.779964,23.861656,15.669253,30.453364,34.610179,34.518888,28.711632,40.134223,41.85333,41.155587,38.516659,47.20919,49.764558,50.184387,26.034278,50.240993,72.749977,92.54116,52.587879,85.336006,102.96627,115.696266,43.385685,79.859939,100.293296,113.751617,33.794632,67.416046,86.428733,99.22705,24.81784,50.626052,66.031059,78.584701,-15.117057,-15.418152,-7.65715,-4.135289,14.477606,30.86356,38.442213,43.229808,32.311656,47.604282,54.566184,57.722173,44.942592,60.673522,65.577925,66.071372,52.588404,67.938087,71.437372,70.51939,0.589565,309.045918,-81.584919,289.720657
106,-10.553616,0.592606,0.25106,0.010893,3.292145,2.592304,-1.372741,-8.864502,-20.644787,4.470097,26.434422,38.258732,-30.473293,-0.755665,22.197361,39.375927,-34.919529,-11.020157,11.668499,27.729367,-35.373996,-38.669735,-38.198238,-36.481144,-18.876718,-24.622656,-21.636752,-16.784219,-4.342622,12.961066,20.067303,24.175237,14.60112,30.112638,34.493484,34.933492,28.070873,39.735143,41.804016,41.549283,37.86476,47.526822,49.638316,49.228416,26.017021,50.139175,72.647369,92.543655,52.606247,85.299797,102.962814,115.751152,43.50277,79.708351,100.131867,113.68293,33.962368,67.190895,86.138535,98.995056,24.939308,50.311089,65.622253,78.29155,-15.086725,-15.448237,-7.740501,-4.210032,14.667847,30.794202,38.316081,43.033146,32.432526,47.463614,54.294062,57.281646,45.074021,60.723206,65.609701,65.997963,52.793243,68.38416,71.948863,70.887015,-9.644903,309.56794,-81.014711,289.660966
107,5.109375,-2.500422,0.350189,0.032876,2.997277,1.6302,-4.108394,-13.450218,-24.544796,-2.379009,19.752857,32.024243,-35.322681,-8.011173,15.194035,33.086186,-40.396465,-19.078102,3.865139,20.039395,-41.60305,-47.111561,-47.272625,-45.933265,-18.266118,-24.200271,-21.467506,-17.127379,-2.653922,15.546604,22.046329,25.159773,16.571785,32.179362,36.340339,35.851128,30.209376,42.44606,44.426963,43.877348,40.335468,50.194501,52.70305,52.701148,26.04047,50.066563,72.513657,92.415047,52.439999,85.146355,102.886208,115.765984,43.423176,79.432274,99.90873,113.567551,33.937214,66.81649,85.762024,98.684349,24.899449,49.757572,64.989785,77.770226,-14.997632,-15.41772,-7.762892,-4.231917,14.77607,30.600046,38.033449,42.63057,32.482112,47.201496,53.825376,56.548137,45.147998,60.695233,65.539627,65.75894,52.932947,68.807533,72.45408,71.212131,-4.216341,306.998534,-80.345335,289.624858
108,-6.284008,0.654356,0.290703,0.0607,5.251316,6.45472,4.671089,-0.953888,-18.396606,6.801293,28.581917,40.431015,-29.648277,-0.140259,23.213837,40.932221,-35.319877,-11.583595,11.876381,28.506958,-36.860412,-39.003868,-36.527836,-32.770431,-18.590011,-25.513207,-23.927778,-21.030794,-4.233126,13.54956,20.742433,24.809365,15.682283,31.124036,35.837741,36.008209,29.945406,41.456028,44.241256,44.439858,40.315474,50.504563,52.627073,51.871779,26.014813,50.01012,72.400429,92.390122,52.290711,84.983505,102.831299,115.90757,43.39341,79.154251,99.678291,113.523262,33.956818,66.444695,85.454613,98.611954,24.839607,49.114678,64.243057,77.198502,-14.902276,-15.450385,-7.829581,-4.341227,14.87134,30.32154,37.627725,42.149881,32.468416,46.752163,53.150284,55.743443,45.136217,60.419382,65.238693,65.428983,52.993203,69.158906,72.942539,71.670431,-10.196966,307.608303,-79.751249,289.640971
109,-0.750938,-2.285222,0.289455,0.037125,4.6665,6.594978,6.437691,1.361046,-17.49321,8.181793,29.910232,42.321373,-28.85075,0.965561,24.907654,43.358986,-34.688587,-11.394585,12.22641,29.325805,-36.490402,-37.799927,-34.005787,-28.934246,-17.641697,-23.337642,-20.823437,-17.861603,-1.782734,16.056453,22.892014,26.856576,17.7002,32.379508,37.197917,37.432347,31.662388,43.36088,46.630762,47.233026,41.904558,52.885165,55.896868,56.56502,25.790864,49.712266,72.140706,92.060475,52.146035,84.824559,102.735867,115.948826,43.431325,78.982853,99.55283,113.650761,33.965035,66.139859,85.25536,98.800816,24.578797,48.306359,63.284867,76.4847,-14.792089,-15.511679,-8.061653,-4.776728,14.960087,29.966128,37.088421,41.526991,32.30642,46.095188,52.261423,54.756535,44.882052,59.859923,64.713159,64.963952,52.775767,69.251135,73.370938,72.361812,-10.648367,305.275848,-79.162257,289.630863
110,-8.759331,1.109532,0.373501,0.014313,4.768387,9.095284,13.339451,11.734795,-9.406849,18.517777,39.366692,51.932854,-19.41782,12.841324,36.892662,54.960526,-24.658333,1.015297,24.237877,41.005348,-25.920444,-23.317921,-17.352768,-10.518265,-15.201692,-18.65727,-15.060629,-11.397434,-0.574514,16.013388,22.868857,27.335598,16.902545,30.595995,35.741015,36.704111,29.482104,40.388276,44.783362,46.600936,38.73071,50.580268,54.221443,55.813986,25.613526,49.45443,71.85537,91.544335,51.901566,84.638787,102.642083,115.949021,43.289349,78.775429,99.407868,113.702202,33.749417,65.852944,85.10804,98.974434,24.079789,47.525105,62.403626,75.795983,-14.622386,-15.520953,-8.268046,-5.075155,14.889544,29.616968,36.646301,41.069508,31.995593,45.496938,51.544984,54.074836,44.490851,59.219374,64.144871,64.519288,52.437265,69.140368,73.627968,73.030014,-19.13514,306.320629,-78.516198,289.580425
111,8.794109,-1.590444,0.452671,0.018081,2.727883,4.070584,5.023041,0.947812,-17.042015,7.320088,29.033741,42.768986,-27.288631,1.749768,26.681019,45.756192,-32.468536,-9.936515,14.306454,32.108494,-33.654853,-33.848396,-28.154743,-21.213512,-14.007723,-17.484876,-13.670726,-9.764123,0.263798,17.079497,23.858581,27.894106,17.798988,31.120614,36.772173,37.980628,30.579718,41.099802,46.017407,48.448941,40.424179,51.931862,55.868512,58.266404,25.4534,49.217766,71.56715,90.998806,51.662648,84.45995,102.547818,115.956471,43.109917,78.609227,99.306485,113.773854,33.5201,65.698849,85.095509,99.247113,23.66288,46.969368,61.729306,75.234501,-14.392317,-15.477321,-8.480073,-5.488685,14.813825,29.272659,36.23918,40.68379,31.76682,44.954732,50.949314,53.546227,44.22341,58.593323,63.612039,64.153923,52.242614,69.040122,73.876698,73.725645,-10.079104,304.661154,-77.8016,289.529475
112,-8.158493,-0.032938,0.448506,0.00741,4.447312,9.001637,14.91964,15.114659,-10.233501,17.17146,38.717526,52.737248,-20.231941,11.097668,36.265423,55.72086,-25.430088,-0.519836,24.106991,42.727558,-26.391185,-23.167579,-14.964523,-5.349838,-14.510593,-18.184409,-14.601885,-10.920807,-1.260585,14.780875,22.564181,27.890624,16.703326,30.048838,36.541943,38.579842,29.870626,40.068175,45.837121,48.863151,39.86945,52.133107,56.23531,58.21987,25.239029,48.982818,71.267555,90.457512,51.357353,84.162071,102.256668,115.741081,42.887844,78.38079,99.098831,113.766151,33.257458,65.462814,85.035049,99.578384,23.220028,46.37273,61.072517,74.810966,-14.20525,-15.415064,-8.61727,-5.815938,14.786828,28.945086,35.852734,40.34415,31.589868,44.504448,50.480073,53.178022,43.994118,58.01839,63.151183,63.900055,52.063526,68.989697,74.183129,74.495549,-18.013459,304.564829,-77.128956,289.473498
113,-0.841186,-1.675152,0.584644,0.04509,6.075371,11.181164,16.787613,16.287243,-7.92683,17.100139,38.646389,52.957226,-18.142971,10.909023,35.818531,55.557003,-24.382118,-1.238262,22.990803,41.585941,-26.804444,-24.285267,-16.732487,-7.514992,-14.354081,-17.866791,-14.751112,-11.602681,-1.08314,15.380829,23.302271,28.44098,16.781501,30.957383,37.577645,39.667723,30.009489,41.068457,47.039228,50.562706,40.204025,52.999501,57.894778,60.92739,25.098587,48.712418,70.974575,89.970371,51.002918,83.739292,101.815029,115.283787,42.573372,78.022602,98.758541,113.557858,32.904774,65.1087,84.789608,99.542919,22.748898,45.797848,60.457615,74.331287,-14.038116,-15.303506,-8.768978,-6.215796,14.875069,28.804567,35.680117,40.179017,31.499033,44.219223,50.141816,52.781313,43.84194,57.636353,62.816558,63.628292,51.938654,68.929898,74.416904,75.08634,-18.658338,302.813604,-76.348005,289.442515
114,0.916145,-1.414789,0.628349,-0.00415,8.235512,13.579319,17.744202,16.405964,-7.697983,14.3317,36.349285,51.069363,-18.577228,7.557827,32.275967,52.420063,-25.879417,-4.335926,20.263218,39.203739,-29.550625,-28.085724,-21.005916,-12.018402,-14.783728,-19.06213,-17.067703,-14.823026,-2.286247,14.831683,23.276225,28.309995,16.409295,31.879478,38.878479,40.940153,30.291171,41.939633,48.019134,51.77362,41.037681,54.216467,59.216496,61.88178,24.971798,48.53468,70.722828,89.720845,50.546219,83.182972,101.272488,114.763081,42.09161,77.482418,98.264523,113.129895,32.444424,64.625851,84.404904,99.264508,22.338971,45.299218,60.005471,74.031338,-13.903525,-15.166518,-8.769855,-6.283487,14.970585,28.817769,35.6949,40.163234,31.551867,44.208701,50.075176,52.586343,43.902913,57.592337,62.755783,63.516524,51.991353,69.072356,74.701635,75.495029,-17.551518,301.330228,-75.528981,289.369778
