takenoko1/special-research/HandMotion_SimilarSearch_自分用/NewProject/handData_new/key/d3_feature/140.csv
,vel_0x_L,vel_0y_L,vel_0x_R,vel_0y_R,posFromWrist_1x_L,posFromWrist_2x_L,posFromWrist_3x_L,posFromWrist_4x_L,posFromWrist_5x_L,posFromWrist_6x_L,posFromWrist_7x_L,posFromWrist_8x_L,posFromWrist_9x_L,posFromWrist_10x_L,posFromWrist_11x_L,posFromWrist_12x_L,posFromWrist_13x_L,posFromWrist_14x_L,posFromWrist_15x_L,posFromWrist_16x_L,posFromWrist_17x_L,posFromWrist_18x_L,posFromWrist_19x_L,posFromWrist_20x_L,posFromWrist_1y_L,posFromWrist_2y_L,posFromWrist_3y_L,posFromWrist_4y_L,posFromWrist_5y_L,posFromWrist_6y_L,posFromWrist_7y_L,posFromWrist_8y_L,posFromWrist_9y_L,posFromWrist_10y_L,posFromWrist_11y_L,posFromWrist_12y_L,posFromWrist_13y_L,posFromWrist_14y_L,posFromWrist_15y_L,posFromWrist_16y_L,posFromWrist_17y_L,posFromWrist_18y_L,posFromWrist_19y_L,posFromWrist_20y_L,posFromWrist_1x_R,posFromWrist_2x_R,posFromWrist_3x_R,posFromWrist_4x_R,posFromWrist_5x_R,posFromWrist_6x_R,posFromWrist_7x_R,posFromWrist_8x_R,posFromWrist_9x_R,posFromWrist_10x_R,posFromWrist_11x_R,posFromWrist_12x_R,posFromWrist_13x_R,posFromWrist_14x_R,posFromWrist_15x_R,posFromWrist_16x_R,posFromWrist_17x_R,posFromWrist_18x_R,posFromWrist_19x_R,posFromWrist_20x_R,posFromWrist_1y_R,posFromWrist_2y_R,posFromWrist_3y_R,posFromWrist_4y_R,posFromWrist_5y_R,posFromWrist_6y_R,posFromWrist_7y_R,posFromWrist_8y_R,posFromWrist_9y_R,posFromWrist_10y_R,posFromWrist_11y_R,posFromWrist_12y_R,posFromWrist_13y_R,posFromWrist_14y_R,posFromWrist_15y_R,posFromWrist_16y_R,posFromWrist_17y_R,posFromWrist_18y_R,posFromWrist_19y_R,posFromWrist_20y_R,posFromBody_0x_L,posFromBody_0y_L,posFromBody_0x_R,posFromBody_0y_R
6,0.971455,-0.776191,-0.526738,-0.234973,-0.169567,0.24987,1.635784,-0.749668,-22.28888,-1.186295,19.100155,32.470047,-29.932938,-4.987027,17.466785,33.644394,-32.736557,-14.519039,2.525505,12.830303,-31.456707,-32.844498,-29.796662,-27.78011,-7.514839,-6.01223,1.295154,8.654938,7.352548,22.237744,27.510636,28.890598,21.021175,36.61697,40.914416,39.384549,31.412806,45.476203,48.096915,47.336384,40.081106,52.096785,55.554277,56.260406,26.466786,51.69793,74.779507,94.14893,47.737645,79.7864,96.812542,108.146061,36.45916,72.457684,92.617504,103.876683,26.910427,59.832081,78.825932,90.165104,19.308369,43.219563,58.414433,68.690026,-12.087803,-11.286888,-4.043874,2.543747,21.877047,39.713271,45.318887,47.212599,39.721694,58.818676,61.433151,58.168802,51.37864,71.894955,73.883442,69.580723,57.437442,75.910424,78.110554,73.631574,-12.769106,320.7609,-76.444228,302.476912
7,0.256359,2.166785,-0.55521,0.00473,0.119533,1.255886,3.642345,2.49218,-22.285229,-1.088276,18.632675,31.477489,-30.221558,-6.086197,15.697334,31.609257,-33.132179,-16.024178,0.519333,10.426849,-31.883011,-35.629441,-34.563149,-34.192303,-12.187184,-13.468197,-7.350867,-0.457632,3.655748,18.367735,23.793274,25.485976,19.174775,34.088191,38.40578,37.335979,31.018998,44.20386,46.830154,46.258086,41.036595,51.997861,55.870094,57.200877,26.526512,51.855091,75.111054,94.379631,48.022122,80.29271,97.317971,108.604935,36.698902,72.935063,92.986176,104.250252,27.171788,60.325493,79.117218,90.386994,19.571503,43.862469,59.039749,69.288002,-12.206772,-11.441054,-4.220616,2.269513,21.786954,39.427614,45.080259,47.154554,39.620596,58.659125,61.310132,58.178015,51.290843,71.651263,73.696585,69.591171,57.376359,75.654209,77.812608,73.403999,-12.372677,323.257636,-76.859368,302.811593
8,-0.604214,-0.942274,-0.279922,0.005953,-0.506756,0.325298,3.133667,2.947666,-22.757252,-1.117069,19.05106,32.382797,-30.876491,-6.703171,15.536099,31.361939,-34.101997,-17.685219,-0.478237,9.598778,-32.93494,-39.211086,-39.41605,-40.082096,-12.85998,-13.908786,-7.337048,-0.195526,5.067684,19.893365,25.277482,27.112605,20.581301,34.875731,38.472804,37.520785,32.346706,45.092251,47.686941,47.569516,42.33465,53.081111,57.999173,60.691034,26.509907,51.874866,75.142215,94.438705,48.103615,80.356407,97.412246,108.6996,36.764877,73.024383,93.098808,104.418136,27.186104,60.341274,79.145782,90.447281,19.520187,43.819805,58.963943,69.176777,-12.271351,-11.545227,-4.425714,1.971592,21.779654,39.506913,45.342414,47.547583,39.559401,58.696187,61.426111,58.314286,51.160044,71.625822,73.806525,69.786685,57.192898,75.586197,77.861354,73.533897,-12.837427,322.557828,-76.999826,303.060012
9,-4.58559,-0.349408,-0.159073,-0.011695,1.065891,3.693718,7.995598,8.21299,-18.15445,3.872703,23.597831,36.81625,-26.2206,-1.924691,20.358856,36.391948,-29.822388,-12.815838,4.99728,15.688579,-29.128155,-34.681229,-34.90717,-35.444607,-13.148133,-13.658846,-6.402777,1.157573,4.595144,19.591738,24.999913,26.837581,20.421281,35.205194,38.63948,37.672345,32.456152,45.467112,47.815493,47.677752,42.569239,53.524096,58.514641,61.316109,26.472427,51.890327,75.224625,94.529709,48.136711,80.357014,97.503548,108.857323,36.779858,73.049343,93.159027,104.480919,27.15081,60.330654,79.153141,90.461792,19.411537,43.783905,58.93119,69.134788,-12.221593,-11.577202,-4.531196,1.846485,21.86335,39.632649,45.573977,47.827534,39.556264,58.744439,61.515217,58.39072,51.102158,71.642284,73.868362,69.845792,57.122515,75.624099,77.972714,73.701339,-17.282221,322.362919,-77.018103,303.202816
10,-11.178601,1.394806,-0.091519,0.104839,6.414196,15.496331,25.061932,28.904034,-6.337829,17.15157,36.796486,49.93071,-15.428947,9.18488,31.315373,48.158226,-20.334972,-3.598915,13.446625,23.720227,-20.882022,-28.047821,-31.099434,-34.140014,-19.18431,-24.003028,-20.21359,-15.250858,-0.562831,15.375692,21.329283,23.03625,18.385086,34.149793,37.596985,36.126634,32.456547,46.193,48.664919,48.046118,43.621775,54.579139,60.189991,63.372644,26.502652,51.970482,75.346264,94.700238,48.060437,80.392045,97.640912,108.982121,36.672867,73.167607,93.391331,104.729428,27.043591,60.414231,79.321873,90.634106,19.348481,43.836926,59.014287,69.219544,-12.279983,-11.718437,-4.739665,1.669867,21.777555,39.666798,45.618574,47.869142,39.450449,58.777686,61.495284,58.312359,50.989131,71.63264,73.81149,69.777176,57.015156,75.618419,77.968331,73.692448,-28.323996,323.882761,-76.972796,303.432691
11,-5.259979,0.52368,-0.129478,-0.076126,7.240528,18.423477,29.715351,34.349911,-1.514408,22.867081,42.269875,55.18737,-10.0532,15.513325,37.527569,54.051544,-15.016674,3.287476,20.440327,30.344959,-15.857849,-21.970802,-24.722511,-27.765312,-19.819449,-24.570637,-20.944455,-16.291883,-1.037703,14.720693,20.464371,21.877788,18.216421,34.222523,37.616042,36.120768,32.415817,46.202659,48.489783,47.778097,43.46877,54.440794,59.820687,62.665084,26.492397,52.022038,75.409641,94.727909,48.151554,80.570927,97.892933,109.330708,36.766777,73.351502,93.586109,105.019993,27.130348,60.53429,79.423725,90.795284,19.400425,43.876225,58.991398,69.171272,-12.290839,-11.740655,-4.78021,1.666558,21.859103,39.749951,45.772938,48.113266,39.490204,58.819775,61.685118,58.672537,50.987377,71.606297,73.92442,70.022251,56.986257,75.635178,78.094684,73.926976,-33.460705,324.488992,-76.979004,303.439116
12,-7.112778,-0.262439,-0.040054,0.064023,9.863789,24.90342,39.508118,46.446385,5.146729,30.331776,49.840119,62.93834,-3.573314,22.825848,45.211522,62.624199,-8.860485,10.028264,26.605557,35.910794,-9.779651,-15.486682,-19.207305,-23.532989,-21.57079,-28.105367,-27.155188,-24.903151,-2.668396,13.713877,19.824611,20.909307,17.862257,34.923983,38.423589,36.253889,32.594016,47.664007,50.055921,48.780096,43.356915,54.958892,60.514366,63.21344,26.467392,52.05645,75.469585,94.756153,48.16864,80.667503,98.085056,109.570942,36.793831,73.52029,93.833049,105.325435,27.15327,60.64991,79.619316,91.059528,19.418667,43.929187,59.026622,69.193062,-12.329742,-11.851287,-4.923817,1.528385,21.963967,39.898572,45.972935,48.33847,39.530008,58.896543,61.777088,58.747156,50.948968,71.605568,73.977253,70.115185,56.900448,75.622754,78.20092,74.170557,-40.473719,324.295525,-76.919294,303.572111
13,-4.736389,-2.516342,-0.004349,0.088229,11.588906,29.365883,45.309231,52.806999,9.032204,33.596169,53.09523,66.320755,0.880154,26.30737,49.226704,67.628334,-4.551544,13.748463,30.565522,39.553425,-5.975521,-12.978595,-17.82946,-23.713016,-23.364898,-31.212672,-32.592571,-32.033038,-1.633187,14.991049,20.207353,20.009641,19.991486,37.965944,40.911822,37.722993,34.895751,50.930394,53.027129,51.233218,45.433236,57.42592,63.467568,66.582641,26.452034,52.110329,75.655598,94.963016,48.16737,80.730926,98.210323,109.746883,36.893406,73.753578,94.063557,105.520946,27.357788,61.021065,79.930572,91.247578,19.712929,44.355812,59.416237,69.492405,-12.396778,-11.966921,-5.016912,1.518875,22.062941,39.910798,45.951001,48.264888,39.632563,58.968408,61.733048,58.558039,51.038692,71.655759,73.845009,69.805161,56.978748,75.635672,78.080704,73.929495,-45.158633,321.821701,-76.872168,303.702858
14,-0.070644,-0.143866,0.0382,0.039953,12.018986,29.815647,45.149528,52.44302,9.535366,33.856693,53.594456,66.954723,0.990383,26.612274,50.055828,68.636089,-4.818215,13.670139,31.205337,40.332069,-6.705666,-13.659531,-17.869274,-23.465859,-22.826534,-30.844788,-32.827791,-32.610047,-0.879857,15.920825,20.794772,20.259841,20.127251,38.375238,41.016427,37.289814,34.648922,50.869483,52.912977,50.894109,44.917633,57.100186,63.281365,66.411951,26.490967,52.170971,75.8107,95.226986,48.005265,80.674279,98.287091,109.889798,36.877133,74.029427,94.441235,105.938519,27.553002,61.51561,80.489445,91.737912,20.137001,44.953995,60.043282,70.067208,-12.448142,-12.078702,-5.115948,1.533534,22.040686,39.899263,45.901971,48.171348,39.69104,59.0813,61.685277,58.33433,51.136714,71.760561,73.670217,69.356099,57.058121,75.661199,77.862873,73.458426,-45.21916,321.71148,-76.823851,303.776456
15,3.109062,0.287708,0.064728,-0.002927,11.533722,28.026432,42.058262,48.855023,6.517548,31.004242,50.91338,64.053967,-2.197792,24.105503,47.862362,66.270527,-7.98444,11.168449,29.246521,38.315975,-9.74723,-16.667313,-20.547466,-26.091225,-22.129483,-30.344029,-32.661078,-32.486485,-0.454088,16.322918,20.624538,19.686945,20.13797,38.476755,40.552335,36.381836,34.386112,50.639252,52.30886,50.024379,44.556059,56.692201,62.879061,66.159243,26.613922,52.3144,76.030163,95.540028,48.034172,80.835228,98.474796,110.062946,37.000477,74.422005,94.802914,106.242519,27.81229,62.095722,81.036873,92.144863,20.550476,45.658653,60.814179,70.814015,-12.547412,-12.198708,-5.144205,1.585466,21.94475,39.842687,45.822634,48.063347,39.731252,59.16118,61.620007,58.144756,51.278999,71.89188,73.492883,68.928539,57.244052,75.707388,77.57745,72.861336,-42.131579,322.022854,-76.780604,303.797195
16,0.529106,-0.497486,0.299584,-0.200825,11.683193,28.171772,42.186127,48.834378,6.333779,30.752278,50.518925,63.514378,-2.351978,24.093098,47.877445,65.968838,-8.219158,11.30278,29.708714,38.710327,-9.922142,-16.850475,-20.883819,-26.706424,-22.177784,-30.026373,-31.874069,-31.334432,0.048301,16.801126,20.871355,19.84899,20.4959,38.974501,40.809501,36.616759,34.638461,51.190881,52.741039,50.506785,44.784511,57.096481,63.410263,66.998023,26.831108,52.434791,76.174312,95.778934,47.971389,80.800323,98.512378,110.141475,37.037704,74.606494,95.04887,106.487514,27.995933,62.519702,81.457111,92.426456,20.876873,46.15464,61.349155,71.259601,-12.372485,-11.983581,-4.888694,1.837038,21.969735,39.921012,45.866057,48.014539,39.856433,59.330549,61.615734,57.920405,51.527174,72.176648,73.454869,68.520974,57.56429,76.021142,77.595469,72.498615,-41.646578,321.543967,-76.525125,303.614969
17,0.20454,-0.368045,0.277828,-0.16764,12.209862,29.046353,43.097214,49.523713,6.841977,31.214585,50.793274,63.496537,-1.90821,24.488892,48.165894,65.950448,-7.98722,11.718098,30.256737,39.222085,-9.910812,-16.754219,-21.017852,-27.127349,-22.212117,-29.848173,-31.278856,-30.546805,0.311716,17.064479,20.88126,19.750128,20.680163,39.30473,40.82894,36.672433,34.747105,51.520592,52.875396,50.743376,44.9265,57.21209,63.489662,67.350927,27.080864,52.671844,76.458652,96.227852,47.894863,80.790584,98.471763,110.043182,37.033149,74.838833,95.247207,106.610389,28.151619,63.026344,81.887604,92.692337,21.243999,46.74044,61.994648,71.901706,-12.228545,-11.810557,-4.670566,2.102268,21.837601,39.950812,45.855547,47.939648,39.891112,59.429436,61.540436,57.70019,51.769829,72.423502,73.392501,68.204429,57.948192,76.324201,77.576166,72.175314,-41.493519,321.19697,-76.298778,303.468377
18,3.389603,-0.480283,0.327919,-0.242457,11.175465,27.01442,40.654186,46.866142,3.477173,27.826023,47.519898,60.155411,-5.293636,21.148602,44.481148,61.876007,-11.027183,8.281357,26.053482,34.495628,-12.271385,-19.5798,-24.476532,-31.038803,-22.137868,-29.655289,-30.919048,-30.441557,1.02733,17.813648,21.542089,20.573657,21.480005,39.752421,41.215177,37.404263,35.479206,52.138714,53.368053,51.558668,45.594133,57.648543,63.667232,67.665892,27.36795,52.883331,76.577339,96.476234,47.957004,80.935077,98.575538,110.064583,37.124073,75.08345,95.478721,106.862091,28.331955,63.395313,82.229667,93.011558,21.559284,47.082264,62.367347,72.280941,-12.005416,-11.542288,-4.396073,2.266747,21.661131,39.908476,45.805147,47.891878,39.846442,59.404848,61.488949,57.705958,51.91435,72.51593,73.447805,68.302551,58.231936,76.604659,77.780362,72.332963,-38.164839,320.730528,-76.031782,303.239761
19,-2.019859,0.512047,0.334636,-0.144471,11.835033,28.719086,43.145645,49.632683,6.061386,30.550255,49.934761,62.379387,-2.4776,23.81702,46.77935,64.016304,-8.297104,10.964149,28.021751,36.226295,-9.790672,-16.902432,-22.198986,-28.934864,-22.775565,-30.47468,-31.890173,-31.804302,0.292178,16.909511,20.860994,20.060573,21.103043,39.232334,40.917132,37.442869,35.322372,51.906174,53.321395,51.692888,45.589391,57.599167,63.466814,67.29119,27.621609,53.099854,76.68639,96.596432,48.282956,81.185635,98.661908,110.021016,37.372159,75.236802,95.493176,106.808133,28.470108,63.501584,82.194226,92.887173,21.575867,47.050255,62.336907,72.240086,-11.826933,-11.315182,-4.215441,2.292237,21.620832,39.967164,45.897093,47.984133,39.838451,59.333229,61.434596,57.709675,51.991624,72.54757,73.558091,68.507611,58.407134,76.782982,77.976827,72.551979,-40.261654,321.251723,-75.774102,303.104438
20,-0.556767,-0.227513,0.467137,-0.315878,12.174099,29.641938,44.180477,50.581433,7.224346,31.659165,50.827183,63.206097,-1.308643,24.636429,47.18327,64.292805,-7.158245,11.678501,27.839367,35.612892,-8.67786,-15.816593,-21.54919,-28.527076,-22.93745,-30.665897,-32.221797,-32.492005,0.487729,17.140753,21.279427,20.623785,21.407707,39.418623,41.229046,37.970316,35.614204,52.187595,53.694219,52.294176,45.794192,57.847255,63.587968,67.370897,27.733131,53.203983,76.793403,96.692711,48.510773,81.21405,98.591308,110.001045,37.601292,75.194721,95.379776,106.809975,28.627281,63.421268,82.003464,92.774254,21.605106,46.807102,61.983639,71.869022,-11.533396,-10.965169,-3.976035,2.29567,21.843665,40.153564,46.163249,48.322983,39.960038,59.35173,61.591207,58.001433,52.043889,72.531639,73.796398,68.951449,58.422275,76.850994,78.235364,73.016367,-40.913864,321.03141,-75.402408,302.79576
21,-0.306598,-0.439712,0.407993,-0.311346,13.162983,31.163314,45.2299,51.149917,8.828304,33.294628,52.267227,64.238022,-0.11784,25.776168,47.375976,63.558815,-6.528855,11.713211,25.654506,31.820205,-8.69418,-15.291333,-21.305981,-28.549542,-22.381153,-30.373225,-32.395884,-33.239667,1.148409,17.949276,21.682237,20.576126,21.970611,40.152007,41.444517,37.786213,36.046482,52.819647,54.165572,52.726244,46.115714,58.138383,63.352785,66.723493,27.67693,53.19199,76.838207,96.774342,48.505394,81.111294,98.455731,110.021267,37.677738,75.062119,95.245136,106.86018,28.712483,63.203911,81.789425,92.771473,21.636578,46.435295,61.561684,71.602181,-11.371857,-10.818585,-4.00113,2.01993,21.893103,40.02847,46.129361,48.447793,39.952752,59.222104,61.602162,58.16564,51.99875,72.420167,73.959951,69.390692,58.390412,76.835174,78.44066,73.47999,-41.361499,320.599661,-75.135452,302.492377
22,1.928226,-0.75033,0.102757,-0.549998,13.269173,30.361096,42.853214,47.68491,7.452427,32.314728,51.436993,63.326901,-1.831352,24.689919,46.282963,62.666988,-8.318527,10.564785,24.461804,30.678578,-10.499645,-16.77911,-22.494335,-29.450489,-21.784063,-29.891213,-32.568599,-34.169664,2.093389,19.171009,22.632218,21.154667,22.683409,41.03326,41.925591,37.622279,36.445427,53.237575,54.323073,52.465522,46.242463,58.261601,63.454699,66.621063,27.628738,53.290535,76.952774,96.823585,48.842296,81.409904,98.752487,110.493667,38.010704,75.230484,95.415161,107.195961,29.052761,63.362091,82.011703,93.214302,21.988884,46.743004,61.903793,72.105652,-11.661244,-11.014804,-4.335274,1.201626,21.589092,39.757472,46.013949,48.550323,39.635576,58.896678,61.375673,58.080449,51.710474,72.099447,73.834412,69.460161,58.148906,76.545736,78.331324,73.583903,-39.633562,319.84934,-75.232984,301.942388
23,-0.813309,-1.693035,-0.096852,-1.32099,13.887497,31.130024,42.841656,46.937771,8.94262,34.697377,53.79015,65.613568,-0.554203,27.14312,48.465443,64.896481,-7.335628,12.62312,26.0831,32.075398,-9.974556,-15.304905,-20.866539,-27.732078,-21.37866,-29.728081,-33.040287,-35.116719,3.169352,20.846716,23.975326,22.225393,23.460698,42.512441,42.932356,38.203325,36.731355,53.973083,54.526848,52.353469,46.133955,58.452322,63.575482,66.692865,27.760094,53.625985,77.17804,97.051998,49.241936,81.936138,99.267712,111.251278,38.390568,75.505772,95.668911,107.721531,29.358788,63.565293,82.24989,93.715771,22.203598,46.994099,62.088421,72.512707,-12.13335,-11.178282,-4.570098,0.232293,20.508942,39.239522,45.957695,49.058368,38.568394,58.188192,61.243775,58.629707,50.748761,71.333286,73.685581,70.035243,57.360477,75.82243,78.092795,74.112487,-40.689698,318.154107,-75.572663,300.6192
24,3.854989,-2.460631,-0.340267,-2.795626,13.289691,28.759162,38.310058,40.699619,7.30743,33.456642,51.989559,62.99541,-2.491459,24.93608,44.995365,60.628246,-9.641316,9.82188,21.858844,27.136047,-12.79319,-17.733616,-23.110028,-29.470791,-20.626712,-29.495911,-33.167295,-35.43293,3.608287,21.459849,24.593658,23.020937,23.7448,42.299662,42.624741,38.024941,36.66406,53.583624,53.926993,51.905346,45.625824,58.507318,63.318045,66.147573,27.780018,53.965759,77.245823,96.896073,49.802445,82.437904,99.606583,111.778496,39.070072,75.619343,95.604241,108.128838,29.819058,63.421028,82.084007,93.983002,22.213532,46.770458,61.527111,71.992241,-12.837454,-11.618389,-5.11286,-1.323756,18.700618,37.794685,45.184839,49.354548,36.479933,56.454684,60.850745,59.79963,48.732264,69.554441,73.062655,70.793352,55.766464,74.480716,77.666852,74.908943,-37.085906,315.68221,-76.164127,297.812308
25,0.670188,-4.368496,-0.097584,-4.969587,13.68805,27.904759,35.43385,36.319073,9.086186,35.095036,51.590298,60.617466,-0.430584,26.313401,42.933655,55.86929,-8.212577,10.112629,19.26067,22.411103,-12.675922,-16.962169,-22.783996,-29.495075,-21.275931,-30.504925,-33.858887,-35.100922,3.119915,20.350441,23.371642,22.214761,23.44762,41.090911,41.609021,37.677632,36.293867,52.786439,53.303882,51.553456,45.108825,58.262206,63.035871,65.713813,27.601639,53.623822,76.157456,95.317212,50.342915,82.207638,99.019719,111.279591,39.732239,74.720375,94.138905,107.158413,29.961193,61.740384,79.904492,91.894146,21.358567,44.011448,57.756604,67.600228,-14.213166,-12.79823,-5.948652,-2.608893,16.12202,35.39609,43.724689,49.315917,33.686838,53.638088,59.619677,60.807446,46.193001,67.06322,72.29574,72.261259,53.786363,72.787212,77.416208,76.344677,-36.64143,311.26456,-76.487423,292.793567
26,5.198788,-6.636316,1.234806,-8.829679,9.574207,20.079689,25.77253,26.935227,6.077499,26.563271,38.261971,44.163952,-1.68996,17.940731,28.456558,37.345001,-8.582085,4.216484,10.116394,11.297493,-13.051495,-17.929001,-24.069866,-30.704578,-22.627809,-32.456523,-36.369499,-36.738099,1.421247,17.214458,21.535703,22.267075,22.309596,39.223713,41.501426,39.479335,35.96959,52.630827,54.065079,52.708916,45.045221,59.260265,64.755681,67.529583,26.876587,51.842698,71.252312,87.43768,51.005368,79.863614,92.729622,101.490864,40.570679,70.900921,84.772797,93.132821,29.961949,56.059456,68.277226,75.67138,19.712323,37.933526,47.434433,53.698323,-10.484837,-5.472568,4.700096,10.758923,16.302405,37.16025,47.807194,55.193618,30.796697,53.466434,63.066066,67.428992,41.674155,64.943501,72.954111,75.427795,48.715357,68.700779,75.100184,76.253287,-31.599163,304.562372,-75.409138,283.898016
27,9.221283,-9.015054,-1.246501,-17.46351,3.419815,7.843838,10.598213,11.560078,1.47543,13.235756,18.494534,20.198387,-4.02079,4.105843,6.851315,9.961075,-10.058464,-7.205692,-7.243412,-9.992443,-14.72588,-22.018009,-29.219364,-36.345062,-22.108043,-31.733562,-35.485887,-34.135616,0.107137,14.65746,20.160188,22.916776,20.832909,37.838553,41.885934,42.609414,34.879127,52.13754,54.481993,54.528343,43.898108,59.001135,64.591721,67.699484,29.703975,55.644275,73.85551,86.827629,59.332557,84.516563,90.101863,92.499389,49.122035,75.37667,80.449665,81.046211,37.276336,58.858314,62.967281,63.327072,24.589794,40.81224,44.895767,45.653675,-2.966836,5.377312,17.566683,25.952376,18.91672,44.996043,58.790381,67.313642,28.940676,58.02354,71.877998,78.255,37.845864,66.507935,78.946111,83.524336,44.634679,68.08588,78.318714,82.018218,-22.491663,295.495377,-76.769422,266.382565
28,16.031181,-11.52314,-4.224415,-23.018776,-4.156957,-7.396791,-9.225122,-10.14018,-11.663103,-10.636877,-11.876621,-14.075454,-15.033594,-19.442602,-23.866046,-25.758579,-19.333631,-26.928749,-32.417747,-38.352808,-22.747696,-33.806442,-42.317453,-49.749859,-21.59783,-30.403364,-33.343289,-30.78421,-0.493953,12.923003,19.24543,23.36288,19.074555,35.565823,40.929211,43.600102,32.757661,49.799775,53.331114,54.611645,41.022775,56.409026,61.98599,65.148365,29.897163,56.727928,74.465629,85.465072,63.639564,90.565693,94.291557,93.067463,54.413383,82.625759,85.331657,82.386692,42.371875,65.847736,67.817573,65.03738,28.596222,46.510311,50.194679,49.18436,-3.558589,5.248267,18.938864,29.867699,14.343547,38.937723,53.710929,62.355147,24.030161,52.381282,67.745414,75.083253,33.681973,61.532409,74.768931,80.141402,42.118857,64.21481,74.359328,78.214987,-6.608855,284.017864,-81.14221,243.409416
29,19.619545,-14.819148,-4.122734,-24.481457,-12.974287,-24.124952,-30.813806,-34.266912,-32.070745,-43.035009,-50.365677,-55.502643,-33.186109,-49.305101,-59.880844,-65.77145,-34.585092,-51.75,-62.244266,-71.050592,-34.863201,-50.424305,-61.095525,-69.622329,-21.559236,-28.416236,-29.81408,-26.445095,1.365117,14.456797,20.773358,25.410462,18.507217,35.188738,41.040189,44.839272,30.640005,47.781302,52.134564,54.358617,37.317368,52.295757,57.830262,61.287803,29.798263,56.704021,73.603637,83.815361,66.080864,94.674236,97.343719,93.531612,58.613308,88.724258,89.553016,83.205471,47.912864,73.449874,73.137657,66.641269,35.012947,54.217403,57.286869,54.325767,-2.145604,6.389785,19.711584,31.091617,10.291485,30.693944,45.541571,54.141477,18.809028,43.167009,58.526436,65.903103,28.261793,53.098525,66.253524,71.453489,37.408388,57.539108,67.082721,70.639458,12.754388,269.592483,-85.521246,219.321726
30,21.876572,-14.895607,-6.059315,-33.593829,-20.947077,-39.332869,-49.926596,-55.954931,-51.053736,-73.067568,-85.955635,-94.469627,-50.517008,-78.602137,-94.48859,-104.825008,-49.690607,-76.344635,-91.171509,-102.990137,-47.311295,-67.632465,-79.832353,-89.37093,-20.671265,-25.611174,-26.220441,-23.753049,2.524617,14.083898,19.912199,24.355579,16.211608,31.459248,37.011443,41.198183,25.94606,41.414167,45.396161,47.78652,30.314179,43.434832,48.171991,51.352606,29.548656,58.361389,76.633392,86.609356,70.145714,102.538536,104.022755,96.68573,64.183285,98.94659,98.108402,87.6324,54.551937,84.794197,82.995289,73.274414,42.396355,65.762512,68.858219,64.323131,-3.445698,3.93242,17.61018,30.407273,3.449612,20.320745,34.463559,42.163397,12.499314,33.408282,47.561828,53.712799,23.225416,44.348343,55.448572,59.107099,34.196859,50.441046,57.202383,59.066467,34.345882,255.515649,-91.865639,186.54667
31,18.223618,-14.083441,-9.939503,-34.040008,-24.269675,-47.119921,-61.739714,-71.658755,-64.504767,-92.865767,-109.144547,-120.604306,-63.322329,-97.206316,-115.539769,-128.657765,-60.824072,-92.001561,-109.443581,-123.210051,-56.251683,-79.886605,-93.435156,-104.002419,-20.14183,-24.440906,-24.206785,-22.799327,0.963986,11.212628,15.391463,18.726696,11.378625,24.059165,27.806223,31.225417,18.454401,30.631545,33.175742,35.161833,20.980839,30.851482,34.294438,36.985879,32.646572,65.054123,86.979263,99.85841,75.35923,111.018757,116.96965,112.944077,70.456547,110.077297,114.651215,108.203236,62.16322,99.032982,103.159252,97.645031,51.640515,80.531593,88.041218,87.30439,-7.855918,-4.525502,5.821558,15.265079,-4.689974,6.537449,16.913951,22.098102,5.858583,19.313856,28.935367,32.446532,18.271639,32.514816,40.001473,41.417589,31.687576,43.39354,47.475465,47.231594,52.246222,242.765085,-102.12842,153.839539
32,11.826805,-15.791939,-5.655567,-36.162912,-23.766192,-46.976767,-63.545008,-76.679518,-72.312716,-104.156565,-122.994931,-136.891434,-71.286913,-106.646261,-127.224037,-142.965294,-67.740263,-99.347615,-119.071575,-134.929911,-61.259159,-85.797123,-100.554091,-112.336453,-21.283595,-26.395158,-26.304126,-26.953672,-2.246208,6.220292,8.816971,11.031421,6.147105,14.973901,16.786714,18.773607,11.688334,20.109707,21.315847,22.022593,13.468209,20.306919,22.209832,23.31798,31.270168,65.067982,89.117317,105.018059,72.627125,113.215118,125.877171,126.826527,68.245663,112.611053,125.559277,125.803379,61.117619,103.435833,115.128216,115.517933,52.031879,83.967831,97.072735,101.436813,-16.486835,-17.872181,-9.965368,-3.011432,-14.837327,-11.249745,-5.164403,-1.749963,-0.360344,4.132097,8.595299,9.941804,14.815295,20.434687,22.620479,21.908589,30.493156,35.145309,34.239721,31.296115,63.641218,228.659861,-108.215796,119.363342
33,7.284347,-16.720931,-4.171028,-31.434029,-22.222847,-44.811905,-62.22203,-77.111629,-73.552677,-106.895942,-127.980549,-144.503849,-72.489509,-108.363476,-131.180065,-149.800392,-68.522781,-99.917736,-121.383888,-139.368427,-61.289509,-85.847637,-101.233623,-114.116318,-22.316389,-28.918583,-29.622599,-32.35939,-6.969609,-1.111989,-0.26565,1.018548,0.555013,5.258097,5.067202,5.752619,5.649854,10.604312,9.936469,8.950697,7.687235,11.752684,12.149937,11.715337,30.863926,64.069496,87.568771,103.266746,72.950008,111.70166,126.733234,131.628673,69.939491,112.298675,128.122639,132.860218,64.340069,104.883385,119.050976,123.331524,56.877022,87.28569,100.836021,107.508476,-17.137845,-20.198251,-14.392162,-9.796134,-19.030618,-17.579798,-14.375088,-12.486896,-5.766407,-5.021383,-3.581579,-3.464204,8.834447,10.655355,10.661394,8.827549,24.822178,26.652645,24.324006,20.782491,70.515535,213.713501,-112.796854,89.703884
34,2.388726,-17.603437,3.79993,-36.042184,-19.525887,-40.710984,-57.963776,-73.332951,-67.833149,-101.032265,-123.954712,-143.338234,-66.706318,-102.459652,-127.619717,-149.569291,-63.048512,-93.828885,-116.790127,-137.29517,-56.243077,-79.859013,-95.531765,-109.682362,-23.150822,-31.573041,-33.693939,-38.419112,-12.89976,-10.305539,-10.916979,-10.013262,-5.296679,-4.912109,-6.71616,-6.740181,0.174927,1.613267,-0.905681,-3.351195,3.263336,4.24949,3.230065,1.442527,33.321957,66.745366,90.643708,105.712201,71.707512,108.667386,123.636612,129.450394,66.665749,107.161698,124.075058,130.337426,60.128369,99.062371,114.944275,121.757264,52.224999,81.42508,95.46056,103.448399,-19.826396,-24.899674,-20.12039,-15.95467,-23.345379,-20.900742,-18.987628,-18.160512,-9.458106,-8.143286,-7.94348,-8.56669,6.125437,7.41541,6.182699,3.671316,23.528809,23.633365,20.152494,15.801387,72.314129,197.783142,-109.587056,55.334778
35,0.826835,-19.129364,3.211831,-25.899147,-18.001694,-37.963142,-55.020904,-70.505733,-64.33786,-97.607048,-121.349613,-142.084648,-62.98185,-97.634582,-123.374382,-146.316868,-58.72419,-87.808422,-111.205353,-132.597153,-51.231697,-73.316116,-89.245285,-104.057293,-24.555761,-35.059543,-38.548868,-44.569212,-18.634928,-17.698242,-19.29562,-18.290972,-10.032669,-12.109472,-15.005412,-15.397162,-3.527097,-4.156865,-7.747182,-10.979482,1.078903,0.372936,-1.636688,-4.343406,31.761451,62.802761,84.944515,98.866207,68.586479,102.533523,119.104248,128.500259,64.39405,101.108104,120.411689,131.137298,58.714267,94.412887,112.294578,122.724678,51.572605,78.92649,93.698696,103.889247,-18.849326,-24.611004,-21.344228,-18.905871,-22.795517,-20.613424,-20.343643,-20.67155,-10.388939,-9.848969,-10.973629,-12.472361,4.01348,4.394622,2.446724,-0.715447,20.88213,20.483926,17.234428,13.039785,72.452705,180.335622,-107.063484,31.117475
36,0.038864,-20.266337,4.547081,-23.844397,-16.892647,-36.534759,-53.495064,-69.070312,-61.737396,-94.197326,-118.188022,-139.545227,-60.455337,-93.687114,-119.551334,-143.0629,-56.081955,-83.903183,-107.526523,-129.586384,-48.348129,-69.577594,-85.717735,-101.160083,-25.380913,-37.374301,-41.651313,-48.498279,-22.123085,-22.562588,-24.836874,-24.19307,-12.813192,-16.382965,-19.903473,-20.798026,-5.639659,-7.594726,-11.632493,-15.246874,-0.257295,-2.014619,-4.729797,-8.023898,27.55093,55.442894,75.917759,87.941082,63.865345,97.743942,114.292648,124.496086,60.990074,97.090221,117.262115,130.145141,56.452858,91.152019,109.539619,121.400665,50.240707,77.145961,91.798519,102.318626,-19.570497,-25.697774,-22.588103,-19.357377,-24.528116,-21.92696,-21.596688,-21.828413,-11.623966,-10.398337,-11.27113,-12.698089,3.206779,3.550692,1.702026,-1.220238,20.222976,18.953011,15.645411,11.735715,71.6042,161.733844,-103.403772,8.937637
37,-0.696167,-17.883759,2.891258,-14.677561,-16.198768,-35.707489,-52.428932,-67.865593,-59.467209,-91.031822,-114.78305,-136.476974,-58.030861,-90.212002,-115.329677,-138.888553,-53.070167,-80.466476,-103.990493,-126.268455,-44.794784,-65.780708,-81.874592,-97.475475,-26.844923,-40.342341,-45.243483,-52.42965,-25.429128,-26.85983,-29.690703,-29.503791,-15.674632,-19.82794,-23.938368,-25.499956,-8.017235,-11.076758,-15.65765,-19.323921,-2.182087,-5.199076,-8.561096,-12.093448,24.493572,49.257362,67.664291,77.661655,59.693733,92.109924,109.905189,122.466202,58.329082,93.178253,114.706329,130.330284,55.268944,88.861084,108.589805,122.854545,50.592041,76.690841,91.302543,102.785568,-19.329861,-24.846865,-21.216317,-17.200577,-25.752212,-24.9928,-25.038902,-25.181435,-13.407088,-13.961206,-14.461125,-15.002812,0.969537,0.074879,-1.393873,-3.729879,17.742141,15.950601,13.038446,9.684145,69.656999,145.484304,-101.763548,-4.105705
38,-1.406913,-15.015656,5.099087,-13.672628,-15.43158,-35.006104,-51.63398,-66.822167,-57.228219,-88.819096,-112.309617,-134.260746,-55.571091,-87.562661,-112.19616,-136.020905,-49.837967,-77.262303,-101.0178,-123.580891,-40.748612,-61.618515,-77.827687,-93.718987,-28.171421,-42.85494,-48.234056,-55.180273,-28.004584,-30.040655,-32.998284,-33.287727,-17.636535,-22.097039,-26.255466,-28.184333,-9.584868,-14.052622,-18.669947,-21.821602,-3.485897,-8.140656,-12.026726,-15.483774,22.408172,46.279678,64.682235,74.747554,55.857639,88.069828,106.177494,119.423778,54.371612,88.978157,110.97797,127.302944,51.478752,85.203781,105.482311,120.27531,46.939235,73.603866,88.472923,99.947582,-18.381949,-23.354425,-18.858261,-13.890866,-24.808215,-24.796279,-24.656198,-24.212546,-12.089112,-12.594688,-12.579756,-12.566097,2.316153,1.521568,0.418329,-1.425403,18.62256,16.62662,14.138986,11.264202,66.847744,132.229902,-98.066803,-16.017079
39,-1.916085,-11.832985,-1.90614,-6.05706,-14.541687,-34.29364,-50.896934,-65.826004,-55.703544,-87.666355,-110.947128,-132.909256,-53.704422,-85.834007,-110.174766,-134.421089,-47.292022,-74.96933,-98.83493,-121.370075,-37.46505,-58.388077,-74.562984,-90.587574,-29.465234,-44.917095,-50.46406,-56.851301,-30.14195,-32.203123,-34.938821,-35.45482,-19.00401,-23.26096,-27.04534,-29.008379,-10.344052,-15.45895,-19.917373,-22.402839,-3.8007,-9.206727,-13.28528,-16.394919,17.964821,40.822838,58.8708,68.588196,55.265053,87.573727,107.761162,123.5262,56.095265,90.972496,114.789986,134.136475,54.56044,88.748097,110.413674,127.375076,50.775295,78.619114,94.198345,107.099327,-17.459077,-21.078812,-14.716754,-8.288116,-23.786883,-24.497951,-24.777057,-24.258662,-10.818944,-12.170198,-12.599227,-12.50725,3.541867,1.810176,0.503327,-0.990372,19.30156,16.455181,14.115458,11.834688,63.72694,122.157508,-101.177662,-20.313548
40,-2.397354,-8.704338,1.184681,-3.121589,-13.54676,-33.641762,-50.42395,-64.959297,-55.370407,-87.610886,-110.78215,-132.931732,-52.695167,-85.0406,-109.194076,-133.921566,-45.25312,-73.241775,-96.98529,-119.571659,-34.115433,-55.194351,-71.209911,-87.258751,-29.473774,-45.246361,-50.822886,-56.051306,-30.456556,-32.352776,-34.500863,-35.192399,-18.933596,-22.571998,-25.585548,-27.396626,-9.811282,-14.603373,-18.403456,-20.215164,-2.961932,-8.329593,-12.341672,-15.115543,17.54448,40.198071,57.99662,67.506878,54.940601,86.90498,107.359966,123.574848,55.739685,91.064964,115.427799,135.235874,54.308762,88.990654,111.396732,129.177967,50.565617,78.805504,94.880871,108.431934,-17.04785,-19.837079,-12.528467,-4.846246,-23.720006,-24.154989,-24.146714,-23.186279,-10.105763,-10.660233,-10.572578,-9.812764,4.718602,3.767393,3.082031,2.452529,20.609812,17.968178,16.073237,14.485801,60.182304,114.793216,-101.140263,-22.095091
41,-3.28997,-4.611675,2.736603,2.598779,-12.268158,-32.245102,-48.948532,-62.754181,-54.963021,-87.918846,-110.969685,-132.857083,-52.158875,-85.173958,-109.532547,-134.397377,-44.43869,-73.147248,-97.18705,-119.66613,-32.985924,-54.688042,-70.855248,-86.98225,-29.31875,-44.833281,-50.214533,-54.59168,-29.974743,-31.634118,-33.406627,-33.939681,-18.363609,-21.866166,-24.314509,-25.536747,-9.165922,-14.125011,-17.597682,-18.604324,-2.424932,-8.209476,-12.513159,-15.062481,17.792679,40.557941,58.228958,67.816727,55.989304,87.211693,107.174,123.103397,56.355984,91.576137,115.675014,134.997356,54.447086,89.276916,111.98727,129.937786,49.983913,78.579494,95.212406,109.015148,-17.472187,-20.687012,-13.512219,-5.791071,-22.761671,-22.242091,-21.753948,-20.168191,-8.723512,-7.998611,-7.60239,-6.642585,6.381355,6.714252,6.531088,6.407266,22.231031,20.532493,19.162332,18.164803,55.959767,111.030652,-99.336227,-18.647201
42,-3.349915,-1.897899,2.231541,10.867183,-11.755668,-31.285469,-47.565262,-60.853054,-54.955696,-88.62941,-111.507889,-132.750435,-51.383629,-84.955593,-109.582271,-134.457195,-42.754165,-71.392925,-95.114467,-116.783764,-30.411415,-51.216408,-66.814579,-82.229095,-28.915186,-43.599897,-48.741502,-52.55296,-29.00184,-30.762561,-32.558349,-33.386021,-17.439181,-21.28357,-23.243343,-23.724662,-8.50092,-14.000522,-17.160433,-17.739275,-2.077969,-8.495881,-12.815452,-14.879916,18.288042,41.475385,58.835317,68.565158,58.672817,89.429317,108.612968,123.768608,59.205259,94.661006,117.795742,136.058132,57.116907,91.745556,113.727871,131.08311,52.187336,80.514661,96.674182,109.942989,-15.623827,-18.862105,-12.276087,-5.570622,-21.282715,-19.881172,-18.802469,-16.806236,-8.705014,-7.066498,-6.189398,-5.074223,4.93944,6.209828,6.765298,7.25471,19.290758,18.32747,17.686096,17.431561,51.905056,109.748371,-97.809482,-7.1644
43,-4.052971,1.224066,1.031513,17.914826,-13.523163,-33.081459,-48.146347,-60.031505,-56.668956,-87.108856,-107.442867,-126.229614,-51.37088,-78.735752,-95.722332,-113.490726,-41.381401,-62.913002,-78.26675,-92.7579,-28.246147,-44.420082,-54.997089,-65.62516,-27.067651,-41.259791,-47.413621,-51.714,-28.350941,-30.525056,-32.271988,-32.792939,-19.404227,-26.364752,-28.677089,-28.5114,-12.5999,-21.544669,-24.71843,-24.360401,-7.920978,-16.756838,-21.155067,-22.134317,19.826013,43.535253,60.403318,69.84161,64.033928,94.198105,112.338054,126.406483,64.943762,100.593303,122.19738,138.793442,62.707289,96.406975,116.942322,133.104469,57.234878,84.117536,98.907314,110.895607,-11.833531,-14.846439,-9.293746,-4.62962,-18.912228,-17.314844,-15.708237,-13.492203,-9.60888,-7.707338,-6.132205,-4.921638,0.825189,2.694877,4.453671,5.517214,12.151057,12.150736,12.611657,13.044935,47.328403,111.342902,-97.301651,11.120891
44,-4.139419,2.109012,-0.810299,18.276356,-13.56189,-32.881233,-47.026291,-57.411473,-57.063881,-80.674336,-95.615479,-109.962536,-51.864167,-70.287895,-77.818611,-86.703793,-42.012886,-55.603821,-61.49326,-67.769463,-29.263619,-40.742432,-45.817326,-51.381203,-21.905589,-35.096971,-42.605926,-47.503969,-27.128259,-31.962693,-33.604964,-33.503131,-22.725128,-33.090885,-34.691067,-33.244212,-19.488795,-30.996009,-33.265855,-31.493865,-17.24447,-27.7144,-31.494971,-31.35844,21.157225,46.111639,63.176943,72.676048,68.528103,98.928245,116.851867,130.310623,70.031908,105.981537,127.216358,143.457859,67.918585,101.05648,121.076374,136.760181,61.951126,87.568479,100.841514,110.85545,-13.420159,-16.462299,-10.823977,-6.17364,-19.547096,-17.664802,-15.660473,-13.121966,-10.530517,-8.361602,-6.31461,-4.764693,-0.300583,2.09562,4.312083,5.621035,10.837657,11.498325,12.218788,12.579633,42.685238,113.560648,-98.615696,29.505981
45,-2.42276,4.147883,-1.889053,17.024107,-13.694773,-32.740076,-46.230108,-55.673172,-57.524935,-76.109491,-87.007296,-97.621062,-53.014469,-64.904085,-65.496031,-67.383379,-44.06567,-52.110046,-51.10096,-50.931121,-32.572629,-41.266809,-42.44157,-44.094524,-18.237166,-30.586528,-38.830518,-44.3841,-26.675185,-33.257471,-34.715228,-33.866353,-25.767136,-38.631379,-39.629141,-37.06673,-25.287927,-38.894539,-40.54795,-37.497306,-24.911927,-36.811841,-40.092085,-38.938933,23.132074,49.379499,67.044107,76.673938,72.352924,103.932197,122.338714,135.912872,74.086126,110.667572,132.142879,148.624591,72.041994,105.216911,125.140308,140.461818,65.838924,90.8812,102.922851,111.016742,-14.733257,-17.821129,-11.776607,-7.116871,-19.893522,-18.192916,-15.889252,-12.940976,-10.711965,-9.008425,-6.966367,-5.117195,-0.609039,1.559528,3.813517,5.321434,10.266768,10.670937,11.11219,11.217487,39.762411,117.928143,-101.004816,46.7497
46,-0.750687,5.399234,-1.797169,12.883778,-14.055548,-32.959906,-45.834612,-54.842422,-59.095957,-73.999812,-82.035032,-89.946264,-54.885029,-62.270651,-57.719049,-54.477236,-46.449062,-50.582437,-44.325027,-39.550057,-35.576903,-42.395282,-40.602459,-39.270673,-15.482505,-27.021105,-35.821692,-41.288435,-26.441859,-33.959162,-35.016691,-33.536946,-28.108604,-42.205999,-42.579863,-39.238946,-29.520338,-44.064534,-45.019263,-41.058956,-30.360608,-42.656049,-45.316553,-43.421655,24.436334,51.488954,70.027765,80.067306,74.82066,107.743435,126.880726,140.885593,76.941129,114.214268,136.239738,153.186424,75.299166,108.970013,128.831177,143.854431,69.573269,94.982031,106.697536,114.528145,-15.93745,-19.226185,-13.289405,-9.207424,-21.715955,-20.580316,-18.355458,-15.538642,-12.325805,-11.886173,-9.93779,-7.913167,-1.906914,-1.18009,0.637422,1.867203,9.506121,9.057091,8.709174,8.009801,38.546659,123.576592,-103.26705,59.882693
47,0.636727,6.564541,4.345653,2.068337,-13.855443,-33.012921,-45.781918,-54.183404,-61.562096,-74.311289,-80.72374,-87.139859,-58.556397,-63.690548,-56.362599,-50.085011,-51.811547,-54.704127,-46.051255,-39.269435,-42.681342,-50.27516,-47.62278,-45.331485,-13.439156,-24.250329,-33.070693,-37.654204,-25.920393,-33.521085,-33.817227,-31.376385,-29.504072,-43.667724,-43.238315,-39.198547,-32.229313,-46.501324,-46.558289,-41.634169,-34.113889,-45.756944,-47.77622,-45.366589,24.200375,51.784321,71.29089,82.289898,72.944916,107.575722,126.984261,140.38488,74.512024,112.513642,134.699181,150.532311,72.80206,107.186737,126.919556,140.714081,67.459202,93.44077,105.36129,112.634858,-18.812436,-23.47069,-18.207505,-14.222059,-25.018291,-23.785759,-21.176514,-18.179173,-13.540865,-13.747069,-11.962951,-10.071209,-0.99659,-1.375651,-0.353466,0.231854,12.376536,10.834616,9.489809,7.849527,39.113022,130.292443,-98.991761,62.10234
48,2.989952,6.399584,3.129456,-4.599362,-11.202908,-30.261555,-43.883572,-52.987977,-63.53714,-79.138098,-87.596741,-95.3718,-63.170357,-74.591961,-74.506588,-74.120465,-59.07589,-69.729567,-68.741341,-68.158637,-51.984301,-65.603571,-67.810936,-69.663306,-13.711,-23.631991,-30.820032,-32.960826,-25.269828,-31.750626,-31.02617,-27.864997,-27.608532,-37.718047,-35.591347,-30.836751,-29.14638,-38.896971,-37.755916,-32.780685,-30.253179,-38.408818,-39.653953,-37.64231,23.405479,50.817158,71.013382,82.870354,68.290489,103.530556,123.121399,136.545776,69.842571,107.174423,129.907654,146.101227,68.630024,103.20076,123.443573,137.334366,64.343159,91.109928,103.796471,111.807175,-24.656082,-31.495563,-27.114372,-22.663303,-30.817729,-31.283951,-29.842437,-27.616693,-16.302072,-18.303156,-18.064583,-17.092743,-0.397852,-2.630414,-3.550192,-4.296656,16.486112,13.593081,10.484627,7.495931,42.134514,136.719491,-95.830765,57.530442
49,4.748771,7.557485,8.997642,-9.914591,-10.393535,-29.499081,-43.978672,-54.056534,-66.81958,-89.019601,-102.73122,-114.744873,-67.310188,-87.457695,-96.637848,-104.462917,-63.726402,-82.489156,-90.361519,-97.31579,-56.666925,-75.363905,-82.782314,-88.951681,-17.405811,-27.703085,-33.27011,-32.461698,-24.934696,-28.090599,-26.54687,-23.195209,-23.794185,-29.313316,-26.858635,-22.438312,-22.608833,-28.658561,-27.664095,-23.824294,-22.175268,-27.977889,-29.337683,-28.004109,23.68665,50.502022,71.56485,83.509598,63.179455,98.724198,115.156815,125.560502,63.566666,100.362236,119.327889,131.109467,62.257988,96.734436,113.324959,123.113274,58.987633,85.90646,96.886345,102.972725,-25.98926,-35.962051,-34.473149,-31.590047,-36.327743,-38.920247,-37.655549,-36.063871,-21.229051,-25.588463,-25.714885,-24.88486,-4.725907,-9.552678,-11.074541,-11.844797,12.98182,7.936002,4.242692,1.438747,46.993572,144.182683,-86.722836,47.521558
50,3.507614,6.802268,7.47337,-10.206059,-10.103319,-29.215524,-44.145887,-54.487324,-68.806669,-96.099148,-113.895658,-129.296716,-69.781826,-96.606451,-113.169542,-127.655462,-66.538948,-91.474814,-106.556099,-119.607974,-59.582425,-82.021176,-93.682537,-103.555987,-20.394868,-30.957166,-34.980053,-31.88778,-24.571355,-24.998477,-22.648549,-19.002288,-20.758104,-22.71471,-19.719357,-15.274281,-17.405666,-20.534222,-19.378032,-16.090687,-15.707053,-19.722582,-21.102679,-20.23172,20.856159,46.22216,66.887112,79.06723,56.93058,90.845959,105.211224,113.015705,58.111553,92.644169,108.33292,116.395809,57.932739,90.463863,103.581997,109.842007,56.43964,81.885693,91.692593,97.083469,-27.083521,-39.775416,-41.187617,-40.293687,-42.715958,-48.917626,-49.563758,-49.462926,-28.02916,-36.527604,-38.26949,-38.680254,-11.269289,-20.145639,-23.038751,-24.762674,7.022578,-0.594502,-5.828992,-9.810794,50.688263,150.75393,-79.062389,37.084478
51,1.58693,6.169008,8.689293,-9.528991,-9.615195,-28.641867,-44.2288,-54.501584,-69.446772,-100.423145,-121.192,-139.024458,-71.095356,-102.545798,-124.276663,-143.391444,-68.419224,-97.537832,-117.553288,-134.72257,-62.065307,-87.003219,-101.534512,-113.922052,-22.739321,-33.709509,-36.210429,-30.73582,-24.289054,-22.691645,-19.484597,-15.349405,-18.496399,-17.995787,-14.421502,-9.870882,-13.538299,-14.91503,-13.577781,-10.709549,-10.804802,-14.029712,-15.418034,-14.759485,17.405768,40.86117,60.268373,72.091839,49.711449,82.078091,94.527843,99.746784,51.776124,84.76391,97.161907,101.433861,52.77903,83.346491,92.794693,95.321188,52.828797,75.85417,83.005165,85.591621,-28.167809,-43.467179,-47.349958,-47.81315,-48.768307,-59.010997,-61.715703,-63.207399,-34.54055,-47.034845,-50.521787,-52.221086,-17.959084,-30.067403,-33.884301,-36.09883,0.071883,-9.839075,-15.859468,-20.227922,52.491898,156.668625,-70.156391,27.301174
52,0.22998,5.368083,4.876705,-5.295324,-8.888008,-27.65039,-44.032333,-54.408897,-69.063366,-102.412662,-124.853382,-144.208351,-71.328758,-105.224808,-129.639084,-151.267273,-69.056568,-100.147751,-122.628513,-141.86515,-63.133575,-88.862972,-104.758095,-118.353504,-23.949094,-35.249148,-36.77907,-29.490002,-23.675496,-21.110292,-17.442756,-12.913085,-16.452588,-14.969368,-11.204056,-6.813102,-10.491203,-11.21774,-9.91785,-7.568025,-7.146572,-10.421308,-11.918014,-11.484773,14.42357,35.347567,53.168956,64.178055,43.14669,73.72435,85.015457,89.071129,46.842605,78.471354,88.664452,91.194821,49.5672,78.532992,84.999676,85.104223,51.472861,72.565802,77.155575,77.679279,-30.344621,-48.078449,-54.242776,-56.051963,-55.456459,-70.400928,-75.964628,-79.626169,-41.841257,-58.523743,-64.061018,-66.978063,-25.471858,-40.763913,-45.368074,-47.76677,-7.461839,-19.354779,-25.863871,-30.295221,52.895553,161.778218,-65.106011,21.74736
53,-0.485229,4.742333,8.423138,-5.209399,-7.691964,-26.171723,-43.443741,-54.642952,-67.77356,-101.690529,-124.566903,-144.688877,-70.551682,-104.611027,-129.1806,-151.386521,-68.501782,-99.127499,-121.550869,-140.875821,-62.80988,-87.401047,-103.161793,-116.79823,-23.873715,-35.421709,-36.924603,-29.04895,-22.912317,-20.509819,-16.929085,-12.226828,-15.00451,-14.04276,-10.494828,-6.38393,-8.78486,-9.735705,-8.737288,-6.902646,-5.268187,-9.069604,-10.784487,-10.517355,10.928278,29.129791,45.40896,55.797237,35.671503,65.683239,76.201984,78.853695,40.267233,72.157768,80.454105,80.239712,44.217899,72.689689,76.158817,72.897514,47.525396,67.168075,69.261463,66.876148,-32.31609,-52.668306,-61.282606,-64.507598,-61.763216,-79.612713,-86.820517,-91.965114,-47.986356,-67.282254,-73.86445,-77.449762,-31.287825,-48.631913,-53.099025,-55.054453,-13.186689,-26.731182,-32.87273,-36.771956,52.560665,166.318352,-56.532532,16.335762
54,-1.099343,3.881989,5.222294,-0.504457,-7.107902,-25.751724,-43.796562,-54.902046,-66.461414,-100.422706,-123.364975,-143.650039,-69.85065,-104.318962,-128.750049,-150.903385,-68.553039,-99.279075,-121.762653,-141.109726,-63.697002,-88.421985,-104.288131,-118.024772,-24.069149,-35.572627,-36.199826,-27.860927,-22.986245,-20.730082,-17.42147,-12.898475,-14.475729,-13.972241,-10.779028,-7.306716,-8.013956,-9.29997,-8.453261,-7.007041,-4.419131,-8.660927,-10.660381,-10.859847,5.894537,20.501289,33.916883,43.925628,28.020544,57.042846,69.519882,73.769989,34.567594,66.959438,76.786193,77.612114,40.169334,68.339481,72.103614,68.952655,45.009069,63.556537,65.561142,63.286399,-33.506978,-55.423635,-66.2671,-71.270134,-66.23431,-87.293841,-97.605974,-105.112555,-53.501823,-75.062134,-83.8375,-89.201496,-37.193771,-55.755003,-60.570856,-62.941254,-19.450763,-33.494551,-39.087718,-42.744809,51.689329,170.141787,-51.082231,15.772751
55,-0.39933,3.239798,6.485876,7.57165,-6.334328,-25.151024,-44.132789,-55.439827,-65.628422,-99.388767,-122.192219,-142.544105,-69.883049,-104.464508,-128.294014,-150.03471,-69.372024,-99.901462,-121.814037,-140.737896,-65.208481,-89.832973,-105.403358,-118.826008,-24.258625,-35.72073,-35.82055,-27.153725,-23.225825,-21.394987,-18.657875,-14.593241,-14.124259,-14.140956,-11.629023,-9.091761,-7.493981,-9.193501,-8.717603,-7.967928,-3.881829,-8.43134,-10.625283,-11.239477,6.427408,18.806511,30.097389,39.083478,23.500145,49.775047,61.484499,65.802589,29.074133,59.612875,68.809644,69.199779,34.167904,60.351969,63.385299,59.714636,38.887355,55.445749,56.602157,53.532726,-33.614229,-57.133859,-70.123283,-76.358738,-70.724195,-93.515766,-105.461729,-114.79308,-59.368594,-82.151461,-92.514625,-99.426157,-44.125412,-63.47528,-69.191448,-72.514769,-27.156124,-41.936925,-47.093109,-50.539844,51.548796,173.384428,-44.337558,23.347244
56,1.212296,2.350628,4.302108,15.909785,-6.185509,-24.762223,-44.052887,-55.666214,-65.151741,-98.670159,-121.062939,-141.381478,-69.816593,-104.103493,-127.159653,-148.519799,-69.617443,-99.656983,-120.819592,-139.21883,-65.554058,-89.71233,-104.901112,-118.006176,-24.086662,-35.510198,-35.979983,-28.0882,-23.601909,-22.416079,-20.632937,-17.467228,-14.331629,-14.742429,-13.158272,-11.698949,-7.712479,-9.516739,-9.571215,-9.559186,-4.111009,-8.504934,-10.893983,-12.000242,10.173114,21.120203,30.433574,38.01618,21.890525,42.364254,51.763773,55.25504,25.414533,49.820138,57.045828,56.594777,28.786538,49.49088,51.382439,47.386792,32.293262,44.689728,45.197251,41.764675,-31.946084,-56.380094,-70.802085,-77.877196,-74.259809,-98.786071,-112.543618,-123.715911,-65.054979,-90.021168,-102.929818,-112.179417,-51.917386,-73.503643,-81.963091,-87.700441,-36.596632,-53.338244,-59.955678,-64.840597,53.028797,175.736822,-39.767745,39.258795
57,1.905029,0.919772,1.30148,23.235714,-6.620544,-24.941826,-43.888092,-55.28904,-64.54438,-97.377995,-119.295044,-139.542023,-69.307972,-103.159802,-125.864159,-147.411209,-69.208305,-98.873028,-119.830399,-138.290451,-65.198353,-89.241783,-104.422554,-117.674675,-24.279867,-35.756743,-36.419374,-29.461047,-24.729434,-24.021058,-22.93188,-20.552427,-15.728114,-16.216103,-15.114389,-14.145945,-9.144594,-10.869616,-11.076752,-11.178257,-5.392688,-9.612575,-12.007158,-13.281995,13.702935,24.09181,32.666665,39.808496,22.714207,38.464393,46.357183,49.237701,24.775454,44.393852,50.610506,50.302688,26.868942,44.140995,45.909817,42.469814,29.450154,39.900467,40.216976,36.838691,-29.863935,-54.712102,-69.863606,-77.222827,-75.295373,-100.869987,-114.711724,-125.10365,-67.364019,-93.129036,-104.224098,-111.722514,-55.602036,-77.259519,-83.93824,-88.286085,-41.551973,-57.851116,-63.216307,-66.982744,55.328917,176.654467,-38.071174,62.492382
58,0.497383,0.247792,-0.93861,24.932382,-6.547874,-24.099975,-43.186043,-54.757004,-61.738403,-91.86002,-110.216823,-127.749069,-67.500378,-99.707062,-120.539349,-140.074699,-67.932953,-95.57103,-112.827782,-127.75708,-64.307087,-87.09454,-100.055729,-110.896957,-25.344629,-37.757487,-39.117521,-32.821029,-26.613711,-28.886855,-30.019617,-29.442306,-18.10159,-20.353911,-21.126347,-21.454791,-11.746287,-16.811778,-19.664233,-21.338793,-8.068037,-14.417004,-18.592092,-21.212866,16.850201,27.536573,35.520601,41.859014,26.051759,38.071026,43.948648,45.522228,26.753002,41.802412,46.162645,45.307159,27.389608,41.421106,42.514583,39.285375,28.562988,37.702486,38.327659,35.556575,-27.506397,-51.741087,-66.953203,-74.740745,-71.731842,-96.155716,-109.04836,-117.906648,-64.374632,-89.137366,-98.893816,-104.955758,-53.524439,-74.053117,-80.188033,-84.020541,-40.412996,-55.376081,-60.590079,-64.311322,56.390556,176.754107,-38.445528,87.276612
59,0.181481,-0.528361,-3.1787,26.62905,-7.970147,-25.953026,-44.326241,-55.853199,-61.199055,-90.190911,-107.878396,-124.592011,-65.787919,-94.026558,-111.243462,-127.277401,-65.72279,-89.347893,-100.935746,-110.5803,-62.511395,-83.547764,-94.083664,-102.664639,-24.707476,-37.971051,-42.026293,-39.452493,-23.656805,-27.676695,-29.407782,-29.507638,-17.946102,-23.512285,-26.059785,-27.564242,-14.365801,-24.440276,-30.044774,-33.198226,-13.003476,-21.383538,-26.267674,-29.102821,19.61491,31.454493,38.995382,44.167734,31.903181,41.184151,44.538168,44.10862,31.347176,42.045817,43.702246,41.608189,30.348536,41.331213,41.196739,37.833475,29.631764,38.095786,39.529301,37.918328,-24.873471,-47.467051,-62.070875,-70.430949,-63.569215,-84.64326,-95.553523,-102.124903,-56.086819,-78.046158,-86.938973,-91.879152,-45.684595,-63.884435,-70.712469,-74.903809,-33.179701,-45.913139,-52.076994,-56.826333,57.194052,176.070382,-41.002213,113.750298
60,-1.430283,0.893331,-2.971647,17.513843,-8.445191,-25.632019,-43.177689,-55.271244,-59.135296,-85.909504,-101.079643,-115.767689,-63.046669,-87.105515,-100.10146,-112.636299,-62.414795,-81.839481,-87.782387,-92.599056,-59.106102,-77.179527,-84.161659,-89.262989,-23.057826,-36.709996,-42.158328,-41.48318,-22.089333,-28.94206,-31.774181,-32.497779,-18.604732,-28.989454,-33.071687,-34.603857,-17.087401,-32.608089,-40.104238,-43.269533,-17.379493,-28.423869,-34.351964,-37.117858,20.129036,34.194632,44.125008,50.658062,34.847763,46.333557,49.798908,48.902573,33.789585,44.921127,44.772194,41.494354,32.378454,43.682579,42.359047,38.396599,31.247801,41.699135,43.2701,42.000927,-23.060599,-43.091253,-55.03854,-60.862531,-56.117428,-71.666185,-78.532519,-81.679681,-47.353927,-63.5282,-68.72225,-71.27666,-35.903239,-49.233403,-53.627834,-56.285148,-22.809735,-32.016912,-36.976795,-41.148709,56.427195,176.778759,-43.310434,131.079187
61,-2.781853,0.75233,-2.578903,9.417259,-6.984695,-23.154281,-40.54573,-53.476764,-53.606975,-77.568592,-89.709606,-101.752075,-58.594974,-80.605568,-92.343086,-103.770412,-58.898849,-76.554153,-80.232708,-82.918705,-56.536548,-73.51664,-79.417316,-83.459335,-23.21592,-37.104619,-43.149793,-43.528304,-21.666059,-31.192159,-35.738947,-37.850063,-18.414109,-30.728975,-35.889865,-38.026126,-17.30091,-35.002005,-44.256656,-48.434362,-17.960947,-30.429337,-37.43825,-40.903319,18.152984,33.786466,45.177818,53.172626,37.289921,51.154667,55.204937,54.110859,36.678852,49.809288,49.627075,46.117641,35.706407,49.176155,47.429569,42.980644,34.663919,48.877006,52.025322,52.030174,-22.798036,-40.71958,-50.800709,-55.316121,-46.922242,-58.616452,-62.490021,-62.202305,-36.185217,-47.766988,-49.961073,-49.399372,-22.97345,-31.821083,-33.398294,-33.416458,-8.77554,-13.350282,-15.766369,-17.932326,54.338293,177.342849,-45.196386,140.308206
62,-2.560982,1.217323,-1.108143,1.917461,-7.660526,-23.724254,-40.597297,-53.567562,-51.679144,-74.257083,-84.563564,-94.810003,-56.471288,-77.768142,-88.230079,-98.238756,-56.317337,-71.726749,-71.324529,-70.445154,-53.387266,-68.520578,-71.917705,-73.710193,-22.389323,-36.63024,-44.004032,-46.525188,-19.811484,-31.569658,-37.575246,-41.004586,-17.265144,-31.363244,-38.053994,-41.419855,-17.542644,-39.0014,-50.799366,-56.460508,-19.854116,-34.858389,-43.412646,-47.854847,16.633198,33.50112,45.210766,53.379501,39.171066,54.10128,58.292702,57.142845,38.343109,52.062549,51.056911,46.813705,37.004419,50.993351,48.525169,43.369091,35.174818,50.533733,54.862049,55.984898,-22.316006,-37.872602,-46.644103,-51.187618,-37.95444,-46.388598,-49.203728,-48.184201,-26.527705,-35.176455,-38.907193,-39.618403,-12.95581,-19.627952,-23.586147,-25.475256,1.420547,-0.910679,-4.240703,-7.680362,52.362613,178.373849,-45.719227,142.039344
63,-0.881469,0.748267,-0.079685,-0.271973,-11.794041,-29.001171,-43.897499,-54.661251,-55.30263,-80.00441,-92.626133,-104.377665,-57.462771,-80.552067,-91.706829,-102.572005,-54.831116,-69.512913,-67.307436,-65.53398,-49.469885,-63.717528,-65.766278,-67.002228,-20.222118,-34.144113,-42.503621,-48.026445,-16.338666,-27.142227,-32.412109,-35.834379,-14.992124,-28.693021,-35.507296,-39.480009,-17.336163,-40.753278,-52.963298,-58.597788,-22.182008,-38.87605,-47.465999,-51.734545,15.987121,33.432049,45.545116,53.985523,39.317676,54.759807,59.587246,58.955051,38.357025,52.029339,50.658245,45.979419,36.933677,50.872181,48.113857,42.471439,34.937782,50.555935,55.024784,55.95425,-21.624272,-35.466714,-43.341867,-47.844503,-32.414267,-39.07542,-41.462864,-40.040005,-20.878938,-28.27347,-33.042775,-34.71095,-7.512728,-13.222696,-18.548169,-21.559014,6.532916,5.171714,1.107765,-3.193929,51.91127,179.061017,-45.368786,141.706272
64,-0.71917,1.091389,0.689815,-2.691052,-10.102055,-26.486927,-42.100754,-53.59069,-54.12921,-79.63195,-92.279171,-103.898992,-57.961573,-84.695949,-98.979115,-112.196417,-55.747444,-71.743961,-70.01156,-68.656442,-49.885054,-63.957338,-65.157795,-65.323448,-21.938236,-36.114074,-43.468385,-47.727246,-19.899873,-30.652676,-36.329469,-39.889417,-15.804895,-27.509278,-33.9768,-37.976448,-15.66122,-38.264983,-50.562763,-56.043859,-18.466498,-36.218102,-46.05289,-51.111959,16.28167,34.000283,46.542984,55.051644,38.498406,53.173279,59.096031,59.750244,37.230091,50.205414,49.356537,45.296906,35.655808,49.030678,46.670746,41.327751,33.699555,49.031914,53.452927,54.165962,-20.671062,-33.408579,-40.761991,-45.026085,-30.314537,-37.073021,-39.52082,-37.750732,-19.178493,-27.163296,-32.126745,-33.981585,-6.517163,-12.866335,-18.367481,-21.494281,6.76698,5.167546,1.151089,-3.049865,51.58354,180.088152,-44.287531,138.950966
65,0.040764,-0.983968,1.356491,-2.504702,-9.147137,-25.795727,-42.146736,-53.675171,-53.734457,-80.259716,-93.668942,-105.960222,-58.938784,-88.551029,-105.816879,-121.381457,-57.482231,-75.589428,-75.478197,-75.282343,-51.803782,-67.457319,-69.991653,-71.171207,-24.048482,-39.253737,-47.326878,-52.204886,-21.282564,-31.53346,-37.600694,-41.667459,-15.529698,-24.450403,-30.894003,-36.014576,-14.015584,-35.003709,-48.185854,-55.146675,-15.862422,-33.523543,-44.008679,-50.060806,16.035851,32.611542,42.860138,49.358094,39.249688,51.206887,56.937607,58.007813,37.833149,48.644303,47.870659,44.227341,35.728867,48.010804,46.031914,41.097771,32.984207,47.522072,53.307701,55.447243,-20.395117,-33.232972,-42.280735,-49.540904,-26.756688,-35.306039,-39.455895,-38.289059,-16.37432,-26.782457,-33.986179,-36.701808,-4.901303,-12.978306,-20.435163,-24.518625,7.143819,5.659086,1.468709,-2.60898,51.996923,179.046117,-42.558421,136.388197
66,0.337738,-1.777832,1.94949,-2.858908,-9.501217,-27.012783,-43.690636,-55.503204,-56.130919,-84.514732,-100.193905,-114.135332,-60.899992,-91.80661,-109.709839,-125.413256,-58.943493,-77.550877,-76.670683,-75.472235,-52.610865,-68.447462,-70.302246,-70.264378,-24.526393,-40.547432,-49.574246,-55.704608,-21.621536,-31.029656,-36.288188,-39.485514,-15.507566,-24.15678,-30.477101,-35.628364,-13.702472,-34.980948,-48.038986,-54.732904,-15.415385,-33.620984,-44.203687,-50.151357,15.03899,30.372517,39.222095,44.072422,38.77375,50.947071,57.364094,59.157543,37.424641,48.524654,47.518764,43.758556,34.990757,47.506908,45.797481,41.135044,31.757721,45.760906,51.373638,53.615948,-19.82082,-32.758483,-42.918482,-51.777134,-24.489948,-32.631338,-37.082876,-36.552644,-14.801352,-25.173037,-32.868744,-36.378008,-4.330359,-12.273981,-20.519174,-25.421416,6.712708,5.14731,0.717126,-3.531766,52.661156,177.213188,-40.282436,133.474192
67,-0.553253,-2.124967,1.982792,-2.965341,-7.084923,-24.371041,-42.073425,-55.230904,-54.808972,-83.398934,-99.924465,-114.416107,-60.751911,-91.407395,-109.393238,-124.780152,-59.918461,-79.610127,-79.851769,-79.06715,-54.649235,-71.446449,-74.12994,-74.251064,-25.584048,-42.168029,-51.750835,-58.055163,-22.562848,-31.682352,-36.648697,-39.236515,-15.396008,-24.229182,-30.267274,-35.073382,-12.191582,-31.934881,-44.118546,-50.64851,-12.398174,-29.457398,-39.578995,-45.433416,14.262131,28.383739,36.074524,39.766067,37.434894,49.900703,56.782905,59.213791,36.080704,47.080765,45.895798,41.866058,33.495506,45.671242,44.115944,39.62709,30.123573,43.812057,49.187347,51.120781,-19.419443,-32.709873,-43.443638,-52.625616,-23.614346,-30.868482,-34.828727,-34.46695,-13.853681,-23.318426,-31.126234,-35.219663,-3.583469,-10.586701,-18.748611,-23.970362,6.942172,5.537221,1.037598,-3.388165,52.363283,175.039151,-38.044264,130.459781
68,-1.633255,-2.045693,1.598053,-2.359842,-3.104874,-19.751129,-38.851799,-53.351441,-49.922814,-75.998257,-90.461701,-103.652538,-58.034512,-86.229698,-103.681767,-118.49215,-59.443943,-80.076725,-82.568047,-82.930676,-56.679234,-75.033383,-79.82087,-81.172451,-27.693318,-45.251764,-54.989168,-60.088375,-25.025713,-34.738219,-39.594617,-41.420367,-16.177583,-25.728988,-31.189731,-35.231277,-10.449627,-27.80852,-38.707523,-44.74554,-7.754888,-22.552386,-31.755044,-37.164578,13.322559,26.756012,33.558677,36.40329,36.574905,48.911751,56.19239,59.304245,35.106468,45.903122,44.752029,40.790085,32.196007,44.160438,42.964645,38.913963,28.441932,42.033577,47.8992,50.538963,-18.92655,-32.528659,-43.552627,-52.610307,-22.706021,-29.38494,-33.021835,-32.887127,-12.944047,-21.803941,-29.663663,-34.180866,-2.818925,-9.345986,-17.311388,-22.678283,7.35574,6.1563,2.045643,-2.16739,50.960198,172.967198,-36.216041,128.073679
69,-1.796585,-2.33361,1.789215,-1.320026,-2.999405,-19.554474,-38.171585,-51.9982,-47.191017,-70.498169,-82.216038,-93.238632,-54.816456,-80.933979,-97.277001,-111.641465,-56.157017,-76.904022,-80.298832,-81.467778,-53.61462,-72.453163,-78.378845,-80.982994,-27.295429,-45.527467,-56.193646,-62.111547,-25.290714,-35.823877,-41.326568,-43.600879,-16.383594,-26.215359,-31.522399,-34.943613,-10.10643,-25.769644,-35.856537,-41.482642,-6.653224,-19.62333,-27.992684,-32.85041,12.264965,25.06715,31.25782,33.785225,35.21093,47.545692,55.187736,58.881821,33.65744,44.078316,42.771149,38.577827,30.42905,42.182487,41.338577,37.559143,26.3199,39.648834,46.187714,49.692192,-18.593173,-32.435979,-43.57185,-52.458939,-22.176271,-28.346131,-31.631371,-31.632322,-12.43867,-20.539348,-28.477586,-33.402947,-2.336271,-8.098671,-15.824062,-21.319484,7.580863,6.8375,3.224236,-0.723381,49.341179,170.626376,-34.24926,126.746441
70,-1.638565,-1.93564,1.54842,-0.669337,-1.879326,-17.223816,-35.086556,-48.874283,-43.244591,-64.495022,-74.563717,-83.778946,-50.867546,-75.184159,-90.557156,-104.057648,-52.663044,-72.743031,-76.971154,-78.901509,-50.883339,-69.527298,-76.195221,-80.014607,-26.632292,-43.977785,-54.183671,-59.627322,-25.661675,-36.574473,-42.201356,-44.857284,-17.011337,-26.734415,-31.904271,-35.101676,-10.590912,-24.985958,-34.48474,-40.030298,-6.646654,-18.763913,-26.769922,-31.607733,11.44907,23.763508,29.325657,31.440571,33.704784,45.870151,54.217907,59.027561,31.987072,42.720577,42.154552,38.39938,28.549141,40.588177,40.865925,37.900394,24.208465,37.154033,43.229015,46.148746,-18.028509,-32.05333,-43.326634,-52.050948,-22.347746,-27.922197,-30.643778,-30.473576,-12.447259,-19.716036,-27.30221,-32.253889,-2.307941,-7.225188,-14.370031,-19.710053,7.521669,6.756773,2.876389,-1.387365,47.844235,168.705195,-32.559219,126.091563
71,0.031814,-0.185418,1.426803,-0.806634,-2.239082,-17.034313,-34.309204,-47.248501,-43.125578,-63.484823,-72.348999,-80.679296,-50.420265,-73.969396,-88.360313,-101.35001,-51.838154,-70.327789,-72.964845,-74.17416,-49.875549,-67.867424,-73.797043,-77.538471,-26.372163,-43.370699,-53.589737,-59.108131,-25.143619,-36.28131,-42.020921,-45.04541,-17.015493,-26.994511,-32.638647,-36.088139,-11.270648,-27.565353,-38.307847,-44.49325,-8.100098,-21.357717,-30.100961,-35.411821,11.211548,23.614312,28.941731,30.694371,32.233578,43.894902,53.01772,59.215657,30.056958,40.86636,41.135319,38.179127,26.261971,38.36839,39.843029,38.014264,21.663964,33.92323,39.814213,42.7916,-17.536561,-31.345349,-42.605505,-51.181532,-22.815635,-27.535478,-29.201442,-28.179059,-12.584999,-18.665908,-25.210007,-29.659266,-2.267956,-5.661642,-11.459184,-16.270702,7.440283,7.546586,4.271641,0.309185,47.990015,168.552607,-31.01845,125.317759
72,1.672875,1.221435,1.544827,-0.670078,-4.168236,-19.31979,-36.195465,-47.849522,-46.442064,-67.844542,-77.155152,-86.022944,-52.794777,-77.230608,-91.492424,-104.822228,-53.144383,-69.644703,-68.652827,-67.595295,-50.181164,-67.258713,-71.015854,-73.036938,-26.858866,-43.95327,-54.30908,-60.507024,-24.463352,-35.09275,-40.282387,-43.123718,-16.773851,-26.510214,-32.658073,-36.455979,-12.180009,-32.373586,-45.314981,-51.973157,-10.670422,-26.746434,-36.983668,-42.780003,10.726055,23.258675,28.511055,29.663086,30.799873,42.230118,51.767372,58.871475,28.579193,39.24987,40.50769,38.722343,24.658836,36.32341,38.165131,36.919441,20.011951,31.566376,37.102249,40.17318,-16.951606,-30.571481,-41.698917,-50.040848,-23.054899,-26.962286,-27.881589,-26.033381,-12.640612,-17.94709,-23.183352,-26.498553,-2.19779,-4.876554,-9.388619,-13.257128,7.484292,7.962561,5.522858,2.391692,49.753172,169.814136,-29.383341,124.687775
73,2.440475,1.327473,1.973408,-0.561565,-3.140991,-18.288128,-35.734085,-48.537929,-48.138239,-72.908861,-85.621204,-96.753805,-54.922817,-81.791067,-97.343319,-111.525009,-55.45293,-71.985077,-69.727712,-67.634468,-52.43494,-68.954498,-71.591354,-72.566459,-26.774972,-43.247055,-52.920652,-58.942911,-24.095442,-33.082094,-37.754454,-40.230575,-16.448278,-25.143727,-31.26599,-35.06305,-12.334718,-33.469458,-47.524293,-54.87329,-11.304746,-28.233063,-39.236891,-45.511952,10.346534,22.662986,27.878185,28.803829,28.699161,39.698467,49.564876,57.319713,26.521763,36.963054,39.248348,38.721782,22.784557,33.982509,35.85181,34.920673,18.496788,29.445636,34.127712,36.602771,-16.586315,-30.125296,-40.90669,-48.586638,-23.516285,-26.726362,-26.719749,-23.909969,-12.858893,-17.40465,-21.014313,-22.903839,-2.356389,-4.267824,-7.517384,-10.408087,7.10496,7.737901,5.996268,3.589959,52.27117,171.191593,-27.33241,124.176194
74,2.261261,1.859775,0.845592,1.255843,-1.912056,-16.42519,-34.218292,-48.573727,-49.599901,-77.615175,-93.701134,-107.669809,-57.694725,-86.336466,-102.369244,-116.780044,-59.232468,-76.708832,-74.473623,-72.27531,-56.923199,-73.958942,-76.745579,-77.619449,-26.399672,-41.864223,-50.775555,-56.107363,-23.095624,-31.094374,-34.992594,-36.62726,-15.84289,-24.806817,-31.082277,-35.059958,-12.454861,-34.735416,-49.547515,-57.571709,-12.230484,-29.770266,-41.017884,-47.686512,11.35175,22.934681,27.699486,28.214813,26.736077,36.700951,46.100647,53.535233,24.27602,34.546463,38.939575,40.225594,20.788307,32.143753,35.261902,35.212532,17.034508,27.487953,31.751953,33.497338,-16.699559,-30.448541,-40.792927,-47.616767,-25.247897,-28.555965,-28.0995,-25.130472,-14.418542,-18.358477,-20.792117,-21.589339,-3.474837,-4.654906,-7.081815,-9.345431,6.555838,7.461247,5.977156,3.796144,54.594229,173.088045,-26.42502,125.468714
75,2.137505,1.530879,-0.121914,0.434495,-2.4161,-17.748745,-36.225678,-51.248486,-52.936632,-84.469077,-104.043537,-120.990755,-61.192715,-92.975161,-110.941155,-126.818459,-62.840882,-82.734078,-82.213103,-81.26706,-60.341229,-78.620018,-82.091206,-83.123921,-26.810411,-42.548319,-51.64613,-57.460636,-22.627852,-29.242078,-32.287864,-32.950239,-14.752822,-23.278637,-29.121176,-32.795113,-11.081877,-32.662133,-46.761386,-54.401369,-10.814535,-27.949382,-38.817032,-45.242647,10.960934,22.321953,27.780522,29.055966,25.612873,36.116627,45.771733,53.393246,23.804272,34.683506,40.456936,43.192578,20.940171,32.437214,35.018132,34.505093,17.848343,28.345631,31.968029,32.986462,-16.752214,-30.613378,-40.404894,-46.893084,-25.797754,-28.749084,-28.185698,-25.202449,-14.874656,-18.668484,-20.063543,-19.850566,-3.690532,-5.016289,-6.480762,-7.842543,6.55199,7.175428,6.054862,4.442979,56.768395,174.645837,-26.510273,125.930122
76,0.631462,0.550437,-0.547428,0.70974,-1.505791,-17.06543,-36.195717,-52.422135,-53.053173,-86.734852,-108.55632,-127.249878,-62.03207,-95.67659,-115.161072,-132.008,-64.343159,-86.330097,-87.763756,-88.003773,-62.322739,-81.764397,-86.436791,-88.205212,-26.755416,-42.410128,-51.266044,-56.619089,-22.649878,-28.302017,-30.869377,-30.867549,-14.302692,-22.300013,-27.657787,-31.037795,-9.987401,-29.627786,-42.779024,-50.247558,-8.895851,-24.527122,-34.610137,-40.838456,10.895554,22.130253,27.972382,30.121674,25.332482,35.914444,45.593903,52.917435,23.937824,34.920571,42.156738,46.170067,21.50552,33.178162,36.05349,35.55629,18.860768,29.570892,33.215904,33.908592,-16.50255,-30.530867,-39.870901,-45.599635,-26.017369,-29.484043,-29.161014,-26.217983,-15.153347,-19.520293,-20.923935,-20.434705,-3.907739,-6.207645,-7.767386,-8.8856,6.520436,6.290663,4.855645,3.140145,57.414929,175.202196,-27.042629,126.645784
77,-0.639816,-0.278951,-0.706272,0.806609,0.641143,-14.451165,-33.979134,-51.692254,-50.31466,-84.661446,-107.427922,-126.744633,-60.303944,-94.303036,-114.760518,-132.149163,-63.736371,-87.724091,-91.991044,-93.839699,-62.780663,-83.144738,-89.75124,-92.949486,-25.974397,-41.036502,-49.310848,-53.79084,-22.943996,-28.099982,-30.66297,-30.424873,-14.381252,-21.92094,-26.623703,-29.574792,-9.241505,-25.393894,-36.82844,-43.930806,-6.747493,-19.803901,-28.679634,-34.56764,11.465801,22.629936,28.408253,30.864819,25.403126,35.925991,45.786587,53.025364,23.634727,34.780094,42.795856,47.227352,20.872993,32.918873,36.703114,36.794849,18.041519,28.89576,33.026836,33.984386,-16.434619,-30.468839,-39.912762,-45.740642,-26.011317,-29.924003,-29.693112,-26.628809,-15.12401,-19.744873,-21.230459,-20.674254,-3.790889,-6.435122,-8.161435,-9.364252,6.765505,6.285507,4.691111,2.848658,56.779873,174.902494,-27.744141,127.431642
78,-0.958695,0.00095,1.40482,3.562258,0.85952,-13.556648,-32.844292,-50.634499,-49.119415,-82.860763,-105.433594,-124.779831,-59.430324,-92.813862,-112.868191,-130.238125,-63.249184,-87.474014,-92.291771,-94.758957,-62.677792,-83.339664,-90.626472,-94.481403,-25.227735,-39.751129,-48.289038,-53.540917,-22.075055,-27.875321,-30.874477,-31.049922,-14.048527,-22.135102,-26.94804,-30.013688,-9.181113,-24.538267,-35.498514,-42.615336,-6.819666,-19.05609,-27.545413,-33.451933,7.803691,15.057998,17.468215,16.960922,20.968654,30.841209,39.848327,46.368392,21.410854,32.711517,41.278541,45.98957,20.481262,32.804603,37.434951,38.000267,19.124095,30.274715,35.102096,36.403335,-14.408076,-27.141017,-34.827881,-39.502344,-27.262801,-33.072965,-34.124883,-31.998212,-17.440256,-23.543734,-25.726661,-25.437101,-6.193968,-9.964584,-11.846372,-13.038902,4.838929,4.211291,2.665148,0.808584,55.810261,174.860991,-26.350238,130.951447
79,-0.857506,0.394129,0.563312,0.866973,0.92498,-13.402473,-32.518432,-49.925377,-48.427986,-81.589725,-103.805477,-122.912933,-58.838241,-91.409099,-110.679805,-127.480488,-62.818519,-86.853172,-92.166858,-95.267303,-62.314464,-82.832599,-90.380024,-94.620151,-25.001112,-39.624258,-48.646351,-55.060249,-21.724005,-28.058041,-31.576716,-32.228059,-13.985407,-23.017503,-28.332979,-31.722737,-9.246025,-24.369356,-34.788855,-41.732892,-6.946465,-18.984423,-27.14437,-32.841661,5.379335,11.205975,12.556183,11.345856,18.698759,28.488184,37.599266,44.350857,20.654915,31.878021,40.445881,45.344811,20.933109,33.158718,37.772324,38.490028,20.70266,32.027287,36.77972,38.196888,-13.333866,-25.443226,-32.437171,-36.734064,-27.038681,-33.43344,-35.444397,-34.08582,-17.566958,-24.252002,-27.047734,-27.346797,-6.403392,-10.426079,-12.587214,-14.134806,4.627501,3.88276,2.288068,0.322355,54.924705,175.206355,-25.814976,131.769655
80,-0.74279,0.657543,-0.167095,1.06788,1.742752,-12.06926,-31.120354,-48.498871,-47.611175,-80.124115,-101.670307,-119.966881,-58.237129,-89.25515,-107.061287,-122.424351,-62.077755,-84.210033,-86.216812,-86.520218,-61.541897,-81.244869,-87.407581,-90.359665,-24.822011,-39.280166,-48.33419,-55.500628,-21.589612,-28.479611,-32.518261,-33.399859,-14.162828,-24.299541,-30.421267,-34.245198,-9.599695,-26.443898,-37.961109,-45.523818,-7.470219,-20.059967,-28.549266,-34.409948,6.74996,12.616058,13.867435,12.852505,17.502863,25.668245,34.087017,40.211563,19.214836,29.077549,38.746422,44.60709,19.793095,32.020706,38.510021,40.863888,20.459976,31.471023,36.72702,38.777366,-13.883123,-26.409756,-33.847241,-37.987029,-28.011182,-35.230709,-37.890615,-37.476788,-18.218394,-24.428688,-27.984864,-29.155781,-6.496072,-9.253234,-12.243294,-14.863503,5.18375,5.012429,3.245003,0.775925,54.150444,175.768114,-26.013542,132.741751
81,-0.713585,-0.464351,-0.540631,1.294338,2.085228,-11.033684,-29.284447,-46.123558,-47.723099,-79.411995,-100.608673,-118.98975,-57.857368,-88.105144,-105.719856,-121.321209,-61.487526,-83.986656,-88.316036,-91.187507,-60.796383,-80.498772,-87.560016,-91.889133,-23.828076,-37.423775,-46.17773,-53.878945,-20.353887,-27.192819,-31.410594,-32.579838,-13.228754,-23.283203,-29.12431,-32.905448,-8.767706,-24.20069,-34.505185,-41.533568,-6.6943,-18.444317,-26.366808,-31.927013,6.834052,13.567029,16.619866,17.336518,16.094508,23.73131,31.094262,36.673451,18.129181,27.427254,36.770726,42.752862,19.203999,31.349957,38.165314,41.091614,20.454678,31.590352,36.884182,39.187192,-15.025937,-28.049204,-34.916208,-38.412723,-29.769802,-38.935499,-43.741614,-45.731083,-19.133695,-27.080584,-32.369143,-35.13608,-6.312562,-10.516709,-15.130021,-19.011371,6.312473,5.486055,3.017607,0.019828,53.365288,175.035797,-26.625744,133.768123
82,-0.475914,0.092749,-1.129772,1.428942,2.970841,-9.47271,-27.160332,-43.788368,-46.240745,-77.232033,-98.607433,-117.424312,-56.770134,-86.485267,-103.53384,-118.606155,-60.978481,-83.849224,-90.767887,-96.188782,-60.815941,-81.372516,-90.122108,-96.366726,-22.864646,-35.864979,-44.503695,-52.661665,-18.133848,-25.731989,-30.651299,-32.395834,-11.69086,-22.922234,-29.719757,-34.242172,-7.809846,-23.169137,-33.405349,-40.889066,-6.32612,-17.143013,-24.418175,-29.708852,6.626787,14.19207,19.701428,22.940449,13.39036,21.170031,28.34467,34.197258,15.844139,25.495377,35.450661,42.259701,18.032936,31.345837,38.540921,41.58688,20.789395,32.552536,37.446385,39.211075,-16.690599,-30.879343,-36.875525,-38.388684,-33.117669,-44.881015,-52.066706,-56.786648,-21.408445,-31.625872,-38.781683,-43.374944,-7.27895,-13.365207,-20.174363,-25.661903,6.520251,4.315576,0.501568,-3.286629,52.811416,174.567195,-27.833474,134.635714
83,1.693222,0.815241,-4.182232,-1.320347,1.909264,-11.303993,-28.745613,-44.460686,-46.290436,-77.853504,-99.433502,-118.609245,-55.832931,-86.487602,-104.42815,-120.378948,-59.859466,-84.679527,-95.873234,-105.120861,-59.767147,-81.829262,-92.727825,-101.35112,-23.046254,-35.420937,-43.04171,-50.160162,-16.911634,-23.898249,-28.846791,-30.771218,-9.524556,-20.218789,-26.864257,-31.394712,-4.957125,-18.221583,-26.873235,-33.432333,-3.130684,-12.406497,-18.581044,-23.1083,10.987387,23.564118,35.189667,42.866204,14.523623,24.225855,32.897461,40.240597,14.996075,25.866486,37.185757,45.51487,16.748589,30.940957,39.748124,44.456978,19.856873,31.308518,36.541329,39.064923,-20.430655,-36.576505,-43.137387,-44.706413,-36.434494,-49.034317,-57.166723,-63.366618,-23.445029,-35.265701,-44.140285,-50.625153,-8.421346,-16.717625,-25.830454,-33.079888,5.936227,0.876429,-4.862049,-9.738324,54.300018,174.662417,-32.220326,132.595348
84,2.956169,2.267266,-9.195419,5.41757,0.368912,-13.869026,-31.587982,-47.053253,-46.785461,-78.810493,-100.940574,-120.814705,-55.204994,-87.340107,-107.212749,-125.018245,-58.935596,-85.635086,-100.629478,-113.253936,-58.883777,-82.26083,-95.012764,-105.63945,-22.951208,-34.462646,-40.819826,-46.619413,-15.190799,-21.244106,-26.056229,-28.364496,-6.699352,-15.703834,-21.861215,-26.563626,-1.273059,-11.931366,-19.267734,-25.36799,1.162933,-6.261776,-11.438363,-15.562277,15.905228,32.564518,48.056934,58.981053,19.535706,33.307697,44.095196,53.079861,18.427311,33.514389,46.99078,57.135029,19.780792,37.1754,48.475147,55.298985,23.4123,36.911339,43.921761,48.159657,-23.901991,-42.598676,-50.954841,-54.10313,-42.947374,-57.628269,-66.778464,-73.916521,-30.367611,-45.464056,-55.283791,-62.456028,-16.108521,-28.350886,-39.059556,-47.40899,-2.121651,-11.002305,-18.374014,-24.492875,56.834055,175.89591,-41.837877,136.979145
85,3.299744,3.999314,-8.378322,5.414591,-2.195572,-18.149002,-36.553757,-52.034454,-48.155708,-80.489399,-103.409168,-124.304855,-55.305553,-88.851711,-110.761093,-130.4202,-58.656258,-87.87244,-107.886818,-124.776501,-58.573048,-83.328506,-98.421215,-111.563747,-22.814282,-33.707623,-38.605332,-43.217989,-13.032535,-17.772904,-21.994916,-24.275754,-3.160472,-10.157312,-15.540232,-20.230274,3.494086,-3.797959,-9.4138,-14.950861,6.946033,1.833432,-2.360261,-6.250685,16.979026,34.991889,52.636962,65.658943,21.47557,39.938369,53.083213,64.348434,20.065864,40.371803,55.538429,67.550376,21.67995,42.390094,56.090858,65.383804,25.780529,41.511634,50.783969,57.406219,-26.270367,-46.059002,-54.756233,-58.411765,-50.737096,-66.498778,-75.920575,-83.182757,-38.513213,-55.760109,-65.741971,-73.118447,-24.069218,-39.691318,-50.628391,-58.945671,-9.211642,-20.569272,-28.621779,-35.186657,59.577404,178.708085,-50.772594,141.206597
86,3.254356,8.352225,-8.639351,5.24106,-4.943733,-23.147781,-43.232528,-59.484626,-48.541076,-81.746212,-105.691646,-127.156059,-54.648468,-89.507961,-112.547229,-132.522869,-57.729366,-88.462658,-109.622154,-126.820896,-57.941242,-83.788673,-99.747425,-113.539249,-23.809205,-34.816784,-38.496929,-41.68577,-11.93013,-15.599018,-19.274329,-21.165522,-0.385816,-6.434862,-11.68198,-16.253993,7.456313,1.085684,-4.06062,-9.323954,11.707187,7.78711,3.98347,0.385644,19.208793,37.832645,55.778091,68.80521,23.661655,47.866172,64.324127,77.937149,21.285816,47.896568,66.219909,80.735366,23.005886,48.899505,65.835296,77.782058,27.983928,46.95338,58.37424,67.028984,-28.232677,-49.050952,-58.681151,-63.416957,-57.540701,-71.385977,-78.451262,-83.676927,-45.503415,-60.939771,-69.029217,-74.899365,-30.871908,-45.669839,-55.268718,-62.535791,-15.2643,-27.064347,-34.984924,-41.328476,62.143404,185.893962,-60.100301,145.281309
87,3.313889,10.29661,-8.985192,5.814098,-9.229683,-30.168022,-51.899712,-68.782311,-50.843559,-84.483902,-108.608368,-129.942146,-55.01017,-90.835373,-115.281166,-136.003132,-57.032158,-89.424557,-112.112011,-130.054916,-56.798859,-82.868729,-99.304607,-113.627747,-24.845254,-35.530088,-37.33672,-38.521988,-11.829947,-12.777754,-14.923284,-15.927901,2.100675,-0.969074,-4.385502,-7.903238,11.97359,8.711291,5.587017,1.60183,17.907656,15.712256,12.777901,9.717823,21.924637,42.082787,60.941391,74.667012,28.540833,58.35838,77.392777,92.174011,25.033837,58.074028,79.212685,95.459107,26.250172,57.169968,77.447663,91.989235,31.266461,53.969353,68.032975,78.969429,-29.272147,-50.560595,-60.627308,-66.098493,-61.698554,-71.905416,-75.740122,-78.428859,-49.750986,-61.869887,-67.358899,-71.190278,-34.879307,-48.024907,-55.420279,-61.083878,-18.601231,-30.365006,-37.411129,-43.295733,64.702057,194.984169,-69.840729,149.889004
88,0.917633,11.853016,-8.639053,6.831497,-12.083496,-34.74662,-57.898041,-76.191525,-52.34507,-85.248196,-109.308575,-130.45253,-55.374893,-90.870129,-115.703991,-136.267136,-56.631798,-89.195698,-112.182163,-129.97538,-55.899834,-81.50362,-98.187229,-112.764702,-25.125749,-35.283271,-35.327349,-34.929182,-10.652823,-9.168602,-9.685614,-9.545082,4.455292,4.077133,1.958451,-0.698199,15.559721,14.666007,12.717732,9.299909,22.713864,22.207857,19.992845,17.261402,23.995171,46.188892,65.883648,81.430767,35.235168,69.610062,90.466598,105.990051,30.187866,69.027683,92.487213,109.739136,29.837185,66.224968,88.980514,104.924309,33.85223,61.205578,77.471168,89.879562,-29.59733,-51.360485,-61.548494,-66.685894,-62.731379,-68.965873,-69.537268,-69.873123,-49.924992,-57.427043,-59.485011,-60.783357,-34.195291,-43.605436,-48.180765,-52.136891,-16.845808,-26.221059,-31.432991,-36.340346,64.849199,205.531337,-79.250273,155.414653
89,-0.541946,12.360173,-2.100861,2.582563,-14.413537,-38.352883,-62.358262,-81.435471,-53.872971,-86.178509,-110.084668,-130.776753,-55.568917,-90.711205,-115.743451,-135.964726,-55.694344,-88.289395,-111.483742,-129.249859,-54.079766,-79.214642,-96.201073,-111.179879,-25.001507,-34.268762,-32.495327,-30.296902,-8.628571,-4.568135,-3.195239,-1.542785,7.207211,9.59715,9.163501,7.871831,19.236883,20.861722,20.381946,18.004024,27.324211,28.855461,27.645931,25.580453,23.043686,46.31844,67.044457,83.311673,36.518772,72.769936,94.428864,110.941017,30.401081,71.649914,96.091004,113.888901,28.705948,67.588692,91.296685,108.164818,31.192383,60.735352,77.736008,90.77092,-28.18366,-47.949788,-55.592408,-57.982958,-58.366644,-59.671492,-57.012099,-55.338181,-44.085577,-45.670518,-44.586366,-44.0028,-26.584096,-30.527551,-32.22226,-34.58128,-7.570588,-12.952427,-16.070427,-19.42697,63.553477,216.745935,-82.10491,156.851641
90,-0.870896,13.028138,-1.519031,5.304533,-16.363952,-41.094887,-65.360309,-85.441521,-54.900284,-86.974823,-110.747932,-131.038273,-55.435821,-90.320057,-115.429001,-135.571564,-54.608368,-87.006042,-110.370231,-128.329799,-52.091102,-76.724041,-94.045372,-109.554771,-24.365107,-32.492992,-29.280365,-25.516221,-6.304494,0.099703,3.225854,6.23878,10.001431,14.882368,15.941759,16.004102,22.547534,26.322978,27.552207,26.63446,31.149983,34.593717,34.683552,33.553062,22.895439,47.915359,69.219234,84.893463,39.476154,76.655777,98.53268,115.201412,32.568661,74.691387,100.083607,118.239178,29.344116,69.59135,93.547519,110.674221,29.898708,60.857494,77.925121,90.907299,-26.085245,-43.23024,-47.792145,-47.272737,-50.184874,-48.017682,-42.76237,-39.264413,-35.114884,-32.219142,-28.232788,-25.469352,-17.49659,-16.941071,-16.346754,-17.264242,1.041545,-1.101182,-2.165414,-3.872708,61.949959,228.715381,-84.356563,161.097482
91,-0.922142,12.059671,-1.182106,7.894482,-18.205101,-43.276726,-67.339222,-87.824982,-55.48526,-87.274418,-110.444858,-130.07642,-54.965103,-89.455593,-114.423534,-134.49329,-53.015945,-84.996551,-108.373936,-126.428936,-49.333237,-73.49778,-90.959598,-106.772358,-22.949232,-29.863821,-25.452791,-20.548697,-3.455418,5.045453,9.660913,13.57316,13.235694,20.459344,22.907772,24.043066,26.207245,32.387609,35.074085,35.221064,35.30581,40.860334,42.449258,42.277395,22.520439,48.58794,70.310451,85.88364,42.724491,78.943989,100.249454,116.938991,35.680836,76.933021,102.289387,120.593548,31.035496,70.303642,93.987041,111.336719,29.320232,59.407207,76.050396,88.829578,-23.441315,-37.31239,-38.517869,-35.364214,-40.686562,-36.202717,-29.252541,-24.477129,-25.230187,-19.402227,-13.209346,-8.83155,-7.923399,-4.425022,-1.834648,-1.432202,9.851105,10.205614,10.761578,10.227609,60.407484,239.702533,-86.159002,167.919445
92,-1.6409,11.814274,-0.640743,10.321853,-19.570907,-44.315643,-66.751361,-85.272251,-56.186553,-86.700908,-108.770519,-127.892406,-54.587287,-87.848407,-112.285354,-132.692905,-51.27967,-82.368885,-105.542324,-124.11914,-46.228523,-70.015125,-87.423397,-103.530281,-21.704702,-28.259681,-24.658718,-20.183308,-1.067628,8.12071,13.596601,18.005802,15.696152,24.030555,27.638953,29.963325,28.976442,36.726292,40.615913,42.00095,38.604418,45.967266,49.154563,50.255227,22.589206,48.928379,69.722728,84.00587,45.345943,79.394073,99.565658,116.072387,38.352161,76.917972,101.254463,119.793182,32.577438,69.191425,91.658523,108.891449,28.727405,56.617012,72.125267,84.339786,-20.818102,-31.002091,-29.009695,-23.954319,-31.015861,-24.84589,-16.630578,-10.608245,-15.786777,-7.710076,0.020501,5.534986,0.588728,6.941339,11.233203,12.764847,16.968359,20.240599,21.813321,21.825658,58.20461,250.625953,-87.361719,177.350444
93,-4.296073,10.847551,13.141227,19.050817,-20.45588,-44.564896,-65.568234,-82.282143,-55.589528,-83.88464,-103.931366,-121.532834,-53.019818,-84.222927,-107.090565,-126.326336,-48.649251,-78.170098,-99.69809,-117.080895,-42.772011,-65.491177,-81.870846,-97.062813,-18.269634,-23.216994,-19.764381,-15.529064,2.927685,12.368636,17.559664,21.422798,18.088877,26.880979,30.790603,33.612202,29.79219,38.054848,42.349325,44.514838,38.102671,45.748019,49.736651,51.855587,21.96769,44.524132,61.054871,70.940747,40.87341,68.808312,83.642258,95.567482,32.948101,66.343998,84.133919,96.753525,25.92627,57.749874,74.06654,85.240036,20.323277,44.931187,56.88929,65.144589,-9.916449,-14.40132,-10.913175,-5.843108,-17.806213,-8.881055,-0.003087,6.267296,-9.390052,3.342723,13.088111,18.953486,1.472315,13.417191,21.449833,24.421065,13.302842,21.208463,26.869457,29.008084,53.488528,260.739517,-74.640501,195.667274
94,-6.9179,10.107896,13.910706,21.893238,-21.078667,-44.551575,-64.424321,-79.648407,-53.836339,-78.798226,-95.769608,-110.991177,-50.286954,-78.61876,-99.046498,-115.945473,-45.113652,-72.390187,-91.08022,-105.799084,-38.948914,-59.804089,-74.222958,-87.395222,-13.049727,-15.101348,-10.741299,-6.147513,7.858999,17.389138,21.342091,23.993814,19.940677,28.929882,32.379779,35.163784,28.436966,36.413205,40.424746,42.962985,33.892071,40.301171,44.226398,46.991693,21.452316,39.864635,52.765034,59.259693,35.984585,59.477943,70.833732,78.773781,26.865326,55.730438,67.898987,74.689979,18.705402,44.590599,54.600117,59.058838,11.725593,30.43737,37.602447,41.159351,-7.488522,-10.46073,-6.094951,-0.345765,-12.23577,-0.874472,8.247682,14.450004,-3.785201,13.089161,23.262294,28.55386,7.247436,23.615778,33.070063,36.552502,18.912953,30.782358,38.330729,41.360438,46.348893,270.207888,-60.95153,216.920987
95,-9.645447,9.437068,6.20248,21.368903,-20.89515,-43.650604,-62.853745,-76.604004,-50.973198,-71.253182,-84.071903,-95.998501,-46.459488,-71.042336,-87.981789,-101.068852,-40.62204,-64.84655,-79.292679,-89.786202,-34.623299,-52.724705,-64.260613,-74.3023,-6.105745,-3.998179,2.129352,7.81738,14.282982,23.761077,25.447184,26.058217,21.478041,30.5163,32.724829,34.972963,24.953551,32.124256,34.946263,37.281935,25.966332,29.869341,33.008806,36.303524,21.304905,38.574005,50.668739,57.450668,33.761971,56.575733,66.711033,72.599911,24.263741,52.07095,62.45406,66.588055,15.888004,40.2663,48.938736,51.06126,8.641617,25.828491,32.001732,33.874031,-7.733066,-9.687553,-4.387564,1.348012,-8.643687,4.388874,13.02252,18.751933,1.026638,18.8947,28.653229,33.451446,12.432964,29.753831,39.032176,42.549183,23.704637,36.609312,44.061624,46.7903,36.598589,279.09522,-54.853907,237.740154
96,-6.189766,8.844611,-0.02647,19.758786,-20.240548,-42.297878,-60.739826,-72.740662,-54.027729,-69.380287,-77.679268,-85.979794,-50.052933,-69.528637,-82.179669,-90.765976,-43.842762,-63.345784,-73.160237,-79.585797,-37.520199,-51.936848,-60.831482,-68.010224,-1.528138,4.231014,12.846777,20.351293,20.176675,29.808183,29.595268,28.754795,24.118191,33.174593,33.650183,34.692974,24.313458,31.237791,32.123317,33.654925,22.551583,25.734842,27.631506,30.480065,24.548538,43.332962,56.265827,63.1535,37.451317,62.541664,70.308266,71.81543,27.079433,56.88129,64.005661,62.891144,18.207001,44.213287,49.661877,46.606659,10.399933,28.838562,32.985558,31.156082,-7.633845,-8.186882,-2.108567,3.692415,-0.837743,15.2741,20.926214,23.720519,9.698235,29.513535,34.93453,36.251258,20.743667,40.007771,45.925733,46.827054,30.666551,45.639606,51.068875,51.863689,30.318094,287.530682,-54.971106,257.089791
97,-10.280365,8.492756,-1.685635,17.759369,-15.712555,-33.464253,-48.84486,-59.422268,-48.426087,-54.275402,-55.236923,-57.712818,-47.115887,-56.313481,-60.337509,-61.28389,-42.95802,-54.197319,-56.086842,-55.892441,-38.161995,-50.345902,-57.290131,-62.514256,-1.521481,5.915405,17.584208,27.099897,19.951644,31.995173,32.502564,32.446309,23.839969,34.254806,34.89769,35.725775,23.716246,31.321513,31.699203,32.936188,22.16594,25.201973,27.13854,30.74579,26.729473,46.975216,61.475224,69.775921,40.522168,66.731724,74.230008,74.960232,29.475724,60.399044,67.233708,65.07082,20.154717,46.94569,52.270089,48.544201,12.155571,31.439621,36.277439,34.607483,-6.619373,-6.058629,-0.034482,4.937131,5.818309,23.974857,29.245168,31.350067,16.759272,38.191481,43.386803,43.972493,27.313825,48.435269,54.550697,54.828993,36.191262,52.917929,59.156512,60.257991,19.945118,295.761938,-56.749352,274.58766
98,-14.10495,10.602801,-15.432232,10.639423,-9.665394,-21.432484,-30.861355,-36.66309,-37.415531,-34.029011,-28.498875,-26.128063,-38.870655,-37.728131,-33.676262,-28.194824,-37.25103,-39.217652,-33.773438,-28.264279,-34.156937,-43.32116,-48.662022,-52.964539,-4.508352,0.757616,11.379712,20.321007,15.73293,29.862026,32.451537,34.055105,21.633866,33.873905,35.568019,36.663941,23.167445,32.031017,32.817981,34.063153,22.926199,26.886804,29.443852,33.302701,29.761483,54.256417,73.325272,86.543038,51.019696,81.366417,93.093132,97.757859,40.335984,73.901345,86.044579,89.323174,30.787926,59.574967,69.614159,71.401955,22.214985,42.690056,50.297917,52.282769,-14.592956,-15.808538,-9.681514,-5.092964,7.665313,25.564115,30.58719,32.814255,25.401192,45.087224,48.843094,49.23921,39.963842,59.052438,62.555539,61.992276,50.845981,66.639266,69.952719,69.560715,5.807398,306.157835,-72.214354,285.020179
99,-12.649174,6.910851,-15.210765,7.411186,-3.221523,-8.028202,-11.883682,-14.786671,-26.984276,-15.090122,-3.636291,2.903458,-30.726265,-19.37344,-8.055588,3.090191,-31.707264,-24.260754,-12.332771,-2.518101,-30.655128,-37.798233,-42.409744,-46.296478,-9.658629,-7.133951,1.75076,9.532979,12.473818,28.849842,33.006867,35.819327,21.964313,36.950631,39.590264,40.907388,26.321767,37.862586,38.985604,40.404999,28.724031,34.725616,38.435976,42.939001,32.319751,61.091835,84.281902,101.834003,61.078811,94.616626,108.923824,116.338176,51.235679,87.58073,104.096775,112.342083,41.742107,74.209179,89.281963,96.85905,32.760612,57.21936,68.982879,75.281856,-14.621152,-14.766129,-8.544417,-4.989804,15.65568,33.127169,38.161569,40.785085,33.646045,51.295165,54.664824,55.556746,46.645298,63.708208,66.457633,65.955504,55.025495,69.566223,71.859115,71.02394,-6.813824,312.863208,-87.397167,292.225887
100,-11.505077,6.330763,-6.639439,6.562092,4.090759,7.034992,9.969394,11.118873,-14.270233,4.207466,19.675575,28.811611,-20.36427,-1.145291,15.621563,30.064384,-24.344399,-9.387257,7.337105,19.356319,-25.747994,-31.554623,-36.331524,-41.395352,-17.940532,-20.500235,-14.937511,-8.726753,6.345349,23.956962,29.962881,34.091427,21.311982,38.95032,43.414109,45.521132,30.242783,44.692787,46.956891,48.717778,36.900095,45.69864,50.82506,55.718027,34.611717,64.691334,89.323746,107.869286,67.189671,100.828674,115.552711,123.836105,56.89809,93.727295,110.680664,120.275459,46.818134,79.747387,95.333931,104.245491,37.16391,62.003059,74.543301,82.341133,-12.528541,-12.367051,-7.08949,-4.285725,23.235001,40.901991,46.078331,48.701501,40.373087,58.304838,61.373463,61.814028,51.800272,69.724663,72.64069,71.819398,58.369837,73.968534,76.411417,75.470798,-18.250923,318.966634,-93.968628,298.560642
101,-15.393105,4.025065,-0.254528,6.004623,11.010933,21.406357,30.341561,34.947602,3.626118,30.140511,49.397919,60.523613,-3.661526,24.230805,45.620613,62.387879,-10.530521,11.894943,32.766621,46.748818,-14.833854,-19.612186,-24.578991,-30.820564,-23.767771,-30.249625,-28.063623,-24.352868,1.114657,20.321233,27.248098,31.693461,19.421789,39.884517,45.720622,48.493846,30.943366,47.766562,51.139629,53.083692,39.953912,49.802448,56.224553,61.804122,33.04319,62.221264,86.978199,106.556614,66.406872,97.665035,114.324268,126.176617,56.111343,90.818905,110.115475,123.762279,45.904118,77.08017,95.326755,108.475811,36.389511,60.135887,74.946716,86.392982,-11.782794,-12.393901,-8.663916,-7.34063,24.412247,40.599611,48.134755,52.940332,40.80692,57.778415,64.35602,67.299637,51.411343,69.160461,75.199133,76.405353,57.399564,72.766932,77.190695,77.762108,-33.466707,322.772198,-94.045835,304.345764
102,-10.574581,3.047815,1.879578,4.603617,13.977676,27.871456,38.988556,44.983189,12.983231,41.465893,60.757656,71.198376,6.674801,36.088669,57.058949,73.130894,-0.977909,24.30621,45.49062,58.805798,-6.747013,-9.548492,-14.725399,-21.684792,-25.678057,-34.036469,-34.375763,-32.12412,0.756986,19.23823,24.516396,27.523814,19.634741,41.226489,46.0592,48.268704,30.900005,48.844465,51.26923,52.419517,39.238361,49.222995,54.838528,59.327005,31.530452,59.571201,84.136562,103.929348,65.244804,95.951671,112.703807,124.775173,55.093151,89.487155,108.547428,122.074779,44.920589,76.002159,94.151653,107.41119,35.36602,59.087482,73.880413,85.622634,-12.25742,-13.75898,-10.934282,-10.469548,25.136777,40.256476,47.117725,51.410367,41.351101,57.001928,62.679199,65.149895,51.493223,68.269538,73.583433,74.714441,57.045178,71.81852,75.593335,75.83447,-43.749991,325.604414,-91.87496,308.733782
103,-3.62653,-1.661432,1.869083,1.979051,15.250523,30.864292,41.628193,45.811867,16.173088,45.645584,64.613114,74.447846,10.649437,40.961037,60.987809,76.208153,2.477131,28.797833,49.627945,62.328621,-4.500549,-7.339988,-13.192062,-20.724392,-26.24211,-33.957959,-33.781674,-31.141437,3.105836,21.580744,24.713898,25.928949,21.869946,44.476216,48.217216,49.84187,32.477889,51.775349,53.160152,53.642916,40.472295,50.84356,56.006821,60.261622,30.152389,57.728794,82.129372,101.733787,63.428284,94.473587,111.147102,123.134857,53.541286,88.437332,107.157555,120.433731,43.470051,75.328686,93.423775,106.547905,33.990635,58.349705,73.542938,85.724258,-12.789474,-14.835759,-12.356072,-12.068315,24.907325,39.576753,45.920978,49.841301,41.149906,55.81369,60.800789,62.808283,51.17763,67.233663,72.016813,72.843318,56.67638,71.084382,74.316769,74.113659,-47.009674,323.762612,-89.63903,310.532463
104,-1.94934,-0.060985,1.063614,0.648194,15.572273,31.636104,42.81467,47.728225,18.259632,48.228378,66.55236,75.650573,12.868068,43.236488,62.720306,77.186485,4.355049,30.777202,51.251243,63.351333,-3.079228,-6.184147,-12.623097,-21.022866,-26.496904,-34.627642,-34.502882,-31.990776,2.510068,21.354898,23.672725,24.072089,21.410239,44.570213,47.660809,48.769772,31.952195,51.922933,52.67777,52.306564,39.886456,50.704486,55.378486,59.04383,29.018921,56.216366,80.328689,99.589165,61.823387,93.096268,109.773926,121.79615,52.07864,87.412834,105.970871,119.035286,42.09882,74.650246,92.85926,105.876114,32.787701,57.688682,73.20599,85.600685,-13.427084,-15.560598,-13.125359,-12.96503,24.371949,38.895967,44.779472,48.218945,40.756383,54.754337,59.078966,60.501312,50.770448,66.339925,70.46095,70.767034,56.231555,70.391061,73.016861,72.310053,-48.506813,323.551469,-88.123215,311.030499
105,-1.118329,-0.272368,0.19368,0.124353,14.924378,31.073182,41.961709,46.800053,18.425732,49.675358,67.961804,76.548581,13.023262,44.836247,64.321186,78.76331,4.447392,32.220074,52.373349,64.126317,-3.00555,-6.387886,-13.676857,-22.715641,-26.204269,-34.225771,-33.808203,-31.756076,2.089189,21.774751,23.434158,23.505232,21.144909,44.620823,46.557316,46.997337,31.671947,52.081841,51.605004,50.361104,39.531687,50.701015,54.78373,58.030406,28.287059,55.239601,79.226257,98.337753,61.063247,92.341255,108.970642,121.031227,51.466083,86.828521,105.263168,118.271576,41.475654,74.143158,92.355766,105.421165,32.121666,57.291149,72.915516,85.334221,-13.908885,-16.047771,-13.611211,-13.736256,23.474555,38.036043,43.815079,47.215056,39.829621,53.571199,57.683048,58.990761,49.871744,65.249511,69.125634,69.34964,55.407854,69.302327,71.62187,70.748484,-49.083779,323.142253,-87.388172,311.018004
106,-0.742721,0.520482,0.436763,-0.071433,14.892872,31.627544,42.566139,47.279949,19.703373,51.611904,69.340977,76.974117,14.109569,46.586826,65.196407,78.398037,5.217533,34.015102,53.196545,63.69144,-2.587544,-4.98468,-12.668404,-22.158623,-26.560359,-35.032812,-34.784872,-33.366206,1.118831,20.805294,21.768131,21.609853,20.566048,43.735507,44.608559,44.484292,31.213375,51.208925,49.593941,47.803303,39.144475,50.291906,53.442548,56.174004,27.927086,54.614148,78.563519,97.708409,60.282429,91.521435,108.217335,120.336033,50.802578,86.19357,104.666874,117.740696,40.877015,73.662953,91.854344,104.997174,31.579972,56.935547,72.455395,84.823849,-14.170176,-16.365761,-13.782445,-13.631243,22.795844,37.410981,43.102207,46.254393,39.230679,52.919226,56.890753,57.931853,49.400626,64.629624,68.30733,68.29645,55.065819,68.750488,70.930685,69.878014,-49.210619,323.532312,-86.335528,310.816148
107,-0.61369,-0.369169,0.032914,0.365513,15.00887,32.043572,43.331383,48.290772,20.497857,52.843804,70.62703,78.298188,14.849236,48.015427,66.654168,79.54461,5.876221,35.196351,54.200501,64.36599,-1.93317,-4.012081,-11.689075,-21.215995,-26.326164,-34.81676,-34.596693,-33.431871,1.389088,21.281625,21.933289,21.501518,20.923966,44.22851,44.721068,44.326706,31.563834,51.632977,49.698399,47.788162,39.424834,50.7208,53.744125,56.412645,27.741382,54.307182,78.283264,97.408664,59.948913,91.091755,107.88042,120.159015,50.631912,85.823742,104.36063,117.543468,40.83546,73.459716,91.597194,104.756481,31.663696,56.956672,72.419574,84.762325,-14.436851,-16.770683,-14.289774,-14.01906,22.291948,36.696603,42.355275,45.444635,38.774949,52.252989,56.210968,57.232122,49.053613,64.052171,67.5952,67.488297,54.851001,68.348184,70.37382,69.166624,-49.147889,323.036659,-85.626194,311.055177
108,-2.395134,0.855231,0.234123,0.26139,15.620591,33.549397,45.622147,51.183426,22.878182,56.41047,74.166848,81.277451,16.963532,51.299035,69.277108,80.882035,7.929451,38.458375,56.251832,64.747193,0.266007,0.046669,-7.633541,-17.44392,-26.660543,-35.59337,-35.539758,-34.763457,0.29161,19.733122,19.849768,19.119619,20.577608,43.342935,42.824269,41.704042,31.662931,50.962825,48.128073,45.727588,39.851283,50.58222,52.448564,54.296445,27.515911,53.954372,77.960621,97.103222,59.488987,90.718883,107.664104,120.121044,50.181679,85.441646,104.083637,117.169704,40.415336,73.091938,91.288113,104.402492,31.305702,56.53854,71.917969,84.048122,-14.485338,-16.796952,-14.376843,-13.964609,22.11444,36.392852,41.83746,44.621909,38.712728,52.094055,55.770032,56.388265,49.00814,63.990371,67.216768,66.697225,54.761685,68.240602,70.121544,68.656232,-50.839406,323.777553,-84.688454,311.20223
109,-4.560047,1.333389,-0.002758,0.147682,16.917961,36.679837,50.490681,57.03558,27.797482,62.941761,80.196843,86.485531,21.438961,57.406025,73.715367,83.053654,12.241104,44.12035,59.834713,65.900746,4.639126,6.818779,-1.091755,-11.545097,-27.210468,-36.795231,-37.134574,-36.840716,-1.268477,17.217237,16.541614,15.372505,20.04732,41.86421,40.252438,38.418389,31.896632,50.089884,46.056915,43.023648,40.452238,50.400464,50.760703,51.534362,27.420055,53.970302,78.177658,97.493088,59.171997,90.736519,107.815315,120.432381,50.05513,85.424835,104.155037,117.249939,40.448685,73.151596,91.362213,104.4524,31.413174,56.576042,71.930534,84.033531,-14.372532,-16.759334,-14.551188,-14.108413,21.448734,35.612685,40.904708,43.571634,38.110465,51.475501,55.023347,55.351834,48.54064,63.68252,66.805165,65.998309,54.421465,68.118892,70.013963,68.37917,-54.663866,325.023087,-83.955625,311.262057
110,-1.328487,0.432277,0.367424,0.190376,17.125133,37.404121,51.912689,58.986168,29.528801,64.730553,81.747047,88.051117,23.149727,58.677475,74.446426,83.298866,13.954113,44.888088,59.430107,64.680496,6.479324,8.950058,0.938953,-9.700562,-27.012149,-37.020298,-37.697058,-37.420799,-1.464571,16.165653,15.38204,13.988346,20.055978,40.61064,38.847975,36.746818,32.255649,49.482396,45.165005,41.918687,41.048117,50.545133,50.580973,51.046349,27.171581,53.672367,77.979194,97.512039,58.86446,90.690994,108.021515,120.712807,49.819748,85.353035,104.166389,116.898491,40.2919,73.14854,91.299454,103.902901,31.37756,56.533356,71.827114,83.617378,-14.251019,-16.656803,-14.576715,-13.929312,21.227322,35.115298,40.301481,42.791566,38.069525,51.26954,54.468322,54.341808,48.628524,63.660871,66.295094,64.872488,54.59412,68.281235,69.898194,67.781785,-55.222933,325.396948,-82.818781,311.394017
111,-1.776306,-0.109249,0.261371,0.067679,17.111664,37.862652,53.738777,61.729248,30.353508,65.554298,83.112327,90.192375,24.241619,59.090217,75.707428,85.562668,15.484096,45.411564,60.060882,65.685127,8.627998,11.051204,3.325092,-6.854496,-26.439538,-36.778434,-37.963955,-37.776913,-2.199092,14.881306,14.549188,13.282638,19.832146,39.703786,38.106316,35.844991,32.683567,49.471392,45.211503,41.915464,41.820763,51.184287,51.246988,51.519061,27.035489,53.631752,78.023221,97.688427,58.473668,90.772625,108.28838,121.021786,49.52314,85.324688,104.057385,116.367428,40.154698,73.164734,91.033711,102.98544,31.479298,56.692933,71.875397,83.212224,-14.091629,-16.559312,-14.765388,-14.135522,21.093842,34.684922,39.73676,42.119474,38.173425,51.102356,53.840839,53.281454,48.884392,63.783791,65.928655,64.007105,54.896425,68.561803,69.758847,67.082066,-56.198272,325.23179,-81.756443,311.405787
112,-2.870911,-0.034308,0.401986,0.255313,18.002049,40.049458,57.170975,65.214729,33.305454,68.946533,86.404404,93.291733,26.64671,61.716957,78.323753,88.001633,17.786877,48.214474,62.707466,68.096214,11.123177,16.181477,10.260086,1.851677,-25.661335,-36.355814,-38.230298,-38.69182,-3.313651,13.36453,13.184071,11.842889,19.415589,38.715186,36.579845,33.391572,33.070026,49.123861,44.684315,40.92737,42.639178,52.035158,51.002012,49.859098,26.775135,53.462299,77.986335,97.752102,58.125045,90.846874,108.538913,121.297016,49.310737,85.473598,104.251361,116.251476,40.134544,73.429412,91.140918,102.54935,31.709472,57.116775,72.253395,83.216594,-14.088826,-16.673575,-15.093134,-14.43196,20.7781,34.201528,39.132805,41.360759,38.094126,50.781439,53.071688,52.034763,49.015958,63.771725,65.425735,62.983111,55.165966,68.780338,69.582316,66.42351,-58.301376,325.138202,-80.58665,311.60182
