takenoko1/special-research/HandMotion_SimilarSearch_自分用/NewProject/handData_new/key/d3_feature/141.csv
,vel_0x_L,vel_0y_L,vel_0x_R,vel_0y_R,posFromWrist_1x_L,posFromWrist_2x_L,posFromWrist_3x_L,posFromWrist_4x_L,posFromWrist_5x_L,posFromWrist_6x_L,posFromWrist_7x_L,posFromWrist_8x_L,posFromWrist_9x_L,posFromWrist_10x_L,posFromWrist_11x_L,posFromWrist_12x_L,posFromWrist_13x_L,posFromWrist_14x_L,posFromWrist_15x_L,posFromWrist_16x_L,posFromWrist_17x_L,posFromWrist_18x_L,posFromWrist_19x_L,posFromWrist_20x_L,posFromWrist_1y_L,posFromWrist_2y_L,posFromWrist_3y_L,posFromWrist_4y_L,posFromWrist_5y_L,posFromWrist_6y_L,posFromWrist_7y_L,posFromWrist_8y_L,posFromWrist_9y_L,posFromWrist_10y_L,posFromWrist_11y_L,posFromWrist_12y_L,posFromWrist_13y_L,posFromWrist_14y_L,posFromWrist_15y_L,posFromWrist_16y_L,posFromWrist_17y_L,posFromWrist_18y_L,posFromWrist_19y_L,posFromWrist_20y_L,posFromWrist_1x_R,posFromWrist_2x_R,posFromWrist_3x_R,posFromWrist_4x_R,posFromWrist_5x_R,posFromWrist_6x_R,posFromWrist_7x_R,posFromWrist_8x_R,posFromWrist_9x_R,posFromWrist_10x_R,posFromWrist_11x_R,posFromWrist_12x_R,posFromWrist_13x_R,posFromWrist_14x_R,posFromWrist_15x_R,posFromWrist_16x_R,posFromWrist_17x_R,posFromWrist_18x_R,posFromWrist_19x_R,posFromWrist_20x_R,posFromWrist_1y_R,posFromWrist_2y_R,posFromWrist_3y_R,posFromWrist_4y_R,posFromWrist_5y_R,posFromWrist_6y_R,posFromWrist_7y_R,posFromWrist_8y_R,posFromWrist_9y_R,posFromWrist_10y_R,posFromWrist_11y_R,posFromWrist_12y_R,posFromWrist_13y_R,posFromWrist_14y_R,posFromWrist_15y_R,posFromWrist_16y_R,posFromWrist_17y_R,posFromWrist_18y_R,posFromWrist_19y_R,posFromWrist_20y_R,posFromBody_0x_L,posFromBody_0y_L,posFromBody_0x_R,posFromBody_0y_R
6,2.840298,-1.06969,0.553734,0.260624,17.516681,35.189792,45.281971,46.48756,25.319629,61.185138,77.607204,81.469059,16.297668,52.897144,68.180912,75.446766,7.252601,39.385174,53.698871,58.178821,0.531028,9.413315,6.80302,1.192863,-20.741136,-29.789807,-31.499071,-32.680788,1.534954,21.037291,20.34702,18.396966,23.233802,43.268279,39.077118,33.534537,36.277379,53.113592,47.316586,42.208456,44.961734,56.857297,53.344785,48.471628,26.038776,50.661575,73.626022,92.780731,54.228882,86.53997,103.903519,116.576477,45.762783,81.180382,99.881607,111.837318,37.342346,69.837593,87.048523,98.100609,29.917088,54.882729,69.505142,80.339424,-15.319289,-18.629741,-16.389498,-14.505085,18.107518,31.482867,36.67399,38.982887,35.674707,47.83939,50.08098,48.784172,47.159271,61.071775,62.684226,60.169157,53.783843,67.220683,67.885871,64.384005,-47.418783,317.899115,-76.447466,309.24125
7,-0.895844,0.043793,0.451939,0.318509,17.948261,36.135292,46.620678,47.960964,26.152657,61.909504,78.632183,83.167134,17.166355,53.539891,69.181607,76.926144,8.093285,40.011761,54.618016,59.423435,1.325375,10.503445,8.451943,3.458336,-20.741939,-29.782569,-31.438086,-32.508035,0.928442,20.662466,20.159978,18.25546,22.65362,42.87914,38.962472,33.607032,35.751686,52.787686,47.158518,42.187079,44.515267,56.738008,53.344724,48.520485,25.772094,50.31538,73.197979,92.394848,53.818771,86.062236,103.476001,116.190708,45.410213,80.873027,99.732067,111.735958,37.054721,69.591785,86.842334,97.884945,29.682884,54.70935,69.287647,80.038913,-15.532823,-18.947929,-16.67607,-14.703403,17.640079,31.014021,36.321617,38.740269,35.321779,47.46538,49.742834,48.410989,46.914887,60.752253,62.30787,59.702817,53.630269,67.006631,67.580182,63.91259,-48.904913,318.095079,-76.585813,309.71193
8,-1.766304,-0.345049,0.375389,0.242259,18.618324,37.823971,49.248379,50.960278,28.435845,64.417683,81.091862,85.824795,19.255669,55.890599,71.219753,78.584873,9.943176,42.144779,56.413342,60.940098,2.930741,13.862652,12.939583,8.976574,-20.36799,-29.382069,-31.084848,-32.096691,0.596225,20.830205,20.489688,18.462509,22.42155,43.094476,39.18197,33.751874,35.63699,53.052237,47.383117,42.350137,44.427532,57.317609,53.318764,47.743727,25.548649,49.957821,72.733738,91.945781,53.626522,85.765102,103.157375,115.843082,45.215217,80.545704,99.442096,111.372997,36.796451,69.264095,86.495052,97.432399,29.330715,54.312092,68.829883,79.457851,-15.693077,-19.208973,-16.868126,-14.773144,17.131725,30.580397,36.093079,38.651213,34.88713,47.189492,49.604501,48.271384,46.563244,60.4992,62.119753,59.457952,53.37324,66.843487,67.46025,63.686114,-51.000303,317.86974,-76.53951,310.073899
9,-0.246116,-0.349396,0.134948,0.257919,19.0918,38.522049,50.040081,51.754383,29.091304,64.923374,81.599796,86.54607,19.810958,56.769481,72.148235,79.60255,10.350631,42.582126,56.638492,61.174701,3.091461,14.307529,13.746414,10.103874,-19.82271,-28.599654,-30.055259,-30.734699,0.877683,21.959719,21.638567,19.424111,22.500417,43.915893,40.173929,34.866184,35.566805,53.705124,47.900993,42.846734,44.157473,57.822789,53.610868,47.750099,25.368187,49.720643,72.427632,91.727498,53.600533,85.680417,103.063511,115.73219,45.146428,80.413388,99.371396,111.266659,36.606228,69.079159,86.348477,97.245312,28.981568,53.987813,68.478711,79.020115,-15.850207,-19.414885,-17.024329,-14.935387,16.673698,30.20535,35.88004,38.555932,34.481813,46.970389,49.55452,48.276509,46.191581,60.23113,61.907344,59.19886,53.034712,66.549321,67.220646,63.392047,-51.432724,317.61577,-76.590867,310.427244
10,-0.1363,-0.028356,0.003033,0.125823,19.034695,38.656357,50.597844,52.688519,29.328724,64.699963,81.364666,86.67326,20.246201,56.755246,72.364117,80.279652,10.749894,42.35748,56.519658,61.445904,3.366085,13.668263,12.858777,9.14153,-19.633123,-28.274945,-29.733836,-30.391996,1.012176,22.184675,21.965165,19.753624,22.431986,44.035923,40.485435,35.371612,35.388025,53.727725,47.948331,42.995231,43.939395,57.66708,53.713188,48.152477,25.242771,49.578129,72.280289,91.670494,53.736694,85.72609,103.097168,115.758248,45.258339,80.380989,99.379669,111.304047,36.605702,68.952461,86.228554,97.126557,28.779225,53.695301,68.148422,78.654808,-15.918726,-19.463644,-17.046152,-15.081748,16.560583,30.01422,35.735976,38.449943,34.28904,46.795993,49.541812,48.342977,45.928153,59.996922,61.791747,59.085251,52.77058,66.349471,67.159266,63.360764,-51.684855,317.665864,-76.703665,310.631517
11,-0.617649,0.011338,-0.031254,-0.104593,19.069199,39.08432,51.439728,53.881348,29.846295,65.132012,81.713814,87.23964,20.691147,57.303864,73.148392,81.724617,11.030732,42.720726,57.118172,62.605797,3.554592,13.68417,13.231659,10.072712,-19.530161,-28.103984,-29.515018,-30.302187,0.622876,21.904093,22.113575,20.249825,22.023951,43.664358,40.653186,35.830948,35.085077,53.291865,47.967028,43.225856,43.797813,57.500464,53.881668,48.471862,25.136948,49.492722,72.214932,91.671948,53.835492,85.771901,103.162411,115.857525,45.317574,80.303227,99.341137,111.26849,36.570202,68.767147,86.064274,96.949276,28.624855,53.434914,67.888104,78.375424,-15.838524,-19.271884,-16.836522,-14.998039,16.692198,30.045515,35.843817,38.665255,34.379468,46.936636,49.805029,48.656101,45.957769,60.132502,61.987891,59.223943,52.759045,66.46124,67.400698,63.626562,-52.397095,317.732364,-76.82951,310.582086
12,-0.698833,-0.050957,-0.016079,-0.219288,19.157787,39.611629,52.509258,55.421139,30.398746,65.576214,82.00494,87.659351,21.326694,57.767612,73.690143,82.691517,11.664333,43.235584,57.622959,63.459995,4.160957,14.571899,14.49987,11.87289,-19.361372,-27.836258,-29.169894,-30.066263,0.430166,21.674086,22.222269,20.673211,21.875429,43.439637,40.759483,36.082285,35.034245,53.097747,48.038326,43.383505,43.804606,57.576183,54.083641,48.656521,25.132485,49.518677,72.294251,91.792672,53.940091,85.888733,103.292885,116.002785,45.378903,80.322098,99.383973,111.259713,36.55481,68.719643,86.005188,96.851258,28.535798,53.355767,67.851609,78.358178,-15.718704,-19.025833,-16.512629,-14.665501,16.741277,30.085751,36.042184,39.026038,34.493064,47.194913,50.085512,48.862718,46.098732,60.454382,62.307857,59.447801,52.884201,66.7219,67.738114,63.942737,-53.176952,317.721103,-76.926613,310.402494
13,-0.60648,-0.150868,-0.028907,-0.149943,19.473072,40.293812,53.756859,56.986748,30.746407,65.92099,82.440468,88.118134,21.647198,57.847458,73.948975,83.164971,12.023815,43.419251,58.053681,64.250336,4.557862,15.291287,15.722786,13.627602,-19.238811,-27.703841,-28.971342,-29.716077,0.209173,21.310931,22.113687,20.756054,21.744036,43.225399,40.797867,36.137316,35.038838,53.031216,48.284536,43.736742,43.913175,57.493215,53.964401,48.45887,25.191627,49.699321,72.620544,92.208778,53.966709,85.996902,103.416298,116.072158,45.337188,80.436103,99.514869,111.273765,36.506755,68.872696,86.12487,96.88076,28.557014,53.472862,68.026405,78.583282,-15.649048,-18.950781,-16.521569,-14.625029,16.789542,30.187331,36.226658,39.284242,34.686652,47.524303,50.337961,48.991752,46.374127,60.882597,62.642236,59.675339,53.1356,67.060577,68.051313,64.172708,-53.842289,317.612516,-77.014377,310.294832
14,1.103405,-0.331353,0.02536,-0.292166,19.116589,39.575009,52.954617,56.369374,28.912926,63.803868,80.898136,86.972477,19.905613,55.652905,72.592816,82.942967,10.430077,41.48695,56.934254,64.044148,3.212734,12.739563,12.928952,10.857353,-19.146913,-27.535361,-28.653266,-29.245613,0.460337,21.392566,22.648767,21.646471,22.004821,43.284902,41.253585,36.68592,35.284753,53.059869,48.762966,44.440277,44.198413,57.393093,54.523736,49.583061,25.28825,49.961929,73.023948,92.619507,53.908344,86.107635,103.590545,116.191246,45.153064,80.481537,99.520935,111.033737,36.316292,69.006363,86.231369,96.810562,28.488189,53.63229,68.285911,78.844482,-15.584433,-18.849461,-16.469958,-14.40563,16.923541,30.460182,36.532433,39.595464,34.986784,48.090443,50.687073,49.116414,46.769861,61.518367,63.085654,59.944892,53.517588,67.579281,68.468264,64.420352,-52.785113,317.316024,-77.035246,310.037527
15,-0.133438,-0.186289,0.018768,-0.377171,19.015732,39.608208,53.369373,57.092137,28.838299,63.672718,80.874127,86.881291,19.894112,55.562176,72.757015,83.507984,10.525658,41.790676,57.605084,65.072422,3.442875,13.483601,14.335991,12.899529,-19.145308,-27.515205,-28.546981,-29.071834,0.250559,20.9799,22.632687,21.947072,21.994435,43.191079,41.361389,36.812484,35.450714,53.059449,48.924407,44.623219,44.508598,57.716715,54.757845,49.569069,25.340344,50.240776,73.452301,93.059052,53.843205,86.238625,103.781685,116.344322,44.958881,80.601151,99.669548,111.031128,36.111923,69.160332,86.385704,96.839882,28.400482,53.709206,68.410561,78.929787,-15.475555,-18.663803,-16.299367,-14.152639,17.194896,30.883727,36.971701,40.027123,35.408254,48.752654,51.173443,49.399144,47.254268,62.231164,63.642519,60.366289,53.932452,68.147582,68.994427,64.849961,-52.952562,317.156828,-77.050489,309.687449
16,0.085739,-0.355571,-0.041073,-0.327376,18.73161,39.249859,53.505764,57.640217,28.384209,63.14597,80.752934,86.86726,19.669705,54.952824,72.516392,83.571659,10.485707,41.408078,57.585217,65.284046,3.555531,12.622387,12.860493,10.938435,-19.298881,-27.565594,-28.523763,-28.818411,0.614009,20.970872,22.671515,22.010181,22.532824,43.651724,41.810278,37.190742,36.001947,53.518897,49.437046,45.209712,44.979358,57.817874,55.260728,50.568894,25.392975,50.557583,73.958828,93.569126,53.822228,86.460331,104.029461,116.549916,44.865807,80.870922,99.93021,111.175152,36.053204,69.497326,86.72485,97.108807,28.473301,54.004635,68.741879,79.236958,-15.442086,-18.583663,-16.218672,-13.945528,17.445961,31.364961,37.458183,40.478037,35.766407,49.33974,51.609562,49.674575,47.659301,62.813803,64.117169,60.780313,54.288319,68.601311,69.37413,65.152341,-52.892109,316.832574,-77.116848,309.39139
17,-0.361564,0.040002,-0.215,-0.28341,18.854667,39.401241,53.801662,57.916614,28.919883,63.882923,81.712337,87.608722,20.057281,55.294315,72.886745,83.750759,10.910923,41.914615,58.248012,65.868129,3.936779,13.508434,14.176311,12.561905,-19.485923,-28.019744,-29.271461,-29.428135,0.569672,20.567259,22.096668,21.264816,22.638096,43.695197,41.628237,36.787129,36.175021,53.593331,49.329082,44.956004,45.196571,57.595412,54.562343,49.503971,25.442059,50.899258,74.491814,94.100922,54.103638,86.831085,104.41008,116.848869,45.055779,81.238655,100.194603,111.252388,36.209209,69.87188,87.064201,97.328453,28.649883,54.268181,69.039208,79.52346,-15.383411,-18.512897,-16.209421,-13.769008,17.815204,31.876057,37.906466,40.832905,36.107343,49.801053,51.959514,49.946043,47.964151,63.25254,64.519832,61.185964,54.559231,68.988215,69.745287,65.518249,-53.27239,316.909836,-77.350565,309.14524
18,0.141368,0.023786,-0.268387,-0.411665,18.454503,38.905633,53.150849,57.188027,28.849743,63.456185,81.378617,87.477997,20.200596,55.050271,72.994675,84.529381,11.080491,41.829781,58.534356,66.592095,4.066945,12.923321,13.31503,11.604344,-19.542573,-28.113505,-29.47399,-29.821744,0.630212,20.295249,21.928955,21.203079,22.674257,43.562952,41.65069,36.887362,36.209083,53.380292,49.174978,44.839852,45.298781,57.594239,54.985457,50.268392,25.579617,51.205662,74.870064,94.426369,54.487244,87.127808,104.696343,117.125473,45.385918,81.475159,100.321678,111.359688,36.470764,70.030541,87.161133,97.39975,28.832806,54.345051,69.089127,79.549622,-15.216709,-18.252557,-15.904918,-13.424416,18.33413,32.438763,38.398086,41.265133,36.473844,50.168665,52.335215,50.381297,48.218266,63.549325,64.906105,61.674101,54.809098,69.325421,70.167277,66.053551,-53.146351,316.959397,-77.634281,308.75935
19,-0.49792,0.343382,-0.297935,-0.190871,18.322792,38.993762,53.316661,57.302364,29.989311,64.170673,81.841358,87.919681,21.347373,55.353,73.137622,84.698856,12.148681,42.191665,58.946491,67.218967,4.824577,14.176837,15.47525,14.683296,-19.790476,-28.592244,-30.216305,-30.695969,-0.130825,19.001738,20.642273,19.977271,22.011305,42.665731,40.867435,36.272562,35.800122,52.560024,48.649173,44.557714,45.165412,57.410457,54.750805,49.935792,25.703579,51.424072,75.167221,94.672851,54.937099,87.35305,104.86354,117.312401,45.91745,81.771446,100.595237,111.776207,36.990406,70.273796,87.350258,97.674431,29.256649,54.506893,69.165527,79.64479,-15.097469,-18.131143,-15.805314,-13.35444,18.570103,32.635587,38.546015,41.360945,36.547575,50.113893,52.417764,50.577009,48.235643,63.53085,65.048774,61.921239,54.898587,69.487443,70.440054,66.459289,-53.657186,317.326846,-77.945131,308.592546
20,1.291248,0.08755,-0.19376,-0.078052,17.928062,38.090835,51.71624,55.216919,28.859447,62.342834,80.156044,86.597534,20.258148,53.304359,71.419601,83.531021,11.079357,40.201778,57.356209,66.197685,3.683922,12.528934,14.232376,13.98492,-19.954634,-28.781695,-30.494429,-30.956285,-0.260896,18.54581,20.178046,19.539485,21.741875,42.098034,40.489473,36.144652,35.545426,51.997687,48.441938,44.719895,45.008356,57.148894,54.853459,50.417408,25.839683,51.528465,75.24258,94.667026,55.334678,87.348438,104.778957,117.224796,46.408195,81.776127,100.476917,111.719295,37.451351,70.279094,87.251644,97.635761,29.603462,54.506962,69.054027,79.533954,-15.042388,-18.130168,-15.869547,-13.381598,18.722169,32.754777,38.68499,41.476554,36.532186,50.087414,52.555319,50.854366,48.149118,63.486895,65.134446,62.066611,54.894955,69.543894,70.547215,66.627706,-52.376478,317.440343,-78.149431,308.540441
21,1.567795,0.176803,-0.012543,0.00783,17.563625,37.073135,49.821098,52.794822,27.401355,60.266281,78.246643,84.987373,18.746029,51.267105,69.60086,82.015297,9.633144,38.285122,55.667495,64.810501,2.256683,11.019733,13.18079,13.387264,-19.981964,-28.879309,-30.714445,-31.227455,-0.212965,18.346863,19.859723,19.213777,21.650979,41.607119,40.042141,35.883609,35.380763,51.510712,48.086009,44.590059,44.854339,56.909291,54.638852,50.293315,25.888802,51.501354,75.133175,94.503742,55.588291,87.208866,104.568958,116.96822,46.690258,81.62257,100.255566,111.480274,37.679283,70.12833,87.006237,97.366825,29.742039,54.318192,68.76012,79.173924,-15.007759,-18.169096,-16.008683,-13.505322,18.711708,32.650135,38.598886,41.343593,36.469731,50.04693,52.582489,50.876819,48.071473,63.474619,65.125838,61.982519,54.871342,69.57971,70.590107,66.630201,-50.808689,317.642288,-78.16198,308.573413
22,3.638546,-0.370515,0.090305,-0.035877,16.684227,34.647411,45.809108,48.095432,23.459427,55.072277,73.471973,80.929721,14.849315,46.578449,65.64561,79.205326,5.805748,33.508678,51.561733,61.556957,-1.425534,5.139312,6.551628,6.280048,-19.97548,-28.542324,-29.981628,-30.225665,0.696002,19.220817,20.875678,20.467335,22.142364,41.753011,40.569391,36.895328,35.578908,51.574809,48.6161,45.647449,44.91462,56.975525,55.828993,52.599644,25.888253,51.411965,74.964478,94.276383,55.665516,86.976082,104.240891,116.602616,46.785279,81.360604,99.95652,111.260559,37.722565,69.864144,86.692635,97.114609,29.696652,54.018082,68.363205,78.751877,-15.005177,-18.164489,-16.035853,-13.6173,18.759367,32.606515,38.536197,41.224106,36.467768,49.989317,52.614142,50.941978,48.058617,63.465468,65.142251,61.971997,54.895597,69.615673,70.66333,66.730373,-47.158167,317.292845,-78.059699,308.558608
23,0.815586,-0.20506,0.067509,-0.086636,16.731125,34.363563,45.109405,47.287605,22.664589,53.88089,72.295257,80.054855,13.886821,45.390335,64.574569,78.170242,4.853737,32.286277,50.520492,60.740661,-2.44923,4.892727,7.506191,8.229435,-20.076949,-28.582821,-29.950309,-29.773789,0.773782,19.225237,20.938144,20.612411,22.029027,41.444666,40.449484,37.084704,35.485516,51.38521,48.744404,46.104203,44.935108,57.122342,55.812887,52.409254,25.789169,51.321797,74.882961,94.150257,55.620918,86.816425,104.045529,116.40089,46.770378,81.232098,99.895603,111.287006,37.690727,69.721447,86.558819,97.043072,29.623318,53.826691,68.140171,78.521954,-14.974425,-18.057488,-15.937053,-13.556451,18.734001,32.467416,38.445769,41.173199,36.457542,49.934174,52.605966,50.905866,48.073264,63.492601,65.143807,61.888029,54.931487,69.689601,70.752943,66.774129,-46.325615,317.107647,-77.975224,308.491834
24,0.285072,-0.23086,0.057884,-0.153697,16.811485,34.284359,45.046257,47.456039,22.021339,53.265335,71.820602,79.849937,13.246513,45.025269,64.367912,78.146439,4.225342,31.811417,50.11274,60.436638,-2.939209,4.182312,6.627033,7.251286,-20.294804,-28.592392,-29.676619,-28.977493,0.890799,19.4981,21.321577,21.075625,22.125629,41.50344,40.655174,37.421268,35.543203,51.496632,48.956949,46.445239,44.95241,57.116574,56.028174,52.84993,25.666695,51.266865,74.898732,94.172047,55.542412,86.798893,104.040676,116.414646,46.671536,81.195957,99.906819,111.338871,37.56102,69.6358,86.479397,97.004002,29.453327,53.682152,68.015866,78.442623,-14.945205,-17.96212,-15.862223,-13.513571,18.840113,32.477654,38.49948,41.297181,36.568026,49.949575,52.639966,50.940447,48.157912,63.526119,65.185279,61.935799,54.987186,69.697876,70.806925,66.879451,-46.012899,316.893278,-77.889696,308.354628
25,-0.090992,0.320435,-0.188598,0.020464,17.080181,34.39389,44.988339,47.425198,22.614544,54.495953,72.493183,79.685062,13.719944,46.245724,64.575543,76.931133,4.636334,32.924526,50.246418,59.354931,-2.52071,5.743927,8.071827,8.15926,-20.550204,-29.073379,-30.337471,-29.779038,0.94798,19.770938,21.175142,20.594244,22.185577,41.60907,40.430897,37.016284,35.491099,51.606301,48.719692,45.85514,44.745163,56.885949,55.111588,51.334488,25.721855,51.418361,75.144413,94.502048,55.47488,87.027248,104.311741,116.735996,46.594162,81.483478,100.329334,111.926227,37.533165,69.834034,86.812328,97.453045,29.474247,53.869777,68.325061,78.880336,-14.931089,-17.983498,-15.907585,-13.654745,18.53099,32.117995,38.034883,40.821852,36.346033,49.595869,52.231253,50.592829,47.997818,63.264977,64.919728,61.762133,54.838281,69.45306,70.561443,66.702116,-46.064564,317.223414,-78.038967,308.384793
26,-3.123608,0.704844,-0.310982,-0.086598,18.089837,36.601284,48.037194,50.714241,26.577118,59.413216,76.474778,82.423439,17.461407,51.01664,67.772782,77.865395,8.110371,37.61467,53.774414,61.160912,0.749577,11.252484,13.736527,13.353173,-21.318095,-30.252564,-31.96147,-32.00099,-0.165627,18.643795,19.5897,18.588862,21.394492,41.070557,39.293331,35.395546,34.892848,51.197637,47.811714,44.310366,44.159732,56.315919,53.541658,48.882565,25.72055,51.52129,75.380436,94.824383,55.450825,87.349399,104.718029,117.208111,46.644459,81.909428,100.85178,112.55833,37.689228,70.290379,87.393734,98.077,29.70607,54.46233,69.021526,79.561649,-14.992,-17.995429,-15.864212,-13.808022,18.264969,31.763596,37.557699,40.347743,36.167982,49.179349,51.769618,50.261661,47.880516,62.910492,64.493081,61.415082,54.743247,69.116458,70.032661,66.114696,-49.136656,317.935344,-78.298433,308.305281
27,-3.445907,0.453865,-0.074307,-0.315026,18.923744,38.823646,51.778953,55.393043,30.329487,64.104355,80.295891,85.18174,21.302444,55.379883,70.694481,78.784836,11.911846,42.298405,57.267402,63.050651,4.647903,16.876774,19.309891,18.392143,-22.092766,-31.298196,-33.560274,-34.379233,-1.655763,16.884082,17.317434,15.963309,20.405041,40.294132,37.940935,33.730274,34.13816,50.401193,46.670134,42.820564,43.484542,55.293888,52.000751,46.950716,25.775895,51.432278,75.272576,94.771134,55.131398,87.489785,104.769059,117.230896,46.490605,82.168557,101.101433,112.917366,37.786446,70.762047,87.966065,98.785836,30.007153,55.18895,69.84478,80.445855,-15.155231,-18.252718,-16.109003,-14.225455,17.852698,31.313745,36.908616,39.712295,35.845002,48.614321,51.018943,49.580011,47.613655,62.243192,63.768366,60.920671,54.459948,68.259337,69.002454,65.223205,-52.52227,318.392105,-78.312447,307.993151
28,-0.926193,-0.147917,0.200329,-0.990008,18.717189,38.876197,52.183204,56.333313,31.086879,65.436561,81.242637,85.375396,22.630291,57.041542,71.952163,79.489906,13.390709,44.899898,59.479293,64.484825,6.390918,17.435554,17.485588,14.145,-23.46013,-32.967174,-35.635421,-37.138575,-2.35043,15.760089,15.574208,14.021716,19.991696,40.084082,37.016149,32.430563,33.634709,49.789913,45.502693,41.276186,42.849587,54.066784,51.722133,47.874588,25.77919,51.430012,75.174877,94.658329,54.685021,87.407971,104.638241,117.204655,46.106289,82.081204,101.042004,113.049534,37.614247,70.875057,88.280491,99.369931,30.014077,55.68504,70.437985,81.119282,-15.531167,-18.571597,-16.372739,-14.923691,16.949155,30.688683,36.262004,39.245536,34.998837,47.811171,50.349211,49.220031,46.87722,61.243837,62.956472,60.548218,53.798886,67.103556,67.803015,64.351599,-53.364635,318.249483,-78.02829,307.008438
29,-0.083577,-2.354012,0.115551,-2.643127,19.236031,39.379601,52.272732,56.125225,32.376549,66.98235,81.454686,84.52319,23.67247,59.407116,73.185002,79.32581,14.187848,47.476422,61.197064,64.952694,6.918332,20.1904,20.702889,17.26339,-23.595129,-33.329995,-36.433225,-38.493552,-2.569583,16.17247,15.72641,13.813926,19.791489,40.866843,37.450748,32.342396,33.399464,50.579701,45.886311,40.832942,42.606636,55.188344,52.393854,47.611569,26.089028,51.47572,74.831177,94.405197,53.34993,86.379868,103.720368,116.604882,44.832688,81.178093,100.670677,113.553978,36.636692,70.108704,88.205246,100.046929,29.333382,55.291168,70.276039,81.446297,-15.910908,-18.773076,-16.389622,-15.605848,15.382978,29.756622,35.644338,39.19821,33.397982,47.100781,50.457324,50.326795,45.449217,60.333771,62.88778,61.447736,52.632618,66.272098,67.757838,65.162678,-53.319975,315.909405,-77.784502,304.379245
30,16.232895,-7.383546,0.675076,-5.018283,12.24654,24.448975,31.087303,30.223629,13.287003,42.383366,58.341214,64.448101,6.473774,37.930332,53.746182,63.221043,0.129605,30.343094,46.329724,53.562023,-3.859634,8.525872,11.805588,11.989781,-13.094644,-17.226574,-17.278556,-16.953106,5.268175,24.091985,25.465215,24.939831,21.251997,42.32272,41.897371,38.787299,29.937081,47.563057,46.051284,43.333364,35.296091,48.698116,48.64553,46.59838,26.21125,51.432804,74.077595,93.263271,51.604992,84.161442,101.554699,114.911625,43.120949,78.853557,98.784817,112.681972,34.889911,67.861164,86.370701,99.083278,27.368614,52.90226,67.719795,79.02071,-16.392289,-18.830455,-15.982711,-15.632451,12.935649,28.198288,35.10296,39.930224,30.661228,45.88993,51.005173,52.703346,43.080051,59.105876,63.248662,63.521018,50.94635,65.558547,68.406748,67.164947,-36.876526,308.568436,-76.898872,299.403539
31,17.648712,-6.824149,0.718517,-7.814663,5.350869,9.616494,10.577912,6.552201,-5.985855,15.645699,31.957375,40.877209,-10.711349,14.080113,31.354168,44.389813,-14.07518,10.529984,27.353772,37.830975,-15.050182,-6.024204,-0.970573,2.360482,-1.970221,-0.374665,2.163895,4.468136,12.97123,30.225876,33.280162,34.209259,21.535567,40.805154,43.668138,43.097514,24.507293,41.005003,42.84456,42.556383,25.383803,38.113947,41.230169,42.152017,26.333462,51.294972,73.001381,91.808212,49.117401,80.788948,97.957947,111.479027,40.279987,74.891899,95.071335,109.784226,31.904766,63.778999,82.624741,96.086952,24.387028,49.149674,63.950512,75.546272,-16.756691,-18.397325,-14.6429,-14.056876,10.294769,26.80799,34.937901,41.156748,27.563297,44.595974,51.525482,55.262963,40.179462,57.61679,63.573469,65.893531,48.72336,64.218452,68.616539,69.154583,-18.954575,301.856151,-75.907116,291.70074
32,24.520157,-12.907096,-1.617165,-12.018322,-1.688427,-5.929493,-11.875808,-20.03881,-25.318691,-18.355522,-4.163212,6.153305,-28.794925,-18.916431,-2.390075,12.289616,-30.105377,-19.016006,-2.804271,9.642826,-29.154819,-28.046837,-21.223777,-14.621223,9.55705,18.20107,24.858975,28.903898,27.457864,39.092494,40.860519,42.094984,28.781842,40.672205,43.275615,43.809163,25.285151,35.096711,37.211292,38.585498,20.296311,28.309415,32.079179,35.063255,28.469731,53.991108,75.295716,92.691628,53.937275,84.907586,98.913575,108.680718,44.656609,78.01529,94.295243,104.619599,35.138363,65.533242,80.900483,90.64024,26.075284,50.282319,63.21785,72.155903,-16.647714,-17.40691,-12.957571,-11.104268,11.05136,31.52666,41.316126,47.908081,27.722081,49.617123,58.361265,62.286702,40.154564,61.177244,68.989919,71.950542,48.575159,66.36108,72.246314,73.573899,5.902502,289.071382,-77.187361,279.804745
33,23.654732,-16.492238,-1.685577,-15.799695,-11.047554,-23.111149,-33.86824,-43.559326,-42.357502,-46.385033,-36.331467,-26.651962,-42.154255,-42.901096,-29.130958,-15.18314,-38.891407,-37.680405,-24.584003,-12.855274,-33.673416,-35.984699,-28.628288,-20.601116,15.640478,28.800515,38.609741,45.322456,35.000751,49.52346,54.230854,56.071362,33.318213,48.490721,52.897589,52.941221,28.346613,41.316694,45.260149,46.384538,22.175079,33.388028,38.261,40.933162,29.637611,55.26162,75.579346,92.099442,58.598831,87.244286,98.362839,104.841911,49.101105,79.652824,92.031693,98.45462,38.061768,65.59512,77.582955,84.12545,26.600819,48.904369,59.666702,66.071297,-16.596967,-16.37127,-11.125066,-8.446592,11.993795,35.351345,47.414103,54.932573,28.091275,53.41786,64.488956,69.779929,40.359328,63.789843,73.530834,77.933293,48.889937,68.012126,74.682961,76.730802,29.882389,272.787966,-78.547783,264.213872
34,28.134647,-22.437667,-2.142025,-17.325894,-21.419471,-41.019813,-55.491474,-66.386867,-60.800926,-75.069728,-68.688983,-60.396297,-55.702583,-67.257705,-55.410129,-41.822158,-46.998127,-55.900623,-45.425148,-34.022392,-36.893222,-45.093772,-39.131767,-31.157135,20.549981,38.94228,53.312428,63.386823,41.263231,57.965927,66.27179,71.080702,37.159978,55.461651,61.828526,62.338251,31.148069,47.198792,53.133216,54.514647,24.310532,37.568407,44.922461,49.347002,30.082214,55.868557,75.441845,91.010044,63.13765,88.327137,95.370129,97.958004,53.647362,79.862652,86.956764,88.586598,41.679165,64.9338,71.616509,73.638176,28.729214,47.55217,54.500187,57.147823,-16.496561,-15.476641,-9.231933,-5.558735,13.148972,37.669061,49.57906,55.920642,28.70831,54.878789,64.749778,68.64492,40.696906,64.206757,71.690154,74.295391,49.235987,67.835026,71.994027,72.462972,58.279077,251.071692,-80.427767,247.609371
35,13.990151,-24.896852,-2.414097,-19.552218,-24.479073,-43.646187,-55.799515,-63.384922,-59.522724,-78.725498,-77.605694,-73.279736,-51.544121,-68.568901,-60.267735,-50.266983,-40.760811,-55.194946,-48.761192,-40.896286,-29.207588,-41.169022,-38.195961,-33.013229,15.729176,34.419717,50.633238,62.139872,39.187132,58.822207,69.290347,75.396919,38.763031,62.182158,67.537006,65.791964,36.751906,57.492029,61.967341,60.383282,33.499141,50.346716,57.290377,59.560347,30.424782,55.85764,74.869675,89.633377,65.084313,89.029564,92.068474,90.458794,55.206597,79.026421,80.77866,77.131302,42.530422,62.846215,64.830963,62.286713,28.844536,45.038189,48.84121,48.225861,-14.925593,-12.804738,-5.652608,-0.95497,14.244066,39.020172,49.342902,53.81804,29.1087,55.639702,62.641582,64.184465,40.589781,64.751482,68.553405,68.410478,49.008103,67.460473,68.480281,66.81623,72.402701,227.548542,-82.708391,229.430855
36,15.251358,-28.880396,-8.836155,-19.953917,-27.762177,-48.35479,-60.504913,-66.383881,-59.005005,-80.892975,-81.176674,-78.385861,-47.767754,-68.113953,-61.870251,-54.45044,-34.495102,-52.476242,-48.298256,-42.968628,-21.375733,-35.433575,-34.626618,-31.839523,10.880003,29.86555,48.939461,62.57804,38.16872,62.946011,72.626425,76.576426,40.854554,70.016927,73.115192,68.453678,42.36881,68.604423,70.812976,66.439392,42.585109,63.847246,69.443068,69.380811,31.604851,58.196389,78.172955,92.569187,67.175572,90.963284,92.87257,89.643322,57.110951,80.95467,78.686074,70.784764,44.199841,64.63741,62.734944,56.215142,30.232235,46.25124,47.032345,43.252568,-14.854988,-12.622723,-4.704677,1.039482,8.588951,32.893321,43.0802,46.731366,22.359824,48.824828,55.186948,54.929474,33.961776,57.642157,60.208862,58.329402,43.345553,60.670274,60.185286,56.955258,87.710123,200.461879,-91.488482,211.270671
37,9.231033,-31.901152,-5.822799,-17.001852,-31.10083,-51.917679,-62.197769,-65.679336,-58.084419,-74.398567,-75.072635,-73.594093,-42.95208,-57.141174,-51.627823,-46.421997,-26.368171,-39.203132,-35.851913,-32.368629,-10.563789,-20.937515,-21.279258,-20.108642,5.935252,24.073003,44.31338,60.64934,29.45344,64.596315,78.607064,82.781157,35.740416,77.408674,81.869141,75.276271,42.226673,80.296753,82.822876,75.60629,47.834907,78.742347,84.360547,81.449843,31.7131,58.084304,77.324833,91.625702,62.12202,81.421783,84.578064,83.634876,51.045238,70.199878,68.919193,63.581142,37.985115,54.461654,53.10886,48.249012,24.385849,37.484069,37.620243,34.340492,-13.343017,-11.70794,-3.501767,1.994291,-0.154561,18.685106,27.92818,32.178115,11.73143,32.909536,38.176575,38.87181,22.917986,42.843498,43.874384,42.180422,33.190439,47.795634,46.375016,43.208406,96.899317,170.535551,-97.35312,196.243643
38,9.426682,-31.313492,-4.217331,-14.415621,-31.213944,-53.135239,-63.919579,-67.0868,-57.577034,-72.677284,-70.41259,-67.730599,-41.295845,-54.156967,-47.413994,-42.360169,-23.988693,-36.127831,-31.416229,-27.488182,-7.989006,-18.149483,-17.328575,-15.268936,7.347144,27.238384,50.184146,67.922643,28.439498,65.280677,76.925174,79.323597,33.386268,76.109328,78.970385,71.841497,39.189238,79.035371,79.610663,71.327598,44.909099,76.966473,80.493162,76.099707,32.186908,57.87434,76.075504,88.331703,56.854511,73.078525,76.697376,77.009468,44.309051,58.913933,57.801899,53.970222,30.889526,43.171509,41.718029,37.761074,18.125393,27.296882,26.661998,23.928737,-10.899121,-9.784032,-1.633694,4.249774,-7.424475,5.842922,12.916407,17.037655,2.258126,17.206394,20.495566,21.077947,12.468087,27.429829,26.266723,23.762744,22.743022,33.793678,31.209806,27.633951,106.09738,141.449958,-101.79907,184.055921
39,3.938003,-26.311301,-2.294895,-13.151418,-30.467079,-53.393943,-65.142128,-67.739364,-55.194877,-69.617065,-63.981834,-59.087288,-38.181083,-50.718544,-42.892112,-37.463951,-20.509735,-32.343017,-26.132492,-21.487335,-4.343147,-13.968155,-11.944793,-8.968483,8.942509,29.307363,52.832251,70.734763,28.583111,66.153649,73.11594,71.07746,31.251056,73.872956,73.809878,65.349133,35.382455,75.191624,72.796258,63.429665,40.191707,72.238293,72.775979,66.424968,31.775356,56.176517,72.580123,80.960929,51.185611,65.769779,70.189064,71.696056,37.258152,49.60865,49.280433,46.949821,23.23645,33.444969,33.515167,31.33263,10.612484,18.408634,18.951484,17.575538,-7.624879,-6.219193,2.243207,8.964394,-14.151292,-3.865563,3.714905,9.208715,-7.182882,4.921866,9.278765,10.877792,1.53393,14.375953,15.09663,14.022259,11.221371,20.345699,19.593048,17.387224,110.03401,117.451167,-104.095338,173.217013
40,0.438835,-22.56646,-10.279507,-5.516819,-28.978477,-52.0456,-64.195358,-65.768028,-51.0764,-63.578567,-55.633941,-49.633621,-33.446685,-44.808311,-36.911247,-31.582832,-15.539772,-26.420585,-20.043182,-15.426864,0.48523,-8.376594,-6.237899,-3.274887,9.903321,30.199058,53.82865,71.641754,28.73566,67.026781,69.209288,63.017698,29.160558,70.828248,67.845987,58.453008,31.473673,70.370301,65.277003,55.202096,35.143753,66.420485,64.502109,57.074325,31.164574,55.047294,70.703853,78.066833,50.870178,65.131519,71.386013,73.936615,38.155186,51.357273,53.618809,52.800602,25.4328,36.676071,39.249721,38.29097,13.736812,22.823707,25.394668,25.161117,-8.619802,-10.394163,-4.416994,1.527397,-25.103654,-20.012864,-9.784803,-2.021684,-20.501507,-14.247351,-5.792621,-0.964788,-13.35515,-6.845737,-1.126241,1.955685,-4.438428,-0.163947,2.616229,3.788277,110.730405,97.018224,-114.117285,169.833711
41,-0.109657,-22.081101,-4.820183,-1.927243,-28.011909,-49.679306,-60.337395,-60.888336,-47.873268,-58.540443,-51.747871,-46.857811,-30.130783,-39.993164,-33.014122,-28.628998,-12.053924,-21.482941,-15.884399,-12.13575,4.383362,-3.79953,-2.164329,0.509102,10.834641,31.428805,55.097546,73.101811,28.174348,67.354422,69.980013,64.066194,27.946118,70.241847,66.482321,56.838889,29.615584,68.970567,62.420077,51.631891,32.911407,64.482899,60.924889,52.428632,26.058998,47.038788,61.068718,67.687431,47.695461,61.645638,67.811291,69.597118,38.707352,51.421314,54.933357,54.734871,28.985138,39.496731,43.127255,42.637001,19.316265,27.909531,31.789146,32.312634,-9.544736,-14.508531,-11.498365,-6.723286,-30.532244,-29.898981,-19.268981,-10.594814,-26.745603,-25.1076,-15.281782,-8.429474,-20.652925,-18.148594,-10.472462,-5.313894,-12.945189,-11.358025,-7.028975,-4.015407,111.059063,77.018522,-118.499153,169.987867
42,-1.839271,-14.476168,-6.257435,-0.932023,-26.302094,-46.270592,-55.761956,-55.36821,-43.479378,-52.698647,-46.062767,-41.529717,-25.71016,-34.051049,-27.370285,-23.085503,-7.58915,-15.220551,-10.406525,-7.2976,8.947723,2.119239,3.169235,5.205276,11.64028,32.489035,56.752254,74.991325,28.4574,67.223969,69.835246,64.405421,27.162957,69.185032,64.509291,54.49435,27.726238,67.198966,59.598633,48.490345,30.168232,61.663097,56.993062,48.05929,19.78212,38.778351,52.81802,59.119583,43.19458,61.980641,67.373818,67.371037,38.653771,56.765579,59.107899,56.509735,32.905621,47.835148,50.230637,47.6693,26.428082,37.098496,40.458332,39.965138,-12.184604,-19.720581,-18.66263,-13.997059,-36.939257,-36.58799,-24.825555,-16.197417,-32.492264,-31.602194,-19.85198,-12.493381,-26.094946,-24.715528,-15.125072,-9.44538,-18.556166,-18.001925,-12.693254,-9.222486,109.77752,64.833276,-124.19886,171.346766
43,-0.625832,-12.133628,-2.219101,-4.496282,-25.020699,-43.042809,-50.876129,-50.111343,-40.71801,-47.571075,-42.715851,-39.339661,-23.300148,-29.612686,-24.049461,-20.47023,-5.241714,-11.050095,-7.307167,-4.844765,11.616577,5.799522,6.068413,7.655045,11.928209,33.52449,58.1658,77.007055,28.399107,66.900396,72.29561,69.680585,27.068589,69.511389,64.627789,54.463073,27.349245,67.198552,59.175117,47.861898,29.501636,61.542084,56.426631,47.171732,17.948983,34.165638,45.254837,48.340851,35.78682,52.736813,55.638233,53.51183,31.092339,48.633591,49.79591,45.960263,26.031407,41.111607,42.957482,39.529518,20.697304,30.985451,34.105133,33.100262,-12.823431,-20.947457,-20.138001,-14.543389,-36.311182,-37.616369,-27.420641,-20.370659,-30.610569,-31.906864,-21.947258,-16.154791,-23.464861,-24.290772,-15.84113,-11.068478,-15.69916,-16.223254,-11.542461,-8.5458,109.91221,55.076909,-125.657439,169.227745
44,0.435356,-9.852266,-7.570839,-3.816682,-24.308189,-40.435753,-46.558456,-45.92704,-39.488365,-43.75003,-40.501945,-38.048218,-22.354523,-26.195068,-21.81356,-19.235527,-4.288994,-7.952843,-5.325714,-3.717728,12.863823,7.89386,7.364708,8.26751,12.247867,34.936364,60.148001,79.696996,28.785757,67.238788,77.153694,78.472368,27.983471,70.90672,67.15855,57.248523,28.505435,69.080519,61.533118,50.066499,30.691486,63.716952,58.754418,49.262959,16.055947,30.438904,39.173127,40.755467,31.022141,45.582322,46.94299,43.618332,26.232067,41.862992,42.039425,37.480477,21.66544,35.120751,36.08899,32.073544,17.134278,25.683049,28.16145,27.011959,-14.97019,-24.977585,-25.219023,-19.105226,-37.326037,-41.35188,-32.160368,-25.608341,-30.281704,-35.087832,-26.038198,-19.672786,-22.323849,-26.721923,-19.000886,-13.294771,-14.09836,-17.104444,-12.992367,-9.408114,110.825844,47.290621,-132.75,167.477041
45,1.708946,-7.091053,-2.530185,-6.094235,-24.139778,-38.91085,-43.642364,-43.174598,-39.444534,-42.054702,-39.951873,-37.969528,-22.476219,-24.733039,-21.262298,-19.531631,-4.364021,-6.783004,-4.947715,-3.93798,13.124451,8.503441,7.442734,8.029358,12.587599,36.473893,62.357165,82.437127,29.857108,68.103609,82.454596,87.769115,29.877313,73.173435,70.480667,60.706984,30.78413,71.705881,64.673139,53.150253,32.927505,66.591175,61.718604,52.023055,14.688114,27.299114,33.257286,31.574272,25.628013,33.808708,31.513126,26.826198,17.918243,27.041805,23.807727,18.47335,11.524864,19.618641,17.662525,13.090358,6.234546,10.136478,10.601955,9.095512,-13.571345,-22.792818,-22.953962,-17.128422,-33.556995,-38.379962,-32.434762,-27.853795,-26.076415,-32.311743,-26.976451,-22.496157,-18.139863,-23.473048,-19.226769,-15.542912,-10.381708,-14.764387,-12.946702,-10.875766,112.810449,41.96085,-135.004526,163.144088
46,2.502846,-4.406083,-1.789175,-9.147659,-23.786087,-38.027458,-42.226753,-41.842872,-40.281166,-41.287971,-39.328651,-37.742454,-23.316627,-24.269577,-21.191757,-20.07605,-5.096557,-6.751213,-5.059273,-4.193779,12.468407,7.996788,6.896988,7.517922,12.911307,38.017289,64.624696,85.214648,31.80308,69.637366,86.100087,94.193874,32.329483,75.521155,72.664575,62.609631,33.45728,74.032457,66.975608,55.369531,35.420715,69.117581,64.223522,54.442689,16.18856,26.901243,29.022548,23.075758,21.790781,22.479824,15.676002,8.755262,9.779966,11.041929,4.035284,-2.659779,0.206028,1.295974,-3.507672,-8.935284,-7.066132,-8.679102,-10.428212,-12.683298,-9.928287,-17.024302,-15.962553,-10.010668,-26.69349,-31.564983,-28.271911,-25.695715,-19.740699,-27.312492,-25.304183,-22.732569,-12.63541,-19.241478,-18.093155,-16.118093,-5.860077,-11.413431,-11.446918,-10.669481,115.330467,38.924104,-136.776529,155.365766
47,2.916001,-2.693763,-1.484196,-11.370332,-23.906502,-38.061562,-41.935959,-41.657525,-40.765687,-40.333581,-38.230408,-36.886735,-23.671875,-24.068802,-21.376763,-20.563935,-5.413743,-7.075425,-5.594742,-4.634217,12.101074,7.247428,6.138931,7.107284,13.292418,39.381893,66.287326,87.094553,33.953371,71.659988,88.295321,97.157493,34.841151,77.555102,74.608854,64.690806,36.11529,75.764112,68.67937,57.128782,37.870453,70.979764,65.852955,55.955599,16.98698,24.602869,21.94487,11.852903,17.482195,9.261566,-0.746773,-9.155886,2.286032,-6.08856,-15.77635,-23.170979,-9.88361,-17.359451,-23.960083,-29.650784,-18.886379,-26.433558,-29.761906,-32.507704,-5.543921,-9.606719,-6.612065,-0.752608,-17.438635,-23.245091,-22.870751,-21.975691,-11.444414,-20.893765,-22.311863,-21.509855,-5.399268,-13.84937,-15.674317,-15.048397,0.384902,-6.31389,-8.144889,-8.679833,118.087853,37.333438,-138.41934,145.098531
48,2.375244,-1.545885,-6.664318,-8.188327,-24.002381,-37.986489,-41.366799,-41.079369,-40.770653,-38.891396,-36.348931,-35.111252,-23.373757,-23.118782,-20.630814,-20.059937,-5.140618,-6.632813,-5.397629,-4.565461,12.153762,7.178604,5.944587,7.065353,13.670331,40.602508,67.750323,88.736664,35.907216,73.717024,89.183687,97.219639,36.911834,78.999982,75.881068,66.035502,38.250459,76.917635,69.953621,58.527213,39.838562,72.236497,67.137493,57.266054,14.603187,20.007047,15.361908,4.704614,15.461694,5.884552,-4.87167,-13.940947,1.107691,-9.780001,-22.067614,-31.610092,-10.398525,-20.572827,-29.405388,-36.687184,-18.821629,-27.656027,-32.258217,-36.072413,-3.271006,-6.009868,-2.653573,2.041746,-14.937249,-18.582984,-17.329343,-16.12043,-10.398801,-17.718565,-18.461836,-17.373862,-5.54905,-11.262121,-12.233029,-11.341241,-0.676315,-5.603872,-6.126027,-6.025152,120.14795,36.51174,-145.398805,137.634391
49,1.976875,-0.710574,-6.617512,-1.580366,-23.865463,-37.624374,-40.641037,-40.101288,-40.49691,-37.713844,-35.030182,-34.130241,-23.138947,-22.440628,-19.865089,-19.44278,-5.003677,-6.392899,-5.219856,-4.461159,12.185898,7.225067,6.067818,7.46521,13.993174,41.688234,69.39888,90.681956,37.00512,75.273067,90.152495,97.924989,38.063571,80.131255,76.080552,65.757198,39.460971,77.811848,70.516488,59.059545,41.025244,73.196209,67.81182,57.814311,12.756992,16.826746,12.083302,2.745935,15.714724,4.15963,-8.208321,-18.746241,2.322355,-10.682115,-24.653635,-35.547077,-8.868496,-21.165161,-31.747398,-40.237633,-17.433495,-27.731546,-33.939331,-39.290686,0.683379,-0.534076,2.058502,4.637067,-13.868121,-17.168226,-17.359094,-17.251142,-12.655877,-18.716846,-19.958443,-19.69183,-10.005423,-13.891583,-14.696623,-14.520276,-6.6501,-9.983415,-9.969064,-10.272326,121.925079,36.246828,-152.216063,136.499687
50,1.999763,-0.640525,-4.194517,-2.953887,-23.957038,-37.525108,-40.241523,-39.854827,-40.175926,-36.710632,-34.090118,-33.510566,-22.908142,-22.139877,-19.661476,-19.277641,-4.901184,-6.469162,-5.48513,-4.740669,12.137787,7.084923,5.813096,7.336213,14.10866,42.504118,70.775673,92.376974,37.705839,76.423477,90.477593,97.504679,38.895708,80.759795,76.219077,65.721939,40.330176,78.39405,71.141452,59.821978,41.849187,73.636798,68.284557,58.415069,10.409803,12.552206,7.513035,-0.988638,13.33774,1.072145,-11.673145,-23.035435,2.124653,-12.547686,-27.637287,-39.650625,-7.640785,-21.74255,-33.363671,-42.508284,-15.299887,-26.577507,-34.015188,-40.471893,4.028977,4.598662,7.535996,9.723328,-11.739324,-13.726919,-14.36678,-14.84282,-12.927884,-16.82322,-18.121742,-18.563717,-11.711083,-13.266461,-13.586356,-13.829455,-9.312931,-10.075889,-9.359636,-9.89697,123.85378,35.951118,-156.481642,133.890615
51,1.762482,-0.85738,-4.37071,-0.661245,-24.231697,-37.620964,-40.076706,-39.828895,-39.930817,-35.970177,-33.273468,-32.687302,-22.80732,-21.895775,-19.385445,-18.910377,-4.976601,-6.545128,-5.617744,-4.821442,11.922089,7.011772,5.733215,7.339073,14.161315,42.884667,71.411678,93.127421,38.348396,77.174233,90.365109,96.618073,39.658535,81.290138,76.318662,65.715981,41.164795,79.045177,71.688246,60.432387,42.702967,74.294039,68.861448,59.069549,8.623826,9.710151,5.245777,-1.823365,11.913127,-0.582533,-13.364388,-24.929827,2.458768,-13.085667,-28.857657,-41.277896,-6.005253,-20.718327,-32.664963,-41.567889,-12.786925,-24.315337,-32.140932,-38.785429,6.528516,8.017198,9.924993,10.618215,-10.865559,-12.558027,-13.616886,-14.582285,-14.533364,-17.240048,-18.56285,-19.356988,-15.09152,-15.223443,-14.935825,-15.157861,-14.019523,-13.254994,-11.855375,-12.081085,125.719242,35.614988,-160.749372,133.75062
52,1.062126,-0.893979,-4.289692,3.849774,-24.292946,-37.458961,-39.603035,-39.350212,-39.799415,-35.753219,-33.158317,-32.537864,-22.848861,-21.965172,-19.610092,-19.125343,-5.076942,-6.564399,-5.808975,-5.006515,11.77295,7.074372,5.711952,7.319046,14.077112,43.019894,71.771862,93.473822,38.543595,77.32449,90.649086,97.404186,40.005486,81.583656,76.291899,65.529401,41.648127,79.617795,72.157524,60.957043,43.298092,75.043182,69.486491,59.641944,6.323141,6.999332,3.214576,-2.716507,12.063114,0.283556,-12.526795,-24.185641,4.81561,-10.012837,-25.934138,-38.360854,-1.846848,-15.473328,-27.680603,-36.523047,-7.217863,-17.481921,-25.542075,-32.426405,7.203751,7.766819,6.883785,4.666581,-12.556075,-15.390821,-16.967315,-18.172615,-18.36063,-21.664552,-22.999704,-23.760614,-20.606677,-21.688335,-21.117029,-20.835941,-20.761878,-20.912175,-19.360193,-18.953041,127.096859,35.312164,-164.723573,138.191549
53,0.783119,-0.945677,-4.060267,4.307913,-24.393951,-37.353767,-39.369323,-39.3582,-39.997283,-36.334968,-33.973983,-33.309883,-23.177169,-22.474273,-20.291931,-19.887336,-5.359405,-6.836929,-6.240005,-5.472885,11.510285,6.931756,5.481698,7.014542,14.070925,42.888323,71.596676,93.226598,38.30719,77.03619,91.485453,99.567464,39.970079,81.600224,76.298692,65.530723,41.748701,79.901261,72.421205,61.344397,43.47376,75.378024,69.775477,59.901729,2.691793,3.230261,0.902052,-3.034933,12.650391,1.536936,-10.52104,-21.11804,8.880152,-3.931457,-17.817678,-28.00609,4.885277,-6.656433,-17.356493,-24.472303,1.111233,-7.058464,-14.34502,-20.36832,6.077083,4.721371,1.703011,-2.066391,-15.378613,-19.476148,-21.726204,-23.293469,-21.759725,-25.425628,-26.835837,-27.591934,-24.505028,-26.979651,-26.420646,-25.862345,-25.031688,-26.691032,-25.643335,-25.277254,128.467512,35.215704,-168.196306,143.348679
54,0.239022,-1.53898,0.702198,-2.956956,-24.624436,-37.526711,-39.650254,-39.828873,-39.986801,-36.254265,-33.967598,-33.280815,-23.189965,-22.590271,-20.644821,-20.26648,-5.41198,-6.927292,-6.54364,-5.881165,11.307998,6.861351,5.306968,6.688247,14.151298,42.930806,71.558075,93.180445,38.597508,77.315628,91.533951,99.408752,40.464143,81.861175,76.748234,66.126052,42.31689,80.38077,73.137113,62.197207,43.999385,75.694964,70.193008,60.4127,-0.845816,-1.837709,-4.717466,-8.408873,9.00903,0.017149,-9.634924,-17.641462,8.573038,-1.145107,-12.285364,-19.790537,7.575508,-0.397076,-8.332277,-12.946638,6.205593,1.580704,-3.485573,-7.374641,2.710599,-0.483959,-3.779523,-6.922246,-14.851171,-17.886544,-19.106788,-20.104603,-18.0943,-20.834947,-21.941863,-22.464401,-18.805014,-20.859005,-20.490142,-20.104816,-18.071984,-19.641438,-18.888,-18.676295,129.370835,34.725542,-166.829807,141.440541
55,-0.544853,-1.267489,4.698509,0.049086,-24.811821,-37.809815,-39.971764,-39.98893,-40.239739,-36.475502,-34.132279,-33.497658,-23.453614,-22.821236,-20.823922,-20.487923,-5.734475,-7.135209,-6.743912,-6.191689,10.826454,6.48246,5.031372,6.359184,14.11649,42.71029,71.397166,93.159296,38.899641,77.647611,91.444981,99.11151,40.872665,82.007665,76.692011,66.074132,42.877664,80.626852,73.44983,62.589921,44.68253,76.083584,70.634233,60.803068,-1.396288,-1.503421,-3.473316,-6.190967,10.271639,4.33671,-3.057758,-8.98265,11.378786,5.791729,-2.523771,-8.054809,11.538289,7.57021,2.037638,-1.19375,10.927712,9.477488,6.311892,3.730328,-0.121075,-4.876616,-8.57268,-11.455063,-17.326657,-20.785899,-20.541278,-20.137088,-18.850845,-22.260765,-22.11504,-21.278393,-18.136415,-21.267136,-20.218237,-18.785405,-16.184123,-18.684882,-17.780862,-16.971422,129.583306,34.509354,-161.373974,142.540928
56,-1.522088,-1.089975,8.694821,3.055126,-25.257637,-38.641387,-41.083465,-41.139129,-40.778594,-37.45848,-35.281745,-34.906333,-24.013801,-23.704856,-21.627502,-21.356231,-6.42144,-7.988662,-7.491302,-7.006073,9.820519,5.528527,4.235619,5.459565,13.998299,42.234015,70.89595,92.777419,38.978403,77.964859,91.121723,98.392303,41.046906,82.119273,76.491896,65.79465,43.215939,80.817469,73.748455,62.964252,45.186722,76.510014,71.207296,61.295595,1.040376,4.233124,4.634502,3.618782,16.438219,14.495619,9.210457,4.858394,17.297395,16.879051,11.4671,7.201091,16.773617,17.245422,13.753252,10.786359,15.277588,16.631887,15.047373,12.946586,-2.417936,-8.456595,-12.676458,-15.664842,-22.805066,-28.174212,-26.029673,-23.39092,-24.029358,-29.703078,-27.355365,-24.033906,-22.499229,-28.204041,-25.604929,-21.904109,-19.368103,-23.821361,-22.321919,-20.162634,128.848972,34.240406,-151.891399,146.417081
57,-3.031242,-1.002265,16.684639,-2.038542,-25.575714,-39.45314,-42.288116,-42.560097,-41.472038,-38.658188,-36.741943,-36.904106,-24.749817,-24.58976,-22.247314,-22.063408,-7.336784,-8.938911,-8.274925,-7.926338,8.565399,4.419113,3.324486,4.402268,14.182143,42.226043,70.899952,92.950598,39.519862,78.652148,90.990652,97.504919,41.602203,82.408543,76.422476,65.597555,43.852728,81.019381,73.947878,63.155042,45.824406,76.900548,71.800143,61.824173,5.062635,11.727402,14.318767,14.936783,23.316332,25.582899,23.125843,20.937103,22.511263,27.215503,25.275179,22.930347,19.993519,24.712528,24.312757,22.857759,16.309524,19.835836,20.71377,20.256805,-2.651322,-7.879424,-10.71673,-11.841377,-24.143586,-30.209923,-26.311028,-21.823758,-25.531523,-31.897927,-27.531843,-22.086112,-23.738339,-29.739942,-25.291778,-19.76096,-20.022591,-24.507103,-21.860993,-18.328666,126.608969,33.901412,-134.415521,145.04181
58,-4.522751,-0.711161,23.696646,-3.486718,-26.566887,-40.932907,-44.133201,-44.744247,-42.712898,-41.100631,-39.553413,-39.762474,-26.036293,-26.731636,-24.317024,-23.940147,-8.764137,-10.899879,-10.172607,-9.705505,7.00232,2.666817,1.519982,2.40223,14.513724,42.298353,70.689025,92.449308,40.127844,78.325951,90.83217,97.815839,42.391398,82.187174,76.350562,65.730473,44.873407,81.258472,74.417428,63.702639,46.962293,77.658837,72.829541,62.808289,9.995584,20.236066,24.62903,26.209276,31.285577,37.982076,37.843225,36.863227,28.483148,38.095516,38.586999,36.937717,23.709011,32.396713,33.979065,32.949205,17.6187,23.130157,25.651943,26.005067,-0.61656,-3.650175,-4.531554,-3.901688,-22.610367,-29.212163,-24.35862,-18.802195,-25.543231,-32.374642,-26.572969,-19.822401,-24.777717,-30.911781,-24.904263,-17.984959,-21.633661,-26.074535,-22.254914,-17.483604,122.771427,33.56327,-110.033666,141.928111
59,-6.148452,0.417414,30.708652,-4.934896,-27.609833,-42.601456,-46.219803,-46.795693,-44.479432,-43.590386,-42.107827,-42.04802,-27.98172,-28.903222,-26.574463,-26.246384,-10.876305,-13.139512,-12.356667,-11.802178,4.760925,0.443206,-0.555497,0.19654,14.300346,41.229694,68.743689,89.80208,41.010227,78.046976,91.234344,99.366077,43.612809,81.818086,76.130916,65.854036,46.3676,81.239614,74.609015,64.216748,48.562976,78.430878,73.677134,63.652059,15.839224,29.759119,35.565291,37.436262,40.345957,51.693152,53.362604,52.636768,35.213053,49.519089,51.402563,49.223202,27.920094,40.297978,42.752175,41.060698,19.205115,26.514851,29.861893,30.191374,3.686352,4.231154,5.879072,8.154229,-18.205407,-25.180928,-20.172448,-14.326228,-24.064481,-31.133223,-24.47874,-17.242771,-25.617362,-31.719556,-24.442381,-16.576104,-24.201311,-28.523654,-23.503679,-17.627445,117.093613,34.103246,-78.854376,137.115777
60,-6.568932,1.072537,29.184935,-6.681178,-27.716469,-43.022026,-47.227364,-48.54522,-45.259964,-44.012077,-42.071388,-41.440086,-28.865913,-28.759163,-26.463547,-26.654892,-11.709595,-13.082611,-12.183586,-11.909523,4.127861,0.488823,-0.391731,-0.143417,14.158177,40.64057,67.024805,87.220042,42.483437,78.618056,92.907336,102.462539,45.050964,82.809778,77.211449,67.071278,47.383999,81.750716,74.835089,64.488697,48.912964,78.724933,73.796139,63.85197,18.605072,33.77481,39.515327,39.773872,41.221366,55.190208,58.460449,58.091125,34.749687,51.678062,54.488594,52.133606,26.328598,41.111755,43.683906,41.411407,16.886924,26.077125,29.511772,29.379135,7.690798,12.265762,17.034512,21.477182,-10.423068,-15.700833,-10.455462,-4.647318,-19.142152,-24.376444,-17.306553,-10.411922,-23.560005,-27.562259,-19.984706,-12.754974,-24.713416,-27.547878,-21.996269,-16.174545,110.724587,35.246842,-49.469535,130.505658
61,-4.192932,1.939685,23.549148,-9.546317,-27.35202,-42.619171,-46.569191,-47.176644,-45.938507,-44.56128,-42.248268,-41.145951,-29.485337,-28.652687,-26.138512,-26.464829,-12.137055,-13.022667,-11.898285,-11.649239,4.136467,0.668083,-0.084572,0.072281,14.235119,40.844366,66.861037,86.645999,42.980708,78.584476,94.298709,105.027485,45.498377,82.999964,77.647432,67.695291,47.596248,81.5744,74.514482,64.178099,48.79178,78.466063,73.421783,63.538241,18.562111,33.308899,37.569649,35.655213,40.12682,55.986592,60.404515,60.456173,33.868984,52.28809,54.40155,51.526085,25.515976,41.944371,43.693611,40.841263,16.259835,27.579815,30.294582,29.539902,11.271975,19.674774,27.899385,35.358885,-0.165485,-1.815222,3.693298,9.164508,-9.818581,-10.784611,-4.19441,0.819922,-15.907178,-15.37589,-8.332552,-3.440801,-19.206694,-18.621208,-12.960906,-8.674118,106.426037,37.461628,-26.026005,121.234442
62,-0.918572,1.762857,12.790936,-5.747218,-27.160377,-42.070335,-45.357696,-45.015175,-45.767852,-43.311401,-39.760986,-38.103309,-29.259613,-27.844757,-25.159492,-25.390365,-11.750724,-12.6809,-11.288292,-10.670334,5.037827,1.224243,0.666184,1.078331,14.483769,41.334232,67.417501,86.938016,43.476452,79.022305,92.280304,100.682713,45.880464,83.12767,77.467954,67.590593,47.623727,81.666427,74.117359,63.625859,48.491814,77.810027,72.340281,62.637401,17.791309,31.503074,34.101997,30.2868,37.553718,51.76691,55.618992,55.342495,31.36084,47.431614,47.894367,44.049865,22.930672,37.721802,38.211994,34.850628,13.844303,24.968254,26.5653,25.125599,14.088109,25.098648,35.419668,44.54369,6.407482,8.197136,14.082196,19.270807,-4.599727,-1.22089,5.210246,8.805751,-12.192485,-7.376799,-0.483646,2.666718,-17.081961,-13.20363,-7.306402,-4.279244,105.04941,39.600122,-13.693124,115.862861
63,2.480599,0.906805,2.032722,-1.948119,-26.047394,-40.59034,-42.910149,-40.944077,-43.820984,-40.052513,-35.903206,-34.229691,-27.231148,-24.895294,-22.312958,-22.578461,-9.701752,-10.224381,-8.785103,-7.976326,7.230789,3.482139,3.14122,3.788086,14.635589,41.773777,67.930844,87.258371,43.600607,80.10122,91.767405,97.887124,45.556045,83.752368,77.461977,67.133516,46.61496,81.405426,73.295405,62.52512,46.829543,76.184225,70.429235,60.937684,16.292668,28.357338,29.112374,23.668636,33.502064,42.531166,44.103882,42.750092,27.225254,37.108635,34.967045,29.704949,18.572686,28.44405,27.239056,23.439503,9.640331,18.242443,18.323925,16.136227,16.139199,28.537385,39.595359,49.0316,9.295833,14.336241,20.711231,25.671579,-3.485588,4.314718,10.907414,13.545565,-12.415927,-3.564987,3.562011,5.567584,-18.339218,-11.295144,-5.032757,-2.989924,106.503823,40.752095,-12.686588,114.15991
64,6.971672,-0.207994,-8.72549,1.850981,-24.954964,-39.047562,-40.131867,-36.716629,-41.00148,-37.268463,-33.585961,-32.591171,-24.123322,-22.234337,-20.12455,-20.228668,-6.591797,-7.694916,-6.757553,-5.682221,10.327308,5.96672,5.275795,6.170723,14.722218,42.477874,69.092907,88.279593,42.468821,79.934352,90.918688,95.732504,43.959779,83.949642,77.227041,66.364588,44.534502,80.729018,72.163248,60.842928,44.4101,74.202938,68.284223,58.759191,14.066185,23.871688,22.600776,15.80072,27.971855,28.279358,25.859184,22.678962,21.462227,21.319153,15.619583,8.491333,12.442016,14.111114,10.774795,6.607887,3.647918,7.402382,5.570457,2.571785,17.425244,29.990983,40.426457,48.822612,8.499568,16.602092,23.580402,28.366824,-6.476167,5.822212,12.897092,15.039363,-16.577503,-3.940454,3.804418,5.261796,-22.978464,-12.895752,-6.139973,-4.806158,112.469868,40.815142,-22.417705,116.281932
65,9.892776,-1.555196,-13.271708,0.25917,-24.442222,-38.096695,-37.933937,-32.699775,-39.012085,-36.665954,-34.103874,-34.108955,-22.049148,-21.702278,-20.017387,-19.489174,-4.67015,-7.098312,-6.619217,-4.949661,12.047036,6.590653,5.512345,6.972084,14.560963,42.427497,69.641781,88.756843,40.481242,78.313725,89.000992,93.140968,41.960331,82.331361,75.472798,64.483139,42.742523,79.243859,70.600802,59.038865,43.046082,72.725207,66.846648,57.201895,11.020981,17.766249,14.223604,7.339537,23.442404,15.0565,9.062428,4.702847,17.410607,7.295099,-1.403435,-9.342939,8.558699,1.612158,-3.091392,-6.712503,-0.254316,-2.610918,-5.534986,-8.086561,19.19954,31.699382,41.417585,48.476756,10.070834,20.165946,26.868089,31.019717,-5.434095,9.349957,16.046699,17.577418,-15.848355,-1.345341,6.264286,7.387439,-22.359327,-10.74594,-3.957655,-3.036688,121.228763,39.440723,-36.823294,116.721879
66,9.825234,-3.421572,-13.705856,-0.213786,-24.564423,-37.852181,-37.508904,-32.712754,-36.232132,-34.860192,-33.803673,-34.715996,-19.427925,-20.836418,-20.423401,-19.515267,-2.46238,-6.234856,-7.008843,-5.079071,13.704986,7.445709,5.514107,7.137474,14.657843,42.574,69.853857,88.712229,39.453931,76.91128,87.908109,92.452741,41.130405,81.574752,74.911147,63.835087,42.033314,78.75579,70.360154,58.718497,42.515288,72.1167,66.624125,57.014161,6.888073,9.01526,2.890348,-4.14802,13.698698,-4.650753,-13.554142,-18.408131,8.29446,-12.679178,-22.658467,-29.655024,0.34128,-16.159144,-21.278858,-23.361597,-7.662077,-17.56029,-20.685408,-21.810362,21.586891,34.441459,43.604124,48.702324,14.91177,26.07115,31.673333,34.700289,-1.317035,13.578261,19.494237,21.009957,-12.926949,1.156353,7.74293,8.86375,-20.445089,-9.371703,-3.257579,-2.132298,129.897572,36.01067,-51.685575,116.499612
67,8.424339,-3.671433,-12.275448,-2.656958,-24.406403,-37.53772,-37.105202,-32.730652,-34.219414,-34.539551,-35.596321,-37.245346,-17.542145,-20.643883,-21.586029,-20.714744,-0.891884,-5.843376,-7.676193,-5.800072,14.591972,7.637535,5.029495,6.734528,13.795913,41.378087,67.968389,86.250296,38.274869,74.991417,89.735094,97.894163,40.339315,80.507754,74.417849,63.412048,41.631844,78.035762,70.193453,58.869052,42.506347,72.1384,66.998994,57.350912,3.669952,2.081346,-6.018545,-13.407698,6.296446,-16.881329,-27.684822,-33.256622,1.266041,-25.649542,-37.471596,-44.530264,-6.170946,-28.47611,-35.782124,-38.473581,-13.836287,-29.224928,-34.120115,-35.689596,23.754152,37.384825,46.636959,50.726612,20.905229,33.745912,38.762089,41.209472,4.982039,20.353444,25.763697,27.466636,-7.123344,6.984214,12.735657,14.101144,-15.313961,-4.299869,1.430499,3.039329,137.235517,32.104891,-65.047417,113.608308
68,6.295487,-2.896755,-6.988987,-3.673781,-24.534119,-37.64193,-37.630578,-34.202431,-34.238938,-36.202492,-38.215348,-40.245919,-17.662858,-21.997376,-23.042473,-22.197144,-1.14283,-6.932831,-8.806756,-7.029397,13.871246,6.244766,3.590126,5.53688,12.403805,39.50679,66.22297,84.539575,36.660287,73.232605,90.071671,100.800342,39.449331,79.069933,72.791775,61.837338,41.493758,77.315641,69.40035,58.350552,43.138684,72.599496,67.262526,57.403825,1.084557,-3.334551,-12.603258,-20.165217,-1.286573,-27.767006,-38.838959,-44.015465,-6.195774,-36.354658,-48.439556,-54.590544,-12.756643,-38.317389,-46.132782,-48.665216,-19.402731,-38.162676,-43.214991,-44.454729,25.383498,39.891328,49.411689,52.557075,25.398207,38.307272,43.073213,45.410268,10.172081,24.386979,29.571139,31.400372,-1.969628,11.212896,16.158956,17.260633,-10.529158,-0.262936,4.754859,6.409471,142.768536,29.095284,-72.798872,109.821675
69,4.317558,-2.005523,-6.917038,0.242753,-26.101433,-40.169014,-40.963761,-38.458878,-38.008095,-39.36818,-41.55558,-43.482285,-21.672775,-24.621849,-24.697907,-24.200272,-4.847077,-9.46257,-10.796654,-9.833931,10.642227,3.785225,1.541839,3.078277,11.595585,39.034399,67.004939,86.524442,36.020861,73.28206,89.557536,100.082307,38.222294,78.366818,71.199855,59.885506,39.891877,76.603868,67.875132,56.611487,41.495535,71.848524,66.069272,56.14968,-1.060661,-5.888746,-12.961138,-18.237162,-6.521124,-29.888947,-37.692501,-40.683414,-9.977646,-35.472445,-44.439812,-48.517061,-14.098085,-35.653879,-41.721977,-43.934343,-18.345308,-34.522482,-37.992262,-38.725416,23.653394,37.203432,45.990815,48.607229,23.858356,35.032636,39.492658,42.192609,11.437476,22.103597,27.08203,29.465466,0.886884,10.937138,15.045201,16.405229,-7.003839,1.139126,5.465199,7.236716,146.218832,26.9692,-80.583172,109.943867
70,-0.770188,-2.134397,-8.843908,6.515308,-27.043739,-41.547432,-43.229736,-41.729255,-39.994857,-40.826042,-42.437736,-44.206512,-23.572631,-26.509323,-26.281745,-25.920204,-6.788269,-11.36103,-12.491043,-11.790115,8.467598,1.857216,0.020852,1.709908,12.312563,40.344718,68.990475,89.461304,37.49903,75.432982,89.701483,98.408192,39.666834,79.771176,72.075321,60.536775,41.458294,78.425055,69.381521,57.968539,43.14006,73.726361,67.879535,58.049722,0.327518,-1.193676,-2.86274,-3.727215,-0.057942,-12.920964,-17.129746,-19.478634,-1.272904,-14.358696,-20.460915,-25.014634,-3.013699,-13.881832,-18.677502,-22.685601,-5.289105,-13.66483,-16.322674,-18.66465,16.148325,24.655112,31.255625,33.850958,7.712527,18.422747,25.253578,29.746223,-1.238528,9.004365,16.890911,21.411109,-7.420702,2.589398,9.239029,12.439861,-10.872204,-2.653385,2.918232,5.529416,144.583356,24.726817,-90.292368,116.351189
71,-4.672576,-0.700515,1.277092,3.413071,-27.842835,-42.69777,-44.816071,-44.006905,-42.352227,-42.171845,-42.35566,-43.609337,-25.671845,-27.612923,-26.371239,-26.361512,-8.720078,-12.632058,-12.982911,-12.561448,6.522171,0.499832,-0.809006,0.845512,13.030306,41.337071,70.690253,92.156049,39.670199,78.95864,88.000629,92.225314,41.652196,81.714869,73.043852,61.562925,43.417782,80.206449,70.659045,59.254559,45.095905,75.492824,69.194337,59.239553,3.713867,6.661705,9.436962,11.489765,9.590404,7.401165,6.486351,4.55582,8.9528,8.266147,5.106273,-0.104634,7.795852,7.626232,4.34114,-1.157341,5.95425,5.755367,4.059101,0.442085,9.445514,14.012347,19.495235,23.431414,-7.093583,3.676862,12.955491,19.330769,-13.116198,-1.717269,9.155538,15.76713,-15.136185,-3.542823,5.988553,10.921544,-14.248961,-4.427952,2.880391,6.341588,139.123879,23.771748,-89.802177,119.509706
72,-7.051484,0.722208,10.405242,1.498143,-29.022972,-44.595085,-47.7556,-47.710189,-45.10881,-44.387237,-43.615013,-44.712753,-28.322616,-29.379295,-27.248199,-27.560669,-11.373481,-14.39138,-14.194793,-14.171928,3.863617,-1.119163,-2.341827,-1.34111,14.469424,42.837026,72.762653,95.141478,42.077811,82.469009,88.51803,89.73053,43.809935,84.207554,75.122605,63.716409,45.492288,82.283152,72.699766,61.270382,47.003308,77.236044,71.121753,61.177559,7.49239,15.01886,21.537953,25.994866,17.947014,23.254773,25.71452,25.112813,17.084015,25.983639,26.866368,22.627842,16.015755,24.514527,24.428902,19.526791,14.394173,21.316922,22.270009,19.445286,4.169462,6.077309,11.080364,16.321887,-18.116534,-8.466747,2.621039,10.644486,-22.0066,-10.611197,2.586305,11.095024,-21.111077,-8.666732,2.809755,8.770034,-17.264415,-6.350091,2.043982,5.901104,131.364521,24.325192,-80.104809,120.839085
73,-10.788185,4.018321,15.677342,-1.843133,-29.42482,-45.676185,-50.250297,-51.877212,-47.841522,-48.046806,-48.275825,-50.257553,-31.214493,-30.413795,-28.039695,-28.462578,-13.717209,-14.384605,-13.689148,-14.217087,2.785813,-0.180176,-1.242599,-1.100898,17.026935,46.233627,75.560941,98.067559,44.60186,82.240903,87.088076,87.287808,44.938399,86.330164,80.491421,71.336003,45.563258,82.979636,73.678159,62.131462,46.160113,76.74353,70.893765,61.113704,11.945149,24.176846,33.540413,39.513805,27.534107,40.771637,46.064106,46.365177,25.641861,43.532444,47.416099,43.804676,23.424671,39.761696,41.117375,35.983555,20.656448,33.577675,35.685928,33.075417,0.637993,1.488148,7.115414,14.514922,-22.703323,-13.125124,-0.688634,8.824375,-24.618691,-12.388892,2.467152,12.941874,-21.813289,-7.856986,4.786145,11.824321,-16.35535,-3.687308,5.760721,10.276683,120.14431,28.259307,-64.859493,118.911746
74,-11.362953,3.428624,16.215786,-5.790376,-28.065033,-43.420235,-48.47406,-51.075348,-45.977669,-47.238739,-47.636124,-49.951332,-29.305023,-29.093719,-27.054039,-27.650505,-11.86496,-12.732399,-11.97393,-12.297249,4.592972,1.615814,0.509903,0.626747,18.455154,47.703793,75.660328,97.383926,46.376103,82.925542,89.424279,91.300256,46.927059,87.744717,83.150437,74.551464,47.739984,84.339651,75.757011,64.438846,48.257484,78.414761,72.933764,63.09507,16.831959,32.764263,43.010799,48.553425,37.316906,55.569145,61.475784,61.239109,33.117142,55.458103,58.647972,54.199001,28.094181,47.999359,48.136414,42.084972,22.646667,37.978443,39.230781,35.962143,-1.155751,0.504347,8.318883,18.073046,-21.89723,-10.804547,3.58961,14.768099,-22.875292,-7.781781,7.924264,18.894768,-19.08269,-1.719264,11.05333,17.669207,-12.70842,2.750678,12.257852,16.515947,108.556383,31.817527,-48.868681,113.250966
75,-7.767197,4.137815,18.315491,-10.837778,-27.364242,-42.515121,-47.419395,-50.393806,-45.944732,-47.609619,-48.463966,-50.801925,-29.59243,-28.905372,-26.261901,-26.65361,-11.9263,-12.354721,-11.005645,-11.061378,5.116974,2.294632,1.176979,1.017083,17.788737,46.229742,72.897942,93.850233,45.673136,81.810823,90.895235,95.21606,46.366834,87.444227,83.710112,75.447709,47.116466,83.649887,75.655363,64.677326,47.588288,77.767203,72.456834,62.602765,19.750808,37.235012,45.69532,48.408439,40.081592,57.667099,63.78923,63.997421,32.230911,52.530945,54.50402,50.663887,23.452331,41.525219,40.834659,35.822216,14.746948,29.016163,29.942653,27.573394,0.799329,6.78847,18.592466,31.250362,-10.721072,1.48641,15.916469,27.759077,-11.130592,5.712086,18.830782,27.618879,-8.08307,11.195013,20.73661,24.718925,-3.276013,13.991489,21.498357,24.115441,100.772775,36.136783,-30.569601,102.594629
76,-4.797821,3.656433,10.41045,-7.99802,-26.667617,-41.90055,-47.088775,-50.392456,-46.456443,-48.608528,-49.904113,-52.203277,-30.477218,-29.633834,-26.520996,-26.63388,-12.609008,-12.833084,-10.900886,-10.629478,5.070671,2.067788,1.186203,0.977829,16.657384,44.359755,69.637508,89.573567,44.232728,79.3028,93.679827,102.756428,45.144454,86.202729,83.187401,74.993041,45.984575,82.594029,74.798484,63.980547,46.43447,76.940408,71.583332,61.897174,22.0153,40.9841,49.351177,50.4463,42.885918,60.458317,66.136882,66.256717,32.652881,51.444912,51.818744,48.083599,21.353862,37.665809,36.13192,31.904296,10.248729,23.335113,23.554428,21.597301,-0.018566,8.776253,23.966919,38.307682,-3.505805,11.566915,26.176186,37.775858,-2.228706,17.116364,27.156353,32.715706,1.390503,22.499832,28.499225,29.560797,6.058565,23.882357,28.232591,28.561983,96.176101,40.087083,-19.958004,94.890476
77,-2.718864,2.837117,2.516578,-4.24311,-25.883125,-40.973167,-46.182518,-49.937073,-46.859276,-48.921158,-50.146065,-51.990784,-31.084213,-29.889931,-26.474922,-26.362152,-12.89708,-12.756683,-10.31527,-9.761902,5.424408,2.338005,1.880745,1.87429,14.82326,41.778618,66.15852,85.415145,42.058798,76.323669,93.937845,106.409637,43.227696,84.380375,82.159225,74.157545,44.110332,80.868456,73.198438,62.447333,44.590775,75.522168,70.040386,60.433596,23.733559,43.748154,52.493386,52.704003,45.617592,63.841702,68.807682,68.285843,34.2449,52.296135,51.09319,46.879944,21.59111,36.824078,34.450985,30.514183,9.038304,21.662133,21.060139,18.908284,-2.283598,7.743274,25.326237,41.165521,-1.005886,16.4766,30.97585,41.702765,2.141183,23.721514,30.938229,33.035421,6.959645,29.50448,32.64238,31.032614,12.29092,30.295704,31.885196,29.881114,93.802569,43.200746,-17.096094,90.923912
78,0.787079,-0.855157,-5.074882,-0.537,-25.845062,-40.598946,-45.246025,-48.288918,-46.081375,-46.10701,-45.730133,-46.248184,-30.310089,-29.819023,-26.357025,-26.340111,-12.527161,-13.680565,-11.489617,-10.511627,5.043846,0.872658,0.338608,0.643112,12.665287,38.355175,62.452199,81.578512,40.834794,77.326891,96.239832,109.957526,43.126827,83.295563,78.939763,69.234901,44.799343,80.866623,73.529105,62.989804,45.82361,76.698915,71.356176,61.792563,24.494156,45.414848,55.229301,54.922394,48.105492,67.873134,72.454937,71.387215,36.676586,55.237289,52.308964,46.922516,23.667434,39.093418,36.259701,32.23748,10.550594,23.914718,22.545261,19.453022,-6.036139,3.953404,23.155414,39.894481,-2.726722,17.273051,32.267582,42.563114,2.55627,26.366488,30.907212,29.250275,9.184377,32.908613,33.759228,29.821133,15.978117,33.753486,32.530488,28.01837,94.907027,42.545219,-21.853597,90.586542
79,0.274681,-0.547399,-2.506245,-1.529641,-26.125557,-41.016106,-45.458382,-48.331192,-46.536827,-45.748924,-44.552078,-44.28392,-30.761078,-30.310112,-27.024536,-26.888123,-13.063866,-14.34613,-12.228378,-11.046227,4.346008,0.050079,-0.550507,-0.197708,11.496889,36.172249,59.915251,78.950415,40.122633,76.483437,95.257038,108.837164,43.12227,82.572441,78.72221,69.41357,45.270425,80.585022,73.733567,63.556321,46.589543,76.968696,71.838243,62.526658,25.352188,46.392563,56.30365,55.024475,48.972634,69.290817,73.3415,71.757019,37.194649,55.808716,52.377388,46.458458,23.755898,38.830994,36.097412,32.275315,10.11137,23.381355,21.854233,18.629425,-7.752733,2.840291,23.338828,40.45816,-2.489857,19.008358,34.15059,43.997379,3.608287,29.078282,32.676256,29.396605,10.897071,35.644147,35.744689,30.937815,18.334821,35.900862,33.338727,27.720297,95.490023,42.012294,-24.051527,89.071375
80,-0.804978,-0.544064,-0.22332,-1.996977,-26.494102,-41.375656,-46.077964,-49.095176,-46.530189,-45.200111,-43.610389,-42.849334,-30.640136,-30.077247,-27.375503,-27.638649,-12.986618,-14.202575,-12.469574,-11.5746,4.268509,0.105401,-0.583717,-0.40789,11.372801,35.768876,59.455291,78.39363,40.177689,75.865685,94.689187,108.510466,43.280036,82.057232,78.430031,69.36349,45.490176,80.212432,73.402875,63.375824,46.774152,76.928675,71.684213,62.441701,25.447792,46.170021,56.158379,54.432999,48.185326,68.246063,71.761139,69.959519,36.379669,54.463669,51.201348,45.174385,23.051033,37.037201,34.636597,30.939606,9.395588,21.754555,20.277947,17.214752,-8.474059,2.248832,22.944508,39.457173,-1.091896,21.345147,36.088262,45.104687,5.537246,31.691565,34.770107,30.756379,13.08125,37.900334,37.669474,32.582549,20.678762,37.520093,34.179248,28.055608,94.992433,41.481084,-23.967459,87.087252
81,-1.501693,-0.253727,-0.332794,-1.069023,-26.390969,-41.030136,-45.57106,-48.159691,-46.181145,-44.592911,-42.906945,-42.083954,-30.343689,-29.617493,-27.349755,-27.97284,-12.782204,-13.803589,-12.233506,-11.587647,4.333214,0.444282,-0.242913,-0.188805,11.206403,35.216927,58.773721,77.682469,40.11376,75.379333,94.256873,108.129097,43.300099,81.752847,78.647326,69.784215,45.495969,79.784138,73.241201,63.343499,46.748452,76.561372,71.435353,62.291951,24.993645,45.19178,54.86776,53.487831,47.271332,67.198654,71.307014,70.154205,35.729851,53.652008,50.911125,44.96949,22.623505,36.260033,34.173454,30.47184,9.156612,21.210754,20.139816,17.317932,-8.446574,1.53204,21.143372,37.143984,-0.206753,21.473742,35.84173,44.877976,6.563321,32.312409,35.182562,31.101657,13.952783,38.083572,37.751497,32.495333,21.143069,37.744303,34.672337,28.53936,93.751116,41.281907,-24.039877,86.072779
82,-1.715767,0.000525,-0.413464,-0.498672,-26.197907,-40.49366,-44.762329,-46.886925,-45.514778,-43.678665,-41.970886,-41.160278,-29.781532,-28.851929,-26.679451,-27.426247,-12.295578,-13.23571,-11.739624,-11.196007,4.750786,0.995979,0.300247,0.302467,11.379805,35.317327,58.653394,77.538504,40.183161,75.091354,93.863405,107.600365,43.252675,81.452468,78.444939,69.669896,45.372622,79.339449,72.85539,63.076774,46.578033,76.180928,71.008071,61.94371,24.360043,44.333393,54.176594,53.435017,46.66824,66.324933,71.277821,71.128727,35.373539,52.989613,50.394139,44.636319,22.382641,35.632016,33.764569,30.227909,9.007622,20.516911,19.728115,17.273266,-8.594256,0.420465,18.647544,33.421577,0.745235,22.065312,36.482261,45.987131,7.545814,32.961116,35.603287,31.450559,14.669811,38.054148,37.553112,32.093288,21.437576,37.766589,34.874854,28.809192,92.272328,41.349743,-24.216362,85.641418
83,-1.358734,0.426165,-0.652187,-0.232237,-26.062729,-40.411766,-44.835778,-47.016518,-44.889794,-42.966042,-41.294861,-40.472214,-29.132538,-28.264481,-26.439469,-27.324852,-11.711541,-12.814797,-11.576523,-11.152703,5.174377,1.288604,0.470443,0.428924,11.268653,35.178166,58.461572,77.321686,39.898571,74.725334,93.379985,106.952238,42.959576,81.165482,78.257346,69.537256,45.063931,78.885107,72.489463,62.829568,46.275493,75.640308,70.492578,61.571236,23.701035,43.308975,53.659081,54.546593,46.385559,65.463203,71.00837,71.623306,35.448326,52.172264,49.766968,44.42173,22.712219,35.000885,32.938019,29.38076,9.491329,19.990585,19.318337,17.329147,-8.794481,-1.012602,15.56098,29.138154,1.526655,22.450943,36.793464,46.589753,8.453526,33.25792,35.738724,31.871086,15.423981,37.732577,36.859235,31.252556,21.866179,37.650881,34.956618,29.198238,91.1458,41.810328,-24.636343,85.443601
84,-1.250656,0.461788,-0.954014,0.241833,-25.813981,-40.319367,-45.203248,-47.738503,-44.020821,-42.053284,-40.501282,-39.792687,-28.335732,-27.5495,-25.92453,-26.835984,-11.090081,-12.319382,-11.254235,-10.896012,5.545211,1.566719,0.620246,0.522285,11.209472,34.945379,57.989978,76.6821,39.843057,74.575003,93.157795,106.632624,42.80914,81.11899,78.274451,69.541128,44.755401,78.622742,72.399073,62.833088,45.797273,75.163163,70.197022,61.385269,22.760113,42.372586,53.643528,56.154248,46.147854,64.885678,70.950726,72.335896,35.860897,51.950466,48.996174,43.709965,23.648976,35.267636,32.671704,28.920811,10.767048,20.499607,19.56609,17.694042,-9.556191,-3.264374,11.789957,24.36951,1.394905,22.688287,36.973936,46.706005,8.927516,33.640661,35.141733,30.319279,16.17226,37.80774,35.994148,29.496159,22.572172,38.240357,35.226159,29.003989,90.136311,42.286757,-25.34919,85.700075
85,-1.340035,0.903031,-1.324951,0.846481,-25.382492,-40.025322,-45.066307,-47.485931,-43.19236,-41.158264,-39.64991,-39.097366,-27.578339,-26.822914,-25.224678,-26.08715,-10.442688,-11.795105,-10.766052,-10.444725,6.054909,1.960259,0.918343,0.770485,10.990765,34.53067,57.463977,76.10311,39.746098,74.493221,93.053777,106.441273,42.596552,81.143247,78.428655,69.576098,44.355692,78.459284,72.567738,63.080103,45.220655,74.58066,69.923697,61.227436,22.001507,41.43639,53.381481,57.405727,46.061703,64.675083,70.835255,72.571667,36.270046,51.763126,48.344158,43.162777,24.383205,35.444698,32.368801,28.469524,11.735584,20.706333,19.444325,17.648094,-10.249982,-5.021698,9.080799,21.133677,0.754954,22.341935,36.636353,46.188937,8.635641,33.280897,34.088913,28.503533,16.009949,37.231028,34.90045,27.821944,22.370538,37.984555,34.786458,28.270802,89.077017,43.145596,-26.3934,86.502364
86,-1.263725,0.935278,-1.315464,1.607332,-25.027039,-39.794174,-45.093979,-47.583092,-42.201004,-40.205635,-38.810578,-38.343064,-26.567826,-25.984612,-24.738854,-25.597939,-9.553665,-11.083992,-10.393685,-10.168236,6.736175,2.53862,1.202797,0.871284,10.898571,34.198688,56.877916,75.449124,39.77102,74.570477,93.182348,106.613637,42.390794,81.195,78.965038,70.204964,43.885024,78.346731,72.969962,63.590488,44.497039,74.031192,69.801271,61.196826,21.633385,40.947899,53.334641,58.021385,46.118065,64.618309,69.595779,70.413689,36.682182,51.905502,47.963608,42.674057,25.067482,35.947426,32.45327,28.401352,12.672558,21.400452,19.729179,17.852657,-10.809267,-6.205762,7.70258,19.798257,-0.862987,20.676977,34.373528,42.98997,7.19572,31.675615,32.610109,27.052788,14.812072,35.917708,33.779909,26.80649,21.422799,37.014167,33.883452,27.420783,88.207792,43.993479,-27.314364,88.022301
87,-1.231316,0.876615,-1.131866,1.216625,-24.76934,-39.546318,-44.930054,-47.597694,-41.683296,-39.4487,-37.957786,-37.422088,-26.001526,-25.139511,-23.898857,-24.721161,-8.983314,-10.269333,-9.589004,-9.401138,7.264687,3.194596,1.754151,1.304878,10.822057,34.188054,56.952659,75.688345,39.845849,74.726199,93.310999,106.68699,42.281724,81.2851,79.144664,70.269246,43.549478,78.302345,73.164785,63.79834,43.987295,73.724348,69.781535,61.238279,21.088348,40.351959,53.244232,58.528106,45.943702,64.589035,68.98114,69.15271,36.739471,52.161254,48.05944,42.758468,25.384735,36.540916,32.80513,28.54383,13.263565,22.258117,20.433311,18.456516,-11.297139,-7.016736,6.844583,19.073017,-2.114235,19.250296,32.548667,40.591405,6.273953,30.413925,31.549181,26.295314,14.239787,35.125215,32.992159,26.249674,21.128725,36.570891,33.366119,27.003468,87.446874,44.732288,-27.975832,89.10112
88,-1.199318,0.647423,-0.833096,0.992385,-24.498871,-38.928657,-43.948288,-46.321884,-41.129905,-38.693962,-37.133514,-36.601455,-25.48352,-24.396835,-23.223999,-24.128151,-8.475998,-9.552978,-8.920395,-8.801948,7.791207,3.875839,2.324364,1.757172,10.884238,34.397251,57.233178,75.995528,40.097358,74.961011,93.455673,106.72817,42.324214,81.422975,79.594119,70.835725,43.395478,78.29728,73.350418,64.041889,43.686804,73.559375,69.740075,61.222828,20.709927,40.058819,53.301876,58.800877,45.670612,64.715366,68.910679,68.599422,36.631817,52.603031,48.813892,43.763706,25.379482,36.95525,33.169567,28.991879,13.35228,22.573345,20.764149,18.946335,-11.649999,-7.740958,5.860719,18.001017,-3.166919,17.846412,30.837094,38.422243,5.452938,29.485853,31.359218,26.692505,13.682718,34.638122,32.713139,26.097515,20.722006,36.25229,33.242624,26.959149,86.840263,45.206276,-28.216221,89.92007
89,-0.993965,0.701213,-0.74057,0.592884,-24.253532,-38.298363,-42.820816,-44.832985,-40.938057,-38.244919,-36.582756,-36.065483,-25.287483,-23.886108,-22.567772,-23.500122,-8.203651,-9.039322,-8.212463,-8.05014,8.197243,4.46537,3.000229,2.476868,10.961081,34.643518,57.659731,76.552276,39.990449,75.050536,93.449288,106.509815,42.093625,81.280554,79.29563,70.423819,43.114174,77.981205,72.880892,63.552029,43.488894,73.364478,69.397484,60.855024,20.380726,39.555576,52.98167,58.959446,45.741863,64.898472,68.832539,68.138935,36.843029,52.724247,49.145679,44.25388,25.641689,37.117435,33.360523,29.194141,13.666077,22.869656,21.12125,19.321243,-11.938139,-8.262804,5.062737,16.973855,-3.33903,17.525718,30.312734,37.587266,5.542106,29.22287,31.436585,27.220909,13.965585,34.663588,32.846002,26.428849,21.029924,36.335091,33.341944,27.185761,86.523525,45.691542,-28.279564,90.297007
90,-0.52185,0.441608,-0.195293,-0.69555,-24.223046,-37.987931,-42.133301,-43.98285,-40.99482,-38.168404,-36.392006,-35.741227,-25.272034,-23.751229,-22.526894,-23.516488,-8.135468,-8.800942,-8.029908,-7.903267,8.345993,4.765777,3.241676,2.692543,11.080506,35.094871,58.424084,77.52272,39.666921,74.897365,93.204052,106.078038,41.685449,81.015497,79.116492,70.326111,42.76124,77.730344,72.492396,63.125958,43.250186,73.275391,69.188613,60.613543,20.638137,39.660026,52.780586,58.517463,45.882247,64.89196,68.898284,68.162498,36.929512,52.573928,48.969062,44.145126,25.624374,36.791976,32.982444,28.948722,13.557643,22.617324,21.004978,19.349544,-11.504682,-7.567229,5.765389,17.641623,-2.207973,18.690405,31.596846,39.076266,6.571176,30.741189,33.119444,29.098325,14.932386,36.301344,34.419612,27.926772,21.916061,37.878956,34.890884,28.661009,86.671927,45.917582,-27.804605,89.385889
91,-0.406632,0.296105,0.246482,-1.392015,-24.319817,-37.920959,-41.911491,-43.884865,-41.095436,-38.038742,-36.202606,-35.490097,-25.30442,-23.651115,-22.449188,-23.503029,-8.088661,-8.669083,-7.866508,-7.69313,8.469955,4.944397,3.447739,2.958,11.050471,35.31306,58.837516,77.849733,39.440112,74.796076,92.979065,105.670078,41.500526,80.863097,78.620322,69.720309,42.642204,77.517046,71.858739,62.413896,43.224202,73.260071,68.901548,60.317105,21.009018,39.950135,52.453331,57.836609,46.109963,64.756279,69.822167,70.039605,36.816857,51.736267,48.040673,43.327446,25.110787,35.427979,31.450379,27.495003,12.650265,21.113057,19.533863,18.046292,-10.444304,-5.643216,7.773815,19.414879,0.235633,21.415821,35.106208,43.648958,8.462882,33.393789,35.871537,31.860224,16.298589,38.452722,36.530247,29.856843,22.804279,39.718013,36.868985,30.473946,86.853373,45.9876,-26.970045,87.767787
92,-0.341194,0.193921,0.407135,-0.986142,-24.21975,-37.776627,-41.762673,-43.749001,-40.723091,-37.859665,-36.181,-35.596459,-24.860344,-23.62365,-22.642525,-23.745964,-7.665596,-8.657616,-8.041855,-7.8815,8.820511,5.015968,3.388641,2.928451,11.08105,35.179272,58.518278,77.157418,39.275979,74.706705,92.90423,105.589247,41.461765,80.843442,78.74662,70.015995,42.704473,77.54526,71.830963,62.408023,43.359583,73.281845,68.872205,60.336494,21.487931,40.264916,52.099114,57.289948,46.554955,64.728127,70.274048,71.155747,36.99733,50.714859,46.569695,41.899819,24.921616,33.919899,29.612687,25.759964,12.054989,19.527523,17.734131,16.327492,-9.463917,-3.905009,9.644544,21.201646,2.409433,24.250665,38.888384,48.521282,10.061588,36.048773,38.178292,33.714669,17.352514,40.485756,38.370551,31.311207,23.391408,41.282312,38.372176,31.65567,87.039774,45.947598,-26.035315,86.547722
93,-0.259575,0.280681,0.324555,-0.86043,-24.119797,-37.731628,-41.809044,-43.992508,-40.45166,-37.498146,-35.925636,-35.553612,-24.560806,-23.429192,-22.347382,-23.36039,-7.383408,-8.54805,-7.853394,-7.631973,9.075302,5.131302,3.543434,3.186356,11.005782,34.95416,58.166856,76.746505,39.262764,74.751189,92.965313,105.658876,41.560015,80.987795,78.649622,69.826044,42.778326,77.622886,71.767687,62.349137,43.406217,73.234951,68.731487,60.203644,22.153953,40.808464,52.030197,56.927101,47.113106,64.828926,70.383522,71.512001,37.244064,49.703956,44.736099,39.783851,24.831894,32.490578,27.782776,23.960518,11.609413,18.097172,16.045486,14.699512,-8.506761,-1.91493,12.071637,23.695239,4.420551,27.011452,42.438267,52.901127,11.356271,38.458972,39.98278,34.840892,18.063416,42.289146,39.903351,32.456375,23.774224,42.738139,39.656516,32.650956,87.217552,46.001356,-25.273407,85.460369
94,-0.293037,0.408201,0.293838,-0.256363,-24.05793,-37.673539,-41.675515,-43.919014,-40.271782,-37.242989,-35.737542,-35.480072,-24.311303,-23.232399,-22.033608,-22.97081,-7.089569,-8.396599,-7.716179,-7.487275,9.377975,5.308181,3.690628,3.362823,10.934973,34.828566,57.962413,76.438266,39.275824,74.775321,93.049985,105.847072,41.612318,81.060148,78.440813,69.506529,42.767365,77.813917,71.90749,62.508435,43.309726,73.178005,68.658702,60.151971,22.870537,41.447708,51.749634,55.501671,47.592797,64.89988,70.347817,71.46222,37.417191,49.035851,43.698258,38.705681,24.72448,31.337105,26.323334,22.618996,11.240216,16.998276,14.658966,13.347977,-7.429303,0.544589,15.581166,28.066099,5.611871,28.792618,45.0979,56.514273,11.801924,39.921932,41.167277,35.594024,18.04573,43.524321,40.708885,32.72113,23.627949,43.648124,40.278182,32.85062,87.295556,46.171352,-24.608528,84.965801
95,-0.168618,0.635628,-0.293461,1.137634,-24.092216,-37.878982,-42.207939,-44.790573,-40.047157,-37.091125,-35.735115,-35.658027,-24.150192,-23.096923,-21.852104,-22.7658,-7.00312,-8.44931,-7.734718,-7.465736,9.374359,5.161148,3.608803,3.382027,10.718525,34.337168,57.274149,75.724764,39.407408,74.833051,93.068312,105.93753,41.893307,81.182896,78.293619,69.274656,42.988728,77.890821,71.873774,62.505242,43.416041,73.078944,68.429052,59.923285,23.140103,41.819012,51.880887,55.370877,48.243634,65.272259,70.560551,71.648404,37.915936,48.774983,43.442563,38.64996,25.13165,30.939869,25.77483,22.172963,11.555054,16.737397,14.197129,12.928162,-7.316047,0.987747,16.300194,28.998852,5.510866,29.058953,45.732991,57.557596,11.379323,39.615427,40.641917,34.961385,17.387792,43.009452,39.984682,31.882479,22.894089,43.026551,39.458242,31.926124,87.455017,46.582798,-24.57391,85.879253
96,-0.08226,0.962868,-0.769294,1.598595,-24.142982,-38.03025,-42.26104,-44.701607,-40.400413,-37.44017,-36.064087,-36.03994,-24.485847,-23.379707,-21.824959,-22.590568,-7.27034,-8.812431,-7.835197,-7.44976,9.212769,4.830437,3.416405,3.351952,10.421271,33.975175,56.897058,75.394301,39.391409,74.775339,92.85938,105.581984,41.931561,81.034886,77.903152,68.821649,43.00847,77.756946,71.657722,62.316508,43.420271,72.856699,68.127025,59.633756,23.284229,42.258167,52.604084,56.0434,48.856601,65.827755,70.849399,71.695987,38.47475,49.235721,43.947452,39.264965,25.690258,31.452472,26.219043,22.579868,12.120208,17.442295,14.773201,13.313118,-7.460697,0.942688,16.723289,29.977719,4.458392,28.446012,45.485001,57.547944,10.328824,38.793801,39.608437,33.722672,16.442547,42.413042,39.131878,30.868425,22.24587,42.417197,38.57027,30.920388,87.657148,47.277175,-25.058813,87.209357
97,0.393059,0.730933,-1.064953,2.347726,-24.348541,-38.596481,-43.222389,-46.349327,-41.108665,-38.419098,-36.994514,-36.845421,-25.253448,-24.221993,-22.373886,-22.901207,-7.999672,-9.514984,-8.245903,-7.67878,8.588081,4.168671,2.988602,3.093384,10.254669,33.819182,56.826934,75.39537,39.049935,74.34489,92.425948,105.275381,41.851595,80.839669,77.412533,68.32228,43.147798,77.788278,71.477028,62.134561,43.71366,73.254359,68.270811,59.66339,23.613899,42.969726,53.817375,57.25573,49.497185,66.327392,70.160293,69.974602,38.850494,49.663422,44.436287,39.73288,25.978638,32.155792,26.861114,23.108757,12.43008,18.558437,15.727615,13.94767,-7.628875,0.882252,17.298217,31.137515,2.941264,27.208071,43.597371,54.689777,8.689481,37.036946,37.91482,32.057207,14.91998,40.828798,37.564733,29.447672,21.058107,41.025343,37.156155,29.612891,88.305971,47.69805,-25.868002,89.247025
98,1.195038,1.627982,-1.437298,2.222737,-25.015,-40.027588,-45.229111,-48.81736,-42.690422,-40.638222,-39.429222,-39.356964,-26.767067,-26.267533,-24.247193,-24.503998,-9.403359,-11.3088,-9.860848,-9.112747,7.265693,2.410332,1.381279,1.686333,9.796326,33.244983,56.385221,75.030789,38.024397,73.064532,91.212262,104.234028,41.208501,80.001252,76.599157,67.552925,42.990606,77.50572,71.148312,61.742594,43.980557,73.327626,68.255564,59.555357,23.799831,43.514866,54.4548,57.42374,50.314671,66.451023,69.233883,68.309795,39.532894,50.055027,44.644329,40.003933,26.52602,32.957005,27.557224,23.746983,12.807598,19.445469,16.486599,14.370609,-7.72665,1.313134,18.70344,33.238332,2.374414,27.159016,42.969827,53.231893,8.11577,36.320048,36.9774,30.944267,14.449855,40.307056,36.818924,28.714979,20.758321,40.440733,36.354548,28.785207,89.696984,49.018524,-27.109325,91.162254
99,1.975181,2.613005,-2.074768,2.648357,-26.066711,-42.349617,-48.874145,-53.543037,-44.248535,-43.800155,-43.368164,-43.689399,-28.125892,-29.262817,-27.906967,-27.904312,-10.806152,-14.097335,-13.036102,-12.122131,5.6605,-0.330597,-1.597801,-1.129371,9.21252,32.441524,55.647434,74.329113,36.402294,70.865286,88.993515,102.096847,40.052608,78.596876,76.780351,68.742374,42.449809,77.034745,71.187049,61.824661,43.963836,73.061859,68.318211,59.692561,24.129341,44.265141,55.45673,58.598248,50.770535,66.175678,67.259068,65.129757,39.530811,49.667347,43.967205,39.26302,26.226357,33.151051,27.756168,23.782311,12.284248,19.650066,16.856873,14.534775,-7.399903,1.830906,19.610505,33.942417,2.348245,27.61237,41.984025,50.530702,7.91904,36.021838,36.576153,30.695198,14.168132,39.530317,36.06389,28.419837,20.445296,39.578204,35.603343,28.422962,91.859424,51.260341,-28.996834,93.439423
100,2.722893,4.065468,-1.010616,5.063349,-27.102882,-44.750633,-52.17469,-57.331947,-46.677337,-48.392967,-48.96476,-49.71611,-30.232567,-33.486442,-32.616417,-32.201362,-12.765449,-17.77185,-17.101501,-15.952583,3.629906,-3.798843,-5.352882,-4.716499,8.229039,31.043032,54.264391,72.7269,33.539255,67.225544,85.409157,98.468856,37.846272,76.238584,75.856121,68.793479,41.21782,76.208963,70.870541,61.576999,43.66949,72.607129,68.424792,60.017591,24.815471,45.74739,57.50441,60.651809,50.695472,65.831176,65.550316,62.507377,38.359565,49.118362,43.452553,38.312713,24.240829,32.45787,27.261886,23.117397,9.72631,18.079879,15.85437,13.489002,-4.776308,4.561633,21.520741,34.950678,0.550628,24.498025,39.030725,47.362103,4.536012,31.655027,34.792732,31.127277,10.009482,35.052708,34.076736,28.299195,15.955856,35.081094,33.281459,27.823019,94.769903,54.739143,-29.819864,97.916106
101,4.019394,6.101478,-1.131695,4.224129,-27.856888,-46.86589,-54.90818,-59.910576,-49.12017,-53.963562,-56.133613,-57.790695,-32.737953,-38.688332,-38.725067,-38.17646,-15.489006,-22.564407,-22.781753,-21.816284,0.530182,-8.335396,-10.325478,-9.970619,6.543716,27.933614,50.536334,68.274424,29.725827,61.969731,80.187048,93.466393,35.104733,72.817401,74.90832,69.577975,39.80071,74.705371,71.174279,62.653321,43.518393,71.698558,69.006475,61.474968,24.843063,45.597668,56.542751,58.201916,48.731975,64.313404,62.180477,57.498859,35.655281,47.37141,41.310894,35.261856,21.206943,30.473968,25.381554,21.067898,6.646065,15.345154,13.526413,11.060646,-2.284351,8.042195,24.589002,37.30059,1.142525,24.252611,38.506168,46.045659,3.726292,29.976719,34.636517,32.171459,8.564042,33.025646,33.696472,29.052402,14.313511,33.038595,32.913723,28.843809,99.009991,60.272446,-30.730865,101.57206
102,4.19355,9.229575,-6.771412,7.104237,-29.049362,-49.53479,-58.436989,-63.12339,-51.295738,-59.066528,-62.71186,-65.362312,-34.80661,-43.491234,-44.060921,-43.128914,-17.792244,-27.054359,-27.790306,-26.555877,-2.162704,-12.589897,-14.826004,-14.369705,4.53994,24.588187,46.802428,64.495348,26.040933,56.898398,74.855319,87.919545,32.498365,69.437091,72.92473,68.482862,38.285317,72.806792,70.073163,61.640416,42.887495,70.169976,68.267674,61.110215,24.723759,45.790249,56.544434,58.157204,49.464855,66.206474,63.382507,58.114037,36.603321,49.902786,43.977081,37.708843,22.534275,32.898514,27.789047,23.151066,8.30983,17.477303,15.672752,12.823334,-0.610427,9.061126,24.376976,36.471776,-2.004974,20.305209,35.481145,43.408286,-0.036976,25.953643,33.061535,32.272711,4.688931,29.335762,31.943686,28.312749,10.63607,29.754862,31.332258,28.319758,103.425567,68.960791,-37.280251,108.135067
103,3.961464,11.952854,-7.143894,7.826223,-29.663063,-51.11911,-60.337234,-64.562988,-53.162475,-63.797905,-68.583549,-71.937218,-36.712028,-47.804855,-48.926399,-47.754982,-19.970146,-31.142853,-32.5494,-31.213898,-4.653328,-16.243812,-18.924888,-18.756821,2.693523,21.385928,43.04691,60.555116,22.595273,52.150026,69.896379,82.778416,30.001549,66.211231,71.899865,69.092215,36.701784,70.845791,69.909216,62.326204,42.088501,68.630464,68.325152,62.187815,24.44601,45.693123,56.83176,58.290413,48.913593,68.333599,64.738483,58.540684,36.36343,53.138477,48.150547,41.509586,23.027012,35.796192,31.143757,26.030227,9.618358,19.956882,18.334339,15.071628,-1.267088,6.801703,20.615684,31.861687,-5.077033,14.715975,29.842523,37.415056,-2.762843,21.279334,30.71455,31.968262,2.387388,25.27666,29.336935,26.88876,8.887866,26.367864,28.950976,26.867715,107.660562,80.22243,-44.150614,115.270075
104,3.717362,14.33442,-7.429218,8.821491,-29.771462,-51.729287,-60.574562,-63.865975,-54.975357,-67.732064,-73.498307,-77.474945,-38.904671,-51.701157,-53.281037,-52.311127,-22.468323,-34.695214,-36.634827,-35.611313,-7.431336,-19.265809,-22.175675,-22.821167,0.612299,17.725832,38.560891,55.751921,19.872876,48.475098,66.070316,78.907665,28.217184,63.349791,70.808395,69.792563,35.731604,68.773286,70.262521,64.592431,41.90115,67.193322,69.129524,65.202235,24.224327,45.724159,57.39672,58.579879,48.973766,70.955474,67.130195,60.49261,36.881526,57.025016,52.798507,45.902927,24.296722,39.17839,34.843494,29.400936,11.579223,22.871841,21.349136,17.852142,-2.880583,3.340697,15.645671,26.031491,-9.197792,8.43305,23.991084,31.701883,-6.295936,16.090947,27.600038,30.48955,-0.553247,21.019377,26.262382,24.483723,6.558394,22.894428,26.300741,24.798372,111.710026,93.454037,-51.24773,122.988753
105,3.148315,16.669283,-8.87851,7.570366,-30.719742,-53.221504,-61.982025,-65.051102,-56.539169,-70.510117,-77.069458,-81.931686,-40.938789,-54.445862,-56.897301,-56.865692,-24.825325,-37.19236,-40.011703,-39.907379,-10.032463,-21.456963,-24.875175,-26.842094,-0.882432,14.873056,34.77761,51.568812,18.537813,45.432396,62.713799,75.953791,27.468077,60.14466,70.125034,72.416221,35.432164,65.951311,70.666869,68.213179,41.979214,65.501823,70.257402,69.627307,23.693962,45.000401,56.854774,57.596134,49.278088,73.304169,68.658485,61.102169,38.256855,61.280571,57.034401,49.966782,26.892998,43.609703,39.210228,33.436707,15.189434,27.738979,25.735771,21.616333,-6.493526,-1.378782,11.472874,22.52014,-11.617853,5.823854,20.25038,26.379609,-6.582681,15.513586,26.317587,28.222717,0.770805,21.567189,25.563528,22.719273,9.188177,24.32119,26.489259,23.932378,115.087738,108.475186,-59.896843,128.910985
106,-0.189033,19.842587,-9.036884,9.623381,-31.567452,-54.291802,-63.718003,-67.891251,-57.278183,-73.30394,-80.186486,-84.826195,-41.632531,-57.217232,-60.616105,-61.027932,-25.618355,-39.824685,-43.62362,-43.998047,-11.119813,-23.707421,-28.175355,-30.926171,-1.241937,14.978297,35.270366,52.465978,18.889278,46.831216,64.23063,77.028254,28.5768,62.260668,73.067373,75.83302,37.229107,68.511144,74.652802,73.224194,44.216648,68.830307,75.083722,75.715397,24.350223,46.612747,60.028576,62.073749,51.90913,77.201465,72.345531,64.667747,41.179538,66.472652,63.164783,56.857555,30.20042,49.637764,46.286854,40.719909,18.845707,33.514,32.258846,28.313095,-10.074382,-7.048272,5.386427,16.479135,-15.430341,1.895744,15.394514,20.443864,-8.571426,13.399988,24.474832,26.388199,0.130269,20.484903,24.940609,22.381542,9.641,24.153655,26.049788,23.092154,115.081931,125.902199,-68.750501,136.118792
107,-0.502945,20.548685,-3.705941,7.892506,-32.488518,-55.173867,-64.197098,-67.857514,-59.060212,-76.562279,-84.193474,-89.402161,-43.711464,-60.491913,-65.905564,-68.051171,-28.054734,-43.266587,-48.966385,-51.103432,-13.967835,-27.142319,-32.788376,-37.183045,-1.540556,14.637212,35.063471,52.164636,19.874209,47.617681,65.079438,78.290926,30.094748,63.264902,76.847214,82.643589,39.464194,70.266596,79.736133,81.699586,47.245345,71.268287,80.349932,84.288583,25.078309,47.976986,61.989865,64.016774,52.426243,78.264302,72.596283,64.441681,41.141465,68.204201,65.110978,58.881409,29.735573,51.820942,49.339291,44.164422,18.159119,34.679112,34.684994,31.564946,-12.79802,-9.993971,2.864212,13.830165,-14.883017,2.902627,14.337988,17.473755,-6.583891,15.253346,25.261315,26.448516,3.219172,22.839859,27.027142,24.538693,13.59284,26.853204,28.211948,25.010534,114.84026,143.564447,-72.195168,141.124861
108,-1.24276,20.646058,-3.487472,9.260561,-33.824227,-56.749558,-66.223801,-70.223259,-60.953797,-79.581413,-88.711395,-95.404381,-46.298012,-64.50515,-72.795181,-77.643242,-31.176819,-47.660957,-56.060303,-60.757095,-17.621063,-31.802857,-38.889221,-45.12394,-1.760226,14.395534,34.587919,51.322231,20.770468,47.605128,65.00038,78.935583,31.74719,63.454273,79.087526,88.166405,41.971132,71.832137,84.282193,90.022215,50.45838,73.932651,85.187232,92.166535,26.473949,50.299965,64.960121,68.660751,54.477951,79.534321,74.605476,67.284828,42.368042,69.401321,67.5298,62.679108,30.264198,53.883259,53.468067,50.088558,18.20763,36.183392,38.292606,37.066006,-12.747811,-9.72377,3.324296,14.17795,-14.827429,5.382388,15.596425,17.479281,-5.904402,17.355429,26.859972,27.383986,4.69673,24.902731,29.782508,27.668816,15.879328,29.594465,31.721816,28.991757,113.991623,161.101693,-75.288517,147.27661
109,-5.505112,22.092371,-3.032135,10.144635,-34.554931,-57.29322,-67.617576,-72.423111,-61.603523,-82.893059,-93.137764,-100.569488,-47.535507,-68.434273,-78.660347,-85.311458,-32.900322,-51.978905,-62.535759,-69.29686,-19.670036,-35.756103,-44.381973,-51.925346,-1.892434,14.169046,34.422354,50.795883,21.455051,48.343169,65.451182,79.014265,33.411722,65.047211,81.507562,91.765305,44.447768,74.326087,88.337194,95.929765,53.381015,77.345065,89.363844,97.409083,27.668301,52.996399,68.907257,75.267437,55.03973,79.138641,77.292641,73.266712,42.630363,68.813484,70.322319,69.14233,30.437702,54.852356,57.933895,57.983734,18.659191,37.756988,42.355785,43.702629,-12.230379,-9.205714,3.643225,14.697407,-14.360521,6.079322,15.964662,18.711382,-4.641809,18.276449,28.217339,30.22403,7.061388,26.646606,33.131437,33.337411,19.520485,32.757699,35.98869,34.898338,108.930004,179.915975,-77.877159,154.143156
110,-6.137535,20.611306,-2.377556,10.461502,-34.076958,-56.546677,-66.901955,-71.715362,-62.518913,-86.530632,-98.523811,-107.493359,-49.320328,-73.364113,-86.447742,-95.339779,-35.449837,-57.665703,-70.944328,-79.942898,-22.590408,-41.216469,-51.379509,-60.164131,-2.978593,12.905787,33.760593,49.821023,21.594798,48.843501,65.772525,79.361753,34.970431,66.878907,83.512727,94.166414,47.047454,77.34291,92.176841,100.868298,56.570652,80.821866,93.010718,101.279555,28.010124,53.993843,70.323761,78.131252,55.608135,79.121739,81.081619,80.901661,43.16843,68.863678,74.395523,77.209969,30.981457,56.093044,62.93272,66.553997,19.427605,39.493927,46.710468,50.923885,-11.754673,-8.645453,3.859413,14.825076,-12.010295,8.324128,18.34706,22.729882,-1.592525,20.920496,31.649457,35.88046,10.578969,29.975367,38.104179,40.937707,23.334937,36.663467,41.319942,42.432932,103.327372,197.393115,-79.719812,161.470492
111,-7.274597,19.634346,-1.040371,11.774025,-33.439156,-55.299339,-66.344513,-71.294014,-62.875305,-88.204731,-101.56192,-111.995739,-51.595024,-77.563477,-92.981243,-104.087597,-39.157814,-62.886704,-78.007668,-89.091419,-26.901856,-46.231979,-57.063927,-67.05209,-5.141228,7.551088,25.798087,39.892261,20.775716,45.341809,60.84877,73.890951,34.742449,63.743567,80.390466,92.420965,46.783928,74.166506,89.735934,100.443825,56.130161,78.221989,90.536948,100.012277,28.170159,54.294113,70.329037,79.209515,56.308949,78.853317,84.561573,88.203804,44.190399,68.708737,77.94437,84.433823,32.10355,56.296314,66.214886,73.209709,20.541309,40.684101,49.966965,57.043751,-11.179943,-7.340778,5.721695,16.877907,-9.204263,10.498892,21.17534,27.705965,1.713549,23.516101,35.244085,41.913611,14.132224,33.338936,42.706919,47.887667,26.901197,40.448595,46.322615,49.478123,96.565888,214.316025,-80.24707,170.533081
112,-8.194862,16.929333,-0.137741,12.310649,-32.171174,-53.892289,-66.0821,-71.829873,-62.295846,-89.113896,-104.311352,-116.49305,-53.064103,-81.219899,-98.869584,-112.150876,-42.059029,-67.700467,-84.669526,-97.708214,-30.433823,-50.750771,-62.821885,-74.182126,-6.919258,3.219629,18.919153,30.482547,21.241301,42.792208,56.355019,68.010446,35.294695,60.910137,75.839497,87.314847,46.783631,71.518672,86.336276,97.070523,55.4298,76.359917,88.202497,97.568948,28.585739,54.853317,70.773136,80.664082,55.804207,77.851708,88.051735,95.928543,43.859322,67.690933,81.490288,92.271641,31.974884,55.537869,69.382862,80.163128,20.608028,40.858074,52.668045,62.808197,-10.372711,-5.812097,7.442703,18.692541,-5.928731,12.4444,24.545023,34.122425,5.410262,26.301439,39.781221,49.528202,17.904742,36.898477,48.070855,55.980503,30.542248,44.65854,51.964886,57.267789,88.746031,228.846379,-80.009806,180.444751
113,-8.608796,15.047426,0.527893,13.820606,-31.322776,-53.315185,-66.708183,-73.965271,-61.289978,-89.9137,-106.705639,-120.528934,-53.191543,-83.475998,-102.519252,-117.213283,-43.284095,-70.741493,-88.642078,-102.464515,-32.406234,-53.478057,-66.404216,-78.636142,-6.997729,1.560223,14.584917,23.342397,22.862424,41.034928,52.153312,61.287037,35.587504,57.189972,69.067256,77.992364,45.232251,66.177929,78.618303,87.313045,51.815105,71.055545,81.925618,90.202014,28.628437,55.087566,71.739235,82.956081,54.416657,76.173752,89.624794,100.79979,43.285263,66.672386,83.470642,97.351502,31.977608,54.937969,70.888401,83.81884,20.932137,41.580837,54.630879,66.317139,-10.300808,-5.629402,6.875822,17.34968,-3.531407,12.234745,25.246162,37.443326,8.400094,27.556406,42.121043,54.541422,21.081282,39.824558,52.44407,62.768813,33.668573,48.382955,56.643604,63.629885,80.306471,241.760226,-79.312677,192.131778
114,-5.245079,11.89807,0.892719,14.580063,-31.596702,-54.508438,-69.312744,-78.456527,-60.464836,-88.47488,-105.851589,-120.470993,-53.038215,-83.231598,-102.683429,-117.538902,-44.105072,-71.866951,-89.58102,-102.504524,-34.485328,-56.053756,-69.052402,-80.756733,-2.904456,5.292689,16.305628,23.525709,27.799554,37.955323,44.064711,50.035235,35.497274,47.66392,53.27991,58.077448,39.499775,51.407514,58.060479,63.132608,40.37069,52.376279,58.991749,64.096483,28.917344,56.104866,73.407658,83.850907,56.002453,81.62867,93.907231,102.238255,46.044114,74.04871,89.245709,99.403347,35.728592,62.431355,77.318127,87.260846,25.048577,48.699932,61.759083,72.106408,-5.35975,0.830654,12.719572,21.977713,5.867784,22.559043,34.608068,44.886325,14.876428,35.617527,49.008153,59.348667,24.134667,44.74588,57.215709,66.414458,33.277211,49.481556,58.245817,65.025839,75.023952,252.097332,-78.457398,205.150877
115,-7.507576,10.346207,-0.485778,13.942724,-30.265113,-52.963737,-68.876678,-79.10337,-60.33181,-82.025196,-94.226085,-104.68436,-53.751789,-77.451141,-91.111519,-101.129585,-45.646774,-67.35379,-79.640201,-87.886562,-36.600174,-54.007896,-63.639873,-71.949154,0.177298,6.946934,14.482682,19.796256,29.910183,33.855417,36.4312,39.235804,33.581887,39.324774,41.687333,43.62201,33.416619,39.027298,42.602499,45.248319,30.538444,37.92651,42.082535,45.396038,32.958652,62.09737,80.702282,92.6403,59.47118,86.439868,99.289226,107.309429,48.926227,78.976261,94.74876,104.641674,38.253112,67.438877,82.983924,92.67834,27.148761,52.839408,66.778919,77.10252,-4.552907,2.796701,15.008809,24.045537,8.671697,27.234439,39.289379,49.136631,18.023204,39.824237,52.846238,62.339672,27.492815,49.022813,61.302339,69.56426,36.645338,53.625417,62.106021,67.811475,67.3486,261.422833,-79.110952,218.072895
