takenoko1/special-research/HandMotion_SimilarSearch_自分用/NewProject/handData_new/key/d3_feature/142.csv
,vel_0x_L,vel_0y_L,vel_0x_R,vel_0y_R,posFromWrist_1x_L,posFromWrist_2x_L,posFromWrist_3x_L,posFromWrist_4x_L,posFromWrist_5x_L,posFromWrist_6x_L,posFromWrist_7x_L,posFromWrist_8x_L,posFromWrist_9x_L,posFromWrist_10x_L,posFromWrist_11x_L,posFromWrist_12x_L,posFromWrist_13x_L,posFromWrist_14x_L,posFromWrist_15x_L,posFromWrist_16x_L,posFromWrist_17x_L,posFromWrist_18x_L,posFromWrist_19x_L,posFromWrist_20x_L,posFromWrist_1y_L,posFromWrist_2y_L,posFromWrist_3y_L,posFromWrist_4y_L,posFromWrist_5y_L,posFromWrist_6y_L,posFromWrist_7y_L,posFromWrist_8y_L,posFromWrist_9y_L,posFromWrist_10y_L,posFromWrist_11y_L,posFromWrist_12y_L,posFromWrist_13y_L,posFromWrist_14y_L,posFromWrist_15y_L,posFromWrist_16y_L,posFromWrist_17y_L,posFromWrist_18y_L,posFromWrist_19y_L,posFromWrist_20y_L,posFromWrist_1x_R,posFromWrist_2x_R,posFromWrist_3x_R,posFromWrist_4x_R,posFromWrist_5x_R,posFromWrist_6x_R,posFromWrist_7x_R,posFromWrist_8x_R,posFromWrist_9x_R,posFromWrist_10x_R,posFromWrist_11x_R,posFromWrist_12x_R,posFromWrist_13x_R,posFromWrist_14x_R,posFromWrist_15x_R,posFromWrist_16x_R,posFromWrist_17x_R,posFromWrist_18x_R,posFromWrist_19x_R,posFromWrist_20x_R,posFromWrist_1y_R,posFromWrist_2y_R,posFromWrist_3y_R,posFromWrist_4y_R,posFromWrist_5y_R,posFromWrist_6y_R,posFromWrist_7y_R,posFromWrist_8y_R,posFromWrist_9y_R,posFromWrist_10y_R,posFromWrist_11y_R,posFromWrist_12y_R,posFromWrist_13y_R,posFromWrist_14y_R,posFromWrist_15y_R,posFromWrist_16y_R,posFromWrist_17y_R,posFromWrist_18y_R,posFromWrist_19y_R,posFromWrist_20y_R,posFromBody_0x_L,posFromBody_0y_L,posFromBody_0x_R,posFromBody_0y_R
6,3.277222,-0.225068,1.038243,0.001309,8.722103,15.524013,17.724414,17.601207,1.161449,21.477893,35.65337,44.756183,-3.867874,17.665981,35.606311,50.074756,-8.185158,11.484913,28.91772,42.217861,-12.788636,3.050434,17.385257,28.097431,-24.723852,-38.872959,-41.909535,-40.036683,-14.680061,-5.460404,-2.26093,-1.710499,4.895535,16.107644,18.812707,16.285485,21.120913,29.217985,28.613387,25.432747,33.884476,41.342926,37.851335,32.966211,25.676594,51.891048,76.271072,96.881126,51.382873,84.074318,102.412193,115.620186,42.21928,80.280098,101.125099,115.017334,34.44619,69.677192,88.843094,101.749099,28.756851,56.439869,72.184501,83.36277,-15.110536,-15.146376,-10.304069,-8.646725,21.26163,36.768604,42.370712,45.087619,38.379375,52.81677,55.648619,55.078688,48.83703,62.928202,63.613879,60.929934,53.997302,65.748825,65.51079,62.285072,-11.838283,327.815724,-73.607574,302.668733
7,-8.234173,-1.350766,-0.30098,-0.366736,11.614666,21.771286,27.376739,29.047142,7.49556,29.935959,45.221443,55.121498,1.919609,25.826958,44.680824,59.474785,-2.512081,19.687775,37.890701,51.383972,-6.802345,11.28733,26.037826,36.859543,-24.500377,-37.408214,-38.99741,-35.801197,-14.748345,-4.460528,-0.592334,0.69137,4.461962,17.348457,20.490207,18.988746,20.607533,30.418858,30.191024,27.613574,33.334083,41.594769,38.199694,33.252325,25.825401,52.239464,76.690773,97.165009,52.081432,84.667854,102.763504,115.870056,42.742664,80.848961,101.510605,115.449692,34.840576,69.994789,89.055657,102.005585,29.032116,56.533928,72.150696,83.258309,-15.121453,-15.058332,-10.250654,-8.659939,21.647855,37.06566,42.706721,45.569865,38.687881,53.043073,55.892669,55.56128,49.018008,63.006366,63.801279,61.483218,54.076491,65.806303,65.580173,62.546363,-20.583675,326.639836,-74.419773,302.476875
8,-2.794705,2.34738,-0.400989,-0.004717,12.711525,23.130352,27.918423,28.821339,10.614727,33.017613,47.618718,56.95641,6.144345,29.910954,47.873326,61.995541,1.550423,24.114407,42.088383,55.473668,-3.78582,15.790753,30.807187,41.23779,-25.951932,-41.015784,-44.621045,-42.130428,-16.409554,-6.676022,-3.593676,-3.328359,2.744522,15.379311,17.565955,15.30316,18.974741,28.643855,27.459347,24.45672,31.851369,40.19054,36.231326,31.030447,26.192344,52.648475,77.13573,97.628849,52.630348,85.153965,103.149021,116.116275,43.310463,81.441616,102.008228,115.879177,35.432418,70.547664,89.460285,102.294056,29.665844,57.057495,72.609661,83.634761,-15.113599,-15.057085,-10.302229,-8.816033,21.958619,37.158051,42.738139,45.586278,39.016454,53.100241,55.783284,55.430837,49.317929,63.022396,63.600837,61.225644,54.394838,65.802955,65.333269,62.114282,-23.702849,329.115308,-75.145231,302.60025
9,-2.880786,0.181287,-0.402512,0.020155,13.707103,25.071029,30.49475,31.343261,13.001907,36.272483,51.030738,60.474151,8.545143,33.429382,51.414962,65.521957,3.919715,27.568244,45.642837,59.027252,-1.568413,19.001037,34.07817,44.353431,-25.747884,-40.964853,-44.736247,-42.147818,-16.418903,-6.700907,-3.649214,-3.412636,2.626208,15.494006,17.51443,15.321117,18.692171,28.582463,27.191214,24.267048,31.487523,39.92263,35.884857,30.614471,26.476696,52.954536,77.436985,97.971279,53.05798,85.549999,103.430569,116.270222,43.701828,81.807964,102.250912,116.02644,35.809799,70.848621,89.597637,102.296688,30.01371,57.241962,72.71307,83.681957,-15.169026,-15.139645,-10.415924,-9.047226,22.063546,37.080097,42.605993,45.480784,39.158048,53.088039,55.614607,55.270077,49.424239,63.022841,63.468037,61.110678,54.46227,65.724261,65.115896,61.85293,-26.822433,329.39329,-75.786541,302.7171
10,3.257595,2.744399,-0.355545,0.017253,11.447708,20.951053,24.796245,25.449245,10.359912,32.484867,46.249431,55.102054,6.909828,30.147365,47.404232,61.205967,2.628227,24.572605,42.27135,55.735256,-3.004269,16.316425,30.888324,40.920147,-26.75002,-43.723652,-49.280053,-47.169918,-18.565002,-10.975988,-8.395846,-8.347088,0.87546,12.024064,13.526575,10.710324,17.319866,25.557606,23.325724,19.845248,30.505852,37.907725,33.360623,27.916435,26.729679,53.220188,77.657558,98.171734,53.377018,85.74432,103.486553,116.247608,44.038444,82.042385,102.403919,116.182514,36.165253,71.106182,89.749615,102.401356,30.36161,57.522915,72.9463,83.905277,-15.215709,-15.225614,-10.479613,-9.252608,22.04896,37.005009,42.51217,45.440362,39.170596,52.973851,55.405248,55.048319,49.457066,62.966796,63.414437,61.112543,54.527454,65.68274,65.073819,61.873752,-23.746868,332.222265,-76.324116,302.818929
11,-1.77594,0.084388,-0.086678,0.032407,12.321556,22.423931,26.130008,26.165783,12.375263,35.54021,49.267215,58.104091,8.63237,33.046749,50.268596,64.086467,4.075275,27.041416,44.819011,58.357189,-1.897076,17.943843,32.556987,42.698078,-26.81261,-43.946064,-49.681109,-47.434567,-18.954252,-11.596864,-8.885601,-8.668795,0.551764,11.73301,13.264038,10.743472,17.037988,25.274962,23.046056,19.788845,30.405594,37.926905,33.329933,27.774384,26.880146,53.302002,77.64481,98.208126,53.463112,85.804448,103.472271,116.19373,44.138386,82.060467,102.373753,116.124905,36.265595,71.130009,89.709538,102.278813,30.422768,57.544499,72.925267,83.821278,-15.279374,-15.349078,-10.573054,-9.497708,21.970858,36.780385,42.18656,45.071329,39.152009,52.780893,55.127384,54.73407,49.463426,62.880284,63.322491,61.029006,54.557835,65.598808,64.976056,61.793699,-25.665407,332.379358,-76.553393,302.924041
12,5.39178,0.835693,-0.027156,-0.006361,10.223671,17.924836,18.945466,17.097107,8.308022,30.803032,43.51854,51.513978,5.184197,28.43628,44.926484,58.468941,0.727433,22.521355,39.911591,53.514176,-5.568729,13.09591,27.48198,37.652939,-26.825515,-44.763961,-51.62989,-50.361858,-19.320025,-13.106439,-10.86359,-11.043135,0.475626,10.380948,11.594628,8.432994,17.256535,24.187056,21.50342,17.832271,31.040536,38.076032,33.280569,27.603125,26.831291,53.272934,77.61058,98.21624,53.429328,85.78498,103.475761,116.27909,44.115943,82.04203,102.41304,116.238304,36.249733,71.158607,89.792106,102.404365,30.389682,57.609924,73.020927,83.929733,-15.320796,-15.471343,-10.680289,-9.584997,21.720029,36.49621,41.877401,44.758527,38.983517,52.547168,54.918927,54.517463,49.37043,62.787819,63.300348,61.016583,54.51088,65.547569,64.972166,61.808038,-20.375885,333.284662,-76.682807,302.987291
13,-0.45845,-0.360512,0.221077,-0.225772,10.914185,18.898064,19.644814,17.106629,9.492966,33.069969,45.284912,52.593773,6.097092,30.511116,46.473908,59.383827,1.392014,24.204895,41.123131,54.153694,-5.048561,13.898461,27.895935,37.804047,-26.614785,-44.305389,-51.124734,-49.981475,-19.600432,-13.488587,-11.336733,-11.474646,0.295081,10.142604,11.294188,8.202962,17.261427,24.083624,21.454292,17.830679,31.290342,38.53348,33.72663,27.950769,26.730079,53.157978,77.435714,98.025146,53.356819,85.724189,103.448799,116.28115,43.977264,81.89756,102.311119,116.142677,35.978416,70.908943,89.527084,102.066696,29.957061,57.20074,72.5503,83.379226,-15.231677,-15.366478,-10.50908,-9.519381,21.739381,36.509042,41.823122,44.673768,38.958471,52.422469,54.822337,54.476053,49.323895,62.730478,63.317761,61.094006,54.433532,65.581606,65.102682,62.038787,-20.908241,332.993122,-76.535636,302.830491
14,-0.306267,-0.40113,0.293941,-0.180323,11.508683,19.784249,20.565491,17.836968,10.612702,35.170899,46.707276,53.067376,6.96286,32.412163,47.52269,59.296692,1.986786,25.73893,41.881554,53.982514,-4.604313,14.644638,28.087853,37.544632,-26.59142,-44.143196,-50.888441,-49.812353,-20.433594,-14.452203,-12.343525,-12.344451,-0.285596,9.560001,10.678165,7.645084,17.159217,24.071607,21.490514,17.829283,31.667636,39.28161,34.428423,28.511486,26.564678,53.044247,77.362988,97.92651,53.217865,85.719784,103.498409,116.378483,43.810513,81.874157,102.324818,116.144703,35.741535,70.837017,89.485989,101.952541,29.650223,57.039162,72.372196,83.06155,-15.10961,-15.281288,-10.430102,-9.50902,21.64284,36.400855,41.659915,44.475425,38.872317,52.216012,54.702689,54.393196,49.263948,62.561331,63.21959,61.010358,54.361345,65.519632,65.094271,62.052297,-21.257344,332.654876,-76.284531,302.713052
15,0.266076,-0.352348,0.362148,-0.192538,12.295715,20.632736,21.251861,18.084136,10.915077,36.480285,47.486022,52.982391,6.884284,33.612808,48.110275,58.899307,1.725849,26.659927,42.20121,53.410812,-4.94743,15.011878,28.070045,37.015274,-26.552937,-43.989067,-50.376604,-49.021997,-21.268312,-15.229727,-13.25417,-13.221072,-0.913783,9.214285,10.195067,7.117167,16.94188,24.160664,21.534777,17.781451,31.867621,39.852258,34.918524,28.845309,26.326046,52.904881,77.298683,97.838539,53.131108,85.809563,103.658936,116.571762,43.668812,81.931595,102.398667,116.123978,35.535084,70.834671,89.485108,101.824059,29.402058,56.906971,72.222382,82.749047,-14.997483,-15.15633,-10.391631,-9.603856,21.586055,36.316245,41.50612,44.270291,38.841936,52.046681,54.542595,54.22915,49.255784,62.423689,63.06288,60.841384,54.328198,65.458734,64.995804,61.905233,-21.022796,332.378521,-75.953911,302.596507
16,0.434211,-0.253708,0.234192,-0.132454,12.999825,21.20414,21.661309,18.094048,10.985024,37.548615,48.235337,53.054032,6.557511,34.424973,48.515145,58.505516,1.238343,27.12632,42.347031,52.87777,-5.525745,15.0084,27.931046,36.490128,-26.300575,-43.830381,-50.18472,-48.879897,-21.548572,-15.168964,-13.38949,-13.451586,-1.163958,9.405477,10.274985,7.039065,16.771659,24.300949,21.652683,17.835223,31.775231,40.041907,34.992156,28.791525,26.124653,52.831238,77.347229,97.915238,53.106961,85.957054,103.861061,116.808815,43.626538,82.105271,102.565727,116.215828,35.492878,71.032608,89.661553,101.910004,29.406178,57.088658,72.39505,82.787224,-14.856693,-15.039177,-10.427681,-9.809659,21.461874,36.285456,41.387015,44.068193,38.787113,51.849881,54.285664,53.914914,49.262638,62.298027,62.86618,60.592295,54.33762,65.42813,64.894582,61.741939,-20.6208,332.201597,-75.751934,302.540837
17,0.719101,0.433142,0.285473,-0.091058,13.587387,21.626175,21.976708,18.454788,10.782601,37.615517,48.224121,52.692421,6.039986,34.433281,48.353554,57.697724,0.636143,26.816437,41.721085,51.6847,-6.184341,14.58078,27.43824,35.727036,-26.575376,-44.58581,-50.942435,-49.300244,-22.517843,-16.069272,-14.42166,-14.453486,-2.04626,8.80719,9.658283,6.414559,15.997655,23.731412,21.154716,17.36697,31.090937,39.404581,34.348827,28.199586,26.059136,52.839558,77.423435,97.989704,53.199017,86.186726,104.054798,116.925304,43.723309,82.303379,102.636486,116.105358,35.571751,71.245022,89.75227,101.794613,29.478493,57.260994,72.510464,82.688633,-14.849677,-15.064544,-10.529396,-10.101058,21.340535,36.121595,41.097036,43.686367,38.739924,51.609723,53.94537,53.507597,49.281559,62.127065,62.611509,60.285964,54.36799,65.35739,64.729129,61.498829,-19.925148,332.696294,-75.48991,302.511334
18,-1.227711,0.202986,0.122406,-0.100505,14.391781,23.007969,23.997311,20.773213,12.618039,39.773358,50.377568,54.803135,7.485707,35.922284,49.915112,59.072079,1.563183,27.780064,42.794919,52.684422,-5.742176,15.106534,28.195164,36.675694,-26.702681,-44.992239,-51.378998,-49.487694,-23.773661,-17.428374,-15.595227,-15.345582,-3.051779,8.173754,9.299637,6.169743,15.348374,23.42513,21.031795,17.286917,30.811653,39.218243,34.271294,28.131141,26.028168,52.887669,77.508602,98.023762,53.260014,86.30286,104.131634,116.988979,43.83244,82.402622,102.682606,116.110233,35.738617,71.38512,89.897381,101.995731,29.698185,57.416679,72.680317,82.903004,-14.820592,-15.091343,-10.695739,-10.135453,21.131448,36.030365,40.900942,43.381307,38.5607,51.553159,53.871801,53.337462,49.138002,62.187408,62.784213,60.45868,54.229607,65.445508,64.953382,61.786895,-21.173819,332.947637,-75.388464,302.459186
19,-1.386154,-0.01314,-0.029571,0.04908,15.134274,24.252537,25.748623,22.622372,14.079541,41.627987,52.591976,57.369473,8.603314,37.131901,51.595242,61.08585,2.314625,28.622784,44.039257,54.185017,-5.281105,15.534268,28.896984,37.653569,-26.717539,-45.179467,-51.614873,-49.835423,-24.407024,-17.856429,-15.798497,-15.205607,-3.505522,8.053637,9.47255,6.632093,15.027,23.266752,21.13062,17.661519,30.646334,39.050429,34.256078,28.205562,26.031509,52.95829,77.594638,98.063037,53.46976,86.590107,104.441379,117.358257,44.122581,82.662975,102.934238,116.363903,36.116123,71.739841,90.275425,102.426555,30.156967,57.928573,73.218418,83.460514,-14.987702,-15.349436,-11.069614,-10.562507,20.755153,35.640398,40.438998,42.877905,38.310153,51.273787,53.541052,52.937529,49.010857,62.091928,62.728205,60.383492,54.183294,65.437541,64.957555,61.798145,-22.591118,332.974993,-75.44918,302.548762
20,-2.381721,-1.343714,0.099208,0.088574,15.815059,26.053974,28.562107,25.857456,16.449291,44.649135,56.147495,61.505916,10.683368,38.926357,54.107586,64.442974,3.741966,29.897655,46.189121,57.091427,-4.251011,16.363163,30.170963,39.610554,-26.451653,-44.402325,-50.64218,-49.374641,-23.808118,-16.698361,-14.196864,-13.029917,-2.935368,8.967284,10.872741,8.549382,15.516965,23.82899,22.183811,19.321976,31.159258,39.600564,35.156276,29.305906,25.962777,52.880894,77.601059,98.03936,53.269169,86.632393,104.737473,117.983483,44.10997,82.84346,103.446373,117.261612,36.292591,72.015267,90.83931,103.407624,30.45829,58.348229,73.753304,84.223618,-15.07062,-15.655236,-11.666369,-11.337301,20.3817,35.091487,39.876515,42.342011,38.084765,51.273294,53.757501,53.306538,48.908933,62.203599,63.07071,60.790193,54.191495,65.459636,65.110487,62.03192,-25.007967,331.639912,-75.3851,302.645969
21,-4.580235,-2.371463,0.274098,0.086933,16.877072,29.365586,34.272789,33.000138,20.504975,50.049477,62.239174,68.049797,14.989586,44.524521,60.409584,71.131851,8.033833,35.774117,52.801575,64.031479,0.20184,22.311379,36.59681,46.36908,-26.173122,-43.174813,-48.931718,-47.603244,-23.241978,-16.076497,-13.229532,-11.251258,-2.250271,9.721232,12.406572,11.048013,16.238481,24.684147,23.875389,22.023902,31.953245,40.459648,36.619761,31.251081,25.901562,52.660389,77.13509,97.050052,53.240948,86.503567,104.808735,118.46339,44.263264,82.889705,103.84045,118.231624,36.508987,72.101429,91.242451,104.362736,30.562317,58.379871,73.909366,84.703205,-15.356253,-16.394154,-12.83144,-12.875776,19.612548,33.937297,38.927929,41.588309,37.515635,51.389273,54.570024,54.649806,48.508258,62.261001,63.711222,61.83212,53.991534,65.280633,65.191367,62.291605,-29.630533,329.253863,-75.153333,302.718316
22,-1.838505,-3.880606,-0.104141,-0.15287,17.092209,30.788785,36.946805,36.410489,21.274281,52.035153,64.732922,70.941388,16.143071,46.396809,62.814091,74.138638,9.549843,38.533665,56.288739,67.988537,2.370827,25.505505,40.235631,50.386036,-25.037285,-40.350806,-45.481525,-44.500693,-20.326901,-12.102265,-8.807757,-6.313485,0.404095,12.896525,16.462957,16.291463,18.348876,27.237255,27.623751,27.043099,33.616394,42.512985,39.600935,34.981806,25.858497,52.464729,76.684467,96.169429,53.410801,86.605487,105.015369,118.958988,44.630264,82.951801,104.165691,119.003826,36.964485,72.136104,91.460186,104.92313,30.883998,58.378109,74.025226,85.361652,-15.700659,-17.303675,-14.30016,-15.09411,18.482813,32.384917,37.713188,40.754148,36.564259,51.118165,55.44015,56.440272,47.700366,62.093683,64.622091,63.567221,53.428766,65.233494,66.120267,64.085875,-31.528199,325.349014,-75.316635,302.541203
23,2.408501,-3.815385,-0.959759,-0.800236,15.957962,28.562634,34.338169,34.332356,17.150677,46.902729,60.412251,67.966839,12.037525,40.327892,58.161289,71.427532,5.769184,32.860966,51.870838,65.275463,-0.810287,20.994484,36.34544,47.445797,-23.771599,-37.841924,-42.420186,-41.656815,-16.681491,-7.034063,-2.622935,0.584221,3.519193,16.453262,21.658315,22.810775,20.75088,30.136894,32.252944,32.819122,35.366684,45.04984,43.341713,39.634329,25.670997,51.995544,75.999527,95.198364,53.006927,86.289505,104.868965,119.124115,44.791088,82.721123,104.221939,119.565147,37.616741,72.261383,91.688667,105.306724,31.782074,58.914242,74.599159,86.300148,-16.036347,-18.492099,-16.164973,-17.851451,17.024058,30.256294,35.896058,39.362763,35.422791,50.541935,56.031818,58.157255,46.82903,61.473338,64.972018,64.849134,52.931725,65.220156,67.10027,66.059998,-29.189392,321.52009,-76.346088,301.727428
24,4.388546,-3.838875,-1.802639,-2.071639,12.042927,21.777718,27.604477,29.315804,7.342896,36.119202,51.052231,60.019066,3.234181,30.93306,49.27359,62.523605,-0.700813,25.67038,44.490143,57.321671,-4.389873,16.74606,31.457451,41.971069,-22.355155,-35.064057,-39.331653,-39.080958,-12.410301,-3.472176,1.18709,4.514067,8.205692,19.44066,24.276261,25.341801,24.996542,33.017328,34.387224,34.489335,38.651139,46.712532,44.557752,40.737958,25.033184,50.66486,73.893848,92.662113,51.314289,84.729091,103.622669,118.262958,43.633049,81.464641,103.438808,119.44051,37.017528,71.127067,90.848705,104.746456,31.557129,58.134235,73.781971,85.72871,-16.601117,-19.956499,-18.756367,-20.850114,15.292785,27.953892,33.765532,37.42953,33.676624,49.385707,55.892125,58.967234,45.394185,60.607313,65.218636,66.026072,51.927341,65.039609,68.081632,67.879016,-24.908672,317.671783,-78.256553,299.646357
25,22.261963,-12.238548,-2.085148,-2.924179,0.458347,1.789352,3.159187,2.93343,-10.941627,4.357761,12.696922,18.560383,-11.489811,2.643448,12.881012,21.113091,-11.135582,2.87249,13.632546,21.305569,-10.427456,2.205448,10.852982,16.665207,-16.816033,-22.950862,-23.257651,-21.47504,-2.171305,8.246915,11.913334,13.47862,16.260538,29.334644,33.179188,32.85033,30.760498,41.676032,43.768827,43.392261,41.59525,52.565569,53.191212,51.467622,22.952053,46.825195,68.87431,87.200249,45.120277,78.463074,98.072662,113.203697,39.533855,76.463631,98.943924,114.796623,35.100174,68.107544,87.85881,101.282455,31.407703,57.370892,72.710747,84.071777,-18.719674,-23.310039,-22.99799,-24.932593,10.893699,22.269187,27.654317,31.163902,29.540175,45.024881,51.876324,55.563144,41.792123,57.122256,62.422701,64.28003,49.139014,62.509152,66.432946,67.333452,-2.785446,305.431074,-80.480438,296.720017
26,24.754429,-13.295864,-1.924702,-5.467863,-9.93758,-17.489124,-21.949459,-24.64048,-27.94241,-24.873825,-20.509174,-15.543182,-24.713265,-23.549183,-18.079205,-11.504093,-20.543186,-18.898304,-13.750568,-8.38076,-16.270077,-13.575668,-10.031239,-7.078526,-12.736838,-14.029015,-11.085583,-7.153539,5.609765,21.781235,27.037084,28.087533,22.521066,41.077312,45.547042,44.469287,35.770852,51.783722,55.053592,54.160928,45.218023,60.130402,62.707975,61.749535,20.424511,42.689518,63.235153,79.98563,42.613026,74.396519,91.56831,103.464649,38.343396,73.030621,92.140972,104.360859,34.605732,65.545178,82.220959,92.415596,31.094261,55.617337,69.40551,79.051701,-11.448267,-13.789225,-13.194865,-14.904277,11.652167,21.198855,24.894012,26.849993,24.63629,37.253665,42.644106,45.40057,32.671254,45.58965,50.207432,52.010754,37.095634,48.148118,51.852389,53.209787,21.858187,292.13693,-82.515936,291.253874
27,30.140133,-19.258348,-6.843464,-13.486315,-19.23967,-35.50399,-45.453942,-51.052311,-42.710495,-50.772663,-50.183945,-46.663593,-35.393177,-45.72155,-45.484131,-41.914353,-27.237911,-36.998795,-37.924942,-36.184284,-19.585167,-26.536686,-28.247566,-29.077584,-8.99727,-5.980565,-0.128194,4.627909,10.623046,31.895187,39.563155,41.07567,25.588654,49.418447,55.954431,55.175623,37.70164,58.910028,64.554522,64.246067,46.250885,65.116772,70.138501,70.701998,18.386742,39.534817,58.353985,73.510929,41.35532,71.590611,84.648709,92.38741,37.191388,69.105011,83.761116,92.192459,32.539856,60.932797,74.08976,81.324726,27.74334,49.720185,61.458641,69.242077,-11.510906,-14.787741,-15.473023,-17.23102,7.038917,14.787174,15.91281,16.039188,18.294412,27.904937,30.061175,31.355019,25.693544,35.368895,37.279971,38.102166,30.289714,38.9334,41.408777,42.677192,51.927504,272.872357,-89.430216,277.761334
28,32.716003,-23.13825,-10.819839,-19.453034,-26.866447,-50.184608,-64.715355,-73.522442,-52.432503,-69.559879,-71.692657,-69.521656,-40.465336,-59.1175,-63.92688,-63.889412,-28.008373,-45.83036,-52.290436,-54.307262,-16.62545,-30.515579,-37.131958,-41.480507,-6.874031,-0.994762,6.567391,10.547476,9.355039,36.045716,44.104095,44.670853,22.167657,51.828355,58.321856,56.774662,33.501908,59.96748,66.319115,65.673872,42.170319,64.115724,70.597578,71.785483,14.527359,33.290646,49.168453,61.674374,39.186973,66.101967,73.786148,77.10038,36.653377,64.123146,72.811214,76.737213,32.685024,56.832561,64.389473,67.486542,28.089638,46.59145,53.999737,58.051449,-12.88883,-18.686614,-21.794858,-24.850552,-2.399671,3.007171,3.269103,2.668235,8.009263,13.885543,14.477013,14.92416,15.959418,22.547792,23.211881,23.30211,21.932523,28.151926,29.813518,30.466443,84.611189,249.736287,-100.282373,258.31048
29,32.837151,-26.856848,-12.885887,-24.78275,-32.443337,-58.811096,-76.045395,-87.286938,-52.656624,-77.350537,-82.907067,-82.921612,-36.800011,-64.234246,-73.147019,-74.951729,-21.805573,-47.793434,-58.062744,-61.70493,-8.645165,-28.698738,-38.760384,-44.818085,-5.009304,0.540008,7.101483,9.232477,1.446207,32.226478,43.148582,44.61119,10.31427,46.729625,55.417599,54.558021,20.315614,52.776139,62.204179,63.19594,29.650251,55.219343,64.517473,68.000727,8.682358,23.425907,36.43285,46.313324,31.815571,54.761215,57.589405,56.438072,32.349334,55.277767,57.754955,56.785228,30.579643,51.30677,53.235546,52.214195,27.429107,43.788425,47.129253,47.454277,-14.526723,-24.524084,-30.998744,-36.085008,-14.470839,-14.417974,-15.164339,-16.001835,-4.782545,-4.819657,-5.098441,-4.484476,3.932068,5.206276,4.87659,5.106302,11.689526,13.501801,14.074549,14.67107,117.446881,222.934881,-113.169719,233.583172
30,18.287887,-23.182944,-16.407498,-28.877173,-29.025627,-52.694732,-67.446304,-75.949127,-41.669334,-59.145813,-61.908645,-61.124336,-24.245933,-44.143478,-50.480232,-50.995697,-8.762397,-28.139831,-36.463966,-39.119201,4.084786,-11.480095,-20.401748,-25.634811,-8.759395,-11.580592,-11.331232,-13.077336,-17.258024,11.342433,25.96811,31.054825,-9.422508,26.088832,38.164539,40.640391,1.504913,32.656779,44.120237,47.308126,13.295542,35.929545,45.263718,49.030494,6.806694,18.107174,27.566449,33.726162,27.503941,43.951893,43.070847,38.901867,27.945145,44.329193,42.930371,39.488869,26.148903,42.474312,40.954754,37.558331,23.274468,36.4888,37.270993,35.619072,-15.041233,-29.022125,-38.470482,-45.160954,-29.254931,-35.706379,-37.824004,-38.398864,-21.856972,-29.298495,-29.949153,-28.373944,-13.725659,-18.413077,-18.401444,-16.828129,-5.253836,-7.892308,-7.477153,-6.355303,135.786398,199.867519,-129.525587,204.821581
31,20.356385,-28.183648,-19.038059,-34.768464,-26.449517,-45.887696,-56.425873,-62.91108,-30.549134,-41.283944,-44.490601,-45.484703,-12.396881,-25.766236,-33.2986,-35.930901,3.303428,-10.102616,-19.399544,-23.915131,16.13681,5.759124,-3.456391,-9.630318,-12.167246,-23.210183,-29.854657,-37.545665,-34.334896,-14.599557,0.688313,8.001297,-27.911526,-0.049709,13.855125,19.123257,-17.381975,7.537725,20.555255,25.917562,-5.136294,11.880711,22.146896,27.132087,6.746796,14.180786,19.783562,23.085274,16.927918,29.374066,29.392914,26.457733,16.475819,29.628536,29.521809,27.164921,15.054188,29.676384,29.18858,26.426514,13.468414,25.898163,26.852097,24.910961,-25.60797,-46.613867,-59.997281,-67.974199,-47.983874,-60.143864,-61.463007,-60.085948,-36.796713,-49.086644,-47.966461,-43.965849,-24.515056,-33.305832,-31.61397,-27.617378,-11.93428,-17.391967,-16.039571,-13.332297,156.09664,171.720424,-148.609789,170.08967
32,18.04692,-29.086587,-17.274799,-33.751473,-24.201004,-38.438827,-44.18914,-47.880111,-18.532836,-22.87873,-27.027603,-29.674758,-0.300682,-7.009964,-15.219978,-19.148689,14.831589,7.75129,-1.868522,-7.346168,27.04097,22.852341,13.619454,7.132279,-16.528164,-35.868313,-49.543473,-62.175854,-49.959325,-38.699131,-23.45929,-15.068317,-43.886098,-24.649313,-10.776206,-3.931494,-33.354472,-15.948989,-3.308377,2.864762,-20.770202,-10.268852,-0.302033,5.032622,3.90517,6.330013,8.221962,9.194996,3.195717,11.485336,13.612736,12.659351,4.367454,14.394001,15.99218,14.795528,5.999428,18.651031,19.129326,16.805465,7.9911,19.688347,20.682449,18.301529,-29.49472,-54.284169,-70.099357,-78.804153,-61.12998,-79.196743,-78.031291,-73.79449,-50.038588,-67.864295,-63.638313,-56.822124,-37.31071,-50.373312,-45.41752,-38.535011,-23.945593,-32.938565,-30.275337,-26.115879,174.073556,142.685893,-165.954592,136.390253
33,15.250832,-31.711282,-15.296883,-34.588999,-21.539749,-29.895996,-30.187088,-30.585113,-5.645142,-4.48201,-11.214592,-16.68512,12.535126,11.052933,0.447968,-5.942253,26.908768,24.920311,13.112526,5.154648,38.160942,39.093338,28.821281,20.892883,-20.256222,-46.252707,-65.535422,-81.788809,-61.245843,-57.567037,-40.964964,-30.458687,-54.978621,-43.25817,-28.084754,-19.158905,-44.427624,-33.226291,-19.847274,-12.176631,-32.077505,-26.772484,-16.409622,-10.162697,4.293949,3.480618,2.539364,1.637844,-7.874702,-3.683189,0.720955,1.714703,-8.568901,-2.003322,2.137974,2.988945,-7.541725,2.655647,5.951145,5.952473,-5.489834,3.990029,7.19038,6.886597,-32.061845,-58.408455,-75.082931,-82.977628,-69.216315,-92.519827,-90.295935,-84.159964,-59.354811,-81.834122,-76.013794,-67.332754,-47.439204,-64.852715,-58.524441,-49.387751,-34.455964,-47.385926,-44.28897,-38.451148,189.039402,111.146048,-181.536461,101.972691
34,15.474197,-34.051066,-15.062588,-27.846972,-17.280326,-21.413818,-18.376602,-17.182548,4.862343,10.08648,0.591408,-7.142601,22.49302,24.879044,11.543129,2.835915,35.570664,36.92379,22.328156,12.09842,45.297547,49.810708,38.172318,28.619729,-24.361477,-53.833417,-75.382248,-93.243092,-66.150024,-67.055205,-51.273022,-40.282227,-58.601296,-53.082489,-37.393561,-26.780265,-47.496102,-41.174792,-27.435171,-19.038301,-35.355236,-33.34807,-22.734526,-16.591632,3.977303,0.967804,-2.271926,-5.02914,-13.73339,-12.611274,-7.160762,-4.562072,-15.254036,-12.365924,-6.637939,-4.446601,-14.270519,-8.234493,-3.620693,-2.454116,-11.440166,-6.254676,-3.10984,-2.980259,-35.73061,-62.328976,-79.273326,-87.885706,-72.936635,-96.843214,-97.056988,-92.543724,-63.885624,-87.404553,-85.011335,-78.797144,-53.139737,-72.02137,-68.483454,-61.232141,-41.238432,-54.969494,-53.470453,-48.734413,204.167289,77.67602,-196.945359,74.706757
35,14.624199,-28.485206,-12.596592,-24.432032,-13.838539,-13.992805,-8.949073,-7.76699,11.007706,19.513756,9.656296,1.272995,26.958207,32.519738,19.075608,9.559227,38.708794,42.839699,28.457909,17.670365,47.244049,53.724152,42.79683,33.561699,-27.890111,-58.430864,-81.083694,-100.82422,-68.330295,-69.505653,-55.392262,-46.184862,-59.300372,-56.937369,-42.051469,-32.244775,-47.869623,-45.024936,-32.077913,-24.358494,-35.861157,-36.075097,-26.666607,-21.379172,1.464043,-3.769397,-8.871963,-12.747436,-18.685546,-19.935848,-15.211315,-12.412113,-20.032619,-20.046775,-15.293129,-13.150589,-19.070755,-16.949157,-13.32265,-12.095684,-16.090873,-14.291313,-12.081401,-11.947631,-37.84968,-64.238503,-81.736007,-91.874875,-70.102069,-93.139696,-96.051673,-94.559388,-61.585761,-84.885216,-86.83191,-84.749797,-52.220817,-72.733482,-74.228392,-71.358313,-42.468204,-57.93512,-60.100552,-58.468884,218.26803,49.994254,-210.065409,51.078165
36,12.513771,-23.670792,-14.153915,-20.105854,-10.781822,-8.81884,-2.821586,-1.081604,14.021645,23.820809,15.005906,7.250176,28.475487,36.106957,24.04786,14.718956,39.19423,45.576416,32.754204,22.249009,46.812882,55.119461,46.239258,38.157303,-30.607616,-59.90715,-82.04952,-102.143764,-67.806892,-67.794252,-55.870976,-48.647283,-57.724686,-56.252421,-43.952696,-35.788562,-46.091977,-44.824142,-34.192691,-27.864867,-34.222621,-35.280548,-28.297861,-24.3121,-3.404537,-10.313805,-14.509655,-16.767883,-26.734989,-26.282696,-21.193039,-19.255119,-24.630821,-24.225861,-19.330101,-17.716026,-19.978741,-19.359146,-16.284061,-15.715645,-13.450012,-16.104,-15.763012,-15.91,-38.577384,-66.126515,-85.382196,-96.921057,-68.531206,-94.774273,-95.752325,-92.668374,-60.243961,-87.744631,-89.059853,-86.383164,-51.868722,-77.10367,-78.390425,-75.352583,-43.811337,-62.599011,-69.105676,-71.499085,230.360704,27.484963,-224.640421,32.133812
37,8.517746,-18.289496,-11.384697,-13.505704,-8.175842,-4.566284,1.893311,4.191147,17.132332,27.385689,19.435524,12.069786,30.263947,38.598587,27.183747,17.937218,40.111245,47.644158,35.651665,25.40902,46.916909,56.213013,48.930405,41.894989,-31.740342,-59.451957,-80.596718,-100.115109,-65.997198,-65.136582,-55.864202,-50.140563,-55.422372,-53.936638,-44.51996,-37.656655,-43.75449,-43.047021,-35.115304,-29.843307,-32.099105,-33.396957,-28.892573,-26.198854,-6.615852,-15.096462,-18.915665,-20.742783,-34.376713,-31.588715,-25.090118,-23.98875,-29.68848,-27.326305,-21.299206,-20.363228,-22.168877,-20.929298,-17.054214,-16.996616,-12.979912,-18.502647,-19.762436,-20.767559,-37.522774,-65.317789,-86.179585,-99.636346,-65.534607,-94.781708,-94.846731,-91.106558,-58.136074,-88.540544,-89.007834,-86.063599,-51.285786,-79.664447,-80.2769,-76.884493,-45.486564,-66.834114,-77.940296,-85.053758,238.545982,10.581717,-236.357586,20.014358
38,5.53402,-13.984394,-8.774792,-6.824582,-6.483353,-1.208885,6.075783,8.733055,20.693413,31.814323,23.711998,15.962906,33.319702,42.033623,30.024696,19.933639,42.435379,50.013084,37.443146,26.308204,48.495872,58.334335,50.784347,42.974579,-32.906831,-60.79462,-81.95117,-101.553112,-66.419169,-65.826791,-56.761059,-51.092914,-54.915178,-53.456084,-44.371623,-37.769546,-42.469512,-41.711915,-34.113749,-29.107933,-30.12721,-31.795194,-27.846459,-25.380889,-10.314582,-20.890354,-24.567924,-26.500145,-43.460735,-36.157367,-26.935913,-26.453155,-35.015442,-27.791416,-19.837761,-19.951217,-23.126392,-18.375663,-13.27835,-14.357174,-9.585605,-15.326694,-17.916904,-20.252449,-37.066524,-65.435133,-88.064541,-103.603458,-62.199708,-94.128623,-93.22514,-88.988592,-55.128415,-88.44698,-88.114873,-84.656239,-49.548567,-81.022283,-80.336415,-76.23252,-45.983364,-69.521022,-85.131131,-97.272108,244.032892,-1.950693,-245.179488,14.64176
39,3.278847,-9.156091,-6.076366,-7.657217,-5.453568,0.824134,8.381309,10.730827,22.011955,34.344978,26.331825,18.161041,33.935234,43.584091,31.57164,20.83081,42.602439,50.934173,38.463089,26.702591,48.285987,58.430351,50.900985,42.663047,-32.087589,-59.739146,-81.407143,-101.570984,-65.66955,-64.47321,-54.93978,-49.222056,-53.526437,-51.632385,-42.373664,-36.128487,-40.769345,-39.867789,-32.357803,-27.646376,-28.154496,-30.133584,-26.346987,-23.81338,-11.441483,-23.41238,-27.417973,-29.219845,-51.053604,-40.093655,-27.834549,-27.745113,-41.201237,-29.68047,-19.020687,-19.303036,-27.20565,-18.587093,-10.990883,-12.13456,-11.627392,-16.767277,-18.676987,-20.630722,-33.369904,-61.192763,-84.18598,-99.264874,-59.413493,-95.560313,-90.105701,-82.259052,-53.287383,-90.741805,-85.246444,-77.981588,-49.184012,-84.346098,-78.68876,-70.754191,-47.88897,-74.911611,-92.772726,-107.603452,247.326468,-9.907486,-251.241125,8.183841
40,-0.39544,-9.123883,-3.96611,-6.288502,-5.212898,1.947831,10.167733,12.084229,24.069718,35.208619,26.698151,18.143349,36.192856,44.176896,31.325318,20.059868,44.775444,51.202515,37.437745,25.240975,50.483689,59.59108,50.760453,41.840538,-30.288732,-58.054076,-79.671635,-99.972111,-63.389225,-62.794926,-51.828893,-44.751005,-50.8434,-48.276522,-38.185257,-31.049447,-37.482741,-35.522277,-27.561648,-22.452573,-24.179028,-26.104919,-21.857732,-18.921376,-13.026844,-25.636998,-28.943528,-29.848572,-57.637356,-41.226666,-26.233818,-26.887345,-45.743145,-28.442894,-15.155525,-16.056073,-29.045105,-15.668278,-5.509117,-6.94162,-10.955509,-15.25961,-16.844433,-19.083618,-30.770107,-58.342616,-81.848541,-96.356133,-57.183246,-97.311264,-86.839135,-74.486502,-51.044162,-92.280785,-81.196098,-69.191719,-47.301482,-85.324663,-73.948761,-61.300443,-46.754775,-75.96879,-94.557918,-110.596803,247.118408,-17.989624,-255.019855,2.937084
41,-3.853019,-6.577148,1.583976,-2.262214,-6.030281,2.024711,11.033569,12.971512,24.999,34.903106,26.67984,17.909706,37.756187,45.117187,30.813537,18.314346,46.493957,51.570282,36.014373,22.493934,52.374046,60.137718,48.960869,38.218826,-27.370407,-55.697865,-77.300826,-97.038398,-62.645231,-64.525778,-54.690796,-48.120243,-50.285941,-48.047409,-35.723564,-26.749346,-36.201055,-33.439879,-23.394143,-16.759784,-21.86821,-23.22076,-17.271207,-13.148422,-14.707031,-27.263683,-30.29623,-31.043518,-57.675945,-41.790939,-26.706985,-27.326374,-45.107231,-28.757423,-15.524986,-16.495994,-28.269641,-15.739196,-5.539157,-6.887512,-10.334381,-14.524589,-16.307762,-19.053119,-28.668345,-55.393194,-78.549093,-92.472458,-54.460152,-94.314664,-84.727845,-72.802488,-49.009344,-89.884326,-79.567746,-67.810857,-46.156488,-83.900507,-73.292669,-61.065279,-46.481134,-75.348297,-94.016404,-110.503634,243.353371,-23.525073,-253.347897,1.716569
42,-7.513321,-4.962954,4.586987,-1.90416,-5.596276,3.054313,12.524414,14.138168,25.696953,34.222755,25.916267,17.134048,38.60923,44.745254,29.799156,16.989738,47.351555,50.392387,33.593559,19.562691,53.527839,59.103355,45.988083,34.154365,-25.479184,-53.947908,-75.038397,-94.510855,-62.115129,-65.504127,-54.066098,-45.914544,-49.487738,-47.303094,-32.391685,-22.413831,-34.832864,-31.273206,-18.899319,-11.316708,-19.864299,-20.834651,-13.221745,-8.070841,-15.861019,-27.385609,-28.875687,-28.651451,-55.784992,-40.615036,-25.888309,-26.178646,-42.905834,-27.952892,-15.128883,-15.726185,-25.862881,-15.013927,-5.563316,-6.821766,-7.516159,-11.906216,-13.581322,-16.304169,-27.621423,-54.472935,-77.508685,-90.297455,-53.564209,-92.908188,-83.644243,-71.974842,-48.153935,-88.937235,-79.666646,-68.111884,-45.30537,-83.449507,-74.502317,-63.227025,-45.31336,-74.122144,-92.62836,-108.914216,236.008547,-27.341986,-248.592413,0.95845
43,-9.552521,-3.670723,8.580826,-2.014021,-4.91494,3.186104,12.029503,13.804207,23.439262,29.955689,22.219826,13.755936,35.18985,40.29229,26.3741,14.368034,43.385696,45.672821,29.612755,16.522865,49.468529,53.304359,40.467522,29.541962,-22.262499,-47.458032,-65.480384,-81.798603,-56.289946,-61.773617,-51.710641,-43.304464,-44.361131,-44.376581,-29.956835,-19.819066,-30.507957,-28.773271,-16.78294,-8.860653,-16.394092,-17.544169,-10.481175,-5.397023,-18.056065,-28.32478,-27.820015,-25.519959,-52.69249,-39.424084,-25.385708,-25.14172,-39.199345,-26.764446,-14.663967,-14.716919,-21.89019,-13.344887,-4.905911,-5.940788,-3.212712,-7.857937,-9.503437,-12.286789,-26.257442,-52.966527,-75.728284,-87.661447,-52.785098,-91.836503,-82.805011,-71.239301,-47.693758,-88.481504,-80.297846,-68.916424,-44.889159,-83.190877,-76.241461,-66.184703,-44.4054,-73.13754,-90.706131,-105.631841,226.361452,-29.541166,-240.106161,0.415972
44,-17.281311,-0.371101,12.838955,-2.710583,-5.861893,2.147598,11.419281,13.343124,22.509979,26.724037,19.070274,11.506645,34.437767,37.578003,24.084709,13.347198,42.773621,43.230835,27.383812,15.463371,49.054916,50.636536,37.785645,27.838234,-23.169144,-48.791866,-65.974937,-81.511794,-56.331955,-63.358226,-54.02622,-45.531296,-44.677924,-46.220832,-32.157355,-21.517882,-30.896485,-30.466313,-18.594253,-10.040339,-16.667603,-17.719268,-10.874328,-5.832703,-19.845509,-28.614006,-26.363114,-22.244877,-48.977978,-37.795098,-24.027294,-22.64201,-35.441654,-25.772541,-13.746128,-12.62796,-18.032593,-11.877812,-3.946713,-4.240105,1.046104,-4.05439,-5.095631,-7.260098,-25.837892,-52.056678,-73.883702,-84.528058,-52.370877,-90.674361,-82.227738,-70.969156,-47.741158,-88.347099,-81.531132,-70.150216,-44.9198,-83.199801,-78.680319,-69.931422,-43.56683,-71.585573,-87.91103,-100.934254,209.356281,-27.82702,-226.991066,-0.209364
45,-19.598213,-1.424168,17.198353,-5.86674,-6.069786,1.578094,11.054558,13.512108,22.321083,23.969696,16.584778,9.544784,34.140014,35.457733,22.558342,12.621483,42.287224,41.30619,26.001251,14.716781,48.274978,47.870476,35.1828,25.677818,-22.391274,-46.599313,-62.472139,-76.248609,-55.038309,-63.244099,-54.315132,-45.369232,-44.046328,-46.669671,-32.543777,-21.717287,-30.884327,-30.941971,-19.023598,-10.14237,-17.375171,-17.539495,-10.890124,-5.966825,-21.336113,-28.637398,-24.278115,-18.064888,-43.018811,-35.304841,-23.451027,-21.906579,-29.06234,-22.618035,-12.810162,-11.41602,-11.820431,-8.252621,-2.313309,-2.190777,6.800617,1.359466,-0.478638,-2.785527,-25.374591,-51.268854,-72.217996,-80.858268,-51.690752,-88.225772,-78.607775,-67.290431,-47.459613,-85.764246,-78.38501,-67.002168,-44.451609,-81.183026,-77.325916,-69.597568,-42.052222,-69.056931,-84.59909,-96.431679,190.433665,-26.951899,-209.117116,-3.776815
46,-23.867752,-1.008971,19.444725,-6.478502,-6.315857,0.919121,10.311928,12.810356,23.902885,24.011512,14.500076,6.955856,35.713325,33.980163,20.593712,11.681419,43.765526,40.127884,24.624641,14.527633,49.551246,46.530235,33.644233,25.227516,-24.499297,-49.845402,-65.858037,-80.027895,-56.783641,-62.236129,-50.037217,-38.765452,-45.565388,-46.723727,-32.922603,-22.384068,-32.32623,-31.888642,-20.427209,-11.760428,-18.471512,-18.085449,-11.571428,-6.678832,-21.799565,-28.689984,-24.29012,-17.679966,-38.127949,-32.775124,-21.569447,-19.55579,-24.111214,-19.542057,-10.487275,-8.675457,-6.891564,-4.727944,0.697391,1.299671,11.437683,6.8348,5.635059,3.561252,-24.678391,-49.380186,-69.567995,-77.746238,-48.935324,-84.768298,-74.802423,-63.698007,-45.219388,-82.848181,-75.533159,-64.219749,-42.348704,-78.003904,-74.469348,-67.134282,-39.764931,-66.823541,-82.147968,-93.660196,167.990027,-25.608349,-188.248277,-7.902796
47,-23.705132,-1.394788,23.766552,-6.708626,-7.389519,-0.690491,8.348808,10.759918,24.033577,21.379257,11.091339,3.622421,36.194847,31.148529,17.79348,9.686875,44.088661,37.971062,22.710297,13.470978,49.331955,44.115372,31.191033,23.402962,-24.196077,-49.718474,-65.913427,-79.799832,-57.436466,-60.997686,-48.28432,-37.188555,-46.521655,-45.635123,-31.882942,-21.888792,-33.163874,-31.198265,-20.011499,-12.052618,-19.092517,-16.95184,-10.509889,-6.221131,-22.209561,-29.400021,-24.90429,-17.022377,-34.384518,-31.288605,-21.236996,-19.151654,-20.231392,-16.49231,-8.822606,-7.289006,-3.269349,-1.231144,3.474689,4.242565,14.3596,10.768215,9.763961,7.815753,-24.029457,-48.207923,-67.664212,-74.393599,-46.415099,-82.063019,-71.6081,-60.500207,-43.120152,-80.400438,-72.522166,-61.086675,-40.558782,-75.532178,-71.20763,-63.55182,-38.325282,-66.183968,-81.387864,-92.020066,146.296125,-24.770792,-162.470495,-12.379077
48,-27.857094,0.322591,23.136566,-5.971012,-9.543914,-2.918357,6.568749,8.284264,23.866311,20.40358,9.859246,3.11673,37.187577,30.265,17.129494,10.120469,45.912781,38.008919,22.876122,14.634613,51.680741,44.874642,31.858635,24.803856,-26.269762,-55.674054,-75.221691,-92.022023,-61.517484,-62.76486,-49.096005,-38.568715,-49.916786,-46.828283,-32.940072,-23.157004,-35.737854,-32.668204,-21.513035,-13.940045,-20.684684,-18.034875,-11.330719,-7.201383,-22.207936,-29.493988,-24.410443,-15.425595,-31.002629,-29.089794,-20.169045,-18.456677,-16.373234,-13.777211,-7.311116,-6.172074,0.691429,1.869278,5.802875,6.667042,17.806984,15.378193,14.758758,13.259983,-22.670626,-46.89036,-66.373696,-72.309454,-44.463977,-79.674673,-69.085138,-58.380013,-41.477109,-78.095499,-69.802431,-58.570494,-39.218489,-73.148136,-68.166471,-60.416615,-37.29321,-65.924554,-81.890747,-93.254129,121.245918,-22.683739,-136.527042,-16.585627
49,-22.236625,-2.21676,22.735565,-5.102418,-10.961701,-5.189209,3.719948,5.485908,22.101288,16.505996,6.376716,0.033691,35.91703,26.968849,14.626533,8.101204,44.752166,35.364486,21.07576,13.393478,50.298774,41.951111,29.251281,22.567749,-24.216566,-53.103767,-72.839403,-89.560065,-61.081241,-60.504091,-46.467951,-36.067724,-49.589971,-44.328898,-30.182521,-20.927437,-35.201205,-30.216181,-19.03701,-12.11146,-20.109287,-15.799701,-9.014288,-5.158419,-21.686188,-29.585358,-24.493618,-15.222553,-28.48288,-26.965679,-19.47234,-18.730602,-13.243721,-10.201138,-5.341107,-5.288258,3.930691,5.456085,8.404312,8.764938,20.638447,19.986099,19.718239,18.294365,-21.31526,-46.535648,-67.690165,-75.059392,-42.966881,-78.334257,-67.214811,-56.537417,-39.837834,-76.265581,-67.047825,-56.02035,-37.635956,-70.928246,-64.398609,-55.977582,-36.215209,-66.529017,-83.959679,-96.905777,102.363968,-24.159244,-110.436802,-20.94679
50,-20.705544,0.128768,21.742744,-1.074889,-12.744713,-8.79039,-0.82933,1.486222,19.601761,12.691109,2.182228,-3.958786,34.141686,22.551476,10.46917,4.917023,43.238548,31.548271,17.79847,11.175682,48.987282,38.534203,25.829498,19.769119,-23.488257,-52.44318,-72.125382,-88.105626,-62.256283,-61.565469,-47.817382,-37.671079,-51.17243,-44.219254,-30.094421,-21.293209,-36.523121,-30.312042,-19.189119,-12.437033,-20.912542,-15.456789,-8.510195,-4.655752,-16.405586,-22.538669,-17.817661,-8.699684,-23.755405,-21.978584,-14.813221,-13.808178,-11.836074,-7.836101,-2.851455,-2.79903,2.278038,4.864231,7.947499,7.838379,16.458252,17.855553,19.411744,18.574059,-22.236941,-48.237662,-69.900374,-79.158465,-44.604867,-80.753595,-70.478036,-59.414277,-41.291142,-78.888708,-70.130301,-58.539286,-39.10913,-73.749752,-66.929277,-57.333646,-38.389077,-71.057336,-88.476034,-100.884674,84.357359,-24.150568,-85.995123,-22.141771
51,-17.151764,1.836797,18.755345,0.030764,-15.294204,-15.050789,-9.877899,-8.251281,15.372025,12.582779,6.328926,2.80481,31.081993,17.990708,5.548943,0.131264,40.580429,27.169579,14.078728,8.035652,46.659119,34.855362,22.311333,16.45871,-22.690738,-52.011557,-72.900733,-89.025649,-65.012526,-70.840974,-63.701509,-58.405441,-54.324715,-47.643814,-32.468657,-23.23542,-39.229919,-32.784603,-20.810722,-13.694642,-23.213536,-17.874385,-10.655169,-6.550496,-16.254101,-23.03674,-18.857712,-9.873059,-23.609242,-19.3205,-13.428383,-13.335137,-11.047806,-4.629204,-0.975781,-2.077206,3.268203,7.585693,10.328659,10.134075,17.503395,19.132358,20.472381,20.009926,-22.343053,-49.534236,-72.503166,-83.100185,-47.502857,-83.939953,-73.035312,-61.796663,-43.624202,-81.254947,-71.51687,-59.903118,-40.924011,-75.624637,-67.363815,-57.122287,-39.975809,-73.468158,-91.401598,-104.29673,68.716404,-23.524693,-65.728969,-23.321929
52,-16.083938,2.450213,13.352554,0.707104,-16.644059,-18.681794,-14.965782,-13.261872,12.190956,14.957061,12.930381,11.948112,28.893974,15.676162,3.026115,-2.581375,39.16848,24.736999,12.039528,6.162483,46.11557,33.526153,21.027694,15.287567,-24.260162,-55.768063,-78.217561,-95.299735,-69.084304,-80.46698,-79.730999,-79.52106,-58.174575,-51.952424,-36.739463,-27.196085,-42.307628,-36.262713,-24.143725,-16.790276,-25.22437,-20.633937,-13.018845,-8.498548,-15.998726,-22.995094,-20.24263,-13.064587,-23.119823,-16.575416,-11.56818,-12.166672,-10.23769,-2.58799,0.327026,-1.118225,4.303665,9.371327,11.474018,11.141533,18.777351,21.858479,24.167885,24.951164,-22.170522,-49.704204,-73.861403,-86.842482,-49.312928,-85.798091,-75.615949,-64.812603,-44.907067,-82.736,-73.51076,-62.446741,-41.557225,-76.819316,-69.545784,-59.860992,-39.948515,-73.681172,-92.187595,-106.229472,52.964018,-22.982948,-52.044863,-24.523293
53,-9.481751,1.819309,9.912758,1.380523,-17.319923,-21.710449,-20.361557,-18.708114,9.01664,12.627228,11.640724,10.460449,26.363594,11.6269,-0.400635,-5.696228,37.200279,21.396698,9.625786,3.972634,44.670204,31.29094,19.120125,13.315727,-24.027801,-55.878145,-78.60836,-95.439587,-71.139333,-85.347164,-87.238984,-88.130691,-60.841631,-53.703234,-38.065467,-28.22941,-44.722359,-37.645021,-25.348914,-17.67059,-27.191324,-22.012323,-13.984998,-9.20196,-15.975975,-23.2645,-22.285114,-16.222447,-22.703087,-14.037357,-10.248047,-11.556873,-9.571426,0.11404,1.801895,-0.33292,5.087173,11.743801,13.798702,13.617645,19.450756,24.409161,27.875668,29.658234,-22.466764,-50.382309,-75.188216,-89.467924,-51.067603,-88.115411,-78.844192,-68.085801,-46.38452,-84.316162,-75.952624,-65.534434,-42.598979,-78.913204,-74.953576,-67.659766,-40.655934,-74.282843,-92.736926,-107.012035,43.046505,-23.415596,-42.567867,-25.394727
54,-7.038185,2.522974,5.813908,2.10304,-17.245331,-22.494095,-21.931389,-20.429489,7.891937,10.520966,9.480034,8.335899,25.243561,8.250115,-3.291435,-7.573471,36.265892,18.334877,7.125046,2.411705,44.076668,29.39534,17.622482,12.518829,-25.009188,-58.179194,-81.700488,-99.120786,-73.369999,-88.314883,-90.98561,-92.508283,-63.407182,-55.601923,-40.003158,-30.055327,-47.134577,-39.744597,-27.453196,-19.344434,-29.091477,-24.388788,-16.111868,-10.946749,-16.228169,-23.180008,-22.867539,-17.062993,-22.030575,-11.878693,-9.253315,-11.003518,-8.342343,2.083511,2.508213,0.011524,6.667121,14.160736,16.126453,16.356239,20.914718,27.637207,31.867023,34.459831,-23.647784,-51.867185,-76.798926,-91.074577,-53.342013,-90.526178,-81.656256,-70.913716,-48.416152,-85.716439,-78.593504,-69.209257,-44.298949,-81.270675,-81.961918,-78.424295,-41.887207,-74.747935,-92.207778,-105.867478,34.585339,-23.18058,-38.17694,-25.579645
55,-4.959572,1.699483,1.3591,1.673072,-17.422622,-21.937774,-21.247192,-20.547249,8.340065,8.536698,8.039223,7.895645,25.409249,6.126778,-4.381988,-7.872139,36.415673,16.314331,6.034058,2.140709,44.093102,28.119644,16.974953,12.555954,-26.31957,-61.74743,-87.253042,-107.289551,-76.075007,-87.981364,-90.026201,-92.270977,-65.40713,-56.072129,-40.751524,-30.730723,-48.605757,-40.532341,-28.112864,-19.949669,-29.894443,-25.703307,-16.973663,-11.520194,-21.337395,-30.485264,-31.34626,-25.543202,-25.788162,-13.591702,-11.142826,-13.547974,-8.175385,2.898788,2.765842,-0.128735,10.50127,18.135326,20.322716,21.118492,27.481419,35.107761,39.867039,43.371277,-22.917332,-51.572234,-77.957629,-92.647855,-53.304345,-90.896866,-82.258786,-71.886637,-48.293812,-85.673349,-79.801299,-71.7291,-43.935073,-81.030404,-85.759982,-85.669527,-40.972356,-72.646112,-90.555223,-105.566266,28.417442,-23.431934,-38.026165,-25.85741
56,-2.361282,-0.810024,0.38863,1.186663,-16.582054,-21.488983,-21.403702,-19.892601,7.648498,6.10025,4.031914,2.853355,24.428352,6.813354,-3.483765,-6.98909,35.626991,17.285385,6.39711,2.148857,43.667404,29.60051,17.855026,12.541511,-26.754446,-62.226328,-87.472842,-106.761013,-74.509183,-85.147001,-85.349527,-85.612478,-63.512299,-53.927975,-39.647543,-30.589431,-46.48876,-38.750619,-27.155707,-19.538905,-27.739223,-23.740847,-15.408858,-10.548397,-21.227028,-30.102768,-31.192074,-24.501332,-24.7481,-12.609822,-10.67078,-13.296055,-7.147431,3.528797,2.839783,0.063309,11.742988,19.174244,20.493221,20.781944,28.704929,38.104866,43.740623,47.702019,-23.325464,-52.490431,-79.334409,-93.595315,-54.131812,-92.075285,-83.813161,-73.421264,-49.098641,-86.311348,-81.112173,-73.303877,-44.652735,-82.408116,-89.639377,-91.102377,-41.379574,-72.443613,-90.018947,-105.050495,25.3669,-25.566082,-38.326795,-25.994871
57,-0.408577,-0.12891,-0.617272,1.050066,-16.53994,-21.153946,-20.901512,-19.494347,8.048309,0.534737,-5.635414,-9.019363,24.790604,5.145927,-4.180687,-6.295303,35.995262,16.396248,5.847725,2.562721,44.007912,29.011002,17.370117,12.598228,-26.993624,-62.790517,-88.094941,-107.502212,-73.822494,-78.315046,-72.792145,-69.139349,-62.660792,-50.846753,-37.163677,-28.755926,-45.676786,-36.652,-25.609106,-18.433986,-26.896213,-22.489556,-14.590214,-10.056981,-21.298519,-30.213043,-31.30521,-23.200687,-23.785297,-12.105022,-10.249614,-12.742183,-6.127166,4.009541,3.373536,0.632367,12.82275,19.657231,20.867615,21.039036,29.631421,39.068116,44.749535,48.529931,-24.061579,-53.740574,-80.810158,-94.823676,-55.176698,-93.449239,-84.674443,-73.875272,-50.148646,-87.121272,-81.50682,-73.474543,-45.805683,-83.307833,-90.241524,-91.525009,-42.662637,-73.393032,-90.906579,-105.909817,24.670841,-26.621461,-39.231549,-25.871274
58,-0.372139,0.722616,-0.366829,0.99178,-16.117241,-19.328453,-17.899475,-16.284508,10.278328,-0.971512,-7.856026,-10.444222,26.401909,4.705376,-4.503754,-6.310707,36.953384,15.471588,4.9021,2.035904,44.129288,27.642059,16.081306,11.714333,-27.531514,-63.095935,-88.328117,-108.303307,-73.772514,-74.648801,-66.541614,-61.918262,-62.426579,-49.524331,-36.385807,-28.306037,-45.695966,-35.865523,-25.024824,-17.91545,-27.146877,-22.556141,-14.748796,-10.028372,-21.207698,-30.115951,-31.330089,-22.818546,-23.14064,-11.835662,-9.921192,-12.113182,-5.707008,4.107102,3.739953,1.282528,13.037831,19.726353,20.525036,20.331448,29.757088,38.889084,44.224823,47.600647,-25.129361,-54.916673,-82.244868,-96.233766,-56.081113,-94.574863,-85.283642,-74.131432,-51.045849,-88.27963,-82.151186,-73.720625,-46.835088,-84.318298,-89.298762,-88.964053,-43.774559,-74.733677,-92.271189,-107.131259,24.136248,-26.600046,-39.760832,-25.580695
59,-0.741806,-0.139717,-0.195522,0.717577,-15.938233,-18.406517,-16.76461,-15.234558,11.690781,-0.699211,-7.616112,-9.7118,27.395943,4.99601,-4.195953,-6.162483,37.483795,15.341515,4.783928,1.968269,44.175201,27.281525,15.702553,11.374123,-27.404999,-62.713057,-87.782805,-107.862816,-73.360045,-72.754348,-63.858843,-58.899932,-61.654674,-48.369252,-35.278566,-27.090721,-44.822265,-34.998837,-24.013062,-16.921237,-26.245438,-21.736534,-13.959446,-9.271293,-21.031288,-29.997688,-31.209377,-22.114574,-22.627956,-11.393589,-9.262356,-11.390568,-5.431377,4.416733,4.481575,2.115372,13.143826,19.511067,19.551899,18.581692,29.896855,38.397778,43.259182,46.150509,-25.780859,-55.968518,-83.684591,-97.784998,-56.489586,-95.572601,-86.074801,-74.734659,-51.334773,-89.491044,-82.409525,-73.126308,-47.133997,-85.142024,-87.108596,-84.090489,-44.18678,-75.885193,-94.16618,-109.541319,23.305235,-27.273147,-40.045561,-25.396502
60,0.252113,-0.139074,-0.016846,0.469846,-16.450104,-22.037819,-22.421425,-20.301567,6.214302,-1.374275,-7.400985,-10.142051,22.745293,6.036644,-3.98941,-6.944984,33.987145,17.016381,5.348465,1.295265,42.210984,29.75576,17.196579,11.200081,-28.960542,-64.437623,-89.803124,-109.054047,-71.122167,-75.584604,-69.589405,-65.321049,-59.542304,-49.819745,-37.325228,-29.159391,-43.064379,-36.303567,-25.782625,-18.599731,-25.083024,-22.196093,-15.148568,-10.926692,-21.018276,-29.95111,-31.089672,-21.904964,-22.412097,-11.099624,-8.896923,-11.038627,-5.389938,4.688645,4.939705,2.466008,13.107869,19.556019,19.580121,18.381867,29.93026,38.406613,43.108098,45.710415,-26.196309,-56.684427,-84.478281,-98.652566,-56.770784,-96.181614,-86.508344,-75.083487,-51.402457,-90.251994,-82.809525,-73.259028,-47.125444,-85.813504,-87.541416,-84.299495,-44.21093,-76.33849,-94.914187,-110.529545,23.516573,-27.816473,-40.103182,-25.330908
61,-0.358474,0.368915,-0.244949,0.657327,-15.635285,-18.937294,-17.653885,-15.627846,9.156257,-4.660264,-12.518372,-15.418854,25.506477,3.743385,-4.425866,-5.702477,36.376831,14.966445,4.839271,2.221458,43.718513,27.79795,16.49533,12.21215,-29.222647,-65.023214,-90.356154,-110.828219,-71.479609,-69.064773,-57.623125,-50.714816,-59.779227,-47.511816,-34.606585,-26.546588,-43.568503,-35.093364,-24.470354,-17.550998,-25.569437,-22.156807,-15.040078,-10.380997,-20.855175,-29.743561,-30.962162,-21.979729,-22.092785,-10.798015,-8.403957,-10.471001,-5.354015,4.905842,5.544136,3.127316,12.942066,19.696564,19.880997,18.598801,29.72897,38.20245,42.838246,45.275517,-26.675974,-57.194312,-84.994984,-99.356082,-56.862959,-96.51285,-86.756074,-75.133894,-51.484906,-90.812471,-83.18435,-73.446428,-47.287014,-86.251018,-87.373517,-83.656012,-44.53415,-76.964911,-95.67121,-111.21097,23.130335,-27.769534,-40.375895,-24.995557
62,-0.054726,0.813352,-0.23592,0.426288,-15.48674,-17.712319,-15.816193,-14.141144,10.083366,-5.363686,-12.940498,-15.183014,25.958588,3.216591,-4.693337,-6.055367,36.500542,14.096489,4.339897,1.865066,43.350883,26.779564,15.832489,11.894302,-29.13587,-64.746171,-90.369357,-111.190453,-71.997343,-68.433542,-55.997682,-48.488078,-60.517225,-47.760059,-34.575908,-26.366691,-44.536145,-35.192943,-24.373913,-17.354509,-26.725868,-22.338644,-14.893291,-10.258991,-20.725307,-29.554745,-30.869842,-22.085747,-21.518211,-9.962906,-7.918339,-10.131409,-5.016701,5.37101,5.93367,3.507397,13.067093,20.075226,20.118542,18.747666,29.689499,38.286987,42.802872,45.09771,-26.897535,-57.361588,-85.267445,-99.851398,-56.719791,-96.622074,-87.012185,-75.358795,-51.279679,-91.296033,-83.485791,-73.556313,-47.075371,-86.512049,-87.364674,-83.464142,-44.392865,-77.085299,-95.715868,-111.11681,23.087288,-27.265694,-40.600136,-24.878781
63,-0.455567,-0.452112,-0.056385,0.030733,-15.706398,-17.49131,-15.189125,-13.482078,10.457612,-5.368812,-12.977325,-15.120735,26.123269,3.332726,-4.513504,-5.699867,36.4907,14.111138,4.510346,2.441048,43.300782,26.560593,15.767121,12.277268,-28.275594,-63.803347,-89.348857,-110.04946,-71.681755,-67.630471,-55.085788,-47.727931,-60.152181,-47.418011,-34.111255,-25.985802,-44.041721,-34.7542,-23.703395,-16.804806,-26.089345,-21.502574,-13.997657,-9.623659,-20.625057,-29.546551,-31.020767,-22.466194,-21.166866,-9.72393,-7.617222,-9.789333,-4.889694,5.354176,6.223778,3.906429,13.050133,20.077767,20.132996,18.59483,29.694878,38.223759,42.666607,44.817593,-26.776176,-57.170279,-85.12017,-99.973756,-55.965467,-96.269059,-86.783529,-75.235053,-50.589809,-91.436206,-83.160681,-72.936987,-46.565504,-86.381694,-86.108331,-81.399936,-44.221872,-77.188385,-95.733059,-110.873214,22.696392,-28.031603,-40.59185,-25.161845
64,-0.097892,0.028418,-0.121204,-0.083548,-15.98291,-17.889656,-15.785408,-14.443291,9.952011,-5.253067,-12.806855,-15.075325,25.60691,3.56504,-4.224701,-5.558304,36.060425,14.369224,4.881134,2.744842,42.990074,26.603714,15.917541,12.531372,-27.799116,-63.203671,-88.795592,-109.592643,-71.515727,-67.49719,-55.08209,-47.664995,-60.135503,-47.366987,-34.051592,-25.792277,-44.086651,-34.665533,-23.549742,-16.650641,-26.090191,-21.300836,-13.753805,-9.530275,-20.678787,-29.777252,-31.337059,-22.820343,-20.999691,-9.862347,-7.759747,-9.850731,-4.776158,5.307266,6.318512,4.137096,13.083458,20.254268,20.369007,18.875759,29.649845,37.990425,42.385666,44.562584,-26.625216,-56.701692,-84.752947,-99.92992,-55.134442,-95.578788,-86.184902,-74.678756,-49.916915,-91.321017,-82.74533,-72.239769,-46.107526,-85.869067,-84.30278,-78.632771,-44.106683,-77.149631,-95.664782,-110.565561,22.70553,-28.27786,-40.606024,-25.520068
65,-0.855377,-0.108193,0.120826,-0.191544,-15.352364,-13.993126,-10.188675,-9.976365,15.617248,-3.72139,-12.325905,-14.263253,30.275825,3.121719,-4.101174,-4.761086,39.482688,13.263816,4.690177,3.620681,44.947059,24.510658,14.714378,13.056884,-25.952741,-61.047291,-86.269969,-107.647221,-72.99108,-64.206813,-49.245528,-41.006936,-61.633475,-45.14761,-31.34643,-22.910879,-45.252993,-32.483539,-21.074644,-14.366573,-26.637831,-19.712386,-11.655174,-7.346873,-20.744167,-30.21548,-31.889934,-23.541137,-20.843135,-9.954139,-7.925468,-9.93283,-4.667106,5.396943,6.451481,4.383946,12.941208,20.29255,19.846791,18.069924,29.307404,36.863778,40.812928,42.976136,-26.526198,-56.037684,-84.073297,-99.620921,-54.402699,-94.852554,-85.574795,-74.374901,-49.301868,-90.947032,-81.600001,-70.683547,-45.646213,-84.657036,-79.364488,-70.99196,-43.888321,-77.079754,-95.845235,-110.625088,21.963851,-28.618432,-40.3715,-25.943991
66,0.583992,0.540903,0.156521,-0.540977,-16.594826,-18.198601,-16.667107,-17.10941,9.725509,-5.696137,-13.933297,-17.070557,25.007057,3.348678,-4.332001,-6.051453,35.230682,14.246841,4.924324,2.657981,42.096221,25.542732,15.005332,11.977844,-25.6632,-60.711709,-86.339389,-106.987081,-71.794222,-68.55679,-57.077685,-50.096831,-61.018763,-47.893305,-34.710833,-26.23893,-44.822698,-34.278574,-23.249642,-16.481871,-26.656523,-20.218913,-12.596065,-9.159661,-20.938602,-30.447189,-31.957855,-23.851112,-20.729107,-9.885704,-8.160816,-10.249145,-4.454658,5.635838,6.397282,4.336418,13.094559,20.585255,19.886513,18.139836,29.285637,36.531842,40.208187,42.44299,-26.183712,-55.369371,-83.372189,-99.194867,-53.751492,-94.03835,-84.775825,-73.834516,-48.483015,-90.355555,-80.814326,-69.914569,-44.757093,-83.541687,-77.401399,-68.553522,-43.027088,-76.18391,-94.94647,-109.608895,22.680359,-28.25889,-40.082463,-26.666329
67,-0.194024,-0.126941,0.051293,-0.265304,-16.814872,-19.904548,-19.766327,-20.820179,7.911026,-5.082092,-13.106163,-16.800979,23.673203,3.801773,-4.39817,-6.27317,34.520142,14.818955,5.015717,2.659058,42.089219,25.889832,15.063103,12.032914,-25.899394,-60.594784,-85.741793,-106.334033,-71.328215,-70.715096,-61.850793,-56.180339,-60.852246,-49.643218,-36.514272,-27.920411,-44.624466,-35.644171,-24.330218,-17.294845,-26.531484,-21.049641,-13.556049,-9.822397,-21.016926,-30.48444,-32.035824,-24.204323,-20.725949,-10.252716,-8.509083,-10.509098,-4.374047,5.532383,6.255157,4.296764,13.1796,20.653667,19.970066,18.297477,29.296371,36.407352,40.014461,42.224064,-25.944726,-54.775629,-82.643189,-98.634575,-53.005949,-93.17306,-84.211266,-73.59705,-47.872501,-89.798999,-80.401118,-69.541746,-44.309558,-82.785412,-76.642111,-67.916339,-42.69723,-75.621611,-94.30329,-108.836222,22.616815,-28.500477,-39.90069,-27.046279
68,0.130829,0.658834,-0.098362,-0.370268,-16.816566,-20.503967,-20.895195,-22.00581,7.471001,-5.155723,-13.169563,-16.845428,23.471146,3.40654,-4.732795,-6.393928,34.461937,14.314316,4.594574,2.395409,42.154747,25.861267,14.976174,11.947998,-26.65538,-61.539905,-86.972139,-107.833945,-71.996349,-71.738368,-62.836731,-57.166864,-61.62546,-49.958492,-36.871517,-28.475894,-45.458541,-35.723132,-24.614647,-17.810511,-27.426513,-21.462066,-13.933011,-10.168107,-21.094643,-30.520294,-31.84148,-23.784737,-20.760041,-10.697651,-9.013172,-10.943459,-4.190724,5.495991,6.040066,4.129246,13.487571,20.834598,19.848369,18.127739,29.568146,36.760391,40.411445,42.783325,-25.552586,-54.353157,-82.296065,-98.386527,-52.791563,-92.490261,-83.345019,-72.773484,-47.576408,-89.201187,-79.844882,-68.986788,-43.861373,-81.922246,-75.501994,-66.546498,-42.170486,-74.81076,-93.591635,-108.243143,22.853302,-27.915836,-39.893394,-27.49074
69,-0.070404,0.118481,0.016514,-0.300008,-16.597549,-20.190674,-20.423675,-21.158649,7.75724,-5.727104,-13.691597,-17.055862,23.740082,2.829621,-5.212417,-6.531166,34.624558,13.810845,4.09243,2.113106,42.190773,25.704621,14.806572,11.808769,-27.129334,-62.323394,-87.791302,-108.528582,-72.344041,-71.792752,-62.743131,-57.24015,-61.787407,-49.910425,-36.927309,-28.803462,-45.533408,-35.506963,-24.638501,-18.035653,-27.506085,-21.234874,-13.836353,-10.238558,-21.158249,-30.511185,-31.719006,-23.864285,-20.936772,-10.756417,-9.249894,-11.178875,-4.328316,5.450786,5.891544,4.068683,13.331714,20.758575,19.781112,18.216224,29.40905,36.318042,39.909198,42.461322,-25.246119,-53.957745,-81.822204,-97.996752,-52.418319,-91.875622,-82.741532,-72.352223,-47.228475,-88.613712,-79.177298,-68.447071,-43.517479,-81.206905,-74.317714,-65.159671,-41.850354,-74.343001,-93.16599,-107.846946,22.885946,-27.853066,-39.773832,-27.846459
70,-0.165367,0.096732,-0.300419,-0.588834,-16.453468,-19.948379,-20.071747,-20.7663,7.964287,-5.18866,-13.345871,-16.707802,24.01458,3.059074,-5.093491,-6.218925,34.852776,13.894157,4.017929,2.171265,42.371636,25.695145,14.730698,11.853058,-27.344293,-62.631511,-88.05954,-108.702993,-72.416184,-72.234755,-63.32062,-58.13634,-61.789136,-50.057861,-37.259971,-29.565585,-45.540009,-35.498719,-24.795286,-18.395714,-27.531841,-21.152289,-13.846555,-10.358706,-20.99477,-30.22926,-31.150749,-23.280213,-20.707249,-10.005936,-8.818508,-11.082882,-4.001393,6.153305,6.130886,4.114723,13.679546,21.349354,20.159088,18.586864,29.733307,36.967895,40.636459,43.453926,-24.795655,-53.78764,-81.794972,-97.717177,-52.231054,-91.665775,-82.164777,-71.755633,-46.760345,-88.020704,-78.520805,-67.967202,-42.878072,-80.610463,-73.972973,-65.074381,-41.115344,-73.392167,-92.165311,-106.896724,22.815124,-27.802175,-39.979706,-28.481134
71,-0.228607,-0.398914,0.008846,-0.269627,-16.359444,-19.361149,-18.551273,-18.366886,7.349098,-6.092857,-13.940392,-17.073807,23.367393,2.758278,-5.074516,-6.193359,34.283844,13.708671,4.063774,2.299484,41.872032,25.425293,14.666222,12.013344,-27.605855,-62.992688,-88.68283,-109.285108,-71.33809,-70.801386,-61.382355,-56.127512,-60.519381,-49.56713,-37.165332,-29.517716,-44.466299,-35.108858,-24.793525,-18.347301,-26.697136,-20.730521,-13.695711,-10.136207,-20.807453,-29.8633,-30.833576,-23.050507,-20.932514,-10.12318,-8.659836,-10.797008,-4.403,5.877502,6.327782,4.462349,13.301399,21.168869,20.474888,19.008156,29.605854,36.708035,40.42503,43.148701,-24.607915,-53.62696,-81.659331,-97.506478,-51.610525,-91.185888,-82.247362,-72.15128,-46.340819,-87.839812,-78.50307,-67.983764,-42.679933,-80.541445,-73.910439,-65.052947,-41.146584,-73.550045,-92.125458,-106.548782,22.659765,-28.239723,-39.897612,-28.789395
72,0.217049,-0.103488,-0.293644,-0.317045,-16.407601,-19.247967,-18.302525,-18.068882,7.820594,-5.742554,-13.751702,-16.798874,23.798126,3.173149,-4.834534,-6.116799,34.61412,13.868682,4.019714,2.139907,42.11515,25.508102,14.456634,11.616302,-27.929915,-63.330778,-89.098095,-109.841027,-71.524415,-70.2586,-59.687448,-53.652247,-60.589868,-49.728039,-37.619135,-30.224517,-44.56739,-35.349338,-25.37727,-19.250178,-26.752304,-20.887898,-14.145241,-10.923024,-20.772457,-29.580963,-30.233997,-22.316757,-20.778133,-9.517033,-8.308468,-10.688267,-4.253437,6.270172,6.479542,4.575382,13.456329,21.53429,20.891899,19.56633,29.744946,36.988609,40.780769,43.712494,-24.548438,-53.689291,-81.792829,-97.443431,-51.451771,-90.878853,-82.149802,-72.084337,-46.17957,-87.390813,-78.302992,-67.931591,-42.498047,-80.288515,-74.00165,-65.298936,-40.914544,-73.13452,-91.493374,-105.66313,22.946434,-28.367374,-40.121636,-29.130603
73,-0.069603,-0.208593,-0.143623,-0.41939,-16.375329,-19.088871,-18.057644,-17.868473,8.12844,-5.348168,-13.391602,-16.362214,24.131652,3.590446,-4.543808,-5.760682,34.868225,14.187011,4.173179,2.357597,42.1986,25.604782,14.424545,11.611587,-28.044876,-63.384371,-89.075234,-109.646229,-71.483246,-69.802462,-59.428294,-53.673797,-60.317135,-49.581406,-37.740814,-30.632736,-44.174065,-35.08404,-25.382896,-19.520595,-26.278937,-20.461696,-13.943607,-10.950515,-20.721852,-29.358868,-29.722985,-21.773735,-20.666073,-9.171147,-8.184517,-10.760674,-3.934582,6.677009,6.604706,4.586437,13.871853,21.879341,21.084102,19.701038,30.164074,37.370819,41.110725,44.027115,-24.410419,-53.7143,-81.822266,-97.274516,-51.501054,-90.91431,-82.340611,-72.324608,-46.111391,-86.971404,-78.029692,-67.78457,-42.311358,-80.139005,-74.608503,-66.375536,-40.582229,-72.636102,-90.941233,-105.183444,22.936032,-28.580228,-40.206058,-29.554254
74,0.020004,-0.033783,0.046234,-0.363586,-16.315796,-19.085987,-18.193234,-18.141094,8.190376,-4.62909,-12.794266,-15.960549,24.193725,4.051346,-4.237084,-5.570824,34.925606,14.493278,4.363884,2.425094,42.249069,25.68441,14.473366,11.641571,-28.109782,-63.418587,-89.181736,-109.73516,-71.464357,-70.164338,-59.94446,-54.261625,-60.263678,-49.590126,-37.783348,-30.749032,-44.129451,-35.00495,-25.40496,-19.612783,-26.256603,-20.458264,-13.967703,-10.960482,-20.654881,-29.236416,-29.460217,-21.716355,-20.850655,-9.42849,-8.233223,-10.859665,-3.972737,6.63644,6.644577,4.541096,13.950279,22.068535,21.376533,19.908954,30.33054,37.690819,41.562996,44.586548,-24.400713,-53.757365,-81.73329,-96.998918,-51.830653,-91.253524,-82.290452,-72.032906,-46.266138,-86.863934,-77.793731,-67.558255,-42.286176,-79.947005,-74.254377,-65.922597,-40.474833,-72.517955,-90.604645,-104.616196,22.996245,-28.610068,-40.119615,-29.913897
75,0.020187,-0.091712,0.064064,0.059014,-16.242142,-19.016109,-18.192112,-18.097332,8.361168,-4.725769,-12.889549,-16.013374,24.291069,3.890625,-4.355987,-5.601883,34.947167,14.337982,4.304444,2.466202,42.199837,25.575302,14.425438,11.681351,-28.151519,-63.491755,-89.267736,-109.809637,-71.476139,-70.243693,-59.970018,-54.20952,-60.222244,-49.581968,-37.605698,-30.42315,-44.042259,-34.954926,-25.287016,-19.410155,-26.146434,-20.47183,-14.000047,-10.949818,-20.707272,-29.123818,-29.283726,-21.907723,-21.23354,-9.82457,-8.207565,-10.669453,-4.317021,6.360466,6.757027,4.687534,13.692203,21.972473,21.686062,20.260048,30.168629,37.222732,40.982002,43.794548,-24.647053,-53.943251,-81.769197,-97.071023,-51.999898,-91.568086,-82.474004,-72.013633,-46.585801,-87.170222,-78.069922,-67.872922,-42.734811,-80.367593,-74.357406,-65.797169,-41.055026,-73.254791,-91.306592,-105.123265,23.047754,-28.688855,-40.024229,-29.841958
76,-0.55648,0.505267,-0.139412,0.023676,-16.322365,-19.412155,-18.884033,-18.822716,7.404854,-6.203568,-13.911347,-16.612782,22.965042,2.103538,-5.455628,-6.564446,33.638626,12.880005,3.525856,1.731674,40.938949,25.022392,14.333725,11.28582,-28.269104,-63.635319,-89.343714,-109.558943,-71.104068,-71.492707,-60.381326,-53.614981,-59.820076,-52.608005,-40.75852,-32.678967,-43.962786,-37.944684,-28.091084,-21.230391,-26.48235,-23.42899,-16.569433,-12.597498,-20.744991,-29.108574,-28.915409,-21.477779,-21.254105,-9.607807,-7.952362,-10.506958,-4.12191,6.741692,6.941814,4.712757,13.93309,22.393158,22.002605,20.505112,30.242191,37.218773,40.944145,43.830002,-25.009893,-54.372807,-82.106886,-97.212275,-52.654558,-92.12071,-82.322426,-71.437984,-47.03251,-87.308284,-78.04584,-67.91038,-42.981585,-80.337015,-73.999119,-65.210794,-41.138464,-73.252396,-91.334806,-105.093104,22.522837,-28.170831,-40.132078,-29.805525
77,0.135109,0.760999,0.200924,0.024255,-17.212052,-21.840603,-23.016312,-24.030682,5.995834,-6.328308,-13.936501,-17.212155,21.744186,2.359039,-5.369934,-6.758789,32.86203,13.138115,3.486488,1.325477,40.447517,25.337219,14.38726,10.923683,-27.985107,-63.019284,-88.413999,-108.337559,-71.571901,-73.975579,-64.138763,-57.731849,-60.623214,-54.400223,-42.143162,-33.260241,-44.879186,-39.66429,-29.229452,-21.600967,-27.409297,-24.823029,-17.65288,-13.400444,-20.634487,-28.973465,-28.727303,-21.654453,-21.844322,-10.01825,-7.86961,-10.266575,-4.630348,6.509548,7.041263,4.756885,13.535877,22.318783,22.181385,20.527897,30.043144,36.751293,40.387035,43.112514,-24.997271,-54.480894,-82.180227,-97.186414,-52.98483,-92.651232,-82.130969,-70.975967,-47.135553,-87.516951,-77.833233,-67.740406,-42.959613,-80.377152,-73.282351,-64.167558,-41.17465,-73.628165,-91.670364,-105.323448,22.674397,-27.39909,-39.914703,-29.770528
78,0.553184,0.381587,-0.10714,0.27955,-17.622093,-23.270977,-25.194465,-25.875126,4.655388,-7.597687,-14.728317,-17.502811,20.712502,1.220444,-6.329773,-7.446487,32.160897,12.390564,2.862145,0.926262,40.151757,24.925965,13.876557,10.404923,-28.825975,-63.552894,-88.499029,-108.164702,-72.244073,-74.445136,-64.682365,-58.360771,-61.391272,-53.988978,-41.964709,-33.592348,-45.622674,-39.575432,-29.233602,-21.925225,-27.971776,-25.115974,-17.996769,-13.773145,-20.575939,-28.920845,-28.767608,-21.875793,-22.038849,-9.625202,-7.249511,-9.633796,-5.012741,6.607899,7.423096,5.1801,13.03941,22.376541,22.688702,21.18496,29.587738,35.932194,39.509526,42.327496,-25.371898,-54.627088,-82.135316,-97.048537,-53.129819,-92.898826,-82.067619,-70.778211,-47.23636,-87.809499,-77.941289,-67.930986,-43.145636,-80.415011,-72.342046,-62.724141,-41.509806,-74.242112,-92.422471,-105.949501,23.208143,-27.003446,-40.041281,-29.476921
79,-0.156875,0.702615,0.044266,0.189222,-17.590943,-23.666462,-26.032654,-26.947552,4.518974,-7.956116,-14.823487,-17.421376,20.847908,1.036674,-6.213089,-7.14354,32.470573,12.3647,3.080314,1.225822,40.456558,25.176864,14.249359,10.778824,-29.213737,-64.254447,-89.515472,-109.452325,-72.896998,-74.458128,-64.415381,-58.03899,-61.967891,-54.113547,-42.085246,-33.883532,-46.096955,-39.77002,-29.420175,-22.271917,-28.350226,-25.5273,-18.287021,-13.953698,-20.626408,-28.879635,-28.619682,-21.378124,-21.886414,-9.020485,-6.845135,-9.318535,-5.022892,6.806511,7.46957,5.246601,12.933369,22.428417,22.738644,21.271133,29.378975,35.631535,39.106442,41.78587,-25.565059,-54.881037,-82.506683,-97.132678,-52.852128,-92.734447,-82.055652,-70.809006,-46.796216,-87.823171,-78.155286,-68.179216,-42.79193,-80.536733,-72.766704,-63.343066,-41.251529,-74.081907,-92.182089,-105.497596,23.02505,-26.28255,-40.023233,-29.269418
80,0.285141,1.152324,-0.320332,0.147065,-17.700211,-24.140911,-26.724266,-27.5854,4.195861,-8.419854,-15.236802,-17.687382,20.66494,0.368751,-6.647004,-7.338662,32.401474,11.733764,2.539398,0.698364,40.359375,24.873161,13.939979,10.320442,-29.71993,-65.082359,-90.664839,-110.884696,-73.655132,-75.284577,-65.087787,-58.753695,-62.728847,-54.597479,-42.529256,-34.400944,-46.894961,-40.276292,-30.0004,-22.888105,-29.223617,-26.29167,-18.990104,-14.564656,-20.449401,-28.515987,-28.247852,-20.932594,-21.665828,-8.603622,-6.511825,-8.957473,-4.956882,7.006005,7.672268,5.517415,12.914921,22.50721,22.841401,21.407502,29.328839,35.789292,39.490105,42.349823,-25.404052,-54.741197,-82.431193,-97.060844,-52.603651,-92.550029,-81.954795,-70.719134,-46.421391,-87.550592,-77.895718,-67.902488,-42.349952,-80.273961,-72.609784,-63.26552,-40.752561,-73.497384,-91.466415,-104.682392,23.280756,-25.032987,-40.373,-29.025114
81,0.085945,-0.119722,-0.205627,0.724425,-16.399132,-19.078961,-19.612061,-21.64848,12.253647,-2.710602,-11.225991,-13.726296,27.695434,2.953605,-5.047943,-5.315254,37.802032,12.640068,3.0046,1.95314,43.955498,24.016525,13.13681,11.04808,-28.275087,-63.292962,-88.417691,-109.805295,-75.846672,-70.777192,-59.27703,-53.513611,-64.61221,-48.775335,-36.161572,-29.006502,-48.110721,-34.831499,-24.371961,-18.476279,-29.403323,-21.804354,-14.18397,-10.345028,-20.41032,-28.303677,-28.125469,-21.511711,-21.310387,-8.086407,-6.013561,-8.386345,-4.914093,7.120216,7.823936,5.71891,12.680454,22.16193,22.576344,21.294525,29.000759,35.472862,39.110367,41.904007,-25.159378,-54.378308,-81.738341,-96.60416,-52.567829,-92.426504,-81.965447,-70.831125,-46.306115,-87.58579,-77.830707,-67.807955,-42.147614,-80.272732,-72.452092,-63.078663,-40.386807,-73.193863,-91.419768,-105.007138,23.32596,-24.960841,-40.619368,-28.108821
82,0.081527,-0.386267,-0.910011,1.382252,-15.688407,-15.44593,-13.188148,-13.944877,14.460457,-4.409568,-13.171257,-14.598541,28.995461,1.068375,-5.925819,-5.37387,38.078019,11.042222,2.6941,2.465745,43.427559,22.8032,13.038872,11.672196,-26.485733,-61.609862,-87.086205,-108.751016,-74.32794,-65.265245,-51.11244,-44.694362,-62.63724,-44.169335,-31.495458,-24.912105,-46.083462,-30.962799,-20.63348,-15.078086,-27.311046,-18.674887,-10.789125,-6.923981,-20.381493,-27.991116,-27.590081,-21.245774,-20.784531,-7.030232,-5.166172,-7.600605,-4.633679,7.81834,8.39471,6.254471,12.763675,22.258655,22.723995,21.660942,29.011253,35.827812,39.78701,42.989387,-25.158717,-54.22195,-81.168644,-95.98639,-52.811515,-92.363487,-82.132685,-71.062738,-46.359573,-87.515271,-77.979069,-67.990452,-42.019896,-80.099306,-72.796857,-63.743098,-39.874378,-72.600157,-91.389443,-105.68554,23.370786,-25.050246,-41.56608,-26.429707
83,0.298188,0.568061,-1.10796,2.273057,-15.892296,-14.538025,-11.59179,-13.091378,14.104454,-4.899857,-13.952568,-15.731186,28.174713,0.946724,-5.78563,-5.151924,37.063865,10.955864,3.149414,2.978439,42.255272,22.489746,13.378692,12.205719,-23.767228,-58.480018,-84.155889,-106.369284,-71.496085,-62.249183,-48.007272,-41.707556,-59.885216,-42.483407,-29.3965,-22.43227,-43.530731,-29.420181,-18.694993,-12.621661,-24.984816,-16.623106,-8.656976,-4.73212,-20.625607,-28.241879,-27.251358,-20.36911,-20.826817,-6.990074,-5.315563,-7.796333,-4.479538,8.158894,8.575298,6.350441,13.047741,22.361801,22.778492,21.792801,29.424488,36.305752,40.502071,43.829006,-24.809845,-54.02097,-80.92899,-95.574527,-52.471449,-91.89101,-81.414867,-70.334849,-45.772134,-87.101092,-77.364645,-67.224635,-41.349459,-79.647046,-72.077569,-62.757783,-39.140097,-72.155862,-91.238493,-105.865357,23.668459,-24.084182,-42.674555,-23.758647
84,1.704071,2.296454,-2.03286,3.723637,-16.685463,-15.848946,-12.633774,-13.795143,11.372268,-5.567414,-14.861138,-17.31514,25.439804,0.283264,-6.772934,-6.264496,34.633941,10.422088,2.745872,2.559929,40.339485,21.993965,13.026214,11.651985,-21.662415,-54.898382,-79.749163,-101.255281,-68.36222,-61.140423,-48.026963,-42.058372,-57.304055,-41.31846,-28.006127,-20.641773,-41.331286,-28.362761,-17.511892,-10.972597,-23.20344,-15.094184,-7.045654,-2.826538,-20.836647,-28.459316,-26.883236,-19.612953,-21.2192,-7.252155,-5.863632,-8.518822,-4.496853,8.257038,8.15593,5.79158,13.14885,22.185185,22.268532,21.34829,29.540108,36.212025,40.097202,43.170078,-24.013797,-53.292446,-80.020957,-94.292694,-52.273194,-91.461555,-80.554148,-69.427433,-45.449112,-86.252778,-76.221862,-66.138631,-40.865768,-78.978802,-71.20009,-61.889758,-38.43216,-71.425306,-90.410983,-105.126653,25.381726,-21.010281,-44.698219,-19.257563
85,3.145523,4.230694,-2.60582,5.318433,-17.587898,-18.696327,-15.903008,-16.704323,5.674415,-8.557572,-16.591759,-19.079453,20.698929,-2.039337,-9.06871,-8.537407,30.830108,8.735252,1.547951,1.494232,37.432617,20.005073,11.449768,10.229416,-18.656115,-48.758305,-71.816952,-91.521092,-64.375811,-61.677985,-53.316535,-50.249435,-54.874782,-41.0042,-27.269464,-19.676355,-39.549392,-27.41404,-16.411358,-9.883691,-22.010959,-13.190067,-5.020753,-0.873268,-21.138942,-29.117351,-26.838878,-18.884605,-21.76102,-7.714508,-6.556606,-9.441432,-4.750751,8.321354,7.646061,5.030755,12.920689,21.998852,21.618966,20.52031,29.28106,35.720147,39.055333,41.734715,-23.00574,-52.362398,-78.886503,-92.788713,-51.249501,-90.688316,-79.079973,-67.769305,-44.108764,-85.210165,-74.687704,-64.511804,-39.399572,-77.923302,-69.508129,-59.941909,-37.07541,-70.595072,-89.41459,-103.957649,28.552403,-15.825982,-47.278885,-12.985525
86,3.901291,3.482124,-3.092399,6.180945,-17.709641,-20.979241,-19.211907,-19.373429,1.078148,-11.435875,-18.822441,-21.709053,16.41703,-3.892868,-10.579468,-10.568344,27.138405,7.159698,0.143234,-0.580101,34.3442,19.171119,10.951629,8.763542,-16.770097,-43.853037,-65.45167,-83.570815,-56.862342,-54.305418,-45.606582,-41.740969,-47.768729,-34.11609,-19.982649,-12.033914,-33.107317,-21.076471,-9.817235,-3.304073,-16.609934,-7.349182,1.195889,5.90011,-21.289192,-30.024101,-27.487965,-18.737538,-22.981751,-9.367893,-7.990162,-10.734181,-5.805531,7.298035,6.708069,4.141285,11.96188,20.989368,20.663761,19.385536,28.573471,35.066528,38.565525,41.322601,-21.942441,-50.999252,-77.29882,-90.160456,-48.41199,-88.094083,-76.084857,-64.678975,-40.771185,-81.811281,-71.154815,-61.23421,-36.005103,-74.939411,-66.446334,-57.094938,-34.044688,-68.058939,-86.133964,-99.689615,32.44558,-11.433206,-50.379398,-5.893928
87,4.032039,9.88134,-3.455555,6.136644,-17.933767,-23.731115,-23.219713,-23.001451,-3.686307,-14.418268,-20.910581,-23.898977,11.893399,-6.453763,-12.568903,-12.77465,23.043234,4.57687,-2.008054,-2.969782,30.655369,16.705902,9.243857,6.900725,-15.575739,-40.261394,-60.747217,-77.584813,-50.788186,-48.205027,-39.865626,-35.964124,-41.898347,-27.894196,-14.259592,-6.829973,-27.743255,-15.02346,-4.391074,1.261179,-12.17341,-1.837217,6.486623,11.119711,-21.482826,-31.020092,-28.809105,-19.256767,-23.396038,-11.319626,-9.790341,-12.299549,-6.065106,5.919216,5.465664,3.198154,11.75798,20.092552,19.518436,17.757111,28.452965,34.711201,37.857181,40.221771,-19.623237,-47.359083,-72.802272,-84.230816,-42.559088,-82.352572,-70.099092,-58.429246,-34.526594,-75.848204,-65.07133,-55.114434,-29.778086,-69.370542,-60.481712,-51.017295,-28.487774,-62.558521,-78.468669,-89.510711,36.405344,-0.749855,-53.907228,1.044727
88,4.098702,15.490211,-4.744331,14.134577,-18.467646,-27.187609,-28.257323,-27.971037,-8.857973,-18.966253,-24.000635,-26.696749,6.854908,-10.560625,-15.678641,-16.088242,18.415506,0.488697,-5.115938,-5.976958,26.495212,12.728325,6.53393,4.622446,-14.66497,-37.313506,-56.825951,-72.332294,-46.196919,-43.059989,-35.390768,-31.866635,-37.584345,-22.500736,-9.850165,-3.260916,-23.85949,-9.85265,-0.206609,4.272701,-9.067478,2.573535,10.429279,14.701316,-21.096886,-30.016285,-26.683251,-16.223271,-22.485009,-11.642933,-10.001439,-12.16539,-5.555306,5.859558,5.620674,3.98299,12.027866,20.521865,19.5214,17.332294,28.961219,36.197925,38.857429,40.478164,-21.125452,-49.224366,-74.055052,-84.387576,-42.581269,-83.356912,-70.478882,-58.022731,-33.715515,-76.352569,-64.948188,-53.998617,-28.203852,-69.599513,-60.395058,-50.571259,-26.404865,-61.546728,-76.359318,-85.520301,40.277201,15.360058,-58.878404,15.799006
89,3.913502,20.386866,-3.094014,13.520901,-19.366001,-30.854153,-33.894185,-34.149548,-13.831639,-25.891697,-28.699482,-29.799191,1.85868,-16.842144,-19.979016,-19.641861,13.575771,-5.808747,-9.496411,-9.201634,21.867073,6.627204,2.417621,2.039028,-14.646105,-36.042953,-55.163387,-70.268156,-43.26931,-37.223383,-29.873691,-27.415272,-34.48842,-16.688605,-5.992214,-1.668823,-20.937524,-4.172268,3.783722,6.099641,-6.502797,7.12325,13.811854,16.921194,-21.203853,-30.323719,-26.937252,-15.942958,-22.707985,-12.282966,-10.643772,-12.958488,-6.272426,5.571888,5.494629,3.76339,11.119995,20.453442,19.497265,16.71389,28.483715,36.715256,40.078766,42.116352,-20.880791,-48.202063,-72.220244,-81.634539,-39.09132,-79.877752,-67.005069,-54.37598,-29.497746,-72.421828,-61.211411,-50.080887,-23.416182,-65.096395,-55.892014,-46.123599,-21.547923,-56.489172,-70.394111,-78.252425,43.909848,35.770235,-62.253273,29.343218
90,2.701583,24.780897,-2.614025,11.057906,-20.495967,-34.067745,-38.933544,-40.085964,-16.866703,-32.323093,-33.575878,-33.149814,-1.89331,-22.968463,-23.840961,-22.567749,9.514332,-12.289924,-13.640384,-11.786556,17.686615,0.744896,-1.056461,0.434704,-16.13282,-38.395958,-58.419672,-74.436802,-42.271244,-29.49459,-19.097565,-15.665014,-32.093696,-9.669713,-1.908134,-0.583418,-18.200455,1.978839,7.513651,7.338713,-3.679722,11.291989,16.409786,18.37081,-20.150024,-29.350937,-26.067501,-14.686157,-20.475517,-12.299835,-11.347767,-13.391727,-4.61792,5.432545,5.230934,4.082955,12.136048,20.816689,19.397187,16.619236,29.013565,38.447788,42.937443,45.979443,-19.890481,-43.880726,-65.090813,-73.153756,-34.089229,-68.873032,-57.125936,-44.957486,-25.127768,-61.799683,-51.588165,-40.890753,-19.146117,-54.847945,-46.418606,-37.423905,-16.969507,-46.906972,-58.149523,-63.725474,46.199535,60.074407,-65.279194,39.924399
91,3.240807,30.047621,-5.264499,24.608632,-22.982593,-39.208286,-45.918003,-48.329685,-23.550213,-42.388931,-41.32021,-38.519043,-8.888969,-33.42123,-31.917641,-28.553505,2.48917,-22.656593,-21.079136,-16.432583,10.871315,-9.616989,-8.943401,-4.481685,-17.28392,-39.463012,-58.793443,-74.022099,-43.238476,-28.223129,-19.701145,-18.810556,-32.430049,-7.513784,-2.324091,-3.891,-17.992721,4.473915,7.64606,5.11169,-2.873064,13.395052,16.559813,16.590837,-18.859223,-26.136979,-21.381306,-8.996705,-16.698521,-5.973839,-6.780819,-10.126614,-0.927098,11.306201,9.362983,7.225742,15.766937,26.74229,23.4971,20.012603,32.535209,44.644764,49.635646,52.880825,-21.343555,-46.142211,-67.371145,-74.873319,-35.141937,-69.21009,-57.420665,-45.445568,-25.441151,-61.467163,-51.294221,-40.274588,-18.379683,-53.383083,-44.770451,-35.330832,-14.983108,-43.969029,-54.682861,-59.861967,48.868978,89.397726,-71.115057,63.808729
92,3.830875,27.859759,-1.94624,25.872836,-25.542486,-44.55808,-53.37137,-57.230066,-31.784185,-53.977621,-51.081419,-46.118814,-17.740802,-45.391645,-41.924634,-36.557693,-6.459291,-34.403629,-30.549962,-23.437334,2.216206,-21.116134,-18.662126,-11.990541,-18.343577,-39.050246,-55.984648,-68.567085,-41.22874,-24.511363,-17.37523,-18.228887,-29.51771,-3.307534,0.136071,-3.335615,-14.492116,8.994604,10.532686,6.398573,1.149421,17.998695,19.467023,17.830012,-18.096405,-24.494213,-17.964992,-5.343521,-13.001781,-0.440838,-3.379898,-7.8727,3.05072,16.389381,12.311165,9.268593,19.286717,31.286236,26.135708,22.333729,35.173393,47.832264,51.054978,53.286713,-22.984683,-48.46068,-69.290354,-76.815882,-37.485279,-68.756743,-57.867633,-46.462609,-27.714974,-60.919746,-51.468709,-40.270581,-19.878433,-51.672294,-43.400629,-33.763131,-15.030915,-41.618049,-49.730793,-52.455666,52.12108,116.365198,-73.64007,88.789278
93,4.420945,25.671897,0.546112,16.614726,-28.175646,-50.117129,-61.293646,-66.787108,-41.568621,-67.089163,-62.859507,-55.949129,-28.448811,-58.87971,-53.861944,-46.580315,-17.331053,-47.531033,-42.052866,-32.80081,-8.278714,-33.752541,-30.212637,-22.091864,-19.311793,-37.157661,-49.993286,-58.071759,-36.242036,-18.359293,-12.119823,-13.920008,-23.35668,2.949036,5.472354,1.082738,-7.698642,15.540904,16.173527,11.199362,8.387733,25.10292,25.131416,22.088333,-17.23185,-23.657089,-18.073379,-6.422973,-9.535778,2.523148,-0.440517,-4.071396,6.104096,18.824982,14.637062,11.622643,20.697098,31.98785,27.585972,24.445507,33.839584,45.274647,48.426762,50.169068,-19.20988,-41.06905,-58.718744,-65.843581,-30.83521,-53.343476,-45.456707,-37.20621,-21.373688,-45.13902,-38.832308,-30.921315,-13.517684,-36.036731,-30.255855,-23.287253,-8.428709,-26.587195,-31.819499,-33.332928,56.033398,141.0775,-73.602585,104.444409
94,4.299968,23.342343,-3.33213,28.458406,-29.781944,-53.835022,-67.693405,-75.584324,-49.316711,-77.562217,-75.644794,-69.723117,-38.021369,-70.351158,-67.506076,-60.819042,-27.65023,-58.886421,-55.594299,-47.432315,-18.584495,-44.390373,-42.721069,-36.147491,-19.266512,-33.317892,-41.591694,-44.984299,-29.781915,-12.213318,-5.678247,-6.482361,-16.197553,8.459732,11.988632,9.015115,-0.243569,21.448215,23.096766,19.213085,15.874561,31.832325,32.387128,29.698848,-14.00084,-18.073551,-11.224606,0.236217,-0.903591,14.0018,12.299503,9.805584,14.306408,28.869724,26.30611,24.060608,27.464218,40.654838,37.728367,35.415355,37.984634,51.136379,54.58889,55.849617,-20.347026,-41.272901,-57.500847,-65.080667,-30.13496,-48.556751,-45.801892,-41.55121,-20.051575,-39.748487,-38.768421,-34.905939,-11.250313,-29.734114,-28.655556,-25.294055,-4.522841,-18.212302,-22.712968,-23.979642,59.825471,163.38712,-77.44261,131.870092
95,2.220669,22.071394,-2.025444,30.868179,-31.764919,-58.519392,-75.564411,-85.343845,-57.395067,-88.536821,-87.278006,-80.963939,-47.536566,-81.762131,-79.763712,-72.099111,-37.815319,-69.953882,-68.151438,-60.027031,-28.91019,-55.189544,-55.299826,-49.659198,-19.491684,-29.443739,-32.731942,-31.48028,-22.255324,-7.992763,-2.988281,-3.418509,-7.495024,12.001859,14.910001,12.641798,8.460343,25.273678,26.257411,22.771514,23.929724,36.656255,36.084353,32.913982,-11.891613,-12.929398,-4.590203,6.978424,2.237858,21.040603,23.397285,24.263923,16.168441,34.810798,36.454994,37.296707,28.058326,44.815052,46.069748,46.791034,37.335342,51.424209,55.856872,57.481052,-21.936043,-43.778535,-59.986271,-67.363475,-29.266564,-47.559747,-47.952492,-47.010187,-17.382556,-37.158922,-39.762091,-39.462286,-7.868688,-27.033941,-29.285936,-29.000778,-1.078928,-14.65026,-19.39762,-21.576699,61.612644,184.31016,-79.90155,161.589917
96,-0.4487,22.988307,1.705845,23.437702,-34.051304,-63.960985,-84.437755,-95.409012,-64.253225,-98.490122,-95.742262,-87.441051,-55.138223,-91.594978,-88.704534,-78.40209,-45.903019,-79.353048,-77.692205,-68.226231,-37.415989,-65.012794,-66.117121,-60.034519,-20.078753,-27.015021,-26.596598,-22.600014,-16.639231,-8.137934,-6.97942,-8.455663,-0.497784,11.525097,11.360341,8.099816,15.120225,24.991681,22.901248,18.360745,29.337393,37.074129,33.46591,28.714588,-10.218316,-10.476849,-0.313649,12.368831,6.666801,26.742748,33.280563,37.115799,21.459514,41.991256,45.812919,46.342746,33.140132,51.063468,53.798446,53.285682,41.294643,55.560928,58.301536,56.22892,-22.261566,-41.418057,-54.296624,-61.541726,-24.0114,-38.244494,-42.916499,-44.493759,-10.001701,-24.608459,-30.999478,-33.375152,1.170745,-11.174169,-15.825877,-17.774973,8.969328,2.51005,0.161058,-0.878659,60.815065,206.135422,-78.544584,183.864574
97,-0.821594,20.091707,-2.53275,24.066606,-33.581165,-66.287767,-89.569336,-101.544548,-65.673506,-105.288523,-102.817949,-92.839096,-57.293032,-98.701435,-97.098204,-85.855001,-48.625683,-86.384497,-86.525488,-77.167351,-40.856907,-70.741322,-74.664488,-70.367832,-20.316268,-25.536308,-22.249828,-15.133087,-14.136991,-9.394201,-12.090946,-14.845169,4.354355,12.422071,9.222196,5.22981,21.103123,27.914323,22.975754,17.366612,35.182495,40.780862,35.875625,30.796796,-6.449798,-3.222793,8.937207,23.224125,10.238961,34.337666,47.029221,54.694348,24.136094,50.41111,60.469426,63.948418,35.391655,59.109673,66.922005,68.082871,43.294648,61.690545,68.083718,67.306412,-24.025542,-41.314453,-52.198988,-57.868367,-18.663401,-29.550122,-37.114338,-41.403781,-2.526086,-13.354329,-23.335042,-29.378864,9.320373,0.333872,-7.858456,-13.256263,16.966148,13.748495,8.795457,4.427838,59.542826,225.0657,-81.527979,206.769751
98,-1.488075,17.323584,-5.354793,25.235973,-28.509167,-61.027949,-86.980133,-101.954705,-63.793699,-105.400355,-102.701918,-91.699906,-59.581461,-102.32856,-99.60771,-86.8211,-54.584988,-93.750784,-92.945452,-82.239968,-49.598728,-80.565503,-84.803564,-79.731274,-9.254978,-9.279166,-4.746859,1.961848,-2.636792,-0.907397,-6.027142,-10.093401,8.654988,12.75235,7.811409,2.750592,17.771899,20.84069,14.529384,7.938843,24.399021,25.850106,20.274062,14.740108,-0.728497,7.617313,22.920742,38.420025,17.1213,46.97604,63.708023,73.941158,28.704677,61.448055,75.862015,81.913833,38.817249,68.530231,80.090069,83.785744,46.513744,69.370228,78.293781,80.259121,-26.646883,-43.275849,-53.906418,-58.4423,-14.934794,-25.405021,-33.416421,-37.699942,2.951299,-7.268678,-17.908471,-24.241075,15.589052,7.63245,-0.764371,-6.245424,23.557103,21.113825,15.890419,10.828293,57.576262,241.178034,-87.361261,230.794474
99,-0.113343,15.070831,-2.854134,14.403728,-28.854778,-62.897317,-89.621086,-103.978088,-64.963903,-108.957487,-105.249887,-92.330463,-60.450113,-105.686119,-103.162485,-89.407236,-55.245861,-96.954763,-97.00974,-86.145778,-50.244815,-82.716533,-88.217897,-84.076057,-9.130416,-8.004713,-1.370335,7.319943,0.038532,-0.50649,-10.034967,-17.016067,12.53868,13.64069,4.792085,-2.854086,21.798655,22.757546,13.66489,5.090741,27.696072,28.027128,21.106272,14.648309,4.946846,16.990917,34.210957,50.603634,21.82782,51.879605,71.445614,84.969612,30.069809,64.608937,82.154686,91.567154,37.91486,69.289948,83.685013,90.481476,44.416168,67.985276,78.504616,82.793209,-25.757529,-39.629265,-47.57332,-50.366711,-7.927888,-13.099942,-18.076,-20.474238,10.610734,6.442384,-1.05913,-5.646124,23.09011,21.019186,15.878847,12.390233,30.167398,31.748123,28.897476,24.945623,56.80882,255.230085,-90.869494,244.179422
100,2.826313,12.348952,-3.465271,14.548002,-27.684814,-61.276943,-88.096172,-103.548454,-63.661457,-108.852928,-108.729915,-98.65512,-60.416851,-107.061229,-108.498779,-98.567253,-56.367485,-99.314209,-102.844951,-95.485576,-52.245918,-85.342563,-93.098648,-91.622852,-8.729038,-7.434132,-0.006323,9.116053,3.036379,2.638645,-8.014574,-16.052896,16.329328,16.876091,6.688953,-1.969813,25.684837,26.694283,16.953217,7.669858,30.834722,31.885072,25.408084,19.069552,11.011963,26.510227,45.72662,63.250077,30.78003,61.511719,81.503357,95.484867,36.103844,71.387169,89.681385,99.522057,41.368939,73.042408,87.984089,95.38852,45.474976,69.585263,80.590874,85.943791,-24.658891,-35.893711,-41.903496,-43.876372,-1.390496,-2.867553,-5.755323,-6.451263,17.052586,17.851464,13.096485,10.923932,29.653857,33.281509,31.328578,30.50153,36.858006,42.837558,42.399006,40.559659,58.859481,266.875734,-95.110417,258.024121
101,5.130616,8.192538,-3.701179,8.88917,-25.938996,-57.985474,-84.120404,-101.285065,-60.90326,-105.461357,-111.225746,-106.299282,-59.21386,-105.608071,-112.70168,-108.744347,-56.574898,-99.226822,-107.529488,-105.534439,-53.408684,-85.43533,-96.078678,-98.694077,-7.544183,-5.718607,2.688342,12.304696,7.557991,10.184026,0.932839,-6.687322,20.862661,24.381595,15.496365,7.389215,30.103561,34.854489,27.323014,18.790194,34.670769,38.916592,35.045767,29.935414,17.916263,37.988559,57.761593,75.128998,37.547058,67.467636,88.388546,104.248684,37.505024,72.250957,94.219082,109.04179,38.59758,70.322021,89.354816,102.274555,39.694622,63.816227,78.010334,88.988044,-21.950987,-30.287355,-34.954031,-35.448417,5.467912,9.295894,9.623097,10.380022,22.28497,28.481167,26.774781,26.27874,33.210483,40.620433,40.758581,41.281052,39.021283,46.51514,47.45918,47.028237,63.179158,274.54046,-99.622535,266.385479
102,4.723686,7.861507,-0.955536,7.986279,-26.965439,-57.661034,-83.265267,-101.870842,-62.716301,-101.744854,-109.000946,-106.532581,-61.8097,-102.583603,-110.345982,-107.868622,-59.788628,-97.301788,-105.610748,-104.593838,-56.654869,-85.640373,-95.032265,-97.169998,-5.833314,-3.716374,3.717906,10.497891,14.119936,19.281282,12.931994,6.401776,25.424781,30.052666,23.444557,16.286918,32.545283,38.230384,33.143681,25.905274,35.295893,40.340741,37.741247,33.399032,23.543827,46.450779,66.627056,84.15144,44.614551,72.626118,93.563679,110.766506,40.553467,72.734985,95.338383,112.266643,37.937416,66.920254,87.349171,103.223133,35.855129,58.204559,73.046264,86.443062,-18.577759,-24.230997,-27.169613,-27.431212,10.940333,18.86732,22.556648,25.397685,27.089659,38.395777,40.730918,42.842671,37.753659,50.623531,55.006501,58.38126,43.375638,55.022952,59.380641,61.724823,67.138378,282.015709,-101.342537,273.9855
103,3.227096,7.669105,2.564953,8.370417,-30.808753,-61.934188,-86.194541,-103.503192,-66.844802,-99.142204,-104.241107,-101.088729,-63.708801,-98.053676,-103.600067,-99.883243,-59.431892,-90.649887,-97.026729,-95.71796,-54.45259,-78.924522,-86.37078,-88.375831,-13.802835,-16.148795,-10.266451,-4.530541,8.986006,17.723183,14.659226,10.352617,26.645006,34.552677,31.119886,26.660901,40.099865,48.97971,46.670356,41.980029,48.721803,57.840746,57.030791,54.390615,26.810302,50.767032,71.415298,89.713485,48.160103,75.17482,96.006042,113.517173,41.923027,72.453964,95.549904,113.430656,37.101448,64.513023,85.133857,101.938842,32.986782,54.048717,68.855621,82.824131,-15.942783,-19.878594,-21.30388,-21.355812,14.776713,24.981388,30.728289,34.703682,30.510125,44.742422,49.905003,53.584167,40.916267,56.861026,63.669701,68.246864,46.301298,59.973,66.190785,70.209341,69.61374,289.484817,-99.529318,282.15592
104,-0.267951,5.443015,4.517887,7.470021,-28.465943,-57.93052,-81.601296,-99.576096,-67.966004,-92.567849,-93.339306,-87.881539,-66.480446,-91.232518,-89.813805,-82.15281,-63.464722,-85.30655,-84.041977,-78.336216,-59.280716,-77.492066,-78.524037,-75.802907,-3.380366,-2.969096,2.427915,8.462128,17.175988,30.290293,32.041745,29.876319,28.88557,41.57134,42.581342,40.393822,37.270189,50.2008,51.412627,49.015711,41.887947,53.840616,55.314956,54.098387,28.215111,53.092186,74.407471,93.212505,50.58736,78.180679,98.987102,116.216297,43.239258,73.62426,97.118076,115.236179,36.972542,64.18309,85.096081,102.220997,31.340973,52.484722,67.32518,81.685615,-14.028767,-16.641464,-17.270182,-17.130886,17.927627,29.009319,35.914423,40.636884,33.515086,48.868301,55.904797,60.781548,43.919301,61.216345,69.485553,74.837387,49.472207,64.285094,71.506002,76.590815,68.790831,294.81138,-95.566389,289.509489
105,-3.16372,3.968044,5.586857,6.666007,-25.764084,-53.575287,-76.121498,-93.099197,-69.700767,-85.56966,-79.127449,-68.605327,-68.866779,-83.354255,-72.979259,-58.853439,-65.793731,-77.940891,-67.772369,-55.700958,-61.162445,-72.083885,-66.584129,-58.70232,6.452029,10.513218,16.425597,23.994123,25.277926,42.199108,47.54426,47.474742,31.432627,48.051552,53.222618,53.903318,35.203366,51.284298,56.172016,56.515076,36.40745,50.626446,54.434816,55.151467,28.896778,54.366634,76.396511,95.701584,51.234684,79.951069,100.610092,117.319931,43.224964,74.744419,98.40374,116.381607,36.169338,64.430454,85.670906,102.759155,29.776794,51.813022,66.940944,81.507648,-12.851311,-14.663439,-14.197124,-14.141401,19.203686,31.515137,39.239768,44.619155,35.424408,51.44081,59.467462,64.834746,46.39469,64.273607,72.881924,78.155508,52.594579,68.426619,75.856984,81.067015,65.210523,298.69883,-90.39612,296.094902
106,-5.194153,4.133931,5.736751,5.509828,-22.591712,-48.347511,-69.321418,-84.709796,-71.178005,-77.974479,-64.111896,-48.091976,-70.967262,-74.5956,-55.571868,-34.699447,-67.508216,-69.353576,-50.599777,-32.080352,-61.915649,-65.156753,-53.175041,-40.091102,17.192512,25.225006,31.327478,40.445989,32.369529,52.304525,60.376342,61.864675,32.329551,51.776263,60.281925,63.355441,30.955568,48.94534,56.672922,59.614551,28.269771,44.231807,50.333403,53.381477,28.38842,53.827755,76.573288,96.371807,51.331856,81.34457,101.674496,117.828907,42.757221,75.662098,99.306851,116.944485,35.037289,64.593395,85.949146,102.769993,27.97855,50.44812,65.858608,80.618054,-12.368595,-13.690239,-12.139773,-12.6421,19.970948,33.355288,41.010894,46.192149,36.540819,52.937653,61.066205,66.038633,47.731895,66.11072,74.578813,79.220024,54.274487,71.148454,78.542449,83.302603,59.706081,302.786294,-84.969658,301.558263
107,-6.291961,4.157988,4.721443,3.99582,-18.41082,-41.657639,-60.982269,-75.152893,-69.960137,-70.611363,-52.47908,-33.782479,-70.615368,-66.548332,-42.23774,-17.944565,-67.333466,-61.068604,-37.303665,-15.78598,-61.458435,-58.172974,-42.274155,-26.622048,26.745783,39.120949,46.488872,58.035063,38.081035,59.016882,68.134084,70.419071,32.315893,52.825267,63.33147,67.723974,25.887169,44.763689,54.610126,59.319163,19.102787,36.256928,44.370747,49.044549,27.55069,52.905785,76.321438,96.160962,51.468338,82.499325,101.953869,117.024044,42.391949,76.627293,99.617718,116.232937,34.066887,64.831192,85.77467,101.817753,26.374936,49.377732,64.737832,79.058728,-12.316972,-13.361455,-10.892476,-11.993338,20.220111,34.189684,41.509516,46.344759,36.843532,53.140194,61.134464,65.643677,48.04597,66.11319,74.126491,77.953732,54.713965,71.839886,78.916693,82.965631,53.211909,306.923266,-80.450426,305.533067
108,-6.873551,2.914274,3.24083,2.686637,-15.353668,-36.338378,-53.962783,-67.280502,-66.804142,-63.867427,-45.208099,-26.850082,-67.22755,-58.110923,-33.762863,-9.898704,-63.360603,-51.730133,-27.605987,-6.14447,-56.819114,-48.8321,-32.220268,-16.259925,34.707449,51.603535,61.094388,75.02412,44.047952,63.907663,72.025816,74.135396,33.266281,52.87316,62.845,67.086191,21.930659,40.396947,50.399513,55.668083,10.615699,27.657639,36.79276,42.781538,26.677391,51.923286,75.742298,95.572872,51.132969,82.887348,101.702991,115.942669,41.946167,77.270656,99.618748,115.563824,33.375812,65.031269,85.711338,101.159077,25.347679,48.963352,64.565861,78.846256,-12.498222,-13.519833,-10.398955,-11.931316,19.819795,34.043298,41.172186,45.896636,36.564889,52.511661,60.156486,64.162099,47.811294,65.361712,72.826386,76.021932,54.55907,71.708814,78.371326,81.694733,46.200771,309.823081,-77.347183,308.205245
109,-7.158073,3.852546,1.92382,1.737027,-12.547531,-30.737206,-46.311859,-58.454063,-62.322739,-56.332329,-37.276405,-19.631355,-62.316593,-50.35302,-26.408524,-3.303314,-57.837936,-43.28595,-19.919106,1.015869,-50.65551,-40.20916,-24.196701,-8.528343,33.604093,51.01377,60.286113,72.465529,44.543981,62.46216,68.917857,71.061288,33.218005,50.095677,59.028368,63.440225,21.052396,36.863218,46.200337,51.802606,8.928579,23.835968,32.516594,39.200002,25.883355,51.089768,75.1386,95.071026,50.416455,82.768399,100.92651,114.408657,41.10466,77.485783,99.137478,114.1516,32.437088,64.982495,85.207112,99.951107,24.376717,48.35582,64.023823,78.069867,-12.991756,-14.176635,-10.51102,-12.012049,19.278478,33.866531,40.706946,45.157199,36.270549,52.01399,59.259388,62.709803,47.486857,64.821482,71.683447,74.127047,54.047616,71.166559,77.318802,79.72277,38.908991,313.664228,-75.55707,309.930873
110,-9.937042,2.84951,0.533856,0.721059,-9.11705,-23.274376,-36.336777,-47.159889,-53.640827,-43.492356,-24.060745,-7.734146,-55.31583,-39.40725,-15.825577,6.349869,-52.513012,-35.34153,-12.166466,7.73854,-46.90305,-37.24371,-22.873375,-8.68261,24.389412,38.43978,47.10067,57.648925,37.685783,55.643346,61.231252,63.159705,31.452461,47.462046,55.187529,58.702437,23.287908,37.654759,45.3981,50.450791,14.655683,28.602915,36.093363,42.169245,25.348823,50.422828,74.367668,94.113235,50.304439,82.799515,100.523872,113.763176,40.982059,77.561325,98.746124,113.430336,32.253078,64.967537,84.817383,99.203293,24.181423,48.177418,63.800651,77.682861,-13.506099,-14.840242,-10.932157,-12.253443,18.646661,33.460857,40.169915,44.409847,35.761603,51.311863,58.318744,61.303228,46.883136,64.068189,70.55423,72.410658,53.259619,70.171946,75.833372,77.357977,28.824412,316.504728,-75.170751,310.642922
111,-13.234589,3.510919,-0.165127,-0.019031,-5.06868,-13.759025,-20.704948,-27.439155,-40.838402,-26.08873,-6.543503,8.467941,-44.115383,-24.663872,-1.118614,19.726524,-43.107548,-24.2062,-1.389107,17.356407,-39.323845,-29.729942,-16.286247,-3.335495,13.625241,22.590462,29.115961,36.780534,28.518637,45.698652,51.531225,54.321022,28.210688,42.956093,50.104556,53.130672,25.250114,38.168535,44.689921,48.749653,21.089828,33.777092,39.564625,44.232499,25.345711,50.407734,74.195354,93.761387,50.447502,82.783642,100.29697,113.417095,41.145046,77.674587,98.656986,113.223507,32.406532,65.146992,84.897686,99.123791,24.328056,48.428547,64.053349,77.783329,-13.68567,-15.090566,-11.114988,-12.099598,18.205404,32.972435,39.632205,43.74924,35.413923,50.749119,57.634636,60.335339,46.543866,63.465171,69.651698,71.030671,52.874358,69.535965,75.022947,76.116781,15.471153,320.005542,-75.454548,310.613786
112,-13.546245,0.174124,-0.016994,-0.095701,-1.196331,-3.339077,-3.727902,-5.653313,-28.379185,-7.950016,12.260868,26.645427,-33.500817,-8.860119,15.384967,35.258365,-34.168751,-12.781758,10.508411,28.759906,-31.991765,-22.672165,-10.342392,1.948574,4.841689,9.746339,14.735352,21.128014,21.747643,38.464554,44.300202,47.991876,26.848474,40.727978,47.513903,50.526953,28.511943,40.705822,46.713853,50.18288,28.610238,41.010041,46.294506,50.554815,25.410953,50.511177,74.174697,93.776733,50.225509,82.588508,100.041389,113.134941,40.850429,77.587211,98.574005,113.014114,32.117088,65.064743,84.750595,98.767616,24.153785,48.23014,63.874763,77.538253,-13.703726,-15.06899,-10.963625,-11.700764,17.862826,32.710268,39.267099,43.233563,35.246444,50.55484,57.303592,59.739201,46.525786,63.413523,69.274675,70.267263,52.919226,69.407537,74.611689,75.255894,1.802405,320.167902,-75.594045,310.506321
113,-10.470509,1.941791,-0.127923,-0.151498,2.743927,5.480095,9.192421,10.59494,-17.450489,6.67701,26.963814,40.188103,-24.882442,2.600555,26.574097,45.70594,-28.109802,-5.511452,17.635712,34.961906,-28.487343,-19.756931,-8.168152,3.259438,-6.137411,-6.68736,-3.905603,0.373392,12.54304,29.442386,35.154114,38.85883,24.594114,38.661216,44.679226,46.656907,32.172162,43.881893,48.337284,50.620505,37.279341,49.558373,52.882966,54.857226,25.510792,50.609803,74.164742,93.764786,49.89909,82.237427,99.717019,112.883858,40.444211,77.262589,98.289826,112.699494,31.743645,64.833481,84.537415,98.459633,23.950528,48.012955,63.739541,77.419877,-13.699169,-14.95017,-10.770248,-11.209701,18.005049,33.041039,39.529909,43.332561,35.485195,50.957489,57.554656,59.705621,46.831179,63.864647,69.417651,70.055397,53.196757,69.715955,74.71643,75.008583,-8.784033,322.09877,-75.837897,310.3439
