takenoko1/special-research/HandMotion_SimilarSearch_自分用/NewProject/handData_new/key/d3_feature/146.csv
,vel_0x_L,vel_0y_L,vel_0x_R,vel_0y_R,posFromWrist_1x_L,posFromWrist_2x_L,posFromWrist_3x_L,posFromWrist_4x_L,posFromWrist_5x_L,posFromWrist_6x_L,posFromWrist_7x_L,posFromWrist_8x_L,posFromWrist_9x_L,posFromWrist_10x_L,posFromWrist_11x_L,posFromWrist_12x_L,posFromWrist_13x_L,posFromWrist_14x_L,posFromWrist_15x_L,posFromWrist_16x_L,posFromWrist_17x_L,posFromWrist_18x_L,posFromWrist_19x_L,posFromWrist_20x_L,posFromWrist_1y_L,posFromWrist_2y_L,posFromWrist_3y_L,posFromWrist_4y_L,posFromWrist_5y_L,posFromWrist_6y_L,posFromWrist_7y_L,posFromWrist_8y_L,posFromWrist_9y_L,posFromWrist_10y_L,posFromWrist_11y_L,posFromWrist_12y_L,posFromWrist_13y_L,posFromWrist_14y_L,posFromWrist_15y_L,posFromWrist_16y_L,posFromWrist_17y_L,posFromWrist_18y_L,posFromWrist_19y_L,posFromWrist_20y_L,posFromWrist_1x_R,posFromWrist_2x_R,posFromWrist_3x_R,posFromWrist_4x_R,posFromWrist_5x_R,posFromWrist_6x_R,posFromWrist_7x_R,posFromWrist_8x_R,posFromWrist_9x_R,posFromWrist_10x_R,posFromWrist_11x_R,posFromWrist_12x_R,posFromWrist_13x_R,posFromWrist_14x_R,posFromWrist_15x_R,posFromWrist_16x_R,posFromWrist_17x_R,posFromWrist_18x_R,posFromWrist_19x_R,posFromWrist_20x_R,posFromWrist_1y_R,posFromWrist_2y_R,posFromWrist_3y_R,posFromWrist_4y_R,posFromWrist_5y_R,posFromWrist_6y_R,posFromWrist_7y_R,posFromWrist_8y_R,posFromWrist_9y_R,posFromWrist_10y_R,posFromWrist_11y_R,posFromWrist_12y_R,posFromWrist_13y_R,posFromWrist_14y_R,posFromWrist_15y_R,posFromWrist_16y_R,posFromWrist_17y_R,posFromWrist_18y_R,posFromWrist_19y_R,posFromWrist_20y_R,posFromBody_0x_L,posFromBody_0y_L,posFromBody_0x_R,posFromBody_0y_R
6,-2.42537,3.257297,0.500508,0.033938,3.558632,1.642159,-2.657661,-7.652,-19.97097,0.011238,18.223274,30.726906,-28.143127,-5.143432,15.924134,33.568108,-31.163154,-10.955703,8.394242,23.263001,-31.704197,-19.102672,-5.15966,6.210961,-18.880596,-31.474457,-34.861133,-37.551006,-9.846177,3.614449,8.319633,9.628915,7.668574,19.940035,23.936534,23.528821,21.279439,30.500344,31.939215,30.88516,32.218524,40.329206,38.988963,35.158276,26.118003,51.336959,74.618785,95.29874,50.31245,83.845859,102.434017,116.020488,42.439819,80.433597,101.788387,116.000827,35.366775,70.644916,90.162998,102.496067,29.481204,56.509906,72.572696,85.109905,-15.315868,-16.583851,-10.610857,-7.255908,16.751022,32.154292,38.154246,41.438812,34.297414,48.502331,51.622554,51.243765,46.062387,60.264265,62.3157,59.979793,52.754872,66.068335,68.577032,67.193563,7.922664,315.562627,-73.925949,290.028016
7,6.01545,-2.278121,0.253406,0.11766,3.930336,-0.349892,-8.916504,-17.648644,-24.352215,-6.427689,11.831245,24.222702,-33.356564,-12.263466,8.781051,26.615661,-37.346993,-18.100067,2.077331,17.681831,-38.894383,-26.899578,-12.042481,0.073402,-19.158436,-31.152255,-33.903137,-36.464557,-9.153906,4.869946,9.172085,9.73825,8.480382,21.472533,25.470464,25.207494,22.463614,32.586829,34.082387,33.318954,33.777055,42.969172,41.704845,37.881803,25.869564,51.046268,74.385727,95.088226,49.992439,83.571075,102.291641,115.969528,42.182339,80.261421,101.744545,116.070168,35.17844,70.564453,90.237007,102.75634,29.381653,56.443085,72.582619,85.275902,-15.337,-16.723062,-10.829158,-7.366824,16.516234,31.972943,38.051764,41.391239,34.057637,48.359415,51.531373,51.168923,45.833057,60.157399,62.228409,59.849401,52.502262,65.987219,68.608622,67.253757,13.771849,313.277738,-73.838808,290.138908
8,-9.621071,2.93107,0.32159,0.12439,5.434799,4.876968,0.734093,-4.558777,-15.7454,3.830612,21.588272,33.478821,-24.250877,-0.995567,19.188332,36.410454,-27.862702,-6.803398,12.161751,27.028839,-29.316753,-16.187965,-2.21402,9.353393,-19.958351,-32.543542,-36.131154,-39.015294,-11.074764,2.100773,6.908833,8.297625,6.222416,18.576006,22.822507,22.99116,19.842136,29.505977,31.175745,30.650126,30.838353,39.384338,38.634676,35.123931,25.641152,50.79728,74.175488,94.968853,49.817963,83.361615,102.03574,115.658833,42.066777,80.126004,101.608738,115.946171,35.083317,70.476735,90.154049,102.732502,29.301156,56.348923,72.488904,85.237622,-15.417646,-16.904781,-10.99702,-7.405875,16.336491,31.899756,37.977331,41.271023,33.908275,48.310916,51.484233,51.0771,45.694045,60.146519,62.22216,59.790441,52.334746,65.852961,68.52148,67.175037,3.983242,316.205891,-73.684754,290.260381
9,1.367294,-2.245233,0.29638,0.094503,4.280731,3.04644,-1.009895,-5.326973,-17.178497,1.192017,18.531052,30.366463,-25.581939,-4.033882,16.201836,33.690125,-29.534946,-9.216659,10.640122,26.228806,-31.464466,-18.23069,-3.477905,8.521179,-19.567396,-31.706811,-35.239083,-37.032117,-10.256941,2.580229,7.27841,8.352521,7.393192,20.041121,24.168901,23.862348,21.608458,31.709788,33.195774,32.200852,33.091638,42.382951,41.222155,37.238043,25.456203,50.554195,73.882083,94.604427,49.799366,83.193042,101.789783,115.338604,42.050308,79.983318,101.456142,115.788837,35.032573,70.338237,90.029399,102.674045,29.212749,56.250583,72.414585,85.185344,-15.534082,-17.016512,-11.090906,-7.390352,16.239296,31.933398,37.972971,41.169444,33.809289,48.422227,51.630075,51.205257,45.578448,60.271082,62.382452,59.946731,52.162647,65.736129,68.432905,67.108853,5.191932,313.969025,-73.546978,290.363251
10,1.448387,-1.113372,0.233482,0.147781,4.368531,2.698883,-1.513,-6.106086,-19.002113,-0.516037,17.196762,29.079209,-27.652244,-5.87384,14.755623,32.206765,-31.561626,-11.229904,8.826508,24.340668,-33.340175,-19.836662,-4.990127,6.940682,-19.752586,-31.645258,-34.701126,-35.92781,-9.379357,3.970415,8.862011,10.181605,8.59215,21.456094,25.466561,25.033036,22.874081,33.204703,34.553838,33.505502,34.32572,43.738521,42.312407,38.067363,25.380684,50.44297,73.711635,94.345081,49.95203,83.193844,101.677471,115.13998,42.1623,79.948345,101.357883,115.645122,35.068085,70.277698,89.902851,102.528202,29.186245,56.201569,72.356998,85.08379,-15.672144,-17.143051,-11.185482,-7.395823,16.092824,31.914724,37.94217,41.067,33.689505,48.487078,51.766222,51.34727,45.454157,60.320161,62.476028,60.065885,52.015941,65.608824,68.291077,66.963567,6.468217,312.877648,-73.485598,290.533027
11,1.859093,-0.038705,0.149517,0.115102,3.697037,1.256882,-3.325149,-8.074379,-20.795471,-1.819519,16.242806,28.3022,-29.334045,-7.576698,13.262581,30.631874,-33.129215,-13.021294,7.086731,22.548729,-34.768364,-21.333733,-6.527573,5.320084,-19.865157,-31.69419,-34.88119,-36.388962,-9.108606,4.050481,8.82133,10.436066,9.001221,21.61399,25.471909,25.130478,23.249796,33.378567,34.504623,33.50644,34.662976,43.694752,42.172147,38.053271,25.35379,50.496757,73.79789,94.413254,50.21814,83.31427,101.670845,114.990578,42.386215,80.087769,101.424202,115.586426,35.18161,70.413048,89.924103,102.395988,29.182217,56.27766,72.411209,85.040039,-15.83651,-17.27979,-11.275291,-7.395698,15.841859,31.897299,37.939231,40.986948,33.459893,48.457574,51.819069,51.407342,45.262645,60.257275,62.433323,60.01793,51.866888,65.474296,68.147557,66.802621,8.15875,312.862983,-73.504641,290.672169
12,-7.919781,3.709409,0.195396,-0.107149,4.82523,5.421994,4.39262,2.427327,-13.828056,7.216565,25.156323,37.1013,-21.972004,2.629864,22.72427,39.830876,-25.144146,-2.717296,16.037213,30.75047,-26.145023,-11.82304,2.04871,13.381314,-19.714758,-32.701845,-37.251381,-39.935004,-10.470697,2.009704,7.079586,9.174345,6.858136,19.052274,23.037251,23.070374,20.380908,30.222874,31.50522,30.53569,31.028927,39.564464,38.705862,34.985301,25.348069,50.565285,73.911095,94.543419,50.403592,83.383141,101.598542,114.748558,42.523877,80.166481,101.407494,115.436074,35.219479,70.480545,89.838135,102.127327,29.105656,56.216824,72.310479,84.841301,-15.851849,-17.214483,-11.119866,-7.151772,15.777045,32.043351,38.096522,41.049179,33.420793,48.553238,52.008704,51.625666,45.240884,60.30749,62.531629,60.126599,51.892033,65.495179,68.17537,66.812303,0.108678,316.597132,-73.439536,290.58976
13,-4.373497,1.473414,0.219395,-0.091798,5.613694,7.933812,8.328747,7.964779,-9.430011,12.001133,29.890377,42.087902,-17.355709,7.310383,27.454548,44.816792,-20.924125,1.798016,20.630688,35.727665,-22.417442,-7.895542,6.095021,17.767857,-19.614537,-33.242272,-38.353922,-41.282373,-11.851485,0.077027,5.472396,7.940387,5.169806,17.571561,21.96025,22.472531,18.766296,28.655464,30.39643,29.74195,29.65377,38.048134,37.666096,34.352804,25.3335,50.487625,73.8521,94.473049,50.372131,83.297161,101.503704,114.608654,42.523487,80.168804,101.416226,115.457691,35.279343,70.588337,89.84618,101.999394,29.228737,56.318333,72.342533,84.784779,-15.781849,-17.098986,-11.009469,-7.0959,15.828483,32.117291,38.207623,41.136,33.432624,48.587781,52.203082,51.921945,45.257433,60.324508,62.631936,60.296943,51.993328,65.6356,68.327831,66.961653,-4.371661,318.082887,-73.326983,290.510303
14,-0.096794,0.434896,0.275093,-0.040298,6.101578,8.760349,9.070324,8.184597,-8.531971,13.287197,30.849507,42.537106,-16.546486,8.490566,28.230274,45.129513,-20.225029,2.700863,21.057415,35.778958,-21.84383,-7.351444,6.342144,17.850781,-19.773384,-33.658705,-38.699848,-41.714429,-12.068204,4.9e-05,4.97612,7.114413,4.994818,17.453803,21.501777,21.804749,18.694443,28.600913,30.087727,29.204758,29.667491,38.001537,37.491787,34.024526,25.290276,50.443016,73.843174,94.447712,50.277672,83.227009,101.425381,114.456722,42.454674,80.140583,101.372784,115.355564,35.275772,70.66087,89.8037,101.778179,29.315174,56.395809,72.326718,84.640858,-15.743219,-17.008089,-10.958031,-7.189119,15.852738,32.173335,38.320132,41.240716,33.447827,48.583495,52.30476,52.087435,45.287678,60.310108,62.645224,60.337389,52.076382,65.746071,68.438043,67.063306,-4.551699,318.516248,-73.135134,290.46847
15,-1.553833,-0.14273,0.26001,-0.194959,6.737503,10.093769,11.818188,12.4529,-7.213898,14.584316,32.118176,43.843815,-15.206589,9.829777,29.821049,47.126553,-18.879249,4.066853,22.782223,37.935459,-20.549526,-5.836933,8.026692,19.839901,-19.955362,-33.858023,-38.584115,-40.5656,-12.592811,-0.779698,4.195298,6.488832,4.534197,17.106198,21.4371,22.092655,18.435734,28.528851,30.205177,29.537173,29.632281,38.026793,37.515907,34.114324,25.213554,50.296577,73.690899,94.280834,50.09531,83.066952,101.301945,114.298176,42.309963,80.036533,101.278416,115.251835,35.220131,70.662792,89.754513,101.640392,29.365837,56.426834,72.303234,84.558277,-15.608923,-16.813674,-10.847892,-7.173842,16.013562,32.362354,38.547028,41.442838,33.559941,48.635711,52.440797,52.263449,45.400533,60.380393,62.781533,60.506438,52.242442,65.997037,68.726208,67.331612,-6.163033,318.358485,-72.932625,290.258478
16,8.353707,-3.888881,0.219166,-0.045967,5.668144,6.279247,4.878788,2.858356,-14.831463,4.793209,22.392185,34.309902,-23.294793,-0.235737,20.530849,38.456119,-27.311623,-5.95245,14.118907,30.242603,-29.152359,-15.154049,-0.364277,12.111156,-20.072687,-33.058799,-35.968676,-35.759083,-10.80705,1.900505,6.553708,8.076287,7.133247,20.239488,24.359809,24.450447,21.771491,32.286154,33.756802,32.793792,33.643589,42.890602,41.630646,37.554205,25.177242,50.187458,73.573265,94.136512,50.067535,82.984405,101.232216,114.241333,42.278824,79.915695,101.108162,115.08126,35.220039,70.552208,89.536926,101.366775,29.407493,56.34003,72.142799,84.37857,-15.491684,-16.692989,-10.845138,-7.343445,16.111535,32.414311,38.63044,41.506948,33.611812,48.554127,52.425013,52.288199,45.450341,60.337168,62.826327,60.594988,52.358422,66.127602,68.869123,67.449815,2.12954,314.452243,-72.774593,290.19515
17,2.604732,-0.993971,0.243725,0.124328,5.638378,5.425552,3.244492,0.443802,-17.057384,2.042175,19.683266,31.528999,-25.706886,-3.28434,18.020027,36.134262,-29.676498,-9.20636,11.531868,27.93544,-31.478222,-17.810188,-2.92131,9.599854,-20.33262,-33.049352,-35.190955,-34.057106,-10.71177,2.036281,6.629363,8.152931,7.582506,20.525738,24.823085,24.958392,22.500294,32.983488,34.54791,33.738733,34.610303,43.760677,42.325683,38.099349,25.104629,50.02573,73.398571,93.881687,49.936649,82.887027,101.202426,114.255992,42.173286,79.824153,101.046398,115.055408,35.157772,70.480854,89.429088,101.204326,29.373664,56.305538,72.089801,84.305271,-15.496661,-16.708809,-10.98278,-7.577899,16.081574,32.219661,38.445041,41.325167,33.544516,48.379188,52.289422,52.178691,45.373722,60.179618,62.684548,60.459965,52.318358,66.072892,68.796678,67.331044,4.676788,313.435468,-72.588352,290.296674
18,-0.083439,0.17689,0.190532,0.082697,5.792027,5.539273,3.137226,-0.022739,-17.010567,2.212612,19.773915,31.454716,-25.634697,-2.952678,18.38554,36.618084,-29.480289,-8.782551,11.983212,28.41679,-31.209846,-17.367222,-2.507595,9.951885,-20.403546,-33.183091,-35.365708,-34.346925,-10.882287,1.805755,6.228319,7.588977,7.330231,20.229867,24.464809,24.624027,22.180526,32.597931,34.028762,33.245915,34.25945,43.37113,41.740043,37.428703,25.050659,49.999592,73.351799,93.724068,49.988869,82.935517,101.263207,114.312149,42.187248,79.815788,101.020844,115.004517,35.104798,70.442368,89.347138,101.080284,29.245148,56.26799,72.057335,84.23449,-15.553422,-16.742476,-11.095598,-7.812045,15.966557,32.04566,38.282513,41.171296,33.472576,48.211671,52.132785,52.048965,45.331866,60.014212,62.508583,60.276046,52.286395,65.968286,68.651625,67.124636,4.515438,313.596602,-72.475731,290.363615
19,0.706696,-0.171086,0.104016,-0.067691,5.411487,4.808201,2.229892,-0.972119,-17.804695,0.994892,18.71442,30.743328,-26.416134,-4.130574,17.389652,35.917362,-30.201874,-9.925358,11.034931,27.696499,-31.828549,-18.284821,-3.305294,9.21104,-20.253752,-32.983266,-35.050719,-34.156783,-10.7731,1.538499,6.228851,7.896927,7.393883,19.906246,24.414298,24.833904,22.224381,32.444136,34.030516,33.413988,34.323905,43.338996,41.76436,37.607878,25.042682,49.973716,73.264034,93.563472,50.038684,82.961254,101.323139,114.400371,42.168022,79.777462,101.007305,115.009883,35.005519,70.345996,89.267589,101.004215,29.0522,56.108436,71.963001,84.187053,-15.547544,-16.723716,-11.085619,-7.798089,15.896458,31.949515,38.195631,41.118302,33.44059,48.128308,52.044359,51.994365,45.318602,59.94273,62.430704,60.196883,52.288952,65.96195,68.641881,67.078805,5.138918,313.418764,-72.454931,290.289172
20,-0.957047,0.982486,0.107929,0.06627,5.524555,5.333462,3.093807,0.215412,-16.382229,2.296795,19.813992,31.771237,-24.786117,-2.689785,18.641087,37.022564,-28.654678,-8.472095,12.285954,28.877758,-30.479862,-16.958221,-2.094646,10.372753,-20.555995,-33.787701,-36.180776,-35.445922,-11.932353,-0.030751,4.690772,6.39349,6.278474,18.515997,23.089122,23.669711,21.221295,31.165088,32.870708,32.451522,33.463895,42.214768,40.76635,36.816868,25.039684,50.064457,73.391418,93.664924,50.087024,83.036247,101.377739,114.433273,42.167473,79.815124,101.032059,114.97435,34.936981,70.328087,89.187149,100.809105,28.906334,56.005943,71.840996,84.005836,-15.60218,-16.808141,-11.132463,-7.940016,15.607553,31.671206,37.956299,40.965705,33.274222,47.887173,51.825096,51.842065,45.228793,59.753861,62.202586,59.941335,52.232723,65.833152,68.506611,66.937138,4.09766,314.394235,-72.431213,290.348427
21,-12.431568,1.678043,0.112541,-0.021057,7.839398,12.388893,15.151909,15.796166,-5.661472,15.875633,33.567833,45.794083,-13.347381,11.883041,32.76677,50.956764,-16.90068,6.384178,26.131394,41.854569,-18.642002,-3.365421,10.903679,22.838585,-20.390109,-33.793036,-36.487812,-36.004813,-12.319701,-0.446838,4.595305,6.646506,5.273325,17.86085,22.772774,23.919529,19.44744,29.884717,31.817876,31.566675,30.772861,39.860249,38.881703,35.233279,25.023148,50.089542,73.417786,93.680649,49.974037,83.030228,101.382431,114.419998,42.024353,79.805695,101.037827,114.932693,34.786846,70.344566,89.188568,100.72467,28.780037,55.9869,71.817123,83.89444,-15.604415,-16.837027,-11.155397,-7.920305,15.367122,31.469332,37.77085,40.858618,33.155365,47.738762,51.696284,51.787107,45.189841,59.643488,62.046666,59.782217,52.212234,65.75221,68.401364,66.803251,-8.417542,316.066084,-72.402306,290.321176
22,6.292145,-3.102983,0.065334,0.00399,6.741497,9.052643,8.938179,7.307144,-10.977711,9.204918,26.922432,39.25209,-18.935887,4.252052,25.360794,43.661499,-23.069023,-1.28064,19.065605,35.218666,-25.295483,-10.731365,4.236145,16.612244,-19.9306,-32.475381,-34.466412,-33.824097,-10.587762,2.050163,6.773069,8.282003,7.401355,20.648486,25.179496,25.805102,22.081515,33.000643,34.604561,34.062071,34.021649,43.851796,42.269787,38.300249,25.034775,50.131462,73.402256,93.693318,49.969517,83.04221,101.363263,114.364437,41.997792,79.784397,100.986271,114.832569,34.761315,70.35046,89.174092,100.671604,28.791207,55.977505,71.769459,83.79308,-15.670835,-16.930518,-11.182173,-7.943919,15.170903,31.355735,37.66596,40.814675,33.028134,47.600243,51.568065,51.737397,45.108651,59.506426,61.892314,59.64881,52.139182,65.641836,68.281296,66.698497,-2.198061,312.957973,-72.409636,290.320038
23,3.915012,-1.24826,0.106362,-0.215213,6.109177,6.789883,5.705464,3.183827,-14.859844,5.082791,23.063862,35.35104,-22.924736,0.115391,21.451756,39.637654,-26.744945,-5.429615,15.114636,31.047009,-28.547333,-14.225509,0.674229,12.823849,-20.058929,-32.192564,-33.648701,-32.51421,-9.710857,3.074874,7.57091,8.989909,8.598264,21.547486,25.936581,26.339046,23.351758,34.167874,35.617774,35.018363,35.255855,45.143244,43.309442,39.135682,25.095371,50.197654,73.421093,93.73582,49.828548,82.836651,101.121998,114.14011,41.83778,79.610195,100.826877,114.720142,34.608249,70.174747,89.009433,100.5153,28.652218,55.760284,71.527439,83.54108,-15.56902,-16.823776,-11.006381,-7.732609,15.12112,31.38193,37.736714,40.939288,33.018168,47.577297,51.589789,51.799716,45.14417,59.492385,61.916916,59.675536,52.225893,65.733375,68.414566,66.828951,1.658935,311.708351,-72.36129,290.103463
24,-10.934818,3.494555,0.100776,-0.070877,7.968533,12.698868,16.085564,17.424316,-5.327488,16.641563,34.294647,46.259193,-12.743877,12.930542,33.75602,51.569069,-16.077644,7.682831,27.145546,42.351791,-17.539867,-1.938629,12.099792,23.684853,-20.272302,-33.58432,-36.593344,-36.013384,-11.696775,0.139556,4.92788,6.821519,5.946997,18.610574,23.169014,23.959086,20.087878,30.626809,32.394192,32.008277,31.385129,40.935842,39.885666,36.05304,25.135483,50.195057,73.375912,93.714375,49.782051,82.763638,100.957501,113.956456,41.76091,79.506329,100.656201,114.524861,34.520337,70.065709,88.844845,100.336773,28.577946,55.680577,71.382122,83.35175,-15.590213,-16.888355,-10.992957,-7.79221,14.862694,31.208386,37.629132,40.915032,32.836066,47.407384,51.465362,51.720008,45.027141,59.327709,61.781621,59.566732,52.16145,65.602316,68.266142,66.692396,-9.347082,315.207269,-72.331713,290.036949
25,6.217438,-2.924191,-0.14669,-0.150696,7.818844,10.341156,10.008178,7.87548,-9.950306,11.266662,28.433189,39.768676,-17.848183,6.367584,26.777641,44.081657,-21.933117,0.899643,20.241577,35.160896,-24.120049,-9.080452,5.396347,16.957443,-20.201005,-32.699091,-34.737916,-34.080349,-10.381442,2.463125,6.417091,7.288735,7.600661,21.420341,25.068,24.873412,22.044984,33.421349,34.408738,33.298379,33.789665,44.285062,42.472156,38.013443,25.221565,50.294003,73.478153,93.852848,49.88031,82.731251,100.830631,113.811459,41.849316,79.533886,100.614475,114.463406,34.611465,70.126591,88.904583,100.460735,28.661087,55.806049,71.465023,83.429615,-15.662004,-16.975435,-11.113061,-8.123514,14.429392,30.897165,37.379822,40.687767,32.437504,47.107698,51.275048,51.583034,44.700531,59.039841,61.629208,59.526348,51.92917,65.336036,68.046348,66.55641,-3.202074,312.288614,-72.550833,289.891789
26,6.024799,1.003617,-0.030498,-0.74471,6.520649,6.419872,3.38792,-0.879078,-15.411369,4.895634,22.088253,33.043041,-23.734795,-0.186069,20.319431,37.604633,-27.584186,-6.04668,13.397175,28.375431,-29.377064,-15.255581,-0.763699,10.837704,-20.011727,-33.397488,-36.421282,-36.772123,-11.686043,0.705906,4.606989,5.473717,6.060964,19.198772,22.622153,22.048232,20.4764,31.00319,31.854555,30.711654,32.448693,41.946734,39.919814,35.282284,25.297302,50.357105,73.398536,93.555587,50.073532,82.862617,100.878936,113.869331,42.002689,79.598167,100.639709,114.519126,34.668308,70.06137,88.869094,100.558685,28.561901,55.768032,71.374946,83.279411,-15.794582,-16.88938,-10.880608,-7.901904,14.215044,30.510434,36.976048,40.333492,32.217376,46.886211,51.071061,51.408046,44.486528,58.893011,61.544326,59.533622,51.707288,65.087701,67.726135,66.210126,2.755468,313.309024,-72.648588,289.163872
27,-11.546287,2.928402,0.246128,-2.160116,8.21577,12.212802,12.780246,10.987918,-4.072289,18.165767,34.716739,45.077259,-11.709034,14.447078,33.924671,50.265438,-15.454628,8.045734,25.66222,38.935443,-17.566029,-2.637555,10.724796,21.206165,-20.132672,-34.493137,-39.340174,-41.358659,-13.946293,-2.653896,1.124401,2.034368,2.71193,14.943514,18.108,17.709166,16.235345,25.990057,26.37512,24.910203,27.423766,35.973024,34.019476,29.509658,25.263301,50.21268,73.048336,92.923038,50.318744,82.951137,100.818203,113.897518,42.114795,79.246868,100.021282,113.972408,34.552642,69.388584,88.176578,100.185459,28.140094,55.183113,70.638187,82.513355,-15.812736,-16.676649,-10.800999,-8.081066,14.095335,30.451117,36.963809,40.365355,31.961668,46.989335,51.357806,51.879362,44.07674,58.899705,61.783338,60.106604,51.18814,64.638541,67.276123,65.911797,-8.877662,316.266569,-72.489303,287.032899
28,1.205909,-7.109201,0.364517,-3.806048,8.932194,12.997959,12.264828,9.178265,-3.022922,17.684933,33.290554,43.430981,-10.74131,12.601376,31.664234,47.979161,-15.626461,5.642361,23.447583,37.108853,-19.01112,-5.350708,8.516934,19.558995,-19.628863,-33.047462,-37.18858,-38.725832,-12.268016,-0.60902,3.144516,3.64057,4.472817,17.328796,20.081098,19.061549,18.265747,28.660676,28.718314,26.637992,29.947764,39.643493,37.28953,32.402318,25.260898,50.277134,72.865139,92.418583,51.030613,83.290249,100.766956,113.743984,42.978481,79.298847,99.537357,113.520183,35.329845,69.313579,87.95422,100.453434,28.588966,55.360908,70.535534,82.468265,-16.435712,-17.173296,-11.511635,-9.498597,12.668566,29.018309,35.72948,39.441594,30.452771,45.818176,50.708969,51.808904,42.699731,57.91602,61.370968,60.451529,50.074706,63.519253,66.237394,65.217796,-7.747399,309.196891,-72.200432,283.266374
29,6.708859,-11.982019,0.468773,-6.937227,7.803005,9.540127,6.208134,1.074074,-5.893776,10.480739,23.842747,32.994266,-13.159287,3.945991,21.253269,36.912975,-18.625843,-3.167198,13.489357,26.976116,-22.944964,-13.076185,-0.085305,10.795383,-14.376398,-23.829138,-25.562954,-26.22745,-5.204442,6.213086,8.903965,8.24728,8.314915,20.621303,22.600194,20.64215,19.009346,28.978159,28.646924,26.144346,27.964959,37.095572,34.539982,29.7929,25.559189,50.821277,73.057193,91.876545,51.689701,83.354496,100.514019,113.495647,43.769748,78.791988,98.498188,112.695865,35.891693,68.467861,86.841259,99.642688,28.540992,54.082546,68.709537,80.201099,-16.972668,-17.551492,-12.079529,-10.537596,10.771322,27.155954,34.279951,38.568863,28.208317,44.455555,50.275173,52.377058,40.634155,56.973326,61.415379,61.530371,48.590424,62.963969,66.047636,65.207275,-1.09667,297.293048,-71.789789,276.407323
30,1.081673,-13.462084,0.896393,-10.116804,5.70576,6.950077,4.702571,1.39476,-4.332688,6.352466,16.663204,24.965503,-9.939938,0.059921,14.635265,29.491023,-14.728787,-6.162072,7.879623,20.871768,-18.860819,-14.258681,-3.885682,6.133609,-3.904343,-7.483483,-7.029679,-6.893606,5.926514,15.117174,16.684937,15.043765,12.159829,22.005735,23.607677,21.248354,15.902621,23.758459,23.867553,21.583128,18.403636,24.891295,23.525314,20.070138,25.374435,50.394298,71.790561,89.515949,52.490901,82.943264,99.46281,112.217937,44.841018,77.516979,96.313556,110.56818,36.832775,66.810802,84.400577,97.124301,29.000152,52.576206,66.240268,76.889659,-16.79715,-17.074162,-11.779336,-10.262783,9.366525,25.191204,33.069272,38.263815,26.230216,42.911176,49.744378,52.899145,38.550646,55.75315,61.106071,62.322443,46.972958,61.72607,64.887259,64.166174,-0.061117,283.971706,-70.939516,266.431261
31,18.812576,-22.839044,0.174991,-15.228208,1.616947,-1.772541,-7.932942,-12.805733,-13.640202,-15.410305,-10.383076,-3.825405,-18.670487,-22.29863,-12.202641,0.676769,-23.369225,-26.890045,-16.093895,-3.95747,-27.290743,-31.646284,-24.076081,-14.965634,6.645875,10.045359,14.146439,17.16906,19.904424,26.493971,26.85492,24.687215,19.73616,26.923809,27.891228,25.54717,17.038742,22.823125,22.711375,20.678397,13.221973,18.364881,18.177295,16.29836,27.317608,53.540703,74.374924,90.181687,57.929558,88.621445,101.859169,110.620033,50.540474,83.527794,98.331253,107.587715,42.076573,72.305534,86.479477,95.116196,32.659859,57.113526,68.97892,76.888641,-14.902597,-14.191751,-8.548084,-6.101681,9.554345,26.012497,33.211187,37.733541,24.243249,42.736275,49.0383,51.784476,35.324447,54.023188,58.874066,60.093328,43.573993,58.513369,60.775336,59.763074,18.596398,261.587068,-70.919586,251.657459
32,28.197212,-29.249306,-0.485229,-16.504279,-5.407917,-16.260006,-27.448437,-34.562782,-30.910526,-44.279606,-43.620907,-38.526729,-34.432755,-50.662182,-45.059029,-34.387974,-37.338993,-52.283215,-44.984528,-34.049275,-39.18651,-51.868029,-47.676247,-40.19521,12.571872,21.624847,30.274054,37.029722,29.416859,36.109536,37.008875,35.228283,26.322311,33.72752,35.329072,33.293834,20.598925,26.701687,27.633866,26.268249,13.65679,19.109715,20.601327,20.166839,27.713642,54.603756,75.450943,90.558059,61.948963,92.742141,104.035011,109.359283,55.7066,88.298034,100.714668,106.871338,47.077308,76.912284,89.364349,95.340179,36.559662,60.35852,71.315849,77.348533,-5.290714,-1.112076,4.2446,6.235371,14.109154,28.301128,35.230648,39.719396,22.053209,38.764475,44.669371,47.397442,27.477007,44.296806,49.29218,51.175802,30.927694,42.823577,45.073219,44.887412,46.392866,233.23561,-71.805559,236.051028
33,26.085159,-29.004279,-4.140215,-22.475807,-14.443187,-31.611339,-45.856418,-53.7808,-45.066479,-67.191639,-70.42757,-67.214595,-45.424759,-69.961612,-69.623977,-62.726154,-44.763988,-67.829899,-66.288185,-59.226642,-43.125669,-62.411825,-63.507751,-60.024364,13.618034,26.255102,38.25417,47.431949,31.895076,40.326236,42.787354,41.920792,28.236685,37.777988,40.846298,39.753495,22.178167,30.142099,32.518421,31.871505,14.646796,20.807345,24.230213,25.367791,28.154978,55.880859,77.128235,91.567789,64.558616,96.819151,105.396829,106.852741,59.194175,93.041525,102.37203,104.538465,50.925699,81.89372,91.675661,93.754217,40.295786,64.710148,74.091333,77.242893,4.135712,10.851712,15.049931,16.197247,18.300732,30.299226,36.756491,40.624364,19.590865,34.553397,40.098399,42.416417,19.585742,34.560075,39.754356,41.879997,18.883761,28.299646,30.790599,31.078998,71.83612,205.999619,-76.587679,215.343509
34,26.300148,-30.877738,-7.786549,-27.264715,-21.070564,-43.75843,-61.365806,-70.650261,-56.053688,-85.513778,-90.713653,-87.463874,-54.210514,-85.618297,-88.638141,-83.646309,-50.986484,-80.685665,-82.932129,-78.02552,-46.716545,-71.34795,-76.004013,-74.800827,8.619098,20.823208,34.305966,45.477388,26.895682,36.996988,40.569347,40.216425,27.005777,38.427497,41.869039,40.920646,24.605779,34.32204,36.840111,36.015903,20.108157,27.776811,31.476198,32.502348,28.340281,57.146279,79.288307,93.439688,66.020909,101.082316,105.942495,102.919224,61.652618,98.594507,104.017954,101.291742,54.649653,88.568339,94.839186,92.263315,45.216551,72.355969,79.662901,79.56023,12.908315,21.171471,23.220171,22.549395,21.590837,31.338702,37.085219,39.719134,16.613044,29.201754,34.426444,35.894814,11.651531,23.970547,29.427866,31.495152,7.518245,14.049157,16.913212,17.631604,97.40978,177.523113,-85.100716,190.480026
35,24.132065,-29.117104,-10.680839,-30.857082,-25.115867,-50.755165,-70.466286,-80.616714,-65.913872,-97.596428,-100.988823,-96.501434,-64.38818,-96.153957,-98.102863,-92.754021,-60.229465,-90.041988,-91.478874,-86.537682,-54.3433,-79.086582,-82.760147,-81.10865,4.303411,14.336254,26.080682,36.241051,22.985739,31.978779,35.331653,35.860298,26.140864,35.876069,38.320354,37.814915,26.528558,34.800266,35.721416,34.598602,24.147789,31.541728,33.748039,34.019401,30.051298,60.661319,83.634143,96.591138,68.46183,105.907419,106.598081,98.875911,64.116989,104.116029,105.022607,97.14248,57.24333,94.792642,96.691743,89.416128,47.925367,78.386673,83.070264,79.709552,11.513194,19.096151,21.560795,22.329471,18.123106,26.570903,29.566347,30.22954,14.015154,24.282957,26.422053,26.554779,10.162907,19.496575,21.831997,22.874529,7.203275,10.341681,10.811833,11.206072,120.711708,151.527897,-96.611692,162.744832
36,17.659149,-29.059472,-12.670567,-30.184213,-27.708481,-55.140701,-75.967964,-86.035721,-65.558166,-98.34201,-98.005737,-91.250061,-62.743915,-95.048916,-94.301616,-87.436432,-58.063877,-88.442447,-88.145462,-82.110306,-51.971649,-77.169056,-79.382103,-76.676285,-8.275556,-3.701647,7.124584,17.878066,6.51134,17.111546,20.602358,21.482456,16.837861,27.788315,29.742382,29.362537,24.834694,33.370583,33.696335,32.583043,29.769003,36.882552,37.483988,36.944969,28.45122,59.086075,83.428287,96.888525,63.284317,101.603159,100.780432,92.2798,59.463238,99.606955,98.626379,90.643141,53.90217,92.028597,91.754454,83.721262,47.060102,77.744408,79.887526,74.875694,7.939525,12.080249,13.045346,14.750806,10.211199,16.837025,18.891208,18.908436,8.525852,15.422218,16.665099,16.999212,7.36575,12.898772,14.475695,15.970314,6.846722,6.784802,6.544293,7.474995,137.569101,125.790773,-110.084015,135.882967
37,15.349297,-24.163436,-14.053619,-30.724368,-28.241707,-55.527443,-77.004593,-87.588501,-65.877388,-97.723618,-92.565354,-83.703163,-63.330231,-94.129006,-89.547501,-80.643242,-58.9487,-87.60109,-84.033829,-76.083916,-53.050369,-77.246407,-76.369629,-71.052407,-15.746633,-15.851442,-7.978716,0.899141,-3.935434,2.03948,4.117715,5.255466,8.543805,15.073578,15.780132,16.22492,19.025048,23.444982,22.334018,21.72984,26.526834,30.23297,28.885965,27.715795,27.183511,57.881183,82.387538,95.748899,58.541485,97.813173,93.844957,83.6842,55.267215,96.159421,91.736749,81.889017,51.425039,90.534834,85.985269,75.486299,46.995638,78.928218,77.802766,70.308677,-3.14134,-4.838037,-5.455924,-3.477305,-0.78503,3.904395,4.192454,3.669712,4.359255,8.461452,8.27026,8.762775,9.656585,12.363791,12.029829,13.232894,15.195767,14.587787,12.66781,12.722323,152.312571,104.694906,-124.743461,108.226168
38,11.497066,-22.780586,-13.92417,-26.938837,-25.843036,-52.141914,-74.310356,-85.824108,-63.360203,-95.739212,-86.18423,-74.891453,-62.800277,-93.778038,-84.824867,-72.937019,-60.318351,-88.340618,-80.43687,-69.471451,-56.053974,-79.788906,-74.756744,-65.932102,-18.982712,-23.224561,-18.756607,-11.610102,-11.51409,-12.072526,-12.286779,-11.460228,0.831207,0.190204,-1.050149,-0.047887,11.318088,8.941182,6.071217,6.271292,19.046825,17.344172,14.05265,12.732543,25.55611,55.373325,79.93998,92.59338,55.829613,95.004936,87.872864,76.569637,53.324204,93.491066,86.026108,75.193611,50.741673,89.01281,80.853241,69.130474,47.823807,79.18166,74.675697,65.629051,-15.903868,-23.963389,-25.218584,-20.184622,-16.223241,-13.374923,-12.979597,-13.419173,-3.451131,-1.484591,-2.475882,-1.772187,8.916173,9.429603,7.581308,8.639797,20.808123,18.581051,15.227707,14.995933,163.369365,84.241712,-139.107903,83.614723
39,8.525895,-21.49559,-11.461109,-20.934606,-23.547947,-48.307412,-70.133927,-81.924374,-61.024556,-93.26999,-80.280797,-67.858281,-62.570023,-92.754731,-80.010933,-66.393151,-61.937348,-88.257741,-76.572545,-63.932213,-59.202885,-81.363636,-72.589852,-61.728688,-21.647817,-29.39184,-27.928365,-22.128489,-18.724167,-24.532234,-25.104201,-23.272767,-6.537748,-13.301236,-14.747113,-12.046746,4.153663,-4.378678,-7.28678,-5.156598,12.477897,5.59594,1.918051,1.992745,24.194527,52.553043,76.367191,88.93642,54.279076,91.497951,82.292873,70.251251,53.268402,90.32119,80.843216,69.684322,51.768402,87.127853,76.639034,64.46133,49.939442,79.150818,72.469311,62.593483,-28.525689,-42.281205,-44.707595,-37.672605,-28.79205,-30.19505,-30.747901,-30.279277,-8.970513,-11.816157,-14.610573,-13.385544,9.230526,4.829969,0.805318,2.093259,25.544534,19.415713,14.181322,14.281117,171.502991,64.213262,-150.961281,64.147257
40,7.048507,-19.756353,-7.272057,-16.281299,-21.893223,-46.763077,-70.014084,-83.592144,-58.199306,-92.730514,-79.76144,-67.217182,-60.288322,-93.031425,-80.416466,-67.341064,-60.57447,-89.201122,-77.382282,-64.752663,-58.874714,-82.856609,-74.094246,-62.933361,-30.709999,-43.145528,-43.641912,-37.661971,-33.427131,-40.756852,-40.007508,-36.696256,-17.292267,-25.335477,-25.826186,-22.137127,-2.354237,-12.020551,-13.910135,-10.657806,10.303461,2.126277,-1.026214,0.079211,20.642201,46.515725,70.196183,83.984196,51.921387,87.157757,76.871876,64.674076,53.475151,87.361004,76.831993,65.902474,53.952187,85.926739,74.892826,63.060997,53.809433,80.176472,72.463257,62.299347,-32.07924,-50.033802,-56.30941,-50.242784,-35.487097,-42.312209,-42.656579,-40.485645,-15.611066,-23.763831,-25.832321,-23.362243,2.375353,-6.552256,-9.690103,-7.257476,18.139178,9.402507,5.170591,6.324033,178.104303,44.640786,-158.680533,48.049835
41,-2.054489,-11.749744,-2.124241,-11.646819,-19.569935,-42.616173,-64.777519,-79.209744,-55.706898,-86.718613,-78.327175,-69.771549,-59.651527,-90.173836,-81.329063,-71.479774,-61.38826,-88.309971,-79.626057,-69.65332,-60.842274,-83.324078,-77.249039,-68.453945,-32.680869,-47.389752,-51.902926,-49.578721,-39.254709,-51.268274,-51.12359,-47.953802,-23.968241,-35.794991,-37.129619,-33.824974,-9.801949,-21.83552,-24.363906,-21.552648,2.123964,-7.592806,-11.058039,-10.344167,17.751378,41.232674,64.287117,79.136433,52.603238,85.379918,74.761631,62.374947,56.830262,87.354928,76.977746,66.159817,58.857411,87.322873,76.694733,65.181393,59.38519,82.802456,74.985535,64.752709,-35.811392,-56.530705,-65.70166,-61.966378,-41.652894,-53.527264,-53.8327,-50.026238,-22.025866,-34.82743,-36.64987,-33.397939,-4.619771,-17.439212,-20.485922,-17.493947,10.223812,-0.826517,-4.742673,-3.232968,175.494141,32.579444,-161.360447,36.091418
42,-14.300331,-15.896539,7.627247,-10.895879,-15.785465,-37.876351,-59.691628,-73.783871,-53.558315,-84.039803,-77.931393,-69.814488,-59.209122,-87.519722,-79.52726,-70.046974,-61.90979,-85.171475,-77.30682,-67.929588,-62.048206,-80.799648,-75.312309,-67.766338,-34.033696,-50.539714,-55.549744,-52.4307,-44.266922,-55.009088,-54.109616,-50.564639,-27.531183,-39.069281,-40.286379,-37.223988,-11.81868,-23.690588,-25.699277,-22.705824,1.625997,-8.512257,-11.402185,-10.038811,14.474179,35.936589,58.855557,73.747673,54.57375,84.658276,72.874729,60.529953,60.447281,86.038811,74.586605,64.042523,63.002232,85.842831,74.951329,63.981217,63.430241,82.376141,73.540776,63.43554,-38.683626,-62.300552,-73.447391,-70.170469,-48.477988,-63.33954,-62.95641,-57.93544,-28.407165,-44.465681,-46.03471,-41.680213,-10.631797,-26.219929,-29.011436,-24.905324,4.900846,-8.944399,-12.510584,-9.887723,160.557701,16.918726,-154.369309,25.43136
43,-20.213207,-12.023083,14.775765,-4.59662,-13.328682,-34.592308,-55.744789,-69.438286,-52.926201,-82.513298,-78.086426,-70.542916,-59.319466,-86.474945,-79.417122,-70.361184,-61.985436,-83.552719,-76.335022,-67.172974,-61.782006,-78.650711,-73.970078,-67.092179,-34.360658,-52.261226,-57.578801,-53.815496,-46.96577,-57.386294,-57.007881,-53.802578,-29.428252,-41.177502,-42.961101,-40.351263,-12.63238,-24.664238,-26.771903,-23.906128,1.782895,-8.491015,-11.609454,-10.241003,13.005478,33.156601,55.49287,71.589592,56.783832,81.124008,70.040245,58.340881,64.358928,84.297638,73.470211,63.133117,67.324276,85.438923,75.957241,65.633331,67.622612,83.273552,75.14455,65.104294,-40.19067,-65.560505,-79.147751,-77.42363,-50.706092,-69.256101,-69.994209,-63.932962,-31.758268,-51.208839,-53.498476,-48.565915,-15.189509,-33.658711,-36.929482,-32.476901,-0.931906,-15.750672,-19.520973,-17.101011,139.876162,6.425911,-140.061876,22.365008
44,-20.360367,-6.383906,20.17567,-6.9873,-11.775582,-32.362564,-53.617493,-67.867447,-52.578003,-80.415367,-78.964165,-73.156059,-59.630127,-83.730789,-78.380997,-70.276154,-62.512985,-81.096451,-75.119064,-66.339798,-62.222031,-76.677452,-72.84137,-66.105744,-34.779419,-53.103693,-59.113453,-56.411008,-50.154172,-59.603461,-59.391682,-56.628987,-33.267775,-42.612353,-44.324458,-42.946565,-16.530424,-25.295741,-27.24919,-25.696544,-1.90755,-9.521265,-12.322214,-11.723081,8.913083,26.895504,48.648915,64.189019,54.460362,74.992276,64.168042,53.315381,63.41169,78.99479,68.158047,58.518723,67.040177,80.819516,71.467026,61.9124,67.360691,79.902787,71.701996,62.191601,-39.572894,-65.609461,-79.738239,-78.836498,-53.387782,-73.000182,-73.236335,-66.647788,-35.116447,-55.384426,-57.062185,-51.288836,-18.682661,-36.677794,-39.473296,-34.521722,-4.309061,-17.863931,-21.007188,-18.373032,119.255293,2.524906,-120.146708,17.860609
45,-19.937988,-12.010887,16.410244,-8.323604,-12.21032,-33.338929,-53.671967,-66.999665,-57.167222,-84.680088,-85.730633,-81.070771,-62.960404,-86.572621,-82.224106,-74.09095,-64.075493,-81.037148,-75.479348,-66.46518,-61.734513,-74.348099,-71.022332,-64.687821,-33.274166,-52.337624,-58.133783,-55.999423,-50.867779,-60.128309,-60.977414,-59.233366,-34.651386,-42.765686,-44.433849,-43.401333,-17.846011,-24.98686,-26.443595,-25.12297,-2.479748,-8.350928,-10.671885,-10.282283,6.680993,23.63181,44.424706,59.771553,52.561821,71.491494,63.367905,54.406735,62.217236,75.920723,66.648354,57.730534,66.23124,77.666943,69.05143,59.91013,66.569813,77.31538,69.497864,60.34647,-38.102671,-63.64111,-77.616914,-79.040373,-54.048876,-72.260332,-72.67548,-67.463288,-36.387301,-54.200751,-55.736854,-51.336674,-19.846977,-35.266401,-37.645848,-33.509256,-4.998875,-15.98828,-18.729622,-16.456379,99.571255,-6.493016,-103.482514,12.52997
46,-16.269059,-12.663916,10.934143,-10.567656,-11.484924,-33.515533,-53.933441,-66.912986,-59.589271,-90.167324,-91.309055,-86.097633,-64.198013,-89.708782,-84.967151,-76.190197,-64.07064,-81.642402,-75.595596,-66.133323,-60.439659,-72.530845,-68.279869,-61.517257,-32.057443,-50.731848,-54.873627,-51.559538,-50.646169,-57.458185,-57.776292,-56.389754,-34.564781,-40.191738,-40.674694,-39.335501,-17.400328,-22.543859,-22.642648,-21.102308,-1.087925,-5.396085,-6.738675,-6.123641,5.360459,21.596238,41.001091,55.65231,50.061276,68.737416,64.150921,58.643475,59.422429,73.550057,67.253895,61.570279,63.283265,74.031533,64.951664,55.820996,63.702027,73.957386,65.831578,56.707032,-34.941138,-58.60547,-71.224772,-72.641857,-52.245703,-68.858082,-69.074548,-64.64014,-35.229438,-50.289283,-51.102832,-47.419019,-18.718699,-30.292313,-31.323768,-27.5507,-3.427858,-11.686007,-13.43024,-10.974185,84.059692,-16.10639,-91.790875,5.012856
47,-2.401062,-8.363149,-1.845359,-9.054343,-13.180664,-36.201095,-56.189369,-69.209152,-60.793373,-92.761287,-98.763141,-97.810386,-63.657715,-93.682216,-94.386245,-89.609424,-62.601356,-85.355507,-83.366501,-76.695831,-58.242325,-73.707252,-71.916755,-66.895042,-30.415635,-48.657707,-53.164449,-51.597107,-50.545553,-57.539034,-58.580059,-58.346859,-35.333271,-39.117657,-39.196222,-38.143217,-18.89733,-22.256707,-21.775671,-20.78065,-3.023714,-5.347005,-6.131933,-5.99079,5.058019,20.438827,39.019884,53.576746,45.417028,64.592817,62.780668,59.264145,55.16288,71.700199,68.060205,63.914669,59.952587,72.961149,64.371757,55.282716,61.573717,73.311029,65.565725,56.436807,-33.880262,-56.518636,-68.314593,-69.057239,-52.474957,-67.726822,-67.089578,-63.351918,-36.107976,-48.473366,-48.130148,-45.392684,-19.542906,-28.183268,-27.817159,-24.635105,-4.167906,-10.409048,-11.136023,-8.732641,82.106231,-22.38814,-93.188633,-1.960088
48,8.246189,-6.638432,-10.423439,-12.192353,-13.536277,-37.043781,-57.540561,-70.913829,-60.351825,-92.79475,-100.657539,-101.611942,-63.014465,-94.184921,-97.074193,-94.235813,-62.36436,-86.431732,-86.287822,-81.273433,-58.562736,-74.642612,-73.622921,-69.604145,-30.354705,-48.790655,-53.823017,-53.023609,-51.995764,-59.479627,-59.88856,-59.517943,-37.366888,-40.563358,-39.698407,-38.277101,-21.600677,-24.314175,-23.158513,-22.003407,-6.162626,-8.170299,-8.215818,-7.791268,2.50736,16.5611,34.856157,48.939188,37.836908,60.868085,58.999117,55.404544,48.129856,67.872631,63.953127,59.97504,54.355602,69.469831,59.899715,50.671331,57.749914,70.1462,61.792905,52.928987,-32.87315,-54.998329,-66.072575,-66.741834,-52.656503,-66.939773,-64.584531,-61.294197,-35.947765,-47.438041,-45.823499,-42.945423,-18.704639,-26.728583,-25.202925,-21.490521,-2.502349,-9.635155,-9.349707,-5.65476,90.423214,-29.009739,-103.541278,-14.135608
49,13.127724,-6.679437,-16.648991,-8.142471,-12.975769,-36.445072,-57.30653,-70.332561,-59.497181,-91.991444,-96.820358,-96.303074,-62.620697,-94.525612,-95.648649,-92.21561,-62.461864,-87.228332,-85.95116,-80.909809,-59.222534,-75.536739,-73.779339,-69.970287,-30.756991,-50.581287,-55.725974,-53.161146,-52.193884,-62.076392,-62.128494,-60.941636,-37.057302,-44.036139,-43.010576,-39.997387,-21.222993,-28.176991,-27.123766,-24.227595,-6.002452,-11.87378,-12.347958,-10.752738,2.786654,16.538532,34.693583,49.16633,36.639444,61.500612,59.794516,56.02636,46.694698,68.41301,64.802267,60.73082,52.970638,69.421938,60.280335,51.127127,56.812506,69.659998,61.34868,52.484705,-33.250717,-55.663609,-66.985039,-66.672528,-53.620501,-65.952267,-63.01076,-60.077504,-36.641333,-46.357131,-44.329121,-41.781904,-18.995835,-26.491276,-24.637451,-20.836028,-2.3648,-10.517593,-10.150061,-6.054119,103.398331,-36.806824,-120.342876,-23.395727
50,12.776825,1.022025,-13.109791,-3.480957,-11.266869,-32.78104,-53.327602,-66.729,-53.203342,-85.608009,-89.550442,-88.711956,-58.795578,-89.913769,-90.545706,-87.398174,-61.4828,-85.337585,-84.21674,-79.925732,-61.160911,-76.354992,-74.208332,-70.789112,-31.658152,-51.449579,-57.061246,-53.694015,-54.042241,-63.531819,-61.276864,-58.907071,-38.699857,-46.238461,-44.067107,-40.707968,-22.785723,-30.997058,-29.294633,-25.9834,-7.864245,-15.626025,-15.632833,-13.493888,2.125448,15.355637,33.7181,48.241934,32.611067,58.626337,55.203535,50.119766,43.547207,66.872395,62.362604,57.668576,51.126663,68.879076,59.226151,50.003432,56.644255,69.222021,60.459337,52.069868,-33.817265,-56.931487,-67.840382,-65.365087,-56.595463,-69.211596,-64.0362,-59.569521,-39.696713,-50.799283,-47.407669,-43.096039,-21.874775,-31.456275,-28.45275,-23.394928,-4.903014,-15.817298,-14.632363,-9.612591,115.471945,-36.974936,-134.155878,-28.066821
51,7.496704,3.048556,-6.777626,0.551468,-11.441254,-30.975574,-50.55051,-63.718677,-50.491276,-80.154076,-83.679897,-83.023189,-56.447777,-84.363041,-83.231111,-79.581871,-59.739704,-80.63887,-77.97694,-73.049641,-60.366073,-74.047199,-70.772106,-66.547451,-31.852999,-51.607795,-58.082777,-54.66265,-54.416775,-65.322056,-63.453362,-60.800598,-39.410882,-48.862965,-46.252386,-42.170569,-23.965613,-34.094743,-32.321058,-28.002138,-9.772845,-19.702664,-19.683734,-16.579618,2.057974,14.715489,33.357073,47.849322,30.637751,55.918654,50.388502,43.197876,41.819687,63.654522,57.151423,50.2752,49.909252,66.773043,58.260166,49.909132,56.196344,67.487806,59.455565,52.00181,-34.997241,-59.162542,-70.663314,-68.356357,-60.608042,-72.935485,-66.113644,-60.541145,-43.681726,-55.219142,-50.876449,-45.225211,-25.704925,-36.798513,-33.207032,-27.391458,-8.316842,-20.620751,-18.783447,-13.454257,122.012077,-35.356088,-141.890076,-28.945061
52,3.109439,4.730029,4.042523,3.551297,-10.606001,-28.572994,-47.692656,-61.252997,-46.944904,-75.465404,-77.034187,-74.613941,-53.75811,-78.859363,-73.55688,-67.092865,-58.040351,-76.262973,-70.224809,-63.006555,-59.928757,-72.302092,-67.118997,-61.262229,-33.358378,-53.34195,-60.392759,-56.09299,-56.497552,-68.114428,-66.478371,-63.742605,-41.382841,-53.061917,-50.424995,-46.217221,-25.687874,-37.878438,-36.373437,-31.487637,-11.371066,-23.35135,-23.792406,-20.235476,1.872636,14.165348,32.490125,46.646696,31.593229,55.128376,48.294668,40.160018,42.567066,62.426799,54.795204,46.918367,50.267229,65.56648,57.685409,49.883731,56.106405,66.157219,58.586506,51.657457,-35.034186,-59.822302,-72.009456,-70.491544,-62.046416,-74.308976,-67.388799,-61.175612,-45.233285,-57.214116,-52.816474,-46.439209,-27.219532,-38.984048,-35.362183,-29.244078,-9.576504,-22.034915,-20.069696,-14.850718,124.980576,-30.843426,-137.988493,-25.611131
53,-2.84767,4.480489,14.86267,6.551126,-10.606011,-27.64991,-45.930664,-59.633477,-45.33062,-73.392045,-76.019772,-73.853669,-52.040108,-75.921063,-69.539788,-62.162888,-56.407227,-73.36483,-66.261239,-58.071297,-58.664727,-70.516716,-64.839036,-58.23375,-33.70326,-53.199349,-60.6506,-56.561587,-57.19323,-68.558062,-67.645257,-65.406465,-42.331058,-54.254598,-51.736576,-47.928258,-26.679367,-38.998611,-37.717022,-33.037992,-12.382275,-24.497724,-25.142572,-21.718308,1.569438,13.705216,31.117259,44.634059,35.477503,56.255505,48.922034,41.006196,45.789345,63.189229,55.29395,47.598078,52.200594,65.25939,57.501881,49.927231,56.374438,65.23026,57.852162,51.03681,-33.9281,-58.910767,-71.878807,-71.770648,-60.910585,-73.332069,-67.861665,-61.472921,-44.351391,-56.784203,-53.227744,-46.738032,-26.418599,-38.012881,-34.918203,-28.952789,-8.682,-20.059791,-18.491109,-13.801974,122.736765,-24.894784,-122.521964,-17.591852
54,-8.804779,4.230948,16.056187,6.569206,-11.441285,-28.206322,-45.264535,-58.860116,-45.648423,-73.933999,-80.636651,-80.742371,-51.29377,-75.548142,-71.179833,-64.791939,-54.840333,-71.944443,-66.086228,-58.243867,-56.573983,-68.691071,-63.932221,-57.462014,-32.887643,-51.17999,-58.856299,-56.068441,-56.503808,-66.652956,-66.954018,-65.792178,-42.255533,-52.441006,-50.187128,-47.303678,-26.94009,-37.455259,-36.351813,-32.653202,-12.806471,-23.141785,-23.734231,-21.028112,1.284056,13.273316,30.546839,44.2227,37.388277,56.325989,49.635332,42.288185,47.546082,63.164841,55.74186,48.363264,53.377436,64.431811,57.038395,49.810513,56.765665,63.907036,56.744797,50.192831,-33.063872,-58.111976,-71.300894,-72.311863,-59.077493,-73.413919,-69.704452,-63.836159,-42.825556,-57.12257,-55.029763,-49.167916,-25.289177,-37.593045,-35.342768,-30.135068,-8.037659,-18.981357,-17.902157,-13.977277,114.859072,-18.352988,-105.538691,-8.711798
55,-9.209707,3.416767,14.382328,5.237028,-11.897329,-28.921318,-45.463244,-58.592555,-46.90033,-74.135577,-82.003899,-83.194618,-51.133614,-74.751689,-70.923589,-64.896584,-53.175914,-70.134913,-64.515203,-56.790136,-53.589325,-66.095378,-61.659673,-55.195338,-32.651978,-50.808232,-58.345165,-55.216128,-55.196906,-66.168685,-68.015101,-67.652122,-41.041358,-51.792119,-50.192505,-47.20231,-25.876188,-36.747523,-36.294474,-32.550368,-11.878522,-22.028653,-23.23186,-20.780667,1.416178,13.18285,30.094637,43.709101,41.859358,57.93718,50.740729,43.762562,50.929012,62.995709,55.442185,48.617243,55.11632,62.787775,55.589196,48.692974,56.729971,62.278347,55.143105,48.267031,-32.527026,-57.78544,-72.387973,-74.508535,-56.380982,-72.100846,-70.341426,-65.008034,-40.065708,-55.40581,-54.785336,-49.287089,-22.67393,-35.167113,-34.107254,-29.286532,-5.692947,-16.379368,-16.175474,-12.728671,106.995173,-12.432217,-89.810555,-0.970766
56,-7.266146,1.494404,10.872711,4.106847,-11.243554,-28.335,-44.481965,-57.024346,-47.682381,-74.555092,-81.355649,-81.453095,-52.003212,-75.230237,-71.249619,-64.745293,-53.520051,-69.77707,-64.029084,-56.082879,-53.18779,-64.955788,-60.37407,-53.801346,-32.416846,-51.134981,-58.453341,-54.637196,-54.783936,-65.533427,-66.802223,-65.913666,-40.188228,-50.490687,-49.008708,-46.158474,-24.506556,-34.955776,-34.557352,-30.942678,-9.924444,-19.295069,-20.548725,-18.267202,0.490511,12.102128,28.776781,42.290091,44.787466,58.688805,49.458178,41.865406,53.802864,63.895443,55.032269,47.876467,57.313277,62.909415,54.797642,47.742829,57.872744,62.24152,54.461998,47.336501,-32.307386,-58.156912,-73.929412,-76.548528,-52.664886,-71.285784,-71.049777,-65.725351,-36.137054,-54.671524,-55.691968,-50.164278,-18.940395,-33.938984,-34.401377,-29.537158,-2.563874,-14.79731,-15.656048,-12.083225,100.983431,-7.985936,-77.68344,6.087958
57,-7.266147,1.494405,4.960431,2.010541,-10.589777,-27.74868,-43.500684,-55.456136,-48.464432,-74.974607,-80.707397,-79.711571,-52.87281,-75.708783,-71.575648,-64.594002,-53.864186,-69.419225,-63.542964,-55.37562,-52.786255,-63.816198,-59.088465,-52.407354,-32.181714,-51.46173,-58.561518,-54.058266,-54.370967,-64.89817,-65.589346,-64.17521,-39.335098,-49.189256,-47.824912,-45.114638,-23.136926,-33.16403,-32.820231,-29.33499,-7.970366,-16.561485,-17.865592,-15.753738,0.214405,11.914844,28.703533,42.271213,46.307121,59.221904,49.624534,41.736637,55.199043,63.460498,54.139114,46.673069,58.227207,61.728321,53.439971,46.252384,58.340618,61.500904,53.504768,46.143859,-32.224088,-58.253863,-74.428618,-77.018566,-50.340467,-69.798806,-70.528863,-65.420202,-33.71927,-52.962625,-54.593329,-49.167345,-16.679725,-32.337048,-33.520853,-28.889943,-0.77122,-13.368637,-14.784179,-11.420801,94.573995,-4.23046,-71.866298,10.35957
58,-7.266146,1.494405,-1.31963,0.319743,-9.936002,-27.162361,-42.519404,-53.887927,-49.246483,-75.394122,-80.059147,-77.970047,-53.742409,-76.187331,-71.901678,-64.442711,-54.208323,-69.061381,-63.056844,-54.668363,-52.38472,-62.676608,-57.802862,-51.013362,-31.946583,-51.788479,-58.669695,-53.479336,-53.957998,-64.262913,-64.376469,-62.436755,-38.481969,-47.887826,-46.641116,-44.070803,-21.767295,-31.372284,-31.08311,-27.727301,-6.016288,-13.827901,-15.182458,-13.240273,0.814979,12.756935,30.100193,44.120968,46.346809,59.09182,50.140297,42.266807,55.141399,62.702064,53.814651,46.211769,58.076008,60.47834,52.741676,45.593479,58.389244,60.810562,53.082149,45.681164,-32.089639,-58.013801,-74.08379,-76.032164,-49.225223,-68.305848,-69.438603,-64.53186,-32.739716,-51.236502,-52.992202,-47.730135,-15.895334,-31.02939,-32.357141,-28.029308,-0.386427,-12.656697,-14.170058,-11.009548,87.653094,-1.220277,-72.840683,12.195091
59,-7.266147,1.494404,-0.707176,0.639654,-9.282226,-26.576042,-41.538124,-52.319717,-50.028533,-75.813636,-79.410896,-76.228523,-54.612007,-76.665878,-72.227706,-64.29142,-54.552459,-68.703537,-62.570724,-53.961105,-51.983184,-61.537017,-56.517257,-49.619369,-31.711451,-52.115228,-58.777871,-52.900405,-53.545027,-63.627655,-63.163591,-60.698298,-37.628838,-46.586394,-45.457319,-43.026967,-20.397664,-29.580536,-29.345988,-26.119611,-4.06221,-11.094316,-12.499323,-10.726808,0.932453,13.191993,30.638031,44.514381,46.591507,59.061584,49.876968,41.715156,55.158096,62.314407,53.177765,45.245075,57.896301,60.158569,52.396522,45.046245,58.185665,60.866386,53.110256,45.424072,-32.007541,-57.907881,-73.862236,-74.901113,-48.743132,-66.860023,-67.48797,-62.180096,-32.293545,-49.364304,-50.432302,-44.672995,-15.437078,-29.564442,-30.579643,-26.060464,0.138241,-11.423758,-12.733885,-9.546879,80.407764,1.438024,-73.527042,13.998642
60,-7.266146,1.494405,-0.402066,0.999029,-8.628451,-25.989723,-40.556844,-50.751508,-50.810585,-76.233152,-78.762646,-74.486999,-55.481605,-77.144426,-72.553736,-64.140129,-54.896596,-68.345693,-62.084605,-53.253848,-51.58165,-60.397428,-55.231654,-48.225377,-31.476319,-52.441977,-58.886047,-52.321474,-53.132058,-62.992398,-61.950714,-58.959843,-36.775709,-45.284963,-44.273523,-41.983131,-19.028033,-27.78879,-27.608867,-24.511922,-2.108132,-8.360732,-9.816189,-8.213344,0.91087,13.286316,30.837628,44.628411,45.863606,59.442456,50.854695,42.620785,54.477574,62.227993,53.252026,45.125119,57.243004,59.91457,52.391499,44.954556,57.642689,60.878209,53.227822,45.448094,-31.562994,-57.413822,-73.237396,-73.533884,-48.36107,-65.336301,-65.675947,-60.39039,-32.003256,-47.342762,-48.050965,-42.343375,-15.138582,-27.689094,-28.462716,-24.149128,0.500469,-9.583071,-10.666772,-7.706729,72.919688,4.026084,-74.151038,16.091326
61,-5.884214,2.904935,-0.385357,1.343906,-7.0634,-23.78524,-38.698387,-48.262283,-50.678947,-74.147491,-74.579841,-69.11396,-56.139633,-74.447052,-69.263481,-60.563736,-55.692405,-66.274208,-59.747055,-50.738609,-52.064346,-58.916595,-53.249488,-45.996536,-32.296894,-53.787311,-60.02718,-53.06647,-53.483048,-62.480999,-60.60763,-57.184304,-36.497712,-43.810429,-42.463912,-39.998251,-18.27285,-25.630517,-25.329809,-22.425769,-0.997117,-6.204764,-7.388204,-5.739641,1.003876,13.519204,31.248379,44.922925,45.466313,59.381676,51.010849,42.747975,54.252972,61.711991,52.822609,44.614655,57.116524,59.478356,52.073193,44.450135,57.619423,60.849015,53.200562,45.165333,-31.459637,-57.464872,-73.25005,-72.751557,-48.805383,-65.05619,-65.238681,-60.149027,-32.377353,-46.385866,-46.633368,-40.996204,-15.360576,-26.717835,-27.160993,-22.966232,0.459855,-8.525188,-9.345407,-6.517843,66.84968,7.873013,-74.722189,18.377226
62,-4.280655,3.103942,-0.489498,1.097545,-6.25592,-22.030609,-36.835639,-45.964363,-50.263526,-70.531967,-69.374565,-63.358428,-56.146064,-70.45124,-64.770866,-56.223472,-55.885429,-63.371948,-56.720222,-47.995018,-52.404945,-57.160232,-51.050796,-44.059631,-32.670121,-53.920097,-60.217488,-54.168029,-54.442271,-62.71252,-59.873907,-55.690706,-37.412294,-43.552732,-41.766231,-39.161677,-19.085586,-24.986752,-24.655383,-22.00706,-1.571447,-5.965631,-6.846865,-5.293113,1.301045,13.905613,31.767815,45.460167,45.601593,59.260094,50.806916,42.628567,54.527436,61.611843,52.71468,44.603726,57.484612,59.630825,52.186661,44.53949,58.037533,61.212216,53.483471,45.33894,-31.389451,-57.408425,-73.189571,-72.429114,-48.694627,-65.166735,-65.243176,-60.136324,-32.267375,-46.362141,-46.421094,-40.630005,-15.208515,-26.519678,-26.81511,-22.493594,0.672635,-8.185363,-8.852681,-5.887463,62.448867,11.725576,-75.331845,20.223392
63,-2.751803,2.323655,-0.056156,0.887687,-5.438021,-20.243141,-35.091649,-44.153668,-49.614425,-66.680356,-63.990818,-57.544799,-55.988189,-66.494256,-60.258616,-51.888221,-56.08907,-60.818913,-54.057078,-45.602488,-52.953086,-56.070622,-49.630961,-42.80058,-32.778493,-53.424715,-59.740969,-54.574666,-54.950051,-62.54564,-58.766139,-53.737566,-38.109338,-43.389744,-41.066514,-38.115801,-19.866381,-24.441862,-23.95544,-21.447545,-2.256264,-5.958331,-6.463394,-5.004279,1.370201,13.91613,31.508881,44.948548,46.043907,59.186955,50.680767,42.545162,54.930039,60.950684,51.98901,43.928261,57.742516,59.087322,51.513302,43.766545,58.228272,61.060227,53.194405,44.91227,-31.508049,-57.298553,-73.04203,-72.603084,-48.803166,-65.385158,-65.218284,-59.990383,-32.376043,-46.611033,-46.191679,-40.168266,-15.330225,-26.799444,-26.778048,-22.282222,0.551752,-8.483914,-8.964468,-5.903858,59.650824,14.519269,-75.434241,21.581117
64,-1.44119,1.652753,-0.156818,0.429697,-4.588005,-18.182716,-33.270492,-42.397133,-48.740501,-62.777229,-58.510288,-51.584861,-55.816154,-62.577198,-55.663398,-47.387191,-56.444389,-58.713501,-51.731987,-43.436554,-53.724746,-55.466217,-48.7061,-41.960678,-33.049562,-53.176386,-59.567183,-55.13133,-55.550208,-61.912112,-57.299115,-51.778925,-38.568011,-42.72369,-39.896447,-36.731875,-20.224816,-23.607769,-22.928039,-20.633795,-2.45629,-5.91175,-6.065255,-4.627428,1.519729,14.058174,31.445423,44.775718,46.496956,59.41793,50.915039,42.897548,55.289131,60.223263,51.104187,43.16724,57.953018,58.500389,50.812866,43.037372,58.351661,60.795193,52.818168,44.48648,-31.553701,-57.106744,-72.76056,-72.788644,-48.728134,-65.415374,-65.213246,-60.021469,-32.281714,-46.549178,-45.79807,-39.637923,-15.247548,-26.786242,-26.58196,-21.980535,0.639135,-8.494566,-8.879568,-5.736002,58.26349,16.596804,-75.537203,22.435596
65,-0.434211,1.580878,-0.125302,0.505637,-4.263016,-16.859826,-31.954308,-41.069825,-47.432808,-58.29419,-52.85978,-45.956406,-54.640526,-57.788109,-50.382592,-42.512444,-55.584183,-55.480912,-48.37159,-40.500092,-53.333703,-53.781373,-46.702996,-40.254364,-32.910777,-52.100243,-58.718812,-55.636794,-56.192652,-61.697627,-56.165532,-50.051549,-39.814825,-43.028026,-39.452054,-35.957456,-21.981436,-24.208921,-23.137064,-20.882445,-4.581448,-7.805764,-7.464112,-6.050194,1.626366,14.179322,31.414147,44.746743,47.053425,59.24992,50.363182,42.339604,55.769005,59.639031,50.326092,42.517136,58.358551,58.175858,50.279458,42.432301,58.76231,60.75277,52.632294,44.188981,-31.897497,-57.260299,-72.829245,-73.659702,-49.173521,-65.974351,-65.732869,-60.478897,-32.701895,-47.06162,-45.972873,-39.635317,-15.702012,-27.453283,-27.013663,-22.250823,0.195785,-9.191475,-9.487994,-6.257769,57.954644,18.587939,-75.53714,23.35149
66,-0.310799,-0.081658,-0.150638,-0.301065,-6.259094,-18.851509,-32.606964,-41.433678,-47.317955,-56.232445,-50.940239,-44.572975,-53.032013,-55.581642,-48.404411,-41.110108,-53.033203,-52.97786,-46.092453,-38.771324,-50.334892,-50.874069,-44.172318,-38.335671,-29.752281,-47.701978,-54.926393,-53.653735,-55.486895,-61.135983,-55.192698,-48.590794,-41.188834,-44.003295,-39.924976,-36.339988,-24.85598,-26.661661,-25.13821,-22.689214,-8.517457,-11.503059,-10.702823,-9.409257,1.858326,14.358307,31.477615,44.96291,47.332317,60.355156,52.164116,44.154213,55.904137,59.626499,50.409599,42.545299,58.38842,57.975414,50.189255,42.280609,58.759392,60.604236,52.479812,43.974724,-31.769456,-56.972492,-72.493118,-73.949539,-48.754722,-65.097963,-65.30718,-60.573288,-32.2988,-46.005174,-44.856777,-38.790898,-15.285616,-26.454944,-26.07513,-21.632262,0.645249,-8.289362,-8.640926,-5.682149,57.793156,18.779934,-75.538467,23.324078
67,-0.637985,-0.235127,-0.245567,0.633381,-7.98198,-20.932778,-33.681404,-41.808449,-47.922364,-55.53891,-49.883629,-43.78537,-52.131089,-54.155732,-47.021073,-40.169724,-50.946556,-50.682999,-43.899056,-36.915779,-47.238716,-47.641571,-41.272751,-35.65622,-26.698094,-43.891218,-51.579576,-50.949222,-53.478618,-59.757856,-53.99043,-47.457569,-41.228015,-44.243183,-40.082094,-36.268154,-26.616256,-28.386115,-26.553505,-23.723675,-11.816899,-14.866968,-13.804027,-12.313613,1.88705,14.359943,31.43938,45.08179,47.345306,60.33253,52.114185,44.153331,55.859745,60.121891,51.030487,43.191432,58.386714,58.517978,50.778179,42.874465,58.816909,61.029201,52.969631,44.485588,-31.931058,-57.137527,-72.702416,-74.380379,-48.889487,-65.47902,-65.982946,-61.459105,-32.553175,-46.606482,-45.847119,-40.066385,-15.692787,-26.977212,-26.790441,-22.509514,0.140432,-8.84947,-9.364135,-6.468906,57.332096,18.69064,-75.607109,24.103292
68,-1.004219,0.829635,-0.158959,1.190486,-11.55819,-25.092842,-36.172303,-42.583809,-49.532021,-55.395241,-49.214035,-43.357521,-50.995835,-52.019028,-45.028199,-38.750359,-47.53077,-46.688233,-40.226647,-33.921433,-41.875901,-41.759629,-35.885445,-30.929512,-21.660717,-37.949673,-46.735929,-47.874514,-50.352163,-57.575368,-52.395929,-46.338905,-41.725087,-44.931187,-40.652773,-36.442747,-30.308288,-31.815103,-29.479814,-26.026286,-18.351778,-21.055131,-19.286926,-17.223011,1.817551,14.230557,31.488648,45.376728,46.895588,59.762032,51.188027,43.186054,55.626286,60.232132,51.051888,43.177437,58.430603,58.947521,51.155811,43.266426,59.108975,61.545994,53.466133,45.020805,-32.093529,-57.310212,-72.88524,-74.78112,-49.272111,-66.187235,-66.438676,-61.719278,-33.028462,-47.464325,-46.715582,-40.852307,-16.299429,-27.807507,-27.507925,-23.124443,-0.57381,-9.67156,-10.06754,-7.039979,56.51128,19.591689,-75.582665,25.365192
69,-1.066269,1.709591,-0.04422,2.40779,-15.455956,-29.857132,-39.233208,-43.868775,-50.914192,-54.951874,-48.657143,-43.367569,-49.250588,-49.660126,-43.08815,-37.596428,-43.403137,-42.329521,-36.412468,-30.953224,-35.914742,-35.80465,-30.644097,-26.475472,-16.233659,-31.270742,-41.161176,-44.369981,-47.00132,-55.70719,-50.951197,-45.036119,-42.471236,-46.112719,-41.571884,-36.909135,-34.519018,-35.675875,-32.731177,-28.590651,-25.507354,-27.558925,-24.933668,-22.27551,1.446877,13.823994,31.245518,45.185543,46.214035,58.521435,49.617256,41.617653,55.286385,60.712463,51.624252,43.855866,58.455574,59.43964,51.548836,43.913647,59.328358,61.714748,53.643974,45.528946,-31.955017,-57.29042,-73.046526,-75.128039,-49.519396,-67.012634,-67.109489,-62.149369,-33.502235,-48.885732,-48.678455,-42.989834,-16.912289,-28.85564,-28.615412,-24.228712,-1.265315,-10.685198,-11.025301,-7.83751,55.549542,21.267518,-75.522354,27.73922
70,0.326408,3.521005,0.02124,3.422017,-17.398361,-32.637749,-41.611828,-45.406219,-52.991958,-58.648539,-53.371965,-48.476927,-50.05331,-51.766451,-45.554615,-40.158073,-43.089363,-42.86681,-37.337356,-31.994247,-34.47298,-35.331448,-30.682468,-26.562469,-14.083391,-28.887182,-38.715029,-41.894968,-45.070739,-54.572152,-50.598047,-45.133552,-41.891127,-46.037661,-41.874686,-37.099067,-35.199485,-36.397511,-33.600461,-29.327503,-27.297869,-29.297233,-26.665875,-23.724212,0.982304,13.356549,30.776711,44.426205,45.634117,57.335953,47.941018,39.923802,54.888348,60.695355,51.463635,43.728676,58.26035,59.636502,51.589074,44.159512,59.186074,61.681881,53.602639,45.73383,-31.770217,-57.116087,-72.945564,-74.908153,-49.105484,-67.242556,-67.066931,-61.732338,-33.086316,-49.283998,-49.392389,-43.507642,-16.602222,-29.175785,-29.139563,-24.578665,-1.129588,-11.000447,-11.390611,-8.03539,55.755575,24.647692,-75.621489,31.020406
71,1.220719,5.512552,0.237854,5.329221,-16.500641,-32.475815,-42.72147,-46.855225,-55.052399,-65.989203,-62.99211,-58.403567,-53.044865,-58.059271,-52.055661,-46.014267,-46.613022,-48.157025,-42.736176,-36.87426,-38.111447,-40.823285,-36.146451,-31.371323,-16.76407,-32.274717,-40.633997,-41.562875,-45.186954,-54.812602,-51.639375,-46.632932,-40.070577,-45.178577,-41.995353,-37.406145,-32.015504,-33.930199,-32.073911,-28.219589,-22.994544,-25.829756,-24.18554,-21.392677,0.146336,12.469071,29.790642,43.241684,44.673558,55.937302,46.261746,38.463719,54.047757,60.475491,51.088086,43.506787,57.627331,59.853001,51.648033,44.453568,58.585602,61.761166,53.817765,46.187382,-31.580618,-56.57934,-72.343751,-74.373339,-48.541733,-67.148355,-66.984161,-61.346064,-32.675651,-49.893981,-50.524552,-44.443322,-16.465661,-29.905299,-30.334915,-25.627236,-1.219132,-11.77308,-12.497561,-9.129261,56.38535,29.535534,-75.974579,35.724917
72,1.491897,7.919404,0.260834,7.153513,-14.772629,-31.172516,-42.830921,-47.749695,-55.042808,-70.868231,-69.873533,-65.665289,-54.853512,-62.294867,-56.168987,-49.497505,-49.751564,-52.479847,-46.993881,-40.532684,-42.225529,-45.924992,-41.0919,-35.90538,-19.5295,-36.184439,-43.95352,-43.319489,-46.016237,-55.780163,-53.51936,-49.238658,-38.744141,-45.237796,-42.736,-38.302255,-29.011353,-32.446973,-31.173516,-27.576088,-18.638096,-22.644466,-21.734295,-19.167001,-0.779262,11.471352,28.690304,41.810898,43.398537,54.651135,44.790848,37.062882,52.592869,59.089542,49.396614,41.934597,55.90099,58.584469,50.226551,43.184887,56.401966,59.915497,51.836437,44.260632,-31.201272,-55.994149,-71.500098,-72.970023,-47.437858,-66.32085,-66.555483,-60.9451,-31.498928,-49.352769,-50.510404,-44.42408,-15.457344,-29.693142,-30.762493,-26.098805,-0.520074,-11.441171,-12.606007,-9.442638,57.129547,36.383698,-76.461445,41.80719
73,1.647011,10.69398,0.5579,9.535536,-10.912056,-27.483994,-41.353993,-47.952416,-52.27581,-74.417456,-75.67697,-71.697951,-55.069142,-66.837256,-60.401699,-52.751724,-52.601395,-58.152363,-52.540878,-45.036118,-47.212109,-52.684925,-47.641789,-41.785813,-24.754203,-43.065016,-49.4077,-45.926672,-48.787596,-58.159308,-55.85783,-51.712602,-37.29741,-44.147574,-42.185884,-38.491403,-24.164144,-28.970784,-28.572132,-25.634187,-11.166111,-16.683631,-16.956722,-14.912737,-2.393052,9.645607,26.815303,39.627662,39.618702,51.848808,42.557556,35.126907,49.294944,57.511459,47.925327,40.605526,53.161548,57.855285,49.40253,42.406402,53.97155,58.268508,50.292148,43.117492,-30.496355,-54.834205,-69.859297,-71.276345,-46.796975,-65.995024,-66.439213,-60.760713,-31.343898,-50.159693,-51.737286,-45.605804,-15.863248,-31.046427,-32.581475,-27.800159,-1.326856,-12.862086,-14.402808,-11.270018,57.96088,44.811234,-76.719223,49.076282
74,0.985702,13.816531,-0.153946,9.235151,-10.725402,-27.721664,-41.678272,-47.771759,-51.713882,-77.66831,-80.919508,-76.994253,-54.400852,-68.013387,-61.686206,-53.986496,-51.936653,-58.763706,-53.569107,-45.882728,-46.435489,-52.781879,-47.950618,-41.92424,-25.606834,-44.584477,-51.055794,-46.980177,-49.776714,-60.565258,-58.378611,-54.033559,-37.89469,-45.284578,-42.820864,-39.22338,-24.590166,-30.146023,-29.261446,-26.267369,-11.537305,-17.524443,-17.745059,-15.780349,-3.170975,8.763462,25.54216,37.642273,36.481224,50.422325,42.133896,35.026451,46.108097,56.594719,47.224891,39.984203,50.168621,57.793579,49.411159,42.291595,51.00056,57.471084,49.797363,42.643329,-29.14956,-52.205676,-65.959116,-67.765001,-43.711289,-62.52307,-63.449888,-58.445048,-29.04824,-47.869451,-49.838992,-44.216809,-14.603232,-30.400938,-32.54214,-27.966274,-1.096928,-12.885878,-14.996026,-12.246786,58.291746,54.956027,-77.528005,54.639695
75,1.53312,17.064618,-2.699576,15.137897,-10.777749,-28.372055,-42.803158,-49.182782,-50.692761,-78.371098,-81.98465,-77.757328,-53.597409,-68.727299,-62.288956,-54.319027,-51.534909,-59.604584,-54.333138,-46.229977,-46.425751,-53.217373,-48.33704,-42.135888,-26.316287,-45.936134,-53.162118,-49.308822,-50.957511,-62.759556,-60.485467,-56.058555,-38.670803,-46.784335,-43.980295,-40.425417,-25.035818,-31.68463,-30.425533,-27.276852,-11.885006,-18.741815,-18.864161,-16.92957,-2.643814,9.891592,27.101961,39.326065,35.084433,51.640063,44.093222,37.096928,44.932543,58.792883,49.373017,42.088686,49.579485,60.83713,52.032978,44.620096,50.853247,59.838164,52.053583,44.78999,-29.516953,-52.230931,-65.554602,-67.396823,-42.360149,-61.991513,-63.251354,-58.506545,-27.960549,-48.706888,-51.061156,-45.558191,-14.154049,-32.092794,-34.737376,-29.999616,-1.285112,-14.924222,-17.749912,-15.039384,59.48489,67.115183,-80.567557,64.87213
76,2.080536,20.312706,-5.292274,20.579603,-11.069092,-29.435166,-44.72865,-52.185483,-49.212445,-76.525818,-78.872395,-73.987175,-52.65881,-68.978989,-62.209946,-53.749318,-51.396161,-60.674996,-54.83297,-46.077862,-47.182892,-53.991406,-48.801053,-42.420754,-26.882564,-47.119989,-55.726675,-52.912607,-52.329989,-64.742201,-62.178398,-57.787592,-39.625749,-48.646845,-45.66418,-42.097513,-25.501102,-33.586605,-32.064396,-28.662637,-12.209215,-20.335748,-20.31403,-18.360402,-0.700367,13.13574,31.451631,44.291771,35.558561,55.191129,47.412031,39.972439,45.860189,63.355299,53.347698,45.766359,51.389734,66.471285,56.672985,48.700498,53.517786,64.961386,56.486589,48.894802,-31.781155,-55.298957,-69.115155,-70.647464,-42.883799,-64.847729,-65.581154,-60.137139,-27.863879,-52.184924,-54.291857,-47.939114,-14.121285,-35.866072,-38.609954,-32.952638,-1.49318,-18.605442,-22.10733,-18.862259,61.824647,81.778217,-85.60061,79.802061
77,1.04393,21.450395,-4.633621,21.935673,-11.004433,-29.779038,-45.211888,-53.726155,-47.136647,-75.055138,-77.152325,-72.031643,-50.491551,-69.607361,-63.17022,-54.636853,-49.568974,-62.239518,-56.430359,-47.290982,-45.986298,-55.028126,-50.199086,-43.507554,-27.352262,-47.717116,-57.251472,-55.014449,-53.035518,-65.521251,-63.241728,-59.336126,-40.015734,-49.660633,-47.012605,-43.952415,-25.567397,-35.051862,-33.517013,-30.096531,-12.247154,-21.297733,-21.477735,-19.846203,1.091514,15.81241,34.884744,48.512638,35.776296,58.877695,50.820848,42.707737,46.659948,68.473463,58.029018,49.449617,53.157743,72.734407,62.407184,53.686471,56.370443,71.000948,62.52186,54.792755,-32.59384,-56.473067,-70.571761,-72.901224,-43.014259,-65.919963,-65.87931,-59.735453,-27.880681,-53.525272,-55.316846,-48.307807,-14.264854,-37.693482,-40.183379,-33.719757,-1.525544,-20.722215,-24.42728,-20.827453,63.376214,97.342723,-89.726594,95.851845
78,0.736049,22.130517,-4.623093,22.523093,-12.332142,-32.0587,-48.094379,-57.482986,-49.301227,-78.48698,-80.452274,-74.443462,-51.7523,-73.460529,-67.225296,-58.145279,-50.139759,-65.898834,-59.68967,-49.940941,-46.115398,-57.76141,-52.942142,-45.65419,-26.972244,-47.288654,-57.261059,-55.328095,-51.573426,-62.891291,-62.682325,-60.646003,-38.301323,-47.970604,-47.111712,-45.015788,-23.717383,-33.729906,-33.308392,-30.47921,-10.285198,-19.71541,-20.83144,-19.936828,3.409241,19.489649,39.414144,53.378677,37.527471,64.901213,56.625555,47.705246,47.951906,74.456434,63.833565,54.460585,54.47093,78.750017,68.282959,59.131845,58.012865,76.67692,68.399099,60.306667,-33.000998,-57.34641,-71.738153,-73.753084,-40.940255,-64.521922,-64.834716,-58.935471,-24.942103,-51.235629,-53.408062,-46.6068,-10.934019,-35.116033,-38.111691,-31.837797,1.915306,-18.19831,-22.650499,-19.449024,64.729849,114.244848,-93.732101,113.146546
79,1.158646,22.538085,-3.43919,25.775338,-10.799206,-31.677429,-51.030911,-63.471657,-51.967587,-86.454907,-88.447781,-80.740002,-55.957478,-83.721852,-76.843735,-65.491402,-55.576023,-76.629456,-69.107357,-57.489098,-52.521618,-68.117604,-62.525906,-53.887825,-30.552792,-51.897958,-59.960891,-55.472473,-50.230422,-57.186677,-60.21957,-61.483073,-32.547858,-40.752456,-44.019084,-44.121222,-14.638244,-24.63717,-27.934747,-27.057014,1.425348,-8.791323,-12.873294,-13.589466,5.16021,22.683775,43.401037,58.514374,39.333658,70.175268,65.872484,60.081493,49.000277,79.282373,71.798492,64.069559,55.205252,83.273626,75.486042,67.333597,58.813311,80.368109,74.602564,67.661968,-34.222582,-58.725099,-73.666309,-76.236895,-40.20406,-63.25778,-64.585411,-59.856681,-23.255329,-49.555098,-53.285073,-48.192742,-9.028068,-33.136333,-38.082458,-33.861209,3.548327,-16.707859,-22.887781,-21.787877,66.613861,132.629079,-96.445925,134.76803
80,-0.18853,20.140113,-0.254488,20.857788,-10.423382,-32.252838,-53.057076,-66.053593,-56.8358,-93.762463,-94.714474,-85.093002,-60.373764,-91.307156,-82.930252,-69.664799,-59.580551,-84.243439,-75.136379,-61.919415,-56.066792,-74.504265,-68.827858,-59.85997,-31.899405,-53.260564,-59.316399,-52.279798,-46.341619,-49.724788,-56.133971,-60.524744,-26.697609,-32.347713,-39.095282,-41.608428,-7.446189,-15.038655,-21.755235,-23.170725,9.844686,1.045558,-5.874295,-8.653728,6.646008,24.726654,44.969135,60.815769,40.192463,71.395351,71.096752,68.973644,47.755566,79.09584,76.811279,73.033573,52.28175,81.521164,78.98695,74.889175,54.550152,76.769073,74.889633,71.130466,-33.369416,-56.259435,-70.447284,-73.747887,-36.891536,-57.067896,-59.434382,-56.645598,-20.268541,-42.354193,-47.078662,-44.495346,-6.559931,-26.298364,-31.829293,-29.856941,5.321509,-11.308964,-17.443491,-17.934196,67.050144,149.421986,-96.0756,152.278612
81,-1.773583,18.888253,1.72118,20.616722,-11.832813,-34.211952,-54.865356,-67.423816,-62.224159,-99.677616,-99.2131,-87.922817,-63.825485,-95.71352,-85.046768,-70.261585,-61.549759,-88.537342,-77.804008,-63.40195,-56.754284,-77.777424,-72.104244,-62.952598,-30.626401,-50.957045,-55.151179,-46.352987,-41.046187,-42.134526,-51.392744,-57.956285,-21.54161,-24.613727,-33.492445,-37.68385,-2.479227,-7.148583,-16.061934,-19.213987,15.068011,8.640303,0.02474,-4.198713,7.496235,26.25864,46.733425,63.073677,42.08131,76.415737,79.294418,78.352741,48.596661,83.751011,84.619251,81.326408,51.907551,84.846348,85.648418,82.445274,53.000027,78.428387,79.657757,76.839706,-31.961131,-52.927001,-65.126622,-68.793596,-31.496712,-48.728072,-54.180133,-54.246366,-14.203725,-32.63279,-41.00706,-42.015555,-0.485859,-16.647152,-24.982957,-26.171048,10.699703,-2.285111,-9.951444,-12.806147,65.789188,166.019323,-93.841793,170.604418
82,-0.896553,18.293195,0.28331,18.883115,-14.787105,-38.501312,-60.066742,-72.277553,-69.422538,-107.486675,-104.852119,-91.288341,-69.092262,-101.713726,-88.981281,-72.053478,-65.21521,-93.439819,-81.190692,-65.209064,-58.811817,-81.867027,-76.891479,-67.988594,-29.711581,-49.237932,-51.195892,-40.867568,-35.450408,-34.52062,-45.22523,-52.854626,-15.551628,-15.652371,-25.948144,-31.407995,3.683508,2.374955,-8.247697,-13.183577,21.754266,18.207529,8.546044,3.12596,9.84494,30.501251,51.833382,68.445522,44.181015,82.17271,88.686607,89.188854,48.981789,88.030277,92.877148,91.312694,51.182453,87.448482,91.62949,89.936909,51.43222,79.379551,83.430313,81.876205,-31.064249,-49.866687,-60.1218,-62.625224,-25.297427,-38.996941,-46.926645,-49.507596,-7.102884,-22.288824,-33.329964,-37.327519,6.524598,-6.284444,-16.741889,-20.774463,16.753307,7.253858,-1.554542,-6.529353,65.372772,182.512361,-93.078346,187.687376
83,-1.349109,18.323901,-0.878929,17.51627,-16.614922,-41.005806,-62.878167,-74.977925,-73.542092,-109.921223,-105.486145,-90.579987,-72.675385,-102.812805,-88.268761,-69.87117,-68.331024,-94.67656,-81.014191,-63.744232,-61.446556,-83.579933,-78.05143,-68.855622,-29.302485,-48.313665,-49.09682,-38.354157,-31.718112,-31.129284,-41.392123,-48.39105,-11.175367,-10.998675,-20.50236,-25.895282,8.575526,8.006027,-2.445909,-8.131257,27.11731,24.347088,14.545692,8.4099,13.40514,35.570114,57.259826,74.691181,47.513889,85.372719,97.764919,103.274952,50.280166,90.276317,101.361431,104.548084,51.157299,88.04488,98.163769,100.719486,50.434936,79.038711,87.747001,90.012565,-30.380585,-46.591056,-55.00271,-57.766936,-19.024289,-28.10357,-36.637409,-40.957813,-0.341196,-10.888289,-22.831758,-29.194983,12.942985,4.832402,-5.886247,-12.034278,21.991952,17.075002,8.796618,2.275169,64.518288,199.453553,-93.46265,203.820937
84,-0.828163,17.005619,-1.597046,16.14693,-17.986405,-42.83741,-64.479035,-76.888962,-73.638794,-106.805855,-100.611695,-85.538842,-72.932305,-100.438752,-85.542344,-67.128457,-68.849442,-93.337635,-79.497117,-61.995461,-62.450203,-83.288624,-77.871209,-69.1447,-29.164152,-46.835848,-47.055642,-37.150567,-29.000266,-29.54451,-38.003909,-43.183854,-7.840388,-8.070038,-15.873018,-20.5948,12.635184,12.027671,2.452442,-3.505263,31.553151,28.883829,19.457406,12.970871,17.116802,40.417328,62.737026,81.047893,50.29993,87.892181,101.634464,108.571667,51.480789,91.93658,105.871548,111.686931,51.450703,88.502312,101.695255,107.464794,50.215038,79.03458,89.777183,94.674728,-29.42811,-43.804767,-50.615059,-52.625288,-13.778184,-19.166056,-26.610167,-30.598996,5.451573,-0.375307,-10.817388,-16.691643,18.942766,15.415916,6.93362,1.624752,27.735827,26.908483,20.945876,15.523066,64.025059,215.332943,-94.724762,218.841638
85,-0.309449,16.747094,-2.135468,15.741909,-19.608856,-44.321457,-65.813072,-79.478565,-68.190719,-101.126884,-98.176128,-87.106556,-68.174446,-96.683475,-87.653881,-74.019859,-65.265403,-91.044582,-82.733333,-69.886425,-60.459388,-82.54858,-80.615867,-75.053009,-28.020941,-44.353369,-45.20056,-37.545349,-25.545985,-27.037652,-33.569401,-37.400211,-3.958102,-4.499147,-10.539486,-14.534466,16.548999,15.44116,7.786851,2.382714,34.822614,32.628115,25.232281,19.536633,20.266297,45.108857,68.651619,87.852665,53.443508,92.503018,107.60281,115.188343,53.621373,95.898526,110.646321,116.518627,53.129128,91.66182,105.399662,111.233265,51.776676,82.207638,93.794163,99.361668,-28.289383,-41.309692,-46.759548,-47.869771,-8.306826,-10.965082,-17.318101,-20.536927,11.732171,8.553494,-0.681774,-5.503271,25.526954,24.217141,16.95817,12.625316,33.935989,35.04694,30.113527,25.413395,64.044359,231.377268,-96.531481,233.880778
86,0.305603,13.997016,-1.215156,10.124017,-21.296173,-46.237999,-68.111663,-82.494609,-61.593681,-94.264366,-95.872089,-89.847152,-61.842956,-90.995464,-89.869938,-82.849342,-59.520813,-86.055542,-85.115375,-78.627777,-55.847007,-78.093841,-80.956672,-80.197734,-26.374898,-41.129999,-42.324918,-36.293743,-22.473927,-23.973869,-28.331831,-30.99641,-0.42041,-0.245273,-4.445647,-7.8806,19.830354,19.52606,14.293392,9.616132,36.949347,36.523973,31.966792,27.453875,23.40477,49.01865,72.484382,92.294758,54.044449,90.747883,108.472149,119.528515,51.691646,92.128246,110.54607,120.465832,49.648224,86.369064,103.403011,113.064777,47.390293,76.466354,90.440769,99.615772,-25.415901,-36.187236,-40.244929,-40.983995,-2.445835,-0.502772,-3.42595,-5.00844,16.837917,18.982089,13.626538,10.311467,30.088889,34.052561,30.487908,27.456308,37.813692,43.294733,41.727298,38.387687,64.674974,244.800154,-97.421625,243.430665
87,-5.014034,12.943534,0.029949,9.258943,-20.175133,-43.732773,-64.631275,-79.080517,-55.096235,-83.006527,-85.60223,-82.047626,-56.752676,-81.622267,-83.305756,-79.241203,-55.855007,-78.525764,-79.757189,-76.152906,-53.740431,-72.978121,-76.05356,-76.503679,-24.752578,-37.57741,-38.575223,-33.355281,-19.48675,-18.756187,-20.706864,-22.29669,2.83632,5.159272,3.245979,0.587444,22.567355,24.200351,21.205468,17.460009,38.608871,40.232827,37.613992,33.949105,25.697582,51.305832,74.43615,94.697662,54.760975,88.647079,109.063133,123.655083,50.595955,88.794205,110.470344,124.261963,47.148216,81.84082,102.032135,115.379837,43.815777,71.260254,87.429199,99.879135,-22.821779,-31.253871,-33.694013,-34.445367,2.984225,8.370701,8.585988,8.59609,21.491478,28.209663,26.346913,24.404319,34.221894,42.77929,42.425041,40.633883,41.315694,50.809129,52.282802,50.61643,59.899544,257.42768,-97.153072,252.3736
88,-9.502991,11.115198,1.420486,7.867188,-17.112442,-38.003196,-56.781933,-70.646598,-49.102655,-68.486595,-67.855282,-64.240654,-52.610384,-70.000803,-69.885395,-65.229217,-53.51112,-69.539886,-68.458025,-64.352743,-53.075815,-68.294294,-69.634157,-69.104684,-23.29007,-33.609267,-33.704981,-28.423968,-15.567625,-9.788533,-9.453321,-10.480502,6.488548,13.388045,13.366167,11.056942,25.132442,30.679599,29.321041,26.336174,40.10843,45.657365,44.228967,40.938387,27.248715,53.181027,76.438752,96.919716,55.352292,88.745476,109.253952,123.849701,49.619488,87.072556,109.286408,123.735993,44.708039,78.68874,99.119385,113.149613,40.140484,66.63778,82.766053,95.780137,-20.188605,-26.507649,-26.997095,-26.819896,7.553311,15.60964,17.674586,18.991401,25.503106,35.481873,35.853932,35.403364,37.871824,49.47054,51.020463,50.547974,44.733703,56.727251,59.76694,59.663075,50.552782,268.394736,-95.576357,260.092646
89,-13.717506,9.936864,2.43171,6.552126,-12.694839,-29.2985,-44.696858,-56.13422,-41.738096,-49.603443,-45.986904,-42.21254,-46.178747,-52.254793,-49.535877,-44.414292,-47.775112,-54.445759,-50.461916,-45.479925,-47.757414,-59.109003,-62.122645,-63.379549,-19.252692,-26.37764,-25.024182,-18.85468,-9.312296,0.072303,3.38596,4.22789,9.423619,19.505942,22.347431,21.803428,24.548642,33.897969,35.52571,34.777962,36.513803,46.065844,48.308496,47.793349,28.259205,54.492691,77.921322,98.068885,55.981258,88.958015,108.917701,122.843902,48.890121,85.770446,108.098282,122.739257,42.580066,76.065227,96.56797,110.857795,36.67765,62.59909,78.664215,92.058082,-17.722232,-22.106042,-20.926572,-19.945432,12.043307,22.35197,26.12019,28.703556,29.505051,41.638698,44.102589,45.125374,41.49771,55.139636,58.413494,59.124822,48.212573,62.147319,66.593818,67.939619,36.922508,278.237226,-93.057415,266.550398
90,-9.675339,7.909659,2.961616,5.934647,-8.295753,-21.763778,-34.964847,-45.001373,-40.357698,-38.099865,-27.17625,-19.030117,-46.646673,-41.143038,-30.172668,-19.303116,-49.331108,-45.3796,-33.405836,-22.839037,-49.711355,-56.060171,-55.692243,-53.779215,-18.10753,-24.252387,-22.292775,-15.871541,-6.719704,7.199845,12.794315,14.943452,11.675274,24.761743,29.705475,30.577656,25.934581,37.283312,40.671063,41.63295,37.427635,48.90403,52.498435,53.469485,28.951081,55.278431,78.938896,98.762879,55.794537,88.630509,108.201531,121.865639,47.873886,84.560005,107.226357,122.450455,40.717919,74.130512,95.066941,109.988938,34.04084,59.702088,75.926651,89.879151,-15.825012,-18.826651,-16.197985,-14.986516,14.945119,27.267624,32.603069,36.377069,32.316337,45.898143,50.043917,52.154164,44.284987,59.38263,64.123122,65.69819,51.254991,66.859901,72.438643,74.761026,27.323776,286.062698,-90.019192,272.400858
91,-17.245399,8.289215,3.342236,5.625599,-2.346749,-9.774697,-17.891934,-23.903206,-33.041857,-17.698414,0.573909,13.232975,-41.173617,-22.225748,-2.267945,15.024673,-45.426327,-29.607479,-8.679903,8.345094,-46.644179,-47.045637,-42.870295,-37.45542,-17.907483,-22.964064,-20.340203,-13.658308,-3.470743,13.674438,21.426208,25.205012,14.172016,29.076948,35.649717,37.796612,27.14358,39.56226,43.828139,45.723877,37.499932,49.756963,54.276513,56.320143,28.91843,55.185928,78.938884,98.353168,55.413322,87.994938,107.049236,120.376957,47.070568,83.525287,106.15044,121.608501,39.477997,72.702919,93.700641,108.824009,32.381252,57.544693,73.562427,87.577343,-14.61431,-16.430797,-12.617709,-11.369918,16.895839,30.421241,36.680016,41.126515,34.014041,48.343014,53.692736,56.683692,45.851508,61.507918,67.23475,69.618526,53.021917,69.200451,75.201096,78.139836,10.119942,294.299962,-86.635391,277.974506
92,-13.469456,7.045506,3.331054,5.400715,1.327034,-0.461288,-1.426804,-2.375084,-23.07161,-0.114326,21.400429,36.16626,-31.567875,-5.575401,18.670807,38.532097,-36.447853,-14.821587,9.639885,28.943047,-38.119171,-35.104614,-29.027115,-21.993347,-16.89143,-21.518351,-19.421764,-14.114724,-0.755553,16.983055,25.734558,31.067657,15.880082,30.886605,38.686497,42.272035,27.828416,40.307298,45.648461,48.72909,37.041615,49.616703,54.941429,58.212743,28.60159,54.786461,78.667202,98.147587,55.18768,87.619709,105.937535,118.749951,46.414216,82.787808,104.837231,119.887539,38.31712,71.420483,92.033421,106.814793,30.771962,55.767838,71.535244,85.317364,-13.896979,-15.082846,-10.678622,-10.297708,17.591507,32.439962,39.474816,44.374439,34.72159,49.804906,56.145031,59.894479,46.688561,62.76549,69.172577,72.179699,54.075503,70.239587,76.118721,79.123162,-3.334259,301.225549,-83.289082,283.255302
93,-2.012146,2.682883,2.75124,4.862351,2.0644,2.060829,2.320312,2.384216,-20.556507,4.035027,25.673996,40.10891,-28.823547,-1.242817,23.024734,42.479919,-33.415398,-10.564659,13.850327,32.787277,-34.769073,-31.07127,-25.659897,-19.19577,-14.816864,-18.519072,-16.01928,-10.663988,2.60231,20.500383,29.429159,35.28258,18.146581,33.137642,41.137605,45.309426,29.125236,41.76704,47.323045,51.089586,37.436977,50.147188,55.945552,60.075234,28.188,54.122177,77.940811,97.386383,55.199044,87.272782,104.751457,117.024399,46.439152,82.507714,103.887429,118.629982,38.110955,71.155529,91.372215,105.842125,30.203694,55.301697,70.851723,84.325424,-13.718409,-14.862212,-10.274515,-10.462421,17.802385,33.270999,40.799844,46.071872,34.763136,49.930568,56.904376,61.107319,46.743889,62.633332,69.320457,72.518215,54.390591,70.011728,75.709945,78.594653,-5.34676,303.724422,-80.538197,287.933643
94,-2.387512,4.530343,1.973076,3.706952,3.273994,5.363891,9.390472,12.637733,-15.067131,9.620407,30.80635,44.637565,-23.785183,2.779186,27.240257,46.801323,-29.230969,-7.345871,16.374756,34.611511,-31.500206,-26.893433,-19.499485,-11.496598,-17.121401,-22.578692,-21.759486,-17.915511,-0.050474,16.054564,23.911415,29.160558,17.385915,31.627512,39.050245,42.824133,30.017221,41.670203,47.022914,50.443875,39.593722,51.454186,56.256762,59.458027,28.022289,53.853733,77.628571,97.254158,55.269585,87.317917,104.252678,116.210999,46.504223,82.465553,103.275147,117.679871,37.994087,71.018555,90.824341,104.913437,29.85038,55.114746,70.46917,83.576958,-13.929238,-15.181586,-10.233254,-10.618144,17.219151,32.8713,40.591386,46.020803,34.336366,49.336763,56.395255,60.588047,46.489983,62.057064,68.554084,71.484228,54.358863,69.442413,74.627929,76.834432,-7.751747,308.071129,-78.582596,291.456959
95,-6.966225,2.288273,1.546932,2.455962,3.897926,9.374794,17.728455,23.662628,-7.378269,20.164925,39.950455,52.40419,-15.35067,13.052033,36.940109,55.258141,-20.348179,2.196842,24.825737,41.969833,-22.395744,-16.54747,-9.105743,-1.427307,-16.78596,-21.419674,-20.259162,-15.713072,0.177458,14.660746,22.40836,28.47204,17.129861,30.320354,38.264964,42.456372,29.485797,40.992974,46.939378,50.198812,38.706356,50.450914,55.118578,58.00215,27.778096,53.409577,77.125637,96.886334,54.849037,86.852932,103.408047,115.149365,46.166989,82.2262,102.653813,116.759205,37.613354,70.760937,90.20097,103.849011,29.460045,54.763001,69.906384,82.599644,-14.123777,-15.418214,-10.147198,-10.377997,16.961022,32.773327,40.48872,45.848964,34.191709,49.019675,55.936339,59.95366,46.360789,61.671853,67.705127,70.145985,54.159989,68.774274,73.343632,74.822715,-14.763468,310.210846,-77.08116,293.764365
96,5.926987,-0.066999,0.848671,1.489827,2.51944,6.222313,12.409492,16.238388,-12.295086,12.545906,32.29644,44.788811,-20.268734,5.857132,29.647865,48.323753,-24.884308,-4.429745,17.875969,34.717415,-26.60202,-22.346008,-14.465252,-6.242203,-15.935719,-20.646226,-19.23639,-14.368197,1.662,16.204765,22.632205,27.612153,18.677795,31.502343,38.627044,42.216521,30.988394,41.847007,46.952135,50.018328,40.441271,51.635583,54.918186,57.077029,27.701557,53.258995,76.987828,96.936848,54.403405,86.461956,102.748707,114.399021,45.658345,81.931721,101.979092,115.841091,36.953167,70.304203,89.408695,102.740032,28.710709,54.047482,69.024983,81.406208,-14.197037,-15.748664,-10.392829,-10.407538,16.509566,32.533118,40.288093,45.619772,33.901051,48.716185,55.636356,59.558791,46.110317,61.376365,67.111015,69.149668,53.85046,68.189869,72.32028,73.198371,-8.882658,309.987269,-76.278666,295.097614
97,2.414921,1.497176,0.538399,0.296699,2.616565,5.088947,9.996105,13.490352,-15.000458,10.331783,30.27737,42.616138,-23.182824,3.530948,27.352604,46.031376,-27.497326,-6.536683,16.041286,33.117817,-28.592366,-25.200932,-18.295441,-11.033169,-16.529511,-22.235867,-21.24271,-16.395538,0.33013,14.824186,21.263396,26.043792,17.774275,30.682297,37.021335,39.839908,30.305138,40.964741,45.252468,47.49586,40.002423,50.36329,52.840716,53.930315,27.514011,52.914288,76.454693,96.31921,54.081207,85.988491,102.240177,113.988911,45.367298,81.55933,101.442593,115.300472,36.572456,69.951107,88.973248,102.280254,28.225239,53.705166,68.696674,81.033611,-14.278548,-15.907438,-10.409564,-9.954698,16.513727,32.496697,40.211572,45.475103,33.81308,48.479235,55.378819,59.173752,45.873677,61.072219,66.690914,68.437574,53.525615,67.738917,71.737824,72.322243,-6.509645,311.341941,-75.782175,295.251809
98,-2.740494,2.817757,0.305775,-0.149091,3.07584,6.926159,15.276272,21.401424,-10.758305,15.65736,34.807537,46.841823,-18.64016,8.520458,31.886638,49.836262,-22.759815,-1.99189,19.41164,35.687839,-23.598129,-21.188667,-15.82608,-10.096413,-17.664397,-24.33622,-24.043758,-20.154062,-1.518566,11.540831,18.017387,23.360922,15.956727,28.07937,34.668682,37.931747,28.598716,38.543928,43.421667,45.880001,38.24224,47.343251,49.816886,51.005026,27.461403,52.813282,76.223121,96.128998,53.78778,85.697502,102.070152,114.041176,44.913116,81.084823,100.943206,114.798065,36.018287,69.320343,88.323852,101.708358,27.650482,53.171745,68.230545,80.642646,-14.295479,-15.809599,-10.166167,-9.314185,16.513357,32.658472,40.335123,45.464421,33.884502,48.698067,55.560131,59.181608,45.873937,61.246171,66.809562,68.412887,53.319308,67.590174,71.481326,71.842801,-9.276203,314.061826,-75.502464,295.004846
99,0.402042,0.116573,0.411358,-0.312259,2.876587,7.064163,15.55069,21.270218,-10.561844,15.221512,34.214951,46.325295,-18.455292,8.827835,31.879761,49.741242,-22.524456,-1.275913,19.698166,35.831497,-23.218746,-20.29129,-14.553016,-8.470196,-17.67466,-24.473566,-24.34163,-20.517538,-1.651799,12.301238,19.48906,25.287621,15.74638,28.376302,35.4189,38.646483,28.396853,38.374892,43.305391,45.57972,38.192,46.955618,48.614988,49.170519,27.362125,52.664257,75.960971,95.795459,53.633113,85.306285,101.738514,113.822445,44.633342,80.572345,100.325145,114.17815,35.563545,68.645084,87.483135,100.851459,27.052333,52.391464,67.473644,79.97327,-14.002956,-15.409,-9.773114,-8.726741,17.042941,33.241321,40.823148,45.731416,34.276517,49.261428,56.145241,59.623394,46.106488,61.631135,67.194612,68.690355,53.360235,67.742388,71.610224,71.853718,-8.884306,314.118261,-75.101251,294.632449
100,1.392632,0.519914,0.048568,-0.267293,3.110183,7.408996,15.448745,21.220596,-10.210144,14.382843,32.933532,44.993934,-18.650288,7.55262,30.233825,48.191093,-23.291107,-2.773808,17.795425,34.018913,-24.555176,-21.669045,-15.665234,-9.113102,-17.713291,-24.880909,-24.74943,-20.949939,-2.583391,10.820623,18.099193,24.011598,15.047673,27.336487,34.545366,37.853101,27.910173,37.514029,42.457496,44.620106,37.819336,45.941713,47.634131,48.203668,27.261956,52.629593,75.855046,95.564495,53.833283,85.252041,101.717068,113.900746,44.715821,80.356877,99.996266,113.879277,35.423642,68.22218,86.911618,100.263531,26.670719,51.854645,66.969189,79.548214,-13.79251,-15.107411,-9.519826,-8.326277,17.392955,33.642316,41.178324,45.94879,34.476614,49.672377,56.604256,60.048867,46.192001,61.871307,67.500339,68.963206,53.374253,67.894689,71.801749,71.977948,-7.502741,314.588472,-75.06375,294.315453
101,-3.604866,0.84335,-0.059017,-0.350199,4.607574,11.439102,22.689262,29.551643,-3.890419,20.82843,38.064605,49.424743,-12.834549,13.216461,35.376411,52.501762,-18.272541,1.489792,21.137031,36.986847,-20.417256,-17.60249,-11.603955,-5.019985,-16.926245,-23.686396,-23.454993,-19.876334,-3.906764,8.119747,15.785826,22.563489,12.971711,24.82022,33.421484,37.956088,25.506538,35.189534,41.823393,44.827909,35.242182,42.907557,45.079776,46.074551,27.152584,52.581688,75.776367,95.36927,54.241287,85.30822,101.677208,113.826004,45.006661,80.245056,99.693627,113.51342,35.445316,67.918282,86.444458,99.720154,26.376434,51.383354,66.530525,79.168877,-13.671294,-14.789804,-9.203788,-7.912315,17.883463,34.230217,41.71685,46.326468,34.803903,50.215695,57.206928,60.643338,46.36216,62.187346,67.899358,69.391643,53.422986,68.046645,71.977775,72.172066,-11.138855,315.38236,-75.154015,293.915792
102,-0.212025,-0.641241,-0.300522,-0.164836,4.854755,12.724102,24.187534,30.39584,-2.321354,21.238987,37.503147,48.370915,-11.424889,13.965374,35.920315,52.977757,-17.110199,1.988148,21.041096,36.636417,-19.614601,-16.593613,-9.904518,-2.456818,-16.417953,-22.305855,-21.685794,-17.695347,-3.764281,7.560214,14.94807,21.73076,12.632232,24.232911,33.515344,38.517684,25.098072,34.552912,42.037642,45.716658,35.135972,42.519678,44.729318,46.26305,27.222142,52.765995,76.025208,95.570961,54.576496,85.506249,101.749695,113.7808,45.274796,80.382569,99.643273,113.38147,35.572151,67.912972,86.232193,99.373925,26.333416,51.207814,66.319611,78.960663,-13.553092,-14.758225,-9.242197,-7.838462,17.948387,34.27937,41.735411,46.249144,34.850092,50.364266,57.372048,60.784685,46.39895,62.213293,67.92586,69.375229,53.466026,68.194796,72.113304,72.206275,-11.398344,314.689853,-75.502001,293.69969
103,-0.148796,-0.391498,-0.334339,-0.116425,5.149487,13.935505,25.007137,30.486546,-1.161587,21.800732,37.24815,47.617138,-10.645706,14.187252,35.671886,52.663822,-16.646816,1.954067,20.703609,36.410557,-19.569683,-16.322674,-9.241161,-0.969898,-16.410715,-22.225159,-21.9242,-17.752453,-4.910825,5.610717,12.790289,19.71908,12.026164,22.918344,32.383633,37.348897,24.99627,34.098046,41.716392,45.165536,35.437018,42.852217,45.321641,46.862585,27.279682,52.901516,76.253094,95.76218,54.991562,85.716328,101.799557,113.662068,45.741348,80.60915,99.675282,113.320667,35.949898,68.109615,86.211674,99.188633,26.553864,51.243485,66.280735,78.906498,-13.517264,-14.835326,-9.354471,-7.867755,17.933234,34.155611,41.600413,46.097473,34.766322,50.24552,57.280004,60.725553,46.31707,62.006269,67.738646,69.172194,53.466175,68.241344,72.169251,72.210265,-11.611834,314.242616,-75.901034,293.527526
104,0.917988,-1.009298,-0.343689,-0.064813,5.130546,13.974655,24.283127,28.521263,-1.815502,21.081596,36.223457,46.199363,-11.647854,13.178695,34.343582,51.111236,-17.771622,0.635353,19.184257,34.861679,-20.789051,-17.796662,-10.772839,-2.427979,-16.123588,-21.641334,-20.941998,-16.8826,-4.707629,5.887704,12.794821,19.50861,12.17686,23.311176,32.801177,37.736615,25.14783,34.534622,42.376541,45.870342,35.710214,43.450665,45.954224,47.486363,27.287464,52.88966,76.3037,95.91663,55.041538,85.808659,101.79855,113.556027,45.865105,80.862202,99.897869,113.420986,36.117954,68.500729,86.60622,99.448391,26.762066,51.640274,66.703915,79.248814,-13.620856,-14.987479,-9.442206,-7.692137,17.721813,34.078151,41.575836,46.187098,34.625617,50.072606,57.101829,60.587924,46.28717,61.975431,67.65122,69.063748,53.528505,68.250236,72.076761,72.08548,-10.781565,313.160879,-76.332442,293.390274
105,-0.768814,0.385557,-0.25922,-0.093441,5.551803,14.154144,25.040405,29.69664,-1.846138,21.546089,36.902046,46.926132,-11.49963,13.795372,35.106079,51.94796,-17.33519,1.741722,20.281677,35.671257,-19.980252,-16.035782,-8.406109,-0.039208,-16.192996,-21.792449,-21.305213,-18.138517,-4.682361,6.085491,13.042243,19.624787,11.802122,23.576727,32.873758,37.568234,24.679466,34.314642,42.105531,45.79166,35.396497,43.285372,45.326198,46.58645,27.336514,52.852879,76.273224,95.894623,55.033436,85.867653,101.865578,113.638985,45.932018,80.970589,100.002686,113.511795,36.204037,68.688538,86.8125,99.643982,26.814652,51.803536,66.900856,79.492973,-13.617188,-15.041955,-9.450505,-7.495845,17.566819,34.021402,41.584222,46.329112,34.460781,49.892629,56.973215,60.535881,46.168659,61.874296,67.594126,69.060673,53.477673,68.245308,72.072093,72.08385,-11.650354,313.470112,-76.691637,293.220509
106,-0.809235,0.484395,-0.106968,-0.011954,5.613716,14.569908,25.52845,30.710999,-1.683906,22.161438,37.577454,47.531685,-11.082298,14.62912,35.844383,52.702538,-16.537159,3.326912,21.829834,37.377594,-18.791908,-13.573059,-5.397514,3.423203,-17.080683,-23.004523,-23.00377,-20.180208,-5.944737,4.720621,11.804641,18.660048,11.075579,23.027445,32.236284,36.854597,24.627559,34.315173,41.951526,45.508942,35.963316,43.954129,45.712323,46.635541,27.371327,52.777313,76.179371,95.814983,55.023697,85.903713,101.928486,113.722195,45.96191,81.0359,100.059506,113.533436,36.260433,68.771313,86.85957,99.665028,26.88057,51.923676,66.957012,79.492893,-13.585968,-15.095926,-9.490767,-7.422709,17.377307,33.884674,41.564338,46.462578,34.256893,49.651431,56.786716,60.399103,46.009762,61.732529,67.482023,68.976741,53.370066,68.161574,71.996707,72.014973,-12.541523,313.884733,-76.880539,293.138781
107,0.717888,-0.389435,0.081299,0.001296,5.426788,14.210861,24.773415,29.650177,-2.304348,21.403564,37.089043,47.112419,-11.714424,13.654449,34.777084,51.679321,-17.147656,2.431412,20.780685,36.345428,-19.40126,-14.140583,-6.047447,2.697258,-17.163453,-23.095284,-22.767216,-20.074837,-5.858398,5.337458,12.46106,19.294089,11.138873,23.612863,32.815824,37.525626,24.669166,34.850759,42.573834,46.232163,36.009456,44.245788,46.051852,47.017085,27.331146,52.64154,75.991665,95.583012,55.039947,85.865421,101.928669,113.772984,46.076878,81.052448,100.085392,113.58823,36.396961,68.832241,86.902416,99.699223,26.960655,51.994743,66.98267,79.521709,-13.583003,-15.141979,-9.517405,-7.371023,17.229674,33.637154,41.3914,46.443448,34.046868,49.313953,56.50054,60.232106,45.823993,61.471794,67.271566,68.841879,53.270105,68.046867,71.940725,72.035462,-11.889679,313.43108,-76.865284,293.075859
108,-0.546066,0.222771,0.346538,-0.101937,6.191528,15.01474,25.556373,30.5774,-1.392449,22.413528,38.218025,48.218902,-10.938366,14.641777,35.776771,52.749756,-16.569523,3.306106,21.353279,36.720153,-18.968891,-13.103222,-4.790909,3.912368,-17.305417,-23.368851,-23.202434,-21.2168,-5.998806,5.782963,13.19694,20.086087,10.504992,24.006707,33.194922,37.885248,23.847873,34.655776,42.435982,46.201362,35.264635,43.830047,45.424529,46.222567,27.235943,52.393868,75.649865,95.264924,54.913308,85.662255,101.719437,113.558259,45.942456,80.905472,99.933701,113.386391,36.244801,68.653908,86.684464,99.437439,26.778821,51.785317,66.706307,79.183274,-13.591142,-15.085786,-9.390879,-7.157873,17.276518,33.666547,41.478492,46.642235,34.08871,49.251721,56.43548,60.234106,45.85882,61.46142,67.243037,68.863553,53.278058,68.004407,71.89887,72.045243,-12.489515,313.601126,-76.572516,292.921197
109,0.70253,0.241357,0.210881,-0.037248,6.24868,15.001876,25.168693,29.85102,-1.631642,22.209411,37.793792,47.494514,-11.310391,14.338531,35.546997,52.425201,-17.011425,2.956329,21.160011,36.477081,-19.546029,-13.668286,-5.391564,3.120758,-17.373318,-23.548235,-23.306223,-20.807789,-6.078476,4.89687,11.862699,18.770434,10.556814,23.400195,32.351832,36.964785,23.899373,34.006508,41.668524,45.544659,35.236132,43.335983,44.735099,45.607163,27.30019,52.390548,75.701786,95.381984,54.879593,85.611591,101.749294,113.635036,45.991745,80.826244,99.856304,113.369991,36.322483,68.543644,86.553348,99.366062,26.797096,51.684803,66.524837,79.031742,-13.527959,-15.073399,-9.376467,-7.295589,17.132528,33.378629,41.255858,46.56669,33.850724,48.884145,56.10782,60.098539,45.585019,61.018793,66.881772,68.657665,53.04369,67.772053,71.772343,71.973934,-11.819137,313.822648,-76.393787,292.864114
110,-0.597748,1.260931,0.601021,0.042793,6.463257,15.172622,25.360954,30.379349,-0.835579,22.835655,38.25824,47.893593,-10.348011,15.106704,36.429107,53.517036,-16.035862,4.045807,22.417465,37.820961,-18.755436,-12.465546,-3.85429,4.669578,-17.754132,-24.477035,-24.604809,-22.23715,-7.115932,2.848609,9.549109,16.39324,9.539315,21.927646,30.744073,35.445787,22.968918,32.5923,39.9055,43.804718,34.293894,41.884922,43.117238,44.020721,27.136528,52.171085,75.559558,95.367359,54.845981,85.582912,101.696125,113.463466,46.010879,80.832744,99.836826,113.216388,36.349811,68.577129,86.521762,99.240337,26.836761,51.698719,66.419963,78.821056,-13.585535,-15.133902,-9.401463,-7.583408,16.726297,32.981945,40.979562,46.441386,33.44159,48.43848,55.732229,59.815759,45.228472,60.571992,66.434564,68.261178,52.740953,67.370033,71.385205,71.664342,-12.439499,315.090878,-75.81538,292.914206
111,-1.223522,0.505131,0.474002,-0.02864,6.925335,16.081478,27.007747,32.780353,0.459194,24.784847,40.271221,49.946514,-9.016514,17.018268,38.44701,55.624775,-14.640873,6.094059,24.475788,39.82275,-17.300469,-10.231636,-1.314721,7.338787,-17.667571,-24.580011,-25.122612,-23.01738,-7.719542,2.064143,8.88029,15.965927,8.803386,21.158322,30.069425,34.768137,22.318859,32.003312,39.201014,43.005111,33.712156,41.446741,42.648848,43.550775,27.052987,52.051873,75.507706,95.46888,54.714867,85.522866,101.665444,113.402939,46.012322,80.843308,99.919487,113.284699,36.487828,68.723923,86.735321,99.435837,27.1031,52.008751,66.676415,78.989731,-13.682977,-15.228146,-9.49709,-7.779626,16.383027,32.537416,40.560993,46.10576,33.150598,48.038906,55.348821,59.53929,45.001206,60.201699,66.051946,67.950524,52.594357,67.134492,71.155864,71.494738,-13.694658,315.605463,-75.373015,292.89502
112,4.654907,-1.480701,0.618988,-0.054624,5.996761,12.584186,18.96175,21.103626,-5.314144,18.732731,34.74773,44.414944,-14.953972,11.774265,32.926678,49.930401,-20.556427,0.510532,19.482479,34.795635,-23.317646,-18.848545,-12.298645,-5.609768,-17.79905,-24.308185,-23.967545,-20.665368,-5.861089,4.997795,11.253704,17.503735,11.069107,23.101706,31.202978,35.246691,24.372764,33.916896,39.651582,42.748823,35.441205,43.269181,44.860674,46.048369,27.02353,51.958718,75.431328,95.485978,54.658894,85.514077,101.580254,113.177445,45.95691,80.779496,99.830544,113.071381,36.48,68.691193,86.686249,99.308945,27.222989,52.087086,66.706398,78.879364,-13.790769,-15.250388,-9.534437,-7.963642,16.175409,32.379853,40.404838,45.908096,33.025466,47.892952,55.175969,59.302786,44.905887,60.099181,65.878711,67.735607,52.466175,66.945313,70.893523,71.200497,-9.099243,314.14011,-74.813519,292.855744
113,-0.36541,-0.087858,0.460968,-0.022366,4.914677,9.707233,14.852474,15.899677,-7.342403,18.243381,34.920559,44.654675,-16.541164,11.929676,33.184536,49.621662,-21.473923,1.154903,20.717731,35.947643,-23.548725,-18.541454,-11.592739,-4.729786,-17.449567,-23.568922,-22.44604,-18.64119,-5.719027,5.722411,12.456132,18.825922,11.303857,23.11124,31.113241,34.988808,24.590533,33.901038,39.264123,42.137444,35.480687,43.097922,44.484305,45.265164,27.025681,51.971112,75.530961,95.714425,54.693398,85.592011,101.558579,113.037758,46.076649,80.873841,99.862153,113.020981,36.661812,68.874093,86.862786,99.434327,27.462479,52.346066,66.942696,79.045281,-13.878331,-15.407617,-9.733236,-8.257685,15.751332,31.938511,39.923284,45.379476,32.679664,47.592611,54.892769,59.013782,44.629406,59.831999,65.60444,67.472168,52.243812,66.725914,70.64788,70.936946,-9.558048,314.059684,-74.445946,292.84081
