takenoko1/special-research/HandMotion_SimilarSearch_自分用/NewProject/handData_new/key/d3_feature/150.csv
,vel_0x_L,vel_0y_L,vel_0x_R,vel_0y_R,posFromWrist_1x_L,posFromWrist_2x_L,posFromWrist_3x_L,posFromWrist_4x_L,posFromWrist_5x_L,posFromWrist_6x_L,posFromWrist_7x_L,posFromWrist_8x_L,posFromWrist_9x_L,posFromWrist_10x_L,posFromWrist_11x_L,posFromWrist_12x_L,posFromWrist_13x_L,posFromWrist_14x_L,posFromWrist_15x_L,posFromWrist_16x_L,posFromWrist_17x_L,posFromWrist_18x_L,posFromWrist_19x_L,posFromWrist_20x_L,posFromWrist_1y_L,posFromWrist_2y_L,posFromWrist_3y_L,posFromWrist_4y_L,posFromWrist_5y_L,posFromWrist_6y_L,posFromWrist_7y_L,posFromWrist_8y_L,posFromWrist_9y_L,posFromWrist_10y_L,posFromWrist_11y_L,posFromWrist_12y_L,posFromWrist_13y_L,posFromWrist_14y_L,posFromWrist_15y_L,posFromWrist_16y_L,posFromWrist_17y_L,posFromWrist_18y_L,posFromWrist_19y_L,posFromWrist_20y_L,posFromWrist_1x_R,posFromWrist_2x_R,posFromWrist_3x_R,posFromWrist_4x_R,posFromWrist_5x_R,posFromWrist_6x_R,posFromWrist_7x_R,posFromWrist_8x_R,posFromWrist_9x_R,posFromWrist_10x_R,posFromWrist_11x_R,posFromWrist_12x_R,posFromWrist_13x_R,posFromWrist_14x_R,posFromWrist_15x_R,posFromWrist_16x_R,posFromWrist_17x_R,posFromWrist_18x_R,posFromWrist_19x_R,posFromWrist_20x_R,posFromWrist_1y_R,posFromWrist_2y_R,posFromWrist_3y_R,posFromWrist_4y_R,posFromWrist_5y_R,posFromWrist_6y_R,posFromWrist_7y_R,posFromWrist_8y_R,posFromWrist_9y_R,posFromWrist_10y_R,posFromWrist_11y_R,posFromWrist_12y_R,posFromWrist_13y_R,posFromWrist_14y_R,posFromWrist_15y_R,posFromWrist_16y_R,posFromWrist_17y_R,posFromWrist_18y_R,posFromWrist_19y_R,posFromWrist_20y_R,posFromBody_0x_L,posFromBody_0y_L,posFromBody_0x_R,posFromBody_0y_R
6,4.284782,3.509992,-0.036427,-1.025391,5.844464,8.806973,8.166401,6.1936,-7.633609,9.086964,26.865727,38.165783,-15.365261,4.858052,24.135441,39.525525,-21.512214,-4.554645,13.568722,27.25755,-26.096283,-23.445785,-16.811187,-11.009445,-21.205178,-31.664352,-33.030901,-31.984293,-9.546379,1.213321,5.396319,7.12953,8.278779,20.157137,22.519152,22.565058,21.807565,31.323143,31.307026,30.625598,32.346644,40.896112,39.987208,37.149184,27.945076,54.867165,78.871308,99.039711,53.629338,87.142594,104.78405,117.730065,44.683789,82.638474,102.621163,116.180878,36.24646,71.344574,90.027741,102.94851,29.074036,55.765732,71.443863,83.086991,-13.657771,-14.317154,-8.718615,-5.195297,18.99376,33.181337,38.172981,41.261823,36.394964,49.592522,53.30592,54.058336,47.581459,61.556862,64.176623,63.200966,53.657539,66.252005,67.132578,64.754187,1.236723,305.15767,-71.914358,281.275105
7,-4.896,4.087766,0.508644,0.166208,6.917016,11.789338,13.640053,14.415299,-2.947631,15.485116,32.921883,44.377373,-10.647892,11.102692,30.228196,45.885499,-16.364479,1.975411,19.453721,33.137719,-20.270519,-17.730766,-13.579044,-9.467514,-21.056594,-32.451571,-35.12172,-35.15924,-12.3322,-3.053484,1.755021,4.34098,4.848581,15.886306,18.967602,19.891253,18.163254,27.024883,27.894402,27.840309,28.372659,35.905567,36.150951,34.300588,27.783921,54.508233,78.624825,98.8415,52.721558,86.069298,103.851174,116.989426,43.825036,81.777741,101.839714,115.540627,35.503933,70.603249,89.216034,102.348771,28.551567,55.040142,70.555848,82.182793,-13.381698,-14.357638,-8.940398,-5.331939,19.000009,33.047079,38.093644,41.278384,36.418157,49.56787,53.41807,54.382674,47.741355,61.708965,64.408631,63.566059,53.930426,66.552655,67.431783,65.00451,-4.387688,309.906218,-72.134125,282.102095
8,10.188527,-3.991954,0.364529,0.194686,4.697719,5.922214,3.266384,-0.240361,-12.628521,2.884906,21.042972,33.002529,-20.078522,-0.898419,18.556766,34.450847,-25.506249,-9.692173,8.761013,22.926944,-29.22963,-28.749012,-23.580929,-18.672318,-19.626047,-29.586944,-31.513594,-31.498107,-8.496573,2.702247,7.063629,8.782464,8.65642,20.381291,23.050823,23.414793,21.589055,31.040746,31.535972,31.097174,31.437246,40.100137,40.226626,38.356676,27.625305,54.236321,78.313191,98.433598,52.213474,85.587994,103.39706,116.704617,43.250038,81.22887,101.326229,115.128216,34.972939,70.032978,88.72443,102.032169,28.147854,54.668644,70.157559,81.785442,-13.446732,-14.492883,-9.135331,-5.49444,18.749883,32.899941,38.010479,41.343828,36.222817,49.390462,53.264028,54.33441,47.607715,61.614858,64.392787,63.651658,53.764911,66.353214,67.282903,64.901375,5.371983,306.330922,-72.198452,282.713439
9,1.555023,3.280046,0.284374,0.270171,5.104786,6.450565,4.977138,3.242328,-14.941853,1.732097,19.822025,32.033283,-22.867905,-2.793743,16.975719,33.405018,-27.322701,-11.071987,7.171383,21.676449,-29.411831,-29.43496,-26.170853,-22.378029,-20.759007,-32.583828,-35.925229,-36.367473,-11.875555,-1.998639,2.761058,5.228247,5.872625,16.654827,19.503793,20.304264,19.46431,27.725799,28.481673,28.539015,29.636023,37.093806,37.290333,35.443168,27.509743,53.967167,78.001786,98.129952,51.818516,85.183297,102.997307,116.377556,42.871456,80.887459,101.022469,114.902298,34.670449,69.679505,88.459076,101.897072,27.954872,54.474072,69.934914,81.535744,-13.529763,-14.612124,-9.228772,-5.613459,18.601052,32.74339,37.820373,41.205654,36.110282,49.24993,53.105193,54.285429,47.503777,61.490072,64.272064,63.614014,53.590045,66.093466,67.037074,64.70591,6.65415,309.894813,-72.186934,283.267455
10,-2.644135,1.387396,0.263455,0.278593,5.386151,7.860867,8.666554,8.79887,-14.476993,3.623303,22.449955,35.555432,-22.377502,-0.902126,20.088787,37.796963,-25.830082,-7.478771,11.704846,27.154415,-26.38385,-26.002773,-23.881313,-20.996418,-20.47887,-32.676812,-36.207626,-35.777732,-13.062966,-3.437078,2.37886,5.596921,4.22647,15.138113,18.820438,20.025646,17.538833,25.932283,27.506647,27.890314,27.585601,34.705967,35.629135,34.214322,27.490505,53.824539,77.759456,97.81596,51.606411,85.005443,102.812107,116.207828,42.60133,80.656368,100.795864,114.698124,34.406696,69.382541,88.21233,101.73872,27.707199,54.266052,69.696453,81.230976,-13.586066,-14.710714,-9.340195,-5.784729,18.375268,32.535255,37.626144,41.070878,35.937431,49.057096,52.919177,54.160101,47.374965,61.306377,64.094495,63.465653,53.457813,65.855876,66.780576,64.428947,3.795553,311.505134,-72.137941,283.768973
11,9.599465,-2.866627,0.301849,0.172407,3.286503,2.255069,-1.597744,-5.317601,-22.303128,-7.710583,11.543621,25.014827,-30.090672,-11.98589,8.90031,26.681499,-33.674172,-18.444958,1.340412,17.003551,-34.444233,-36.552235,-34.093815,-31.045246,-18.983398,-30.189678,-33.885527,-33.846908,-10.892081,0.26192,5.956469,8.58632,6.513458,18.184471,21.993434,23.111351,19.692453,28.660861,30.24545,30.438581,29.524551,37.472891,38.402951,36.952484,27.452145,53.618614,77.433735,97.561077,51.260548,84.642712,102.479977,115.98222,42.240738,80.295055,100.521137,114.555416,34.095715,69.047848,88.006931,101.672093,27.470089,54.04446,69.527378,81.106236,-13.544422,-14.664043,-9.265279,-5.771922,18.334315,32.406443,37.470977,40.928852,35.946397,49.067026,52.921659,54.185789,47.439692,61.345144,64.111871,63.449573,53.529567,65.84607,66.755209,64.32885,13.224781,308.832438,-72.006329,284.135311
12,3.804462,-1.938963,0.383583,0.226599,2.797463,0.672386,-4.484802,-9.471565,-25.887726,-12.164154,7.076271,20.519715,-33.652565,-16.367775,4.693016,22.567612,-36.863502,-22.747444,-2.758873,13.008866,-37.342575,-39.559273,-36.315319,-32.56834,-19.343292,-30.152134,-32.834991,-31.693461,-9.225252,2.497223,7.983229,10.501398,8.460955,20.257185,23.800609,24.631202,21.553746,30.371199,31.762374,31.924123,31.188972,39.376867,39.729461,37.833711,27.313053,53.381149,77.09959,97.15527,50.943913,84.395451,102.272312,115.834133,41.84634,79.997463,100.277172,114.361164,33.67852,68.746617,87.821148,101.554791,27.065334,53.802738,69.352169,80.921963,-13.63291,-14.740873,-9.267637,-5.797783,18.171665,32.147327,37.261113,40.794867,35.843953,48.983441,52.847275,54.135228,47.404322,61.240366,63.961126,63.231286,53.516612,65.708552,66.550865,64.017826,16.872419,307.050926,-71.77957,284.519361
13,-9.591797,4.284836,0.488697,0.227699,5.680275,7.540352,6.123734,4.515198,-16.069771,0.380287,18.74041,31.580498,-24.059063,-4.188217,16.281235,33.993943,-27.586624,-11.022903,8.057511,23.698197,-28.408596,-29.595154,-28.945747,-27.270893,-19.858772,-32.047229,-36.202451,-36.003479,-12.676273,-2.478143,3.457591,6.433331,4.740505,15.9383,19.966996,21.159285,17.95623,26.285162,28.179937,28.584538,27.748882,34.945979,35.942482,34.312753,27.049221,52.982907,76.622315,96.560303,50.757351,84.13179,102.027077,115.56649,41.66177,79.691208,99.975334,114.101486,33.452889,68.511452,87.570442,101.256775,26.731648,53.608658,69.134423,80.624108,-13.79046,-14.955888,-9.500388,-5.98222,18.13948,32.040893,37.147714,40.648011,35.719056,48.866781,52.790588,54.183776,47.246685,60.965959,63.687769,62.993682,53.405572,65.474097,66.267751,63.7213,7.151979,311.466528,-71.419516,284.877826
14,6.842697,-1.772755,0.401173,0.340257,4.329255,3.260628,-1.477912,-5.9057,-21.154243,-6.543388,12.079949,24.938416,-29.499813,-11.318321,9.102929,26.63768,-33.60371,-18.502327,0.915734,16.446099,-35.0778,-36.762302,-34.151287,-31.117504,-19.439277,-30.871501,-34.946423,-35.065577,-10.202515,0.967777,6.221564,8.411925,7.250832,18.715487,22.28991,23.114167,20.127386,28.466384,29.852965,29.85709,29.537741,37.054421,37.398136,35.366535,26.692829,52.524113,76.11842,95.94437,50.621475,84.020931,101.968906,115.464512,41.534214,79.577328,99.915653,113.991016,33.3162,68.508556,87.590046,101.150287,26.558613,53.684131,69.242191,80.647144,-14.128643,-15.401627,-9.921056,-6.299493,17.906582,31.803685,36.936762,40.428513,35.488567,48.639169,52.577771,54.017556,47.045996,60.675572,63.355145,62.669196,53.275921,65.231036,65.961074,63.4319,13.885356,309.787843,-71.127663,285.312153
15,0.706879,0.769323,0.33498,0.258215,4.947716,3.603561,-2.171837,-7.170044,-20.796089,-6.103821,11.949028,24.23291,-29.542271,-11.426605,8.710991,25.79686,-34.00993,-19.803383,-0.688522,14.685219,-35.869423,-36.864303,-33.607246,-30.071113,-19.666716,-31.557387,-35.967737,-36.986002,-10.606633,0.008472,4.843826,7.055096,6.997347,17.828431,21.335472,22.353304,19.982607,27.572597,29.00039,29.31055,29.298237,36.503756,36.664629,34.594199,26.468284,52.227882,75.799301,95.525757,50.5513,83.925224,101.892563,115.356766,41.461624,79.415703,99.801819,113.852646,33.196392,68.416145,87.547233,101.003929,26.338005,53.628536,69.239754,80.626968,-14.380608,-15.687482,-10.184359,-6.507381,17.760827,31.645296,36.779954,40.229035,35.290274,48.515224,52.468547,53.922239,46.829018,60.472438,63.130398,62.398508,53.094524,65.006092,65.724459,63.198731,14.492208,310.612973,-70.89271,285.626175
16,-9.218307,3.697738,0.368832,0.231626,7.261001,9.560257,7.785781,6.173561,-12.483857,5.83937,23.19207,34.781936,-21.242649,0.408233,19.910705,36.541923,-25.729283,-7.958977,10.480545,25.400962,-27.552258,-28.479905,-29.302815,-29.327626,-19.965649,-32.943931,-38.860497,-40.99469,-12.753596,-3.225149,2.229573,4.834341,4.389417,14.982095,18.522827,19.566458,17.113411,24.564043,26.144619,26.620282,26.271861,32.830817,33.835151,32.400923,26.198707,51.848911,75.346195,94.874416,50.519062,83.811939,101.759616,115.152866,41.445373,79.262523,99.640811,113.624988,33.116809,68.314876,87.405612,100.719142,26.105014,53.52444,69.093303,80.383426,-14.629092,-16.034766,-10.495433,-6.726843,17.570697,31.502195,36.66185,40.084465,35.050473,48.347065,52.369549,53.902701,46.572494,60.195426,62.867588,62.142182,52.904752,64.744381,65.436961,62.940824,5.182389,314.352139,-70.61539,285.899229
17,6.633842,-1.509686,0.310363,0.119166,5.588013,5.087471,0.4972,-3.207962,-17.747566,-1.174553,16.458916,28.104538,-26.573421,-6.68811,12.634621,29.070786,-31.411182,-15.475159,3.140717,18.0298,-33.640606,-37.002045,-38.184849,-38.612526,-19.906888,-32.322648,-37.922101,-39.993321,-11.189508,-0.991934,3.742421,5.683335,6.156738,17.007484,19.906888,20.571545,18.779671,26.299315,27.222052,27.258312,27.85135,34.34774,35.212864,33.97399,26.021691,51.568188,74.999806,94.422283,50.48164,83.661862,101.592854,114.966717,41.426525,79.066349,99.481831,113.487637,33.042572,68.150173,87.252468,100.544575,25.865856,53.315575,68.834645,80.082882,-14.798041,-16.242964,-10.711819,-6.94271,17.39913,31.45256,36.624244,39.992864,34.801606,48.25665,52.334376,53.893574,46.278748,60.052436,62.818657,62.13014,52.632556,64.553819,65.351733,62.941862,11.728352,312.86912,-70.392906,286.045062
18,1.334587,-1.665112,0.159874,0.146806,5.373322,4.119003,-0.580765,-4.379333,-20.166756,-3.480331,14.377922,25.861061,-29.018658,-8.906341,10.770928,27.11245,-33.571449,-17.413513,1.609314,16.477135,-35.467953,-38.148056,-38.078808,-37.404945,-20.730836,-32.892975,-37.330088,-38.036685,-10.279245,0.162008,4.58461,6.715962,7.533686,18.793071,21.157568,21.7831,20.291247,28.161757,28.540361,28.555033,29.313377,36.273415,36.382305,34.623061,25.878159,51.400017,74.79015,94.178501,50.420105,83.65543,101.611805,115.005169,41.354656,79.040234,99.502819,113.476238,32.959454,68.09515,87.306896,100.666798,25.774075,53.313343,68.90894,80.238476,-14.989938,-16.457016,-10.825243,-7.047217,17.117757,31.26921,36.439733,39.791545,34.606141,48.047538,52.055066,53.529357,46.136474,59.975087,62.767947,62.060782,52.482453,64.464318,65.329651,62.959361,12.95466,311.218217,-70.341311,286.206077
19,-10.305267,2.829416,0.204518,0.115164,7.425636,10.36132,9.975036,10.040817,-10.877381,8.441528,25.931328,37.423645,-19.433922,3.196998,22.917618,39.522857,-23.942299,-5.183327,13.485809,28.43074,-25.832211,-27.003548,-28.147854,-28.281487,-20.652228,-33.515691,-38.693759,-39.855284,-12.9047,-3.572385,1.485629,4.102982,4.312513,15.371456,18.396708,19.594764,17.099788,25.162058,26.313357,26.735113,26.317285,32.906906,34.008496,32.9136,25.825069,51.303783,74.649421,94.018409,50.406177,83.663292,101.644065,115.034866,41.299369,78.942169,99.42089,113.383483,32.842094,67.953392,87.216568,100.626205,25.584102,53.14302,68.78453,80.208343,-15.117748,-16.589544,-10.891031,-7.117328,16.97504,31.159937,36.317418,39.608777,34.474897,47.8788,51.849289,53.268487,46.023916,59.89417,62.692464,61.950706,52.388383,64.445657,65.37794,63.024904,2.523388,314.065007,-70.262798,286.338615
20,6.878334,-2.185396,0.227028,0.036322,5.461578,5.599159,2.523834,0.354355,-17.277878,-0.10199,18.170105,30.147812,-25.863098,-5.119469,15.166557,31.864609,-30.486511,-13.239533,6.1138,21.039482,-32.547238,-33.454262,-31.422032,-29.226654,-20.298781,-32.505195,-37.110491,-37.831724,-11.28169,-0.874213,3.776321,5.873723,6.31409,17.721787,20.631368,21.609519,19.236723,27.526024,28.285554,28.257581,28.592441,35.63284,35.812015,34.022908,25.708133,51.164199,74.478813,93.880828,50.393737,83.662078,101.664962,115.035552,41.271629,78.896965,99.369667,113.306373,32.773647,67.889373,87.176628,100.615722,25.481803,53.079402,68.773315,80.289115,-15.233098,-16.6571,-10.894008,-7.147141,16.956774,31.15002,36.27024,39.50469,34.461361,47.720681,51.615131,52.973665,46.015184,59.839002,62.627515,61.88856,52.356272,64.512606,65.492771,63.167188,9.28343,311.902653,-70.154062,286.397979
21,2.742988,-1.122351,0.07901,-0.004249,5.830651,5.461808,1.139626,-2.019928,-19.593658,-3.192146,15.185944,27.417801,-28.591747,-8.316558,12.299424,29.217087,-33.076767,-16.559921,2.796685,17.983979,-34.922275,-33.839218,-28.724739,-23.519084,-20.532901,-32.609874,-36.44003,-36.529148,-11.300548,-0.577502,3.748262,5.741565,6.493673,17.871137,20.936168,22.05742,19.642571,28.028685,29.027288,29.19599,29.121494,36.560924,36.247121,33.887848,25.634239,51.175964,74.539787,93.998336,50.525962,83.868026,101.874366,115.211128,41.381515,79.023147,99.512718,113.460411,32.827251,67.93444,87.270423,100.78688,25.486381,53.090274,68.848869,80.468605,-15.326687,-16.666337,-10.868863,-7.178349,16.925887,31.092679,36.183136,39.375682,34.420705,47.526205,51.33276,52.597704,45.958041,59.747538,62.575818,61.847237,52.237255,64.534763,65.606837,63.305905,11.917774,310.809213,-70.183696,286.422641
22,-7.454887,2.549711,0.045387,0.05423,7.704323,10.55587,9.373879,8.607239,-13.174965,5.390968,23.492088,35.680962,-22.234703,0.253372,20.823555,37.66024,-26.566532,-7.221794,11.848503,26.945,-28.18642,-24.075874,-18.31897,-12.466118,-20.101784,-32.634463,-37.387997,-38.21912,-13.343103,-3.334238,1.714636,4.05783,3.789142,15.017305,18.86296,20.290865,16.892665,25.567808,27.289743,27.618835,26.438662,33.905225,34.140371,31.886703,25.679466,51.233379,74.619163,94.139374,50.657478,84.006408,101.986175,115.240974,41.58015,79.197235,99.630226,113.516762,33.051498,68.151077,87.419151,100.877083,25.767574,53.39732,69.189972,80.849647,-15.307644,-16.655556,-10.907914,-7.19932,16.959478,31.026432,36.060091,39.184106,34.472229,47.336186,51.065701,52.26708,46.048492,59.632409,62.412969,61.663306,52.375847,64.636922,65.636834,63.281921,4.368021,313.386301,-70.233175,286.504248
23,0.51059,1.285681,0.085407,-0.05334,6.803146,9.171135,7.651359,6.268089,-13.565392,5.612205,23.61399,35.75093,-22.392289,0.64492,20.821975,37.491233,-26.571053,-6.327553,12.443847,27.094665,-27.908821,-24.554512,-20.025032,-15.462811,-18.986992,-31.526957,-37.493516,-39.773132,-12.98416,-2.34969,2.959487,4.734034,3.434607,14.893631,18.629012,19.47813,15.906412,24.910017,26.458705,26.171442,24.959986,32.382163,33.32377,31.72898,25.720734,51.23576,74.598644,94.134831,50.764011,84.089253,102.038715,115.223064,41.705177,79.269436,99.653675,113.524784,33.160114,68.249279,87.467617,100.896915,25.840702,53.466351,69.266544,80.943546,-15.256823,-16.588767,-10.881535,-7.170211,17.084894,31.061074,36.080086,39.170694,34.565768,47.283229,50.988513,52.184136,46.117072,59.564225,62.315662,61.567606,52.465916,64.701735,65.664708,63.29143,4.807772,314.699004,-70.218607,286.47793
24,1.459739,0.129355,0.074833,-0.083104,6.141976,7.671685,5.454117,3.244721,-15.119865,4.120697,21.954094,33.71711,-23.894199,-0.848739,18.990601,35.105599,-27.993106,-7.56356,10.959664,25.04876,-29.131004,-26.848709,-23.89936,-20.954189,-18.806236,-31.220601,-37.387664,-39.909946,-12.166733,-0.94036,4.610989,6.495797,4.114294,15.900447,19.380688,19.823426,16.229898,25.457175,26.642252,25.927429,24.901804,32.460401,33.545849,32.108102,25.770584,51.255856,74.572884,94.093231,50.88081,84.135818,102.029846,115.137314,41.841957,79.353493,99.66568,113.504791,33.266315,68.336243,87.484611,100.894958,25.906139,53.539959,69.337715,81.015106,-15.194788,-16.502415,-10.840359,-7.133284,17.153165,31.107424,36.115926,39.183501,34.62453,47.242239,50.941212,52.12913,46.180404,59.517838,62.280181,61.556083,52.554071,64.755829,65.688569,63.293962,6.222656,314.855526,-70.188629,286.421993
25,-7.500137,2.705236,-0.097961,-0.126095,7.741631,12.122337,13.103737,12.988976,-8.792587,13.573219,30.988197,42.326981,-17.205036,8.433701,27.552498,43.597618,-20.978748,2.465652,20.312599,34.107788,-21.577412,-20.25285,-21.054428,-20.969158,-18.652935,-31.701278,-38.950789,-41.941547,-13.823176,-3.291075,2.84005,4.913949,1.750488,13.55713,17.02013,17.266539,13.47636,23.060778,24.349768,23.449521,21.949258,28.998302,31.312572,30.965658,25.893974,51.454181,74.790939,94.464225,50.653942,84.102355,102.061042,115.176246,41.608989,79.420394,99.786895,113.659698,33.104427,68.394584,87.605804,101.052246,25.88158,53.547397,69.319221,80.926506,-15.021429,-16.292376,-10.669927,-7.039349,17.253448,31.217477,36.162944,39.188504,34.767347,47.41976,51.078385,52.22577,46.318095,59.63698,62.393753,61.687933,52.617897,64.771218,65.714702,63.333705,-1.32954,317.596883,-70.338649,286.332019
26,-3.10318,1.117769,-0.122406,-0.107828,7.58638,12.257492,14.263161,14.956558,-6.49379,16.97493,34.515427,45.674492,-14.432716,12.252915,31.400803,47.291084,-18.288998,6.919991,24.958099,38.479019,-18.858089,-17.017364,-17.856399,-18.021984,-18.932133,-32.386869,-40.168816,-43.465905,-14.736711,-4.619289,1.517183,3.380044,0.713847,12.735862,16.127034,16.365971,12.459813,22.581681,23.650568,22.369692,21.038921,28.36168,31.068793,31.192689,26.00386,51.559204,74.935089,94.702743,50.485084,84.087318,102.1035,115.211036,41.440361,79.504028,99.855377,113.755577,33.031242,68.543128,87.779113,101.259521,25.963233,53.752349,69.529609,81.099197,-14.903462,-16.161478,-10.588294,-6.992506,17.46682,31.333345,36.185655,39.127444,35.027168,47.57085,51.136109,52.242726,46.580114,59.728815,62.420651,61.735752,52.846212,64.797548,65.701314,63.365704,-4.486605,318.757127,-70.51494,286.266666
27,-0.342773,-1.634151,-0.223652,-0.12686,7.338386,11.855873,14.386276,14.788536,-7.767769,16.870193,34.884636,46.145874,-15.415455,12.137169,31.694229,47.880912,-18.883622,7.55159,26.352218,40.05677,-18.687573,-17.667847,-19.016579,-19.914963,-19.154792,-32.332108,-39.323107,-41.051921,-14.005932,-2.639114,3.862217,5.717014,1.669818,14.795881,18.156301,18.293078,13.331,24.624607,25.364093,23.794064,21.924373,29.992521,32.728855,33.085439,26.039405,51.642997,75.080097,94.897075,50.393222,84.145969,102.22269,115.364467,41.343475,79.602687,99.963764,113.936336,33.023643,68.664997,87.963626,101.522655,26.068485,53.932502,69.735637,81.298633,-14.892322,-16.118043,-10.560605,-7.064124,17.587283,31.363244,36.139713,39.024371,35.165217,47.675826,51.16954,52.256768,46.690758,59.77141,62.446833,61.796391,52.877347,64.723744,65.656953,63.395035,-4.892383,317.169234,-70.801597,286.186064
28,-1.065514,0.06695,-0.172669,-0.06716,7.806107,12.930794,16.072952,17.459404,-6.992317,17.903572,36.237785,47.995857,-14.639328,12.942581,32.979881,49.608215,-18.078484,7.97747,27.086975,41.184563,-17.82922,-16.546326,-17.565559,-18.149105,-19.483342,-32.614567,-39.522314,-41.476245,-14.918776,-4.17082,2.256113,4.424059,0.887946,13.600269,17.585492,18.373255,12.917346,23.829892,25.305097,24.41121,21.903983,29.631936,32.532488,32.922763,26.084473,51.774891,75.359928,95.340901,50.234139,84.206463,102.346676,115.500996,41.24564,79.810353,100.161884,114.110195,33.077145,68.94746,88.233296,101.762249,26.348911,54.356621,70.166302,81.682079,-14.739305,-15.957949,-10.452751,-7.036768,17.751008,31.426637,36.110888,38.944293,35.378861,47.709344,51.106345,52.145296,46.92441,59.817871,62.428975,61.776088,53.070465,64.759164,65.634748,63.381154,-6.034052,317.288999,-71.050421,286.171719
29,-1.043518,-3.263571,-0.298244,-0.125427,8.929756,15.027512,18.772247,19.586197,-6.367332,18.70031,37.521423,50.050644,-13.828812,13.415886,33.988403,50.988602,-17.022217,8.760292,28.577293,43.029076,-16.563538,-13.529182,-11.669128,-9.920895,-18.740632,-30.645482,-36.33456,-37.242093,-13.222554,-1.612032,5.007242,7.07719,2.60257,16.148128,20.506472,21.334607,14.716284,26.791491,28.423776,27.438783,23.877686,32.939275,35.460508,35.6259,26.076931,51.866512,75.589737,95.647316,50.018829,84.194824,102.415008,115.661018,41.053997,79.971061,100.349533,114.402649,33.023254,69.145775,88.494781,102.114212,26.508419,54.617305,70.42472,81.918365,-14.590832,-15.793039,-10.354976,-7.11387,17.8989,31.323464,35.869937,38.636368,35.595901,47.761535,51.068307,52.091103,47.173622,59.856736,62.375943,61.740297,53.273834,64.793287,65.621841,63.406928,-7.159899,314.075353,-71.430994,286.096217
30,6.189514,-3.518452,-0.258625,-0.214077,8.01535,11.713898,12.277657,10.632591,-11.94207,11.155655,30.204918,42.729675,-20.020054,5.78801,26.384766,42.856316,-23.842106,-0.323318,19.412544,33.415901,-24.130119,-21.201874,-17.493473,-14.242252,-18.313159,-29.497863,-34.196353,-35.051325,-10.162858,3.497654,9.218003,10.584527,6.060445,20.687858,24.337591,24.699029,18.186991,30.728228,31.751,30.694673,27.307267,37.394382,38.988691,38.50342,26.169948,51.96318,75.601696,95.398876,50.270153,84.143131,102.361118,115.853222,41.209842,79.735851,100.099353,114.209026,33.122795,68.782711,88.066394,101.664791,26.517379,54.290565,69.960628,81.290668,-14.43049,-15.504738,-10.282197,-7.40149,18.078125,31.825039,36.622589,39.613235,35.707287,48.270248,51.69416,52.717797,47.310054,60.201959,62.750658,62.111479,53.496482,64.986257,65.729065,63.503865,-1.052313,310.604402,-71.771547,285.929641
31,-1.301605,-1.927934,-0.418019,-0.195563,8.712158,13.350792,14.411568,12.95414,-10.857536,12.772797,31.787064,44.129425,-19.527008,6.155296,26.30246,42.307342,-23.917271,-1.703384,17.231392,30.575912,-24.932854,-21.992706,-18.173298,-14.984791,-18.954092,-28.921831,-32.221896,-31.926766,-8.496746,6.031199,11.806333,13.710048,8.091625,22.343188,25.97347,26.589567,20.214973,31.855296,32.739117,32.221167,29.287454,38.971389,39.797375,38.927249,26.489708,52.403332,75.893326,95.517861,50.450249,84.107117,102.392327,116.107773,41.149544,79.477799,99.879799,113.85981,32.961811,68.329308,87.607567,100.993058,26.354073,53.761975,69.294274,80.386002,-14.249044,-15.123627,-10.082027,-7.578814,17.777474,32.341543,37.656574,41.156662,35.428249,48.916305,52.618687,53.804159,47.166471,60.751438,63.32606,62.64646,53.477956,65.198703,65.91402,63.657586,-2.4379,308.717032,-72.273548,285.774642
32,2.863014,-0.209705,-1.52124,-0.593792,7.354912,10.095245,8.198136,4.581047,-14.116642,7.407005,25.328545,37.421883,-23.026279,0.787033,20.414086,36.178871,-27.281891,-7.376243,10.604782,23.550545,-28.535465,-23.102039,-16.958416,-11.776062,-19.082927,-29.111577,-31.825322,-32.138434,-7.562795,6.783975,12.240747,14.145068,9.538636,23.262122,26.626815,26.745759,22.252688,32.844353,33.738857,33.339381,31.935115,40.79462,40.67517,38.967931,27.137707,53.090149,76.222595,95.452263,50.017822,83.160645,101.200127,114.891701,40.411331,78.318741,98.58355,112.419594,32.205952,67.232929,86.452583,99.682434,25.769165,53.128304,68.67128,79.775139,-14.058729,-14.63491,-9.723912,-7.743057,17.147311,33.548999,40.040128,44.571756,34.84472,50.066283,54.692537,56.492599,46.655659,61.635494,64.765561,64.424229,53.064698,65.532575,66.76888,64.979415,0.338808,308.558716,-73.881094,285.232239
33,8.098492,-5.527835,-2.571648,-1.590073,1.659359,-0.261732,-5.841454,-12.120472,-23.24013,-7.914969,7.883903,19.155069,-30.054892,-12.763172,4.641849,19.046282,-32.324364,-17.882469,-1.860512,10.079899,-31.929949,-27.199024,-19.23555,-12.077145,-17.412251,-24.760989,-24.238463,-21.98256,-3.032828,13.129181,17.296896,18.016831,14.035992,28.989812,30.745117,29.358604,26.815796,38.542063,37.874955,36.248616,36.776397,46.908589,44.984033,41.997314,27.547589,53.550728,76.022507,94.691208,48.486672,81.261841,99.274155,113.031785,38.543885,76.360451,96.837914,110.853631,30.454503,65.122673,84.465981,97.72799,24.402169,51.44077,66.613438,77.109467,-14.371729,-14.646914,-9.857379,-8.106372,15.338814,34.158438,41.928517,47.545557,33.162651,50.39235,56.14361,58.85985,45.323567,61.87022,65.853121,66.235307,52.034281,65.211633,66.995269,65.671649,8.353729,303.072294,-76.536313,283.683579
34,13.472168,-5.598613,-1.726982,-3.885954,-9.236607,-19.250719,-29.190972,-36.4361,-37.753733,-32.887247,-20.732369,-11.048876,-40.308546,-34.058705,-20.71233,-8.252306,-38.976185,-34.181237,-21.875038,-11.169789,-35.365454,-36.515293,-30.354882,-23.416844,-14.693999,-18.326534,-14.126586,-9.371459,1.557154,18.531996,19.711213,18.385666,17.902766,33.47052,32.460481,29.24623,30.546249,42.853439,39.783944,36.615413,40.562314,51.35678,47.400351,42.830302,26.443943,51.592163,72.473465,90.393929,48.244343,78.006707,94.418953,106.919724,38.37061,72.384293,91.068879,103.613182,29.644799,60.602051,78.050858,89.595166,22.163899,45.903454,59.194874,68.012959,-14.486202,-15.077252,-11.294508,-10.216803,16.291587,35.704471,44.659146,51.360263,32.740859,50.776117,57.749356,61.4888,44.051237,61.000701,65.826112,66.749676,50.452051,63.648225,65.969596,64.982244,21.692265,297.539495,-78.396927,279.863439
35,4.305771,-6.135114,-1.128261,-6.838598,-16.797146,-30.237734,-41.25253,-48.122212,-43.213595,-46.485678,-39.118653,-31.797667,-41.429575,-43.150853,-32.444573,-21.873659,-36.478718,-38.237595,-28.254754,-18.55164,-29.936629,-33.574288,-27.050709,-19.311047,-11.573527,-11.781608,-4.688455,2.317178,3.219253,20.261922,20.657761,18.397572,18.187436,34.830549,32.64372,28.523578,30.691968,44.40009,40.035565,35.536856,41.052724,52.664593,47.32614,41.487972,22.929302,46.443077,65.926494,82.731273,52.727508,80.91576,94.917309,104.910473,44.63237,75.532665,90.319576,99.567066,36.435516,64.488682,77.885753,85.748268,28.643806,49.976211,60.874992,67.340973,-14.742294,-17.089995,-15.514359,-16.51705,15.565932,35.38285,43.144012,48.479766,31.252772,50.771583,56.005931,58.256487,42.073075,60.634359,63.739219,63.062941,48.231752,62.43925,64.030014,61.889029,25.849177,291.516621,-79.674047,273.137081
36,7.076843,-11.485848,17.105129,-3.339512,-25.356022,-46.250879,-62.260288,-72.217152,-53.321097,-66.076395,-62.983589,-57.610502,-46.969934,-57.983357,-50.344242,-41.253038,-38.159054,-47.537819,-39.85381,-30.902424,-28.715052,-36.389282,-30.727146,-23.333256,-9.840021,-10.000677,-3.674353,2.441926,3.215511,18.786507,16.997122,12.121902,17.724653,33.553192,29.26838,23.130432,30.498343,43.532595,37.626385,31.648358,41.52651,52.237205,45.485779,38.954932,11.558922,25.14624,37.602963,50.055302,31.960167,48.747688,58.82032,66.466553,29.235088,48.150661,59.649044,67.390183,25.911575,42.840054,52.895348,59.484318,22.436977,35.526844,44.083614,49.575909,-16.776031,-22.428664,-24.638365,-28.375179,6.079241,21.684966,26.611772,29.602308,21.119888,38.558575,41.091095,41.35393,32.754431,49.958528,50.852304,49.187352,40.747145,54.622599,54.583758,51.377121,32.769167,280.227615,-62.725771,269.994411
37,0.143166,-21.295,-1.937027,-20.048531,-30.525845,-55.630171,-72.672673,-81.893372,-57.367316,-75.205027,-73.845166,-69.721282,-46.407206,-63.18369,-57.590699,-50.777453,-34.57092,-49.31876,-43.818272,-36.615818,-22.954749,-35.611062,-31.573941,-25.523449,-7.407289,-5.500998,1.569479,8.521872,2.687792,18.57306,15.452608,8.882858,15.927951,33.193829,27.469578,20.012777,28.598098,43.414776,36.167507,28.730701,39.952257,52.333598,44.891259,37.795729,10.290207,23.036625,34.050842,43.327812,31.402668,45.973503,52.621262,56.758095,29.444046,45.41375,53.213516,57.661652,26.138454,40.069107,46.894901,50.829712,22.064953,30.519653,35.781887,38.785835,-15.04387,-23.673885,-29.300966,-35.114261,-2.776113,4.387935,7.053811,9.019512,7.841388,16.754961,16.91253,16.790832,16.39634,25.526348,24.519619,23.146006,22.766735,29.251553,25.554982,20.343593,32.740105,259.173466,-64.835026,250.186731
38,-2.276173,-25.111163,-0.154255,-32.094696,-31.791138,-59.471501,-78.016262,-88.145359,-57.755551,-81.492142,-81.520592,-77.799259,-45.056614,-67.745247,-62.262726,-55.800076,-32.409645,-52.530064,-47.131462,-40.077553,-20.697785,-37.61277,-33.576096,-27.733452,-8.875165,-8.812451,-2.731888,3.888213,-5.791287,8.705178,7.465563,1.642746,7.513642,25.015857,21.099251,14.112649,21.420971,36.635111,30.655387,23.51121,34.755194,46.769848,40.184068,33.981251,4.762539,13.487595,21.190418,26.724518,26.957028,38.848309,43.509396,45.445747,28.454922,40.319996,44.040505,44.94603,27.473854,37.843071,40.341362,40.695477,24.72321,30.419312,32.72786,33.616413,-18.516837,-33.149684,-43.862874,-53.400528,-13.475299,-13.291579,-13.857515,-14.266328,-2.983052,0.584387,-1.538753,-2.992215,6.023907,10.455258,7.738864,5.439921,13.293048,16.816248,12.051599,6.351906,30.319525,234.728967,-65.133688,218.758699
39,-6.674095,-35.760583,0.463863,-39.416672,-29.538552,-57.410504,-76.822321,-88.379269,-54.129355,-78.540207,-78.815558,-75.387335,-41.123984,-63.989434,-57.376469,-50.715777,-28.569207,-49.218956,-42.914515,-35.916794,-17.673462,-34.79324,-29.979286,-24.375309,-11.724826,-15.537289,-12.257021,-7.841975,-13.487941,0.586511,3.141871,-0.500797,0.469444,18.612198,18.145673,12.63522,15.354757,30.564938,26.999306,21.110049,29.970704,41.103699,36.078961,31.281089,-0.013904,5.003953,10.375111,13.322033,21.945179,33.948853,38.110589,38.600819,27.065953,39.822693,42.612683,42.128712,29.53608,40.794606,42.584347,41.703839,30.620911,36.92363,39.035214,39.586842,-22.592851,-42.892367,-58.46663,-71.716632,-32.523824,-39.079205,-40.603007,-41.727557,-22.924568,-25.558223,-27.940931,-28.927233,-14.136447,-15.033292,-17.767125,-18.892903,-6.862348,-7.754221,-13.584547,-19.056547,23.681542,200.199184,-64.633713,180.572827
40,-7.286827,-48.210879,3.17093,-49.123317,-28.921395,-57.569825,-76.513201,-87.753651,-50.211874,-74.909501,-74.778471,-70.790148,-35.421736,-59.758576,-53.690861,-46.906271,-21.890259,-43.71,-38.11793,-31.566216,-10.808602,-28.154148,-23.928612,-19.20155,-14.441346,-21.160804,-19.943618,-17.467544,-16.709649,-2.059694,3.86846,2.693847,-1.983976,17.134449,20.214841,16.492433,13.251731,28.70959,27.378762,22.854751,27.908437,38.948302,35.21202,31.608942,-4.202356,-3.349647,-1.059183,-0.777704,8.927606,18.647163,22.531629,22.355852,17.128541,29.142633,32.515804,32.355532,22.980555,33.581732,36.323425,36.059511,27.62311,33.057925,35.134659,35.881446,-25.519706,-48.769567,-67.089527,-82.059224,-44.753446,-55.650481,-54.930477,-53.835597,-36.518246,-44.043612,-42.981415,-40.389564,-28.590362,-34.669266,-35.083354,-33.158571,-21.88794,-26.906764,-32.508407,-36.392325,16.370516,153.717495,-61.486982,133.1787
41,-1.637009,-58.537269,-11.664872,-65.430168,-29.947312,-59.020077,-77.298992,-87.991596,-49.429825,-74.604836,-74.437111,-70.585201,-32.203217,-57.555245,-52.027508,-45.884365,-17.141052,-39.917576,-34.979015,-29.374306,-5.237663,-23.170258,-19.287964,-15.214142,-14.009007,-20.299435,-18.167987,-16.101534,-13.168757,6.424803,16.908794,19.138558,1.352846,25.750564,32.808692,31.172788,15.725496,35.066098,35.535707,31.824576,28.945527,42.879168,40.393763,37.294183,-2.415209,1.295142,5.481189,5.73146,18.08601,34.07119,38.579995,37.357116,26.898873,45.544689,48.37031,46.783525,32.76259,49.505525,51.963595,49.896408,36.895896,46.226564,47.695223,46.964857,-25.551779,-48.785065,-67.488334,-83.227394,-42.602578,-50.770465,-45.277145,-40.49769,-35.901318,-42.50327,-36.276946,-29.205007,-30.585133,-37.32556,-35.02477,-30.920345,-27.144222,-33.601994,-38.04843,-40.561054,14.748653,97.523241,-73.136708,70.091547
42,-0.436424,-62.347917,11.699513,-61.22404,-32.711335,-62.581883,-80.495205,-91.28315,-48.281212,-75.462628,-77.449379,-75.004845,-28.099366,-55.649987,-52.134342,-46.609402,-10.961533,-35.341416,-31.763993,-26.962204,2.015114,-15.841217,-13.00541,-10.062905,-14.540102,-21.774204,-20.418479,-20.475948,-6.561187,17.097505,32.004044,37.815571,8.172224,35.857352,47.000451,48.153208,20.968505,41.635673,43.830257,41.667974,31.474303,46.333932,44.593106,42.13228,-12.70226,-16.331424,-16.348867,-17.657808,4.616354,16.704426,21.045385,19.904493,19.656564,34.720117,37.059727,35.718722,31.184367,44.711478,46.316086,43.585764,40.135508,48.345652,49.481716,48.192038,-28.178568,-50.311045,-68.988201,-85.67183,-35.385504,-34.721525,-24.53562,-17.161354,-26.428852,-23.826941,-12.500256,-2.426774,-20.111163,-19.607395,-15.525834,-11.167912,-17.004902,-16.859351,-18.599704,-19.433463,14.401316,38.170049,-61.348108,11.862232
43,-2.415009,-69.181174,14.070842,-61.031421,-35.862007,-65.779323,-82.222681,-91.980858,-46.776152,-69.922886,-73.267336,-72.967386,-22.201338,-46.066131,-45.25732,-41.729307,-1.675987,-22.812481,-21.670103,-19.179268,13.53859,-0.911007,0.031471,0.676289,-12.552377,-18.851227,-18.347537,-21.233288,8.780168,39.173859,57.20518,65.590223,22.97932,55.557062,69.180484,72.338802,32.599309,55.576583,58.034087,56.631535,38.038462,55.346439,53.507203,50.739966,-20.097988,-29.111148,-31.893573,-34.623504,-6.943107,0.321122,2.254693,-0.462776,12.650963,23.588585,24.974717,23.724244,28.364251,37.985527,39.198693,36.409516,40.653214,45.086472,45.45781,43.548615,-24.042949,-40.592738,-56.787519,-72.74921,-19.983162,-9.696704,7.177504,19.167162,-13.084887,-1.998101,15.036744,29.308605,-9.878571,-3.721209,1.573253,6.73442,-10.366782,-6.481026,-8.02717,-8.825344,11.935409,-27.429524,-47.328164,-45.587588
44,-2.415008,-69.181173,15.882683,-64.253156,-39.01268,-68.976765,-83.950158,-92.678566,-45.271092,-64.383145,-69.085293,-70.929928,-16.303311,-36.482277,-38.380299,-36.849213,7.609558,-10.283547,-11.576214,-11.396332,25.062065,14.019203,13.068351,11.415481,-10.564652,-15.928252,-16.276596,-21.990629,24.121522,61.250213,82.406316,93.364873,37.786415,75.25677,91.360516,96.524395,44.230111,69.517492,72.237916,71.595095,44.602621,64.358945,62.421299,59.347652,-28.345882,-43.352669,-49.620289,-55.232929,-22.321266,-21.191597,-22.162891,-26.224617,2.297596,6.473728,5.224125,3.326672,22.830323,26.207588,24.8722,21.144882,38.469635,37.762917,35.640518,32.044533,-18.329195,-27.536012,-39.759605,-54.173127,6.379716,30.848444,53.400176,69.111135,13.521247,37.735442,59.206271,76.294234,15.135029,30.60243,35.322079,39.065753,12.000761,23.243809,21.920195,20.400922,8.605343,-93.341077,-32.360539,-106.571124
45,-3.164765,-49.266502,11.163437,-50.242577,-39.916214,-68.094371,-80.608101,-87.674141,-43.366981,-58.900772,-64.256786,-67.189907,-12.805054,-29.707985,-33.182907,-32.870136,12.351578,-2.866871,-5.813492,-7.101848,30.708409,21.786091,19.365543,16.295842,-10.816286,-17.396738,-19.722343,-28.321881,26.758245,63.738068,84.287577,95.416122,39.664776,75.953483,92.487535,98.820461,44.362445,68.337424,71.802876,72.363253,42.331745,61.8625,60.411185,57.706794,-24.595042,-40.486661,-48.373595,-55.67005,-28.864966,-32.737095,-34.862558,-38.609679,-8.049921,-9.502947,-10.945878,-12.597926,10.484212,8.646863,7.84904,5.04659,24.739069,20.317708,16.986633,11.714818,-6.132922,-5.820141,-9.534262,-17.089893,19.268372,55.639156,82.916143,102.667752,22.410296,58.311875,84.456484,105.481615,21.649863,46.583844,53.73003,58.818347,17.392618,30.28843,26.997581,23.307338,4.175062,-139.398244,-22.462618,-153.604366
46,-3.91452,-29.351831,2.238236,-23.23245,-38.572609,-63.132145,-72.196512,-76.967583,-41.063822,-53.475769,-58.781817,-61.747324,-11.706568,-25.743256,-29.665146,-29.792078,12.550072,-0.562454,-4.381937,-6.295818,30.477619,22.389656,18.923046,15.317368,-13.307279,-23.256687,-28.684778,-40.227045,16.690337,46.637425,62.848966,71.743971,28.614403,57.647201,72.561541,79.227,32.996308,52.036379,56.728967,58.936008,31.225836,47.857105,47.476862,45.817393,-15.103636,-27.218104,-35.717064,-45.67332,-22.708439,-28.188229,-30.8999,-34.621944,-8.731092,-11.893806,-13.736701,-15.707781,3.691763,0.384283,-0.145961,-2.33704,12.290787,6.675409,3.060639,-2.536615,-6.740933,-8.012004,-13.523529,-20.221567,6.521037,36.697799,63.263823,83.956317,7.372843,37.374619,64.400772,86.622031,5.575654,25.860169,36.45163,44.570026,1.096009,6.045609,-0.629054,-6.719632,-1.045624,-165.142477,-21.530548,-173.229218
47,-4.664276,-9.437159,-1.227311,-11.725403,-34.981865,-54.090084,-58.715391,-60.558892,-38.361612,-48.108135,-52.660384,-54.602179,-13.007853,-24.588089,-27.827015,-27.615038,8.20504,-3.370297,-7.28155,-8.978241,24.369697,15.829899,11.74086,8.480061,-18.037631,-33.508099,-43.163903,-57.706121,-6.082203,9.948283,18.09048,22.348417,4.635296,20.337921,31.582533,37.744011,10.131701,20.614357,27.016188,31.313359,11.284891,22.342759,23.618327,23.679449,-6.028285,-14.378922,-21.403669,-30.464483,-20.800943,-26.261386,-28.791272,-32.280706,-12.820562,-12.822775,-13.367253,-16.096934,-5.145716,-4.854258,-4.318306,-6.7908,0.057791,-3.833388,-6.835286,-12.622496,-9.241783,-14.054256,-21.96118,-28.650322,-12.007221,7.530269,26.600897,41.883238,-13.356509,7.527744,34.382366,56.769669,-15.67399,-2.414864,11.072927,21.887503,-19.405306,-21.868725,-30.066766,-36.908517,-7.118456,-171.470061,-24.166415,-181.845046
48,-7.409241,4.342315,-4.952796,0.073223,-29.646824,-43.463894,-43.633781,-42.389294,-35.211822,-41.216102,-43.236065,-42.88734,-13.84703,-22.375717,-23.580597,-22.428818,4.38612,-6.199127,-9.835613,-10.983215,18.700573,8.96125,4.741368,2.469692,-23.043318,-44.700537,-59.432367,-77.201167,-31.410715,-30.663072,-30.371923,-30.576229,-22.005198,-21.070624,-14.782347,-9.818844,-14.829865,-12.360228,-4.002958,2.320253,-9.824966,-4.167952,-1.176012,1.067035,-0.014786,-3.339501,-5.868977,-10.961941,-18.042012,-19.153084,-20.388886,-23.922535,-14.689145,-10.005627,-9.06775,-12.685147,-10.305474,-6.320996,-5.332753,-8.284207,-6.803559,-9.529255,-12.238072,-17.782162,-13.001672,-23.707468,-34.334618,-41.237781,-34.782884,-29.180558,-15.972784,-5.567338,-35.975407,-28.32483,-3.600905,17.16446,-35.974053,-31.865884,-15.99207,-3.042279,-35.783991,-45.956678,-54.683665,-61.517832,-15.803507,-164.59145,-30.395021,-179.235527
49,-5.365356,16.744831,-7.720299,13.411807,-25.643269,-35.314591,-33.476155,-31.140633,-32.268528,-35.463856,-35.640713,-32.999039,-15.633889,-21.956486,-22.416172,-20.701996,-1.270295,-12.902424,-16.591141,-16.583519,9.959243,-2.891487,-6.946072,-7.36987,-26.550991,-52.39143,-70.366864,-88.651585,-59.108606,-74.607857,-82.264911,-85.742469,-51.606122,-66.728338,-65.820609,-61.588086,-42.534261,-47.505104,-36.726446,-28.840511,-32.905507,-32.160136,-26.792997,-22.526377,6.246299,8.090915,10.580578,9.848396,-11.530484,-8.856125,-8.044853,-10.566513,-12.330036,-4.716774,-2.46056,-6.450611,-11.542271,-7.177094,-5.703347,-8.013096,-10.813385,-14.076954,-16.297714,-20.712628,-16.555665,-34.716066,-49.406977,-58.264343,-62.240054,-73.889839,-69.500876,-65.348178,-63.238205,-72.695246,-52.311242,-33.824477,-60.170504,-65.374042,-46.590119,-31.407751,-54.753752,-71.574711,-78.37791,-83.279273,-21.849065,-145.538317,-38.795522,-163.515418
50,-4.602448,10.177477,-5.428288,12.634468,-22.730839,-30.3563,-28.291942,-26.047516,-29.997371,-30.757713,-29.218349,-24.76923,-16.219509,-20.887798,-20.779785,-18.505482,-4.140797,-16.812229,-20.467006,-19.467773,5.169289,-10.112087,-13.895393,-12.658577,-27.062934,-55.175586,-75.090957,-93.787433,-76.392529,-102.568024,-115.193979,-120.12472,-70.537661,-96.268169,-99.216684,-95.61639,-60.498819,-69.827542,-57.317753,-48.702885,-48.095434,-50.338228,-43.160498,-37.586754,2.441643,5.60804,11.675652,14.530197,-11.554435,-5.454414,-4.183456,-7.109802,-9.112037,1.616913,3.515534,-1.038551,-6.135269,-1.136146,-1.52568,-4.440868,-3.909164,-7.732464,-9.754406,-12.146942,-27.378796,-57.05823,-81.523532,-98.426143,-81.622993,-111.135499,-116.189909,-119.84361,-78.264754,-105.790019,-91.542203,-77.663322,-71.252542,-86.934887,-68.153407,-53.650737,-61.943093,-80.434382,-82.619685,-83.808397,-26.781658,-133.657014,-44.553955,-149.177124
51,-4.429081,3.720133,0.358464,0.132711,-20.800403,-28.268028,-27.214702,-25.579777,-27.552463,-26.771049,-24.658401,-19.981144,-14.488289,-18.116421,-18.352775,-16.303459,-3.074169,-17.443325,-21.726368,-20.398144,5.279469,-12.038441,-15.722683,-13.28508,-25.190778,-53.626967,-74.029043,-92.770394,-83.405115,-115.30395,-130.630959,-137.281693,-78.884843,-110.156077,-114.568314,-110.902374,-68.818825,-78.958131,-64.640486,-55.379388,-55.243991,-58.218721,-49.320172,-42.625708,-6.350155,-6.799267,0.585067,7.257247,-20.972146,-13.767735,-11.759263,-13.953759,-12.762978,-2.261204,-0.341183,-4.428486,-4.232163,-1.836731,-3.861454,-6.943451,3.160194,-3.206624,-5.97424,-7.514134,-25.215562,-55.159238,-78.578655,-96.761079,-80.254558,-112.150862,-121.786914,-130.240568,-75.131208,-106.089715,-95.539711,-84.351747,-65.67933,-79.685642,-61.727563,-49.227219,-53.191561,-65.213428,-61.266156,-58.137528,-31.521904,-129.191476,-44.506656,-148.299008
52,-4.05843,-1.786866,0.349262,2.59043,-20.509975,-28.797969,-28.563755,-27.21128,-26.127479,-23.776805,-21.331203,-17.252895,-11.480278,-13.834556,-15.106876,-14.071998,1.094811,-14.773063,-20.025295,-18.759269,9.560772,-8.897632,-12.678863,-9.615886,-21.783325,-49.596406,-70.089249,-88.532657,-80.8263,-112.738701,-125.846057,-130.917842,-76.90952,-109.146499,-112.82046,-108.334778,-67.214978,-75.197882,-59.351387,-50.084326,-54.001504,-55.994511,-45.660036,-38.33289,-13.15567,-15.580467,-7.761154,0.096657,-23.422096,-14.875889,-12.590344,-14.503636,-11.113255,-3.486626,-3.171135,-6.809853,0.826366,-2.71138,-7.115879,-9.678795,10.403641,-0.010609,-4.335869,-5.356602,-22.458239,-52.766595,-75.620143,-94.633926,-78.513943,-110.601633,-117.883017,-124.403745,-71.58227,-104.903993,-97.395824,-88.246361,-59.769891,-71.484335,-53.736617,-42.448049,-44.535889,-52.200764,-44.022768,-37.905997,-35.887694,-130.481705,-44.464754,-145.211941
53,-0.916271,-0.685105,0.735843,4.514091,-21.273571,-30.772018,-32.846672,-32.888523,-25.18737,-22.930744,-21.419597,-18.519104,-10.206058,-11.952518,-15.085464,-15.534004,2.442696,-13.767299,-20.049053,-19.323303,10.568871,-7.900623,-12.370594,-9.922416,-17.767542,-43.299117,-61.925478,-78.117245,-78.922816,-110.532951,-120.235101,-122.091921,-75.436502,-108.412633,-109.494892,-103.125436,-65.986747,-73.369663,-56.593901,-47.272377,-52.905475,-54.84989,-43.490334,-35.770591,-15.396904,-20.375049,-15.267757,-8.966079,-23.199634,-17.123542,-15.089847,-16.009151,-9.190143,-4.993549,-6.12981,-9.235496,3.640755,-4.470943,-10.177082,-11.998352,12.973526,0.441136,-4.733116,-5.551483,-18.751822,-47.564744,-69.588829,-88.734714,-77.237919,-109.315188,-116.923651,-122.190132,-71.061785,-105.562916,-99.549905,-90.553455,-59.471998,-69.224497,-51.255973,-40.249515,-44.237286,-48.895573,-37.664318,-29.102161,-37.169609,-131.075842,-44.094555,-140.606882
54,-5.5074,-0.439182,-2.732231,3.116768,-12.698799,-20.129883,-21.523636,-20.483185,-22.535774,-20.110623,-19.038002,-18.176686,-11.106606,-7.965637,-8.394596,-9.647747,-0.894997,-9.434235,-12.653664,-12.829937,6.029606,-7.264389,-10.252053,-8.804135,-17.840932,-44.149025,-63.479161,-79.415167,-77.035182,-108.150355,-118.417778,-123.04015,-74.58421,-106.046282,-102.042086,-92.83974,-67.140735,-77.746047,-59.855189,-48.514316,-56.494204,-64.231108,-57.971688,-53.689662,-8.653621,-13.183765,-10.034511,-5.32925,-21.52232,-17.267864,-15.968101,-17.014755,-11.43251,-3.379955,-2.209488,-5.051708,-1.545856,-2.91489,-5.732002,-7.842361,6.201874,-0.202491,-2.604675,-3.361267,-19.28093,-47.166054,-68.369471,-85.995623,-76.448384,-107.627944,-117.027571,-123.719252,-72.315416,-104.65171,-96.557983,-85.948257,-63.439492,-75.218384,-56.877279,-44.785551,-51.410382,-59.515427,-49.222623,-40.387489,-42.882929,-131.837451,-47.032706,-137.812541
55,-6.370182,-0.066159,-4.662414,2.56431,-5.409577,-9.496147,-8.877217,-6.677342,-17.057511,-15.512078,-15.389168,-16.079178,-9.356106,-1.332985,-0.540882,-2.961628,-1.728253,-2.557469,-4.153519,-5.547936,3.840637,-2.732071,-4.149308,-3.81593,-18.213834,-44.155308,-63.05635,-77.554232,-74.96354,-106.041505,-117.645708,-125.703852,-72.795319,-101.235503,-93.044218,-82.238649,-66.02597,-77.645598,-59.531337,-47.247164,-56.300246,-66.891057,-61.105092,-56.31538,-4.438889,-7.716088,-5.203961,-1.389553,-17.257874,-14.487568,-13.502381,-14.400479,-9.821617,1.615986,3.373283,0.077556,-1.890576,2.744281,1.028515,-1.925137,4.661579,3.940899,2.796638,1.189831,-18.976958,-44.856861,-63.794295,-78.47,-75.070443,-105.744697,-116.840751,-125.067045,-71.787473,-100.242839,-90.178832,-78.963272,-63.693263,-75.68945,-57.750619,-45.307747,-52.762344,-62.232662,-52.094147,-42.656216,-49.398576,-132.473233,-51.840585,-135.817854
56,-5.586285,10.001792,-5.941286,10.970329,2.282215,1.712666,4.152586,7.017986,-12.511356,-12.34358,-12.738848,-14.213236,-9.616184,2.780285,6.206394,4.017214,-5.325073,2.519525,3.994457,2.309532,-1.368273,-0.294342,0.694302,0.366858,-20.589215,-46.482899,-65.175728,-78.33923,-75.382718,-105.624014,-118.130144,-127.742662,-72.772314,-97.315956,-87.09534,-75.804176,-65.625467,-77.360128,-60.552955,-48.400524,-55.919866,-68.036862,-63.510373,-58.977745,2.030691,1.574821,5.121019,9.424856,-12.777215,-11.508093,-11.28213,-12.687401,-9.220723,6.31624,9.626215,6.167753,-3.860087,7.495668,7.96269,4.807914,1.254318,6.692733,7.518539,5.450786,-21.397773,-47.337188,-65.561165,-78.957044,-75.924245,-106.345501,-119.917711,-130.419548,-72.046198,-95.368414,-83.554093,-72.090024,-63.478321,-74.738015,-57.946498,-45.63673,-52.514937,-62.353701,-53.059538,-43.774601,-54.863405,-123.663835,-57.660415,-126.039919
57,-4.999672,19.119397,-6.883862,19.919955,11.034588,13.244751,15.885092,18.076664,-7.703636,-10.332189,-11.716707,-13.960745,-10.84679,4.566376,11.818966,11.264849,-10.850681,5.774099,11.446335,10.127106,-8.868112,0.275883,4.529698,4.110735,-24.118275,-49.280965,-66.929168,-78.837969,-77.612778,-106.974813,-122.60088,-135.452126,-74.253342,-93.533206,-83.250489,-72.647582,-66.218524,-76.588624,-62.263302,-50.760091,-55.702736,-67.475628,-64.799512,-60.987106,9.938318,11.970349,15.763384,20.268614,-7.492596,-8.533247,-8.972918,-10.450973,-8.724781,9.980238,15.908644,13.502363,-6.515013,11.045912,14.681242,12.299538,-2.961857,8.233601,11.637508,9.876732,-25.062546,-50.916879,-68.388514,-81.009807,-78.485665,-109.270552,-126.825009,-140.818478,-73.581497,-91.322848,-78.934942,-68.026095,-63.889255,-73.659782,-58.626939,-47.028359,-52.11519,-61.205558,-53.3063,-44.874791,-59.348499,-105.891406,-64.029699,-107.466932
58,4.066578,28.455525,-4.422626,21.49333,12.677433,13.243607,12.930708,12.832237,-8.380096,-19.98971,-20.935564,-21.13357,-14.121048,-8.974983,1.108154,3.875422,-16.927574,-7.075258,2.428963,4.16914,-17.49095,-12.599991,-5.306419,-3.278841,-27.986139,-53.277,-70.000268,-80.65126,-74.726168,-100.011631,-115.578734,-129.752156,-68.791537,-80.446376,-70.123998,-61.757905,-58.697305,-67.18495,-55.625691,-46.285084,-46.891208,-58.605984,-57.943162,-55.871143,13.058435,15.92546,19.834562,24.252748,-3.858559,-10.499182,-8.918387,-7.424778,-7.861817,4.302583,14.116132,15.629156,-7.751227,7.310148,15.190137,15.368522,-5.277455,5.449688,11.295959,10.468883,-29.770533,-57.169731,-75.903922,-89.780311,-73.510848,-99.763624,-118.505166,-134.137405,-64.859516,-76.496862,-66.503638,-58.328612,-52.056984,-59.641262,-48.884713,-40.13207,-38.135863,-45.074831,-40.162518,-34.020513,-54.099037,-79.223497,-67.269441,-87.761218
59,6.10183,29.713814,-1.254044,24.691263,6.330047,3.211635,-0.906493,-3.314827,-9.866604,-30.971518,-31.062155,-27.946822,-14.173863,-23.870636,-14.070397,-7.973059,-17.086865,-20.845648,-11.461705,-6.859166,-18.774371,-22.367272,-14.40778,-10.043719,-29.285099,-54.023603,-69.504879,-78.937344,-73.295838,-93.714879,-104.121504,-114.675645,-63.305785,-69.319887,-61.027524,-56.721323,-48.93697,-52.782544,-44.108273,-38.594235,-33.281319,-39.935975,-35.323725,-30.986677,9.911436,12.310398,16.749888,21.939612,-2.566326,-13.009043,-9.012148,-4.658913,-5.4963,-4.488367,6.869081,12.274286,-4.727594,0.297277,9.340845,12.560211,-2.034794,1.99617,7.733734,8.492111,-32.189207,-61.328183,-81.526204,-97.235073,-71.24704,-95.391182,-112.357543,-126.416425,-57.804392,-67.296144,-61.35047,-56.254178,-39.754208,-43.039216,-36.62205,-31.204229,-21.103463,-21.781099,-18.175608,-13.644105,-46.629089,-50.965625,-67.155367,-64.525897
60,7.702274,28.542337,3.923161,25.463879,1.058475,-7.009449,-16.450098,-21.619847,-13.984783,-43.449663,-42.864241,-37.500532,-16.856564,-40.836662,-30.533764,-21.308332,-20.069206,-37.05768,-26.985283,-19.678013,-23.094687,-36.620682,-28.382836,-22.058149,-31.384613,-56.458166,-71.398437,-79.79762,-72.608151,-87.468753,-91.680815,-97.920203,-59.203501,-61.556128,-54.349954,-52.48337,-41.916964,-43.27152,-36.459472,-33.447921,-24.05247,-28.545374,-24.577627,-21.749911,5.768812,4.650329,6.703325,11.03211,-4.60183,-21.064906,-15.476321,-8.174904,-6.093167,-19.16656,-6.520255,2.690797,-5.384154,-13.743044,-3.189955,3.561824,-3.439099,-9.102608,-3.18496,-0.176434,-34.918338,-65.67766,-87.84827,-104.728841,-68.757709,-89.422324,-103.27485,-113.73413,-51.913771,-59.072845,-56.151277,-53.340528,-30.847302,-32.072655,-29.029143,-26.065876,-10.06943,-7.631221,-6.581287,-4.406603,-37.450264,-23.507261,-61.755655,-40.145991
61,8.042393,17.395569,7.037653,15.94493,-5.210141,-18.311634,-32.967522,-41.063553,-18.129513,-54.314633,-53.108872,-45.714421,-18.89161,-55.688965,-46.215477,-35.123852,-21.825966,-51.935807,-42.396355,-33.068791,-26.000668,-49.916909,-42.228962,-34.450745,-31.91415,-56.685421,-70.956821,-78.170152,-69.903038,-79.304201,-77.024117,-78.615709,-54.16467,-53.621655,-46.179638,-45.92337,-35.104247,-35.231018,-29.1936,-28.026993,-16.012561,-19.680961,-15.891209,-14.147031,-0.125233,-5.637429,-7.907364,-5.859959,-8.181691,-31.129635,-25.188206,-15.611779,-7.698853,-35.153389,-22.323304,-10.095406,-7.167115,-29.082619,-17.676362,-8.157773,-6.487862,-21.989663,-15.757542,-10.443444,-35.006358,-65.387391,-87.649473,-103.693885,-65.310635,-82.812258,-92.478791,-99.070289,-46.562435,-51.72974,-49.70776,-48.370919,-23.925423,-24.035758,-22.428429,-20.992176,-2.152082,1.623622,1.440372,1.961712,-28.19197,-6.774039,-53.502101,-24.863408
62,8.090778,6.199908,1.834602,-4.916685,-12.288105,-30.293793,-49.810261,-60.616676,-21.943222,-63.408211,-61.964127,-52.880665,-19.931809,-68.315563,-61.109356,-49.362522,-22.014324,-65.194347,-57.336205,-46.667358,-27.04636,-61.716888,-55.323177,-46.51545,-30.9534,-55.223955,-68.955388,-74.817787,-65.319542,-69.461723,-60.659973,-57.29197,-47.987177,-45.40974,-36.487725,-36.795996,-28.041843,-27.964161,-21.872292,-22.034232,-8.656333,-12.578577,-8.862394,-8.044226,-3.51392,-11.180534,-14.838123,-13.828629,-9.205261,-33.575638,-25.002091,-13.130528,-7.487686,-41.100105,-27.623726,-13.60207,-6.11602,-33.273869,-21.126892,-10.449509,-4.561524,-23.805954,-17.63657,-12.022762,-36.020186,-66.759865,-89.949189,-106.810512,-57.964433,-69.028464,-74.788391,-78.421335,-36.035614,-38.280155,-38.692296,-39.105826,-11.001244,-9.125581,-10.668255,-11.412508,11.888201,18.045483,16.307944,15.637057,-19.237673,-1.20368,-50.80398,-30.409642
63,-0.64048,-5.217699,1.614429,-2.992709,-12.040913,-30.241024,-50.683388,-61.895016,-20.670124,-61.919895,-61.07048,-52.620255,-18.777535,-66.529621,-60.281422,-49.049675,-21.141666,-63.435528,-56.645874,-46.653923,-26.435005,-60.790981,-55.01841,-46.688301,-30.132849,-54.132412,-67.360054,-71.957583,-65.451985,-67.810011,-57.308551,-53.361477,-48.064811,-45.69901,-36.259984,-36.519163,-28.319561,-28.221662,-21.455521,-21.489273,-9.206271,-12.860512,-8.752646,-8.005614,-1.990848,-9.532573,-13.088722,-11.554905,-8.752693,-34.462062,-26.154213,-14.204017,-7.618869,-43.824623,-30.34148,-15.787456,-7.090896,-37.290264,-25.198734,-13.455036,-6.475639,-28.038242,-21.515876,-14.648185,-37.230642,-69.007574,-92.603141,-108.937036,-61.536496,-74.195309,-79.174412,-81.471147,-39.098021,-42.891836,-43.466764,-43.220281,-13.680958,-12.691,-14.698074,-15.371277,9.458724,16.060485,14.330998,13.664946,-19.568624,-6.69832,-48.880022,-33.679292
64,0.197502,-5.333155,2.571957,-5.42667,-10.963715,-29.077274,-49.86771,-61.652595,-20.029209,-60.661125,-60.923263,-53.387215,-18.676357,-65.390167,-59.699799,-48.853729,-21.295406,-62.651253,-56.158836,-46.330742,-26.616486,-60.464619,-54.868309,-46.693451,-29.757196,-53.349417,-65.719401,-69.374637,-64.968498,-66.814656,-56.599248,-52.661591,-47.753452,-45.382595,-35.987405,-36.168945,-28.180066,-28.067767,-21.204795,-21.040076,-9.240523,-12.835465,-8.795821,-8.096856,-3.714317,-12.513874,-17.52,-16.803463,-9.197639,-36.661617,-29.380611,-17.57238,-7.410233,-46.386681,-34.093712,-19.395161,-6.782398,-40.596325,-29.20562,-16.712746,-6.456528,-30.963821,-24.876423,-17.378208,-36.992989,-68.883226,-92.755828,-109.275746,-60.852394,-72.274571,-76.684974,-78.266501,-38.512818,-41.774981,-43.12369,-43.454506,-13.146669,-12.642075,-15.480291,-16.739672,9.964281,16.333046,14.100485,13.006805,-19.207432,-12.318719,-46.144375,-39.393206
65,-0.325996,-4.341634,-1.067665,-5.890847,-10.20084,-27.886185,-48.21159,-59.705372,-19.357613,-59.444332,-60.15437,-53.011322,-18.293175,-64.215145,-58.71341,-47.978806,-20.952267,-61.698052,-55.246319,-45.326866,-26.197186,-59.53489,-53.953835,-45.743248,-29.299138,-52.800357,-65.015817,-68.550349,-64.47242,-66.010851,-56.046508,-52.164513,-47.332902,-44.749264,-35.439192,-35.636361,-27.714258,-27.490815,-20.641971,-20.338641,-8.704345,-11.993264,-8.194576,-7.623416,-2.092987,-10.035015,-14.61961,-13.830174,-7.791023,-35.419098,-27.995648,-16.298824,-6.535778,-45.591957,-32.999634,-18.063458,-6.320286,-40.26527,-28.655068,-16.019886,-6.461208,-31.126545,-24.816101,-17.078533,-37.583082,-70.389776,-95.305095,-113.334752,-60.506289,-71.454884,-75.397951,-76.900814,-37.823634,-42.182645,-44.32163,-44.345521,-12.203326,-12.252665,-15.537237,-16.776463,11.236655,17.866321,15.568088,14.569435,-19.352131,-16.981823,-47.030743,-45.605523
66,-0.40234,-3.120527,-3.017841,-6.361515,-9.721092,-27.132832,-47.031372,-57.87188,-18.616986,-58.655892,-59.443314,-52.281704,-17.580872,-63.38356,-57.74778,-46.779488,-20.219273,-60.87196,-54.244229,-44.158173,-25.398995,-58.509796,-52.924359,-44.664986,-28.844445,-52.409458,-64.391613,-67.573395,-63.861244,-65.169081,-55.246562,-51.477483,-46.358627,-43.674004,-34.448165,-34.654757,-26.413677,-26.038543,-19.389314,-19.090325,-7.211281,-10.206318,-6.865244,-6.521967,-0.122315,-6.22482,-8.170006,-5.704182,-4.972573,-32.808209,-24.16404,-12.133461,-4.032429,-43.479813,-30.10167,-14.717148,-3.669743,-38.166722,-26.105164,-13.017151,-3.442452,-28.463231,-22.141137,-14.364075,-39.51981,-74.883903,-102.344241,-123.4253,-59.245525,-68.88833,-73.180534,-74.356255,-35.150181,-40.729331,-44.982755,-44.745083,-8.419267,-8.711693,-13.904507,-15.813842,15.900984,23.595123,20.110195,18.714722,-19.505687,-20.37935,-49.7998,-52.244038
67,-0.217381,-1.733161,3.655311,5.810868,-9.423443,-26.535908,-45.930588,-55.874016,-18.025577,-58.467682,-58.561397,-50.851959,-16.730427,-62.965072,-56.686798,-45.273319,-19.267971,-60.439728,-53.477955,-43.195873,-24.47818,-57.900867,-52.193447,-43.812069,-28.367583,-51.729444,-63.427343,-66.244076,-63.050542,-64.052134,-53.904281,-50.300848,-45.162584,-42.235071,-33.098888,-33.496196,-24.896333,-24.527609,-18.041704,-17.686324,-5.562866,-8.523675,-5.450184,-5.169818,-2.718624,-9.623096,-11.508373,-8.917202,-5.962189,-38.166401,-30.244091,-17.748951,-3.673233,-50.777481,-37.890415,-21.626587,-3.619846,-46.275421,-34.37986,-19.807594,-4.876705,-35.734176,-29.173405,-19.566925,-38.982022,-75.418705,-104.216464,-125.700781,-60.823878,-73.035679,-77.114479,-76.865758,-37.456145,-45.941115,-49.693897,-48.270964,-11.459419,-13.27264,-17.423027,-18.726652,12.740234,19.696294,16.344692,14.827929,-19.397879,-22.295604,-45.8193,-46.616263
68,-0.399387,-1.068949,1.42115,0.500981,-9.40614,-26.057614,-44.640736,-53.79221,-17.079975,-57.409321,-57.815655,-50.470562,-15.709671,-61.945782,-55.405483,-43.855568,-18.156498,-59.552605,-52.304958,-41.874024,-23.337822,-56.859032,-50.982525,-42.504421,-28.067415,-51.235107,-63.55495,-67.498393,-62.112424,-62.782916,-52.793021,-49.070483,-44.027154,-40.710348,-31.799714,-32.221785,-23.535793,-22.868623,-16.67555,-16.397433,-4.169721,-6.905196,-4.139148,-4.01876,-5.467437,-13.528907,-16.041813,-14.599262,-7.887851,-39.441913,-30.932499,-18.277713,-3.978653,-51.138759,-38.5582,-22.820446,-3.037273,-46.442527,-34.519352,-20.216743,-3.940029,-36.040249,-29.273632,-19.146995,-38.01309,-73.814191,-102.819218,-124.578671,-59.6291,-70.748493,-74.147693,-73.481128,-36.919608,-43.913459,-46.834581,-45.371455,-11.303697,-11.510456,-14.663469,-15.651636,12.50289,19.566378,16.319844,14.767741,-19.531139,-23.547365,-44.132023,-46.298094
69,-0.281559,-1.04888,-0.331306,-0.669208,-9.481716,-25.968292,-44.394814,-53.246212,-16.162148,-56.335648,-56.575138,-49.333855,-14.53339,-60.745022,-54.143418,-42.602131,-16.883377,-58.350804,-51.12196,-40.707264,-22.050591,-55.45847,-49.805832,-41.583584,-27.682043,-50.492102,-62.829865,-67.293524,-60.666433,-61.294397,-51.266754,-47.466955,-42.401056,-39.096495,-30.374602,-30.738163,-21.80538,-20.958818,-15.147796,-14.946292,-2.539035,-5.024106,-2.657849,-2.655552,-5.445316,-13.570942,-15.641968,-14.421524,-8.410858,-39.095169,-28.944431,-15.438881,-4.137554,-49.592182,-36.39204,-20.774414,-2.90213,-44.144531,-31.860581,-18.176067,-3.385059,-34.155933,-27.034584,-17.183247,-37.963949,-73.347299,-101.953891,-122.969792,-59.500378,-69.638956,-71.884658,-70.528788,-36.652259,-41.452724,-43.607492,-42.435932,-10.965144,-9.098398,-11.788684,-12.873935,12.639575,21.013437,18.180316,16.627911,-19.57699,-24.765685,-44.227621,-47.136742
70,-0.068287,-0.840485,-0.182556,-0.759104,-9.625076,-25.971291,-44.379936,-53.066792,-15.250282,-55.388775,-55.575005,-48.489487,-13.256149,-59.839027,-53.215382,-41.759468,-15.473499,-57.559811,-50.310196,-39.852745,-20.628124,-54.357204,-48.871983,-40.75058,-27.416411,-49.659181,-61.492215,-65.689187,-59.543514,-59.866518,-49.85777,-45.958084,-41.172445,-37.777537,-29.203023,-29.456299,-20.47501,-19.399312,-13.798932,-13.687485,-1.182823,-3.349317,-1.246796,-1.471771,-5.494732,-13.826432,-15.678463,-14.6376,-8.799866,-37.912823,-26.96259,-13.16708,-4.422455,-48.227234,-34.4389,-18.559765,-2.873085,-42.886311,-29.964443,-16.052513,-2.958401,-32.892723,-25.310749,-15.274155,-38.250718,-73.537126,-101.962011,-122.962449,-59.868608,-69.468707,-71.772605,-70.77139,-36.867268,-41.306295,-43.906012,-43.091345,-10.903511,-8.165855,-11.642428,-13.400728,13.088093,22.336199,18.993161,16.970236,-19.523558,-25.769046,-44.288458,-48.058722
71,0.171032,-0.71523,-1.242199,-0.326431,-9.191322,-25.751049,-44.605339,-53.417736,-14.044716,-54.252651,-54.648674,-47.873222,-11.885021,-58.86668,-52.460529,-41.175568,-14.152187,-56.993202,-49.736298,-39.205982,-19.425293,-53.491093,-47.93232,-39.722122,-27.297659,-48.940703,-59.708585,-62.674229,-58.547449,-58.562819,-48.728522,-44.780479,-40.065773,-36.583488,-28.13794,-28.253728,-19.214437,-18.12345,-12.659989,-12.621895,0.083746,-1.94063,-0.033098,-0.506137,-4.308758,-11.992218,-13.038723,-11.851708,-8.314728,-34.876454,-22.915604,-8.777905,-4.361721,-45.603356,-30.633763,-14.402012,-2.824139,-40.343903,-26.694397,-12.91095,-2.80949,-30.984764,-23.000199,-13.128525,-38.91033,-74.270626,-102.552703,-123.581627,-61.77308,-72.491599,-75.389586,-75.856503,-38.605246,-43.246703,-45.653104,-44.894451,-12.225544,-8.805905,-12.462054,-14.292046,12.370695,22.458705,19.251086,17.44435,-19.32395,-26.655905,-45.502081,-48.556782
72,0.280483,-0.698595,-1.58448,-0.962985,-8.88287,-25.891926,-45.450874,-54.821663,-12.891895,-52.816303,-53.735756,-47.510982,-10.709987,-57.694668,-51.814979,-40.899742,-13.092361,-56.446117,-49.330032,-38.773899,-18.501903,-52.665859,-47.176357,-38.948376,-27.005999,-48.071461,-57.64832,-59.468512,-57.390357,-57.309897,-47.818753,-43.856112,-38.956069,-35.445311,-27.075505,-27.076907,-18.07676,-16.940663,-11.595511,-11.700598,1.210889,-0.621573,1.109643,0.476627,-2.688469,-9.484154,-9.808857,-8.098172,-7.76183,-31.991204,-18.641911,-3.830899,-4.459305,-42.98695,-26.380829,-9.505406,-3.024926,-37.937817,-23.160645,-9.307858,-2.743767,-29.177605,-20.872845,-11.381207,-40.272205,-76.223949,-104.504017,-125.820068,-63.853696,-74.943508,-77.540573,-78.69266,-40.010111,-45.793698,-48.114933,-47.176296,-12.785411,-9.741745,-13.736737,-15.510814,12.719449,23.094246,19.783004,18.169256,-19.106558,-27.487952,-47.149652,-49.653219
73,0.201805,-0.693352,-3.387074,-1.296858,-9.036575,-26.741237,-47.184173,-56.591148,-11.97171,-52.268383,-53.254486,-46.929577,-9.430355,-56.940193,-51.510223,-40.732395,-11.817615,-56.129162,-49.14862,-38.491012,-17.415687,-52.011406,-46.642044,-38.279125,-26.614316,-46.814939,-54.75648,-55.132824,-55.863393,-55.382919,-46.119703,-42.444436,-37.401965,-33.830315,-25.765199,-25.650541,-16.638253,-15.434874,-10.403104,-10.644542,2.539331,0.725289,2.233858,1.590579,-0.460945,-5.52562,-5.024815,-3.146542,-5.370163,-26.625183,-14.105255,-0.559124,-3.085808,-37.753807,-20.329857,-3.27475,-1.862995,-32.510376,-17.083111,-3.505875,-1.244957,-24.181114,-15.717464,-6.984032,-41.700479,-77.952346,-106.341344,-129.150823,-65.30584,-77.731677,-83.121037,-87.690339,-40.946803,-48.125424,-50.935058,-50.013761,-13.225332,-11.312428,-16.008985,-17.791102,13.220727,23.501627,19.915712,18.477718,-18.986544,-28.338431,-50.618517,-51.107204
74,0.492886,-1.045805,-4.329288,0.776987,-9.025143,-27.948383,-49.566799,-59.244702,-11.734772,-51.865368,-53.217281,-47.241863,-8.940766,-56.405983,-51.455326,-41.053322,-11.257279,-56.096008,-49.113819,-38.438599,-16.873146,-51.591557,-46.158978,-37.670094,-25.88941,-44.893099,-50.941373,-49.857295,-53.596381,-52.764313,-43.68875,-40.28461,-35.071054,-31.101873,-23.474845,-23.50979,-14.445107,-12.79434,-8.188938,-8.810215,4.517617,3.181554,4.331643,3.487256,2.29676,-0.232178,1.160453,3.729675,-2.248913,-19.397873,-8.978474,2.414085,-1.247841,-29.549389,-12.692883,3.007782,-0.485528,-26.053895,-10.976384,1.93539,-0.094758,-19.011864,-10.723114,-2.904282,-43.979026,-80.385679,-109.182419,-133.102939,-71.13586,-86.20966,-95.413837,-104.365109,-46.792541,-54.27532,-56.180679,-55.118856,-18.619638,-17.403378,-21.311117,-22.462305,8.965345,17.703411,14.179772,13.069839,-18.703525,-29.571788,-55.157672,-50.517769
75,-0.208203,-0.679421,-3.934262,0.253412,-9.113296,-28.724292,-51.119419,-60.7821,-11.188819,-51.4029,-52.761131,-46.600238,-7.95576,-55.332881,-50.569644,-40.221553,-10.010536,-55.1235,-48.120964,-37.337459,-15.536087,-50.087253,-44.803585,-36.299274,-24.870022,-42.779624,-47.281019,-45.438071,-50.833983,-49.330058,-40.623583,-37.599005,-32.417361,-27.647617,-20.657631,-21.064023,-12.059825,-9.607821,-5.630335,-6.822816,6.583081,6.069726,6.844681,5.638918,4.343262,3.747128,5.220268,6.365101,-0.230804,-10.437561,-2.081188,6.19693,-0.411655,-17.263664,-3.365078,8.165268,0.389729,-14.432705,-2.110645,7.209034,1.889855,-9.980781,-3.740364,0.865242,-44.181444,-80.272529,-108.31779,-132.263473,-74.208688,-87.9439,-97.602204,-108.59412,-50.104766,-54.885983,-54.152932,-53.379613,-21.522637,-19.508616,-21.199707,-21.9474,6.738847,14.400869,12.515907,11.983538,-19.149445,-30.391079,-59.329651,-50.404227
76,1.8139,-0.651819,-3.648136,-0.083968,-8.342353,-26.725856,-46.205154,-53.495521,-13.654323,-52.951286,-52.478679,-45.730796,-10.665149,-56.671989,-50.496414,-40.254695,-11.946258,-55.624832,-47.038101,-35.870784,-15.978641,-49.062961,-42.917037,-34.375831,-25.155692,-43.795442,-51.065961,-52.049626,-47.431862,-46.279359,-39.603763,-37.339177,-29.007114,-23.584242,-18.452857,-19.527518,-8.999987,-5.617256,-3.593837,-5.995885,8.841609,9.826751,9.613094,7.831187,8.492123,9.771595,11.129334,11.129128,0.561882,-3.638306,2.338944,7.600147,-1.73275,-2.834793,8.143513,14.443474,-1.277893,-1.075859,8.108471,12.769318,1.145233,0.676472,5.44487,6.424347,-43.040161,-77.628941,-104.344161,-127.431068,-78.776678,-94.096343,-106.681395,-120.718116,-58.286671,-62.036774,-57.601757,-56.084744,-32.329429,-30.82869,-28.677361,-28.418534,-5.915344,-0.659248,0.13937,0.711383,-17.606146,-31.158986,-63.248388,-50.604283
77,1.427651,1.991191,-4.692604,1.734266,-8.522335,-26.171127,-43.018696,-48.075245,-16.447414,-54.645264,-52.367374,-44.739384,-12.885315,-57.71236,-50.245743,-39.710667,-12.894196,-55.248024,-45.606514,-34.143745,-15.209404,-47.059513,-40.700214,-32.298809,-25.553839,-45.380575,-55.539808,-59.923711,-45.395451,-44.357791,-40.105731,-38.743715,-26.949608,-20.536556,-17.287577,-19.153724,-7.19995,-2.659695,-2.293595,-5.709622,10.100126,12.502507,11.392229,9.075804,12.079605,15.802551,18.240177,18.202709,2.716621,8.3741,12.917931,14.710808,-0.747505,12.438938,20.103619,21.272152,0.023689,13.717438,20.108974,20.508968,3.702839,12.937946,16.411537,14.280865,-41.362828,-73.781702,-98.682923,-120.165891,-80.276573,-92.613249,-103.74135,-117.208513,-62.06905,-62.364353,-55.94705,-54.331804,-38.204023,-35.784549,-31.454437,-30.609204,-13.542724,-10.054863,-7.528863,-6.245603,-16.388895,-29.205735,-68.151392,-48.907957
78,-1.88998,3.593732,-1.42931,1.533775,-8.046994,-24.073986,-38.384217,-41.682118,-15.821366,-52.588086,-49.182724,-40.67957,-11.678582,-55.175068,-47.054501,-36.374634,-10.784924,-51.749771,-42.08091,-30.647747,-12.128655,-42.466256,-36.338597,-28.202099,-25.552722,-45.845939,-57.234703,-62.117228,-43.147816,-42.782538,-40.635606,-40.12459,-24.929728,-17.977329,-16.235579,-18.726133,-5.382987,-0.176087,-1.231309,-5.214736,11.535484,14.709152,12.594781,9.86595,15.521794,20.475666,22.958302,22.744389,2.564999,14.625813,19.281704,20.323322,-2.553097,23.567345,27.846371,23.807202,-2.246544,22.97279,25.990048,22.231842,1.742581,19.675644,21.952126,17.155209,-38.845307,-69.251265,-92.923653,-112.595531,-81.334021,-92.408565,-102.179141,-114.401681,-66.383101,-64.995788,-54.960059,-52.384032,-45.410302,-43.275541,-35.38963,-33.776018,-23.241502,-22.501757,-17.538975,-15.527116,-18.484274,-25.723502,-69.786101,-47.485681
79,-7.099594,6.283185,1.887039,1.296321,-0.513085,-9.774411,-17.344162,-18.030316,-13.067482,-43.422478,-39.480549,-32.257519,-12.418293,-40.867825,-31.491131,-23.442673,-12.233815,-37.339737,-27.351048,-18.987729,-12.437783,-30.821148,-24.120804,-18.663609,-28.403603,-51.277641,-66.038503,-73.910427,-55.171622,-60.76804,-64.633069,-67.987605,-38.988611,-34.934536,-32.00388,-32.893037,-20.195756,-16.799329,-16.039984,-18.420383,-2.814071,-1.450696,-1.94599,-3.099049,17.18224,23.13414,26.659642,27.231549,0.895123,14.444241,18.423855,18.228676,-6.018184,28.945668,31.91478,25.037018,-6.114223,28.104676,28.858624,21.82156,-1.873615,23.477589,25.060891,18.161797,-34.19539,-61.910976,-82.712075,-99.449147,-76.541628,-86.496804,-94.66324,-104.14475,-64.109741,-63.232444,-51.046963,-46.508935,-45.931927,-45.174231,-34.727969,-31.810404,-26.570875,-27.581316,-20.534692,-17.36429,-25.468162,-19.339204,-67.783356,-46.088247
80,-5.317807,9.178754,0.037789,2.774841,6.244732,2.018841,-0.104439,1.141629,-13.134819,-35.815567,-31.519523,-26.038559,-15.881733,-28.791263,-18.315067,-13.159092,-16.080723,-24.716331,-14.582199,-9.486728,-14.401439,-20.207714,-12.977062,-10.193229,-30.734563,-56.184779,-74.597709,-85.682581,-64.946934,-77.445931,-87.365193,-94.994941,-50.986611,-51.454179,-46.862153,-45.563289,-33.525243,-32.827346,-29.606945,-29.717719,-16.462765,-17.42512,-15.801239,-14.586972,19.572361,27.888313,33.45068,36.115036,1.30624,13.269115,17.452869,17.998352,-7.144604,32.528057,36.015266,27.950317,-8.001801,31.260681,31.290802,22.576584,-4.526642,26.074447,27.94265,20.368561,-29.395166,-53.590855,-71.349631,-84.52984,-72.349068,-86.881407,-97.722957,-107.453414,-62.377167,-63.502083,-49.945311,-43.429664,-46.860955,-48.254662,-36.904986,-32.652933,-30.080861,-32.684129,-25.091335,-20.898692,-30.314261,-10.144546,-67.273859,-43.297502
81,-6.512329,12.480808,4.632866,16.434724,11.069321,10.717655,10.853302,12.297306,-11.436756,-27.314392,-24.101589,-20.037311,-16.478908,-14.893204,-5.176014,-3.401607,-17.182422,-11.699444,-3.124569,-1.666534,-15.006546,-10.620083,-3.779331,-3.329876,-30.910614,-57.360668,-75.558063,-86.399077,-73.52004,-92.379496,-106.887277,-118.313592,-61.736537,-66.509115,-58.897753,-54.795988,-45.660397,-48.342533,-41.708186,-38.607358,-28.730892,-33.588877,-29.873904,-26.054086,18.268924,26.150734,31.562004,34.633392,-2.082688,8.8572,13.404396,14.66732,-10.291558,27.538902,32.062259,25.06628,-10.757481,26.72248,28.18848,20.720855,-6.977646,21.901874,24.959015,18.742149,-28.447606,-52.225103,-69.08432,-80.645964,-71.401397,-88.330281,-99.862621,-109.364645,-60.953492,-64.544158,-51.886661,-44.558616,-45.676027,-49.166098,-38.540643,-32.990522,-29.25637,-33.696107,-26.826516,-21.83938,-35.942276,2.178128,-61.756679,-27.020912
82,-3.235416,18.600601,4.132564,16.151623,14.110702,16.175548,17.959419,19.44516,-12.80135,-22.358414,-19.780186,-16.986695,-20.008061,-9.443207,0.834354,1.822723,-21.359917,-6.051476,2.661461,2.910599,-18.447109,-6.487622,1.02903,0.778507,-32.99682,-59.866555,-77.654403,-88.257659,-80.727777,-104.60935,-121.965177,-135.831066,-70.815582,-82.596709,-74.486187,-68.406569,-56.177196,-64.857285,-56.788464,-50.8655,-39.668125,-49.369022,-45.01103,-39.351419,18.690823,26.475117,31.391854,33.764008,-3.137249,1.411457,4.748085,6.69318,-12.877361,21.695549,27.972325,23.132172,-14.441128,21.225254,23.686798,17.619759,-11.537315,16.561581,20.774506,16.200222,-27.007142,-50.823133,-66.700332,-77.156652,-71.878295,-95.623826,-112.011885,-124.81742,-62.432822,-68.799361,-55.975563,-47.924446,-47.639943,-53.115414,-41.945456,-35.155695,-31.702316,-37.554717,-30.858219,-25.154636,-38.166023,19.915551,-56.612446,-11.732467
83,4.251777,21.785305,0.665966,23.066134,12.705174,14.357483,17.061608,18.865414,-19.997348,-26.049385,-23.048332,-20.277122,-27.257652,-12.12347,-1.318908,-0.398918,-27.328216,-6.818882,2.27948,2.100438,-22.313346,-6.43103,1.773022,1.409363,-34.768131,-63.193476,-82.250931,-93.669206,-82.815972,-107.210605,-125.291969,-140.046649,-71.211088,-83.028561,-75.001075,-69.219026,-55.498486,-63.113911,-55.008922,-49.398187,-38.31886,-46.123272,-41.616283,-36.334616,18.49078,27.11336,33.384733,36.613982,-1.708952,-0.771629,1.453165,2.775725,-11.498142,20.160879,27.469425,24.269417,-13.279203,20.028649,23.102824,18.015713,-10.820618,15.620636,20.085165,16.406136,-26.347807,-50.520198,-65.334155,-74.367385,-71.845517,-99.207035,-117.319042,-131.293843,-62.157751,-68.728637,-56.744476,-48.708549,-47.138541,-52.13812,-41.545847,-34.147604,-31.210047,-36.270432,-30.171949,-24.243715,-32.945315,40.326483,-54.977549,9.959294
84,4.819977,23.704723,-3.184147,27.984602,7.041905,5.659744,6.244618,6.790741,-28.325237,-31.077575,-27.273777,-23.274112,-34.21558,-17.74221,-7.339771,-6.524105,-32.813255,-12.518234,-3.843384,-3.903969,-26.539684,-11.340591,-2.933967,-2.759994,-34.236423,-61.94127,-80.241054,-90.898891,-76.433196,-101.261197,-119.56626,-135.043828,-64.021524,-78.655495,-70.216856,-63.862937,-48.267901,-59.159266,-51.070178,-44.855234,-31.695819,-41.250689,-37.057669,-31.571485,18.367092,27.226599,34.041018,37.237124,1.565855,3.286263,6.606142,8.820197,-6.475399,23.917425,30.120999,26.589409,-7.757646,23.603245,25.844405,20.645302,-5.398407,18.92006,22.508372,19.044846,-26.884586,-51.894213,-67.209751,-76.727759,-72.336113,-101.779848,-120.618392,-135.945641,-62.57114,-68.477573,-57.016295,-50.239107,-47.64618,-51.342751,-41.598582,-34.990368,-31.811763,-35.363307,-29.912771,-24.805261,-27.312521,61.927848,-57.348879,35.840538
85,11.094441,27.039487,-3.871742,33.428746,-3.525467,-11.186417,-13.531437,-13.094696,-39.410454,-44.863461,-38.155644,-30.823712,-40.942143,-33.27166,-21.23782,-16.999009,-36.433297,-26.11773,-16.33635,-13.24823,-28.626114,-21.90992,-12.875508,-9.912724,-34.493342,-62.595121,-81.555449,-92.809801,-64.100343,-83.346458,-99.486472,-113.030693,-47.855458,-59.577638,-55.92197,-52.842928,-30.084011,-39.373557,-36.392556,-33.22991,-13.155858,-20.206032,-20.009042,-17.535302,19.372032,29.549852,38.232531,42.51475,4.773726,7.914459,12.14023,14.747904,-2.146854,28.553255,34.52076,31.044216,-2.690248,28.412304,30.515001,25.326016,0.127522,23.711495,26.990198,23.446552,-28.791117,-53.974368,-68.733387,-77.852363,-74.762755,-104.16614,-122.178924,-137.440341,-65.154555,-70.30097,-58.565885,-52.532765,-50.534796,-52.700883,-42.424556,-36.373448,-34.815093,-37.075701,-31.323125,-27.041762,-15.738075,86.4332,-60.740616,66.735149
86,12.283928,28.736215,-5.390888,21.747247,-14.694935,-29.584546,-34.654313,-33.277703,-48.594338,-60.050835,-52.385891,-43.331578,-45.11697,-50.439251,-38.480954,-30.60505,-37.788151,-40.903965,-31.382824,-24.969544,-28.723469,-32.614048,-24.262001,-18.880921,-33.07717,-59.204542,-78.392704,-91.416403,-52.416343,-61.494352,-73.096896,-83.757024,-33.787461,-38.333007,-38.139494,-38.810091,-14.86351,-18.657227,-18.952708,-19.076252,2.298788,0.828962,-1.219305,-1.573858,18.113022,31.143305,43.986231,50.531507,9.494173,15.7183,22.259176,25.95373,4.196754,34.866331,40.553673,37.24768,4.486181,35.434501,36.460184,30.677055,7.651806,31.012562,32.964094,28.458561,-28.486508,-51.628124,-63.269036,-68.605337,-67.320397,-94.805037,-109.293397,-120.856137,-56.99643,-62.03832,-51.503693,-46.031495,-42.13535,-43.013348,-33.51959,-28.525371,-26.693851,-27.566124,-22.723015,-19.611816,-3.474798,112.285575,-66.152155,85.598556
87,4.551052,20.279928,-7.435421,25.95352,-19.897797,-36.70982,-42.783245,-41.228588,-48.898499,-63.080727,-54.852368,-45.146462,-42.319542,-53.204991,-42.107186,-33.766285,-32.97147,-43.089856,-34.567898,-27.434738,-23.170498,-31.747834,-24.785591,-19.28563,-28.479481,-49.956485,-65.401979,-75.477881,-39.184212,-42.05873,-50.125897,-58.63942,-19.702753,-17.403539,-17.441015,-19.981828,-0.374183,2.578907,0.608371,-2.566977,16.515148,21.019921,18.531342,16.456701,17.433288,33.47664,49.563085,58.949644,15.464819,27.537758,36.885549,41.404386,12.684437,46.29756,51.579586,47.224983,13.734896,46.354351,45.861837,38.508236,16.76841,41.529568,42.031763,36.179638,-27.960062,-48.964576,-58.706534,-62.20563,-61.194072,-84.259098,-94.497332,-102.223093,-49.895973,-53.227401,-43.384373,-38.386091,-34.674302,-32.765584,-24.477311,-21.204786,-18.935832,-16.843895,-12.790116,-11.417278,0.747929,130.036694,-73.915901,109.023267
88,1.857536,21.123118,-3.212597,21.060962,-21.855738,-38.928783,-45.291315,-43.427662,-47.51215,-62.723711,-54.477121,-45.358063,-40.248499,-53.324369,-42.710947,-34.354637,-30.800554,-44.214998,-36.155067,-28.523541,-21.178368,-32.405216,-26.411985,-20.965662,-25.788639,-42.670974,-54.051445,-61.885454,-32.113388,-32.612295,-39.904753,-47.803532,-14.20441,-11.130339,-11.16072,-13.463381,3.710057,7.047136,4.719954,1.276535,19.495346,24.419565,21.693278,19.339797,16.49279,34.523609,52.587238,63.314129,18.954346,36.9673,48.315536,52.924187,16.368679,51.407845,58.23175,54.701202,16.911987,49.946033,51.276569,44.682598,19.031559,43.468723,45.090099,39.685215,-26.340508,-42.847184,-47.971258,-48.01967,-52.998501,-70.84876,-74.668826,-76.838779,-41.026844,-42.481362,-30.738694,-23.725144,-25.434821,-20.974077,-11.534198,-7.663954,-9.389434,-4.449098,0.598986,2.429484,2.342079,149.008197,-77.391884,127.932614
89,7.711601,22.154998,-1.626194,22.469765,-27.916689,-47.955734,-55.764879,-52.34808,-47.50835,-70.526716,-61.546777,-51.123218,-36.799936,-64.527849,-54.162363,-42.343506,-26.159631,-53.688589,-45.722671,-34.618618,-16.559463,-38.357036,-33.649915,-26.001566,-23.915447,-36.911865,-44.113537,-48.172639,-20.428259,-12.626391,-15.850263,-20.421362,-0.344271,10.124684,6.815269,1.819087,18.469326,29.100703,23.293577,16.727056,33.986766,45.664071,40.198592,34.559007,17.368481,38.022068,57.203487,68.268929,26.456131,47.68111,57.64159,59.825981,23.508785,57.185062,62.577633,57.574905,22.887657,54.597691,55.32296,47.494549,23.43647,47.227146,48.718712,42.699566,-24.05412,-36.008135,-36.117149,-31.431732,-42.0468,-50.222833,-47.581465,-44.601933,-29.289381,-25.408856,-12.498944,-4.052741,-13.799062,-5.208246,5.473742,10.483077,1.387624,9.384809,15.755624,18.658251,9.841987,169.293614,-79.229771,148.532798
90,-4.319709,16.172791,-1.104527,19.156188,-22.791087,-39.558381,-47.411345,-46.517499,-39.685662,-57.211173,-50.755251,-44.225796,-31.688353,-52.860919,-45.457667,-36.766377,-23.597186,-43.89263,-37.661969,-29.585908,-15.910641,-30.589303,-26.541213,-21.07976,-11.568427,-13.929189,-13.925428,-12.657785,-8.553037,1.302915,0.687554,-2.431985,2.106924,14.007679,13.803619,9.95019,12.495702,24.322592,22.371458,17.159871,21.119425,33.068469,31.598908,27.83104,17.173634,39.767624,59.654217,71.346554,30.555222,55.614773,66.760289,69.233185,27.147229,59.203251,65.630288,62.310276,24.939938,55.237748,57.341641,51.082558,23.561932,46.471322,48.426693,43.37146,-22.445367,-32.127066,-29.874911,-23.59687,-32.509221,-34.408879,-28.121934,-22.230877,-18.065114,-12.414587,-2.544926,4.983333,-1.826719,7.745848,15.264646,19.129778,13.539538,21.669603,25.389676,27.054659,5.394282,183.747481,-80.462294,165.970062
91,-11.380085,13.220282,-4.054298,18.583521,-14.035143,-24.969292,-30.805258,-31.917824,-30.598126,-34.92171,-27.852053,-24.16,-27.08285,-33.107466,-26.296435,-21.13139,-21.791892,-27.552275,-21.007554,-16.396512,-15.620625,-18.485241,-13.713999,-10.601206,-7.094524,-3.952342,2.628258,10.125789,-3.849287,4.406293,4.753806,2.631858,3.674001,14.318382,15.223088,12.747174,11.080913,22.736087,21.261234,16.740796,16.900797,28.178195,27.532853,24.519205,19.864471,44.733238,65.079792,77.517689,36.150536,63.873356,76.283341,80.128258,31.317421,64.654759,73.528954,72.955925,27.109165,58.241066,63.354126,60.074307,23.510914,47.489342,51.528385,48.702198,-20.163776,-27.754081,-24.28062,-18.650236,-26.539425,-21.613583,-12.846389,-5.947559,-10.89113,-0.030881,9.744166,16.41999,5.957038,18.484862,24.760829,27.424198,21.529936,31.784901,34.589852,34.844671,-5.904052,195.48215,-84.434841,183.06797
92,0.007804,18.912385,-0.674824,14.275078,-10.124284,-21.693924,-29.752641,-34.037349,-30.723472,-30.888662,-24.475679,-21.197708,-29.754049,-29.91033,-23.523576,-18.682354,-26.710504,-26.663057,-19.901138,-15.505119,-21.981628,-21.204025,-15.317762,-11.671114,2.833176,10.7736,19.263782,27.334431,5.964138,14.904493,15.033681,12.260389,7.077128,18.19737,19.477938,17.121401,7.870127,18.88443,18.673608,15.263738,7.32768,16.836015,16.877672,14.453604,22.508709,48.202538,68.037976,81.021469,40.643853,67.112492,79.621479,85.255955,33.615189,64.017918,74.758038,77.828614,27.049713,55.186135,63.85405,65.095024,20.934002,42.385941,48.702713,49.252167,-17.35772,-21.760969,-16.768312,-10.889105,-17.676414,-8.26701,1.323508,8.571784,-2.699938,10.891932,20.985815,28.033439,12.529208,26.200465,33.227847,37.053211,26.121795,36.88189,40.783368,42.512095,-5.630482,213.036822,-84.843899,195.985335
93,1.406079,15.303993,-1.170101,19.331917,-6.464917,-18.737772,-29.195504,-36.933495,-32.947415,-28.463248,-22.550148,-19.765887,-34.75819,-28.332665,-21.876973,-17.258211,-33.58243,-26.980151,-19.636242,-15.501732,-29.828047,-24.339083,-17.524292,-13.697457,13.732291,26.387063,36.235562,44.033781,16.14693,25.27902,25.228026,21.782112,10.033473,21.101147,22.784186,20.382397,3.722031,13.879578,14.920666,12.470292,-3.287962,3.912821,5.039853,3.728064,26.266674,54.102917,74.294895,87.040352,49.438351,76.474503,86.194542,89.66629,41.860588,72.424153,80.486962,81.086575,34.195656,62.171391,68.451702,67.826042,26.329365,48.362675,53.260849,52.559807,-15.833991,-19.219038,-14.793126,-9.436241,-7.737537,6.292342,12.984716,17.02549,7.569254,24.161355,29.960287,32.832114,21.547856,36.435262,40.228751,41.345198,33.130109,44.506535,46.384958,45.980728,-3.837003,227.057657,-85.6266,214.034094
94,2.804351,11.695602,-1.623447,12.893535,-3.057037,-16.100835,-29.133842,-40.606258,-37.26995,-27.645463,-22.075458,-19.864534,-42.095272,-28.374469,-21.35662,-16.858961,-42.407667,-28.503553,-20.212863,-16.386348,-39.159879,-27.890413,-20.333587,-16.680232,25.60282,42.888045,53.543597,60.223837,26.699088,35.529872,35.33684,31.197025,12.543034,23.029712,25.141829,22.530163,-1.363375,7.721531,10.002406,8.360457,-14.946131,-10.591387,-7.980604,-7.657415,27.778003,56.800003,78.151359,92.209316,49.536632,79.992382,92.933109,99.324131,40.650787,74.730629,87.530216,91.803028,32.273369,63.563209,74.333164,77.482704,24.343815,48.714054,56.631008,58.319732,-16.076423,-19.187829,-14.911724,-10.271946,-5.060038,9.220782,13.893077,16.119217,11.872604,27.554096,30.613175,30.955321,26.630421,40.639219,42.042336,40.996642,38.375535,49.340395,49.66824,47.562193,-0.682314,237.707788,-86.899709,225.882158
95,13.474389,14.846899,-1.236225,11.666469,-9.150513,-26.373602,-42.501355,-54.490883,-44.297722,-44.964358,-41.544091,-38.29061,-48.271477,-47.314648,-42.486981,-35.703238,-48.504965,-47.416461,-41.559883,-35.675686,-45.731077,-45.437983,-40.709656,-36.137959,21.021038,36.399632,48.077018,55.412936,27.576289,32.625083,29.522014,24.140879,18.744158,24.994214,22.596662,17.681718,8.293377,14.069362,11.400077,7.524862,-3.285851,-0.409733,-1.739676,-3.392105,29.505523,58.421012,80.279811,96.110275,51.582195,83.100391,97.257316,105.437896,42.225677,77.13319,92.916458,100.142852,33.805194,65.396701,79.620311,85.979518,26.103847,50.386974,61.303573,66.071239,-15.345225,-17.292894,-12.810654,-8.903792,0.548578,17.399339,23.125924,26.208702,17.828727,35.391186,39.686285,40.540479,31.982119,48.181969,51.522889,51.247618,42.380481,56.090826,58.552864,57.558547,13.107382,251.759962,-87.820627,236.753902
96,19.832874,13.590549,-0.089459,12.062177,-16.966644,-40.066927,-61.146687,-76.594883,-51.718403,-65.164393,-68.031864,-67.43854,-54.005745,-68.039852,-68.641743,-63.909582,-53.691118,-66.711577,-66.614845,-62.788159,-51.150129,-62.009096,-62.192059,-59.855129,18.099935,31.644369,41.114326,46.320781,33.048623,36.392217,31.031849,24.0475,25.834082,29.668832,24.442987,17.384995,15.824149,19.879261,15.854764,10.682852,3.692502,6.435647,4.771979,2.529476,30.811501,59.395054,81.303475,98.389012,54.912197,86.752705,100.886685,109.093151,45.052357,79.867836,96.108685,103.770573,36.191506,67.448113,82.387344,89.793915,28.170216,52.066052,63.843304,70.062046,-14.264271,-14.789829,-10.258522,-7.164431,7.145548,25.617554,31.741515,34.998664,24.282584,42.965628,47.520449,48.536515,37.29284,54.97533,59.181669,59.433203,45.880346,61.347552,65.187724,65.374568,33.189961,264.833086,-87.660381,248.298654
97,13.638222,7.855221,0.65633,11.234722,-22.493981,-48.268027,-70.536072,-86.39589,-55.829762,-75.777426,-83.543827,-87.598212,-56.991337,-78.297295,-85.098782,-85.969649,-56.061281,-76.114111,-82.300976,-83.907395,-53.787363,-70.547591,-75.726517,-78.08535,8.711019,18.053511,25.289992,29.623062,31.859507,34.057952,28.536514,21.912356,31.124387,33.925213,27.246443,19.269259,26.149027,30.229222,24.880093,18.480237,17.720367,21.904643,19.852689,17.04391,30.427597,59.09166,82.146836,99.893875,55.12833,89.562676,104.462013,112.633141,45.443836,83.133019,99.950958,107.07589,37.256367,70.788998,86.102555,93.193257,30.162655,55.505894,67.828755,74.115853,-14.41456,-14.641307,-9.71045,-6.748271,12.109787,31.728214,37.958126,40.87093,30.606987,50.116819,54.295643,54.374856,44.019337,62.826129,66.255042,65.363873,52.136181,68.892267,72.16084,71.369879,47.029839,272.35516,-86.802395,259.200229
98,11.06979,6.837506,-0.858009,6.718049,-27.77504,-55.69384,-77.727437,-92.899659,-59.614769,-83.819893,-95.084588,-102.314896,-58.990254,-85.24791,-96.540173,-101.117524,-57.034482,-82.116028,-92.524041,-97.074852,-54.454789,-74.547364,-82.551178,-87.29139,2.221792,9.465794,15.764299,20.306314,31.275348,33.6992,29.5854,24.640785,34.434895,37.363025,30.919752,23.150019,32.701622,37.405472,32.106941,25.278346,26.808274,32.722519,31.341557,28.7575,29.432053,57.582813,81.530159,101.384766,51.78265,86.10704,104.943375,117.68795,41.891361,80.187858,101.407745,113.460022,34.046951,68.439102,87.995544,99.853912,28.158245,53.835205,68.828865,78.822979,-14.507703,-14.915861,-10.004406,-7.56566,12.348465,31.56954,39.193715,43.669138,31.538653,50.699633,56.335,57.910945,45.230905,64.490883,69.05493,69.227893,53.128313,70.222137,74.290982,74.379607,58.158801,279.082121,-87.601232,265.807733
99,7.74472,5.312709,0.104931,7.031977,-30.250122,-58.722084,-79.751564,-94.842625,-61.145828,-86.999966,-97.653534,-104.159386,-58.912148,-87.631748,-97.672314,-101.1362,-56.230522,-83.270222,-92.521168,-96.040123,-53.579109,-74.679131,-81.875748,-86.017159,-1.963441,2.858167,7.665066,11.550921,29.627749,33.758073,31.932299,28.847075,36.097179,40.82668,36.339006,29.993731,37.635073,43.913385,40.242323,34.2522,34.790182,43.254484,43.045421,40.986786,29.286518,56.931782,81.014339,101.538997,52.368244,85.146435,104.626224,119.191623,42.32706,78.98814,101.071621,115.399463,34.35371,67.109733,87.334545,101.261593,28.266094,52.518734,67.731434,79.565471,-13.361369,-13.398876,-8.888367,-7.611196,15.933039,33.761667,41.701498,46.871687,34.16365,52.626554,58.949709,61.474634,46.556118,65.8611,71.095966,72.059557,53.269314,70.489947,74.794075,75.404478,65.901169,284.345957,-87.498653,272.790837
100,1.676308,2.090856,1.049869,5.540024,-28.574868,-55.705239,-74.67429,-89.558659,-61.456581,-82.224884,-91.367512,-97.320168,-58.558182,-81.079285,-88.141262,-91.172745,-55.083229,-76.396294,-81.841759,-83.79015,-51.518875,-67.398217,-71.867363,-74.896843,-0.733002,3.037515,5.777529,8.271542,29.560849,39.124184,41.396192,40.441778,34.880449,46.045072,46.934945,43.757244,36.522504,48.128827,49.504206,46.092657,34.51417,46.437582,49.305666,48.899188,28.887371,56.209042,80.089829,100.383728,52.674443,85.247223,104.58561,119.057259,42.304322,78.593537,100.906746,115.645249,33.894883,66.372151,86.594765,100.970238,27.40709,51.528351,66.749783,78.891312,-13.061743,-12.931598,-8.384261,-7.197615,17.876374,35.515602,43.257967,48.188775,35.748277,54.286677,60.857415,63.593489,47.586016,67.096121,72.680235,74.036595,53.81609,70.865786,75.127614,75.751886,67.546446,286.481437,-86.479815,278.375485
101,0.595688,2.719266,1.339188,4.848803,-27.475342,-53.633835,-71.211983,-84.635479,-64.386521,-81.743409,-85.826809,-86.674691,-61.003624,-79.258519,-79.808213,-76.926476,-56.843377,-73.763466,-72.535149,-68.388302,-52.508492,-64.400094,-64.275181,-62.909604,2.848682,7.573688,10.635224,13.568418,28.643052,40.546197,46.208105,47.90802,32.020763,46.126348,51.543884,51.785686,32.844501,46.643643,51.487469,50.637512,31.064088,44.088967,48.555214,49.508628,28.710068,55.799091,79.708031,99.744575,52.669945,84.997353,104.06868,118.434471,42.06197,78.015312,100.24498,115.120216,33.317459,65.393623,85.421791,99.810173,26.492924,50.348659,65.522747,77.883659,-12.687931,-12.441102,-7.777378,-6.757113,19.719772,37.610966,45.359309,50.346433,37.208143,55.96819,62.836194,65.819789,48.667019,68.427213,74.421004,76.218361,54.740184,71.983394,76.356101,77.076457,68.114336,289.264744,-85.168425,283.288329
102,-0.367905,2.384986,0.820072,4.399816,-27.071686,-51.802826,-68.04261,-80.559883,-66.601204,-80.215622,-78.809269,-73.893196,-62.780571,-76.420578,-70.380455,-61.0742,-57.636017,-69.737709,-62.213539,-52.137451,-51.922051,-59.534912,-54.985497,-49.003441,4.7976,10.258658,14.338816,17.677958,27.72659,42.230662,50.211384,53.725699,29.931401,46.628045,55.166559,57.877253,30.584683,46.206561,53.637754,54.902464,29.408362,43.441427,49.199616,51.128477,28.794457,55.672669,79.461903,99.393025,52.390709,84.597645,103.382847,117.564823,41.620388,77.719174,99.94035,114.888783,32.765625,64.84726,84.935085,99.30875,25.913338,49.687969,64.967228,77.520046,-12.294878,-11.86155,-6.935819,-6.090122,21.012405,39.139066,46.914011,51.99087,38.220615,56.832597,63.893015,67.156043,49.416446,69.067539,75.285238,77.229363,55.415499,72.588276,77.041506,77.81577,67.760988,291.710156,-84.333796,287.748571
103,-0.861168,2.420468,0.347534,3.824969,-26.106239,-49.777084,-66.279625,-79.715218,-65.165955,-77.180065,-73.03331,-65.160004,-60.774834,-72.588329,-63.39489,-51.287933,-54.707359,-64.695602,-54.346481,-42.148956,-47.741867,-54.049438,-48.179924,-40.893951,2.881867,6.701217,10.20843,12.11012,25.069346,39.908217,48.038955,51.459657,29.044899,46.025793,54.810543,58.169444,31.524129,47.331926,55.049542,57.200222,32.316658,46.427196,52.064045,54.133005,28.867115,55.578575,79.154148,99.064877,52.704266,84.699635,103.202191,117.07108,41.857018,77.782688,99.656285,114.610508,32.779049,64.589104,84.390942,98.645199,25.552677,49.078995,64.29316,76.887692,-11.930884,-11.307551,-6.049775,-5.349043,22.25055,40.168025,47.938635,53.025474,38.960051,57.255043,64.541901,68.123412,49.727755,68.977606,75.395326,77.512056,55.559204,72.578173,77.213987,78.156508,66.97154,294.192739,-83.914542,291.635655
104,-0.801544,2.557888,0.452614,2.856734,-26.226219,-49.214585,-65.666496,-78.997788,-62.564049,-74.446266,-71.500511,-64.491898,-57.65213,-69.316956,-62.325531,-51.840889,-50.819664,-61.107468,-53.155152,-42.511917,-42.809097,-49.789307,-45.828392,-39.83432,-1.334637,1.33776,4.788151,6.409384,22.576778,36.592874,44.759983,48.526981,28.374993,44.301178,52.776595,56.324242,32.283942,47.613643,55.031201,57.455176,34.236169,47.808058,53.491035,55.84764,28.960968,55.525543,78.877201,98.805851,52.421723,84.457821,102.801808,116.400959,41.595131,77.820454,99.400715,114.182842,32.492649,64.619774,84.282795,98.371708,25.19727,48.859463,64.169987,76.826397,-11.611485,-10.775632,-5.27346,-4.62723,23.070312,41.037916,48.749098,53.768221,39.509062,57.703982,64.925075,68.51375,50.091342,69.176406,75.494819,77.484417,55.860152,72.880591,77.61497,78.57798,66.286961,296.818163,-83.344963,294.559925
105,-1.117264,2.303722,0.145603,2.398176,-26.325348,-48.631439,-65.367165,-78.409264,-59.880409,-71.531914,-68.691147,-61.676949,-54.688522,-66.272987,-60.992981,-51.891838,-47.314201,-57.726471,-51.911339,-43.055557,-38.543289,-46.055992,-43.548363,-38.857361,-5.449412,-4.525428,-2.026401,-1.392089,19.229227,31.64574,38.892731,42.372268,27.14663,41.295316,48.592585,51.816759,32.897495,47.193543,53.598222,55.926805,36.476981,49.041226,54.395469,56.852098,28.926224,55.566433,78.857415,98.801445,52.468231,84.504708,102.627938,115.955086,41.680195,78.081894,99.24955,113.809639,32.565903,64.830174,84.268479,98.176941,25.191983,48.814122,64.13498,76.910981,-11.351541,-10.327731,-4.652906,-4.167387,23.759941,41.599141,49.160701,54.010196,39.935227,57.888418,65.000596,68.544353,50.30858,69.117323,75.278161,77.09413,55.954136,72.929114,77.72864,78.790303,65.35199,299.202843,-83.017067,297.039059
106,-6.093933,2.345787,-0.388435,1.287867,-25.551361,-47.346336,-64.822071,-79.228558,-60.330311,-67.646278,-60.649933,-51.604889,-56.305309,-62.934483,-54.718712,-43.521149,-49.416355,-55.754105,-47.192459,-36.671997,-40.678265,-47.159638,-43.699539,-38.034462,-4.048431,-2.479946,1.585343,3.957004,19.31359,32.922825,39.701575,42.76284,27.966885,41.80004,48.703353,51.472155,34.104654,47.5904,53.439523,55.706961,38.197842,50.306776,54.873713,57.119304,28.912422,55.606693,78.782112,98.842232,52.602333,85.076981,103.051987,116.21244,41.872684,78.756935,99.727432,114.317322,32.761082,65.404198,84.742264,98.624817,25.321312,48.929684,64.229107,77.076645,-11.486244,-10.539783,-4.571433,-3.872751,23.353413,40.955491,48.237458,52.742818,39.664661,57.288142,64.166631,67.375257,50.086414,68.64203,74.620816,75.986167,55.774565,72.716458,77.573807,78.385676,59.533808,301.645782,-83.129751,298.424078
107,-6.472138,3.238315,-0.139984,0.266132,-21.287681,-41.118667,-57.552211,-71.118015,-58.165763,-62.080856,-52.499244,-42.262207,-55.858223,-58.824142,-48.002632,-34.969642,-50.065738,-53.240821,-42.194023,-30.108856,-42.146472,-46.541439,-41.518638,-34.778686,-2.999514,-0.886254,3.971256,7.970521,18.732828,32.563055,38.72934,41.503551,26.966553,40.216994,46.691475,49.506985,32.692274,45.359371,50.859504,53.394433,36.564358,48.187613,52.514576,55.099436,28.839294,55.6138,78.754417,98.801376,52.875767,85.557907,103.370956,116.400879,42.127247,79.166267,99.886825,114.488388,32.866585,65.739372,84.895729,98.762123,25.17778,48.950512,64.258873,77.167099,-11.598308,-10.758799,-4.645027,-3.740309,22.987603,40.443778,47.463799,51.667508,39.354538,56.896657,63.759375,66.837991,49.788492,68.229265,74.252832,75.524903,55.461083,72.421019,77.365362,78.036169,53.40497,304.994763,-82.926435,298.800876
108,-4.953598,1.976989,0.450439,-0.099307,-20.541961,-40.119918,-57.019168,-71.256168,-60.125885,-60.201015,-46.046951,-33.191253,-59.516578,-57.818836,-42.489669,-25.968223,-55.023227,-54.435001,-39.087318,-23.959922,-48.251232,-52.422248,-46.26828,-38.300136,0.158217,3.747015,10.587973,17.586159,19.598618,34.681884,40.630351,43.340502,27.141751,40.957072,47.780975,50.402848,32.283017,44.958684,50.415865,52.878767,35.887771,47.542951,51.495842,54.007664,28.837475,55.530876,78.608803,98.62294,52.856243,85.502976,103.119461,116.096352,42.038109,79.019646,99.588753,114.108238,32.648793,65.669403,84.817086,98.730171,24.824456,48.784779,64.21423,77.282273,-11.649561,-10.879595,-4.710729,-3.559294,22.582965,40.327811,47.230778,51.155066,39.171448,56.984157,63.6924,66.384879,49.783182,68.481318,74.408802,75.469377,55.514732,72.540469,77.462026,77.994969,48.850038,307.088383,-82.07733,298.8182
109,-4.560768,2.200637,0.385987,0.159341,-18.387748,-37.736,-54.884765,-69.967426,-61.718708,-58.111026,-40.415016,-26.077514,-62.062729,-55.938228,-37.069999,-18.333503,-58.110832,-53.808002,-35.016929,-17.703987,-51.716846,-54.025085,-46.808487,-38.258228,4.930893,10.863787,19.295175,28.654525,21.364395,37.632417,43.150138,45.704345,26.915917,41.42987,48.049848,50.582998,30.3865,43.227956,48.71427,51.295141,32.676119,44.29977,48.230875,51.148718,28.688449,55.350872,78.503242,98.544685,52.628254,85.348503,102.868766,115.736732,41.901111,79.055053,99.622444,114.022979,32.566944,65.971389,85.117607,98.891304,24.765129,48.981548,64.503959,77.554756,-11.846965,-11.254902,-5.055173,-3.701468,22.208264,40.013204,46.85951,50.574674,38.982602,56.854592,63.455007,65.882737,49.728496,68.369451,74.08802,74.950711,55.486882,72.450856,77.228375,77.580154,44.669105,309.404855,-81.311508,299.093376
110,-4.575897,2.54077,0.658653,0.150041,-15.387279,-34.169208,-51.742407,-68.031567,-63.746607,-55.832851,-33.657921,-17.048412,-65.93343,-54.649063,-30.939239,-8.94025,-63.138296,-54.719307,-31.387997,-11.060921,-57.693432,-60.070782,-52.708317,-44.027361,7.228725,13.973395,23.411748,34.466122,21.400414,40.008308,46.043595,49.026437,26.372051,42.310277,49.299905,51.851882,29.209877,42.573111,48.175244,50.762846,31.069466,42.768563,46.779339,49.983852,28.563492,55.115867,78.28418,98.320381,52.316757,85.081673,102.509331,115.320305,41.617229,78.937179,99.513725,113.860084,32.296921,66.04826,85.213875,98.944107,24.509113,49.116211,64.787075,77.85482,-11.968601,-11.533705,-5.36968,-3.78866,22.061199,39.986899,46.82493,50.4345,38.960718,56.907179,63.322503,65.449928,49.765805,68.417295,73.966397,74.642799,55.520141,72.374582,77.037677,77.229931,40.452656,312.040795,-80.293407,299.338587
111,-0.509171,1.706596,0.562431,-0.080548,-12.393276,-29.581317,-47.113008,-63.33324,-60.868154,-52.915569,-30.983619,-14.887264,-64.23619,-52.562679,-28.931785,-7.538005,-62.408037,-54.26834,-31.022769,-11.275428,-57.956657,-63.780452,-60.010173,-54.554746,2.495877,6.740409,14.852437,24.619414,18.202397,36.980068,42.510286,45.215658,25.145984,40.825155,46.752589,48.569342,29.538884,42.611458,47.047287,48.764479,32.716893,43.450967,47.666964,50.979059,28.43961,54.984158,78.196289,98.198799,51.820038,84.442246,101.823212,114.64032,41.173702,78.564995,99.191162,113.50589,31.975994,66.032776,85.305016,99.013779,24.339134,49.242932,65.083809,78.178826,-12.033722,-11.519539,-5.34388,-3.620303,22.09084,40.254143,47.166694,50.780909,39.043514,57.226725,63.531665,65.492673,49.887072,68.678537,74.114883,74.691125,55.635578,72.503629,77.079137,77.172553,40.256498,313.827527,-79.417963,299.338175
112,-4.614601,0.787972,0.397556,0.109644,-13.477855,-30.383777,-48.529398,-65.904934,-58.646341,-48.402431,-25.714897,-9.556263,-62.453899,-47.541298,-23.443977,-2.060428,-61.117441,-50.701492,-26.836841,-6.781929,-57.090088,-64.348445,-62.078407,-57.442445,1.033801,5.728654,15.276046,25.847321,15.837567,35.166211,40.431039,42.985085,23.924277,39.82523,45.134617,46.193347,29.208346,42.533727,45.967544,46.963665,33.358221,43.952505,47.686651,50.751744,28.358529,54.869236,78.125645,98.18858,51.43142,84.03201,101.387639,114.193394,40.876523,78.429921,99.116765,113.427441,31.797215,66.193097,85.556225,99.290944,24.313019,49.472844,65.449528,78.652096,-12.216886,-11.76144,-5.554783,-3.631739,21.753658,40.159257,47.186615,50.78922,38.792968,57.181833,63.411499,65.258774,49.744799,68.654232,73.992691,74.512321,55.581238,72.479337,77.000689,77.06754,35.918277,314.683168,-78.744027,299.515488
113,-1.698761,0.900037,0.190831,-0.043904,-10.159664,-25.294223,-43.049051,-59.940525,-55.787973,-44.487877,-21.755676,-5.98447,-60.892398,-44.701057,-20.750221,0.119946,-60.564691,-49.272319,-25.376506,-5.607376,-57.508449,-66.271556,-65.413387,-61.912622,-2.24706,0.798254,9.696575,19.721655,12.755505,32.619155,37.973793,40.586144,22.527507,38.549331,43.762696,44.924499,29.162379,42.53227,45.748318,46.719639,34.507149,44.676639,48.713214,52.060408,28.318989,54.916156,78.277153,98.395958,51.133438,83.812408,101.207016,113.974708,40.642822,78.386146,99.155433,113.429809,31.673435,66.346515,85.723755,99.358955,24.299148,49.570095,65.551666,78.69786,-12.244576,-11.786499,-5.531614,-3.540287,21.551412,39.938376,47.056432,50.749008,38.581484,56.981835,63.358924,65.361638,49.541182,68.421544,73.767882,74.307902,55.394825,72.31792,76.868617,76.932208,34.459013,315.645089,-78.313699,299.533468
