takenoko1/special-research/HandMotion_SimilarSearch_自分用/NewProject/handData_new/key/d3_feature/19.csv
,vel_0x_L,vel_0y_L,vel_0x_R,vel_0y_R,posFromWrist_1x_L,posFromWrist_2x_L,posFromWrist_3x_L,posFromWrist_4x_L,posFromWrist_5x_L,posFromWrist_6x_L,posFromWrist_7x_L,posFromWrist_8x_L,posFromWrist_9x_L,posFromWrist_10x_L,posFromWrist_11x_L,posFromWrist_12x_L,posFromWrist_13x_L,posFromWrist_14x_L,posFromWrist_15x_L,posFromWrist_16x_L,posFromWrist_17x_L,posFromWrist_18x_L,posFromWrist_19x_L,posFromWrist_20x_L,posFromWrist_1y_L,posFromWrist_2y_L,posFromWrist_3y_L,posFromWrist_4y_L,posFromWrist_5y_L,posFromWrist_6y_L,posFromWrist_7y_L,posFromWrist_8y_L,posFromWrist_9y_L,posFromWrist_10y_L,posFromWrist_11y_L,posFromWrist_12y_L,posFromWrist_13y_L,posFromWrist_14y_L,posFromWrist_15y_L,posFromWrist_16y_L,posFromWrist_17y_L,posFromWrist_18y_L,posFromWrist_19y_L,posFromWrist_20y_L,posFromWrist_1x_R,posFromWrist_2x_R,posFromWrist_3x_R,posFromWrist_4x_R,posFromWrist_5x_R,posFromWrist_6x_R,posFromWrist_7x_R,posFromWrist_8x_R,posFromWrist_9x_R,posFromWrist_10x_R,posFromWrist_11x_R,posFromWrist_12x_R,posFromWrist_13x_R,posFromWrist_14x_R,posFromWrist_15x_R,posFromWrist_16x_R,posFromWrist_17x_R,posFromWrist_18x_R,posFromWrist_19x_R,posFromWrist_20x_R,posFromWrist_1y_R,posFromWrist_2y_R,posFromWrist_3y_R,posFromWrist_4y_R,posFromWrist_5y_R,posFromWrist_6y_R,posFromWrist_7y_R,posFromWrist_8y_R,posFromWrist_9y_R,posFromWrist_10y_R,posFromWrist_11y_R,posFromWrist_12y_R,posFromWrist_13y_R,posFromWrist_14y_R,posFromWrist_15y_R,posFromWrist_16y_R,posFromWrist_17y_R,posFromWrist_18y_R,posFromWrist_19y_R,posFromWrist_20y_R,posFromBody_0x_L,posFromBody_0y_L,posFromBody_0x_R,posFromBody_0y_R
6,1.903427,1.739904,0.09391,-0.312852,7.070057,11.792931,16.607941,19.586918,-3.6656,20.192207,38.092564,50.721394,-9.532459,17.533218,38.231678,56.133602,-12.393734,12.639908,32.243763,48.359058,-13.510105,0.977383,14.976151,27.235577,-20.753091,-33.105791,-36.807012,-38.723844,-14.542592,-6.036794,-0.067135,3.376439,2.596074,13.418661,18.378429,20.398607,16.672648,26.501844,28.023696,27.682278,28.098191,36.105688,34.792208,31.505418,27.218605,54.173092,78.689862,99.861363,56.98478,92.544766,110.805279,123.948704,49.3877,89.672848,110.904499,125.500729,41.7006,78.932774,98.54456,112.19228,34.891022,63.754475,79.975434,92.810246,-16.971187,-18.54045,-11.979543,-8.193427,13.821718,27.613241,32.689841,35.895922,32.394674,45.52743,49.260292,50.308197,44.72181,58.111287,60.546526,59.420161,51.743004,63.117764,64.476977,62.727168,-8.268185,305.900982,-77.185147,279.452836
7,-1.981373,3.219963,0.075394,-0.17652,7.010262,12.078301,18.330998,23.3065,-2.646171,23.272145,41.32901,54.050286,-8.668922,20.42561,41.00441,58.926132,-10.840072,15.670876,34.842179,50.674347,-10.813568,2.889233,15.712143,27.849999,-19.735345,-33.219881,-38.56538,-42.516962,-16.047351,-8.265688,-2.183495,1.615823,0.601066,11.049248,16.325734,18.726282,14.473234,23.876686,25.869088,25.881117,25.78691,33.406652,32.546481,29.595898,27.184822,53.88945,78.349434,99.662167,57.255066,92.743824,110.977238,124.090221,49.722427,89.736454,110.962864,125.558086,41.910965,78.889446,98.420208,111.937283,34.893929,63.49102,79.667988,92.696217,-16.937545,-18.6331,-12.025238,-8.139988,13.713149,27.399103,32.587693,35.843842,32.282029,45.347465,49.309038,50.469687,44.697629,58.154958,60.796072,59.667929,51.935283,63.854224,65.515249,63.780358,-10.357378,309.030789,-77.217573,279.18616
8,-1.93919,-1.188164,0.123081,-0.028244,8.468582,14.993363,21.284821,25.087532,-0.870815,26.122685,44.848217,58.08276,-6.912197,23.30658,43.338284,60.864132,-9.153248,18.721939,37.60072,52.923031,-9.022545,4.642033,17.344735,29.553646,-19.10869,-32.232703,-37.77847,-42.461337,-14.602911,-5.824386,0.20385,3.388986,1.985016,13.164953,18.507314,20.860882,15.536663,25.774461,27.574621,27.259102,26.338082,35.210603,34.234786,31.088603,27.136517,53.639912,78.128002,99.590355,57.29171,92.912499,111.222245,124.352143,49.7971,89.817261,111.0756,125.613533,41.94643,78.957459,98.468994,111.824616,34.869129,63.454857,79.658844,92.765511,-16.911561,-18.733198,-12.142391,-8.203592,13.676061,27.162092,32.392636,35.699123,32.242977,45.198658,49.225798,50.437255,44.711312,58.184424,60.857538,59.676005,52.05861,64.290095,66.057046,64.27462,-12.39572,307.770229,-77.193644,279.08552
9,4.84869,-1.917351,0.152401,-0.058416,7.967045,13.280056,17.194954,18.332966,-4.004425,21.419655,40.084374,53.316765,-10.111358,18.094311,38.175682,55.904,-12.867736,12.955445,32.230683,48.032135,-13.860798,-0.485927,13.139019,25.521881,-20.532814,-32.762459,-37.298582,-40.976474,-13.639035,-4.497492,1.229686,4.082481,3.500532,14.201805,18.831653,20.433335,17.43082,27.082261,28.120632,27.223275,28.578709,37.344871,35.878015,32.119996,27.136048,53.506943,77.981449,99.552601,57.074593,92.845265,111.30914,124.546269,49.58384,89.762295,111.144299,125.707318,41.762512,78.937786,98.518078,111.825817,34.737465,63.419884,79.684284,92.806057,-16.89269,-18.731914,-12.080962,-8.105557,13.71016,27.080865,32.278212,35.585231,32.333479,45.208267,49.159243,50.356176,44.871863,58.287239,60.855784,59.583923,52.270773,64.59203,66.324549,64.442285,-7.633358,305.79942,-77.127571,278.973646
10,-0.170562,-0.270466,0.11649,0.104346,8.155574,13.535259,17.45074,18.408233,-4.127816,21.087936,39.736724,53.037735,-10.104252,18.052242,38.279434,56.110153,-12.621128,13.188022,32.612686,48.46717,-13.283707,0.402259,14.191978,26.462288,-20.819028,-33.131492,-37.26467,-40.067644,-13.660352,-4.469742,1.128464,3.797057,3.736715,14.50054,18.87121,20.153766,17.806497,27.376748,28.168907,27.130216,29.019285,37.709544,35.898206,31.898904,27.044117,53.426857,77.919662,99.428741,56.999187,92.763977,111.296127,124.612129,49.49675,89.732711,111.158683,125.762146,41.655613,78.88789,98.477371,111.795616,34.600181,63.355304,79.623928,92.679886,-17.00799,-18.876052,-12.194052,-8.200134,13.590524,26.960835,32.113783,35.362225,32.230874,45.106761,48.974968,50.115683,44.794218,58.228366,60.707534,59.365907,52.212801,64.455574,66.077942,64.108413,-7.870628,305.483355,-77.077789,279.032393
11,-3.441342,-0.968803,0.143371,-0.118215,9.359619,15.9902,20.44606,21.691395,0.091702,25.59763,43.83894,56.750096,-6.014225,21.859749,42.038098,59.818073,-9.002014,16.771328,36.204838,51.879238,-10.480385,3.842148,17.805634,30.135624,-20.578646,-32.821801,-36.942838,-39.203854,-12.368385,-2.875729,2.442859,4.812679,5.031893,15.836079,20.108565,21.289752,18.84819,28.367559,29.371646,28.33393,29.607816,38.290665,36.493778,32.279139,27.024639,53.473355,77.980809,99.387978,56.936096,92.677986,111.260216,124.636254,49.297875,89.608567,111.070404,125.710488,41.344872,78.680455,98.32695,111.726013,34.211403,63.112187,79.421871,92.416786,-16.967927,-18.767383,-12.129214,-8.242532,13.816519,27.174923,32.245707,35.43656,32.423745,45.38638,49.159651,50.27022,44.931971,58.466265,60.832072,59.426818,52.255273,64.344658,65.830768,63.79624,-11.382609,304.484804,-77.005057,278.88443
12,6.79113,-2.668445,0.245281,0.090032,7.882748,11.962773,13.541268,12.022133,-5.718166,17.627415,36.104359,49.437733,-11.698848,14.105587,34.621594,52.795933,-14.898273,9.112782,29.1358,45.320698,-16.795784,-2.59283,12.735306,25.405346,-21.752188,-33.293858,-35.841038,-36.405931,-10.722156,-0.955155,4.066018,6.069312,7.337653,17.843807,21.657574,22.335877,21.362012,30.640505,31.018306,29.441522,32.230393,40.800436,38.389416,33.635351,26.985169,53.477795,77.976609,99.300305,56.699524,92.411465,111.012257,124.445675,49.046013,89.492123,110.957966,125.596264,41.138363,78.670533,98.334881,111.747174,34.070755,63.227452,79.569741,92.455227,-16.99727,-18.807126,-12.177009,-8.361154,13.711506,27.121361,32.12228,35.262054,32.402627,45.437978,49.074176,50.128762,45.009418,58.534611,60.730974,59.253867,52.375131,64.179278,65.409815,63.271399,-4.659485,301.796009,-76.827782,278.954112
13,3.680123,2.013385,0.154919,-0.027998,6.748329,9.043132,9.602508,8.596664,-8.872525,13.691173,32.013302,44.910839,-15.143303,10.443432,31.420658,49.984531,-18.210423,5.400753,25.81026,42.476291,-20.038433,-5.862717,9.766513,22.629741,-22.325405,-35.09518,-38.572037,-39.193617,-12.620488,-3.790352,0.871705,2.85671,5.661203,15.081624,18.621516,19.348738,19.931489,27.960018,28.510091,27.330102,31.081106,38.507495,36.284529,31.586694,26.905129,53.411625,77.810028,98.914696,56.638676,92.334526,110.91211,124.331131,48.973686,89.440224,110.901215,125.549996,41.078339,78.588329,98.247849,111.636429,34.040737,63.159886,79.468769,92.27195,-17.007447,-18.824675,-12.205191,-8.386249,13.523143,26.936468,31.952195,35.112433,32.281634,45.264929,48.858211,49.931618,44.965292,58.40596,60.599014,59.176309,52.406241,64.171992,65.342767,63.1714,-1.050819,303.795043,-76.74432,278.911763
14,-7.346146,0.314618,0.199276,0.181559,8.461681,13.691792,17.424088,18.771561,-2.913826,21.573795,40.095715,53.211903,-9.323914,18.364964,39.536716,57.939091,-12.19725,13.620529,33.876034,50.033306,-13.560116,2.012913,17.16394,29.896259,-21.237399,-34.292894,-38.148713,-38.60595,-12.897216,-4.014802,0.878437,3.030574,5.092779,15.165716,19.196128,20.373721,19.212566,27.926031,29.012307,28.163066,30.196779,37.994152,36.032823,31.627314,26.741615,53.211571,77.547936,98.511692,56.640152,92.385716,110.93494,124.307797,49.042076,89.48901,110.888477,125.428219,41.221825,78.711479,98.26569,111.467045,34.253449,63.316944,79.509052,92.165302,-17.124032,-19.083323,-12.543584,-8.696298,13.041971,26.47891,31.594153,34.853451,31.889901,44.841889,48.470343,49.570365,44.696022,58.071285,60.278887,58.885909,52.279603,64.065558,65.187304,62.96687,-8.470619,304.100929,-76.618698,279.08459
15,0.845947,-1.923587,0.208546,0.17006,8.49242,13.43834,16.917321,17.568192,-3.018058,20.710865,39.010174,51.522686,-8.784645,18.337944,38.883213,56.503933,-11.929928,13.678585,33.903248,49.717495,-14.044384,2.220623,18.121857,30.688809,-22.640072,-34.957625,-37.599789,-36.318554,-11.875197,-3.186457,0.917747,2.25594,6.534601,16.125021,19.584946,20.539706,20.849767,29.400359,29.908911,28.838739,32.018144,40.035879,37.520526,32.905498,26.625904,52.987106,77.274662,98.179687,56.611885,92.384056,110.920074,124.193527,49.109722,89.568786,110.966606,125.427566,41.363445,78.845363,98.337616,111.346069,34.461078,63.463211,79.600078,92.113861,-17.168985,-19.219457,-12.79939,-8.851674,12.757821,26.10085,31.242226,34.541847,31.662154,44.470807,48.076401,49.185686,44.522541,57.747244,59.929541,58.538304,52.187669,63.954618,65.021097,62.698219,-7.702109,302.173199,-76.487589,279.250507
16,1.961518,1.728764,0.165298,0.253375,6.801464,10.433624,14.649055,17.060302,-4.320706,18.949504,36.837925,49.056598,-10.12151,16.090759,36.677776,54.196781,-13.518414,10.434734,30.081607,45.820942,-15.883736,-0.877613,13.893837,25.570953,-23.368776,-35.823513,-38.50085,-37.295519,-13.388699,-4.780371,-0.521556,1.335971,5.280599,14.580471,17.59604,17.955229,19.902368,27.541561,27.489542,26.080929,31.391205,38.252516,35.299204,30.60532,26.407013,52.666146,76.911965,97.813248,56.461499,92.350823,110.938957,124.210579,49.088986,89.681717,111.136551,125.507721,41.479672,79.070126,98.548783,111.368042,34.697388,63.728497,79.818135,92.202027,-17.379024,-19.518046,-13.102808,-8.994701,12.166696,25.581232,30.812887,34.18672,31.194591,44.001552,47.637935,48.780059,44.154718,57.296676,59.449283,58.068963,51.920895,63.726783,64.756533,62.38938,-5.835205,303.901018,-76.416905,279.502937
17,-5.939164,-0.096738,0.168629,0.058712,8.785355,14.79546,21.001168,24.420857,1.633152,26.6395,44.170178,55.729191,-4.072849,23.457768,43.325558,59.878361,-7.819004,17.383267,36.370091,51.286526,-10.769439,5.601792,20.117295,31.334977,-23.779293,-36.417676,-39.261418,-37.847791,-14.101534,-5.297901,-1.442452,-0.110558,4.5988,14.214439,16.962134,17.130231,19.508289,27.374575,27.126845,25.698682,31.35355,38.319564,35.134601,30.359417,26.173519,52.347221,76.524811,97.376621,56.443119,92.43211,111.034206,124.244099,49.136181,89.81432,111.308659,125.592945,41.539993,79.196068,98.653439,111.303806,34.752651,63.770451,79.835003,92.112499,-17.527966,-19.697653,-13.338324,-9.138678,11.83065,25.272455,30.584287,33.992243,30.891557,43.63436,47.313351,48.455215,43.862886,56.940462,59.112867,57.755642,51.674004,63.544706,64.602342,62.212046,-11.877062,303.810674,-76.350969,279.568043
18,0.59982,-2.494074,0.058342,0.10279,8.756,14.761493,20.027446,21.731289,2.31015,26.342537,43.645912,55.067642,-3.1264,22.87342,42.004303,57.847915,-7.602185,16.225982,34.93737,49.480133,-11.830639,4.639503,19.756805,30.738819,-24.742686,-36.458086,-38.425503,-36.383219,-12.797551,-3.404486,0.141297,0.839176,6.225133,16.014685,18.298092,17.994712,21.442694,29.651782,28.716807,26.721725,33.583245,41.13269,37.598381,32.470132,26.019413,52.173878,76.400333,97.315304,56.536789,92.4837,111.044392,124.205486,49.331989,89.954464,111.447933,125.67873,41.749157,79.357647,98.758152,111.303165,34.910362,63.901668,79.940952,92.164684,-17.691086,-19.949163,-13.645965,-9.420828,11.494913,25.033407,30.415005,33.816378,30.611976,43.373489,47.119504,48.223366,43.624504,56.695029,58.867458,57.449026,51.485221,63.336829,64.399072,61.94411,-11.423807,301.331668,-76.439192,279.685901
19,3.560943,1.775905,0.045124,-0.077608,7.857891,12.114613,16.572361,18.681874,-1.095657,22.987084,40.507965,52.136421,-6.769787,18.777992,38.191841,54.431191,-11.033409,11.713612,30.332314,45.211785,-14.863666,0.342911,15.021813,25.986408,-24.670784,-37.203969,-40.348559,-39.578038,-13.983813,-5.055865,-1.757281,-0.875819,5.030608,14.220996,15.939041,15.24052,20.356393,27.858488,26.558395,24.384126,32.663584,39.309633,35.774817,30.533874,26.003288,52.098186,76.359341,97.389587,56.416454,92.395111,110.987869,124.123283,49.319801,90.044723,111.647049,125.905197,41.800484,79.500423,98.954773,111.489395,34.983616,64.032623,80.113369,92.290306,-17.698928,-19.946816,-13.738331,-9.639659,11.519724,25.004532,30.281834,33.523582,30.613643,43.317407,47.048207,48.073844,43.588319,56.615433,58.747329,57.272531,51.416666,63.172376,64.229456,61.754327,-8.064881,303.138275,-76.596085,279.638995
20,-4.032337,0.1513,-0.104404,-0.216102,8.565868,14.13216,20.599789,24.540939,1.55389,26.797703,44.637234,56.467495,-4.27153,23.108746,42.984386,59.352802,-8.192253,16.246319,35.109982,49.793324,-11.17725,4.489826,18.971043,30.055641,-23.273446,-36.060067,-39.324354,-38.234965,-13.841046,-5.183033,-1.313999,0.083845,4.842394,14.374224,16.79594,16.543566,19.819166,27.837407,27.29146,25.574008,31.799264,38.928955,35.934158,30.964769,26.022548,52.142715,76.437789,97.579273,56.496768,92.444217,111.053157,124.258907,49.418724,90.075656,111.693363,125.942997,41.887207,79.525531,99.016101,111.593502,35.029724,64.04243,80.140365,92.34431,-17.761036,-19.971429,-13.746111,-9.807966,11.373957,24.851725,30.164817,33.426758,30.489328,43.229994,47.045601,48.101373,43.488382,56.601366,58.79458,57.361057,51.317458,63.136857,64.251971,61.845384,-12.347734,303.336141,-76.951005,279.469459
21,2.613899,-1.766321,0.063079,-0.273147,9.049462,14.171356,18.161946,19.39967,-0.141597,23.790814,41.819287,53.709378,-5.966949,20.482807,39.914463,56.199909,-10.218864,13.933857,33.430996,48.473706,-13.89751,2.098732,18.186276,30.128231,-23.917317,-36.674162,-40.099038,-38.904945,-13.239004,-4.86876,-1.697148,-1.342466,5.605604,14.758818,16.93284,16.80251,20.772715,29.036007,28.286901,26.53004,33.032667,40.844674,37.922855,32.739056,26.105976,52.213326,76.499886,97.63741,56.498291,92.386517,110.968197,124.133801,49.474778,90.024388,111.652966,125.894223,41.969674,79.535031,99.018208,111.583203,35.127056,64.138482,80.224789,92.373585,-17.684515,-19.842124,-13.653769,-9.835148,11.493061,24.912315,30.214625,33.453471,30.583028,43.266427,47.128322,48.184785,43.612402,56.697537,58.900396,57.47059,51.486073,63.217009,64.285514,61.860316,-9.992478,301.627878,-77.146569,279.25437
22,-0.801429,0.875559,0.067212,-0.170579,8.305309,12.995349,18.85382,22.845851,-1.175274,23.962726,42.557315,55.171749,-7.284897,20.259017,41.183956,58.650592,-10.900361,13.65501,33.734561,49.499759,-13.258198,2.171161,17.588596,29.663326,-22.977538,-35.992685,-39.475741,-37.982085,-13.681631,-5.589153,-1.589715,0.034655,5.056803,14.163668,16.824036,17.074273,20.12504,28.378884,28.174849,26.70772,32.248622,39.667193,37.024843,32.074856,26.26221,52.379173,76.703132,97.9067,56.234745,92.169204,110.817214,124.032577,49.294063,89.874961,111.512969,125.736282,41.954326,79.579994,99.076286,111.663002,35.295982,64.397644,80.458717,92.559402,-17.657654,-19.805518,-13.622586,-9.788898,11.450033,24.805943,30.053864,33.29581,30.587041,43.317803,47.094804,48.069201,43.687293,56.845219,58.973409,57.467564,51.576402,63.301348,64.282105,61.791587,-11.093473,302.557919,-77.378923,279.138273
23,-3.12148,2.439809,0.23394,-0.329599,8.509495,14.263104,21.790261,28.101849,0.955124,27.60141,46.453698,59.265931,-5.710395,23.753094,45.141175,62.94294,-9.182693,17.142003,37.13942,52.890404,-10.917022,5.256913,19.957913,32.034508,-21.710667,-35.743325,-40.597574,-40.694794,-15.257181,-7.248041,-2.807742,-0.310753,2.954534,12.504421,15.542134,16.357486,17.786317,26.287619,26.616712,25.683268,29.827449,36.796774,34.608895,30.193543,26.43441,52.498684,76.805122,98.045219,55.950439,91.919952,110.645393,123.920791,48.970195,89.57064,111.18148,125.381103,41.675136,79.360977,98.892379,111.546386,35.089313,64.324951,80.36309,92.437957,-17.57686,-19.647067,-13.441064,-9.643735,11.544696,24.812316,29.993966,33.236258,30.692672,43.451072,47.176425,48.155985,43.831751,57.030272,59.135368,57.65615,51.720231,63.448783,64.374669,61.925623,-14.513964,305.055131,-77.443994,278.866077
24,4.475934,-1.858799,0.159793,-0.137629,7.965877,12.559295,17.680652,21.091747,-1.771409,22.239063,41.067272,53.873188,-8.382363,18.91872,40.126224,57.816227,-12.36382,12.316062,32.749179,48.703846,-14.932801,0.68264,16.492755,28.818866,-22.611506,-36.152853,-39.979835,-39.073549,-14.756249,-6.922505,-2.457926,-0.281483,3.810914,12.938885,16.278458,17.151412,18.884672,27.206416,27.516033,26.415357,31.187181,38.586375,36.135563,31.458167,26.491814,52.557862,76.891137,98.121701,55.868489,91.79321,110.533253,123.872098,48.861615,89.372166,110.903195,125.081486,41.583882,79.209515,98.722996,111.430859,35.010979,64.324322,80.313515,92.378209,-17.677402,-19.768123,-13.49622,-9.651368,11.32747,24.561473,29.803861,33.1771,30.525476,43.322557,47.055036,48.099779,43.742621,56.997359,59.113805,57.671747,51.668088,63.4175,64.307916,61.889226,-10.334512,303.256443,-77.580683,278.788559
25,2.867466,0.43476,0.242054,-0.27968,8.029117,11.910758,15.648181,17.815292,-4.036458,19.485969,38.191978,50.96244,-11.372761,15.105686,36.433959,54.629516,-15.528763,8.274547,28.853439,45.419105,-18.156132,-3.365044,12.43032,25.206253,-22.717273,-36.644559,-40.88748,-40.240842,-15.631512,-7.350399,-2.711806,-0.358597,2.891389,12.086013,15.607552,16.538588,18.184545,26.348456,26.906062,25.830383,30.764759,37.919063,35.680932,30.946651,26.547947,52.563572,76.880425,98.100632,55.7818,91.653649,110.363617,123.677536,48.698159,89.111344,110.573227,124.752549,41.342148,78.904484,98.437958,111.221123,34.68932,63.991963,79.976155,92.079323,-17.602882,-19.636891,-13.280093,-9.397907,11.493196,24.682084,29.893386,33.262551,30.598514,43.407365,47.155801,48.241274,43.736433,57.007955,59.196168,57.793791,51.621529,63.390379,64.365307,62.011097,-7.756198,303.744117,-77.627781,278.561793
26,-5.808449,0.978336,0.145398,-0.100024,8.985855,14.800255,20.948078,25.259594,0.412147,25.859413,44.555855,57.061775,-6.857243,21.79256,43.224289,61.17691,-10.763569,15.183277,35.789612,52.202522,-12.813801,2.407276,17.654983,30.649727,-21.749149,-35.990622,-40.353301,-39.530464,-15.940634,-7.470083,-2.166982,0.901853,2.273885,11.863341,15.995308,17.445245,17.277914,25.841251,27.017498,26.297364,29.461122,36.977357,35.225968,30.735317,26.497615,52.460964,76.803222,98.067363,55.930298,91.665424,110.36095,123.72044,48.818344,89.01289,110.392444,124.620906,41.387569,78.734642,98.255504,111.149105,34.629421,63.790226,79.71968,91.872814,-17.709166,-19.753462,-13.273411,-9.380258,11.730146,24.654457,29.763995,33.100518,30.729315,43.304107,46.989446,48.099298,43.748302,56.909427,59.118857,57.740588,51.54528,63.317922,64.344584,62.041701,-13.870239,304.776932,-77.787975,278.516248
27,8.713051,-1.428114,0.158718,-0.177063,7.090667,10.893356,12.922382,13.425945,-5.412827,15.649257,34.240219,47.311271,-12.591362,11.920967,32.846077,51.327529,-16.896183,5.752773,26.737358,43.906654,-19.634068,-6.907139,9.188346,22.94815,-21.653029,-35.41848,-39.632958,-39.486004,-15.232925,-7.084266,-1.742213,0.965419,2.915558,12.072181,16.714602,18.454704,17.787812,26.101578,27.58943,27.019523,29.983271,37.903811,36.383183,32.064309,26.32275,52.315349,76.681457,97.954765,56.199291,91.774704,110.399208,123.767738,48.975689,88.965957,110.288498,124.568504,41.333496,78.508381,98.060989,111.065483,34.330799,63.412182,79.367809,91.602997,-17.821218,-19.782251,-13.184528,-9.376121,12.017273,24.812563,29.800465,33.038249,30.886778,43.321718,47.011997,48.184365,43.751884,56.858372,59.123438,57.807611,51.41569,63.133066,64.24566,62.069402,-5.448881,303.425787,-77.92095,278.416154
28,4.291168,-1.261931,0.066124,-0.088328,6.658859,9.332748,9.853546,8.502582,-9.059452,11.066929,29.568878,42.645515,-16.143254,7.46006,28.204788,46.668091,-19.938961,1.790439,22.793609,40.048828,-22.101586,-10.453034,5.479923,19.340469,-21.705109,-34.720836,-38.096324,-37.303819,-14.665204,-6.749085,-1.548775,0.664644,3.511684,12.06608,16.822924,18.286384,18.377552,26.307256,28.008023,27.387901,30.474582,38.625216,37.207414,32.883477,26.218746,52.235859,76.600651,97.849205,56.461727,92.001388,110.635368,124.090828,49.192428,89.032379,110.336334,124.752434,41.438598,78.44553,98.081451,111.266258,34.290722,63.265445,79.282402,91.678138,-17.917734,-19.876049,-13.208437,-9.478478,12.081357,24.665461,29.54451,32.689965,30.840972,43.032887,46.717065,47.914393,43.615638,56.569911,58.92564,57.667031,51.258215,62.939367,64.147872,62.023757,-1.442344,302.247821,-78.139457,278.411791
29,-4.901917,0.338899,0.298015,-0.295512,6.985703,11.274319,14.24588,14.892517,-6.250042,16.198757,34.640374,47.353249,-13.092155,12.973126,33.645081,51.772064,-16.309478,7.82206,28.722496,45.593857,-17.501346,-4.611007,10.655846,24.453049,-20.577708,-33.631535,-37.284973,-36.482057,-14.468196,-6.519646,-1.011657,1.401833,3.245255,12.398964,17.471785,19.147691,17.673004,26.194413,28.280799,28.003046,29.301274,37.811259,36.810038,32.912352,26.20364,52.292061,76.606099,97.75462,56.569245,92.113438,110.787564,124.316883,49.143883,88.898381,110.154042,124.596806,41.230671,78.158501,97.824841,111.133496,33.932064,62.797943,78.842114,91.30418,-17.77708,-19.638323,-12.968279,-9.364364,12.186271,24.463277,29.200979,32.179461,30.956741,42.987043,46.658537,47.797165,43.680623,56.549656,58.935112,57.619371,51.263524,62.913913,64.186527,62.041799,-6.599842,302.657746,-78.097023,278.187305
30,8.953617,-2.338587,0.409916,-0.20043,4.386887,5.319924,5.566533,4.262913,-13.868877,5.879471,24.695698,38.264134,-20.653576,2.770523,23.856457,42.73209,-24.156875,-2.784439,18.902264,36.540974,-25.616066,-15.336788,0.394913,14.452938,-20.422232,-32.121737,-34.676241,-33.548802,-13.070772,-4.689697,0.727876,2.822981,4.726277,14.051775,19.113716,20.534494,19.130919,27.706718,29.600998,29.053482,30.798475,39.690336,38.667157,34.766482,26.335888,52.409191,76.648796,97.573334,56.425736,92.171562,110.910759,124.520371,48.955204,88.827141,110.042473,124.465302,41.01939,78.000984,97.701187,111.074982,33.667546,62.469441,78.496388,91.013283,-17.674598,-19.776446,-13.332247,-9.963923,11.507906,23.304865,27.853672,30.715013,30.432011,42.318867,46.194977,47.512793,43.33203,56.119972,58.662385,57.490622,51.052437,62.772777,64.191221,62.164819,2.100877,300.392391,-77.940005,278.060107
31,3.807896,0.647996,0.703675,-1.077841,3.956932,4.101643,3.179398,1.471687,-16.285995,1.887737,20.790321,34.906952,-23.630424,-2.106125,18.917839,38.407402,-27.237293,-8.276722,12.77076,30.498299,-28.55032,-20.634155,-7.354294,4.970787,-20.060412,-31.834956,-35.136898,-35.475883,-14.031842,-6.520658,-1.069431,1.139221,3.489047,12.405967,17.742894,19.366041,17.836384,25.94982,28.434743,28.636642,29.471471,38.047121,37.640532,34.524063,26.577541,52.622737,76.709861,97.246238,56.46064,91.939682,110.511474,124.1212,48.68621,88.071144,109.073272,123.408668,40.384254,76.875881,96.501777,109.858863,32.55574,60.735454,76.519168,88.770114,-17.37002,-19.438449,-13.218256,-10.332116,10.509463,22.117911,26.982979,30.114354,29.754473,42.403798,47.044959,48.765128,43.03569,56.642653,59.803372,59.02959,51.075384,63.445893,65.258255,63.398172,5.645651,301.140247,-77.499452,277.082126
32,7.318909,-7.191502,0.803958,-2.906184,-0.675431,-3.901715,-5.537625,-7.715538,-22.139717,-8.471649,7.07682,19.468139,-26.211479,-9.741349,7.483234,24.332977,-26.57515,-12.267689,4.417007,19.254112,-24.408154,-19.050465,-9.790261,-0.342751,-15.670476,-23.05506,-24.03657,-23.104337,-5.583769,4.409399,10.634643,13.057767,9.42988,21.044762,27.443377,29.081035,21.457737,32.088861,35.844743,36.114802,30.658091,40.537206,41.554668,39.496699,26.879735,52.836674,76.586209,96.683476,56.763073,91.439633,109.768696,123.370663,48.448208,86.172364,106.618573,120.771161,39.306553,73.756451,92.833271,106.127575,30.416794,56.660088,71.690014,83.682129,-16.577862,-18.167181,-11.973689,-9.779067,10.078297,21.524575,27.135193,30.89031,29.2744,43.534991,49.606292,52.299165,42.842053,58.455212,63.109847,63.514337,51.306503,65.658212,68.744683,67.755528,12.689427,294.12319,-76.970627,274.350387
33,12.900558,-10.441834,0.815083,-5.460626,-7.644058,-15.915333,-20.908401,-25.198952,-28.87191,-24.731552,-14.87574,-5.394344,-29.509758,-23.158974,-12.601055,-0.539486,-27.207607,-21.521095,-11.463524,-1.537765,-22.629387,-21.902344,-16.826958,-11.337501,-12.785139,-16.45814,-15.091208,-12.874998,2.746399,13.914874,20.770381,23.970015,16.878623,31.041697,39.066484,42.271849,27.625059,41.547085,47.293306,49.132468,35.257373,48.231579,52.097353,52.66658,27.33038,53.325508,76.664337,96.119339,56.556347,90.048523,107.620148,120.408028,47.506004,83.165737,102.370171,115.215866,37.168865,68.819847,86.81638,99.066559,26.891212,50.978291,65.139668,76.500492,-16.34279,-16.880649,-10.203169,-7.930334,9.860886,21.842812,28.125126,32.411618,28.63579,44.981779,52.751129,56.89825,42.048066,60.600039,67.403983,69.870467,50.512281,67.279593,71.940563,72.366407,25.227985,284.120855,-76.517544,269.32926
34,15.592781,-11.605188,1.949993,-9.880313,-12.950248,-26.102623,-35.384697,-42.322002,-35.197208,-39.236435,-34.12223,-27.834011,-32.043045,-34.194236,-29.336826,-21.699016,-26.318641,-27.618084,-23.00505,-17.383484,-19.052994,-21.936985,-20.202461,-17.978897,-8.996899,-8.949326,-5.874588,-3.826895,9.715193,24.233493,31.979514,36.181321,21.648028,39.798153,50.083191,55.50116,30.499418,47.968202,56.981008,62.098339,36.350924,51.898023,58.819935,62.736752,27.230908,52.014542,73.509316,91.102673,54.611927,87.412983,102.455166,112.095989,44.61335,78.27467,94.978237,105.331959,32.793514,61.811611,78.07386,89.116539,20.649868,41.237972,53.880592,64.629879,-14.439815,-12.951038,-5.320193,-2.229993,9.433783,22.515633,30.942662,36.642966,27.160881,45.987236,56.455252,62.286319,40.274014,61.294694,70.449637,74.720172,49.06847,68.465967,75.425485,77.790785,40.335468,273.172976,-75.052849,260.106256
35,16.507118,-26.860984,-6.630913,-24.646072,-20.27877,-36.432815,-46.868659,-53.189266,-40.790702,-50.57872,-50.482223,-48.075885,-32.546356,-41.201808,-42.289203,-40.043735,-22.03466,-28.992347,-30.705688,-30.240623,-10.664142,-16.000247,-18.68217,-20.459724,-3.775124,1.804643,8.994466,13.675184,19.694454,40.246189,51.308788,58.081906,29.782989,55.140759,69.267092,77.457629,37.302967,61.578993,74.929493,83.059059,41.791283,61.984545,72.619349,80.026484,29.463421,56.07922,77.6166,93.053124,58.722771,90.491742,103.591816,110.841214,47.115281,78.704716,93.63937,102.296334,33.231137,59.994381,74.829358,84.647175,18.897629,37.084546,48.173413,57.50623,-12.885557,-10.045408,-1.568053,3.604607,11.977975,28.164067,38.199003,44.230499,29.344475,52.447614,65.011365,71.740592,42.519803,67.700917,79.139625,84.928355,51.403995,74.359031,83.426697,87.243156,56.191978,247.606107,-82.33437,236.754299
36,29.087426,-40.913316,-10.161758,-37.25863,-29.982743,-53.566864,-68.80497,-78.091725,-55.656578,-73.041115,-77.565331,-78.690434,-42.187615,-58.789261,-65.183316,-67.653637,-26.776223,-40.234406,-46.938698,-50.717148,-11.05774,-18.977326,-22.944969,-26.54464,0.443318,12.399557,24.883341,33.373208,30.752804,58.136889,71.958718,80.704009,39.413695,72.002141,89.630451,100.358536,45.641977,76.703929,93.465312,103.657292,48.95254,74.219104,87.736961,97.576457,31.949604,60.605083,82.095612,94.583382,62.499699,93.011124,104.485142,109.577534,49.090485,78.690193,91.989967,99.025577,33.015713,57.667442,71.083889,79.694847,16.554623,32.609344,42.413795,50.784553,-11.255531,-6.900497,2.897836,10.557203,15.070695,34.967233,46.694476,53.189384,31.36585,58.830507,73.423821,81.125987,43.942594,73.325749,87.491084,95.347255,52.35074,78.815719,90.783332,97.281612,84.450165,208.708711,-93.325367,201.511589
37,17.463913,-46.174982,-12.759098,-48.17283,-32.514428,-57.653641,-73.787281,-82.91557,-57.962906,-75.854782,-81.876206,-85.376599,-43.26558,-60.222451,-68.681694,-73.990918,-26.486183,-39.650505,-47.820191,-53.913689,-9.691727,-16.611649,-20.497284,-24.96817,1.085918,14.972678,29.240141,38.826127,31.708484,63.481412,79.556402,90.429452,40.489418,77.947483,98.306582,112.01789,47.230611,82.537638,102.172886,115.480001,51.282223,79.923484,95.864909,108.084735,33.918434,64.434379,85.626263,96.523544,64.338455,93.868572,104.087219,107.777927,49.300724,77.579578,89.498016,95.270473,31.636391,55.250221,67.477077,75.141163,13.867344,28.463356,36.915916,44.191704,-9.885735,-4.656654,5.14678,13.174253,15.205533,38.206283,51.931034,59.828122,30.35097,61.200728,77.837969,86.996944,42.391448,74.670068,91.158972,100.976991,50.747495,79.137735,93.19881,101.950251,100.861771,164.588113,-107.136772,155.393143
38,17.966674,-57.040159,-14.51825,-58.106286,-33.361679,-60.097938,-77.449516,-87.218387,-60.913398,-76.974792,-82.129348,-86.269088,-45.020622,-60.245452,-67.679763,-72.748008,-27.030693,-38.663635,-45.3208,-50.587898,-9.167907,-14.934471,-17.635253,-21.036621,2.29112,17.531399,31.961316,39.988672,31.380201,67.805423,86.564025,99.616154,38.433951,80.107908,102.767648,118.281568,44.361546,82.7015,104.381489,119.585033,48.291015,78.704673,95.053657,107.718055,35.690564,67.419846,88.23135,98.237687,66.460442,94.953988,103.977448,106.737019,49.947018,76.451958,87.43721,92.803231,30.854645,53.177353,64.195553,71.380497,11.906514,24.314782,31.140896,37.336979,-8.320639,-2.69383,6.59873,14.232865,14.763598,39.771329,55.082183,64.123635,28.761206,61.698647,79.687419,89.575766,40.259207,73.517244,91.244002,101.94827,48.598334,77.544192,93.219688,103.725162,117.169212,109.491736,-123.314255,99.230639
39,18.182213,-64.031145,-18.076423,-62.794315,-35.661117,-64.412979,-83.17868,-94.445892,-65.177215,-81.134811,-86.014618,-89.504837,-48.233276,-63.228698,-70.054367,-74.582588,-29.093239,-40.863578,-47.113495,-51.735397,-9.962791,-15.951507,-18.916465,-22.108177,1.647705,16.646578,30.176692,37.339585,27.651273,64.807626,85.480491,100.470632,33.842048,76.56893,100.658365,117.022972,39.616521,78.682851,101.329753,116.149432,43.877768,74.869794,91.509251,103.305241,37.252155,70.538257,92.030239,102.54808,70.224895,95.894989,106.262295,111.924476,52.907879,77.4058,89.032928,95.842014,32.999977,52.896034,63.783783,71.112602,13.320362,24.878517,31.17469,36.526188,-6.388654,-1.325707,7.623107,15.327515,11.500206,33.297305,45.958288,53.284814,22.483301,54.618351,73.502251,85.550065,32.750455,67.067024,87.455787,101.158988,41.291803,70.721994,87.873387,100.175261,133.779533,49.309704,-142.96257,40.285437
40,13.135346,-56.267697,-9.241293,-56.338257,-35.266388,-64.130516,-83.50177,-96.653412,-66.372437,-82.968979,-88.704437,-92.684258,-49.566765,-65.004273,-72.434624,-77.205574,-30.410248,-41.98098,-48.580216,-53.462975,-11.063942,-17.276917,-20.919686,-24.43586,1.983299,13.625283,23.645856,28.526763,16.957126,44.451349,59.107432,69.425534,20.559003,57.73984,80.9848,97.580082,25.053624,60.20638,82.577059,97.767648,29.009608,57.537798,73.860025,85.402135,36.646036,68.137756,88.746196,100.332842,67.374378,90.359236,101.547106,109.291019,49.675552,71.283788,82.403681,89.617367,29.244255,45.515459,55.311281,62.456949,9.139892,17.78001,23.358404,28.53677,-3.972005,1.230153,9.715448,16.217946,5.028963,21.656944,31.931423,38.468976,12.263263,41.492521,61.657469,76.240431,20.814513,53.338234,75.646308,91.864668,29.442617,56.870859,74.988657,89.164838,145.08989,-3.200125,-154.028852,-12.294952
41,6.428238,-53.624302,-5.75679,-51.336174,-35.064446,-63.479622,-82.615975,-96.314232,-65.091477,-82.454087,-88.837006,-92.344231,-48.643364,-63.941872,-71.51381,-75.588547,-29.626213,-41.191841,-47.745507,-51.876618,-10.298012,-16.573952,-20.769173,-23.917649,1.153612,7.517807,11.496154,11.986734,5.600061,23.658157,34.80544,43.271978,7.29495,39.466596,61.153054,76.592608,11.249285,42.232934,63.465366,78.124685,15.654699,40.773204,56.153432,67.172126,36.056608,65.186485,85.337104,99.114664,63.972301,84.893137,96.862501,106.441967,46.083366,64.466222,74.674673,82.003761,25.285251,37.524541,45.751951,52.452879,5.056961,9.948143,14.599107,19.482547,-1.530116,3.228918,10.372648,15.396419,-2.494238,8.044819,15.076141,20.215362,1.505455,26.73199,47.773932,64.448393,8.737154,37.543695,60.352195,77.787958,17.57608,41.203017,58.870317,73.478566,149.960553,-53.617339,-161.343217,-60.424038
42,2.120086,-42.350483,-3.039986,-43.779949,-34.228431,-60.767303,-80.226013,-96.049575,-61.086708,-77.957176,-85.337356,-89.756149,-44.732071,-59.389732,-68.51271,-74.201156,-25.906562,-37.734993,-45.934364,-51.163078,-6.934112,-13.967926,-19.392974,-23.430793,0.427847,0.781279,-0.884874,-4.945803,-6.344487,3.159179,11.666796,19.166433,-6.105723,18.678228,38.558544,53.713124,-2.705214,21.999153,41.479345,55.799278,1.861985,22.682458,36.316378,46.342786,35.34989,61.794983,81.518841,96.467268,61.529137,80.802687,93.591814,104.94302,43.441212,59.556742,69.583849,77.310722,22.013294,31.053068,38.095167,44.04701,1.134602,2.780022,6.961058,11.498417,1.249751,5.643131,12.115627,17.736846,-8.619536,-3.160219,-0.156784,1.93021,-8.035607,13.002764,35.083858,53.94989,-2.224282,22.538527,46.045118,64.713867,6.558078,27.217138,44.803728,59.874892,150.948366,-92.372259,-165.515476,-100.608424
43,1.976647,-33.963974,-2.698128,-32.123651,-34.385514,-59.111046,-77.58577,-93.854164,-59.546929,-76.249375,-85.346352,-91.684067,-43.158943,-58.120972,-68.205322,-74.925728,-24.260399,-35.936714,-44.311569,-49.500962,-5.223587,-12.487679,-18.275894,-22.102478,0.932042,-0.860658,-2.973285,-4.998529,-15.650447,-14.453699,-11.119338,-7.74323,-16.835768,1.911997,20.524201,35.19625,-13.427926,6.497267,24.242347,37.663361,-8.141288,8.810382,21.133838,30.464686,35.47288,60.5434,80.523113,96.616694,60.691235,78.147543,92.166361,105.925038,42.906532,57.431883,67.191771,75.081551,21.283871,28.090387,34.492132,39.988455,-0.031494,-0.160457,3.923372,8.126736,4.531032,7.852465,13.098221,18.875069,-15.605197,-15.278713,-16.202746,-16.899643,-18.53042,-0.901017,21.549344,42.159378,-14.217389,8.219366,32.085295,51.898523,-5.42685,13.764919,31.235588,46.526364,152.855902,-122.604968,-168.282715,-129.00081
44,2.329239,-26.296419,2.276493,-25.687998,-35.159615,-59.175865,-77.051789,-93.169579,-59.663063,-76.586403,-87.737778,-96.573761,-43.677155,-59.470116,-70.68956,-78.69262,-25.219689,-37.529755,-46.970352,-53.039635,-6.662339,-14.622597,-21.094963,-25.346718,1.703061,-0.779046,-2.316882,-2.472811,-20.609123,-24.848733,-25.738757,-26.385358,-22.399916,-7.774423,9.519595,23.647404,-18.533469,-1.012815,15.516736,28.789327,-11.996262,3.201534,14.803686,24.422393,35.301607,58.829727,79.401123,96.315554,56.746365,73.077021,86.407557,99.508816,38.66137,50.735098,59.738669,67.676365,16.635361,21.21757,26.176146,31.10047,-4.744777,-7.334415,-4.46367,-0.954906,4.279078,5.946208,8.456411,12.057956,-17.377199,-14.512919,-14.033634,-13.571342,-20.366794,-2.34109,20.350339,41.06557,-16.292885,4.327901,26.776272,45.710436,-8.202979,8.624728,25.273653,40.52912,155.326166,-146.918831,-165.865197,-152.706252
45,-3.847023,-14.520254,0.7521,-14.061718,-33.698662,-57.716652,-75.30233,-90.220848,-55.901139,-72.5625,-84.661835,-94.567177,-40.303871,-54.99234,-65.672036,-73.605698,-22.153885,-33.822579,-42.910309,-48.443116,-4.227654,-11.008438,-16.93657,-20.726212,-0.354176,-3.838035,-6.371982,-7.372462,-19.983011,-23.406827,-23.420712,-23.167483,-20.567605,-7.076156,9.209888,22.516411,-16.053508,0.308023,15.545725,27.781149,-9.461537,5.178961,16.574264,25.984252,34.336006,58.594288,79.972012,98.009789,54.776299,70.030781,82.208908,93.894482,36.20224,46.758477,55.434815,62.864102,13.889408,17.295914,21.511116,25.712048,-7.461799,-10.780197,-8.555134,-5.670536,2.934167,3.490408,2.872737,3.421946,-18.649226,-12.378055,-8.627196,-5.416465,-21.319132,-1.802781,20.854516,41.765052,-17.432354,2.959855,24.928892,43.750822,-10.441908,6.495696,23.120861,38.329512,151.832754,-159.442339,-164.759486,-164.771224
46,-3.795468,4.501819,0.782639,5.731389,-32.292858,-56.137024,-73.442837,-87.416954,-54.197548,-70.054458,-82.175503,-93.043831,-38.443233,-52.587112,-62.776817,-71.001754,-20.267063,-30.975002,-39.521782,-45.074169,-2.590095,-7.845565,-12.711925,-16.248195,-0.12763,-0.453518,1.099967,3.389568,-12.611243,-10.560452,-9.487236,-9.293376,-12.34384,3.278916,20.246742,34.383357,-7.998476,10.334539,26.314925,39.37719,-2.365167,14.172421,26.686029,37.217746,34.596199,59.353077,80.606415,98.365825,53.306579,68.605739,79.909458,90.491947,34.361503,44.947471,53.602444,60.986091,11.694992,15.469002,19.374172,23.663257,-9.842743,-12.727318,-11.130295,-8.395443,1.604631,0.366912,-2.701592,-4.70895,-21.084844,-12.845611,-5.602889,0.848269,-23.853443,-1.473439,23.250012,46.13624,-19.669809,3.04901,26.792087,47.476903,-12.209893,7.341927,25.395092,41.812754,148.025922,-152.45225,-163.988211,-156.551565
47,-7.06913,17.89464,0.694496,14.931701,-31.392391,-55.433281,-71.432956,-82.544975,-53.66716,-69.563667,-80.239986,-89.741935,-37.391452,-51.571655,-59.714378,-65.621589,-18.826664,-28.359089,-34.589012,-38.101764,-0.820152,-3.619445,-6.225414,-7.791492,0.417156,5.511408,12.712758,20.033175,0.957545,11.754995,15.283195,16.109304,2.481161,26.060434,44.797838,59.181877,6.809087,32.103485,50.282294,64.491147,11.578181,33.059803,47.96109,60.602706,35.886978,61.6646,82.281429,98.502445,54.610485,69.899631,79.049171,87.022705,35.319637,44.468491,50.693298,55.640511,12.957527,15.594395,17.845047,20.900482,-7.981796,-11.257862,-11.756573,-10.510242,1.640353,3.997107,4.173648,3.96169,-9.30424,6.217322,18.634388,29.102574,-10.903511,18.414649,43.517522,65.433886,-7.596804,21.127866,45.38503,66.021203,-1.946728,21.362725,39.678264,56.06293,140.559036,-132.380343,-163.691471,-139.442597
48,-6.001487,32.112122,5.21331,27.584508,-31.900692,-56.88382,-72.535916,-81.424119,-52.752938,-67.591027,-75.553425,-81.967942,-35.679051,-48.054612,-53.971596,-57.470398,-16.646633,-24.427815,-29.131508,-31.394841,1.545295,1.420623,0.302433,-0.491925,2.326711,11.612287,21.953504,30.98998,20.528295,41.097624,49.68815,54.018098,23.852216,54.86915,74.901251,89.269185,27.388258,58.718135,78.789872,93.650859,29.731731,55.597481,72.26222,86.228399,35.69228,61.872734,82.046505,96.411461,51.0038,65.745861,72.032891,76.5527,30.515385,37.628609,41.685826,44.795655,8.257118,9.463486,10.439095,12.570294,-11.973186,-16.522934,-18.585891,-18.273205,3.082855,9.696074,14.091151,16.664383,8.910942,33.365513,51.194268,65.519277,9.462778,46.224333,72.001768,92.616436,12.272073,46.74918,71.620953,91.58077,15.396826,42.168047,60.938653,77.153743,133.581093,-99.300213,-159.454617,-110.890081
49,-4.800225,37.023954,2.891602,38.851809,-31.630977,-56.300811,-71.603061,-80.977478,-50.739235,-63.683281,-68.675503,-72.020141,-33.458828,-42.835121,-46.403137,-47.477119,-14.670833,-18.803798,-20.737816,-20.588161,3.189286,6.466484,8.26743,9.945019,7.724929,22.643371,36.650197,46.520206,41.667505,69.201786,82.698954,91.82217,45.588438,81.533858,103.054452,118.857821,47.175825,81.931921,103.052856,119.017236,45.669506,73.750073,91.498641,106.790789,35.656906,62.36919,81.838039,96.108352,49.596576,63.605678,68.279022,71.012192,28.724567,34.090965,36.016445,36.915413,6.832031,6.489006,6.332931,7.189018,-12.722283,-18.767555,-22.162033,-22.972607,6.382334,18.305975,27.121148,31.793787,26.379294,55.922572,75.862632,91.632647,27.413632,68.707346,94.290002,113.776607,28.689035,67.076882,92.155281,111.725567,29.12523,58.820009,77.4894,93.128013,127.577339,-61.579831,-157.766544,-71.341844
50,-4.07666,35.691902,4.122551,35.320609,-32.088993,-56.034988,-71.009983,-81.483147,-47.512779,-57.135704,-59.350925,-60.436661,-29.52206,-35.687828,-37.556511,-37.204536,-10.717014,-11.220257,-11.030914,-9.805698,7.094216,14.261284,18.743054,22.348698,12.543532,33.324343,52.030792,63.465318,59.167676,95.044392,113.412469,126.61204,63.164189,104.834641,127.993903,144.879886,63.255487,101.856565,124.091305,141.061469,59.361529,89.077711,106.909157,122.693329,35.901947,61.26733,79.5359,93.206863,46.470875,59.567138,63.228,65.241508,25.716007,29.198009,28.949581,28.289566,4.474216,2.497902,0.931537,0.659488,-14.380223,-22.631573,-28.049114,-30.575215,10.248833,27.081992,41.126886,48.770151,43.201289,76.652583,97.509656,113.755473,44.455045,89.133188,115.051145,133.857547,44.277608,85.928718,111.007561,130.04467,42.61885,73.994778,92.411795,107.852881,122.537538,-25.969749,-154.607134,-36.103055
51,-0.715702,18.454128,4.01057,16.817978,-32.124481,-56.318367,-71.89373,-83.323311,-45.227234,-52.270615,-53.126495,-53.083671,-26.918816,-30.392074,-31.345619,-30.220779,-8.196098,-5.877319,-4.088837,-1.908829,9.542381,19.215042,25.279152,30.151131,15.561437,39.929045,61.132074,73.786295,69.741983,109.552369,130.575648,146.467413,73.260095,117.465085,141.630411,159.622771,71.981973,112.16848,134.871513,152.628073,66.125169,96.247965,114.011724,129.964955,34.635796,59.797749,77.900872,91.326496,43.560448,55.485558,57.851761,58.814404,22.715424,24.117508,22.202866,20.028466,2.329308,-1.464935,-3.86586,-5.475517,-15.711364,-25.496578,-32.226574,-36.465122,14.07944,35.824934,54.246823,64.99962,60.911681,99.868941,121.734311,137.981487,63.130589,110.249686,134.107927,150.32248,61.351381,105.105407,128.594226,145.762354,56.550484,88.786119,106.231148,120.565537,121.182014,-9.258955,-151.236386,-21.028411
52,3.188095,-1.228772,2.294071,3.304666,-32.302872,-56.780021,-73.939361,-87.06871,-44.34082,-49.820686,-50.358719,-50.133499,-25.900154,-27.448837,-28.002868,-26.958435,-7.111862,-3.190773,-1.121795,0.988999,10.483429,20.723969,27.018265,32.074104,17.43731,41.807876,62.161083,73.550607,72.038154,111.779676,132.98121,149.610868,75.027695,118.635688,142.837558,160.984547,73.053578,112.546622,134.934851,152.082187,66.232702,95.586309,112.868076,127.968843,32.885331,57.4823,76.256825,91.31622,40.930768,51.191128,53.369969,54.235096,20.167489,20.417874,18.782605,16.949845,-0.162162,-4.528701,-6.535675,-8.039394,-18.250751,-27.774375,-34.134201,-38.572059,14.337093,35.680271,53.403609,62.537291,61.027543,100.179509,122.184867,138.78565,63.648447,110.477711,134.036475,150.126231,62.10983,105.881881,129.00612,145.655587,57.198912,89.659313,107.001571,121.092786,124.010713,-13.284632,-149.301711,-20.52065
53,3.194939,-20.758549,-3.582138,-17.33478,-31.112114,-55.886444,-74.427406,-89.820648,-44.732689,-50.107155,-51.251747,-51.811318,-26.658577,-28.26519,-29.27108,-29.011528,-8.316628,-4.63131,-2.99913,-1.603913,8.953605,18.981903,25.060318,29.927444,15.430835,37.874071,55.786538,64.830608,63.53151,102.079217,123.917478,142.000179,66.040126,108.270072,132.926351,152.326002,64.301624,102.413552,125.066826,143.062236,58.330871,87.064345,104.615633,120.117358,33.217999,57.49973,75.398964,90.418133,44.411969,54.034138,57.543423,59.569909,23.724324,23.94825,23.187516,21.584656,2.816918,-1.006404,-2.531124,-3.919097,-15.949859,-24.034904,-29.946613,-34.247898,11.947217,32.114463,48.675275,56.364578,51.734329,89.989123,112.119594,129.452922,53.346138,100.18724,124.710249,142.600214,52.283185,95.921843,120.212065,138.349267,49.105867,81.852215,99.767776,114.635528,127.14045,-35.878502,-152.949051,-39.690751
54,4.881065,-29.559367,-6.185337,-23.88953,-31.248848,-56.666336,-76.165901,-91.682213,-48.405006,-54.666275,-56.609184,-58.109047,-30.136665,-32.81163,-35.271789,-36.544967,-10.745132,-9.007919,-9.347603,-9.939766,7.79171,15.644623,19.159378,21.368775,10.136543,27.8408,42.518617,50.330069,45.490822,83.285368,104.867217,122.495626,46.973279,89.603571,114.812214,134.616701,46.096605,85.241893,108.712156,127.102318,42.541378,72.547465,90.569582,106.237971,35.456921,60.727856,79.591565,95.137528,49.364205,60.819672,66.131768,69.473442,28.754345,32.014561,33.39592,33.695286,7.214413,6.46534,5.891247,5.452355,-12.448036,-17.612846,-21.850284,-24.699451,7.447372,20.84702,31.243007,35.397211,29.258957,61.194532,81.782428,98.763992,30.09599,73.238802,99.364595,119.509105,30.562221,72.522735,98.409816,118.427361,30.434407,62.199122,81.088838,97.031171,132.331392,-67.374423,-158.824511,-65.516835
55,6.654396,-31.738109,-3.960971,-32.982324,-32.481765,-59.711517,-80.799499,-97.731262,-53.96125,-62.633468,-65.735939,-68.028785,-35.538299,-41.108642,-45.336044,-47.955093,-15.210388,-16.306503,-18.768722,-20.682083,4.76326,9.173996,10.221131,10.844605,4.968419,16.113835,24.541929,29.036797,25.268111,60.035844,81.362086,99.159568,25.802561,66.095921,91.132625,111.545737,25.539859,63.452284,87.502621,106.632133,24.113888,54.293765,72.51697,88.398151,36.743843,62.084541,81.927818,98.580162,52.484516,65.540508,73.147521,78.917976,31.463401,37.153484,41.294414,43.99261,8.859169,10.039215,10.874507,11.884964,-12.178071,-15.400017,-17.815648,-18.840054,5.116086,13.958554,20.974734,24.974268,11.665749,38.396736,55.36428,69.659154,11.779456,50.978883,78.599018,100.994531,13.990803,53.045388,80.437948,101.915964,17.060975,47.17766,66.956444,83.805501,139.464746,-100.698045,-162.306524,-100.084672
56,4.962754,-27.040805,-3.777432,-27.747532,-33.106545,-60.905755,-83.127251,-101.677689,-56.995423,-67.317376,-71.198822,-74.366707,-38.66993,-46.306412,-52.192612,-56.12716,-17.643036,-21.135315,-26.075913,-29.660912,3.255821,4.574386,3.156211,2.137298,0.36132,5.879602,9.098605,9.311193,7.662957,39.907732,60.654601,78.068316,7.844627,45.820081,70.15816,90.440067,8.639401,45.010107,69.159279,88.061293,9.762095,39.434094,56.954588,72.109821,37.917686,62.761517,83.284355,101.721531,55.187325,69.572617,78.64967,85.487892,34.125938,42.524666,49.054413,53.845539,10.775665,13.933525,15.732044,17.870407,-11.229023,-12.878082,-14.314522,-14.358181,1.820278,6.102394,8.952812,10.639988,-4.349459,18.584237,34.143531,47.686422,-5.022726,30.230787,58.401526,82.412167,-1.504383,34.375253,62.110339,84.538821,4.023709,32.183067,51.784704,69.049721,145.203244,-128.017237,-165.308212,-128.110591
57,4.275672,-15.547732,-4.571468,-15.601251,-33.572868,-62.42308,-84.764442,-103.606613,-59.335098,-71.541046,-78.107894,-83.326538,-40.933319,-50.422851,-58.144958,-63.567123,-19.490638,-25.377342,-31.981063,-36.851852,1.414078,0.257126,-3.562522,-6.495849,-2.928251,-1.011259,-0.733944,-1.897408,-6.297239,18.642672,36.397268,52.261316,-6.73102,28.138706,52.322063,73.333669,-4.929125,29.667862,53.552267,72.427376,-2.002211,26.894926,44.356667,59.365472,38.956398,64.912433,86.752533,106.155121,57.414035,72.9104,83.300308,91.443134,36.263065,46.773307,55.005169,61.77634,12.39767,16.955406,19.773445,23.08033,-10.266026,-10.941468,-11.107693,-9.880051,-1.518884,-1.661945,-3.535125,-4.596145,-16.642166,2.653276,16.763585,29.195764,-17.903983,13.490476,41.175001,65.753151,-13.742873,18.620407,46.108125,69.278457,-7.273217,18.430682,37.914533,55.53748,150.401882,-141.991194,-168.956714,-142.138067
58,1.79329,-0.746772,-0.008274,0.106927,-33.721527,-62.271561,-84.09018,-102.194138,-60.901314,-74.271286,-81.200959,-86.699066,-42.183312,-52.625107,-61.346947,-68.048676,-20.038811,-26.930077,-34.683449,-40.696701,1.435844,-1.321656,-6.288964,-10.568962,-4.487091,-3.427318,-3.088228,-3.337527,-11.299288,11.217907,28.185012,43.563813,-12.279925,21.810072,46.531955,68.66969,-10.035372,24.485051,48.874531,68.402503,-6.126774,22.573051,40.103941,55.357981,39.017818,64.933925,87.881343,108.553791,56.31118,72.612407,83.635219,92.729518,35.341415,48.162391,58.164699,67.084098,11.324226,17.329547,20.264316,24.365203,-11.529259,-11.493084,-10.968602,-8.88041,-2.265564,-5.894256,-11.081035,-14.265661,-25.035396,-12.783703,-3.69843,4.537988,-27.087643,0.480208,28.955725,54.936214,-22.218212,7.773163,35.142684,58.60617,-14.822489,9.443299,28.816598,46.488841,153.197451,-141.228589,-167.962709,-140.521763
59,-0.974648,11.734881,0.74921,1.811534,-33.044563,-62.190353,-84.436363,-102.41082,-59.552994,-73.489471,-80.852806,-86.892746,-41.270302,-52.609955,-61.250702,-67.917709,-20.071815,-27.620064,-34.836799,-40.373428,0.58857,-1.201767,-4.66111,-7.461227,-4.384532,-1.330338,0.195956,-0.12866,-2.480733,21.484191,38.645458,54.251001,-2.15566,32.152217,56.806971,78.931597,0.222308,34.391188,58.690235,78.517097,3.353149,31.865624,49.370603,64.825339,38.264271,64.07587,86.7094,106.206779,56.983944,71.677872,81.832935,90.583317,35.487968,46.666328,55.780689,63.227268,11.148788,15.990944,18.882854,22.162834,-12.003914,-12.346149,-12.156784,-11.058174,-0.57761,0.377197,-0.163243,-0.149241,-13.276258,5.36918,17.301512,27.613179,-15.732223,17.201229,45.427339,71.22798,-12.131884,21.536287,48.931595,72.29239,-6.153558,21.109052,40.957348,59.043676,152.959963,-128.510496,-166.476339,-137.727017
60,-4.67308,23.085185,2.04744,20.016288,-31.804276,-60.002426,-81.759545,-98.023087,-55.177712,-68.42656,-75.142319,-80.687119,-36.718643,-47.287056,-55.125046,-61.017014,-15.963135,-22.612908,-28.808167,-33.487152,3.759887,3.412925,1.47718,-0.295578,-2.087525,5.227043,11.267045,13.683048,13.32723,40.263189,57.661408,73.130655,15.362385,51.847075,76.7802,98.324199,17.856981,53.421535,77.436242,96.671437,19.700583,48.698712,66.590079,82.153001,37.106952,63.618953,85.833309,103.524444,55.624866,69.941551,78.154426,84.827785,34.301628,44.52658,51.579494,57.128185,10.667472,14.620491,16.584651,18.889629,-11.480473,-12.624196,-13.619088,-13.564213,0.599566,4.959988,7.458722,8.432766,1.364249,26.581774,42.490178,55.498446,0.16798,39.03628,66.158441,89.578353,2.687403,41.083454,67.495797,89.632199,6.283806,36.356445,55.86327,73.398649,148.26772,-104.557937,-164.448062,-116.843355
61,-1.920296,28.771644,1.050109,29.919505,-31.832268,-59.170052,-79.647469,-95.38163,-52.829453,-65.109489,-71.494286,-76.370407,-34.353996,-43.865318,-50.693092,-55.578163,-14.551987,-19.586288,-24.079033,-27.35891,3.911659,5.59726,5.996063,6.202057,3.221726,15.37241,25.580053,30.955673,29.448657,57.364845,76.169312,93.078739,32.638724,69.568017,95.479206,117.846669,34.795693,70.743455,95.303224,114.966426,34.850185,63.929553,82.770564,99.580552,36.482518,63.650677,84.921341,101.178257,53.934437,67.137337,73.810009,79.245381,32.522255,40.748372,45.496891,48.857747,9.516896,12.066227,13.114163,14.374226,-11.770946,-13.841056,-15.397625,-15.811008,3.536949,12.569954,19.607997,22.881179,18.439778,47.902372,65.059838,78.685876,18.478705,61.892805,88.366648,110.013295,19.926641,61.821097,87.680296,108.622083,21.170236,53.83349,73.34264,90.168133,146.159998,-75.408516,-163.585379,-86.546073
62,-2.382317,29.171108,2.275887,29.897959,-31.524147,-57.249412,-77.328666,-93.815231,-49.43724,-59.241211,-63.252662,-66.403404,-31.201629,-38.251716,-43.281189,-46.575416,-12.445175,-14.491539,-16.805763,-18.367195,5.382454,9.94471,13.284417,16.156792,8.584239,25.706412,39.620768,46.13406,45.215065,78.745286,101.203621,120.160608,49.221537,87.449519,113.764519,135.754884,50.700867,87.592477,112.74899,132.838313,49.310433,78.788073,97.550763,114.765932,35.939083,62.132698,81.998234,97.662002,50.894669,63.233013,68.768211,72.899906,29.657627,36.465843,39.414322,40.543796,7.532272,8.759033,8.52317,8.313652,-12.939297,-16.718353,-19.482376,-21.297089,9.501666,23.937158,36.447109,43.17406,36.848499,69.181889,87.161932,101.579307,37.446293,83.376172,110.363745,131.848887,37.844941,81.804957,107.842741,128.627745,37.208322,71.355367,90.974498,107.653902,143.688097,-46.562222,-161.399076,-56.972928
63,-2.581901,25.664916,0.801659,24.895055,-31.610504,-56.539238,-76.253494,-93.289467,-45.551354,-53.635414,-57.119728,-59.72525,-27.591522,-32.906639,-36.597611,-38.410813,-9.65847,-9.971878,-10.425293,-10.206871,7.499428,13.867287,19.07373,24.057197,12.28362,32.364731,48.347497,54.719936,56.095112,91.677551,114.624678,133.65521,60.784432,99.411556,125.112646,145.767584,61.598592,98.429514,122.962564,142.198861,58.557323,87.783725,105.99331,122.675456,34.862102,60.810447,80.100311,96.200981,48.374713,60.183837,64.35934,66.855526,27.362892,32.248512,32.795333,31.693931,6.344558,5.756836,4.949146,3.764682,-13.105397,-18.861821,-22.764508,-26.078202,13.047424,33.094281,49.734054,57.741279,54.184789,93.320033,115.865176,133.93502,56.249803,104.409338,130.028121,149.431422,55.520401,100.568907,125.516407,145.143238,52.498268,87.087199,105.896887,121.968661,141.095192,-20.915213,-160.608421,-32.09578
64,-3.031883,17.664434,2.648597,21.427813,-31.487297,-55.100418,-73.606247,-90.431855,-42.2799,-48.87101,-52.081444,-54.182808,-23.971573,-27.906922,-31.028962,-32.383301,-5.83017,-5.040688,-4.90931,-4.103897,11.13208,18.048935,23.874641,29.496826,13.727098,35.01743,52.792156,60.003363,59.566226,94.930057,117.574865,136.274409,64.542327,102.698252,127.929193,147.816802,65.332343,101.507272,125.447839,143.919487,61.893988,90.337586,107.981229,124.097339,33.327027,58.702423,77.549526,94.245575,43.791069,55.777634,59.653107,61.760651,23.111561,27.272129,27.204438,26.102543,3.062542,1.542183,0.298405,-0.828998,-15.193668,-22.639812,-27.448082,-31.162536,15.21537,37.016396,55.008786,63.167102,61.977888,100.639506,122.253583,139.136084,65.512439,111.880465,136.832571,154.892758,65.079883,108.402972,132.242577,150.528819,60.995235,94.129,112.046079,127.050627,138.241585,-2.674457,-157.781548,-10.091645
65,-1.093918,6.011409,-0.724182,11.889925,-31.301605,-54.433525,-72.398712,-89.910118,-41.600258,-47.26648,-50.75473,-53.210976,-23.469727,-26.565422,-29.562538,-31.10305,-5.499504,-4.280937,-3.761444,-2.82415,11.296463,18.693489,24.914245,30.920311,13.408157,35.538517,54.208192,61.588428,58.562318,93.756305,116.613436,135.67761,63.20288,101.225628,126.501684,146.712143,63.836131,99.806802,123.723619,142.559631,60.431194,88.921865,106.225726,122.496657,32.99707,58.176567,76.895668,94.362991,43.278877,54.805927,59.028546,61.365818,22.7612,26.506085,26.704743,25.95987,3.031231,1.510655,0.421932,-0.594211,-14.918701,-22.280411,-26.949886,-30.71759,15.326125,37.376715,55.123289,62.253968,61.444222,98.727114,120.050791,137.005305,64.885375,109.446726,134.227142,152.636564,64.516984,106.322686,129.857646,148.141313,60.458377,92.95786,110.550645,125.443905,138.280106,3.881369,-157.373291,2.342697
66,-2.912178,0.783588,0.50782,2.534632,-30.33236,-53.313332,-71.513718,-88.830414,-40.332436,-45.655655,-49.131638,-51.777809,-22.131821,-24.910767,-27.548744,-29.275955,-3.805161,-2.643242,-1.971314,-1.361641,13.29451,20.912315,27.040168,32.589637,10.725163,32.391963,51.390465,58.470749,56.09571,92.407861,114.315759,132.256964,60.474858,99.836596,124.65434,143.949973,60.972622,97.771162,120.986421,139.44796,57.600525,86.80369,103.589885,119.168798,31.799412,56.722367,75.769261,93.818974,42.905331,54.322518,59.352722,62.657971,22.838734,26.571751,27.267037,27.195832,3.378331,1.995163,1.036858,0.193325,-14.403396,-21.895191,-26.819103,-30.909176,14.356866,36.247035,53.484934,59.620263,57.349787,94.25045,115.850757,133.197213,60.398603,104.660736,130.209518,149.420442,60.284068,101.95634,126.04838,144.854135,56.808489,88.966294,106.873049,122.427694,136.485249,5.590225,-155.74815,5.802597
67,-2.581238,-3.250357,1.500767,-0.888885,-29.579979,-52.928101,-71.004685,-87.972725,-39.874741,-45.32785,-49.062264,-51.862701,-21.663529,-24.905777,-27.602348,-29.640518,-2.928017,-2.446884,-2.096283,-1.906311,14.513237,21.82457,27.674675,32.795242,7.481162,28.189094,47.116633,54.128392,52.88451,90.145734,111.452701,129.199714,57.237186,97.686608,122.276857,141.609268,57.66222,94.686859,117.52005,136.056184,54.327648,83.833212,100.465031,115.960432,30.928413,55.913544,75.261589,93.154301,42.498608,54.163067,59.523308,63.409069,22.514568,26.268505,27.408657,28.121212,3.085819,2.107876,1.552528,1.197075,-14.482349,-21.511871,-26.327705,-30.059967,12.183548,32.99545,49.149907,54.218727,52.741014,89.807033,111.460537,128.750381,55.721806,100.243519,125.620117,144.517367,55.883221,97.783908,121.692982,140.125486,53.008091,85.435635,103.44166,119.232117,134.783043,3.136924,-153.368351,5.710768
68,-1.761475,-5.980644,1.300255,-3.183728,-29.256225,-52.680771,-70.778045,-88.041778,-40.031204,-45.322334,-49.392791,-52.487388,-21.757988,-25.118751,-27.994217,-30.257011,-2.781234,-2.598816,-2.655372,-2.728866,14.735825,21.735398,27.306084,32.187218,6.155416,26.219935,44.988972,52.12816,50.121815,88.027478,109.352279,127.169947,54.395054,95.528412,120.141058,139.335154,54.867692,92.373027,115.277429,133.791493,51.843145,81.906413,98.798991,114.458735,30.19804,55.255062,75.08091,92.778339,42.230038,54.027157,59.769802,64.18507,22.436245,26.24897,27.958431,29.275131,3.051784,2.183864,1.785427,1.591381,-14.456555,-21.193142,-25.886845,-29.307964,11.140553,30.575303,45.733282,50.881877,49.355974,86.149278,107.840926,125.13776,52.293516,96.72729,122.1333,140.794546,52.565279,94.53549,118.706127,137.149388,49.96098,82.583346,101.085252,117.340103,133.734506,-2.250577,-151.355158,3.120183
69,-1.257545,-5.042132,0.869705,-3.056553,-29.207543,-52.812538,-71.276665,-88.551773,-40.273476,-45.704704,-49.86573,-52.946823,-21.991333,-25.603386,-28.519844,-30.731003,-3.090088,-2.938957,-2.944222,-3.042549,14.408684,21.236732,26.584694,31.311767,5.577193,25.316089,43.6857,50.636672,48.522739,86.414719,107.870696,125.788159,52.592721,94.050324,118.873273,138.017476,52.912267,90.955214,114.082435,132.62911,49.84413,80.238023,97.302453,113.089717,29.528835,54.556698,74.555191,92.279892,41.853161,53.971321,59.982639,64.620071,22.194569,26.606999,28.820217,30.36216,2.862682,2.294781,2.126644,2.035652,-14.729496,-20.98352,-25.363312,-28.537147,10.3242,29.151783,43.757281,48.702557,47.21171,83.717621,105.422416,122.755997,50.093942,94.285402,119.823452,138.462455,50.502723,92.404793,116.831613,135.349006,48.164241,81.056907,99.851652,116.503305,133.065193,-6.740756,-149.897221,0.615583
70,-0.847275,-3.515889,0.261692,-2.266641,-29.518341,-53.064903,-71.770729,-89.320702,-41.203926,-46.675873,-50.851959,-53.794968,-22.96273,-26.758758,-29.705246,-31.797615,-4.10305,-3.911934,-3.91008,-4.017219,13.500778,20.397514,25.625015,30.270241,5.738849,25.422941,43.676252,50.328333,47.692282,85.472815,107.085903,125.21956,51.633021,93.210709,118.435747,137.711879,51.936067,90.410779,113.838947,132.465681,48.912329,79.454737,96.817872,112.823517,29.22068,54.018036,74.107487,91.891743,41.902199,54.249275,60.198074,64.830093,22.273499,27.011192,29.350113,30.863285,2.895699,2.517208,2.517243,2.416466,-14.860691,-20.68737,-24.674892,-27.666195,10.23271,28.934471,43.328967,48.257947,46.153832,82.552891,104.261507,121.674852,48.809057,92.962065,118.826645,137.583654,49.183332,91.28162,116.118704,134.832024,47.014831,80.334495,99.529579,116.523466,132.598766,-9.676259,-149.254681,-1.070672
71,-0.281982,-0.854045,-0.417606,-0.634831,-30.189858,-53.747818,-72.656388,-90.566002,-42.777535,-48.546135,-52.81604,-55.754609,-24.426361,-28.516434,-31.531952,-33.579689,-5.522141,-5.771599,-5.934975,-6.183907,12.218467,18.700882,23.532074,27.841827,5.685465,25.133862,43.29498,49.969742,46.394733,84.101912,105.892891,124.197406,50.429252,92.200404,117.763056,137.070477,50.946899,89.792429,113.528731,132.182734,48.161968,78.884428,96.614818,112.951316,29.222042,54.048786,74.328655,92.284607,42.558964,55.199318,61.162136,65.724884,22.925319,28.113258,30.78669,32.407768,3.505073,3.21793,3.568554,3.619686,-14.37624,-19.762356,-23.244576,-25.981854,10.279597,28.748768,42.735194,47.685953,45.528393,81.710516,103.34615,120.657754,48.00041,91.765885,117.769453,136.514507,48.275978,90.338895,115.442716,134.26074,46.135406,79.799995,99.248485,116.393524,132.707262,-10.218915,-149.281809,-1.394114
72,-0.516289,1.65488,-0.528088,0.867877,-30.64888,-54.434761,-73.587158,-91.474457,-44.517174,-50.880844,-55.252762,-58.255234,-26.244278,-30.907997,-34.120926,-36.232086,-7.440537,-8.323952,-8.823807,-9.417572,10.42028,16.226349,20.480987,24.129936,5.462917,24.647344,42.434766,48.843421,44.91092,82.053188,103.830255,122.150849,49.219802,90.758934,116.447976,135.717859,50.096998,88.892268,112.673439,131.186188,47.675573,78.387233,96.387243,112.909208,29.262623,54.269303,74.70298,92.736912,43.13316,56.322464,62.53886,67.225342,23.643265,29.621945,32.830616,34.685887,4.311665,4.518963,5.459347,5.895355,-13.598041,-18.487964,-21.419208,-23.792095,10.181352,28.366034,41.717387,46.231082,44.584613,80.353477,101.703052,118.74201,47.055074,90.467515,116.38919,135.002332,47.443465,89.413516,114.579878,133.357104,45.521175,79.327586,98.861175,116.111337,132.730019,-8.648003,-149.270851,-0.610205
73,-0.656525,4.082925,-1.220409,2.425569,-31.009414,-55.502929,-74.947632,-92.709457,-46.905876,-54.367492,-58.985298,-62.151947,-28.898689,-34.723366,-38.637176,-41.202713,-10.293617,-12.671745,-14.196235,-15.684105,7.625359,11.748368,14.899498,17.334137,5.224449,24.054472,41.355084,47.538314,43.032343,79.144842,100.765471,119.038591,47.960421,88.424361,113.925595,133.118414,49.607607,87.566326,111.060419,129.235776,47.990407,78.080975,95.871053,112.024491,29.36158,54.873516,75.727672,94.353607,44.702499,58.834877,65.389274,70.202499,25.476917,32.550647,36.427894,38.713772,6.245567,7.492298,9.298187,10.470726,-11.772377,-15.721356,-17.864308,-19.624214,9.486332,27.103614,39.465614,42.808084,43.126796,78.391882,99.47932,116.163633,45.971965,89.130402,114.756805,133.140779,46.848283,88.538821,113.329425,131.763097,45.477986,79.107149,98.463082,115.478914,132.798757,-5.238855,-149.765997,1.141587
74,-0.418052,6.059352,-1.656475,4.046856,-31.527398,-57.092308,-77.067399,-94.840668,-51.007943,-60.015656,-65.260872,-69.189675,-33.729241,-41.256066,-46.418129,-50.009629,-15.424691,-20.169068,-23.421204,-26.334527,2.583023,3.98545,5.515251,6.249298,4.696471,23.074171,40.029766,46.065894,40.20113,74.838831,96.235423,114.454987,46.168208,85.091407,110.067973,129.020304,49.255092,85.924432,108.774079,126.246383,49.267671,78.463192,95.584339,110.840625,29.833145,56.320232,77.766037,96.880062,47.370243,62.501197,69.604156,74.83731,28.536426,37.172321,41.913837,44.953994,9.402019,12.445301,15.294159,17.434181,-8.781796,-10.875481,-11.954041,-12.766892,8.671499,25.660217,37.256222,39.437314,40.388215,75.089971,95.82495,112.2493,43.778418,86.531105,111.723983,129.849464,45.542121,86.702197,110.894144,128.838375,45.331731,78.45107,97.37307,113.963417,133.341597,-0.338926,-150.46158,4.02902
75,-0.57708,8.870805,-1.525338,6.458142,-32.284493,-59.075363,-79.943413,-97.983628,-55.729431,-66.993622,-73.647286,-79.022301,-39.708573,-50.049065,-57.366097,-62.499596,-22.218361,-30.301552,-36.078118,-40.842041,-4.616593,-7.121041,-7.910523,-9.260399,4.149806,21.454396,37.540329,43.433103,36.038164,68.377602,89.174189,107.075739,43.200322,79.671005,103.854201,122.426681,48.029211,82.811946,104.916222,121.595762,50.02265,78.050198,94.368097,108.492843,30.717305,58.424263,80.363286,99.941163,50.90569,67.444863,75.529496,81.316452,32.568936,43.821282,49.98024,53.948697,13.654164,19.595593,24.046074,27.51978,-4.628963,-3.920368,-3.394741,-2.747829,7.372542,23.473765,34.113052,34.540951,36.506553,69.852523,90.076672,106.295727,40.827539,82.371647,106.962965,124.807339,43.916763,84.145761,107.631987,125.040268,45.33312,77.773069,95.949044,111.812169,133.763695,6.425764,-150.98774,8.381047
76,-0.741188,12.262211,-2.15451,9.668349,-32.975052,-61.497368,-83.449379,-102.026871,-60.872498,-74.656472,-83.215393,-90.382439,-46.500366,-60.32309,-70.511238,-77.607605,-30.287361,-42.524918,-51.447899,-58.360451,-13.446442,-20.89238,-24.463417,-28.173867,2.709559,18.523691,33.47262,39.089968,30.06722,59.717162,79.470273,96.883402,38.457027,71.774498,94.833016,113.222314,45.143232,77.451319,98.524098,114.42352,49.396841,75.659513,91.221012,104.518988,32.141899,61.281315,83.851353,103.927975,55.562244,73.812584,83.274605,89.996521,38.05616,52.793415,60.843224,66.098133,19.62117,29.7075,36.297649,41.352333,1.484928,6.159027,8.964752,11.565342,5.32688,19.931853,29.427591,28.221068,30.950442,62.327827,81.998483,98.273977,36.73732,76.232044,100.019451,117.472736,41.748879,80.404007,102.907172,119.437974,45.442202,76.794022,93.97965,108.721455,134.117312,16.301198,-152.047445,15.662619
77,-4.355187,17.064412,-2.350948,14.11271,-32.610718,-61.888847,-84.469002,-103.028045,-64.741241,-82.76374,-93.065059,-101.467106,-52.255554,-71.088569,-83.738228,-92.608772,-37.508079,-54.914657,-66.584221,-75.340049,-21.86808,-34.423713,-40.949089,-46.988754,0.344554,13.571993,27.145184,32.082976,23.579944,51.141814,69.395465,85.118898,33.388213,64.361089,85.585589,102.435214,42.074143,72.171677,91.276025,105.299334,48.68642,73.14298,87.171815,98.533539,33.63208,64.196869,87.435871,108.272232,60.689804,80.814788,92.268058,100.636745,44.627803,62.825557,73.460323,80.722721,27.114143,41.565433,50.780342,57.662155,9.296184,18.54467,24.197616,28.901413,2.041136,14.46861,22.967412,20.468663,23.590473,52.14282,70.953076,87.313169,31.165396,67.021557,89.552764,106.69582,38.406398,74.235469,95.578079,111.544524,44.66366,73.992543,89.967547,103.56592,130.687299,30.743724,-153.473219,27.153443
78,-4.286133,20.678434,-1.097466,18.557796,-32.892974,-62.780021,-86.093055,-104.834976,-68.509941,-89.892288,-102.164669,-112.400962,-58.087692,-81.176673,-96.23711,-107.021427,-45.14653,-66.932144,-81.31105,-91.95615,-31.052627,-48.032043,-57.08773,-65.118507,-3.25923,7.060592,19.192788,23.591801,15.707724,40.128518,56.610944,70.967643,27.068614,54.788028,73.959166,89.450758,37.75038,64.991129,82.265659,94.567076,46.663774,68.532491,81.34898,91.399286,34.928364,66.602589,90.52906,112.013168,65.108906,86.918759,100.612255,110.780239,50.604538,71.968529,85.222069,94.600193,34.255016,52.797524,64.552197,73.156277,17.013348,30.629505,38.952736,45.60387,-2.087256,7.451886,15.135977,12.229546,15.737259,40.789494,58.307407,74.622082,24.958041,56.156337,77.413089,94.580247,34.214144,66.255204,86.379008,102.009482,42.796802,69.490369,84.236794,97.015924,127.189767,48.866519,-153.782084,43.1556
79,-5.159637,23.437085,0.689701,22.061866,-32.709663,-62.371124,-85.662003,-104.311775,-70.952156,-94.749023,-107.824677,-117.912712,-62.717812,-89.170418,-104.958618,-115.874485,-51.807724,-76.994545,-92.685448,-103.832382,-39.486443,-59.710533,-70.642662,-79.937622,-7.398848,-0.007521,10.314671,14.32189,8.087303,29.124434,43.365165,55.602041,20.673933,44.816158,61.8317,75.390633,32.952329,56.791551,72.090271,82.433175,43.736878,62.936156,74.848181,83.727433,36.01339,68.446255,92.768852,114.998406,68.737301,92.071461,107.882824,120.063595,55.734982,79.968888,95.853378,107.754742,40.690968,62.851891,77.37521,88.169209,24.309208,41.284172,52.306904,61.20195,-6.21952,0.160916,6.593592,3.305074,9.199638,30.887785,47.172807,63.249496,19.680548,46.588914,66.383725,83.228947,30.360541,58.543868,77.572103,92.924354,40.543234,64.349462,77.847201,89.833969,122.685665,69.570774,-152.436848,62.484636
80,-9.371246,26.704219,2.267876,25.345062,-32.898743,-62.2454,-84.271111,-101.191727,-72.781563,-99.459332,-113.508419,-123.632241,-66.139687,-96.474358,-113.888523,-125.440979,-57.141358,-86.015454,-103.284851,-114.764237,-46.646828,-69.831127,-82.562336,-92.503178,-9.782791,-3.647338,6.036769,10.759472,4.786225,25.161261,35.992141,44.231875,17.142106,38.68118,50.97691,59.957717,29.325666,50.224376,61.117896,67.191111,40.107133,57.185247,66.464827,72.560309,36.747299,69.764889,94.303253,117.238644,71.67279,96.280495,113.777172,127.971702,59.780926,85.996834,104.151867,118.770721,45.962894,70.860569,87.730533,100.466251,30.615108,50.186897,63.405865,74.035698,-10.182909,-7.233122,-2.223157,-5.83718,3.046314,22.19156,37.394363,53.25035,14.391748,37.537044,55.883524,72.184817,26.042106,50.306473,68.290571,83.13629,37.363494,58.202536,70.694675,82.048112,113.998879,93.80682,-149.484512,85.361525
81,-9.175461,27.575684,7.199283,28.020385,-33.653435,-63.119202,-84.766949,-99.84549,-74.795769,-104.245274,-118.643887,-127.946606,-69.324738,-102.283253,-119.851113,-130.933422,-61.571869,-92.884369,-110.42577,-121.580223,-52.476196,-77.095242,-90.528362,-100.317227,-12.754369,-8.953205,-0.886323,3.932229,2.44242,19.092455,25.360437,28.91224,15.588589,32.251011,39.542932,43.581273,28.07073,44.025382,49.949297,51.310239,38.726091,51.927286,57.430939,59.640505,36.215744,69.281651,93.879387,115.660012,72.559983,99.980141,117.823723,131.705418,61.971875,90.881848,110.084885,124.946366,49.265786,76.968968,94.994317,108.01529,34.889466,56.923909,71.038994,81.875176,-13.377726,-12.931104,-8.984524,-12.248608,-0.528787,17.114121,30.108087,43.002018,12.612102,33.744303,49.393371,62.884613,25.606649,47.357812,62.754801,75.249478,37.655358,56.22614,66.932933,76.445053,105.353937,118.614233,-141.75471,110.613639
82,-8.578778,27.422993,7.265019,27.864787,-34.215373,-63.725229,-85.015205,-98.476037,-76.116754,-105.222301,-117.731517,-124.694251,-72.17546,-104.543987,-119.538883,-127.648973,-66.033004,-96.927709,-112.120462,-120.542014,-58.456472,-82.826837,-94.598848,-102.056407,-14.888975,-12.943022,-6.067465,-0.279624,0.246551,13.349211,16.634437,17.587055,14.148026,26.317433,30.50166,31.673374,26.942322,38.740498,41.66359,40.199852,37.58466,47.676363,50.757882,50.783656,35.825111,68.299759,92.527908,113.54171,73.123547,101.66201,119.506348,133.195782,63.412479,93.654648,113.54044,129.08083,51.78447,80.621818,99.517548,113.57436,38.475632,61.628517,76.285332,88.010204,-15.821913,-17.534999,-14.895743,-17.862103,-1.302853,14.779517,26.102307,37.205222,12.484847,32.122101,45.853368,57.577943,25.716793,45.724044,59.354774,70.117031,37.747854,55.115398,64.717896,72.821489,97.423404,143.277854,-133.841446,135.719054
83,-11.7816,27.677986,7.077587,27.206787,-32.587407,-61.154532,-81.593457,-92.70024,-75.030058,-103.005742,-110.875111,-112.883744,-73.00866,-103.50879,-112.528714,-114.721007,-68.657181,-97.591055,-107.03789,-109.738736,-62.722018,-85.406668,-93.352736,-96.349812,-15.865996,-15.876253,-10.004876,-3.169507,-0.737726,10.706836,12.379544,11.311403,13.778536,23.775601,26.366043,25.343357,26.965065,36.388863,37.299756,33.795513,37.823134,46.668541,47.889853,46.056187,35.740826,68.003346,91.949226,112.428051,73.49017,102.356003,120.06942,134.095642,64.4217,95.285992,115.712242,132.23497,53.784531,82.921028,102.460465,117.467789,41.55518,64.620552,79.649895,92.185009,-16.980764,-19.734024,-18.459878,-21.987975,0.031937,14.989437,25.03208,34.776764,14.091166,33.00386,44.862298,54.766311,27.060791,45.978375,58.117765,67.400692,38.408738,54.733843,63.44238,70.403998,86.265896,168.460373,-126.139767,160.430374
84,-11.322281,25.234145,10.451752,27.86751,-30.222325,-59.091998,-79.195233,-89.271235,-75.212065,-99.782319,-101.238213,-97.927025,-74.030125,-100.082611,-101.944908,-97.728842,-70.279759,-95.389899,-97.508532,-93.817085,-64.886301,-84.998583,-87.941386,-85.753201,-9.098244,-8.900525,-3.855868,4.239802,1.571622,15.517626,18.647544,16.928814,12.895364,25.05423,28.984965,27.665716,23.337883,34.850179,37.109404,33.730132,31.778819,42.139309,44.041407,42.029529,34.150097,65.650085,89.250023,108.242294,73.771019,105.926731,121.341614,131.695507,65.085674,99.095146,116.531387,128.552364,54.62178,86.028797,103.017288,114.488296,42.791473,67.981601,81.689174,91.759174,-18.875297,-22.203737,-21.420143,-24.976214,1.880325,17.244371,25.400242,32.450941,17.825269,36.591812,45.434595,51.731914,31.266321,49.512716,58.413568,64.226011,42.094577,57.705242,63.776641,67.602832,75.402706,191.666866,-115.228924,186.270232
85,-12.313179,22.98267,7.704654,23.266802,-24.530297,-51.288311,-70.696444,-80.499619,-70.514048,-87.713494,-81.729493,-73.013615,-71.167689,-87.916821,-80.8121,-69.697993,-68.649273,-85.670346,-79.346495,-69.567845,-64.245026,-80.594811,-79.336676,-73.603192,-7.836121,-9.628482,-6.318518,1.461107,0.591983,14.415232,19.172762,18.416251,11.921047,25.252677,31.716803,32.196652,22.007532,34.731235,39.383629,38.114744,30.170523,41.085908,44.851967,44.515971,33.392178,64.368645,88.104355,105.974923,73.299088,106.862767,121.597905,130.568642,65.370781,100.817254,117.673588,128.218758,55.525326,87.790249,104.357403,114.911133,44.40041,70.122838,83.436402,92.857567,-18.763492,-22.03288,-21.376473,-24.618259,5.597836,20.458196,27.404635,32.477024,22.91853,41.393413,48.749851,53.142985,36.816547,54.880197,61.993091,65.574875,47.195074,62.713583,67.835335,70.025363,63.347781,213.042145,-107.266016,207.929643
86,-17.717286,21.858213,3.893006,19.636545,-15.686759,-37.107753,-53.513162,-62.222923,-60.36355,-66.985874,-53.596847,-40.720184,-63.817262,-68.541595,-53.273666,-36.50636,-63.743545,-69.903545,-55.788865,-40.806781,-61.40475,-73.856002,-70.2772,-62.733226,-8.697786,-11.847681,-9.209252,-1.602861,0.460875,17.022693,23.732067,24.434027,12.509183,29.065024,37.139934,39.0869,22.648662,38.206129,44.601922,45.520928,30.980244,44.143838,50.242951,52.429002,33.795433,64.097122,87.770256,106.607048,73.07468,105.531063,120.789814,130.806404,65.300468,100.28968,117.610073,129.405556,56.123565,87.725601,104.565101,116.049637,45.763904,70.887611,84.3918,94.460495,-18.208147,-21.501049,-20.881507,-24.82437,8.642909,22.28129,29.179379,35.11473,25.68454,42.528287,49.674859,54.6431,38.96945,55.953073,62.900192,66.535303,48.626016,63.72561,68.805841,70.974157,45.835464,233.890294,-103.168041,226.556124
87,-22.460643,18.05537,5.051948,16.453014,-7.616043,-21.492079,-32.205122,-37.446722,-44.28257,-38.909821,-20.386975,-5.188019,-49.87171,-42.457833,-21.675373,-1.55452,-52.073605,-47.541041,-27.82782,-9.770016,-51.548098,-59.24267,-54.516575,-46.94125,-9.68704,-12.935594,-10.412657,-2.928143,0.20608,18.728332,28.261898,31.505795,13.204233,31.632037,41.632399,45.0954,23.576764,40.924443,48.858785,51.429374,31.681487,46.619968,55.168818,59.618244,33.667523,63.68224,87.550667,106.675965,71.834805,104.335877,119.639328,129.59047,63.650013,99.295361,116.57967,128.265473,54.398198,86.365517,103.012848,114.189927,44.330944,69.343106,82.655995,92.430886,-16.862469,-19.647165,-18.484652,-22.452635,11.376205,25.361561,32.287438,37.933649,28.801948,45.548586,52.463027,57.050131,42.018599,58.798656,65.187551,68.220571,51.111434,65.954565,70.610658,72.417413,23.415236,251.405765,-98.075678,242.469239
88,-8.694397,14.318957,4.994202,12.96834,-2.452355,-12.605341,-21.450766,-27.167422,-38.887001,-26.928292,-5.499619,10.463344,-46.05007,-31.261391,-7.999924,13.506431,-49.558914,-38.503183,-16.174027,2.79903,-50.138289,-57.447447,-54.723129,-49.443833,-9.853779,-13.299044,-11.189539,-4.360159,1.217762,21.83502,32.215456,35.924099,14.39073,34.296593,44.469634,47.930756,24.224823,42.805621,51.03871,54.321677,31.908803,47.437815,57.386449,63.615349,33.121662,62.223713,85.901699,104.829918,70.256058,103.396122,118.409843,127.452713,61.49247,98.109444,115.072929,125.787689,51.66378,84.377186,100.633942,111.055378,41.409943,66.929913,79.910877,89.095379,-15.372592,-17.810091,-15.85637,-19.111419,13.625179,28.758587,35.87631,40.9702,31.601564,48.846713,55.760968,59.798123,45.027375,62.163349,68.027922,70.039763,54.015963,69.203502,73.224466,74.02632,14.674576,265.358829,-93.127739,255.071686
89,-16.17667,12.359568,0.34758,8.340357,2.327385,-1.495028,-6.569578,-10.081736,-25.500561,-6.969361,14.571201,29.20951,-34.816035,-12.887719,10.490753,31.201595,-40.413517,-22.831724,-0.277474,17.528915,-42.932665,-48.37559,-48.301266,-46.31527,-16.620587,-20.013945,-16.210626,-9.295759,0.713013,20.925905,30.392743,34.83492,17.406953,35.834782,44.224039,47.192505,29.135746,46.074538,51.931089,54.558909,38.222943,52.44029,61.563678,68.132947,33.866638,62.520332,86.242847,105.876709,68.238453,98.838787,115.492561,127.145393,59.08231,93.569023,113.203148,127.492172,49.278156,80.265358,98.57016,111.730362,39.220448,63.037514,76.826832,87.861374,-12.525825,-14.416079,-11.981976,-14.902462,15.736265,30.917332,39.137917,45.39006,32.805721,50.152573,58.668572,64.409458,45.839282,63.400037,70.637259,73.822308,54.57988,70.359036,75.795456,77.819758,-1.622045,277.522305,-92.90011,263.215951
90,-12.423821,11.068014,2.194141,8.727062,5.316822,7.270432,7.890953,7.928799,-13.181316,8.050392,28.910912,42.892376,-23.476696,0.537781,23.819275,43.681584,-30.474529,-11.690174,10.036652,26.648255,-34.61903,-38.694385,-38.85609,-37.742248,-18.348617,-21.513634,-18.030861,-12.783175,0.374911,18.509056,27.647709,33.211446,17.665879,34.359571,43.064589,47.324206,29.739653,45.429642,51.493162,54.844715,39.196395,52.444118,61.370375,68.613772,33.615063,61.420292,84.849736,104.854878,65.880673,95.777653,112.644024,124.589138,56.126004,90.213307,110.161938,124.666821,45.889538,76.335617,94.626435,107.973668,35.59409,58.782498,72.435322,83.508294,-11.180443,-12.298076,-8.963591,-11.240576,17.498461,33.648812,42.218102,48.654026,34.134084,52.116174,60.744226,66.572872,46.642013,64.776787,71.849247,75.095232,54.821731,71.013789,76.303625,78.27623,-14.233847,288.635962,-90.89395,271.988656
91,5.580185,6.91922,1.776375,7.749405,1.707859,1.241215,-0.902469,-3.464928,-18.399204,0.367905,21.4949,36.177761,-27.956749,-6.615509,16.539425,36.736096,-33.786564,-17.852657,4.143906,21.660668,-37.086674,-42.668941,-43.176384,-41.899063,-12.739691,-13.336657,-7.630857,-1.001543,3.781817,22.408286,32.579369,39.160456,18.948916,35.140615,45.105415,50.31636,29.492293,44.516415,51.754798,55.84091,37.888904,50.600881,59.968418,68.048929,32.776074,60.159805,83.632874,103.798519,63.647427,93.544453,110.259304,122.005108,53.308239,87.388504,107.35191,121.472065,42.553105,73.011303,91.320122,104.424305,32.072148,55.043347,68.877754,80.125397,-10.501424,-10.867319,-6.628858,-7.911327,19.336586,36.603557,45.292173,51.426002,35.850165,54.704924,63.31844,68.779585,47.8592,66.659014,73.603428,76.615885,55.393355,71.98474,77.151088,78.954249,-8.87047,295.603823,-89.334383,279.786702
92,12.879433,5.713012,0.822087,6.514681,-4.241581,-10.727303,-17.966446,-25.771855,-32.574131,-18.509285,2.538769,17.845287,-39.251942,-21.601216,1.255955,21.727993,-41.733902,-28.394852,-6.518612,11.421066,-41.984791,-47.269169,-46.633118,-44.178864,-2.587787,0.813364,8.101456,15.935435,11.692823,30.133756,39.080008,44.79922,20.769097,37.135932,46.754386,52.025216,26.163156,41.418311,49.339221,54.246156,30.583991,42.884043,51.824231,60.162673,31.965843,59.110073,82.599952,102.729515,61.625324,91.89204,108.559661,120.305122,51.111442,85.437286,105.392395,119.312805,40.228569,70.979518,89.264453,102.135704,29.834301,52.643165,66.563346,77.806011,-10.274046,-10.102047,-5.029176,-5.509273,20.357937,38.202127,46.84359,52.722452,36.805048,55.924557,64.406,69.352159,48.415422,67.437242,74.197825,76.67335,55.501109,72.274238,77.22751,78.472892,3.784807,301.296507,-88.736452,286.281055
93,0.892319,5.140092,0.707256,5.260184,-7.433968,-15.924637,-24.003365,-33.053296,-34.750042,-21.612305,-1.527695,13.117137,-38.928784,-21.951657,0.297386,20.129367,-38.934941,-25.804287,-4.476689,13.244087,-36.886872,-39.636681,-37.662232,-34.246331,5.362912,12.934217,21.808492,30.70144,18.44985,35.261745,43.068689,48.574047,22.22548,37.460048,46.873886,52.854277,23.214796,37.796884,46.508941,52.428397,23.686779,35.581057,44.568236,53.148283,31.130768,58.108417,81.70768,101.983326,59.693035,90.485493,107.25658,119.134106,49.259971,84.274807,104.333027,118.202373,38.615764,70.091137,88.467579,101.348362,28.555343,51.741382,65.961399,77.564895,-10.433177,-9.910583,-4.075453,-3.981716,20.703184,38.455205,46.871526,52.502781,37.212218,55.98075,64.175387,68.662333,48.650815,67.482912,73.994728,76.100232,55.537394,72.312165,77.230326,78.256988,4.472804,306.400033,-88.233518,291.504673
94,4.858017,3.113394,1.003406,3.763836,-7.154274,-16.750638,-26.417977,-37.383591,-38.865864,-26.922375,-6.914475,7.468288,-43.087452,-27.087971,-4.811566,15.118366,-43.11208,-30.963009,-9.588067,8.343566,-41.01249,-45.316041,-43.460118,-39.527218,5.797339,11.980407,19.362397,26.704151,19.086793,35.567002,42.083956,46.114788,23.243324,38.389342,46.586339,51.374515,24.433724,38.751261,46.893732,52.308688,24.918576,36.644201,45.244873,53.428679,30.428582,57.212357,80.812867,101.180787,57.639027,89.145974,106.186798,118.270089,47.240513,83.231541,103.594551,117.612648,36.912896,69.279259,87.95715,101.041535,27.338757,50.945401,65.582165,77.562401,-10.746239,-10.088289,-3.712386,-3.076159,20.857621,38.255368,46.142698,51.241072,37.558082,55.686854,63.38434,67.219238,48.851911,67.348012,73.531155,75.163885,55.533355,72.226023,77.027204,77.690774,9.169259,309.4737,-87.391674,295.228782
95,3.349582,1.884536,0.795777,2.431681,-8.349209,-19.490673,-31.425201,-44.498176,-44.023453,-30.046772,-9.070461,5.4543,-48.169681,-29.076999,-5.855919,14.461899,-47.341575,-32.616234,-9.661823,9.432564,-43.749504,-48.951805,-47.75164,-44.086521,4.687523,11.123213,20.83433,30.584189,19.470819,37.408313,44.0595,47.749494,24.862112,39.967312,46.93818,49.963617,26.865394,40.380151,47.194086,51.331722,28.040739,39.458229,47.055543,53.82324,29.785675,56.40057,80.106353,100.50515,55.919803,88.112171,105.326706,117.607589,45.802265,82.646175,103.252281,117.491958,35.99596,69.362549,88.289062,101.519966,27.0531,51.415489,66.475021,78.952961,-11.283097,-10.892192,-4.43836,-3.178812,20.118593,37.083889,44.616859,49.418571,36.946038,54.320825,61.710596,65.101595,48.262628,66.261811,72.33405,73.635848,54.996449,71.531974,76.274665,76.584603,12.397671,311.318558,-86.717067,297.620785
96,-10.029419,2.30192,1.262844,0.927343,-7.876865,-16.24617,-24.873962,-35.901409,-35.859421,-17.477131,3.011193,17.180168,-39.555702,-16.132782,7.670506,27.43554,-38.851158,-20.182502,3.026608,21.354149,-35.033375,-36.939514,-34.059826,-29.855427,4.725154,12.65403,22.923766,32.927234,19.453355,35.911853,42.362536,46.285675,24.047018,38.598083,45.204018,47.823891,25.469278,39.012181,45.425159,49.178892,26.087153,38.08758,44.987114,50.655542,29.259384,55.608078,79.165249,99.458874,54.475456,87.190521,104.669689,117.131344,44.483688,81.913444,102.754658,117.091907,34.942028,68.88755,88.010135,101.275738,26.313434,51.138485,66.387977,78.941379,-11.537027,-11.315219,-4.733836,-3.079221,19.64335,36.268104,43.647427,48.332875,36.506412,53.293298,60.552183,63.697637,47.858076,65.362577,71.237116,72.166855,54.65382,70.950483,75.579195,75.51963,2.242332,313.588559,-85.580143,298.516209
97,1.457886,-0.104507,1.50967,0.6539,-8.494858,-17.651058,-27.018322,-38.442799,-38.094887,-18.186058,2.551117,17.069504,-41.671062,-16.603603,7.47559,27.707634,-40.584057,-20.567974,2.951649,21.428993,-36.412376,-37.942852,-33.85017,-28.610218,6.092765,14.454092,24.125232,33.536563,21.150912,37.097808,42.765446,46.031845,24.414952,38.538371,44.94274,47.23415,24.374469,37.389603,43.427311,46.813901,23.646419,34.979287,41.188105,46.246255,28.780872,54.879559,78.432095,98.800987,53.201431,86.155335,103.793541,116.425552,43.329002,81.014031,101.983749,116.402046,34.030953,68.301601,87.580719,100.959297,25.719784,50.854179,66.308704,79.136307,-11.575139,-11.53967,-5.091395,-3.136155,19.430792,35.7268,42.851229,47.299383,36.299078,52.720131,59.710648,62.643372,47.713679,64.952628,70.644447,71.439694,54.537211,70.702752,75.281656,75.151993,3.574986,313.452958,-84.195705,299.139015
98,0.077385,-0.780117,1.465622,0.654629,-8.996876,-18.955994,-28.889683,-40.602665,-39.895901,-17.472508,3.996838,19.295082,-42.736656,-15.379681,9.198555,29.634613,-40.890633,-18.870106,5.338749,23.77224,-36.059761,-35.384869,-29.164661,-22.52504,7.759927,17.178977,27.107726,36.557651,22.692337,39.160913,44.902219,48.262924,24.780712,39.360515,45.893721,48.127715,23.289637,36.676385,42.533103,45.730749,21.093002,32.69462,38.631218,43.419246,28.402107,54.401299,77.914948,98.378655,51.886906,85.116211,102.91729,115.70414,42.026161,79.986912,101.20166,115.741859,32.974617,67.457188,87.026058,100.591713,25.09306,50.316387,65.924961,78.855789,-11.546722,-11.571126,-5.192617,-2.917621,19.399768,35.443575,42.377097,46.71405,36.37876,52.56715,59.320039,62.068574,47.779591,64.919665,70.3806,70.995622,54.425528,70.564283,74.999185,74.725865,3.496737,312.566328,-82.885717,299.687131
99,0.371258,3.86949,1.459374,0.930924,-9.893269,-19.864792,-29.38678,-40.587696,-39.404663,-15.782845,5.450203,20.511806,-41.418618,-13.246559,11.202129,31.138767,-38.526673,-16.346535,7.449726,25.939922,-32.589066,-31.387928,-25.879315,-20.302838,8.651455,18.581082,28.956386,39.21597,21.318256,36.528457,42.518321,46.870379,22.091494,35.409922,42.323671,45.791327,19.953374,32.287895,38.478251,42.576317,17.481196,27.972134,33.762643,39.248599,27.954002,53.851123,77.429866,98.011116,51.065116,84.391605,102.204528,115.027908,41.311088,79.326221,100.643714,115.182563,32.410995,67.088287,86.808746,100.441703,24.756671,50.231025,66.003627,79.129108,-11.753598,-11.87679,-5.451302,-2.76464,18.982163,34.960305,41.889911,46.248206,35.976482,52.188163,58.838571,61.461062,47.451326,64.664612,69.98541,70.452206,54.142329,70.369004,74.731016,74.413396,3.652834,316.261867,-81.641504,300.444104
100,10.723469,-0.672388,1.373268,0.773214,-14.525689,-29.842461,-44.063496,-58.882702,-50.240834,-28.881501,-7.254513,8.416465,-49.931168,-24.38617,-0.500748,19.906379,-44.758061,-24.464047,-0.62296,18.21389,-37.044297,-36.306141,-31.09853,-25.737946,15.604046,27.819364,38.283502,48.864164,25.963369,40.53449,45.425617,49.190823,23.228295,36.552416,43.226907,46.744358,18.233329,30.782433,36.820684,41.145547,13.181404,23.816542,29.874171,36.168921,27.489704,53.274616,76.792213,97.376381,50.504676,83.757637,101.631111,114.528213,40.737556,78.67345,100.054756,114.560989,31.881099,66.511242,86.321205,99.955375,24.325996,49.850189,65.672069,78.804176,-11.9759,-12.090533,-5.520586,-2.690453,19.132649,34.903371,41.674093,45.94511,36.178492,52.115656,58.580344,61.127042,47.58425,64.610407,69.714536,70.119902,54.117728,70.206835,74.408938,74.101828,14.074357,315.360564,-80.570182,300.988403
101,9.369071,0.346062,0.962093,0.704214,-14.944221,-32.411178,-48.014247,-63.46693,-57.193599,-39.955204,-18.398426,-2.725708,-55.626182,-34.142967,-10.863098,9.919327,-49.057411,-31.425773,-8.211879,10.912285,-40.105854,-38.927661,-32.792713,-26.634086,18.759886,31.140239,40.364343,50.325697,28.209824,42.549331,46.723746,50.047993,23.446014,36.313133,42.964739,46.809048,16.59756,28.514278,34.778376,39.493242,9.665792,19.112308,25.311692,32.096234,27.151726,52.860752,76.321472,96.876194,50.054409,83.214043,101.035618,113.970875,40.395641,78.257675,99.53944,114.014637,31.659657,66.236504,85.991558,99.618725,24.208672,49.708786,65.529053,78.68058,-12.274821,-12.532122,-5.858632,-2.601199,18.836593,34.503352,41.198998,45.417663,35.971801,51.782389,58.189933,60.77436,47.393441,64.36569,69.437437,69.932231,53.890462,69.969046,74.133086,73.856025,23.070367,315.447095,-79.98115,301.433086
102,0.681611,0.266898,0.948051,0.502587,-14.245377,-31.398068,-46.952546,-62.668122,-56.511876,-39.799324,-17.680802,-1.860764,-55.497254,-34.572842,-10.88427,9.766571,-49.421597,-32.915108,-9.280301,10.038482,-40.982735,-42.608803,-39.012806,-34.620518,17.537092,29.394258,39.291305,49.567265,26.501399,41.282892,45.842715,49.560683,23.360996,36.40845,43.046348,46.771355,18.129661,30.142068,36.287778,40.944277,12.73454,22.539703,28.761378,35.586293,26.801732,52.293526,75.622078,96.114109,49.672875,82.747353,100.584355,113.515469,40.065651,77.845002,99.194401,113.577794,31.404866,65.926186,85.788002,99.423809,23.999943,49.593728,65.490601,78.64555,-12.670086,-12.920916,-6.014108,-2.595197,18.504635,34.3119,41.093479,45.370189,35.705212,51.633335,58.062381,60.624331,47.134027,64.230419,69.266968,69.756056,53.598715,69.72281,73.889913,73.68873,23.307873,315.466775,-79.477204,301.688455
103,0.502739,1.551837,0.75253,0.411912,-13.413529,-29.291852,-43.729008,-58.538784,-54.32951,-38.337948,-16.362843,-0.883667,-54.218331,-34.636895,-11.249154,9.179557,-49.109128,-34.967789,-12.127133,6.990394,-41.660706,-47.405823,-47.95538,-46.851677,14.144451,24.564721,34.84057,45.232103,22.551053,37.536433,42.358782,46.154024,22.360256,35.083398,41.346532,45.022831,20.18185,31.969559,37.544893,42.009213,17.619653,27.399102,33.956107,41.413111,26.536365,51.743373,74.911731,95.259086,49.464088,82.36409,100.217285,113.139679,39.898555,77.464359,98.784576,113.086486,31.240047,65.582519,85.441989,99.017715,23.774963,49.381874,65.297561,78.415844,-13.006539,-13.258406,-6.152181,-2.596704,18.35179,34.336292,41.172878,45.431519,35.524123,51.569103,58.043893,60.616909,46.92189,64.099978,69.157732,69.682376,53.386343,69.543919,73.705181,73.540245,23.299925,316.829925,-79.235361,301.91168
104,6.061935,-2.294608,0.193805,0.289856,-15.952927,-34.487148,-51.382484,-68.541046,-60.549763,-46.498238,-23.604527,-7.1857,-60.026756,-41.822067,-18.104279,2.700188,-54.465076,-41.537212,-17.889725,1.546509,-46.944969,-54.526978,-55.176842,-54.046944,15.524288,26.688948,38.345771,50.221968,25.120673,40.558658,44.833281,48.27494,25.083116,37.548844,43.804915,46.897425,22.844342,34.24232,39.490216,43.222225,20.298978,30.290318,36.597888,43.345541,26.388142,51.413727,74.407059,94.600102,49.331143,82.168877,100.069004,113.03896,39.839539,77.329823,98.680195,113.058575,31.267193,65.455525,85.398377,99.059521,23.823235,49.373303,65.277901,78.382347,-13.311585,-13.57663,-6.294503,-2.751289,18.198032,34.149658,40.975623,45.250282,35.348345,51.284298,57.838771,60.584725,46.669183,63.725117,68.882634,69.625257,53.044852,69.137491,73.330529,73.295344,28.798285,314.376402,-79.605131,302.042621
105,-5.522621,2.562345,0.188816,0.215287,-13.08783,-28.769245,-44.030205,-60.054234,-53.864067,-38.986576,-16.633862,-1.038323,-54.945523,-35.623787,-11.97773,8.328758,-50.897381,-37.168957,-14.111859,5.029289,-44.731636,-52.014954,-53.527062,-53.177754,10.468338,20.002564,31.391959,43.091513,20.452589,36.05945,40.69614,44.606448,22.667848,34.814043,41.113449,44.656812,22.458564,33.586828,38.653684,42.630361,21.732268,31.237373,37.299102,44.04652,26.339276,51.233574,74.139645,94.35569,49.116188,81.959244,99.854119,112.77063,39.650036,77.219937,98.61454,113.002236,31.105717,65.35294,85.348984,99.019913,23.666726,49.225296,65.102028,78.176411,-13.416623,-13.713161,-6.305878,-2.705891,17.946016,33.926751,40.771574,45.059066,35.122721,51.063948,57.688223,60.487517,46.437421,63.485722,68.706003,69.499298,52.810595,68.912867,73.173744,73.193418,22.70089,316.808935,-79.991089,302.128096
106,0.728874,-1.026551,0.197708,0.325474,-13.495422,-29.66304,-46.448994,-63.974922,-55.432343,-39.382141,-16.094501,-0.086449,-57.76474,-36.820862,-12.544327,8.029083,-54.585068,-40.407806,-16.425877,3.149849,-49.393467,-60.230942,-64.605984,-66.337383,6.776231,15.201704,28.054534,40.716913,17.49777,34.497671,39.348079,43.26408,23.047848,35.959204,41.976572,44.811224,25.712328,37.179454,41.469996,44.670421,27.791835,37.672296,43.78019,50.589013,26.268151,51.029446,73.877507,94.124314,49.128033,81.865357,99.632378,112.405266,39.777043,77.239083,98.542649,112.896584,31.238377,65.411534,85.440949,99.161614,23.711472,49.297738,65.159764,78.277462,-13.637393,-14.043538,-6.514631,-2.783659,17.65054,33.570896,40.418757,44.73726,34.753885,50.641945,57.306914,60.17059,46.053272,63.045232,68.344973,69.220742,52.469745,68.541068,72.858101,72.969128,22.853399,315.664324,-80.369746,302.33551
107,-3.686462,2.118768,0.292603,0.178385,-12.51344,-27.528031,-43.369812,-60.17783,-51.500657,-34.494782,-12.013802,3.063491,-53.844647,-32.167145,-8.276162,11.56842,-50.836224,-36.115963,-13.026753,5.920395,-45.68303,-56.198067,-61.986203,-65.189312,4.645632,12.754597,25.38946,38.059101,15.146092,32.198554,36.868256,40.835078,21.460331,34.06417,39.612568,42.770385,24.99548,36.536953,40.579765,44.080544,27.741422,37.670962,44.173799,51.635102,26.288017,50.963963,73.746483,94.039238,49.136513,81.817326,99.479279,112.207809,39.733131,77.191063,98.425919,112.78418,31.115559,65.272362,85.227974,98.88945,23.521465,49.101872,64.868076,77.936188,-13.74437,-14.19621,-6.575777,-2.76732,17.540105,33.366662,40.121589,44.429829,34.675474,50.38405,57.067643,60.038085,45.968735,62.774999,68.097835,69.043358,52.392162,68.324719,72.63491,72.770897,18.59416,317.683241,-80.64992,302.414044
108,1.885185,-0.555951,0.448105,0.109508,-12.418041,-28.033825,-45.275231,-63.200592,-53.258446,-36.097012,-12.81926,2.784004,-56.637829,-34.057331,-9.522606,10.692512,-54.315056,-38.891384,-14.879391,4.596611,-49.837944,-60.976044,-66.069145,-68.31593,1.851191,8.750848,21.728352,35.094389,13.561526,31.063421,35.602644,39.358724,22.103164,34.590283,40.061518,42.510243,27.373883,38.347314,41.905991,44.610572,31.698981,41.265207,47.065163,53.450094,26.217453,50.864204,73.59835,93.881447,49.296238,81.841358,99.34156,111.936882,39.854645,77.171997,98.255607,112.510528,31.078743,65.151363,85.067551,98.732712,23.292126,48.871502,64.624157,77.732494,-13.973945,-14.474445,-6.69272,-2.673632,17.376838,33.234973,39.870994,44.058153,34.499659,50.105075,56.736785,59.652775,45.746064,62.462147,67.792122,68.716674,52.104689,68.024081,72.383401,72.591549,19.9594,317.043995,-80.72176,302.440257
109,-3.839264,1.706411,0.643398,-0.152993,-13.21669,-28.699631,-45.009075,-61.996422,-51.234501,-32.969948,-10.266495,4.943962,-53.138706,-29.725353,-5.355949,14.58213,-49.636414,-32.918724,-9.505749,9.706924,-43.766064,-52.278969,-56.488037,-57.76442,4.752348,13.232767,25.549492,38.169979,14.516731,31.302506,35.688218,39.537627,20.338226,32.907103,38.214279,41.277025,23.515878,34.971456,38.90476,42.536573,25.924934,36.001947,41.936223,48.882675,26.30896,51.027683,73.793221,94.100681,49.223385,81.702873,99.150021,111.745732,39.647415,77.003918,98.030033,112.230183,30.784962,64.984646,84.791004,98.349873,22.990334,48.694061,64.415497,77.48275,-13.916579,-14.295628,-6.443754,-2.406895,17.434858,33.292982,39.862299,44.008778,34.596508,50.105915,56.686088,59.601201,45.880927,62.476782,67.717947,68.547218,52.244504,68.0277,72.304508,72.410275,15.660931,318.694188,-80.537567,302.231046
110,4.756119,-1.962441,0.843544,-0.146225,-14.184563,-31.164093,-48.705941,-66.040604,-55.206047,-37.913487,-14.789955,1.118545,-56.932984,-34.708203,-10.358162,9.917175,-53.2901,-37.576344,-13.800865,5.60646,-47.377693,-56.703701,-60.079846,-60.344479,5.692017,14.364739,26.856897,39.749667,16.252733,33.432501,37.412154,40.713516,22.199903,35.006123,40.069546,42.780278,25.384693,36.810001,40.523547,43.766123,27.771581,38.128027,44.139318,50.942855,26.234299,50.94215,73.701645,93.885006,49.488705,81.780396,99.081104,111.558849,39.85342,76.979061,97.811016,111.872738,30.811867,64.838116,84.50211,98.015019,22.805443,48.441742,64.104962,77.134094,-13.990223,-14.310522,-6.431169,-2.41785,17.506625,33.331403,39.890173,43.995329,34.599732,50.016747,56.562031,59.431017,45.907665,62.422911,67.629891,68.393559,52.298622,68.015658,72.229161,72.26048,20.032826,316.689365,-80.078247,302.042439
111,-4.008705,2.312664,0.512055,-0.359906,-13.851838,-29.777974,-45.899987,-61.983948,-51.618153,-32.825283,-10.23745,4.926635,-52.590615,-29.333783,-5.263367,14.383781,-48.457489,-31.862023,-8.863038,9.939445,-41.816151,-49.428624,-52.762528,-53.216584,5.234138,13.933277,25.597497,37.81263,15.478877,31.695239,35.402697,38.810641,20.437633,32.505961,37.259544,40.514446,22.971746,33.968544,37.648226,41.458004,24.738771,34.942521,40.888011,47.923297,26.282203,51.083255,73.839317,93.882373,49.675117,81.993679,99.301929,111.843441,39.852996,76.995426,97.805523,111.889446,30.667018,64.705524,84.325206,97.856952,22.592674,48.288528,63.966671,76.991706,-13.990754,-14.18386,-6.276028,-2.265758,17.583677,33.485025,40.017021,44.111567,34.748031,50.106705,56.630574,59.514356,46.088247,62.541805,67.734397,68.482442,52.447922,68.111507,72.289948,72.242387,15.713208,318.96107,-79.877105,301.641574
112,3.103157,-0.925626,0.595985,-0.266576,-13.080334,-28.665688,-45.049004,-60.865918,-52.518551,-34.218602,-11.16037,4.36647,-54.891117,-31.933983,-7.996193,11.975349,-51.959816,-35.959385,-12.639588,6.490791,-46.722714,-55.670792,-58.556855,-58.370762,0.706066,7.52803,19.852251,32.833237,12.807468,29.8521,33.653826,36.830267,21.215058,33.367366,38.039192,40.842241,26.588962,36.972676,39.845614,42.69773,30.977823,40.889357,46.616325,53.185914,26.269421,51.123642,73.997314,93.909519,50.155655,82.337711,99.573727,112.045086,40.321564,77.241943,97.875813,111.868046,30.942432,64.913303,84.381535,97.843655,22.568653,48.314358,63.971695,76.975067,-13.890805,-14.098793,-6.206855,-2.185595,17.538055,33.453088,40.103866,44.267697,34.630149,49.892171,56.494797,59.413171,46.033363,62.394579,67.657666,68.380578,52.525839,68.210307,72.405951,72.322749,18.556441,317.987767,-79.541044,301.327321
113,-3.382897,1.470697,0.478054,-0.173507,-13.635612,-28.7066,-44.124012,-59.440567,-49.804848,-30.709431,-8.360069,6.520065,-51.027523,-27.404526,-3.838669,15.596077,-47.233772,-30.042091,-7.326347,11.394264,-40.96907,-47.583011,-50.008392,-49.531769,2.327114,10.08961,21.782841,34.137073,13.435655,30.023656,33.925911,37.540756,19.723304,32.00656,36.787623,40.36664,23.500923,34.419136,37.667702,41.310198,26.512564,36.858413,42.717503,49.74381,26.359188,51.311256,74.272511,94.121269,50.482132,82.650215,99.858444,112.384964,40.611466,77.537727,98.125465,112.161507,31.166748,65.256203,84.587998,97.978981,22.693714,48.607475,64.204456,77.127445,-13.736811,-13.982825,-6.205237,-2.299832,17.366526,33.191884,40.016354,44.404425,34.518703,49.665153,56.42502,59.508514,46.089359,62.269795,67.602449,68.350889,52.804222,68.321422,72.464689,72.261184,14.952049,319.410443,-79.284485,301.105793
114,4.755501,-2.759169,0.537861,0.009806,-13.138538,-28.430077,-44.681866,-60.519516,-51.731243,-33.974682,-11.151901,4.224197,-54.175781,-31.798862,-8.340454,11.453865,-51.408863,-35.750507,-12.679115,6.512215,-46.440617,-55.148712,-57.810345,-57.186413,0.99554,7.989701,20.471398,33.569512,12.879012,30.854791,35.180457,38.544447,21.376758,34.49835,39.512557,42.634214,26.925983,38.121407,41.183993,44.177912,31.491327,42.120043,48.109153,54.930017,26.347847,51.273457,74.286827,94.119564,50.812214,82.919002,100.054287,112.571056,40.998928,77.788662,98.266422,112.255909,31.462406,65.499687,84.690937,98.003757,22.762665,48.66988,64.187828,77.055736,-13.691993,-14.114007,-6.470949,-2.577252,17.139679,32.955046,39.871216,44.367399,34.276172,49.442678,56.337346,59.485481,45.935415,62.100537,67.527336,68.298759,52.82975,68.380875,72.55808,72.317908,19.523386,316.607524,-78.930788,301.071849
