takenoko1/special-research/HandMotion_SimilarSearch_自分用/NewProject/handData_new/key/d3_feature/25.csv
,vel_0x_L,vel_0y_L,vel_0x_R,vel_0y_R,posFromWrist_1x_L,posFromWrist_2x_L,posFromWrist_3x_L,posFromWrist_4x_L,posFromWrist_5x_L,posFromWrist_6x_L,posFromWrist_7x_L,posFromWrist_8x_L,posFromWrist_9x_L,posFromWrist_10x_L,posFromWrist_11x_L,posFromWrist_12x_L,posFromWrist_13x_L,posFromWrist_14x_L,posFromWrist_15x_L,posFromWrist_16x_L,posFromWrist_17x_L,posFromWrist_18x_L,posFromWrist_19x_L,posFromWrist_20x_L,posFromWrist_1y_L,posFromWrist_2y_L,posFromWrist_3y_L,posFromWrist_4y_L,posFromWrist_5y_L,posFromWrist_6y_L,posFromWrist_7y_L,posFromWrist_8y_L,posFromWrist_9y_L,posFromWrist_10y_L,posFromWrist_11y_L,posFromWrist_12y_L,posFromWrist_13y_L,posFromWrist_14y_L,posFromWrist_15y_L,posFromWrist_16y_L,posFromWrist_17y_L,posFromWrist_18y_L,posFromWrist_19y_L,posFromWrist_20y_L,posFromWrist_1x_R,posFromWrist_2x_R,posFromWrist_3x_R,posFromWrist_4x_R,posFromWrist_5x_R,posFromWrist_6x_R,posFromWrist_7x_R,posFromWrist_8x_R,posFromWrist_9x_R,posFromWrist_10x_R,posFromWrist_11x_R,posFromWrist_12x_R,posFromWrist_13x_R,posFromWrist_14x_R,posFromWrist_15x_R,posFromWrist_16x_R,posFromWrist_17x_R,posFromWrist_18x_R,posFromWrist_19x_R,posFromWrist_20x_R,posFromWrist_1y_R,posFromWrist_2y_R,posFromWrist_3y_R,posFromWrist_4y_R,posFromWrist_5y_R,posFromWrist_6y_R,posFromWrist_7y_R,posFromWrist_8y_R,posFromWrist_9y_R,posFromWrist_10y_R,posFromWrist_11y_R,posFromWrist_12y_R,posFromWrist_13y_R,posFromWrist_14y_R,posFromWrist_15y_R,posFromWrist_16y_R,posFromWrist_17y_R,posFromWrist_18y_R,posFromWrist_19y_R,posFromWrist_20y_R,posFromBody_0x_L,posFromBody_0y_L,posFromBody_0x_R,posFromBody_0y_R
6,0.015244,1.262833,-0.054005,-0.167973,13.396293,25.431324,31.924473,34.728493,20.592842,48.999641,66.050949,73.251091,16.683197,50.50621,66.692619,76.523666,9.956714,39.728737,53.822914,61.37503,2.797416,16.666706,21.291263,22.837326,-24.536156,-34.183423,-34.896628,-30.351501,-4.87622,7.209508,9.218706,10.14416,14.735068,26.893057,27.277096,27.807989,27.613746,37.858844,35.22924,33.124427,36.117766,44.929711,42.485382,38.550757,25.711304,52.269756,76.802548,97.533657,59.919239,93.786518,111.534107,124.088986,52.506455,90.507466,110.375599,124.073994,43.752743,78.523796,97.217411,110.06258,35.093136,62.507366,77.627815,88.735485,-17.997639,-20.280243,-15.182006,-12.173229,13.538728,25.497116,30.289293,33.367107,31.033855,41.126219,44.066848,45.411253,42.193822,52.337191,54.03986,53.352393,48.66571,56.494785,55.855989,53.304438,-25.539476,288.404676,-72.772871,279.349373
7,-1.102158,0.072692,-0.1031,-0.05807,13.553925,26.185284,33.587208,36.816136,20.921047,49.354317,66.890259,74.595932,17.202473,51.069008,67.831879,78.212769,10.927906,40.736138,55.376839,63.565705,4.238812,19.230595,25.093975,27.746063,-24.493202,-34.361967,-35.045149,-30.416907,-5.723658,6.247129,8.445592,9.547874,13.994842,26.223362,26.834914,27.295164,27.20596,37.56222,35.165156,33.119933,35.980632,44.904912,42.173444,37.781323,25.892945,52.550686,77.05283,97.676949,59.834084,93.718026,111.542885,124.200211,52.373314,90.391251,110.310471,124.106781,43.633839,78.41407,97.143906,110.091957,34.984394,62.407196,77.471077,88.569558,-17.924663,-20.211984,-15.095481,-12.077356,13.421897,25.454075,30.248007,33.31021,30.930757,41.145077,44.177727,45.582623,42.147608,52.355173,54.106785,53.443438,48.670242,56.521646,55.895028,53.341759,-26.616434,288.487294,-72.850771,279.301229
8,2.604824,0.352879,-0.161167,0.056057,12.800583,24.683876,31.125595,33.78019,18.223469,45.493687,63.586087,72.055287,14.559208,46.878948,64.349842,76.075413,8.52919,36.673565,52.061268,61.387699,1.992771,13.251583,16.899021,18.038498,-24.491028,-34.424904,-35.114446,-30.805144,-6.050305,5.830808,8.065444,9.048399,13.607852,25.677797,26.141839,26.403192,26.755416,37.16167,34.725752,32.741748,35.614612,44.533644,42.564818,38.970006,26.104225,52.827713,77.309395,97.802387,59.911423,93.787846,111.648091,124.381565,52.393193,90.40678,110.348568,124.238079,43.631195,78.301758,97.082577,110.162693,34.937874,62.221733,77.238808,88.303265,-17.881203,-20.228015,-15.189231,-12.17917,13.266211,25.345333,30.155999,33.234788,30.75462,41.139582,44.265141,45.752288,41.965716,52.36551,54.164411,53.543745,48.482249,56.487165,55.890211,53.343204,-23.996023,288.852653,-72.996351,279.369766
9,1.627259,0.131973,-0.179512,0.075409,12.340896,23.598873,29.354965,31.542892,16.771007,43.697696,61.897075,70.51427,13.123569,45.066478,62.647052,74.813037,7.314846,34.932369,50.532222,60.276958,1.012664,10.787841,13.566742,14.091625,-24.463488,-34.392855,-35.091116,-30.997151,-5.859262,5.808528,7.921886,8.810388,13.685744,25.409331,25.660903,25.807004,26.732964,36.903652,34.39908,32.488448,35.553059,44.196882,42.401019,39.107252,26.319489,53.044235,77.463799,97.865879,60.084492,93.869259,111.729252,124.520153,52.550995,90.412823,110.329548,124.317845,43.746552,78.186768,96.985897,110.205265,34.951756,62.031647,77.002945,88.096195,-17.883623,-20.285739,-15.278682,-12.250244,13.095472,25.218387,30.077132,33.177546,30.501468,41.03799,44.277244,45.854782,41.691989,52.300352,54.240006,53.724156,48.216414,56.443829,55.932165,53.408994,-22.35272,288.999211,-73.159819,279.45976
10,1.046653,-0.362129,-0.098087,0.057218,12.399296,23.507927,29.115818,31.184544,16.140026,42.689724,60.918286,69.703045,12.061764,43.808956,61.544964,73.938458,5.945584,33.362217,49.272229,59.29961,-0.57851,8.951775,11.585678,11.93684,-24.234764,-33.845821,-34.565719,-30.828906,-6.362577,5.593649,8.127984,9.224981,13.273115,25.348631,25.926195,26.175357,26.505327,37.089335,34.810214,32.978376,35.619157,44.700419,43.203861,40.08428,26.465172,53.091774,77.449608,97.829819,60.19495,93.931526,111.771263,124.586906,52.676147,90.434189,110.349586,124.435203,43.839901,78.111465,96.966545,110.296577,34.963096,61.930664,76.938537,88.115364,-17.905322,-20.37708,-15.414619,-12.332286,12.952656,25.052328,29.935699,33.066667,30.300569,40.910044,44.234624,45.85861,41.450409,52.23476,54.316713,53.878112,47.932831,56.398146,56.03041,53.567137,-21.295264,288.645937,-73.247103,279.525833
11,2.579224,-0.334341,0.033314,0.119821,11.72065,21.986149,26.717548,28.118694,13.505573,39.457317,58.099972,67.495686,9.227531,40.186443,58.320454,71.542843,3.05294,29.449963,45.893681,56.631351,-3.45433,3.54855,4.533852,3.68232,-23.957184,-33.22744,-34.013548,-30.863721,-6.116379,6.324069,8.970136,9.952375,13.405705,25.783884,26.341379,26.427731,26.506537,37.515956,35.115619,33.186659,35.671941,45.122359,44.344835,41.916315,26.499229,53.002441,77.288166,97.609027,60.302833,93.962597,111.761158,124.540866,52.829017,90.476108,110.40311,124.573322,43.976074,78.095958,96.991687,110.382946,35.016426,61.836628,76.900749,88.155178,-17.966628,-20.550698,-15.677615,-12.515512,12.808159,24.818639,29.706345,32.848848,30.115034,40.775131,44.126869,45.736418,41.198664,52.156003,54.317342,53.88646,47.60543,56.294541,56.072091,53.638001,-18.707817,288.314959,-73.205566,279.649017
12,1.948563,0.170283,0.078403,0.249632,11.259613,20.817215,24.625499,25.312351,11.747921,37.326541,56.133258,65.813839,7.259079,37.718227,55.900875,69.486545,0.949928,26.718532,43.299099,54.355693,-5.646252,-0.747117,-1.315453,-3.24012,-23.923716,-33.071051,-33.981116,-31.299419,-6.202854,6.55367,9.252298,10.093895,13.337014,25.842374,26.338786,26.303625,26.365462,37.587833,35.031576,33.040484,35.538053,45.135969,44.823821,42.908978,26.467793,52.837532,77.084232,97.425888,60.414482,94.027405,111.762062,124.493408,53.023018,90.544167,110.414841,124.577911,44.18898,78.092354,96.980644,110.36245,35.220612,61.881168,76.964573,88.241135,-18.080471,-20.792957,-16.010264,-12.818644,12.770306,24.558139,29.410141,32.566315,30.00949,40.59046,43.934159,45.55323,40.970732,51.986857,54.19415,53.793699,47.251329,56.068127,55.921976,53.52795,-16.75863,288.484269,-73.126539,279.897676
13,0.236354,0.277481,0.185703,0.092169,11.039406,20.172718,23.834542,24.312069,11.465138,37.766121,56.416787,65.849968,7.098347,38.313652,56.109902,69.121376,0.859532,27.5197,43.723618,54.298783,-5.532817,1.024258,1.383294,0.117577,-24.168704,-33.428746,-34.556716,-31.84176,-6.074017,6.820024,9.301564,9.774288,13.510002,25.99433,26.422804,26.281482,26.532287,37.606409,34.901469,32.75973,35.589998,45.088422,44.303154,41.917971,26.347184,52.585476,76.840805,97.335514,60.381649,93.975392,111.751088,124.445881,53.110428,90.581623,110.517071,124.708935,44.324742,78.237008,97.189602,110.529225,35.393647,62.195881,77.394333,88.793164,-18.182928,-20.856597,-16.014191,-12.87275,12.877394,24.4851,29.229434,32.330058,30.073982,40.588348,43.865307,45.482575,40.977548,51.962749,54.144441,53.766355,47.237077,56.058222,55.932251,53.585278,-16.526957,288.761648,-72.945517,279.989743
14,2.773373,0.197305,0.253155,-0.048042,10.08387,18.101543,20.723923,20.651882,9.225964,34.983662,53.284733,62.657902,5.212338,35.487362,52.942486,65.872685,-0.767361,25.082073,40.969219,51.321064,-7.088173,-2.130398,-3.074284,-5.516785,-24.41468,-33.701893,-34.959242,-32.322685,-5.901215,7.552829,9.826244,9.818451,13.679828,26.377874,26.662914,26.277999,26.522296,37.78898,34.934493,32.519928,35.446787,45.02614,44.695368,42.669708,26.23605,52.413551,76.689354,97.2938,60.370731,94.033013,111.810883,124.447426,53.150482,90.629883,110.574875,124.682442,44.404255,78.354561,97.298309,110.509964,35.526501,62.445877,77.676933,89.077538,-18.144334,-20.820646,-16.010548,-12.903786,13.11249,24.612405,29.28622,32.366985,30.285996,40.691002,43.920783,45.511387,41.126528,52.01031,54.152987,53.745546,47.311535,56.070313,55.969104,53.67946,-13.770161,288.958249,-72.708939,279.940997
15,2.101513,0.661149,0.190075,-0.021823,9.282429,16.443226,18.209484,17.56113,7.52726,33.122978,51.385002,60.929077,3.926628,33.871536,51.124718,64.17556,-1.645226,23.723144,39.337852,49.665939,-7.732727,-4.749928,-7.415291,-11.157566,-24.870435,-34.583034,-36.054003,-33.406812,-6.078216,7.496365,9.466549,9.038754,13.565479,26.204343,26.311394,25.761568,26.261981,37.48313,34.491175,32.004461,35.038493,44.405561,44.572399,43.038556,26.244713,52.437378,76.752583,97.478497,60.301163,94.06715,111.914623,124.541119,53.09586,90.674435,110.661655,124.724041,44.427818,78.499054,97.444714,110.551746,35.705612,62.766747,78.021046,89.379696,-18.1254,-20.773789,-15.981438,-12.971439,13.358356,24.77744,29.408721,32.524103,30.566331,40.962865,44.13139,45.760341,41.380853,52.223411,54.280477,53.877247,47.509088,56.173893,55.99893,53.7287,-11.691221,289.621513,-72.541437,279.921289
16,1.183708,0.54701,0.065254,-0.077941,8.946842,15.660004,16.867436,15.702175,7.526814,33.067795,50.836693,60.009682,4.186375,34.076431,50.702339,63.172486,-1.368164,24.171364,39.07457,48.730339,-7.616112,-4.590225,-7.701851,-11.908115,-25.439984,-35.559308,-37.322702,-34.634929,-6.676985,7.115377,8.970656,8.275148,13.198373,26.031627,26.110446,25.512479,25.948956,37.11863,34.208506,31.748728,34.735607,43.945545,44.211603,42.755553,26.231941,52.496258,76.860672,97.672612,60.316029,94.220158,112.11398,124.751576,53.116265,90.809498,110.842427,124.861462,44.494789,78.688557,97.651074,110.68784,35.88517,63.085007,78.366326,89.746411,-18.132169,-20.770813,-15.948378,-12.986186,13.579681,24.969681,29.543015,32.648641,30.780086,41.156724,44.289804,45.917261,41.558237,52.330485,54.359184,53.972318,47.634194,56.218724,56.052516,53.8451,-10.536638,290.175211,-72.505308,279.850036
17,1.047695,0.306776,0.158489,-0.344024,8.7029,15.098912,16.072312,14.994873,7.984898,33.196644,50.229779,58.907536,5.020077,34.601292,50.396931,62.101513,-0.450485,24.886906,38.92503,47.750462,-6.888359,-4.134052,-7.982128,-12.971054,-25.901939,-36.321987,-38.504901,-35.982311,-7.052403,6.819901,8.503588,7.650506,13.005588,26.048695,25.992515,25.388583,25.792048,37.037823,34.117906,31.717433,34.561928,43.713895,44.20407,43.066726,26.274228,52.529217,76.873112,97.78299,60.373936,94.267045,112.208313,124.837464,53.113656,90.869774,110.976403,124.981133,44.418767,78.778325,97.78608,110.765008,35.763611,63.075577,78.419655,89.846398,-18.011842,-20.566654,-15.674206,-12.78567,13.893275,25.381939,29.934624,33.045906,31.104918,41.536983,44.61282,46.24397,41.913154,52.708583,54.669702,54.277402,48.022073,56.60722,56.42455,54.256222,-9.522864,290.49739,-72.38074,279.521415
18,0.574356,0.065073,0.062256,-0.064727,8.867443,15.589783,16.757859,15.855938,8.769047,33.129696,49.785176,58.514637,5.761952,34.429608,49.839421,61.547619,0.142811,24.600781,38.305859,47.109478,-6.6599,-4.963176,-9.71941,-15.344776,-26.05098,-36.606521,-39.18959,-37.115913,-8.122686,5.630254,7.551618,6.891198,12.190445,25.455385,25.508922,24.886132,25.249719,36.868083,34.159377,31.859223,34.332167,43.723614,44.767739,44.084829,26.313389,52.582901,76.958268,97.887062,60.43594,94.455757,112.399796,125.010178,53.118691,91.054505,111.191483,125.1652,44.436024,78.956051,97.956894,110.913735,35.829998,63.13559,78.468659,89.874916,-17.970679,-20.647127,-15.833744,-12.853224,14.035153,25.460831,29.971761,33.096196,31.30205,41.68837,44.677164,46.27345,42.105186,52.897355,54.779766,54.340054,48.129914,56.694857,56.535615,54.407041,-8.981472,290.580634,-72.351448,279.474859
19,0.140786,0.011905,0.137135,-0.027861,8.91616,15.824192,17.053104,16.133583,8.845413,33.012874,49.815754,58.757595,5.913414,34.424617,49.967502,61.859447,0.369884,24.633121,38.45248,47.493038,-6.396401,-4.516915,-8.990948,-14.290707,-26.161266,-36.72786,-39.329504,-37.268967,-8.436316,5.172981,7.171187,6.598229,11.936367,25.333465,25.345939,24.738475,25.113967,36.916558,34.186794,31.981156,34.242901,43.690739,44.704878,44.088769,26.345924,52.626835,77.017181,97.951366,60.370365,94.502254,112.451214,125.014789,53.051021,91.210796,111.396572,125.37997,44.4272,79.253609,98.285877,111.221729,35.933567,63.403061,78.781837,90.207172,-17.943126,-20.713225,-15.962136,-12.915556,14.090913,25.470464,29.917914,33.011782,31.438246,41.807659,44.706816,46.285009,42.293758,53.052496,54.84101,54.370113,48.353339,56.830843,56.6253,54.487612,-8.87214,290.608584,-72.245767,279.463043
20,1.267192,-0.673301,0.091862,-0.106606,8.741856,15.47667,16.724259,15.960503,7.657185,31.030426,47.871186,57.042801,4.603203,31.970238,47.700074,60.093338,-0.86412,22.249375,36.309197,45.706742,-7.552814,-7.053382,-12.205513,-18.011341,-25.912425,-36.139429,-38.678507,-37.019039,-8.552852,5.364702,7.542047,7.047574,11.896908,25.763976,25.755639,24.972533,25.222252,37.641013,34.942495,32.683702,34.515639,44.24233,45.673544,45.444375,26.355743,52.688564,77.138202,98.079368,60.307548,94.523071,112.486679,125.054992,52.974941,91.306732,111.558426,125.587394,44.378322,79.458023,98.506187,111.399536,35.926529,63.560211,78.959415,90.380424,-17.878128,-20.667023,-15.947946,-12.901761,14.125851,25.481653,29.875528,32.927616,31.495847,41.828049,44.677114,46.240536,42.403588,53.087557,54.794228,54.268127,48.538331,56.943685,56.694164,54.502173,-7.634577,289.946889,-72.183534,279.368043
21,2.056584,-0.633943,0.070816,-0.084216,8.389114,14.455227,15.261577,14.306339,5.595875,28.267742,45.071514,54.3643,2.437923,28.734707,44.619175,57.520328,-2.877537,19.098713,33.47446,43.317043,-9.350464,-10.282974,-16.082565,-22.416401,-25.613675,-35.51013,-37.790943,-36.177911,-8.072594,6.161852,8.374073,7.853801,12.292013,26.497831,26.408157,25.467958,25.546714,38.402619,35.710103,33.41841,34.796629,44.674695,46.486686,46.608792,26.431755,52.731422,77.208469,98.163871,60.175621,94.476883,112.49691,125.128235,52.842384,91.291168,111.629287,125.740219,44.291942,79.523048,98.606872,111.498871,35.886486,63.578602,78.997661,90.401298,-17.833309,-20.615634,-15.90388,-12.875714,14.118219,25.37033,29.721375,32.758792,31.565304,41.889133,44.727355,46.298323,42.528732,53.192028,54.833835,54.243674,48.720137,57.092789,56.788186,54.518167,-5.605556,289.324704,-72.140281,279.295585
22,0.514412,-0.051672,0.044025,0.0361,8.47784,14.572414,15.311428,14.23003,5.027492,27.170528,44.205883,53.984195,1.63401,27.083942,43.287449,56.970234,-3.784676,17.444629,32.27631,42.862484,-10.294636,-11.770878,-17.40493,-23.307083,-25.524644,-35.293004,-37.588341,-36.165228,-8.275346,6.092234,8.372763,7.773994,12.010665,26.376639,26.369957,25.350829,25.269701,38.305695,35.789847,33.503279,34.632002,44.565581,46.648607,46.911812,26.428734,52.748543,77.282341,98.250996,60.01545,94.387859,112.440205,125.093708,52.760937,91.280148,111.715611,125.915302,44.330521,79.677281,98.764217,111.667317,36.0382,63.789894,79.228787,90.657635,-17.845647,-20.65103,-15.969497,-12.919261,14.110043,25.227143,29.488835,32.398193,31.60428,41.92969,44.763293,46.262816,42.601782,53.247108,54.842628,54.145737,48.822506,57.217635,56.901708,54.536667,-5.122444,289.279908,-72.127556,279.338561
23,0.929317,0.022255,0.105652,-0.184276,8.444939,14.143227,14.31704,12.749657,3.902024,25.763672,43.018433,53.068634,0.39386,25.435295,41.951729,56.146866,-5.019356,15.748169,30.877259,41.908219,-11.537647,-13.731537,-19.622818,-25.644275,-25.457806,-35.212234,-37.30209,-35.761294,-8.021589,6.617606,8.830617,8.160255,12.1612,26.733976,26.690183,25.671511,25.311728,38.47778,35.947125,33.672228,34.644401,44.457135,46.645186,47.052171,26.485599,52.843037,77.331654,98.275646,59.895023,94.213703,112.238628,124.906597,52.655651,91.06786,111.499752,125.734211,44.257267,79.582478,98.620205,111.51511,35.96299,63.700264,79.104687,90.520351,-17.769298,-20.504792,-15.793298,-12.87007,14.110006,25.210952,29.450649,32.283819,31.641603,42.022279,44.899157,46.338633,42.707882,53.353505,54.975392,54.240129,49.026233,57.449632,57.09516,54.628688,-4.243069,289.310487,-72.071846,279.162609
24,0.983002,-0.110077,0.022087,-0.03831,8.704216,13.928055,13.68576,11.78389,3.001213,24.820839,42.118538,52.282608,-0.834377,24.009018,40.541405,55.00074,-6.406048,14.206833,29.434113,40.696403,-13.023251,-15.644325,-21.824432,-27.958775,-25.350186,-35.137355,-37.255728,-35.643684,-7.922615,6.952158,9.130466,8.456954,12.262619,27.10832,27.139121,26.175061,25.378481,38.738022,36.304636,34.090908,34.699767,44.492555,46.839454,47.348734,26.519486,52.905968,77.452652,98.435589,59.718555,94.047741,112.11787,124.856129,52.514282,90.93362,111.440769,125.738125,44.172764,79.581974,98.624188,111.515751,35.930489,63.792034,79.222424,90.629459,-17.75927,-20.480808,-15.768153,-12.950519,14.014318,25.045733,29.281749,32.121996,31.62246,41.972719,44.878261,46.306931,42.794048,53.381527,54.972477,54.179552,49.196418,57.559091,57.146573,54.594713,-3.32939,289.215365,-72.119082,279.139254
25,-0.502728,0.641809,0.122097,-0.080461,8.829758,14.262555,13.7608,11.609265,3.877945,26.013096,42.953602,52.842831,0.143029,25.680394,41.902142,55.93919,-5.505237,16.118214,31.181202,42.357342,-12.186367,-12.057254,-15.814052,-19.888916,-25.722393,-35.745115,-37.88221,-35.993722,-7.551248,6.843897,8.863432,8.191699,12.472966,26.769174,26.880955,26.307491,25.378074,37.909974,35.550898,33.586593,34.436464,43.842904,45.308118,45.116074,26.454552,52.783241,77.334457,98.231896,59.628616,93.95018,112.090874,124.865891,52.437401,90.870529,111.465317,125.818428,44.086968,79.549141,98.630951,111.576668,35.80632,63.749497,79.210899,90.65078,-17.661741,-20.425146,-15.806944,-13.051456,13.960361,25.036903,29.353219,32.20163,31.5626,41.9732,44.987658,46.422614,42.786663,53.4095,55.084851,54.302559,49.258255,57.695609,57.361119,54.844024,-3.926903,289.880433,-72.09177,279.082052
26,-0.238643,0.720554,0.175884,-0.21499,9.108387,14.562401,13.823341,11.366192,4.817035,27.493904,43.991318,53.389755,0.999069,27.486946,42.93116,55.957306,-4.775253,17.953399,32.236816,42.613106,-11.531914,-9.342694,-11.670674,-14.489857,-26.058958,-36.315887,-38.668331,-36.679967,-7.055108,6.679986,8.336886,7.564425,12.939971,26.363819,26.302896,26.076618,25.670078,37.209822,34.645451,32.815959,34.412911,43.217977,43.786031,42.860775,26.332329,52.665139,77.237824,98.098721,59.563465,93.836895,112.055271,124.84837,52.356858,90.808171,111.463269,125.806332,43.986798,79.56815,98.673466,111.609318,35.711632,63.825039,79.330021,90.79121,-17.515554,-20.269301,-15.784035,-13.116998,14.181773,25.364315,29.726303,32.558078,31.715753,42.13327,45.16561,46.581423,42.957107,53.588798,55.300421,54.540162,49.473109,57.95128,57.646183,55.155011,-4.271599,290.612225,-72.021939,278.8783
27,0.766308,0.141544,0.001946,-0.123031,8.887962,13.877964,12.594211,9.677936,4.21574,27.702312,43.548099,52.139888,0.552005,28.298504,42.988094,54.851978,-4.962342,19.08189,32.655384,42.094654,-11.438118,-6.922898,-7.898266,-9.905102,-26.216681,-36.579746,-38.723634,-36.10202,-6.166878,7.063308,8.421114,7.653556,13.846962,26.392929,26.156067,26.280321,26.385655,36.975233,34.095082,32.326551,34.719564,43.045348,42.775177,41.215794,26.319683,52.698246,77.271023,97.966381,59.65448,93.963146,112.221691,125.059856,52.355209,90.917164,111.618473,126.017269,43.894821,79.629673,98.80212,111.794094,35.535518,63.790294,79.352657,90.826069,-17.4428,-20.222766,-15.873956,-13.277957,14.153392,25.396178,29.769787,32.625966,31.678159,42.156043,45.185172,46.60532,42.946868,53.617388,55.314611,54.558625,49.524732,58.000593,57.650604,55.166299,-3.622043,290.741521,-72.136745,278.743021
28,2.156856,-0.215534,0.020817,-0.175705,8.386105,12.498734,10.708718,7.584297,2.030365,25.654679,41.196213,49.360542,-1.67728,26.618111,40.891411,51.944962,-6.867748,17.847908,31.068146,39.841828,-12.795856,-6.461139,-5.775478,-6.596947,-26.136084,-36.499693,-38.449165,-35.459816,-5.387464,7.583939,8.783317,7.993258,14.694449,26.665841,26.330561,26.642401,27.110148,37.056324,34.028738,32.333973,35.117855,43.187077,42.221931,40.096074,26.326915,52.676525,77.279274,97.973487,59.724369,94.090004,112.438316,125.322555,52.380352,91.048256,111.768104,126.16539,43.861267,79.729362,98.94413,111.949035,35.470733,63.902286,79.532386,91.03704,-17.366797,-20.196077,-15.994295,-13.358528,14.362392,25.736263,30.129249,32.988984,31.833313,42.27369,45.276304,46.683287,43.079693,53.732578,55.461639,54.734738,49.656396,58.140149,57.797484,55.329839,-1.592234,290.498166,-72.242975,278.539495
29,5.933396,-0.403959,0.0046,-0.201356,6.522663,8.055061,4.332481,0.042057,-4.374894,18.466552,34.307647,42.774032,-8.253479,19.977104,34.500274,45.443733,-12.801659,11.970977,25.504692,34.138961,-17.586777,-10.156689,-7.446419,-6.740536,-25.617566,-35.688304,-37.397716,-34.176728,-3.717103,9.27164,10.356607,9.426337,16.131777,27.65633,27.173553,27.437808,28.171255,37.484588,34.446467,32.709922,35.664927,43.66531,42.254214,39.716198,26.347881,52.647492,77.173851,97.759827,59.954384,94.248161,112.57148,125.431366,52.521744,91.155373,111.826676,126.244766,43.858544,79.642525,98.883225,111.955902,35.299473,63.577675,79.229279,90.79287,-17.372008,-20.193162,-16.022466,-13.365074,14.544976,25.938668,30.28139,33.080845,31.95984,42.437316,45.3837,46.737924,43.131453,53.863958,55.59092,54.849606,49.679454,58.27994,57.926814,55.448091,4.206133,290.059645,-72.373404,278.303577
30,0.467834,4.030314,0.028816,-0.123142,6.304756,7.188171,3.137203,-1.355164,-5.540932,16.505905,32.344872,41.540314,-9.874638,17.44558,33.151268,45.508781,-13.823959,10.336052,24.676094,34.628906,-17.644867,-9.152573,-4.818706,-2.262726,-25.30606,-37.041948,-39.683618,-37.282404,-8.204691,2.265734,4.331026,4.824486,11.108195,21.400334,22.286872,23.304087,23.680307,32.136606,30.388872,29.348069,32.100384,39.065694,37.920014,35.479144,26.425587,52.678208,77.089852,97.739708,60.070347,94.355118,112.611214,125.430428,52.59161,91.209847,111.749588,126.081093,43.885449,79.682099,98.85569,111.877396,35.292458,63.566872,79.213463,90.741944,-17.420162,-20.304153,-16.208915,-13.557279,14.627178,26.030787,30.251983,32.985365,32.08271,42.466548,45.257445,46.506841,43.267661,53.952174,55.606406,54.83192,49.812402,58.334243,57.873375,55.331802,4.520096,294.049213,-72.498459,278.139689
31,-3.163753,-0.203801,-0.068058,-0.198293,6.997581,8.920452,5.829025,1.237461,-4.182358,19.104389,35.579006,45.287647,-8.532017,19.780414,36.288608,49.487537,-12.343781,12.853694,28.060604,38.899143,-15.770039,-4.734845,2.070396,6.70499,-25.094145,-36.886065,-39.368333,-36.897292,-8.379099,1.928478,4.219653,4.793079,10.751265,21.265533,22.540716,23.483805,23.518459,32.233925,30.884283,29.915901,32.215153,39.734216,38.200398,35.299413,26.507973,52.611615,76.819439,97.397839,60.037766,94.344258,112.408779,125.123371,52.471196,91.108075,111.448506,125.623616,43.699414,79.634068,98.698735,111.573269,35.055909,63.421852,79.038678,90.430149,-17.532708,-20.559195,-16.450866,-13.739183,14.218884,25.709438,29.89435,32.650777,31.863249,42.280099,45.053533,46.300607,43.230883,53.927981,55.534714,54.769651,49.903225,58.437687,57.90241,55.32522,1.159825,293.820616,-72.763035,277.9166
32,-0.460991,-0.439898,-0.163593,-0.400402,7.473301,9.203464,5.979446,0.940658,-5.419773,18.049724,35.432315,45.684528,-10.191193,18.139217,35.527599,49.130527,-14.177754,10.838825,26.982959,38.397937,-17.495465,-5.905758,2.33963,8.054065,-24.731768,-36.239217,-38.616954,-36.357778,-7.914834,2.459149,4.744692,5.202497,10.859774,21.824411,22.934622,23.496131,23.555263,32.999112,31.461909,30.293876,32.263121,40.476272,38.616831,35.487802,26.497696,52.432171,76.492321,97.05336,59.344597,94.031319,112.089294,124.821442,51.84866,90.790627,111.094872,125.08873,43.387917,79.597183,98.592819,111.298348,35.155186,63.63652,79.208473,90.50116,-17.703349,-20.948161,-16.788431,-13.953395,13.513682,25.037853,29.324949,32.245435,31.458438,41.781057,44.663739,46.01879,43.130563,53.737715,55.480102,54.791338,49.973645,58.754133,58.393066,55.814431,0.458302,293.396369,-73.16716,277.531849
33,-5.328255,-1.554455,-0.196976,-0.999097,8.470756,11.926025,9.982647,4.979313,-2.678192,22.54604,40.478062,51.057346,-7.806885,21.818813,39.841221,53.809833,-12.131733,14.022526,30.648411,42.186939,-15.386181,-4.397656,2.375622,6.97126,-24.629868,-35.664161,-38.301002,-36.710361,-8.279199,3.187346,5.940402,6.406864,10.643004,23.118514,24.538527,24.680059,23.715937,34.546132,33.604376,32.515074,32.99054,42.249088,41.947314,40.127357,26.687783,52.402291,76.167126,96.450096,58.33318,93.265503,111.215927,123.892296,50.812615,89.923394,110.23835,124.163269,42.517113,78.821652,97.915421,110.688881,34.467648,62.462368,77.730297,88.580956,-17.718083,-21.203017,-17.032691,-14.022197,12.134697,24.076918,28.637198,31.843403,30.374113,41.21115,44.618316,46.200102,42.526632,53.73858,56.001683,55.470123,49.751776,59.462423,59.732593,57.340889,-5.168873,291.894136,-73.663056,276.584974
34,-6.492119,-2.483602,-0.365799,-1.759245,10.185928,15.730419,15.809555,11.709137,0.454182,25.400265,44.087368,55.433086,-5.094257,23.996853,43.178845,58.362911,-9.798294,16.072552,33.651409,46.362499,-13.216415,-2.565227,3.789414,8.640884,-23.216574,-33.057848,-34.921883,-32.870028,-8.562509,3.810285,7.541022,8.661607,9.851068,23.313214,25.856973,26.384803,23.015354,34.789466,35.052486,34.918067,32.852504,43.107049,44.41759,44.368845,26.982754,52.435707,75.841736,95.953904,55.933926,90.922303,108.932282,121.729157,48.501778,87.868813,108.549523,122.572976,40.597138,77.363697,96.694085,109.394394,33.020932,60.926937,75.803307,85.855912,-17.653986,-21.358072,-16.993133,-13.801081,9.29571,22.426218,27.804049,31.707651,27.886042,40.226936,44.887671,47.277956,40.959258,53.382243,56.692226,56.82578,49.215968,60.366487,61.664295,59.785971,-12.071835,289.498207,-74.439698,274.913402
35,3.841656,-2.306402,0.443539,-3.166598,7.914665,11.012146,9.819946,5.175842,-5.890183,14.753128,30.594669,39.353302,-10.94196,11.795563,26.045334,36.726345,-15.014752,4.339874,16.673046,24.611641,-17.224491,-12.081642,-9.747883,-8.608509,-22.309152,-30.876812,-32.220081,-29.814396,-6.823989,4.650658,7.945215,8.864098,11.621526,23.573751,25.770694,26.429843,24.768423,36.150086,36.169019,36.237031,34.484221,45.05604,47.245697,48.618791,27.252079,52.737213,75.172348,94.429974,52.017574,86.159409,103.789227,116.163014,43.699917,81.880829,102.035946,115.175846,35.592247,71.076519,89.641949,101.333485,28.206825,54.47905,68.304314,76.822037,-17.606117,-21.32611,-16.117747,-12.0088,4.960324,20.20329,27.194511,32.298182,23.850578,38.81768,45.663281,49.352448,37.987618,52.551935,57.486768,58.597609,47.455056,60.491593,63.40252,62.5103,-8.759468,287.289383,-74.525448,271.844382
36,8.620685,-6.191245,2.072182,-5.044651,2.090287,-1.513195,-7.123478,-14.003894,-18.964302,-7.100338,5.339951,12.604935,-23.158344,-10.711418,0.94336,10.576378,-25.505275,-15.559558,-5.633926,1.668011,-25.559978,-26.365676,-26.185432,-25.722141,-10.849646,-13.784198,-12.616597,-8.559323,-2.197993,8.794309,13.697971,15.591707,9.823849,21.263816,25.974471,27.308576,18.211605,29.227149,31.980193,33.195824,24.407592,34.541946,39.322453,42.800149,26.211204,50.163414,70.203335,86.763965,46.988434,76.728264,92.222717,102.33292,38.583046,71.488025,88.104286,97.809746,30.5713,60.819053,75.623073,83.727127,23.31364,44.93486,55.527202,60.895397,-16.707734,-18.799196,-11.272426,-3.97743,3.890684,21.472508,30.165262,36.06476,21.736985,39.336507,48.208103,53.030279,35.564459,52.310738,59.051018,61.143715,44.97905,59.795555,64.892471,65.679789,-0.761656,281.233168,-73.076139,266.934761
37,12.953305,-9.960848,-0.027958,-9.538499,-7.060032,-16.988446,-24.620774,-30.927784,-33.549809,-32.298157,-25.345848,-20.708268,-35.035984,-35.489502,-30.184376,-24.130406,-34.025666,-34.997864,-30.796372,-26.736672,-30.685215,-38.395832,-41.712445,-43.14386,-7.226416,-5.772601,-1.187053,5.489575,2.488431,14.382128,20.365854,23.193183,13.775999,27.160697,33.930777,36.786586,22.044428,34.638882,38.85089,40.693658,28.149938,38.773677,44.290175,48.240731,24.410339,46.48974,64.033956,78.416101,41.337948,65.539324,78.57193,86.457498,33.149608,59.596378,72.666464,79.470331,25.253065,49.62779,61.071499,66.373953,18.178591,35.340803,43.357544,46.364576,-16.336195,-18.471815,-11.23684,-3.846872,0.202195,17.568751,26.581607,32.278293,16.932228,34.759288,44.448996,49.659971,30.646149,47.747444,55.128773,57.725242,40.557491,55.555839,61.597715,63.441737,11.552891,271.393097,-73.742855,257.517039
38,16.151161,-11.050051,-2.386036,-13.440496,-16.130928,-32.719517,-43.246536,-49.120594,-50.851639,-60.840214,-59.943283,-58.794216,-49.991512,-63.082501,-64.389599,-62.619679,-45.84391,-56.094132,-53.629406,-49.734833,-39.492039,-50.525185,-52.019863,-51.271179,-3.662898,1.657851,10.365783,20.01468,7.03257,18.863442,26.366982,31.08927,17.401378,30.493033,38.94044,43.652293,25.445505,37.125509,40.149921,40.952614,31.437641,40.372494,43.354434,45.373116,21.544373,41.521574,56.633577,69.413629,34.911804,52.92164,63.372826,69.255358,27.442989,46.715481,56.41559,60.8514,20.119097,38.35243,46.780151,49.899828,13.858675,27.330465,33.723438,35.570291,-16.768658,-20.685666,-16.319924,-11.984625,-6.067423,7.932872,15.765553,20.240914,9.64295,24.697442,33.702177,38.541476,23.405814,38.327875,44.856605,47.357583,34.264556,47.392225,52.82854,54.904175,27.054749,260.459742,-76.778194,244.193239
39,12.836037,-13.208351,-6.772167,-15.771772,-25.111062,-47.83849,-61.97976,-69.498745,-62.339825,-81.741429,-88.21304,-92.073876,-58.393387,-81.557225,-89.553566,-92.15458,-51.327736,-70.068627,-71.351372,-69.273056,-42.477814,-57.349423,-58.94949,-57.618691,-1.012521,7.215585,18.938271,30.175722,10.848609,21.306696,29.43032,35.599928,20.368188,32.625719,40.013415,44.10843,27.885449,39.075611,39.956975,38.686226,32.975338,40.803264,41.09501,40.30794,21.553104,40.866937,53.643591,61.666071,32.687839,45.178865,52.630188,56.084959,23.615169,35.267944,40.989492,42.010603,15.413492,28.871916,35.493782,36.69663,9.1014,20.405405,25.805992,26.512682,-15.276706,-19.859568,-17.417821,-13.95981,-15.824358,-11.193614,-8.149214,-7.777668,-3.544875,4.423831,10.451431,12.991552,8.987662,22.49733,30.341553,33.575842,20.585828,31.726368,37.553847,40.202526,39.169728,247.370171,-84.271419,228.540247
40,9.111145,-25.861357,-6.987362,-20.044505,-31.635464,-58.932324,-75.651942,-85.100001,-71.963339,-97.490948,-106.475911,-111.130045,-65.984642,-93.663151,-102.572588,-104.668888,-56.99952,-77.864325,-76.490593,-71.420832,-46.768399,-62.487505,-61.771786,-57.707159,1.280599,13.418927,28.970719,43.063521,15.395199,29.296434,38.75648,45.393716,24.504583,39.848078,46.637018,49.597474,31.675529,44.622219,43.930547,40.650513,36.212566,44.756958,43.043607,39.789928,20.907715,38.529711,48.190458,50.168627,29.576374,36.779703,41.922638,44.019647,18.854175,22.186718,23.547048,21.649938,9.515745,20.308885,27.145077,28.044439,2.675886,13.537313,19.654587,21.031969,-14.106968,-20.731607,-21.57266,-19.697337,-25.787194,-31.037276,-33.857195,-38.662556,-16.870934,-18.033929,-17.952073,-19.614567,-5.660882,4.681509,13.3079,18.087271,6.204688,14.343294,20.499396,24.317492,47.442044,221.720445,-92.09761,208.707373
41,7.171989,-25.498684,-10.697685,-20.471422,-35.538563,-64.776741,-82.192148,-92.194628,-78.045164,-108.027615,-118.826546,-123.842703,-70.89267,-101.827629,-112.673498,-116.221275,-60.584484,-82.055277,-79.742992,-74.513952,-49.19791,-65.788256,-63.790558,-59.016306,-8.27792,0.890164,16.663985,31.472216,9.002636,23.765252,33.875011,41.032445,24.38906,40.852622,46.00473,48.352685,37.303968,51.099627,47.472884,42.091656,46.487983,55.166732,50.38231,44.488801,21.851349,38.428201,45.7273,44.655916,27.880016,33.470186,38.154476,40.799772,15.669788,15.544178,16.064878,14.49468,5.269472,16.081804,25.35316,28.695619,-2.346342,9.971757,18.44466,22.215643,-14.947317,-25.576063,-32.051885,-36.236333,-39.975741,-54.276753,-63.304231,-72.627512,-33.707852,-44.23642,-50.325937,-56.444477,-23.333881,-19.220921,-9.746253,-2.751654,-10.907315,-7.064253,-1.077705,3.767967,53.756063,196.787373,-103.653265,188.801563
42,1.609818,-23.295083,-7.954628,-22.784457,-36.429875,-66.203946,-85.487086,-97.790469,-80.074488,-111.507042,-124.153679,-131.048865,-73.633656,-104.887608,-116.12562,-120.395794,-64.18578,-85.879137,-81.774273,-75.02064,-53.447754,-70.721541,-67.939373,-62.228068,-8.631862,-1.706578,11.75416,23.254606,4.862678,14.646815,22.648069,28.847921,18.380485,28.25818,30.056908,30.356799,29.472496,37.077084,31.209047,24.960943,37.06813,41.585691,35.880287,29.812975,22.531757,37.980251,42.291217,37.2262,26.032859,31.286235,35.680435,38.430679,11.074653,7.72364,6.468406,4.027599,-1.065297,10.141388,21.206691,25.926212,-9.872395,3.492164,13.755947,19.035141,-14.730406,-28.254543,-38.056445,-45.156366,-53.009036,-75.434025,-89.347838,-102.368067,-48.845539,-68.045286,-79.639303,-89.681037,-38.643556,-37.729187,-26.34117,-17.414759,-25.497857,-24.299522,-17.218757,-11.007678,54.512822,174.223965,-112.460952,166.748781
43,0.662338,-32.239001,-6.769947,-21.032579,-35.276242,-65.903298,-86.573988,-101.066935,-80.590948,-113.958012,-127.729511,-135.422007,-75.694256,-108.527012,-120.355242,-124.781811,-67.406868,-89.513872,-84.743466,-77.554487,-57.479908,-75.073683,-71.540028,-65.253313,-11.496346,-7.196263,4.189784,14.55125,-3.56797,2.527037,8.783039,13.700638,10.235495,17.316013,17.70635,17.061552,22.270354,27.627227,22.294214,16.906528,31.09279,34.296234,28.870065,23.282641,24.422607,39.756179,41.888008,32.343921,25.764301,31.426013,35.70679,38.709377,7.907283,2.012924,-1.185322,-4.80003,-6.152985,5.60004,18.220493,24.066444,-16.507966,-2.819939,8.656848,15.01332,-14.368864,-28.864378,-39.324441,-46.082956,-63.654739,-91.005022,-108.852552,-124.999538,-61.970485,-86.847422,-103.49647,-117.342005,-52.441519,-53.903621,-39.707189,-27.963514,-39.078131,-39.819204,-30.788651,-22.369217,54.168057,143.483461,-120.238002,147.214699
44,0.49221,-30.998164,-0.842263,-23.728831,-34.23151,-64.231682,-84.721864,-98.817827,-82.526808,-115.465874,-129.610496,-138.062719,-79.75605,-112.987335,-125.975618,-132.448585,-72.724949,-94.193647,-87.834572,-80.040224,-63.392738,-80.031938,-75.161041,-68.2983,-16.107558,-14.212147,-5.021049,3.335153,-12.834872,-10.838024,-7.675088,-5.406205,1.262235,4.580708,3.954719,3.121651,14.101596,16.534266,11.837511,7.494055,24.393019,25.257982,19.973499,14.996582,22.638497,35.081017,33.601856,22.527111,21.074547,27.178986,31.876957,35.475415,2.755635,-5.629635,-10.501259,-14.720249,-11.80347,-2.003059,10.576813,16.833493,-22.833297,-10.769703,1.410118,8.814915,-14.753878,-32.721506,-45.339363,-53.781274,-67.960447,-95.556021,-113.805256,-130.120567,-66.364212,-94.57201,-114.202725,-130.406984,-56.599032,-61.95493,-47.205146,-34.219781,-43.574246,-46.672561,-36.621193,-26.720922,53.963253,114.880707,-121.777279,125.881278
45,-5.470573,-31.236229,-2.174686,-20.057818,-30.429016,-58.251148,-77.205403,-89.930374,-79.823548,-115.025986,-129.263993,-136.429528,-78.839676,-115.158119,-128.262921,-134.049237,-72.971707,-95.575836,-88.506478,-80.186703,-64.437893,-81.360409,-75.906212,-68.884072,-19.882497,-22.668873,-18.149885,-12.693804,-20.549957,-22.054839,-23.010723,-24.254204,-5.571647,-5.809714,-8.848439,-11.240897,8.1766,6.652736,2.387561,-0.887045,19.566593,16.987594,12.173711,8.705443,22.213966,33.057312,29.354221,18.504352,19.729534,26.638389,31.562095,35.361763,1.664028,-6.909634,-12.292866,-16.624958,-12.742481,-4.817951,6.900833,13.152317,-23.984551,-13.666088,-1.669991,6.06332,-14.445663,-34.418025,-48.622188,-59.213428,-71.025485,-98.887197,-117.565128,-133.695539,-69.627116,-99.659602,-120.760131,-138.214762,-59.645798,-67.931419,-53.081859,-39.95101,-46.469939,-51.234614,-41.30763,-31.18733,47.984957,86.387799,-124.459688,108.566781
46,-4.976074,-27.300444,0.21888,-19.448774,-26.807946,-52.370499,-70.078309,-81.231858,-75.56012,-112.010079,-127.924828,-136.202397,-76.169587,-114.599408,-130.068329,-137.331048,-71.903401,-94.931202,-87.360993,-78.764546,-64.90765,-81.641602,-75.808732,-68.617642,-21.285552,-25.995973,-23.017503,-17.995163,-24.367787,-29.142693,-32.474492,-34.51267,-9.114454,-12.281404,-16.380402,-18.32806,4.859399,0.733558,-3.736752,-6.096736,16.473966,11.466502,6.999039,4.863184,21.219715,31.306491,25.859458,14.096466,17.900688,25.566112,30.843246,35.044281,-0.73795,-10.551053,-16.71008,-21.497647,-15.233471,-8.395718,3.305614,9.482208,-26.332558,-16.977654,-4.654667,3.287956,-12.951069,-34.958174,-50.119247,-60.990289,-72.974772,-102.186496,-120.958869,-137.048883,-71.140526,-102.955962,-125.196441,-143.548756,-60.071968,-68.717934,-53.941591,-41.382514,-45.791512,-51.304231,-41.574404,-31.808632,42.444163,61.973396,-124.805528,92.004048
47,-6.095742,-27.499453,-0.264199,-13.574075,-22.824852,-47.187137,-64.075229,-73.995449,-72.098774,-109.449394,-123.871433,-129.606022,-73.919483,-113.6903,-129.177234,-135.419826,-70.40641,-91.589802,-80.928268,-70.434654,-64.067505,-79.042328,-70.870079,-62.229423,-23.879804,-29.947486,-26.499103,-18.813745,-30.760048,-35.192165,-38.924088,-41.507707,-12.918285,-14.119899,-17.185294,-18.40111,4.147769,1.852117,-1.658863,-3.452367,18.873908,14.651261,10.439537,8.763754,21.244332,31.086193,24.862313,12.529152,17.602661,25.628002,31.327664,36.160572,-0.620865,-11.102016,-17.310894,-21.998268,-14.836681,-9.450371,2.406922,8.823017,-25.830482,-17.559528,-5.057499,3.182705,-11.760112,-34.882208,-50.714014,-61.700159,-72.813924,-101.694771,-120.495233,-136.25082,-71.092187,-103.227873,-126.138604,-145.04025,-59.876632,-70.528319,-56.084181,-43.512532,-45.2843,-51.9972,-42.662445,-32.954589,35.714321,37.609175,-125.703827,81.565205
48,-5.44178,-17.439792,1.322193,-10.771229,-21.042778,-44.799099,-61.527637,-71.083935,-69.751739,-106.794937,-120.466541,-125.141933,-71.737346,-111.956463,-127.56974,-134.110061,-68.339023,-89.826015,-79.059105,-68.727848,-62.271217,-77.580047,-69.41082,-60.699097,-24.36126,-31.128883,-27.960272,-20.050359,-31.946848,-37.906293,-43.701736,-48.155374,-14.063064,-16.019261,-19.974925,-21.996423,2.814015,-0.148572,-3.675848,-5.23951,17.173197,12.411962,8.421385,7.282331,20.59385,29.455948,22.073262,9.182888,16.667405,24.631955,30.491547,35.214695,-1.188652,-11.759193,-17.958549,-22.977813,-15.331627,-10.792522,1.43945,7.764073,-26.494857,-18.763801,-6.015358,2.289574,-10.348832,-34.713346,-51.260172,-63.078225,-72.056667,-100.764384,-118.701384,-133.489385,-70.200845,-103.333115,-126.062311,-145.07065,-58.773845,-71.081974,-56.410082,-43.748388,-43.997934,-51.870927,-42.550826,-32.804795,29.81563,22.882233,-124.838545,73.506826
49,-6.153557,-16.804158,0.428421,-4.896258,-18.708274,-42.023929,-58.342518,-67.814815,-67.040977,-104.813347,-117.979854,-121.432274,-69.155685,-110.914707,-127.233913,-133.937576,-65.860862,-87.197799,-76.448764,-66.567901,-60.11824,-75.645,-67.354248,-58.548568,-23.666908,-31.41404,-28.747417,-19.997279,-32.359662,-38.097423,-44.13833,-49.19267,-13.423706,-13.825208,-16.915908,-18.667224,4.43489,1.925217,-1.462114,-2.816671,19.436349,15.006961,11.24257,10.664191,20.649399,29.731144,22.435868,9.179032,17.04562,24.590355,30.85056,36.009636,-0.632034,-11.466213,-17.62342,-22.60968,-14.671417,-10.318908,2.659642,9.649052,-26.03239,-18.868297,-5.848651,2.954831,-10.294776,-34.429294,-51.191474,-64.131934,-73.057894,-100.758592,-118.210586,-132.366467,-70.908918,-104.012524,-127.071955,-146.181293,-59.134628,-72.759282,-58.495505,-45.726081,-43.982904,-52.958246,-44.188274,-34.385513,22.976726,8.091768,-125.095471,70.624261
50,-1.327675,-9.248675,2.079815,-1.972944,-18.982772,-42.87537,-59.618774,-69.336616,-67.461914,-102.681884,-116.709102,-122.498394,-69.947639,-109.946365,-128.975955,-139.569454,-66.941059,-86.876163,-75.896083,-66.538524,-61.457405,-76.158657,-67.645294,-58.668125,-22.250989,-27.571608,-22.218576,-11.908233,-30.848202,-36.415804,-41.264342,-45.039595,-12.215664,-10.990202,-12.02207,-11.931297,5.568875,5.219788,1.807071,0.446018,20.690291,18.125784,14.325923,13.400766,20.259602,28.554783,20.808415,7.152169,15.993462,22.403435,28.156128,33.110756,-1.394851,-12.794895,-17.501072,-20.793274,-15.345337,-11.693721,2.394551,10.190209,-26.457069,-19.659336,-6.151199,2.934014,-11.25957,-36.314664,-53.501446,-67.4073,-73.81866,-101.089488,-118.357805,-132.53851,-70.874999,-103.534224,-124.837276,-141.962098,-58.823319,-72.98945,-58.84897,-46.40709,-43.518344,-53.0707,-44.148352,-34.410226,20.907262,0.848262,-123.757445,70.656486
51,-3.315353,-5.476322,2.856732,0.644791,-18.944504,-43.097305,-59.73262,-69.670692,-67.896057,-101.802566,-116.499676,-124.38026,-70.662746,-109.277527,-129.53627,-142.652492,-67.557186,-86.903583,-75.970447,-66.929546,-61.671913,-76.042499,-67.511936,-58.472294,-21.544861,-26.21276,-20.796619,-11.892296,-29.794537,-35.382814,-41.261138,-46.435687,-11.645048,-9.53143,-10.535868,-11.119916,5.854087,6.759502,3.704154,2.215184,21.155697,19.792167,16.359011,15.220568,20.072685,27.84851,20.124389,6.54285,15.084514,17.95594,20.993602,23.282455,-1.871247,-13.217537,-16.029419,-17.542877,-15.924202,-12.837742,2.041946,10.366916,-27.191437,-20.736145,-6.737835,2.444149,-11.288537,-36.604569,-54.006941,-68.430207,-73.620354,-101.168812,-118.486381,-132.771963,-69.901096,-101.475291,-118.888556,-131.63502,-57.807166,-71.674919,-57.444185,-45.213534,-42.645452,-52.180055,-42.841058,-33.131961,16.949152,-2.956183,-121.54347,72.973154
52,-4.04409,-2.985374,3.033107,4.996226,-18.985428,-43.370018,-60.112107,-70.728344,-67.809277,-101.306019,-117.669972,-128.418457,-71.033272,-108.752941,-130.484276,-146.181301,-68.021633,-86.656323,-75.935669,-67.247956,-61.982483,-75.458817,-66.862667,-57.841656,-21.117869,-25.404928,-20.273376,-12.772288,-28.740593,-33.379061,-38.702793,-43.826817,-10.831837,-7.40869,-7.753252,-8.289918,6.612963,8.968149,6.184341,4.561707,22.144038,21.731292,18.570202,17.263026,19.805993,27.30423,19.754208,6.285553,13.573311,12.919705,12.901474,12.273068,-2.7579,-13.843666,-16.25505,-17.553817,-16.683586,-13.601371,1.470944,10.03584,-28.168327,-21.639415,-7.555892,1.677933,-11.80779,-36.966439,-54.128707,-68.430639,-73.143597,-99.737289,-115.780034,-128.345897,-69.124146,-100.013375,-115.193399,-124.967859,-57.461253,-71.439496,-56.966459,-44.019911,-42.8402,-52.569515,-43.009921,-32.869479,12.254454,-4.663444,-119.160971,79.247493
53,-4.489975,-0.703405,2.34343,5.740905,-19.137966,-43.590981,-60.156349,-70.676525,-67.549267,-101.615284,-118.921955,-131.184746,-70.811772,-108.039196,-130.574993,-147.470421,-67.740521,-85.69487,-74.978291,-66.447579,-61.435581,-74.138123,-65.338909,-56.294838,-20.106063,-23.844365,-18.708658,-11.966563,-27.656064,-30.875348,-35.26537,-39.677758,-10.045192,-5.333352,-5.150997,-5.278042,7.433663,11.361026,8.795945,7.044345,23.252464,23.914218,21.028708,19.577413,19.58987,26.87241,19.242096,5.802818,12.569527,8.656872,5.275314,1.714714,-3.619663,-14.196236,-14.322075,-13.395561,-17.434708,-15.411221,-0.623577,8.365082,-29.004787,-23.30199,-9.364952,-0.241344,-11.411649,-36.358809,-53.593788,-67.327234,-71.994762,-99.239075,-115.543493,-127.432151,-67.233923,-95.730886,-105.244951,-109.20112,-55.880523,-69.250919,-54.906793,-41.874449,-41.781545,-51.855334,-42.325251,-32.186661,7.182879,-4.374702,-117.399141,85.980545
54,-4.314079,1.671924,1.314308,6.228227,-19.5252,-43.929543,-60.251587,-70.593865,-67.033173,-101.822915,-119.961949,-133.395962,-70.313611,-107.015316,-130.187039,-147.827294,-67.234269,-84.589943,-73.935563,-65.444458,-60.832924,-72.898522,-64.011498,-55.049378,-19.655286,-23.131087,-17.90954,-11.375908,-27.277245,-29.781637,-33.429802,-37.20053,-9.807077,-4.568629,-4.117252,-3.922856,7.733121,11.851571,9.385167,7.706834,23.662233,24.138569,21.51732,20.193959,19.333786,26.453087,18.837525,5.558762,12.587197,6.782856,0.445198,-6.465523,-3.655906,-13.428108,-13.734398,-13.256733,-17.75481,-16.622818,-2.267029,6.595242,-29.809101,-24.69516,-10.932758,-1.939167,-10.976309,-35.587553,-52.829293,-66.136828,-70.687049,-98.133502,-114.360812,-125.215065,-65.879217,-93.884122,-102.014342,-104.174013,-54.997819,-68.378405,-53.66895,-40.245572,-41.427623,-51.622665,-41.808709,-31.586892,2.393418,-1.916025,-116.560215,92.995525
55,-3.344468,2.574844,0.93385,5.412195,-20.166996,-44.427726,-60.87585,-71.379146,-65.948078,-101.662891,-120.426281,-134.878921,-69.00262,-105.634712,-129.0844,-146.940319,-66.02378,-83.017204,-72.395153,-63.91991,-59.798618,-71.551265,-62.533939,-53.537017,-19.415429,-23.230215,-18.577093,-12.764286,-27.373909,-29.78596,-33.50352,-37.532704,-10.020604,-4.77771,-4.521569,-4.532925,7.609731,11.651179,9.355872,7.734862,23.554021,23.566828,21.202627,20.067642,19.137794,26.407962,18.863903,5.679531,12.86396,6.188484,-1.707196,-10.728516,-3.35669,-12.678704,-14.185948,-15.240464,-17.577736,-17.152462,-3.592827,5.029392,-30.147984,-25.840039,-12.640641,-3.674275,-9.992754,-33.693062,-50.480221,-62.851613,-69.155324,-96.444109,-111.448088,-119.710608,-64.648797,-92.922421,-100.91319,-102.750512,-54.16107,-68.052183,-52.994389,-38.972754,-41.027313,-51.577427,-41.57042,-31.035059,-1.407332,1.028605,-116.082647,98.777506
56,-2.198845,2.711275,0.191207,4.929999,-20.914798,-45.066867,-61.611133,-72.01823,-64.641025,-100.545948,-119.357231,-133.886135,-67.433429,-104.013072,-127.461902,-145.165672,-64.427318,-81.686027,-71.227203,-62.724311,-58.408367,-70.228328,-61.284461,-52.359386,-19.573609,-23.56405,-18.824064,-12.750188,-27.647598,-29.926343,-33.516994,-37.501575,-10.270112,-4.982437,-4.796124,-4.646947,7.410191,10.987905,8.468396,6.932898,23.094969,22.04854,19.444476,18.557925,18.814888,26.295411,19.06334,6.023255,13.163292,7.480763,-0.480125,-9.68106,-3.122886,-12.456733,-15.699279,-18.35178,-17.257713,-17.482074,-4.653385,3.962529,-29.924549,-26.404357,-13.853439,-4.65549,-9.978126,-32.666901,-49.059239,-60.893156,-68.394639,-94.573893,-108.088613,-113.473342,-64.267847,-92.953791,-101.97778,-104.54091,-54.204358,-69.054368,-53.933953,-39.40313,-41.452385,-52.705107,-42.866513,-32.044012,-4.023148,3.87876,-116.308411,103.846385
57,-0.963066,2.191781,0.208306,1.487425,-21.180542,-45.047195,-61.471893,-71.738147,-63.510658,-99.542324,-118.540283,-133.216369,-65.926437,-102.578098,-126.021812,-143.653083,-62.802784,-80.614116,-70.389141,-61.931797,-56.842163,-69.518303,-60.744976,-51.765873,-19.806778,-24.191112,-19.738976,-13.737416,-27.90548,-30.448665,-34.07405,-38.057198,-10.46202,-5.382987,-5.415233,-5.338724,7.258397,10.109074,7.429131,5.981454,22.771521,20.779502,17.98009,17.310827,18.421921,25.961529,18.886379,6.010849,13.789512,8.95911,1.272365,-7.846184,-2.80695,-11.933911,-15.428719,-18.333664,-17.169239,-18.015461,-5.489262,3.057186,-30.00594,-27.184994,-14.900299,-5.612,-9.303064,-31.631278,-48.030631,-60.063804,-67.766884,-93.662012,-106.713561,-110.933392,-63.783458,-92.10266,-100.711458,-102.99229,-53.790846,-69.026945,-53.83898,-39.475217,-41.022522,-52.675374,-42.771299,-31.986886,-5.285929,6.163333,-116.39982,105.426602
58,-0.303291,1.6641,0.536888,0.877331,-21.522228,-45.178059,-61.870411,-72.470524,-62.180283,-98.478607,-117.849117,-132.935726,-64.475452,-101.28772,-124.884842,-142.544037,-61.541656,-79.64035,-69.581795,-61.052124,-55.860031,-68.775444,-60.091461,-51.082409,-20.234659,-25.417075,-21.752515,-16.211015,-28.558726,-31.643536,-35.482787,-39.69251,-11.026055,-6.18008,-6.340594,-6.358767,6.775416,8.959225,6.281128,4.994806,22.165823,19.283857,16.47388,16.097283,18.458507,25.878364,18.603069,6.20684,14.115543,10.107651,3.039104,-5.714104,-2.450169,-12.141964,-17.623524,-22.380421,-16.962513,-17.979755,-5.617092,2.57,-29.946545,-27.090248,-14.894417,-5.426388,-9.396047,-31.839414,-48.138645,-60.435517,-67.542045,-91.800651,-103.748188,-106.560524,-64.119361,-93.595,-105.191048,-109.619016,-54.284781,-70.200678,-55.025749,-40.613104,-41.516796,-52.952238,-42.999035,-32.144658,-5.887041,7.808377,-116.160753,106.284877
59,0.17617,0.759369,1.233124,0.344938,-21.530296,-45.045261,-61.924827,-72.606285,-61.052879,-97.796138,-117.494373,-132.846496,-62.98772,-100.355587,-124.256481,-142.145702,-59.926105,-78.661892,-68.675422,-60.015106,-54.210708,-67.755683,-59.15118,-50.05545,-20.322066,-25.724178,-21.912794,-16.219678,-28.754783,-31.833399,-35.581828,-39.728516,-11.158799,-6.408815,-6.569132,-6.505387,6.730017,8.809036,5.974692,4.626693,22.089278,18.829387,15.770099,15.44502,18.400543,25.794479,18.598034,6.606571,13.598591,8.930156,1.612037,-6.910446,-2.725708,-12.692276,-17.469418,-21.248932,-17.136681,-18.519619,-6.42976,1.729602,-30.057804,-27.339009,-15.25327,-5.621991,-9.262296,-31.784339,-48.143906,-60.434245,-66.822121,-90.097358,-101.407848,-103.41394,-63.446702,-92.255906,-102.197426,-104.570932,-53.845927,-70.229293,-55.275609,-40.83275,-41.194268,-52.841396,-43.051677,-32.132105,-5.982617,8.518129,-115.199375,106.580198
60,-0.242752,0.513714,0.723941,0.060972,-21.427414,-44.801445,-61.781982,-72.530262,-60.400451,-97.376438,-117.254482,-132.761696,-62.191635,-99.579643,-123.505508,-141.279224,-58.985424,-77.897598,-68.061733,-59.266845,-53.177501,-66.769581,-58.271289,-49.119323,-20.572668,-26.302075,-22.799518,-17.324053,-28.941596,-32.166783,-35.978698,-40.175034,-11.237457,-6.503923,-6.696356,-6.577548,6.645141,8.273605,5.246698,3.949544,21.916772,18.129421,14.869222,14.606017,18.020669,25.500252,18.967461,7.369183,13.309685,8.281014,0.327828,-8.486629,-2.806777,-12.575031,-16.534114,-19.425418,-17.084346,-19.082107,-7.374389,0.592564,-29.930522,-27.678348,-15.688053,-6.017635,-8.926985,-31.046044,-47.352377,-59.51856,-66.054082,-88.597422,-99.692156,-101.383487,-62.714836,-90.816596,-98.623262,-98.352511,-53.34476,-70.327303,-55.542853,-40.981154,-40.785628,-52.859001,-43.214321,-32.264633,-6.36228,8.957036,-114.612345,106.566363
61,-0.121284,0.18561,0.483307,0.121982,-21.278893,-44.443451,-61.181545,-71.635334,-60.578167,-97.414478,-117.09383,-132.285519,-62.310185,-99.360546,-123.131722,-140.658016,-58.891056,-76.933983,-67.239899,-58.679077,-52.835335,-65.944874,-57.546021,-48.574185,-20.562399,-26.574512,-23.51933,-18.280555,-28.418707,-31.940246,-35.879169,-40.134267,-10.43343,-5.935944,-6.359298,-6.424575,7.489967,8.041904,4.81689,3.672995,22.655176,18.222312,14.911675,14.772489,17.852806,25.422524,18.998246,7.211232,12.862759,7.257912,-1.261997,-10.474445,-2.974605,-12.306038,-15.178905,-17.184837,-17.178463,-19.74995,-8.052406,-0.037101,-30.11689,-28.249694,-16.120308,-6.344535,-8.680169,-31.067459,-47.498911,-59.256665,-65.308915,-87.345482,-98.641485,-100.85336,-62.020551,-89.655608,-96.166763,-94.490431,-52.789464,-70.487403,-55.934486,-41.181424,-40.163085,-52.751432,-43.292151,-32.293662,-6.524998,9.096271,-114.170472,106.64197
62,-0.385529,0.623037,0.487908,0.274487,-21.686977,-44.61486,-61.177025,-71.577038,-60.665474,-97.225193,-116.816185,-132.015438,-62.405594,-99.043682,-122.734485,-140.099773,-58.954456,-76.287746,-66.660164,-58.206608,-52.81089,-65.11417,-56.687496,-47.827022,-20.651876,-26.971036,-24.304962,-19.212752,-28.378236,-32.230282,-36.316603,-40.796565,-10.363924,-5.95894,-6.409069,-6.557536,7.504848,7.851225,4.560546,3.415607,22.588733,17.94115,14.647994,14.511161,17.968128,25.223385,18.502579,6.819752,12.172348,6.002334,-3.144482,-12.729241,-3.462719,-12.223858,-13.137932,-13.314594,-17.543999,-20.445683,-8.551678,-0.221089,-30.422631,-28.846745,-16.44857,-6.508141,-8.965697,-31.943636,-48.606639,-60.189423,-64.986251,-86.58686,-98.349122,-101.556809,-61.465002,-88.109582,-92.110274,-88.135727,-52.281283,-70.063388,-55.65112,-40.814416,-39.538986,-52.435591,-43.217211,-32.359235,-6.922417,9.6767,-113.694454,106.873849
63,-0.296058,0.336157,0.380722,0.214218,-21.788739,-44.59908,-60.914029,-71.107224,-60.793087,-97.07412,-116.449871,-131.471249,-62.473046,-98.75441,-122.2645,-139.509018,-58.836342,-75.698136,-66.052048,-57.758995,-52.447827,-64.410908,-55.969483,-47.26157,-20.422473,-26.5699,-23.611431,-18.130174,-27.884807,-31.854759,-35.900733,-40.320667,-9.831178,-5.669713,-6.360731,-6.711362,8.067419,8.106297,4.635727,3.433514,23.093536,18.25654,14.895792,14.738712,17.83461,24.795467,18.175907,6.681713,11.528183,5.457996,-4.14045,-14.104054,-3.994641,-12.300625,-12.29036,-11.654778,-17.906616,-20.858517,-8.972603,-0.571346,-30.558174,-29.116848,-16.678436,-6.736679,-9.068677,-32.204883,-48.838141,-60.260109,-64.562556,-85.78902,-97.856063,-102.002319,-60.891785,-86.658614,-89.368432,-84.620529,-51.751983,-69.359421,-55.017091,-40.352091,-38.881881,-52.026525,-42.978404,-32.300436,-7.229198,9.995746,-113.324455,107.070956
64,-0.344353,0.604005,0.09938,0.210193,-21.734459,-44.564301,-60.966774,-71.473606,-60.730385,-96.897091,-116.323357,-131.521591,-62.43219,-98.496666,-121.918934,-139.059128,-58.877415,-75.502682,-65.92202,-57.725876,-52.549336,-64.211895,-55.816555,-47.160164,-20.446895,-27.046699,-25.166812,-21.085555,-27.735957,-31.97545,-36.243608,-40.912068,-9.87289,-5.723899,-6.552336,-7.084013,7.848156,8.045801,4.761229,3.605687,22.769156,18.113551,14.970548,14.848226,17.722447,24.695366,18.24329,6.543217,11.360459,6.585377,-2.286323,-11.891327,-4.25053,-12.253463,-12.335037,-12.12157,-18.122886,-21.020141,-9.011638,-0.605243,-30.619995,-29.152897,-16.67617,-6.762428,-9.056458,-32.310255,-48.690941,-59.582454,-64.312443,-84.967252,-96.903773,-101.360288,-60.642968,-85.761282,-88.682546,-84.580256,-51.467586,-68.939161,-54.690154,-40.181302,-38.437372,-51.704287,-42.669788,-32.002176,-7.583691,10.582804,-113.235215,107.264202
65,-0.114464,0.766879,0.036621,0.483765,-21.403347,-44.252483,-60.558929,-70.985939,-60.675877,-96.744736,-116.113747,-131.260734,-62.484226,-98.386665,-121.838837,-139.183308,-58.948116,-75.216522,-65.559563,-57.510521,-52.574913,-64.01263,-55.540798,-46.966324,-20.405152,-26.975785,-24.962302,-20.740531,-27.566088,-31.813924,-35.947391,-40.30736,-9.72729,-5.647625,-6.487104,-6.992494,7.97354,8.199158,4.863987,3.666585,22.830442,18.272836,15.165357,15.013735,17.723557,24.772717,18.350933,6.274304,10.878479,6.166512,-2.9053,-12.855949,-4.55635,-11.63467,-9.971168,-8.537006,-18.330207,-21.085704,-8.8637,-0.318008,-30.816433,-29.319957,-16.693851,-6.85572,-9.282526,-32.746065,-49.134204,-59.52691,-64.137412,-84.640172,-96.617733,-101.320836,-60.239688,-84.119332,-84.215268,-78.28138,-51.062429,-68.321811,-54.152623,-39.628809,-38.069494,-51.518826,-42.651232,-31.996773,-7.708071,11.319975,-113.20851,107.718259
66,-0.511139,0.891608,-0.330883,0.11128,-21.197674,-44.10244,-60.533237,-70.961849,-60.193256,-96.456997,-115.955337,-131.318172,-61.94791,-98.030319,-121.500229,-138.86396,-58.458904,-75.003261,-65.235603,-57.105617,-52.17073,-63.847938,-55.288891,-46.615494,-20.465958,-27.080267,-24.911142,-20.597591,-27.922925,-32.104132,-36.246035,-40.619854,-10.233853,-5.991803,-6.73534,-7.178115,7.424202,8.085277,4.770731,3.466081,22.275609,18.029477,14.97621,14.787994,17.693848,24.820633,18.671849,6.845238,11.349186,8.739075,1.524857,-7.176212,-4.263885,-11.364315,-10.92041,-11.032047,-18.029102,-20.557056,-8.470481,-0.205593,-30.335952,-28.636711,-16.130664,-6.382141,-9.237046,-32.430044,-48.334715,-58.421262,-63.941446,-83.939076,-95.586093,-100.105384,-60.217581,-83.77051,-85.577932,-81.962581,-50.907003,-68.114638,-53.9928,-39.743281,-37.748089,-51.07815,-42.102709,-31.380516,-8.217756,12.159237,-113.537939,107.777193
67,-0.125908,0.482246,-0.332725,0.40223,-20.775776,-43.838287,-60.599636,-71.205425,-59.760074,-96.467891,-116.061699,-131.347686,-61.415348,-97.956974,-121.390629,-138.646293,-57.894642,-74.976837,-65.212085,-57.038292,-51.666275,-63.885944,-55.399704,-46.666088,-20.524312,-27.347733,-25.518124,-21.957873,-27.953362,-31.83976,-35.99468,-40.383597,-10.206454,-5.847567,-6.71282,-7.215907,7.531592,8.304677,4.979917,3.664819,22.430905,18.349202,15.322833,15.208966,17.555832,24.95858,19.30664,7.146263,11.667652,9.355362,2.033661,-6.980839,-3.931652,-11.090515,-10.514111,-10.682854,-17.629051,-20.513077,-8.302666,0.012234,-29.858162,-28.593853,-16.136685,-6.414368,-8.892776,-31.44281,-47.100226,-56.838673,-63.502833,-83.84847,-95.621149,-100.067006,-59.7192,-83.40107,-84.610217,-80.688411,-50.432123,-67.890472,-53.783769,-39.56231,-37.385286,-50.950382,-42.018037,-31.315431,-8.291045,12.573079,-113.818045,108.111019
68,-0.185005,0.769243,-0.355396,0.388527,-20.606804,-43.909824,-61.067963,-71.828762,-59.593311,-96.582012,-116.198513,-131.434879,-61.290115,-97.995644,-121.466869,-138.635879,-57.799312,-75.102699,-65.546894,-57.308933,-51.674755,-64.020733,-55.693302,-46.930172,-20.800422,-28.079141,-26.797104,-23.635637,-28.186216,-31.871024,-35.97876,-40.277663,-10.260689,-5.569795,-6.284432,-6.598069,7.494141,8.075886,4.603265,3.331855,22.310906,17.992835,14.845417,14.761103,17.596572,25.345172,19.933914,7.51894,12.071273,10.095428,3.407157,-5.018681,-3.620785,-11.028775,-10.738106,-11.256318,-17.335476,-20.396668,-8.127697,0.220813,-29.541745,-28.444657,-15.941552,-6.119934,-8.603209,-30.695716,-46.093095,-55.49302,-63.335292,-83.588118,-95.229077,-99.348928,-59.609284,-83.497721,-85.192307,-81.697203,-50.297526,-67.854286,-53.824326,-39.625999,-37.238641,-50.733675,-41.770059,-30.947824,-8.37097,13.26862,-114.068361,108.425844
69,-0.005997,0.62334,0.112529,0.438527,-20.668922,-44.069263,-61.324653,-71.981803,-59.690437,-96.739757,-116.287353,-131.428173,-61.435546,-98.103515,-121.432708,-138.479198,-57.927509,-75.280849,-65.719802,-57.445816,-51.789527,-64.089786,-55.775768,-47.024986,-20.861834,-28.199055,-26.798031,-23.267025,-28.371153,-31.843453,-35.890538,-40.119021,-10.353186,-5.620461,-6.346486,-6.617903,7.439825,7.777211,4.211532,2.990658,22.170281,17.634398,14.417665,14.351295,17.673684,25.221451,19.59866,7.234909,11.548165,8.38694,0.552212,-8.729381,-3.912986,-10.557632,-7.857925,-6.083782,-17.512699,-20.510055,-7.982998,0.594601,-29.692085,-28.810135,-16.112262,-6.258682,-8.834267,-31.133823,-46.807948,-56.299969,-63.221109,-83.666115,-95.585754,-99.927067,-59.251144,-82.34544,-80.603554,-74.063691,-49.965593,-67.381735,-53.428661,-39.20646,-36.961141,-50.532252,-41.721653,-31.014021,-8.243191,13.785351,-113.822056,108.757762
70,-0.05413,0.149991,-0.020908,0.352237,-20.900105,-44.676006,-61.968567,-72.473591,-60.135853,-97.045601,-116.446163,-131.424191,-61.764622,-98.233349,-121.321976,-138.085144,-58.070252,-75.530857,-65.912911,-57.560921,-51.75943,-64.233788,-55.93618,-47.164971,-20.791444,-27.828792,-25.833445,-21.676938,-28.126936,-31.446891,-35.614896,-40.078753,-10.085244,-5.164835,-5.902135,-6.217408,7.691811,7.692027,3.984328,2.785697,22.288484,17.398401,14.06793,14.021314,17.728523,25.274162,19.451786,7.551201,11.23344,7.417648,-0.731026,-10.077827,-4.006622,-10.188938,-7.109837,-4.976429,-17.484821,-20.030434,-7.597984,0.879433,-29.585197,-28.484997,-15.875244,-6.156761,-8.958614,-31.318908,-46.912739,-56.34501,-62.724667,-83.122872,-95.498439,-100.983364,-58.825536,-81.709831,-79.904564,-73.423432,-49.705834,-67.118011,-53.24157,-39.038123,-36.834596,-50.549635,-41.947209,-31.281789,-8.141779,13.775161,-113.687422,108.949818
71,0.382233,0.131455,0.352135,0.571734,-21.278149,-45.082695,-62.477543,-73.234292,-60.491009,-97.24569,-116.500924,-131.372509,-62.080319,-98.40667,-121.428727,-138.174969,-58.376759,-75.849827,-66.254986,-57.904324,-52.032452,-64.422318,-56.228177,-47.492798,-20.813415,-28.146357,-26.948813,-23.990529,-27.948441,-31.222435,-35.43997,-40.060265,-9.937383,-4.965703,-5.672653,-5.996453,7.78049,7.743686,4.107316,2.978741,22.358496,17.483369,14.155781,14.083916,17.743675,25.23928,19.262752,7.274402,10.251159,4.230045,-5.850277,-16.494942,-4.577866,-9.648491,-3.525639,1.551201,-17.886051,-20.129288,-7.548409,1.128513,-29.975865,-28.888184,-16.198036,-6.578659,-9.076137,-31.519411,-47.285316,-56.611357,-62.282447,-83.097091,-96.087018,-102.767376,-58.040163,-79.999251,-73.783529,-63.422298,-49.164856,-66.377889,-52.686328,-38.391157,-36.646072,-50.595132,-42.440446,-31.942265,-7.619636,13.664947,-113.195377,109.279883
72,0.302764,0.124173,0.151828,0.420508,-21.522926,-45.392726,-62.527176,-73.049057,-60.932098,-97.277996,-116.379947,-131.287124,-62.564838,-98.425666,-121.373897,-138.214336,-58.79021,-76.141811,-66.482357,-58.178409,-52.291877,-64.727851,-56.451038,-47.722103,-20.577645,-27.508369,-25.569981,-21.689813,-27.762855,-30.970344,-35.112828,-39.640312,-9.912713,-4.800341,-5.322774,-5.476329,7.69635,7.6778,4.085408,2.986584,22.199403,17.345358,14.023451,13.899747,17.786637,25.355427,19.193402,7.38247,9.933609,3.71632,-6.208065,-16.500274,-4.745819,-9.086185,-2.05656,3.700253,-17.977088,-19.643394,-7.238101,1.182805,-30.005687,-28.5638,-15.987487,-6.576427,-9.159858,-31.696208,-47.406705,-56.623757,-61.959949,-82.716609,-95.91032,-103.519397,-57.766689,-78.967155,-71.457873,-60.47626,-49.075238,-66.066407,-52.502139,-38.322935,-36.747423,-50.73302,-42.816037,-32.335276,-7.219849,13.513904,-112.946526,109.425175
73,0.206017,0.021311,-0.053203,0.523656,-21.66592,-45.465946,-62.348694,-72.76268,-60.859016,-97.082336,-116.276001,-131.388634,-62.491287,-98.290123,-121.258495,-138.244354,-58.792957,-76.477215,-66.667282,-58.319069,-52.338032,-65.103344,-56.754479,-47.971733,-20.380965,-26.751625,-23.955499,-19.458488,-27.643134,-30.920272,-35.141814,-39.785488,-10.038641,-5.099874,-5.628026,-5.816994,7.475449,7.760606,4.299539,3.178849,22.039049,17.397721,14.167681,14.079489,17.839737,25.438007,19.169197,7.083629,10.269436,4.685028,-4.552094,-14.255974,-4.384564,-7.906323,0.82069,8.03397,-17.637909,-19.158726,-6.889252,1.333488,-29.782723,-28.409306,-16.021683,-6.944824,-9.225808,-31.663252,-47.386,-56.268118,-61.697066,-82.646584,-95.938361,-103.999216,-57.483335,-78.122218,-67.797815,-54.540292,-48.981791,-66.001545,-52.538096,-38.331759,-36.959042,-51.193895,-43.545625,-33.18761,-6.96266,13.23852,-112.948557,109.652136
74,-0.043625,0.0865,-0.223148,0.490317,-21.669033,-45.482815,-62.243534,-72.504684,-60.637836,-96.750812,-116.036167,-131.29763,-62.263561,-97.983822,-120.994297,-138.090179,-58.608524,-76.355461,-66.460476,-58.129703,-52.186615,-65.121036,-56.697658,-47.899383,-20.297756,-26.183064,-22.49583,-17.196533,-27.574029,-31.00261,-35.244709,-39.893286,-10.085893,-5.330537,-5.887773,-6.149292,7.409098,7.763984,4.316619,3.187451,22.041729,17.341856,14.125215,14.124381,17.739257,25.719291,19.681365,7.538795,10.48384,4.881053,-3.874501,-13.014988,-4.018879,-7.420762,1.384471,8.595302,-17.212887,-18.612236,-6.54633,1.35894,-29.386757,-27.96143,-15.815999,-7.064827,-9.015017,-30.874934,-46.368051,-54.934655,-61.283844,-82.17546,-95.532346,-103.984236,-57.175083,-77.963347,-67.404156,-54.090811,-48.887875,-66.116802,-52.86588,-38.801693,-37.088532,-51.542278,-44.166822,-33.899383,-6.971918,13.023768,-113.137338,109.841201
75,0.040306,0.186566,-0.281273,0.420261,-21.698204,-45.292763,-62.010269,-72.337829,-60.192993,-96.393425,-115.830253,-131.267361,-61.747352,-97.660503,-120.792995,-138.012142,-58.175159,-75.940224,-66.110275,-57.893234,-51.857941,-64.876591,-56.509666,-47.750587,-20.206297,-26.155251,-22.749648,-17.917197,-27.573374,-31.193807,-35.49179,-40.199981,-10.171046,-5.718026,-6.37636,-6.772828,7.285913,7.748318,4.394474,3.278904,21.982591,17.428016,14.300834,14.37833,17.749168,25.861198,20.005188,7.978866,11.316536,7.076706,-0.041417,-7.96637,-3.292889,-6.886586,1.627922,8.42395,-16.585705,-18.073391,-6.069764,1.474674,-28.987828,-27.739758,-15.72329,-7.21201,-8.930783,-30.527409,-46.029405,-54.902927,-61.025153,-81.454122,-94.231654,-102.117441,-57.21824,-78.44127,-68.567343,-55.810226,-49.130073,-66.591657,-53.385615,-39.591894,-37.436712,-52.051522,-44.662548,-34.492749,-6.915785,12.94087,-113.402784,109.991998
76,-0.10762,0.374739,-0.101887,0.18464,-21.459961,-45.044312,-61.76318,-72.020966,-59.766712,-96.030945,-115.630016,-131.270954,-61.349808,-97.375477,-120.642071,-137.978714,-57.870197,-75.737789,-65.925316,-57.745411,-51.673416,-64.898747,-56.50399,-47.71645,-20.250468,-26.091698,-22.363412,-17.013128,-27.759237,-31.53094,-35.874532,-40.576974,-10.377559,-6.165427,-6.968818,-7.513933,7.07735,7.546443,4.248576,3.154902,21.804867,17.215039,14.105671,14.247678,17.697693,25.602253,19.787178,8.210094,11.784622,8.5303,2.451324,-4.613709,-2.87978,-6.805367,1.016533,7.213016,-16.254387,-17.729954,-5.796032,1.465393,-28.84227,-27.639336,-15.782639,-7.544129,-9.032961,-30.634577,-46.194866,-55.469846,-60.753662,-80.42549,-92.610187,-99.911741,-57.237451,-78.778934,-70.427395,-58.860869,-49.363193,-66.968285,-53.602791,-39.956506,-37.711909,-52.570034,-44.969546,-34.802205,-6.998857,13.116674,-113.480123,109.977703
77,-0.173584,0.40113,-0.203945,0.124551,-21.28846,-44.849831,-61.673847,-71.979183,-59.358971,-95.791409,-115.556099,-131.341782,-60.922279,-97.14386,-120.522102,-137.924812,-57.472057,-75.447178,-65.70163,-57.5243,-51.338699,-64.652916,-56.33297,-47.55296,-20.323993,-26.271311,-22.707534,-17.415333,-27.86207,-31.824748,-36.190138,-40.841599,-10.378614,-6.456129,-7.41221,-8.058756,7.135137,7.383651,4.012499,2.93459,21.86973,17.014715,13.80257,13.960898,17.693962,25.432502,19.709175,8.583801,12.388332,10.622669,6.154232,0.231662,-2.330578,-6.384659,0.727112,6.235096,-15.794541,-17.293282,-5.494309,1.464821,-28.639813,-27.544327,-15.826836,-7.785977,-9.155308,-30.590333,-46.053458,-55.63112,-60.333469,-79.288042,-90.734191,-97.170214,-57.191911,-79.109349,-72.350791,-61.824093,-49.522602,-67.377777,-54.092917,-40.62359,-37.91723,-52.96985,-45.330286,-35.224967,-7.132261,13.374293,-113.643888,109.958743
78,-0.153534,0.389627,0.400039,0.099337,-21.129913,-44.655853,-61.622601,-72.083462,-59.307426,-95.784096,-115.508183,-131.186405,-60.775211,-97.071545,-120.408623,-137.668819,-57.254677,-74.974251,-65.250217,-57.116993,-51.129089,-64.232128,-55.93111,-47.163013,-20.491312,-26.811461,-23.942802,-19.534959,-28.067217,-31.974814,-36.327453,-40.979364,-10.47794,-6.621318,-7.672594,-8.3975,7.080611,7.329638,4.061324,3.062369,21.841003,17.052265,13.863795,14.007136,17.57618,24.83701,19.127461,8.993226,11.442284,8.777607,3.983208,-2.138958,-2.873268,-6.6958,0.867325,6.629963,-16.173248,-17.469154,-5.539764,1.299855,-29.03754,-27.907894,-16.113338,-8.212612,-9.656603,-31.587527,-47.26219,-57.519514,-60.093389,-78.533624,-89.722045,-96.032419,-56.950768,-78.666733,-71.828097,-61.306377,-49.338486,-67.260747,-53.966099,-40.691539,-37.673228,-52.946594,-45.368676,-35.384202,-7.218544,13.634028,-113.176598,109.928188
79,-0.182487,0.378289,0.018197,0.040002,-21.071274,-44.606324,-61.56728,-71.966355,-59.354451,-95.853779,-115.405083,-130.833172,-60.845467,-97.132164,-120.349698,-137.432236,-57.190671,-74.735814,-65.126805,-57.003102,-50.959385,-63.73597,-55.539059,-46.832509,-20.611306,-27.094432,-24.513073,-20.290982,-27.980859,-31.695177,-36.101514,-40.77447,-10.219063,-6.126684,-7.271284,-7.964803,7.388455,7.661367,4.250528,3.227743,22.017079,17.247335,13.918321,14.00361,17.725788,24.782924,18.939514,9.14067,11.493999,9.442577,5.118427,-0.756867,-2.773076,-6.413098,1.122665,6.690216,-16.052147,-17.152234,-5.409714,1.182495,-29.01352,-27.814339,-16.198861,-8.499699,-9.973049,-32.096968,-47.697123,-57.95433,-59.778943,-78.022238,-89.054375,-95.262867,-56.735976,-78.425332,-71.650645,-61.07154,-49.232973,-67.026348,-53.77253,-40.610949,-37.644749,-52.801845,-45.278446,-35.408779,-7.338592,13.898344,-113.095962,109.854217
80,0.122177,0.602968,0.286468,0.275284,-20.807511,-44.544011,-61.653878,-72.021378,-59.286702,-95.734829,-115.205784,-130.553501,-60.856671,-97.160168,-120.297066,-137.302174,-57.242386,-74.912041,-65.328267,-57.223114,-51.10841,-63.861718,-55.639779,-46.931752,-20.667165,-27.075925,-24.152655,-19.642176,-28.128998,-31.682784,-36.059128,-40.725811,-10.236174,-5.886247,-6.963421,-7.544375,7.448038,7.875827,4.418489,3.413433,22.040995,17.329753,13.986407,14.10004,17.625893,24.454376,18.547989,9.120564,10.891228,7.979301,2.550476,-4.1945,-3.084343,-6.502316,1.333752,7.122803,-16.263691,-17.292458,-5.506908,1.119061,-29.198513,-27.886642,-16.255634,-8.598335,-10.133898,-32.61708,-48.252649,-58.647868,-59.631663,-77.762671,-89.127921,-95.759266,-56.516738,-78.018398,-70.742211,-59.804008,-49.006967,-66.918409,-53.552113,-40.283653,-37.35879,-52.539455,-44.983656,-35.088937,-7.16185,14.392119,-112.754929,110.020308
81,0.688682,1.148422,-0.103855,0.457508,-20.485805,-44.028545,-60.949688,-71.272888,-59.162063,-95.469715,-114.931686,-130.127769,-60.955055,-97.189007,-120.42461,-137.497684,-57.478237,-75.01934,-65.637691,-57.682915,-51.427093,-63.936413,-55.833721,-47.263252,-20.472621,-26.868086,-23.845502,-19.092808,-28.051656,-31.667581,-35.979359,-40.402288,-10.13796,-5.95148,-7.159608,-7.676855,7.550914,7.828205,4.20763,3.22799,22.064262,17.272035,13.873533,14.013583,17.720306,24.74556,18.884926,9.235073,10.795269,7.917412,2.7113,-3.927178,-3.054508,-5.698975,2.731281,8.762604,-16.19664,-16.742581,-5.066551,1.407017,-29.124081,-27.416531,-15.83622,-8.292915,-10.233735,-32.811149,-48.450176,-58.693951,-59.377473,-77.714184,-88.58932,-94.600075,-56.287031,-77.654076,-69.034614,-56.997989,-48.84418,-66.689006,-53.439652,-40.187507,-37.309006,-52.282153,-44.895674,-35.126561,-6.417189,15.428334,-112.802805,110.365609
82,0.35598,1.383401,-0.028885,0.588747,-19.91597,-43.111862,-59.871288,-70.139374,-58.722256,-94.851253,-114.217598,-129.218868,-60.969841,-97.138275,-120.453232,-137.534237,-57.858192,-74.984665,-65.636845,-57.748112,-52.119289,-64.059231,-55.918293,-47.441929,-20.472998,-26.833105,-23.712893,-19.228251,-28.168247,-31.903802,-36.287513,-40.746109,-10.331227,-6.262536,-7.393624,-7.84184,7.293742,7.728206,4.442435,3.593485,21.890193,17.489346,14.415325,14.681987,17.791672,24.965218,19.145599,9.279396,10.227745,6.581463,1.007217,-5.739933,-3.380447,-5.587177,3.481945,10.004013,-16.378166,-16.495892,-4.886284,1.552929,-29.159031,-26.908699,-15.375378,-7.970879,-10.412255,-33.329902,-49.03778,-58.978324,-59.066473,-77.604787,-88.5627,-94.693404,-55.854303,-77.129667,-67.273319,-54.26486,-48.445378,-66.310945,-53.162887,-39.858131,-37.016834,-51.978359,-44.720963,-34.960051,-6.013275,16.664402,-112.783756,110.807023
83,0.834412,1.985374,-0.795319,0.99262,-19.496041,-42.387692,-58.77816,-68.734406,-58.473519,-94.026821,-113.231209,-128.005944,-60.889939,-96.824719,-120.130017,-137.376778,-57.907906,-75.132935,-65.899143,-58.296467,-52.196343,-64.437172,-56.336712,-48.006523,-20.073892,-26.226338,-22.86853,-18.124277,-28.028018,-31.980853,-36.430304,-40.91121,-10.341471,-6.580315,-7.71178,-8.147732,7.188347,7.669062,4.558027,3.710033,21.847561,17.751749,14.889173,15.145499,17.672242,26.010613,21.227257,10.622555,10.871064,8.042576,3.261074,-2.886726,-2.786705,-4.151035,4.476345,10.577912,-15.823631,-15.082443,-3.770027,2.622483,-28.639263,-25.599769,-14.247161,-6.874271,-9.936234,-32.054034,-47.593025,-56.830176,-58.465574,-77.448923,-86.990658,-91.452089,-55.422545,-76.674913,-66.759198,-53.635747,-48.244195,-65.942357,-53.160825,-39.794399,-37.196973,-51.92113,-44.752383,-35.000424,-5.186771,18.455657,-113.586983,111.605524
84,1.765136,2.855327,-0.50513,1.504363,-18.395221,-40.554954,-56.479042,-66.282692,-57.720748,-92.791362,-111.960342,-126.725715,-60.553241,-96.502727,-119.760875,-137.124057,-57.986354,-75.395267,-66.163055,-58.766521,-52.542709,-65.051136,-56.939083,-48.719879,-19.746825,-25.768435,-22.355008,-17.656771,-28.3673,-32.688192,-37.022719,-41.256327,-10.822044,-7.79662,-8.844765,-9.374904,6.650914,6.894125,4.206203,3.394482,21.572247,17.600287,15.185303,15.475203,17.350067,26.742221,23.471637,12.682422,10.396339,7.233833,3.104919,-2.048928,-2.931153,-3.638981,5.117008,11.418651,-15.793373,-14.151455,-2.905507,3.580639,-28.513916,-24.595837,-13.139294,-5.681408,-9.779036,-31.28232,-46.97983,-56.307922,-57.867953,-77.409692,-86.589398,-90.653865,-54.88171,-76.092124,-65.994054,-52.834091,-47.921209,-65.77145,-53.135334,-39.555937,-37.280267,-52.261183,-45.136463,-35.182982,-3.503746,21.058311,-114.174224,112.857214
85,2.539673,3.800627,-1.307396,1.711215,-17.113781,-38.536903,-54.035637,-63.854187,-56.937858,-91.156517,-109.335148,-123.008434,-60.264496,-96.165378,-119.088695,-136.211837,-57.945682,-76.088676,-67.182804,-59.866001,-52.606991,-65.765945,-57.962265,-49.874119,-19.921832,-26.410423,-23.433825,-18.741707,-28.547167,-33.091954,-37.391555,-41.457276,-10.954178,-8.404466,-9.366914,-9.937883,6.420604,6.025197,3.300331,2.432021,21.335255,17.332235,14.933627,15.080537,17.38853,28.280239,26.798446,15.519573,11.065109,8.751617,5.011116,0.157905,-2.286404,-1.70763,6.036838,11.503727,-15.229832,-12.161785,-1.133194,5.447719,-28.003064,-22.847431,-11.206902,-3.351963,-9.34401,-30.177346,-46.112354,-55.53196,-57.656773,-77.276725,-86.414712,-90.111085,-54.917846,-76.491606,-69.710429,-58.997924,-48.180295,-65.939442,-53.634821,-39.954832,-37.770954,-52.84389,-45.711205,-35.611894,-0.974087,24.329956,-115.491634,114.039447
86,2.824471,6.103719,-0.488228,2.233741,-16.186272,-37.482948,-53.170624,-63.208088,-55.586621,-89.255299,-105.875416,-117.482334,-59.297127,-95.005314,-116.825718,-132.660874,-57.232762,-75.939377,-67.520027,-60.270401,-52.239407,-65.764355,-58.216702,-50.243088,-20.880896,-28.35377,-25.977596,-20.823184,-29.827518,-34.601479,-39.163161,-43.413652,-12.067939,-9.791608,-10.721718,-11.293558,5.379566,4.436854,1.438624,0.434457,20.331953,16.032933,13.481517,13.597416,17.18716,29.136326,29.275898,17.967007,10.056518,7.673103,5.064194,2.10228,-3.012612,-2.070088,6.12474,12.697185,-15.67503,-11.456257,-0.158249,7.112572,-28.088711,-21.929707,-9.962849,-1.575554,-9.28071,-29.725543,-45.900612,-55.425725,-57.821585,-77.790736,-87.82414,-92.49031,-55.02247,-76.516146,-71.66825,-62.187339,-48.24191,-65.576862,-53.992491,-40.376038,-37.891602,-52.950651,-46.067487,-35.863737,1.996542,29.603073,-115.833704,115.442586
87,3.683029,6.878249,-1.21875,2.339149,-15.486855,-36.806385,-52.860226,-63.203991,-53.824619,-87.560452,-103.136227,-112.977825,-57.290337,-93.757816,-114.967392,-129.967461,-55.235744,-76.176807,-68.46357,-61.34388,-50.475677,-65.881668,-58.859631,-50.93787,-21.429067,-29.970019,-28.434324,-22.908156,-31.017208,-35.386197,-39.878497,-43.869543,-12.937428,-10.76369,-11.76656,-12.360204,4.674864,3.253999,-0.207272,-1.372082,19.655724,14.756699,11.896161,12.077096,17.39114,30.466781,32.061413,20.823498,10.282368,8.896625,7.27256,5.546413,-2.639717,-0.142834,8.789509,16.565666,-15.239285,-9.168423,2.487202,10.203575,-27.302548,-19.560482,-7.253483,1.526035,-8.965209,-29.429172,-45.992244,-55.457088,-58.20592,-78.125368,-88.801384,-94.767962,-55.837779,-77.174782,-76.113379,-70.2982,-49.091584,-65.60817,-54.288072,-40.91486,-38.712865,-52.932496,-45.948642,-35.75121,5.98633,35.410311,-116.745695,116.710724
88,3.344513,9.037506,-1.20789,2.133996,-14.998512,-35.65147,-50.803173,-60.209827,-51.274281,-85.252533,-100.166359,-108.655438,-54.229466,-91.122665,-111.392841,-124.918991,-52.16605,-74.822136,-68.573765,-61.630726,-47.97369,-64.508469,-58.698532,-51.358875,-21.742351,-31.130316,-30.423965,-24.752727,-30.602899,-33.426171,-36.473832,-39.251656,-12.053637,-9.908261,-10.44302,-10.886054,5.469314,3.84668,0.623691,-0.512948,19.779719,14.92928,11.979179,12.046888,18.291401,31.810707,33.507431,23.028042,12.558804,14.491471,15.763058,16.834111,-0.553104,3.646706,13.128594,21.860997,-13.8517,-5.808437,5.494435,12.864819,-26.243694,-16.745269,-4.303196,4.775894,-7.911093,-28.596295,-45.732609,-55.780796,-57.253797,-76.946825,-89.031355,-97.18882,-55.777357,-79.221555,-84.899024,-85.932312,-49.225712,-64.556765,-52.795547,-39.484115,-38.796327,-51.605338,-44.519682,-34.374732,9.930216,43.019422,-117.354212,117.416325
89,7.427525,12.84374,-0.535801,3.116679,-17.014172,-39.022431,-54.615201,-63.687585,-54.318387,-89.58022,-103.236523,-109.072856,-55.932267,-94.327332,-112.323001,-122.593295,-53.093932,-79.093072,-74.763932,-67.887795,-48.456191,-67.838299,-63.967856,-57.404217,-22.133815,-31.415022,-30.877905,-24.807095,-29.550657,-29.494593,-30.972546,-33.071443,-10.655262,-6.886378,-6.896743,-7.554243,6.993373,6.938387,3.953758,2.363833,21.155429,17.990278,14.803655,14.163284,19.109745,32.659951,35.69458,28.304489,14.444996,19.339257,22.826134,25.866223,0.748455,5.448693,14.177571,22.894307,-13.023319,-2.669494,8.814011,16.30711,-25.226577,-13.712333,-0.984008,8.441769,-7.793057,-28.46368,-44.979229,-55.036605,-57.873814,-78.25342,-91.651419,-101.785576,-56.787408,-81.484887,-93.135479,-100.111991,-49.932291,-63.115226,-50.775925,-37.473781,-39.021852,-49.70006,-42.407392,-32.463279,18.174449,54.118589,-117.073305,118.788431
90,11.20008,16.255648,-0.01847,4.531961,-21.353153,-46.294132,-63.292534,-72.360008,-62.730159,-100.720562,-113.406681,-116.319734,-62.3661,-103.428165,-117.887998,-123.297414,-58.178266,-88.419891,-86.080593,-79.135128,-52.144392,-75.19733,-73.704168,-68.148948,-22.22071,-29.67936,-27.961668,-20.904691,-28.053821,-23.906404,-23.509417,-25.145179,-9.053401,-2.438373,-1.911231,-3.301474,9.023319,12.428604,10.154401,7.648316,23.86035,23.906919,20.771455,18.971196,19.83498,33.592849,37.910064,32.997013,15.972484,23.111194,29.728248,36.340564,1.857742,7.317958,17.444435,28.401123,-12.121331,0.670772,12.727043,21.119659,-24.009327,-10.761372,2.208538,12.194515,-7.926178,-28.16356,-43.339125,-52.304797,-58.041978,-79.520495,-92.863592,-104.156112,-57.036509,-82.069348,-94.712461,-103.774741,-49.839739,-60.235483,-47.204614,-34.123592,-38.47528,-46.383618,-38.8263,-29.232589,30.228756,68.48511,-116.237548,121.431265
91,12.011216,17.207172,0.724433,6.206577,-25.487057,-52.491726,-70.172196,-79.410794,-68.958413,-108.72535,-122.053025,-124.506461,-66.818596,-109.858452,-123.522269,-126.294222,-61.40177,-95.707707,-97.623516,-92.691983,-54.060374,-80.412976,-82.938635,-80.250069,-21.974023,-28.04981,-25.479048,-18.144899,-24.006032,-15.277944,-11.880888,-11.899363,-5.006026,5.320246,7.741322,6.838358,12.761991,20.035403,20.196346,18.123934,27.502747,31.449824,30.459397,28.870596,20.525746,34.812607,40.126214,36.684392,17.884976,28.097043,36.846943,45.01545,3.252846,11.512311,23.168416,35.404976,-10.772266,5.025147,17.540349,26.514679,-22.300025,-7.222412,6.030533,16.564179,-8.246298,-28.317664,-42.940872,-51.567411,-58.637042,-79.987179,-92.351261,-103.149654,-57.578548,-81.819067,-94.504893,-104.666374,-49.584778,-57.144967,-43.249951,-30.497651,-37.088316,-42.25128,-34.441243,-25.514158,42.995139,83.834064,-114.757948,125.779624
92,13.278968,19.526863,0.812268,7.741069,-29.438037,-58.113716,-76.019565,-85.292381,-75.808582,-115.834545,-129.636806,-132.726373,-71.954315,-115.090152,-128.19322,-129.933534,-65.186582,-101.315414,-108.171192,-107.08501,-56.500711,-84.439224,-90.989919,-92.278564,-21.837258,-25.906731,-22.073969,-14.237752,-18.395852,-5.589909,0.947829,3.250465,0.445832,14.033112,19.015435,19.46872,17.952102,28.713084,31.625279,30.887356,32.614867,40.417059,41.542578,40.482811,21.464401,36.362182,43.187599,42.944092,18.779674,32.922409,44.708519,54.664753,4.436657,16.25061,29.328163,41.489479,-8.695507,9.694828,23.17147,32.69688,-19.250279,-3.017452,10.557815,21.377483,-9.693678,-29.686795,-44.087392,-53.626639,-58.993244,-78.899953,-86.844316,-93.538301,-56.583712,-78.159757,-86.996321,-94.439969,-47.200329,-52.313899,-38.25446,-25.988025,-33.443177,-36.749208,-29.417174,-21.634207,56.819967,101.584824,-113.39982,131.74459
93,14.614792,20.965667,-0.90881,11.474153,-33.024845,-64.134201,-84.049175,-94.935345,-82.639045,-122.710579,-136.931019,-141.02825,-77.714756,-120.93322,-134.306482,-136.841783,-69.97059,-107.631546,-118.691517,-121.780952,-59.966062,-88.960739,-98.777532,-103.825344,-22.167574,-24.201413,-18.461292,-9.432366,-13.688192,1.972719,10.336423,14.321313,4.87932,21.736123,29.052149,31.570287,22.144645,36.230177,41.562328,42.657688,37.026637,48.078056,51.447189,51.741053,23.593071,40.047341,49.892693,52.278237,21.902699,40.292885,50.52166,57.453198,7.601761,26.465424,38.884792,47.858322,-4.106747,19.746643,32.733181,40.038105,-13.006885,6.825302,19.581173,27.960343,-12.972984,-32.699338,-44.920319,-52.409415,-61.268994,-77.855179,-80.018759,-83.117049,-56.79998,-71.238857,-72.416129,-74.280769,-45.810698,-47.485505,-34.10361,-23.701735,-30.610532,-31.555578,-24.526591,-18.302742,71.686552,120.905473,-114.056837,141.573725
94,9.737194,19.958264,-1.825321,11.396174,-34.520507,-66.1222,-86.617378,-98.554172,-84.061271,-122.675995,-137.854179,-144.280162,-78.592518,-120.185325,-135.258155,-140.70084,-70.349373,-107.412529,-122.267566,-129.834331,-59.681694,-87.922393,-100.257476,-108.78281,-22.016276,-22.543105,-15.174219,-5.631866,-8.179268,8.994775,18.874032,24.962252,10.048824,28.621477,38.105093,43.144056,26.608049,42.590093,50.33236,53.862235,40.802023,53.967829,59.892484,62.361611,25.637535,44.366535,55.92667,59.25753,26.28083,49.374287,60.410808,66.69762,12.402317,38.46484,53.207176,61.957798,1.918384,30.029217,44.378506,51.863457,-5.807121,15.860905,28.834843,37.135895,-14.113038,-32.839443,-43.954561,-50.13548,-60.517534,-71.557977,-66.89235,-64.760769,-54.603098,-62.066117,-55.871624,-52.088893,-42.176136,-40.955707,-27.725873,-18.447818,-25.650985,-24.364767,-17.437909,-12.387392,81.497526,139.281293,-115.808378,151.387455
95,4.74923,19.188811,-0.669937,11.203279,-34.163407,-64.432045,-84.646134,-97.435501,-79.713696,-115.746758,-132.363888,-142.396866,-74.308434,-113.160015,-131.367153,-141.802025,-66.218491,-101.103871,-119.413101,-131.672253,-55.880928,-81.918228,-95.965245,-107.689511,-21.453069,-21.566665,-13.610544,-4.450297,-2.7736,14.882442,26.051523,34.460929,15.212547,34.519147,46.094385,54.010541,30.900882,47.578939,57.644948,63.95011,43.780523,57.785455,66.396291,71.514412,26.884769,47.09602,60.037433,65.030021,29.653072,56.33535,68.906708,75.781482,16.313232,47.659824,64.996639,74.279205,7.019611,38.002991,54.634689,63.53088,0.816879,24.629894,38.601894,47.673843,-15.999656,-33.399421,-43.152695,-48.409915,-57.86018,-62.054107,-52.317481,-45.631097,-50.275006,-50.182948,-38.850223,-30.897054,-36.630802,-32.774458,-20.26409,-12.17594,-19.432312,-16.491955,-9.948498,-5.680495,86.167408,157.055893,-116.557663,161.176523
96,2.320862,19.032971,-0.504696,9.602448,-33.670327,-63.360695,-83.538483,-96.36279,-77.7724,-111.983105,-128.849419,-141.006581,-71.868416,-108.999619,-128.214112,-142.067265,-63.453621,-96.698433,-115.905934,-130.685635,-53.05188,-77.87613,-91.97921,-105.034596,-20.232782,-18.699741,-9.01417,0.685529,1.240072,19.624158,31.368963,40.97745,19.135416,38.525403,51.204146,60.716081,34.628927,51.886908,62.761378,70.334152,47.016011,61.338315,70.54167,76.621875,27.772682,49.656544,64.803165,73.182266,33.702221,62.15189,75.296516,82.582409,21.168022,54.388058,71.40564,79.55238,12.351963,43.530281,60.792812,69.90382,6.665863,30.894253,45.009636,53.950344,-16.886329,-31.905876,-39.163519,-42.825732,-51.441403,-48.920615,-35.234896,-25.523254,-42.578521,-35.519417,-21.994842,-12.573563,-28.986248,-22.223936,-10.606615,-3.443561,-12.725624,-7.22197,-1.145482,2.50556,88.299363,174.775448,-117.251266,169.465555
97,0.057426,18.613958,4.189396,12.1489,-33.651123,-63.081779,-82.989647,-94.626274,-75.757187,-108.590469,-125.310516,-138.131378,-69.662109,-105.366875,-124.95314,-140.231495,-61.031754,-92.908871,-112.249512,-127.718468,-50.418434,-74.176231,-88.241478,-101.480095,-18.510353,-15.932533,-4.815519,5.617213,5.278438,23.877958,35.34764,44.918818,22.858706,41.861049,54.432951,64.491389,37.611386,54.984975,65.918157,73.937745,48.770315,63.283848,72.854334,79.578126,27.486511,51.026516,68.26395,77.796352,45.984077,72.322861,80.753998,84.063183,35.842449,65.790298,76.690876,79.956562,27.516895,55.351261,67.103279,71.63768,21.253029,43.868316,54.254104,59.381687,-17.510071,-28.343007,-32.366541,-34.697458,-39.304706,-29.130387,-15.080674,-6.084762,-28.710774,-13.745241,-0.211656,8.886156,-14.910662,-1.985486,9.220695,15.781614,0.133578,10.591504,17.885834,22.196494,88.192509,192.187894,-113.22615,180.412943
98,-1.408264,16.889244,5.311157,11.455936,-33.513817,-62.236244,-80.653748,-90.028462,-73.765503,-105.49569,-122.150025,-135.205776,-67.521698,-102.30241,-122.293099,-138.213192,-58.722839,-89.733879,-109.373657,-125.240936,-47.982468,-71.359406,-85.502587,-98.794464,-16.609268,-12.966512,-0.686887,9.872051,9.491273,28.309291,39.2784,48.300876,26.426027,45.241094,57.263454,66.852293,40.338593,57.838104,68.532806,76.485975,50.452458,65.349078,75.11246,82.180054,26.332821,50.488312,68.750198,80.471626,51.093613,74.20229,83.372612,88.418083,42.007061,67.594151,79.360279,84.974236,33.0401,57.311543,70.03561,77.021839,25.074165,45.023438,55.847008,62.723785,-16.422275,-24.068507,-26.270848,-29.216343,-27.550033,-13.321873,-0.988673,7.403096,-16.296724,1.105814,13.511138,22.245734,-3.149123,11.337808,21.910627,28.58434,10.280097,21.442732,28.346416,32.790519,86.621527,208.05997,-108.077711,190.851711
99,-1.348068,15.941536,4.437458,12.466556,-33.804383,-62.114846,-79.223488,-86.005429,-72.104531,-103.049595,-120.026322,-133.62497,-66.000847,-99.806042,-120.35455,-137.048596,-57.506997,-87.730156,-107.692074,-123.99099,-47.14515,-70.243515,-84.601731,-98.161,-14.55929,-10.271218,2.298363,12.651782,13.550263,31.878601,42.055538,50.379469,29.4588,47.605788,58.659717,67.365463,42.31815,59.563978,69.644288,77.060389,51.485838,66.233615,75.841065,83.026726,25.480557,50.391392,70.171349,83.583664,53.235809,75.329155,85.143826,91.794663,44.597603,69.068218,81.177853,88.294693,35.056435,58.616455,71.587727,79.826122,26.052795,46.530579,57.383823,64.750614,-16.020403,-21.835501,-22.717532,-25.50276,-19.558097,-2.171107,9.356632,17.82044,-7.833805,12.394506,24.267813,32.88696,4.875331,21.860152,32.227305,39.094692,17.543267,30.26489,37.141811,41.878129,85.086016,223.205685,-103.827696,202.522446
100,-1.915627,13.970475,3.672535,13.068598,-35.220108,-63.472435,-79.681847,-84.996426,-70.476929,-100.154812,-117.821903,-132.32904,-64.143104,-96.573566,-117.698913,-134.826633,-55.633964,-84.8638,-105.150432,-121.789707,-45.480972,-68.036224,-82.692169,-96.400291,-12.213725,-6.487869,5.678222,14.890519,19.789685,36.662899,45.576892,52.817474,33.641686,49.363847,57.767152,63.940193,44.095685,59.886377,68.849054,75.073409,50.727,65.072856,74.564536,81.94108,25.467796,51.433079,72.732101,88.277184,55.72942,77.496895,87.291653,93.970699,47.484295,70.981476,82.612404,89.850449,37.392448,59.99057,71.789017,79.272915,27.030487,46.689938,56.512814,63.001968,-15.068496,-19.231277,-19.449836,-22.578729,-12.362988,6.942784,18.810015,27.921387,-0.11903,21.950184,34.023489,42.927318,12.438188,31.704996,42.119931,49.523089,24.615888,38.821978,45.934674,51.170492,82.99213,236.595608,-100.33342,215.010492
101,-1.247383,13.254775,4.345562,15.61642,-34.084808,-62.047531,-79.203278,-86.124447,-68.690575,-97.734055,-116.36697,-131.672733,-63.949379,-95.677391,-115.988194,-132.369713,-57.054176,-86.489697,-104.228405,-118.185745,-48.753479,-71.505501,-84.163124,-95.214512,-2.437943,6.169694,18.239503,27.824563,28.466038,40.824124,47.291368,52.878026,35.61665,45.304388,49.548135,52.485726,39.246808,49.38819,54.545757,58.172902,39.579618,49.934236,56.806674,62.381711,26.256866,52.427433,73.845566,89.485703,63.490665,86.749706,94.59621,98.048344,56.178864,81.078323,90.19931,94.054916,45.89003,70.108154,79.257259,83.443588,34.195038,55.562084,64.12801,68.528297,-15.435269,-18.50151,-18.155461,-20.914099,-5.199681,16.009584,26.902382,34.044472,8.482913,31.973931,42.809893,49.671574,21.624389,42.523075,51.979805,57.771178,33.708364,48.798423,55.443249,59.488667,81.575003,249.43098,-96.157602,230.207509
102,-1.903496,9.926749,-0.878311,12.122482,-34.732315,-62.607628,-79.197258,-86.657993,-67.951034,-95.837665,-114.004703,-128.957016,-63.468887,-94.403526,-114.156612,-130.119392,-57.108993,-86.301029,-103.607117,-116.943512,-49.407028,-71.639854,-84.286651,-95.488117,-1.25315,9.245223,22.086591,31.670712,31.123443,40.039165,43.505426,46.383402,36.7967,43.058365,43.364808,42.379357,39.2012,46.738517,49.117365,49.825407,38.657845,48.190973,54.232633,58.982462,28.455814,55.418072,77.405365,94.241684,59.661381,87.383068,99.933769,107.513283,50.106251,80.992321,96.144504,104.8675,38.950825,69.429668,84.383915,93.248566,27.156017,53.014995,65.53537,73.693382,-14.344176,-17.881066,-17.341479,-18.847868,-5.946095,14.27535,25.363982,33.140175,7.852479,29.2065,40.148599,46.914456,21.299027,40.044365,49.149376,54.235832,34.0504,47.10566,52.43824,55.261235,79.510574,259.020448,-97.196846,241.99271
103,-2.191658,8.82884,0.765003,9.732347,-34.892029,-62.886612,-80.295639,-89.461292,-65.597351,-93.870689,-112.509384,-127.446407,-61.673858,-92.988556,-112.713878,-128.67176,-56.363022,-86.222294,-103.640751,-116.800426,-49.880562,-72.629379,-85.620952,-96.869739,-1.238603,9.298908,21.104043,29.013912,32.406776,36.735974,37.263138,37.671332,37.518673,39.676307,36.859562,33.02249,39.085405,43.523728,43.48259,41.698435,37.641989,45.862339,50.782822,54.323838,29.063198,56.351532,78.945854,96.185314,57.692619,87.696556,101.857853,110.911938,47.713474,81.505325,98.47403,108.6404,37.073479,70.106346,86.580574,96.582264,26.387833,54.452213,67.94862,77.228668,-14.044304,-17.375899,-16.619074,-17.884352,-4.732576,15.880699,27.644881,36.38643,10.048237,32.462439,44.098662,51.490272,24.464649,44.325261,53.679646,58.713502,37.725784,52.218001,57.754802,60.495458,77.182194,267.623368,-96.568565,251.499137
104,-3.130874,6.643788,2.410034,8.007905,-34.083092,-62.146821,-80.897885,-93.253888,-62.676499,-90.296711,-109.418702,-124.903702,-58.778595,-89.885869,-109.663994,-125.752923,-53.899384,-84.047596,-101.56984,-114.638878,-48.377541,-71.424614,-84.643364,-95.943032,-1.98141,7.663449,16.838597,22.154541,34.570635,36.355493,34.879943,32.999371,38.634936,37.730564,32.202778,25.704078,38.542495,40.348769,37.812173,33.665386,34.905754,41.572983,44.68455,46.368372,29.555592,56.424523,78.581944,96.087902,58.63908,88.748566,103.296581,112.693074,48.777535,82.661957,99.935772,110.349621,38.369969,71.253227,87.658894,97.661419,27.864361,55.6287,69.308567,78.886929,-14.056852,-16.802596,-15.002312,-16.294823,-0.185918,20.515648,31.852468,40.219895,15.913192,37.787362,48.651445,55.444497,30.592451,49.968482,58.34852,62.57636,42.959366,57.502033,62.713854,65.204186,73.976801,274.169075,-94.23305,259.408961
105,-3.087571,4.882692,3.083336,6.509827,-31.576446,-59.264442,-78.76007,-92.416832,-61.21392,-87.556892,-104.313617,-117.136104,-57.757415,-86.87186,-103.546234,-116.291107,-53.317932,-81.673793,-95.921756,-105.512764,-48.341949,-70.276085,-81.545448,-90.520866,-3.802961,3.41707,10.716635,15.064482,30.317352,31.287254,29.485982,26.810917,35.433349,34.476971,29.220023,22.962076,36.486577,37.951012,34.047176,29.004366,34.2295,39.869091,40.768276,40.335282,29.528595,55.716957,77.610478,94.959286,59.315037,90.120518,104.76083,114.07085,49.700283,84.689701,101.771954,111.633373,39.589417,73.494473,89.995297,99.845226,29.270153,57.822304,71.99572,81.960194,-14.095026,-16.730595,-14.006933,-14.634996,3.475955,23.868275,34.310431,41.596893,20.515228,41.341098,51.396757,57.329749,35.208553,53.625614,61.267437,64.637207,46.834489,61.196992,65.735215,67.289584,70.854429,279.02477,-91.184515,265.891791
106,-3.87696,1.260622,1.31852,4.072687,-30.426911,-57.619835,-75.926514,-88.324746,-61.045235,-82.369778,-92.5738,-99.02734,-56.651825,-80.051949,-90.207219,-96.917942,-51.279259,-73.446236,-83.378048,-89.67429,-45.191071,-62.543198,-71.22155,-78.420514,-12.100413,-9.058464,-4.050901,-2.592085,23.020158,27.660899,27.924994,26.35368,32.977326,37.454231,35.866591,32.39639,39.162445,45.300967,44.627233,41.898605,41.799743,50.904187,53.450008,54.389368,29.152805,55.108108,77.591972,95.774082,55.511455,86.606037,103.61047,116.037243,45.298908,80.705051,100.922481,114.528888,35.352264,69.389797,88.785701,101.925533,25.683803,53.92432,69.487358,81.729721,-13.419909,-16.075214,-12.82424,-13.663317,4.587401,23.587422,34.41448,43.070393,21.590117,40.546024,51.618762,59.266896,36.040479,53.190693,61.457912,66.033964,47.22485,60.947162,65.944981,68.465534,66.994561,280.270587,-89.848903,269.949673
107,-8.341359,2.813102,3.138874,3.888472,-24.536327,-48.791072,-66.633808,-79.515426,-55.630388,-71.258171,-75.719352,-77.318573,-52.775545,-69.318786,-72.265171,-72.735901,-48.920826,-64.264852,-67.038093,-67.771064,-44.292308,-57.428936,-60.978624,-63.330116,-13.004637,-13.347475,-11.550384,-12.256697,18.886623,26.797468,29.776178,30.232372,29.359165,37.336794,39.159659,38.797296,35.928316,44.260169,45.59969,45.112689,39.101806,48.80479,51.002363,51.830795,27.808971,52.784122,75.229774,93.792091,54.835224,85.223007,102.347076,115.057159,44.896625,79.451603,99.830932,113.733673,35.006664,67.784065,87.193153,100.651016,25.310371,52.470634,68.056,80.838581,-13.774738,-15.971447,-12.070624,-13.040303,8.216127,26.297352,36.524307,44.732752,25.193477,43.024686,53.548439,60.964009,38.786583,55.391367,63.307869,67.948622,48.649346,62.505336,67.458929,70.138699,58.709192,283.062441,-86.654039,273.816897
108,-13.475875,2.481465,2.456508,3.35679,-16.506489,-35.745244,-51.36707,-63.789689,-48.081328,-54.940625,-51.703125,-48.18964,-47.485182,-54.127465,-48.641968,-42.259896,-45.740468,-51.658282,-45.703846,-39.935418,-42.892376,-50.12447,-47.538523,-44.498612,-13.482264,-15.884046,-15.791291,-16.450699,13.914492,26.608067,32.017446,34.111705,24.958448,37.025905,41.212465,42.63517,32.282905,43.198593,45.777062,46.748902,36.691119,47.41711,49.125546,49.633357,27.17878,51.818745,74.356305,93.064282,54.707817,84.775418,101.976345,114.80064,45.291424,79.317501,99.724789,113.73769,35.508442,67.767964,87.279614,100.975972,25.798199,52.323052,68.032448,81.025784,-14.306052,-16.296947,-12.005281,-12.429988,10.890587,28.321752,37.684881,44.997105,27.748597,44.129994,53.673112,60.42179,40.615296,56.19716,63.570666,67.882055,49.646504,63.119456,67.966591,70.611361,45.365719,285.487506,-84.065129,277.117287
109,-15.559811,5.363381,1.83609,2.697752,-9.300705,-22.384209,-33.361439,-41.632313,-38.612337,-36.010082,-25.310177,-15.67313,-40.351416,-36.714684,-22.626972,-8.688286,-40.246456,-36.877596,-23.080399,-10.833847,-38.5173,-40.203381,-33.021429,-25.60207,-14.569602,-19.672668,-20.89264,-21.884364,4.601295,18.914225,26.422674,30.679062,17.449438,31.92279,38.75023,42.515227,27.153669,39.417209,43.999515,46.74647,34.401785,45.341901,47.279073,47.697791,26.750222,51.141667,73.933239,92.906102,54.263054,84.769032,101.890515,114.421383,45.128506,79.56165,99.932545,113.62801,35.600785,68.167111,87.594761,100.903347,26.294816,52.994259,68.729004,81.531338,-14.976945,-16.959195,-12.460591,-12.180331,12.060893,29.263681,38.051122,44.582735,28.882582,44.821326,53.562702,59.381617,41.346371,56.718494,63.465196,66.97441,49.918588,63.274153,67.708425,69.688415,30.012629,290.744371,-82.022318,279.708523
110,-15.463429,5.832586,0.832821,1.934084,-1.88515,-8.662021,-15.20605,-20.080833,-28.179113,-16.937393,-1.096252,11.683514,-32.359754,-19.988914,-0.780841,16.86073,-34.169929,-23.254491,-4.991855,10.284874,-33.855114,-32.6609,-25.072305,-17.600326,-15.020985,-22.030645,-24.699825,-26.590808,-1.035345,14.142536,22.74088,28.005417,12.272999,27.546624,35.735575,40.417108,22.592055,34.913343,40.882293,44.643522,30.559921,41.133314,43.977797,44.923517,26.755909,51.206269,74.14864,93.345223,54.228711,84.922623,101.81717,114.094918,45.28331,79.884545,100.010674,113.447571,35.99857,68.561268,87.771561,100.784981,27.132546,53.777722,69.309689,81.755745,-15.438344,-17.23428,-12.326543,-11.598863,12.945629,30.091112,38.400025,44.338155,29.819139,45.589193,53.488195,58.294118,42.013301,57.28734,63.262581,65.823087,50.098344,63.404718,67.462239,68.850845,14.852817,296.441825,-80.88588,281.507475
111,-5.692634,3.038269,0.382714,1.037222,1.487789,-2.879093,-8.661404,-13.181649,-24.946386,-10.544289,6.422996,18.634266,-31.614012,-15.390095,4.362957,21.530102,-35.331631,-21.590876,-2.178944,13.180504,-36.55212,-34.577088,-26.270331,-18.601227,-16.223773,-23.806723,-26.393516,-27.683927,-3.179159,11.726662,19.005436,23.149451,11.902916,26.177123,32.640508,35.802907,23.495142,34.989444,39.188985,41.563498,32.505071,42.734835,44.022924,43.307508,26.899086,51.582653,74.718155,94.347152,53.752269,84.869201,101.831978,114.015976,44.890262,80.120727,100.17247,113.410103,35.873771,68.961433,88.102478,100.977585,27.537162,54.442886,69.881881,82.123512,-15.686136,-17.220016,-11.641385,-10.109765,13.249984,30.845566,39.030213,44.673768,30.296592,46.27813,53.574868,57.527993,42.437995,57.812057,63.218034,64.94749,50.263934,63.488909,67.174395,68.00794,9.530571,299.353413,-80.132778,282.418016
112,-5.014424,4.013801,-0.103535,0.365217,3.963753,1.641289,-2.945091,-6.275962,-22.179782,-4.630027,13.016877,25.022187,-29.880546,-10.167743,10.164437,27.234948,-33.799472,-17.808643,1.674157,16.86715,-35.026176,-31.818489,-24.142341,-17.083293,-17.63824,-26.495212,-29.944776,-32.254006,-5.778245,7.819084,14.409323,18.297289,10.184421,22.781802,28.487811,31.161728,22.429874,32.548704,36.095598,38.054432,31.915676,40.945809,41.429858,39.997483,26.906261,51.744656,74.90871,94.769566,53.346199,84.985371,102.045147,114.259586,44.587429,80.399563,100.356663,113.532955,35.797588,69.451721,88.526791,101.355389,27.854919,55.053715,70.453983,82.583759,-15.809304,-17.27779,-11.072392,-8.461844,13.13083,30.987468,38.969055,44.264474,30.364011,46.533764,53.331249,56.557783,42.535363,57.98276,62.927338,63.872514,50.280779,63.464998,66.830223,67.093687,4.958021,303.220795,-79.794439,282.636814
113,-1.393455,3.654982,-0.101841,-0.005051,4.388626,2.675606,-1.247887,-3.308739,-22.082085,-3.059555,14.478859,26.628662,-29.744625,-8.429901,12.070015,29.364601,-32.538551,-15.799301,3.176216,18.436958,-32.413055,-29.570961,-23.908527,-18.283573,-18.3798,-28.410747,-32.89006,-36.668988,-8.351694,3.619414,10.321594,14.517707,7.646233,18.825181,24.653729,27.469424,20.233844,29.18716,32.879637,34.628026,29.870453,37.551537,37.830402,35.823798,26.96719,52.014256,75.061775,95.091202,52.999386,84.9161,102.034538,114.330505,44.236153,80.473938,100.358803,113.436905,35.618614,69.697712,88.658043,101.419235,27.985794,55.464249,70.874794,82.978569,-15.867572,-17.208049,-10.400956,-6.793472,12.810555,31.044439,38.908403,43.95871,30.346807,46.990334,53.485798,56.212993,42.634151,58.416742,63.035932,63.488797,50.320559,63.597033,66.686283,66.532759,4.008196,306.730706,-79.45265,282.486692
