takenoko1/special-research/HandMotion_SimilarSearch_自分用/NewProject/handData_new/key/d3_feature/27.csv
,vel_0x_L,vel_0y_L,vel_0x_R,vel_0y_R,posFromWrist_1x_L,posFromWrist_2x_L,posFromWrist_3x_L,posFromWrist_4x_L,posFromWrist_5x_L,posFromWrist_6x_L,posFromWrist_7x_L,posFromWrist_8x_L,posFromWrist_9x_L,posFromWrist_10x_L,posFromWrist_11x_L,posFromWrist_12x_L,posFromWrist_13x_L,posFromWrist_14x_L,posFromWrist_15x_L,posFromWrist_16x_L,posFromWrist_17x_L,posFromWrist_18x_L,posFromWrist_19x_L,posFromWrist_20x_L,posFromWrist_1y_L,posFromWrist_2y_L,posFromWrist_3y_L,posFromWrist_4y_L,posFromWrist_5y_L,posFromWrist_6y_L,posFromWrist_7y_L,posFromWrist_8y_L,posFromWrist_9y_L,posFromWrist_10y_L,posFromWrist_11y_L,posFromWrist_12y_L,posFromWrist_13y_L,posFromWrist_14y_L,posFromWrist_15y_L,posFromWrist_16y_L,posFromWrist_17y_L,posFromWrist_18y_L,posFromWrist_19y_L,posFromWrist_20y_L,posFromWrist_1x_R,posFromWrist_2x_R,posFromWrist_3x_R,posFromWrist_4x_R,posFromWrist_5x_R,posFromWrist_6x_R,posFromWrist_7x_R,posFromWrist_8x_R,posFromWrist_9x_R,posFromWrist_10x_R,posFromWrist_11x_R,posFromWrist_12x_R,posFromWrist_13x_R,posFromWrist_14x_R,posFromWrist_15x_R,posFromWrist_16x_R,posFromWrist_17x_R,posFromWrist_18x_R,posFromWrist_19x_R,posFromWrist_20x_R,posFromWrist_1y_R,posFromWrist_2y_R,posFromWrist_3y_R,posFromWrist_4y_R,posFromWrist_5y_R,posFromWrist_6y_R,posFromWrist_7y_R,posFromWrist_8y_R,posFromWrist_9y_R,posFromWrist_10y_R,posFromWrist_11y_R,posFromWrist_12y_R,posFromWrist_13y_R,posFromWrist_14y_R,posFromWrist_15y_R,posFromWrist_16y_R,posFromWrist_17y_R,posFromWrist_18y_R,posFromWrist_19y_R,posFromWrist_20y_R,posFromBody_0x_L,posFromBody_0y_L,posFromBody_0x_R,posFromBody_0y_R
6,-0.368602,-2.334586,0.335644,-0.194662,4.786743,8.939884,15.760128,22.361686,-11.634053,8.622711,28.440547,43.094478,-17.055851,9.301918,32.981918,53.666988,-17.985112,6.09106,27.460269,45.595607,-16.674225,-2.574212,13.115764,27.276729,-20.459727,-34.141309,-37.496233,-36.42043,-14.374409,-6.572652,-0.089451,3.802541,3.148221,13.299347,19.39084,21.887483,17.434389,26.580465,29.80517,30.400531,29.261199,37.852398,38.533999,36.775495,24.84494,49.656395,72.093784,92.304989,48.413292,82.768295,101.476238,115.52354,40.446727,78.734298,100.066486,114.638706,33.785465,68.972534,88.941913,102.557567,28.521526,55.53281,71.620296,84.61211,-15.435194,-15.760767,-7.964518,-4.349106,18.571832,33.614146,39.579285,43.262635,36.507795,49.43922,53.222693,54.109367,48.086985,60.945113,63.673814,62.901564,54.132005,67.066814,70.066983,69.664296,-28.555521,312.332058,-91.817362,283.401718
7,-7.339165,-2.312442,0.439041,0.115857,6.657291,13.745739,22.787658,30.556721,-4.803326,16.855385,36.451401,50.951992,-9.95953,16.954559,40.469604,61.027782,-11.471947,13.644161,35.001835,53.245022,-11.200985,4.411892,20.321937,34.654621,-21.264495,-34.470487,-36.458764,-33.762877,-13.639579,-5.089987,1.652491,5.735354,4.480931,15.349263,21.52076,24.230837,19.168131,28.86549,31.904289,32.552656,31.078205,40.23027,40.637625,38.661649,24.680923,49.148254,71.512825,91.606693,47.331745,81.722614,100.420017,114.49966,39.60704,77.94984,99.389294,114.083896,33.219005,68.46048,88.543442,102.341526,28.202671,55.263119,71.363388,84.452373,-15.372136,-15.935151,-8.238407,-4.424813,18.077828,33.15035,39.208473,43.093278,36.071861,49.13064,53.05457,54.085246,47.775454,60.795478,63.656869,62.995905,53.924226,66.874399,69.982767,69.67767,-35.456091,309.948702,-90.939726,283.446661
8,6.195316,-3.517019,0.293369,0.283891,6.148213,11.507504,17.461304,22.654987,-9.180794,10.085312,29.427212,44.130913,-15.078071,7.867115,31.721031,52.923775,-17.883499,4.279587,26.836029,46.248917,-19.18166,-4.506512,12.468544,27.517307,-21.933055,-34.197181,-35.125055,-31.132236,-13.87591,-4.289826,2.865577,6.985997,4.782187,16.701659,23.523572,26.14195,20.157928,30.838551,34.399463,35.200402,33.033815,43.093809,43.171627,40.71732,24.449467,48.678246,71.027813,91.155911,46.802342,81.093441,99.766754,113.793205,39.200295,77.535862,99.040192,113.707535,32.957302,68.205849,88.364571,102.164658,28.118454,55.127564,71.243042,84.319576,-15.522473,-16.382211,-8.806016,-4.806269,17.324337,32.616666,38.789423,42.774473,35.443291,48.640664,52.65265,53.701456,47.334,60.411058,63.267323,62.555254,53.621946,66.623088,69.764652,69.396694,-28.925652,306.395513,-90.311234,283.694382
9,-2.881393,-3.332781,0.425366,0.169789,6.694416,13.356651,20.547992,26.184173,-7.400311,12.53976,32.11734,46.887703,-12.977806,10.469066,34.445869,55.626686,-15.698044,7.304477,29.996555,49.420166,-17.047348,-1.347679,15.835212,31.089271,-22.25349,-33.565968,-32.695583,-27.033577,-12.716608,-2.174738,5.120073,9.168948,6.457747,19.725576,26.720033,29.406275,22.262876,34.072964,37.5381,38.310104,35.305588,46.411634,46.267027,43.523926,24.135589,48.212619,70.513549,90.621391,46.347908,80.694385,99.395496,113.424991,38.811801,77.131336,98.720249,113.333187,32.651413,67.876453,88.071762,101.81908,27.906623,54.797905,70.894466,83.933715,-15.610653,-16.558991,-9.043237,-5.108673,17.102184,32.415249,38.565973,42.505414,35.292904,48.580074,52.624393,53.607237,47.223751,60.369599,63.175834,62.381032,53.487145,66.510591,69.65339,69.230239,-31.550262,303.038035,-89.629085,283.839474
10,0.779205,-2.039554,0.188301,0.092848,6.534874,13.009941,19.972595,25.628323,-8.718258,11.300274,30.813148,45.839401,-14.374901,8.408134,33.060734,54.426315,-17.1049,5.204578,28.787556,48.451653,-18.350761,-2.42379,15.100845,30.410751,-21.708753,-32.150241,-30.835316,-24.635191,-11.707545,-1.080447,6.580778,10.777052,7.863421,21.227111,28.558837,30.499948,23.965051,35.608276,39.21613,39.557215,37.20524,48.071683,47.562872,44.384207,23.832573,47.865245,70.177745,90.279556,46.246845,80.613121,99.311016,113.292423,38.666816,77.055244,98.684612,113.247196,32.509071,67.846172,88.132724,101.890926,27.827568,54.78265,70.917434,83.927833,-15.700895,-16.684455,-9.275097,-5.457156,16.854417,32.331033,38.515362,42.386051,35.092919,48.432935,52.485652,53.363458,47.089382,60.230351,62.963746,62.050235,53.3487,66.402552,69.578376,69.12288,-30.590578,300.980826,-89.260305,283.914667
11,0.357811,0.226611,0.171833,0.015857,6.596489,12.720474,19.534836,25.166439,-8.907909,10.948048,30.220436,45.181343,-14.562012,8.253708,32.780857,53.993019,-17.238625,5.144154,28.671101,48.238129,-18.430275,-2.352837,15.105389,30.250957,-21.827387,-32.416274,-31.020764,-24.602179,-12.038354,-1.705447,5.902352,10.147359,7.506788,20.777693,28.165672,30.269595,23.695078,35.176073,38.88358,39.403679,37.07396,47.682112,47.210302,44.166032,23.605865,47.662445,69.998291,90.133209,46.185608,80.639122,99.354606,113.285019,38.57254,76.977825,98.577324,113.044052,32.407642,67.776546,88.031307,101.698059,27.765793,54.672924,70.774807,83.722744,-15.751591,-16.753096,-9.373169,-5.492699,16.903126,32.432712,38.573173,42.303256,35.155103,48.463514,52.48107,53.246553,47.146921,60.221114,62.867206,61.837554,53.363755,66.435441,69.609894,69.114346,-30.068968,301.195334,-88.924673,283.918421
12,1.410873,-1.108024,-0.039688,-0.047424,6.322014,11.97535,18.292466,23.093136,-10.765251,9.336308,28.905945,44.000908,-16.459625,6.664948,31.135357,52.271759,-18.800205,3.807232,27.37151,46.749115,-19.557792,-3.644886,13.968899,29.283097,-21.448697,-31.4452,-29.884866,-23.382066,-11.478463,-0.736386,6.714233,10.709053,7.962864,21.726203,29.136487,31.102583,24.235888,36.236117,40.093282,40.525017,37.701887,48.81081,48.39155,45.132857,23.414978,47.545532,69.939926,90.14907,46.368187,80.853756,99.557899,113.407837,38.659893,77.023956,98.559677,112.933754,32.429706,67.784099,88.007572,101.616577,27.784629,54.651661,70.738243,83.625743,-15.793755,-16.771338,-9.432919,-5.692684,17.004532,32.570304,38.663353,42.243691,35.256472,48.449917,52.407488,53.065402,47.236916,60.149113,62.708,61.587416,53.403485,66.461092,69.638397,69.116223,-28.516898,300.077038,-88.823164,283.860725
13,-3.873836,1.063231,-0.023896,0.015993,7.379425,14.653438,21.922062,27.235874,-5.882984,14.246464,33.177383,47.912327,-11.201225,11.734611,35.652466,56.382854,-13.754631,8.951294,32.00679,51.14407,-15.071892,1.31456,18.61663,33.72551,-22.216848,-32.768931,-31.320723,-24.692348,-12.285479,-2.403499,4.447857,8.184165,7.180029,20.389875,27.432237,29.40436,23.502626,35.070837,38.723189,39.174869,37.055693,47.765697,47.280746,44.097994,23.215783,47.430165,69.890202,90.131447,46.32193,80.957474,99.684586,113.519234,38.62793,77.177628,98.735024,113.110588,32.396817,67.94109,88.204983,101.866722,27.759407,54.766857,70.823754,83.702488,-15.731448,-16.651184,-9.34895,-5.95784,17.081251,32.504849,38.576421,42.073384,35.28237,48.358292,52.274997,52.887178,47.192456,59.990056,62.463012,61.312108,53.290458,66.338209,69.53709,69.073196,-32.274061,301.131785,-88.730387,283.868234
14,-2.883946,-0.128836,-0.245636,-0.002593,8.393727,16.832634,24.536122,29.509209,-2.96545,17.764172,36.846291,51.809098,-8.161457,14.907853,38.727848,59.338967,-10.905155,12.104039,35.192677,54.252228,-12.631519,3.961281,21.387921,36.589325,-22.44646,-32.748158,-31.699204,-25.462548,-12.252937,-2.498681,4.123927,7.618593,7.254784,20.317528,27.115384,28.799885,23.678529,35.207837,38.771601,39.03593,37.249775,48.074758,47.629488,44.339821,23.214192,47.5364,70.063523,90.384018,46.327183,81.104485,99.899002,113.743309,38.600808,77.408581,99.07853,113.537361,32.351544,68.151902,88.527695,102.258545,27.716961,54.890877,70.974564,83.876141,-15.736203,-16.623038,-9.390385,-6.28182,16.93941,32.418274,38.538074,42.042286,35.088325,48.274422,52.207849,52.861032,46.975514,59.828307,62.304535,61.18006,53.059239,66.175409,69.45653,69.066489,-35.025502,300.995529,-88.843518,283.858221
15,4.103257,-0.576107,-0.162815,0.037556,8.522918,16.136261,21.360981,24.133026,-3.786896,13.702228,32.307884,47.121414,-9.325825,9.859085,33.245121,54.032661,-13.270649,7.091606,30.429462,50.240661,-16.732624,-1.300541,16.696907,32.325645,-24.516593,-35.125252,-33.479962,-26.258227,-14.308398,-4.660193,1.558827,4.63674,5.465294,18.860367,25.665892,28.005491,22.402951,34.685404,38.429751,39.308781,36.824191,48.417349,47.874823,44.583427,23.293064,47.686455,70.27343,90.636635,46.280365,81.185555,100.053646,113.946545,38.560616,77.577839,99.342625,113.921963,32.312302,68.291577,88.705776,102.494396,27.673714,54.939926,70.986294,83.891762,-15.68516,-16.557619,-9.355545,-6.497551,16.872374,32.293687,38.463011,42.017056,34.967987,48.20147,52.210332,52.994105,46.820497,59.636585,62.149962,61.090881,52.919449,66.003398,69.317543,68.971271,-30.77544,300.416048,-88.859528,283.892403
16,-7.641312,0.030307,-0.201061,0.096467,9.398483,19.524044,28.22755,33.13908,1.110832,21.218353,40.369423,55.18396,-3.449318,19.286545,42.222839,62.29113,-5.939129,17.22987,39.75285,58.71595,-7.802536,8.913391,26.163437,41.460033,-23.666772,-33.835731,-32.501551,-25.915623,-12.505249,-3.065006,2.803321,5.49612,6.968991,20.135994,26.443601,28.265621,23.493796,35.638756,39.079156,39.452017,37.037774,48.611196,48.529501,45.216591,23.309635,47.825821,70.545341,91.014576,46.122334,81.193863,100.183983,114.15136,38.442959,77.792862,99.723175,114.412468,32.25032,68.558613,89.14373,103.036148,27.699188,55.174095,71.27932,84.257664,-15.705032,-16.629744,-9.520889,-6.769846,16.735424,32.118637,38.344042,41.925998,34.777054,48.003992,51.991834,52.791736,46.62408,59.331574,61.772494,60.691516,52.756205,65.818443,69.13891,68.759343,-38.249645,300.44583,-88.893482,283.988345
17,11.139324,-0.152894,-0.133507,0.089192,7.126019,13.296524,17.597786,20.116219,-6.735306,8.81321,27.48864,42.750126,-11.698345,5.593254,28.873295,50.006115,-15.001076,3.728565,26.937676,47.039395,-17.721931,-3.592815,14.012913,29.626579,-24.567303,-34.77514,-33.338689,-26.491692,-13.522883,-4.350354,1.60493,4.270276,6.053924,18.915732,25.440441,27.391482,22.739898,34.731742,38.257036,38.851062,36.837949,48.396046,47.942192,44.688427,23.279732,47.851078,70.649632,91.176167,45.965012,81.168286,100.261666,114.315308,38.346176,77.954842,100.008065,114.80365,32.196511,68.766529,89.485554,103.48494,27.700894,55.317295,71.459816,84.508106,-15.678874,-16.684862,-9.659827,-6.942463,16.704154,32.00367,38.243883,41.826284,34.687763,47.875761,51.841645,52.66563,46.508225,59.13159,61.503065,60.400326,52.66169,65.701216,69.011791,68.592098,-26.914284,300.294816,-88.830952,284.079417
18,-3.15057,-0.627112,-0.059944,-0.09039,7.078217,13.805352,20.180695,24.179684,-6.755481,11.466477,30.849942,45.947457,-11.376823,9.964051,33.042298,53.597008,-13.177711,8.593415,31.282563,50.347252,-13.88903,1.545491,18.434452,33.451081,-23.042809,-32.608849,-31.018616,-24.574491,-10.839742,-0.801422,5.017603,7.499056,8.283249,21.585115,27.800406,29.476287,24.324401,36.530456,39.841217,40.092949,37.457923,49.111399,48.955825,45.617598,23.301556,47.810223,70.55547,91.000374,45.907997,81.056568,100.160637,114.255798,38.311741,77.802349,99.868607,114.76751,32.186222,68.636135,89.392033,103.500298,27.705608,55.196182,71.339687,84.477825,-15.629116,-16.667758,-9.673066,-6.931064,16.87698,32.119687,38.296198,41.804621,34.796246,47.91811,51.876632,52.676905,46.564862,59.161081,61.612313,60.527581,52.72013,65.792507,69.152508,68.735409,-29.838375,299.674941,-88.664417,283.996264
19,4.217697,0.67629,0.060368,-0.07457,5.458271,10.580922,16.202729,20.425484,-10.610115,6.725281,25.157822,39.982636,-15.552658,4.969963,28.128468,48.965104,-17.243591,3.435643,26.101227,45.116593,-17.338646,-2.739257,13.848473,28.674065,-22.355996,-31.848504,-30.336668,-24.084464,-10.762393,-1.422532,4.828734,7.901274,8.35409,20.973046,27.616711,29.103686,24.312953,35.594741,39.157258,39.419154,37.326889,48.419597,48.3617,45.464111,23.215152,47.637096,70.337127,90.727604,45.862884,80.902599,99.920597,113.955585,38.286289,77.608863,99.556926,114.433262,32.152198,68.461967,89.165336,103.30775,27.638351,55.047317,71.166847,84.333412,-15.545493,-16.643527,-9.657703,-6.787988,17.126959,32.243966,38.324418,41.72589,34.961861,47.883641,51.767507,52.491407,46.672357,59.115411,61.557294,60.447874,52.833739,65.855765,69.195017,68.736743,-25.380106,300.36021,-88.363477,283.930673
20,1.607037,-0.346815,0.013687,-0.063245,4.960567,9.317047,14.601791,18.748089,-12.683224,4.451683,23.109512,38.155987,-17.646893,2.705944,26.086201,47.19025,-19.151196,1.254147,24.090054,43.240002,-18.971409,-4.693382,11.934906,26.790413,-22.043143,-31.378953,-29.775913,-23.521658,-10.306415,-0.736448,5.68331,8.837324,8.73325,21.554636,28.332102,29.857683,24.613405,36.095512,39.773033,40.086861,37.49159,48.753568,48.814466,45.976479,23.119777,47.547031,70.270477,90.685444,45.756637,80.731682,99.70721,113.693538,38.199211,77.458088,99.336101,114.160732,32.103561,68.379741,89.061516,103.209995,27.656353,55.071098,71.196167,84.362926,-15.535452,-16.610799,-9.656998,-6.798881,17.324671,32.357364,38.387626,41.713108,35.109889,47.926286,51.702805,52.290842,46.785064,59.179607,61.540782,60.37859,52.90905,65.883936,69.170218,68.662914,-23.497284,300.01923,-88.074005,283.873263
21,4.055809,-0.569635,-0.148602,0.006768,3.877533,6.435837,10.61261,14.265701,-17.563442,-0.999722,17.837013,32.930065,-22.766155,-2.497238,21.270012,42.72076,-23.918919,-3.565155,19.640133,38.891911,-23.146729,-9.061157,7.651566,22.369274,-21.501938,-30.608234,-28.619352,-22.033844,-9.608352,0.385804,6.862904,10.020412,9.205652,22.453191,29.354812,30.925582,24.875079,36.652636,40.392908,40.720395,37.709704,49.021886,48.908537,46.008552,23.125637,47.56659,70.297314,90.713906,45.93924,80.756481,99.67994,113.637795,38.380829,77.444092,99.251885,114.076058,32.264855,68.334378,88.9655,103.133469,27.783348,55.06921,71.1614,84.294491,-15.522263,-16.59693,-9.695938,-6.989492,17.484456,32.386041,38.342375,41.584951,35.220459,47.971783,51.715377,52.24711,46.824041,59.236751,61.612079,60.44733,52.878768,65.826903,69.124202,68.646217,-19.155127,299.451596,-87.936259,283.882032
22,-5.959969,1.629482,-0.124592,0.10095,4.486348,8.693711,14.927525,20.042748,-14.477428,5.839726,24.501332,39.10104,-19.383213,5.141385,28.821751,49.837178,-19.57711,3.965115,26.547192,44.935055,-17.420585,-1.791824,14.298741,28.631104,-20.187815,-29.305461,-27.956659,-22.461515,-8.948536,0.450827,7.149833,10.585799,9.715427,22.222022,29.073724,29.963622,25.087229,35.876471,39.469554,39.26064,37.339042,47.80155,47.857174,45.031525,23.133305,47.586365,70.328648,90.781632,46.015915,80.812752,99.73415,113.67651,38.472599,77.508328,99.309071,114.11134,32.360539,68.395615,88.998711,103.118878,27.869832,55.135609,71.22329,84.325219,-15.58883,-16.711798,-9.82806,-7.080228,17.402983,32.249844,38.14854,41.326339,35.155411,47.884073,51.605041,52.095834,46.751385,59.159772,61.52485,60.336537,52.784005,65.704007,68.982805,68.495261,-24.815787,301.078558,-87.761542,283.980462
23,1.057755,4.035723,-0.103008,0.216373,3.863251,7.405598,13.024853,18.342464,-15.12355,5.270142,23.501255,37.810741,-20.067719,4.526104,28.24395,49.14069,-20.353226,3.13512,25.507782,43.888676,-18.137283,-3.11784,12.832867,27.125954,-20.203129,-30.729487,-31.501973,-28.478191,-11.058474,-2.865651,3.662195,7.257625,7.348435,18.393015,24.779847,25.570463,22.521376,32.054021,35.287742,34.956587,34.72832,44.100897,44.230795,41.712094,23.095688,47.606655,70.430615,90.964554,46.049778,80.93066,99.877121,113.834038,38.568581,77.701309,99.536659,114.312355,32.50296,68.664883,89.292103,103.358643,28.036915,55.418884,71.536904,84.603298,-15.711935,-16.940818,-10.103417,-7.376333,17.229291,31.935127,37.868095,41.114474,35.016115,47.61415,51.304799,51.799321,46.644557,58.941139,61.230758,60.018017,52.692775,65.488461,68.71324,68.201194,-23.413204,305.095167,-87.519722,284.177721
24,-1.296444,1.153522,0.034516,0.246977,4.394314,8.224503,14.208,19.516811,-14.115692,7.239944,26.222099,40.533669,-18.76902,7.099537,30.618095,51.17244,-18.933083,5.638939,27.494946,45.485344,-16.728069,-1.295917,14.526203,28.660332,-20.491479,-31.801561,-32.765052,-30.189183,-11.76307,-3.0099,3.189681,6.65068,6.409001,17.74944,23.645283,25.180188,21.309413,31.408372,34.115757,34.089031,33.350854,43.014362,42.938236,40.5398,23.067524,47.644363,70.541427,91.119667,45.945362,80.953159,99.961257,113.97084,38.533687,77.862339,99.787445,114.581771,32.583606,68.942173,89.610385,103.65834,28.240196,55.758167,71.897838,84.928447,-15.877957,-17.20448,-10.430052,-7.693644,16.911857,31.604651,37.55765,40.856419,34.81587,47.391688,51.072358,51.570733,46.537198,58.805053,61.039307,59.797876,52.614266,65.283623,68.432461,67.866469,-24.352793,306.221284,-87.128351,284.397293
25,-4.168591,3.64903,0.02639,0.244791,4.462487,9.156968,16.416951,22.411915,-11.662857,13.046013,32.105645,45.969853,-16.019153,13.769429,36.977108,56.866299,-15.189674,12.346413,33.29139,50.295056,-11.648757,4.991147,19.929348,33.428524,-19.575128,-31.803377,-34.480405,-34.839768,-11.771889,-4.070649,1.529224,4.798353,5.88495,15.820184,20.653919,21.313574,20.080703,28.852806,30.737255,29.870181,31.326799,39.67974,39.805871,37.465642,23.127914,47.718979,70.683254,91.325031,46.015571,81.209896,100.298378,114.344009,38.660476,78.148819,100.14711,114.974212,32.799007,69.243278,89.928634,103.933296,28.529457,56.102268,72.249046,85.227848,-16.02848,-17.533325,-10.761553,-7.869682,16.509578,31.197976,37.165782,40.539726,34.542872,47.138709,50.781921,51.319001,46.358566,58.614825,60.822402,59.574846,52.486788,65.077944,68.148459,67.520988,-28.189465,309.837135,-86.770042,284.608905
26,0.37167,2.686661,0.627845,0.348272,4.300701,9.16293,16.787819,23.413536,-10.901447,13.955143,32.881748,46.825539,-15.388984,14.962567,38.199749,58.253975,-14.882423,13.045281,33.558586,50.56176,-11.491665,5.066872,19.738278,33.287773,-19.865366,-33.058873,-36.610201,-38.107377,-13.152615,-5.669799,0.133678,3.851892,4.548894,13.748977,18.385556,19.46846,18.603522,26.625148,28.236759,27.558678,29.658093,37.573916,37.810482,35.997045,23.414063,48.03455,70.998825,91.563275,46.293892,81.567719,100.599198,114.632859,38.989666,78.478466,100.406456,115.222367,33.098076,69.584267,90.168629,104.121048,28.677979,56.452858,72.591042,85.59969,-16.16317,-17.81813,-10.920745,-7.814613,15.868572,30.490489,36.543931,40.119873,33.941868,46.47793,50.106779,50.74287,45.895636,58.093874,60.314048,59.084968,52.264685,64.722336,67.702115,67.03316,-27.480183,312.463364,-85.804585,284.896745
27,0.826321,1.815771,1.036675,0.690407,4.316608,9.358704,17.591057,24.843464,-9.866776,15.192856,34.508182,48.343517,-14.605694,16.441532,39.536739,59.185055,-14.348534,14.163471,34.444702,51.229442,-11.244965,5.30912,19.920021,33.306187,-19.8338,-34.062515,-38.899165,-41.586383,-13.935783,-6.071695,-0.725444,2.817412,3.299609,12.556168,16.533006,17.859541,16.912265,25.179595,26.499856,25.837447,27.725552,35.641548,36.278306,34.637227,23.609527,48.308304,71.392971,91.992954,46.600445,81.997558,101.010727,115.045143,39.418774,78.961109,100.839546,115.6558,33.531086,70.130093,90.654888,104.571876,28.980492,56.989895,73.126007,86.185238,-16.400119,-18.262746,-11.435373,-8.388744,15.097272,29.417563,35.489716,39.222059,33.165825,45.475054,49.000903,49.636155,45.233363,57.325711,59.476428,58.173581,51.812202,64.074031,66.903694,66.175941,-26.277202,314.212843,-84.39125,285.52086
28,-0.629242,-0.909151,1.351066,0.623284,5.374557,11.661987,20.666634,27.949425,-7.231247,17.549137,36.954037,50.97028,-12.089218,18.92284,41.924572,61.614521,-12.266991,16.242714,36.243256,52.983295,-9.730064,7.219414,21.859898,35.329411,-20.174119,-34.210951,-38.081282,-39.519708,-13.739047,-5.410818,0.330253,4.118295,3.733393,13.532269,17.778907,19.437165,17.467734,26.209814,27.692565,27.204193,28.248282,36.66879,37.287159,35.772928,23.856961,48.684071,71.886178,92.505833,47.129918,82.493363,101.454392,115.445824,39.90445,79.32795,101.140709,115.882622,33.834527,70.304478,90.660267,104.362038,28.978043,57.03724,73.130745,86.110486,-16.601759,-18.582477,-11.838196,-8.660186,14.272188,28.433434,34.460596,38.224925,32.355722,44.67525,48.144709,48.778874,44.536707,56.746319,58.846142,57.436318,51.30081,63.493466,66.138384,65.27683,-26.511898,313.249775,-82.645638,286.090227
29,11.842449,-2.482478,1.856518,0.798421,3.912941,7.0299,11.697682,16.004391,-13.55199,7.16946,25.844238,39.985794,-18.889538,6.892765,29.84681,50.050553,-19.937565,4.373554,25.083904,42.727684,-18.525066,-3.729572,11.364361,25.028309,-21.248452,-34.374676,-37.298088,-37.558774,-13.705183,-5.031707,0.566622,3.62859,4.239141,14.418536,18.581811,19.493247,18.697198,27.910075,29.357221,28.385788,30.481486,39.353118,39.326429,36.915088,24.054028,49.023995,72.409035,93.146244,47.936428,83.322693,102.224659,116.121151,40.707814,79.992348,101.670262,116.266766,34.381726,70.773743,90.889012,104.268139,29.131645,57.360112,73.39579,86.247082,-16.807499,-18.935653,-12.342821,-9.243247,13.403507,27.210998,33.224339,37.030511,31.476519,43.474797,46.852902,47.480151,43.795331,55.833648,57.793149,56.215339,50.830617,62.896289,65.272606,64.19616,-14.213488,310.740096,-80.333159,286.861447
30,1.440445,-2.856549,2.916813,1.039938,5.197609,9.354458,15.075382,19.741837,-11.909981,8.714413,27.79834,41.755257,-17.609905,8.698643,31.46743,51.136093,-18.846016,5.994541,26.658588,43.57029,-17.623695,-1.589287,13.667564,26.785904,-21.325011,-33.606229,-35.117793,-33.080832,-12.455231,-2.390877,3.475819,6.384412,5.874613,17.30706,21.836922,22.974883,20.757845,30.949652,32.560189,31.749579,32.827013,42.523742,42.045621,39.074203,24.108376,49.112068,72.649738,93.462708,48.888519,84.090271,102.780785,116.448876,41.670822,80.553429,101.963288,116.265976,34.94989,71.10577,90.873013,103.875916,29.07724,57.369312,73.318966,86.105164,-16.974472,-19.314257,-13.094595,-10.216025,12.551117,25.965159,31.85973,35.562878,30.524464,42.211977,45.466223,45.936552,42.966715,54.931648,56.792817,54.980319,50.303034,62.311822,64.490723,63.219269,-12.244194,307.856855,-76.887497,287.874693
31,5.342457,-0.121525,3.382519,1.131132,4.623138,7.893127,12.735935,16.979919,-12.450028,8.161171,26.799808,40.265339,-18.332623,6.730007,29.111011,47.858837,-19.768513,3.374679,23.63419,39.715244,-18.877327,-3.492863,11.345032,23.569748,-21.159507,-33.141236,-34.775214,-32.626756,-12.201597,-2.673336,2.987473,5.789447,6.366776,17.344542,21.540273,21.728933,21.425331,31.057135,32.424993,30.951134,33.742537,42.927256,41.910054,38.109304,23.881805,48.824409,72.561161,93.566883,49.801334,84.590961,102.936871,116.179012,42.664833,81.096554,102.180782,116.112087,35.64735,71.513981,90.882786,103.40443,29.335991,57.467068,73.237518,85.793644,-17.165083,-19.770234,-14.135447,-11.615858,11.84074,24.918033,30.558216,33.989255,29.796772,41.194132,44.27549,44.479415,42.37212,54.195286,55.931955,53.89797,49.906806,61.800331,63.75672,62.268201,-6.282761,307.755035,-72.886002,289.02553
32,0.082615,1.790824,4.343868,0.901556,5.652809,10.516651,15.878792,20.080169,-6.517445,14.361122,32.591102,45.916282,-12.469162,11.703769,33.342338,51.542244,-14.784199,7.618355,26.836235,42.173515,-15.166878,0.290737,14.471168,26.178703,-22.055259,-34.282236,-36.232487,-33.567104,-14.192147,-5.082257,1.007272,4.19967,4.364432,15.495031,19.829613,20.103637,19.70936,29.278896,30.675801,29.259296,32.287302,41.302874,40.178054,36.189866,23.795906,48.583122,72.385151,93.440689,51.179238,85.180905,102.873482,115.406639,44.015991,81.517594,101.927651,115.209526,36.52787,71.632393,90.24987,101.972351,29.541516,57.26651,72.661114,84.830452,-17.321954,-20.085025,-14.88301,-12.605803,11.252061,24.364403,29.871206,33.051352,29.131411,40.564463,43.653725,43.735853,41.809191,53.589897,55.339768,53.239167,49.615851,61.420764,63.223221,61.585785,-5.560638,309.606427,-67.902626,289.987654
33,14.634018,-2.196141,5.957531,-0.501833,5.023693,7.152431,8.601219,9.57098,-10.54905,8.09024,25.683357,38.717697,-17.272705,2.873428,23.665191,41.723739,-20.590851,-1.999317,16.807983,32.168312,-21.961899,-9.291847,4.321117,15.993301,-22.258826,-33.517506,-34.816957,-31.75021,-13.539136,-3.433694,3.069921,6.51778,5.000128,16.994565,22.537986,23.896396,20.563023,30.22674,32.943832,32.811773,33.510293,42.552604,42.316828,39.163865,24.107746,48.583523,72.202023,92.985157,53.009617,85.73275,102.59483,114.346859,45.682388,81.454376,101.061688,113.906216,37.556317,71.14103,89.043698,100.37946,29.55669,56.329697,71.071129,82.886707,-17.256721,-19.859983,-14.714704,-12.517426,11.605582,24.803881,30.748679,34.328968,29.219171,40.99826,44.795379,45.459529,41.795618,53.883212,56.391686,55.033239,49.804066,61.923906,64.133163,62.938872,9.81312,307.558727,-61.205355,289.634262
34,-0.897927,-0.07415,7.294693,-4.555044,3.816479,6.270699,7.984555,7.841183,-3.697185,16.138493,32.234322,43.711945,-7.419387,14.431469,32.296624,47.568329,-8.61874,11.529408,27.664811,40.394326,-8.688503,5.48219,17.314499,26.999932,-14.133076,-20.688599,-21.404879,-19.474339,-6.08149,4.927127,12.508497,17.175259,5.684286,18.678684,25.869915,28.762144,14.75757,25.189388,30.265346,32.179807,21.754522,29.812395,31.418869,30.43211,25.3885,50.35651,73.216164,93.026814,55.458344,85.664578,101.595165,112.904835,47.612435,80.07851,98.267521,110.811413,38.386311,68.491573,84.933071,95.892712,28.616867,52.518791,66.071995,77.132366,-15.71937,-16.818466,-11.171922,-8.123835,13.467073,26.970023,34.087672,39.183007,30.130805,43.300648,49.14472,52.025747,42.102246,55.878627,60.781585,61.903615,49.874721,63.277697,66.978128,67.296426,9.735603,307.651476,-53.090252,285.246117
35,19.477536,-4.176465,10.532375,-11.064328,-5.216069,-9.674595,-13.447392,-16.676709,-19.640225,-10.914631,0.423099,9.994938,-21.682446,-12.811764,0.070484,12.770588,-21.778324,-13.52488,-1.784855,9.241905,-20.808026,-15.654877,-7.808041,0.079994,-12.976429,-16.822677,-15.838215,-12.472595,-1.640869,8.050476,14.013577,18.050498,8.977596,20.616894,25.891232,28.072269,16.973472,26.331265,29.866118,31.265938,23.048613,29.711285,30.669405,30.163706,22.978123,44.757432,63.28862,79.282048,54.713242,77.760727,87.897927,95.412186,48.034012,71.376526,81.76236,89.131325,38.93715,59.637955,68.003804,73.713467,28.406445,44.867627,52.548398,59.083466,-5.320045,-1.189029,7.01791,12.682967,22.818543,38.913949,46.181367,50.887527,34.309011,51.234453,57.8724,60.935727,42.110607,59.138012,64.679444,65.956035,46.693241,62.442017,67.059404,67.870174,30.130743,303.69865,-41.640273,274.405428
36,19.053177,-6.917194,11.680058,-23.557313,-11.958458,-22.741414,-32.986256,-41.091511,-32.412873,-36.144322,-31.429539,-25.834134,-32.287674,-36.914086,-31.852662,-23.99897,-30.76355,-34.457531,-29.855175,-23.314248,-28.462418,-32.153744,-29.632073,-25.223752,-12.185197,-13.738714,-10.084225,-4.146084,3.370782,13.815481,18.968825,22.182119,13.460206,25.780574,30.40568,32.579826,20.641952,31.244535,34.669126,36.259669,25.756541,33.636202,35.085991,35.303476,25.443913,49.530808,67.700249,81.170448,61.329712,84.294743,91.59914,95.700657,53.949039,76.966381,83.896626,87.417789,43.575325,64.090336,69.910355,72.607201,31.27327,48.220276,54.83709,59.290592,0.933716,8.148795,18.455247,26.613032,21.002019,40.158183,50.293611,55.811727,29.398989,50.200961,60.016201,64.22012,36.295966,56.678814,64.859706,67.542762,41.786282,59.352496,65.732029,67.86416,50.359566,297.103098,-28.784569,251.169757
37,23.139347,-10.603658,14.222157,-35.046545,-19.722657,-38.562825,-55.955361,-68.897393,-49.897271,-66.240761,-68.261536,-67.692376,-47.503052,-65.539719,-68.260025,-66.658139,-43.815628,-59.997231,-62.323174,-61.166829,-39.474564,-52.216164,-55.118397,-55.326554,-10.455641,-8.757764,-0.814944,7.894062,11.137515,22.798191,27.095847,29.376005,21.460232,33.975954,37.846976,39.646865,28.050607,39.199162,42.281705,43.628939,32.25376,41.182165,42.672326,43.303267,28.744365,54.499809,71.747325,82.887073,68.706584,90.959884,93.993278,94.337425,60.701969,82.640716,85.232826,84.58271,49.479194,69.063812,71.198284,70.351329,36.199321,53.092105,57.319507,58.632476,4.236276,12.937551,24.18697,34.450333,16.323969,37.692958,49.920046,56.215081,21.934846,45.819967,58.000013,63.353008,27.796936,50.510652,60.764678,64.545594,33.661138,51.965664,59.794999,62.912938,75.316115,287.049062,-12.74521,216.672834
38,10.24237,-6.523128,13.554233,-49.729521,-26.790115,-50.337719,-70.902763,-85.501499,-59.043937,-85.075584,-93.918903,-98.521957,-53.507469,-81.773758,-92.143181,-97.371631,-47.282718,-72.793636,-82.533291,-87.586704,-41.030548,-60.092674,-68.58704,-73.936477,-9.184188,-5.403445,5.162755,16.04913,16.949278,27.868887,31.056295,32.491449,27.189126,38.52176,40.405851,40.517521,32.841018,44.086139,45.654142,45.431668,35.600903,45.010987,45.847199,45.884879,30.946117,57.373318,73.604279,82.595879,67.749905,89.787266,91.980938,90.692677,59.304485,81.263523,82.477444,79.034695,48.401619,67.980778,69.272461,66.099632,36.078301,53.308411,57.427139,56.87328,6.913817,14.243949,23.519726,32.915051,2.673058,20.060381,33.862382,41.481093,4.961732,25.302324,40.018225,47.25664,9.860584,29.591322,42.160557,47.71392,16.456479,31.685637,41.040503,45.763243,87.795439,281.327229,3.045977,167.744608
39,15.080452,-5.519758,9.58548,-54.259429,-31.177574,-58.787269,-82.679638,-98.228336,-71.014526,-107.08818,-121.461891,-130.298652,-66.001785,-105.78994,-121.817516,-131.826519,-60.003811,-96.563747,-112.119106,-121.511993,-53.613464,-81.288597,-94.522774,-103.254043,-15.515162,-14.541802,-2.656886,10.622244,15.313695,25.064505,26.761813,27.146704,31.641356,41.035989,40.643355,39.241251,42.297229,52.404932,51.719836,49.628596,49.041325,59.264896,59.146582,57.992825,32.383209,57.958351,73.352131,80.678959,65.258983,86.678421,87.883243,84.714512,57.087776,79.55722,80.167076,74.129162,47.257336,67.980858,69.234649,64.166279,36.929935,55.277366,59.760544,58.240013,7.789944,11.618275,17.607852,24.389251,-12.602049,0.159714,13.993029,21.169677,-13.469161,1.35648,17.089235,24.702767,-9.84636,4.406361,18.047339,24.103038,-2.872784,7.308331,17.225033,22.732633,105.279487,276.945158,15.035053,114.622866
40,2.121918,-2.775879,3.42905,-56.396337,-29.541664,-56.862785,-81.553871,-97.770069,-66.214394,-103.205429,-120.734242,-133.15321,-60.305054,-101.191727,-120.749462,-134.947723,-54.090271,-91.716431,-110.88699,-124.318943,-48.023666,-76.507588,-91.893345,-103.387047,-15.623385,-15.158503,-2.477167,11.453714,15.771241,26.536289,29.499284,30.493774,32.906338,42.978658,44.062118,43.423767,43.675153,54.83901,55.867512,54.46621,50.06658,62.160855,63.376412,62.695218,37.603604,65.352391,83.124035,91.531071,64.756691,88.854824,93.843384,92.372246,55.602299,83.663304,90.339512,86.993569,46.037087,73.391773,81.366142,79.693188,37.179371,60.39188,69.897103,71.595005,-0.537722,-4.684932,-4.740369,-3.175163,-35.416139,-30.084871,-15.96924,-7.944412,-35.673608,-29.951336,-12.138216,-1.932513,-30.533649,-24.772752,-8.04316,1.273436,-20.984877,-18.101012,-7.090932,0.363207,110.427864,276.563407,21.490562,60.620657
41,0.570511,-1.584268,2.103688,-44.814379,-29.045105,-55.945931,-80.450386,-96.512249,-63.788796,-100.206539,-118.370098,-132.120049,-57.612099,-98.13509,-118.188698,-133.965225,-51.642998,-88.929039,-108.540482,-123.188576,-46.087143,-74.235352,-89.971367,-102.474953,-15.633895,-15.021825,-1.79832,12.116888,16.317867,26.843287,30.157666,31.538665,33.561398,42.95061,44.376884,44.132797,44.263523,54.946171,56.372482,55.275844,50.386829,62.206488,63.687176,63.274054,36.975677,61.49224,77.823623,86.77304,54.592929,73.848838,80.861263,81.665371,45.838325,69.336387,78.774536,77.953388,37.502117,60.623176,70.891422,71.202049,30.542106,50.210723,60.498973,63.372894,-5.801637,-16.064577,-21.817958,-25.771788,-48.036078,-53.14381,-41.168108,-31.645203,-48.79596,-54.415084,-38.221727,-25.983039,-44.889422,-49.642719,-33.802006,-22.149132,-36.682888,-41.560167,-31.982388,-23.762229,113.935845,278.438091,26.53172,19.26523
42,-0.371247,-0.619233,-1.968224,-34.695414,-28.418632,-54.865791,-78.899505,-94.810901,-62.312187,-98.741878,-117.272884,-131.295295,-55.874748,-96.356529,-116.509872,-132.530387,-49.828697,-86.797142,-106.467876,-121.384483,-44.356475,-72.189033,-87.965709,-100.538612,-15.982106,-15.283548,-2.032318,12.284528,16.684504,26.768717,30.143797,31.728893,33.773856,42.718749,44.482724,44.633136,44.213789,54.725537,56.611172,56.035856,49.939596,61.687587,63.388107,63.278771,35.223381,56.859787,72.192947,81.113251,42.122303,57.65403,69.036381,73.164082,33.768654,53.977982,67.615471,70.087429,26.346783,46.338409,60.656467,64.189064,20.719723,37.698463,50.727047,56.405685,-8.635406,-23.367878,-33.672981,-42.836545,-57.562178,-72.407171,-62.214957,-51.498238,-59.07376,-75.148278,-60.097804,-46.263751,-56.211397,-70.456757,-55.48867,-41.717022,-48.960494,-60.578639,-52.437477,-43.27095,116.062454,281.227608,27.061352,-12.021434
43,0.028153,-0.228193,-3.323261,-20.265003,-27.587471,-53.556221,-77.277123,-92.862476,-60.599075,-97.073982,-115.873409,-130.115913,-54.378021,-94.733311,-115.047478,-131.230888,-48.580055,-85.301136,-105.092926,-120.272884,-43.30909,-70.896813,-86.580036,-99.267437,-16.013364,-15.560326,-2.566063,11.779818,16.451792,26.415974,29.831007,31.477841,33.389115,42.226809,44.131204,44.451825,43.774274,54.153481,56.273756,56.085392,49.461994,61.228461,63.048307,63.107637,34.167583,53.464176,67.933994,76.660434,36.519218,48.500278,60.622627,65.735985,28.668674,45.413532,59.991611,63.816124,21.384727,38.418674,53.333793,57.994617,15.777443,30.492611,43.965042,50.815212,-12.045813,-28.893169,-41.348545,-53.227633,-59.169745,-77.313872,-69.097319,-58.457207,-60.865171,-80.750146,-68.075099,-54.256268,-59.150143,-77.794207,-64.766602,-50.336589,-53.537669,-68.702511,-62.457908,-53.111317,118.392031,284.005079,26.039515,-29.280773
44,0.057312,-0.10626,-0.929512,-12.446966,-26.848618,-52.411789,-75.960182,-91.455792,-59.152519,-95.617939,-114.644222,-128.947025,-53.044121,-93.29797,-113.829586,-130.188973,-47.452057,-83.988796,-103.996937,-119.377453,-42.351151,-69.832878,-85.54731,-98.344185,-16.000656,-15.730819,-3.023473,11.449181,16.288363,26.111199,29.561417,31.26826,33.081499,41.777044,43.868827,44.429916,43.397757,53.562345,55.931868,56.112056,49.02632,60.795393,62.897241,63.297136,32.218002,50.006698,63.879707,72.646339,31.302383,40.838287,53.911285,60.00547,23.553611,37.495971,52.775139,57.660415,16.011612,30.486671,46.052879,51.643615,9.938152,23.079757,37.252258,45.199951,-14.441618,-32.818176,-46.67453,-60.431108,-60.076266,-80.949652,-74.10147,-63.231712,-61.450811,-84.134649,-73.54558,-60.159795,-60.132693,-81.799795,-71.104512,-56.830386,-55.458088,-73.290335,-69.295627,-60.310145,120.683012,286.528834,27.343672,-39.097724
45,0.05587,0.161984,2.963585,-4.066431,-26.161125,-51.3853,-74.731659,-90.23362,-58.020927,-94.398182,-113.505558,-127.765869,-52.004334,-92.011459,-112.649403,-129.126263,-46.552986,-82.714542,-102.85247,-118.409328,-41.532555,-68.761253,-84.49165,-97.40934,-16.104631,-15.986614,-3.561221,10.787846,16.257265,25.910646,29.369064,31.142029,32.873301,41.375826,43.508056,44.265128,43.107036,53.069008,55.632724,56.203076,48.678936,60.332585,62.662305,63.448709,29.950744,46.516571,59.821563,68.420883,25.684753,33.899917,48.168869,55.338226,17.66288,30.040786,45.924133,51.750251,9.707496,22.58274,38.956626,45.429016,3.177532,15.724182,30.691841,39.468681,-16.496209,-35.630426,-49.996851,-64.688546,-60.978044,-84.165877,-78.052527,-66.403757,-61.326489,-85.259572,-76.555821,-63.972556,-59.54754,-82.394693,-74.417206,-60.955425,-55.034376,-74.234765,-72.357398,-64.036524,122.415802,287.999093,31.984177,-41.85588
46,-0.026665,0.071643,3.902423,-2.875711,-25.407326,-50.320335,-73.580932,-89.15617,-56.597557,-93.059509,-112.435867,-126.798671,-50.714447,-90.772419,-111.67939,-128.37799,-45.496559,-81.531463,-101.906627,-117.64912,-40.743095,-67.85273,-83.582233,-96.547371,-16.143411,-16.10888,-3.953262,10.455431,16.318077,25.860047,29.297458,31.075993,32.768078,41.217424,43.382937,44.219902,42.928133,52.817486,55.526699,56.359502,48.444371,60.124783,62.596059,63.625068,28.995862,44.808918,57.361142,64.630543,23.349232,30.632229,44.49226,51.484486,15.311062,26.980443,42.465146,48.113881,7.382229,19.708134,35.578022,41.932126,0.79287,12.211476,26.765706,35.440121,-16.553531,-36.168278,-51.06467,-65.590423,-60.306483,-83.17254,-77.434053,-66.745149,-60.595111,-83.609823,-75.615794,-64.177536,-58.914549,-80.739324,-73.914243,-61.941943,-54.800434,-73.731054,-72.418036,-64.882201,124.046098,288.238289,37.543561,-44.564038
47,-0.078483,0.043657,6.52121,-0.188518,-24.820954,-49.379013,-72.378159,-87.871788,-55.347176,-91.610436,-111.214566,-125.821141,-49.608513,-89.457196,-110.668522,-127.734558,-44.59964,-80.394539,-100.95805,-116.973507,-40.000855,-66.937157,-82.674752,-95.803597,-16.199714,-16.192551,-4.249848,10.020091,16.321029,25.755183,29.170401,30.906551,32.606626,40.946192,42.99948,43.779968,42.697742,52.505943,55.315501,56.341088,48.210585,59.899468,62.460727,63.673481,27.967747,43.113453,54.857632,62.674587,23.40453,31.695088,45.572399,54.125942,15.232556,27.267094,43.386715,51.251141,7.644436,20.301052,36.160252,44.08968,1.84235,13.00375,26.785687,35.87447,-14.655256,-33.276877,-47.286829,-60.051133,-59.303558,-80.704358,-76.897633,-68.668026,-59.910033,-81.776768,-76.263679,-67.330679,-57.813335,-78.605162,-74.164943,-65.136045,-53.153902,-71.41729,-71.732304,-66.541188,125.453619,288.18498,45.550775,-44.849522
48,-0.816445,0.015215,9.668827,3.835254,-24.470169,-48.872429,-71.685585,-87.170448,-54.725395,-90.765873,-110.401897,-125.072925,-48.863731,-88.540981,-109.961735,-127.339336,-43.797981,-79.364433,-100.036846,-116.243019,-39.08876,-65.996933,-81.841667,-95.149235,-16.31846,-16.237579,-4.529787,9.918833,16.135976,25.519297,29.089977,30.973859,32.331578,40.747109,42.956415,44.024475,42.448592,52.29267,55.311326,56.673751,47.999744,59.720047,62.484847,64.042279,27.540024,43.841023,55.982575,65.29961,27.915207,37.396042,51.412995,61.48478,19.200932,31.177826,47.104775,56.313469,11.109158,22.988079,38.412151,47.600258,4.782303,14.282788,26.741799,35.859787,-10.717371,-27.150526,-38.84883,-48.697101,-56.431769,-77.278359,-76.061151,-70.919558,-57.209639,-79.204784,-76.84824,-71.369373,-54.402598,-74.922637,-73.69694,-68.583914,-48.523252,-65.754571,-67.677541,-65.250176,125.744814,287.505379,56.327242,-41.709084
49,-0.735992,-0.280248,12.306015,6.807661,-24.236046,-48.507866,-71.083351,-86.683113,-53.942414,-89.74276,-109.529034,-124.433716,-48.214394,-87.684483,-109.369412,-127.076992,-43.229897,-78.670441,-99.517822,-115.938652,-38.551529,-65.385613,-81.279305,-94.722519,-16.33822,-16.11666,-4.44141,9.780253,15.918701,25.503946,29.156198,31.092506,32.047143,40.618483,42.855787,43.964713,42.212483,52.03995,55.28486,56.868005,47.783667,59.558643,62.550105,64.333062,28.561318,47.189656,60.813149,72.128002,36.438309,47.79895,61.689629,72.851853,26.803379,38.692635,53.321251,62.640541,17.585072,28.07182,41.934208,51.31588,9.796578,16.682179,26.753197,34.72387,-6.392643,-19.359223,-27.391349,-33.303235,-52.53231,-73.391911,-75.312389,-73.578098,-53.455479,-76.166178,-77.978735,-76.670855,-49.838544,-70.573042,-73.358368,-72.685906,-42.433135,-58.186804,-61.185936,-61.142142,125.903916,286.064711,69.528351,-36.061843
50,-0.749359,-0.273887,9.189354,7.218074,-24.284661,-48.555382,-70.958702,-86.673146,-53.286095,-88.852948,-108.855812,-124.082085,-47.698677,-86.912304,-108.913239,-127.037991,-42.842469,-78.006203,-99.06379,-115.784031,-38.221962,-64.820984,-80.742691,-94.331063,-16.190464,-15.901781,-4.207118,9.914905,15.732905,25.420137,29.182244,31.253427,31.797732,40.401664,42.696618,43.961859,41.971372,51.721836,55.211784,57.034459,47.495403,59.412368,62.758993,64.880861,29.882103,51.046818,66.326683,79.532879,45.130989,59.142357,73.17199,85.451271,34.988194,47.079552,61.198105,71.773796,25.130413,34.627499,47.558659,57.788132,16.254753,21.523121,30.037811,37.664635,-2.280288,-12.192501,-16.670274,-18.92903,-48.977679,-69.250833,-74.212713,-76.20945,-50.250021,-73.508363,-79.546794,-82.497056,-46.060642,-67.137749,-73.830494,-77.480561,-37.295946,-52.462616,-57.617299,-60.717429,125.729359,284.616282,79.292507,-30.018311
51,-1.068352,-0.200171,5.223267,6.086738,-24.13662,-48.392304,-70.528999,-86.117592,-52.795807,-87.855984,-107.873154,-123.261955,-47.281632,-86.068348,-108.260193,-126.636337,-42.442291,-77.192963,-98.232765,-115.01318,-37.71096,-64.010376,-79.865822,-93.510853,-15.959282,-15.579468,-3.834441,10.117089,15.639713,25.508231,29.464222,31.629228,31.545235,40.243399,42.752417,44.265536,41.673847,51.410664,55.239239,57.375062,47.106772,59.125304,62.860821,65.356735,30.235931,53.601459,70.903953,86.732426,52.090118,68.750679,83.3153,97.247383,41.421467,53.84935,67.357681,79.019645,30.555713,39.569561,51.700023,62.73349,20.550293,24.866489,32.230339,39.827179,0.430197,-6.425322,-7.539345,-7.148477,-46.680532,-66.389158,-74.900718,-80.603887,-48.414299,-72.342565,-82.600204,-89.969442,-43.67962,-65.4113,-75.624775,-83.304297,-33.650133,-48.440181,-55.673551,-61.406181,124.914631,283.302776,84.769398,-25.044908
52,-0.751946,0.189908,0.115814,3.707266,-23.827743,-48.075943,-70.103508,-85.887348,-52.018363,-86.762615,-106.956871,-122.572334,-46.695694,-85.178157,-107.611084,-126.208019,-42.060173,-76.476379,-97.667861,-114.532699,-37.489883,-63.481338,-79.302543,-92.968322,-15.770277,-15.422302,-3.775186,9.8391,15.46875,25.45804,29.555167,31.835338,31.330998,40.184117,42.802952,44.440227,41.438898,51.249915,55.254577,57.562338,46.787262,58.899617,62.795216,65.390648,30.676231,56.098171,75.56424,92.406475,56.453316,72.934227,87.003387,100.274666,45.644932,57.388802,69.474518,79.882393,33.92133,42.275997,53.232502,63.115173,22.488899,25.438763,31.682579,38.661919,0.876708,-4.594076,-4.041135,-3.038642,-44.846872,-65.298621,-75.605469,-83.112047,-46.850506,-71.724548,-83.963196,-93.15669,-42.573954,-65.17692,-77.136796,-86.302292,-32.675601,-47.924312,-56.364223,-63.406351,124.244218,282.629611,84.966745,-22.200715
53,-0.312332,0.314285,-5.871872,-0.264696,-23.539169,-47.759056,-69.716606,-85.649048,-51.388115,-85.801243,-106.190883,-122.054523,-46.202156,-84.396743,-107.026428,-125.80466,-41.698242,-75.835716,-97.156963,-114.113731,-37.188286,-62.988144,-78.769821,-92.408386,-15.706045,-15.374779,-3.653575,9.689862,15.369887,25.331538,29.412943,31.661412,31.16153,39.987825,42.633793,44.310564,41.230157,51.02623,55.170868,57.632079,46.52297,58.666818,62.72361,65.468305,30.714546,56.620377,77.01606,94.300575,56.558327,71.820694,85.419022,98.219399,46.23127,57.082169,69.509903,80.160187,34.550285,42.318832,53.592064,63.669479,22.907639,25.441727,31.757034,39.345245,0.295674,-5.129582,-4.863623,-4.629274,-43.770933,-64.251415,-75.218201,-83.203623,-46.270207,-70.982679,-83.19704,-91.58542,-42.897313,-65.953849,-78.12257,-86.669636,-33.899821,-49.656519,-59.142155,-66.695687,124.12445,283.140302,79.287437,-22.269005
54,-0.269851,0.553506,-14.851627,-2.672613,-23.321824,-47.532601,-69.472046,-85.488099,-50.74997,-85.1292,-105.668026,-121.670666,-45.51606,-83.71661,-106.416241,-125.2454,-41.09578,-75.112816,-96.457249,-113.379948,-36.741555,-62.39161,-78.117623,-91.666993,-15.688705,-15.297109,-3.695503,9.499955,15.262441,25.117955,29.285034,31.576085,31.091567,39.87061,42.541044,44.253531,41.143015,50.991366,55.136424,57.654568,46.376572,58.569611,62.622574,65.337493,30.816776,55.795498,75.934032,93.031437,51.911144,66.720485,80.814228,93.466037,42.056843,54.405796,69.088611,81.28989,30.972599,41.156582,55.148037,67.00526,20.414852,25.991031,35.061619,45.238414,-2.430947,-10.482262,-12.368151,-13.716582,-49.371826,-70.143374,-78.524992,-83.561578,-51.733779,-76.138888,-84.430844,-88.792356,-48.495754,-71.801626,-80.489452,-85.450017,-39.457309,-56.236174,-65.06988,-71.415432,124.070984,284.610456,64.652195,-24.02497
55,-0.172532,0.438934,-14.651734,-2.553108,-23.03833,-47.202438,-69.074203,-85.012184,-50.163871,-84.535572,-105.183734,-121.285743,-44.866035,-83.193729,-105.999103,-124.830825,-40.444679,-74.567893,-95.978164,-112.875904,-36.137214,-61.831993,-77.56533,-91.033081,-15.754296,-15.17751,-3.653105,9.39099,15.294515,25.139506,29.332162,31.561327,31.098335,39.92384,42.595385,44.257273,41.111263,51.061712,55.204881,57.746997,46.316909,58.534302,62.54099,65.152613,30.084675,54.172589,74.159718,91.871739,46.672886,59.888157,74.205059,86.664105,37.061497,50.076565,66.175473,78.369175,26.467736,38.471157,54.352467,66.482815,16.808476,25.131535,36.432026,47.717755,-5.87607,-16.413439,-21.010584,-24.796063,-54.223105,-75.938038,-82.08197,-83.881463,-56.504931,-81.377138,-85.755533,-85.348949,-53.444698,-77.345157,-82.471312,-82.904263,-44.82978,-61.904714,-68.944551,-72.647273,124.303602,286.089853,50.405611,-25.537615
56,0.06997,0.374281,-11.589477,-2.668686,-23.033318,-47.164513,-69.024124,-84.991871,-49.901802,-84.388321,-105.17688,-121.446911,-44.619439,-83.056172,-105.95485,-124.865353,-40.208748,-74.389733,-95.946476,-112.999386,-35.923485,-61.590638,-77.367119,-90.841507,-15.894358,-15.264034,-3.876048,9.12313,15.157627,24.938015,29.134413,31.356724,31.042735,39.877342,42.479801,44.0811,41.104298,51.076039,55.170696,57.711997,46.36631,58.59031,62.52007,64.992951,30.659786,53.218883,72.140888,88.178798,40.724956,52.60548,67.596233,79.305439,31.545627,46.039158,63.663082,75.366565,21.951084,36.381237,54.235828,66.324589,13.933239,25.519947,39.334133,51.77148,-9.875466,-22.777239,-29.878011,-36.926611,-58.679768,-81.10924,-84.123494,-81.735958,-60.203904,-84.566387,-84.251441,-78.636877,-57.100513,-80.646761,-81.792892,-77.232278,-48.860835,-66.353436,-71.235164,-71.800903,124.850693,287.44805,39.293255,-27.222385
57,-0.130669,0.085068,-6.754441,-2.232741,-23.168678,-47.326561,-69.248154,-85.010673,-49.767036,-84.468178,-105.290039,-121.556282,-44.450226,-83.207886,-106.174141,-125.079311,-39.984421,-74.410606,-96.015667,-113.093376,-35.664597,-61.475212,-77.293465,-90.749004,-16.056626,-15.326736,-3.93838,9.318322,15.00803,24.817972,28.998524,31.211116,30.937512,39.746023,42.329475,43.936517,41.032642,51.003815,55.146637,57.780416,46.313636,58.589816,62.621834,65.190935,31.334027,52.425786,69.897549,84.031483,35.509381,46.587262,61.74812,72.162358,26.46587,41.91782,60.060048,70.325993,17.630345,33.251187,52.23602,63.626301,10.930104,24.493367,40.18182,52.715001,-12.823924,-28.168833,-37.787627,-47.216538,-62.666812,-85.498607,-84.913522,-78.719981,-63.523179,-87.815588,-82.96458,-73.253908,-60.289644,-83.366952,-80.633434,-72.12369,-52.332091,-69.886331,-72.415443,-70.141527,125.230339,288.406429,33.049129,-28.581815
58,-0.228195,-0.042929,0.554924,-0.248953,-23.349999,-47.572792,-69.560555,-85.121178,-49.781616,-84.685822,-105.456494,-121.630211,-44.446175,-83.483734,-106.403217,-125.226437,-39.921387,-74.591812,-96.128483,-113.12764,-35.563706,-61.457932,-77.239472,-90.664456,-16.205939,-15.428835,-4.068167,9.389434,14.797795,24.707451,28.906084,31.170015,30.800019,39.602404,42.183448,43.881831,40.957665,50.925034,55.088321,57.839116,46.286194,58.587605,62.682979,65.356364,31.373326,50.772389,66.87695,79.665493,30.134823,42.009511,58.124257,68.369763,20.894566,38.670285,57.458348,67.149136,12.553288,30.774228,50.886693,61.95171,6.892354,22.752606,40.234211,53.054341,-15.934767,-33.811036,-45.173248,-56.022962,-67.472983,-90.206879,-86.231906,-76.770038,-67.578625,-91.291339,-82.836881,-70.558534,-63.997781,-86.257254,-80.220583,-69.043253,-55.981398,-73.762929,-74.46471,-70.254999,125.287657,288.864207,33.889566,-28.330061
59,-0.217735,-0.102049,8.639409,0.05368,-23.313561,-47.595681,-69.696328,-85.188126,-49.849045,-84.734654,-105.48832,-121.632122,-44.612984,-83.658692,-106.580658,-125.484307,-40.104355,-74.756424,-96.269246,-113.290673,-35.685585,-61.493248,-77.241143,-90.737492,-16.425449,-15.760273,-4.418057,9.199527,14.522783,24.612479,28.851658,31.163963,30.564713,39.356601,41.940238,43.763826,40.810292,50.685368,54.896746,57.811267,46.258605,58.459399,62.6432,65.548384,30.889206,49.325203,63.808982,75.087936,27.558929,40.461914,57.05928,67.984886,18.975105,37.759346,57.116592,67.31948,12.199379,31.508079,51.809486,62.890113,8.58982,24.91706,42.176628,54.316955,-16.04611,-33.747959,-45.332762,-56.709084,-66.54572,-87.788165,-84.307658,-75.346494,-66.299466,-88.490113,-81.323848,-70.102674,-62.224167,-82.933662,-77.78419,-67.36153,-54.318917,-71.389336,-72.860342,-69.379249,125.154356,288.958086,42.613409,-28.080453
60,-0.086518,-0.198552,12.110183,0.337343,-23.248535,-47.579429,-69.745697,-85.295631,-50.089416,-84.839847,-105.563965,-121.697113,-44.923324,-83.631592,-106.468471,-125.442398,-40.384506,-74.672859,-96.04731,-113.05109,-35.8442,-61.464271,-77.098663,-90.625202,-16.605513,-16.109485,-4.768589,8.856763,14.123196,24.371282,28.702542,31.207114,30.159099,38.959558,41.670524,43.732593,40.500255,50.36413,54.769145,57.982933,46.094472,58.180324,62.502421,65.760471,28.506775,45.799485,59.30951,69.884651,29.509255,44.905632,61.651017,72.686852,22.544403,42.864212,61.798943,72.753205,16.781536,36.501343,55.726204,66.908089,13.305085,28.225296,43.203255,53.67025,-16.433477,-33.139718,-43.802921,-54.109781,-63.526323,-83.633073,-82.761818,-77.369735,-62.20936,-82.567131,-79.496314,-73.405062,-57.132396,-75.797878,-74.424771,-69.245245,-48.457123,-63.964066,-67.140032,-66.593275,124.810467,288.227492,54.466221,-28.275152
61,-0.475754,-0.329426,21.876343,3.496215,-23.194084,-47.548187,-69.658378,-85.312614,-50.045105,-84.518394,-105.236881,-121.403205,-44.934425,-83.240284,-106.054355,-125.209556,-40.446762,-74.417953,-95.783214,-112.861393,-35.894371,-61.356788,-76.952316,-90.586853,-16.785219,-16.460375,-5.147107,8.523718,13.878701,24.188315,28.571878,31.196394,29.986494,38.737281,41.49603,43.734964,40.405036,50.214978,54.782026,58.195058,46.052148,58.036199,62.531406,66.076596,27.836334,46.504532,60.691773,72.696488,37.326737,54.71521,71.052933,82.869461,29.647339,48.906441,66.344696,76.973259,22.417992,39.252457,56.028786,66.55156,16.798004,28.043312,39.848099,48.383125,-10.113136,-22.71303,-28.88344,-33.811092,-55.144766,-74.499741,-76.360615,-74.362662,-54.832488,-76.03616,-77.486078,-75.881784,-49.731985,-69.075221,-71.447382,-70.71378,-40.567384,-55.016134,-59.395344,-61.215505,123.936756,286.345494,75.944607,-26.331509
62,-0.388229,-0.410393,20.049957,6.206985,-23.189209,-47.531136,-69.643593,-85.295334,-49.796791,-84.287453,-105.123791,-121.4179,-44.620239,-82.938538,-105.857906,-125.18803,-40.079384,-74.079552,-95.526867,-112.656944,-35.520859,-61.074531,-76.722839,-90.424919,-16.905497,-16.722173,-5.445695,8.268454,13.367,23.816294,28.417082,31.287674,29.59901,38.381759,41.339282,43.837506,40.20983,49.9516,54.686597,58.289239,46.045565,57.921701,62.509164,66.228749,27.263283,47.263939,62.420563,76.290734,44.750588,64.491532,81.019867,94.493775,36.132408,55.153588,71.725914,83.446015,27.08313,41.866036,56.71621,67.505425,18.868195,26.969262,36.330094,43.851036,-4.660896,-13.04982,-14.91714,-15.413841,-47.533164,-66.562819,-71.884544,-73.532187,-47.866307,-69.609029,-76.091291,-79.549968,-42.348704,-62.138402,-68.945811,-72.805113,-32.181629,-45.947457,-51.669281,-55.291844,123.045135,283.800389,95.491172,-22.259236
63,-0.30471,-0.240629,16.126282,5.4015,-23.149086,-47.527932,-69.62558,-85.282643,-49.404808,-83.687165,-104.659138,-121.05193,-44.192734,-82.309548,-105.427288,-124.9571,-39.685547,-73.481896,-95.061219,-112.286122,-35.26426,-60.730866,-76.447907,-90.227211,-16.877327,-16.785652,-5.585498,8.145756,12.94953,23.722223,28.517674,31.498625,29.289566,38.319193,41.383014,43.925995,40.037769,49.942461,54.833353,58.457151,45.979887,57.878117,62.50573,66.237863,26.653496,48.376602,64.512543,79.168671,52.464501,73.845131,90.060585,104.228005,43.116875,61.130447,76.037499,87.901062,32.453682,44.436768,56.71376,67.178513,22.00621,26.72905,33.218697,39.211487,1.11646,-2.71025,-0.287473,3.200067,-40.156114,-59.209648,-68.02644,-73.375927,-41.198152,-64.417468,-75.813074,-84.301385,-35.168163,-55.73494,-66.870287,-75.352249,-23.768925,-36.959826,-43.86251,-49.353165,122.233349,281.105919,111.110378,-19.311577
64,-0.081253,0.265156,13.492859,3.854374,-22.875779,-47.229103,-69.323044,-84.908455,-48.994767,-83.188191,-104.285683,-120.768368,-43.851288,-81.856522,-105.15429,-124.790497,-39.47509,-73.095681,-94.785599,-112.054299,-35.220498,-60.626862,-76.358941,-90.115723,-16.767324,-16.891825,-5.936228,7.700202,12.745754,23.444223,28.316627,31.40784,29.119901,38.153443,41.246941,43.821204,39.904005,49.840869,54.796155,58.409048,45.866366,57.719246,62.301028,65.928371,25.720757,48.854118,66.624779,82.361046,58.31147,80.089508,95.894829,109.993858,47.70282,64.105293,76.871132,87.76284,34.539597,43.33287,52.812859,62.07724,20.744133,21.981354,25.949661,30.275642,4.895517,4.284515,10.133422,16.580696,-33.636882,-53.320511,-64.27672,-72.447312,-35.531224,-60.576117,-74.910981,-87.081672,-29.89895,-51.680303,-65.762583,-77.573862,-18.354186,-31.463187,-38.832907,-45.234937,121.636076,278.827872,124.087217,-18.000406
65,-0.301758,0.554926,11.189323,2.835659,-22.660332,-46.999054,-69.089356,-84.706787,-48.446205,-82.628277,-103.755524,-120.263752,-43.323075,-81.526966,-104.921105,-124.607632,-39.065186,-72.923287,-94.797341,-112.137406,-35.006905,-60.612213,-76.469994,-90.264748,-16.88339,-17.144471,-6.302519,7.346373,12.512004,23.156676,28.050853,31.137719,29.036798,37.99619,40.946315,43.397831,39.880454,49.674057,54.472212,57.904424,45.864538,57.606848,62.055076,65.429292,27.345337,52.104081,70.784363,86.397812,61.096642,82.550515,98.190926,112.65001,48.081963,62.739922,74.261673,84.211052,32.514977,38.787598,46.837166,55.467339,16.798966,15.578339,18.709488,22.947144,9.821218,11.864391,20.455843,29.650461,-29.476269,-49.389696,-59.900666,-67.580941,-33.047511,-59.670849,-74.000248,-86.196634,-28.266245,-51.586034,-65.846594,-77.387011,-16.914845,-30.865375,-37.930085,-43.579822,121.023331,277.479481,134.965553,-17.068064
66,0.055458,0.759703,0.754601,0.092076,-22.371872,-46.666557,-68.916504,-84.515728,-47.891922,-82.358883,-103.599301,-120.110012,-42.77758,-81.408314,-104.910999,-124.548615,-38.59639,-72.800469,-94.821522,-112.158199,-34.719727,-60.634895,-76.601372,-90.335655,-17.046658,-17.372453,-6.615136,7.010043,12.056212,22.770884,27.74325,30.883826,28.683301,37.698935,40.584816,42.9288,39.645469,49.42335,54.08563,57.38945,45.775766,57.456412,61.689316,64.828287,26.589775,50.887115,69.42746,84.801063,59.223221,81.015266,96.810905,111.514801,46.146721,61.59874,73.102386,83.973953,30.527367,37.334083,45.436958,54.844414,14.659996,13.22596,16.374184,20.983475,9.088692,10.650217,18.694079,27.571479,-30.253138,-50.2209,-61.030328,-69.316739,-34.023507,-60.399164,-74.947179,-88.13254,-29.326314,-52.259954,-67.129218,-79.614028,-17.912034,-32.461765,-40.012735,-46.015709,120.878655,277.326241,135.52002,-17.888931
67,-0.005333,0.82564,0.563415,-2.497896,-22.125046,-46.339142,-68.589363,-84.250179,-47.465332,-81.906384,-103.183994,-119.71098,-42.50029,-81.037296,-104.527771,-124.210281,-38.532715,-72.58786,-94.656773,-112.064953,-34.824806,-60.643478,-76.614853,-90.318729,-17.106284,-17.599287,-6.971066,6.619163,12.028548,22.622844,27.519652,30.515312,28.688192,37.545103,40.254414,42.413357,39.643604,49.289994,53.780015,56.895397,45.796835,57.400429,61.470633,64.405766,25.835038,50.084427,68.690438,83.766449,58.528542,80.443703,96.249024,110.956559,45.705254,61.51529,72.90358,84.024605,30.247399,37.378075,45.414277,55.161164,14.413743,12.996941,15.97593,20.729165,9.133627,10.312294,18.258312,27.316776,-30.713167,-50.357962,-61.003146,-69.311744,-34.863406,-60.951239,-75.232145,-88.560119,-30.406478,-53.061197,-67.753398,-80.537846,-19.120602,-33.714521,-41.197096,-47.330407,120.833839,277.747891,136.043952,-20.790817
68,-0.101692,0.694692,0.233483,-2.496847,-21.958626,-46.023972,-68.206444,-84.039757,-47.203583,-81.641178,-102.898648,-119.508854,-42.36882,-80.737564,-104.149315,-123.874947,-38.533219,-72.390564,-94.497265,-111.970734,-34.821945,-60.532105,-76.530785,-90.224076,-17.221547,-17.899308,-7.368726,6.154392,11.998982,22.231594,27.099304,30.122246,28.670988,37.230423,39.874069,42.016018,39.654324,49.039572,53.406869,56.464194,45.907998,57.356574,61.323421,64.141796,25.676101,50.010589,68.781189,84.020325,58.473495,80.443268,96.248153,110.981323,45.733795,61.919746,73.330856,84.522491,30.330826,38.026817,46.266151,56.129471,14.384285,13.216965,16.288444,21.140854,9.039574,9.969776,17.697501,26.759022,-30.807028,-50.463975,-61.050212,-69.40474,-35.122474,-60.829985,-75.037959,-88.551826,-30.893126,-53.228121,-67.923786,-80.863073,-19.910365,-34.465913,-41.908091,-48.055622,120.77056,278.347494,136.315848,-23.382753
69,-0.396492,0.342789,0.6725,-1.434506,-21.932579,-45.931114,-68.011322,-83.918988,-46.996834,-81.344136,-102.532643,-119.157521,-42.169327,-80.311558,-103.611901,-123.354,-38.296097,-71.990639,-94.100327,-111.662625,-34.465782,-60.057678,-76.099503,-89.874974,-17.375788,-18.126154,-7.504626,6.079489,11.822759,22.038586,26.934974,29.945566,28.606076,37.115851,39.726757,41.800842,39.68741,48.931274,53.229757,56.242559,46.050852,57.419967,61.408352,64.215785,25.656739,49.885117,68.631363,83.967682,58.646416,80.720581,96.416268,111.143166,46.031296,62.491951,73.756234,85.008797,30.664856,38.704445,46.959206,56.858963,14.552353,13.361344,16.370018,21.27752,9.007755,9.832599,17.194118,26.361937,-30.608777,-50.232151,-60.659646,-68.890204,-35.269563,-60.496712,-74.608521,-88.142081,-31.406883,-53.385892,-68.034646,-80.967628,-20.736887,-35.376224,-42.719163,-48.78658,120.476572,278.690097,137.090852,-24.817445
70,-0.307686,0.321337,0.478592,-1.343849,-21.825966,-45.759682,-67.817505,-83.694718,-46.846161,-81.151554,-102.31366,-118.904343,-42.007805,-79.913155,-103.14045,-122.837769,-38.077629,-71.543244,-93.606331,-111.155285,-34.127449,-59.567986,-75.579209,-89.334618,-17.451593,-18.247012,-7.648332,5.937561,11.687957,21.899907,26.810065,29.791338,28.502224,37.054582,39.695326,41.777809,39.64064,48.912514,53.196325,56.21713,46.068895,57.398749,61.350096,64.14287,25.710938,50.054238,68.971505,84.488915,59.11686,81.350853,97.062355,111.826401,46.654999,63.46978,74.838936,86.216126,31.325203,39.847344,48.219292,58.141938,15.029869,14.157029,17.32029,22.285149,9.093995,9.873273,17.043811,25.995207,-30.292184,-49.849885,-60.162371,-68.327498,-35.160864,-60.248358,-74.302987,-87.797848,-31.607653,-53.420387,-67.980634,-80.797037,-21.30622,-35.985504,-43.058093,-48.804778,120.230312,278.998087,137.63087,-26.174641
71,0.059166,0.41395,0.291024,-0.836842,-21.710106,-45.652107,-67.743828,-83.372395,-46.816223,-81.005974,-102.139389,-118.708615,-42.000733,-79.766773,-102.94994,-122.611473,-38.013886,-71.335968,-93.312504,-110.830742,-33.969567,-59.3657,-75.285965,-88.989796,-17.611847,-18.516565,-7.988564,5.710715,11.436547,21.473632,26.350408,29.34734,28.306648,36.680239,39.354266,41.534476,39.498293,48.62367,52.872061,55.986517,45.944468,57.13615,61.028834,63.861053,25.807731,50.266616,69.326957,85.030197,59.594284,81.957138,97.769508,112.598259,47.265541,64.283569,75.811019,87.325859,31.998527,40.980629,49.600227,59.63784,15.584449,15.15628,18.668563,23.869949,9.037185,9.701626,16.63981,25.408769,-30.202719,-49.687938,-59.953018,-68.143197,-35.080434,-59.964324,-73.991029,-87.470409,-31.669508,-53.278107,-67.770966,-80.479516,-21.566726,-36.293551,-43.321452,-48.953281,120.247204,279.37398,137.87962,-27.04954
72,0.226936,0.372466,-0.209793,0.073156,-21.648331,-45.640594,-67.724785,-83.290512,-47.045837,-81.127441,-102.162678,-118.628689,-42.118103,-79.766132,-102.838119,-122.376274,-37.965225,-71.239906,-93.11824,-110.555775,-33.788795,-59.228599,-75.091301,-88.7612,-17.696729,-18.572535,-8.087686,5.558463,11.230387,21.23404,26.087907,29.125706,28.064377,36.454393,39.156924,41.413396,39.248957,48.389228,52.644499,55.839082,45.639631,56.721409,60.575314,63.439891,25.87738,50.534912,69.694381,85.717483,59.951797,82.558296,98.442443,113.351303,47.617034,64.869346,76.611579,88.33081,32.335899,41.809684,50.838706,61.181304,15.779502,15.822166,19.749893,25.30458,8.903835,9.448535,16.13792,24.765546,-30.063985,-49.583803,-59.851321,-68.153757,-34.888365,-59.526619,-73.491889,-86.972053,-31.632828,-53.044135,-67.382544,-79.984926,-21.778111,-36.607997,-43.709245,-49.375191,120.192427,279.688861,137.388114,-27.033969
73,0.419792,0.46503,-0.785248,1.303218,-21.472641,-45.55989,-67.75653,-83.159454,-47.071197,-81.357067,-102.387348,-118.685611,-42.093383,-79.998573,-103.063625,-122.458419,-37.851265,-71.3852,-93.211921,-110.555122,-33.677513,-59.256569,-75.089401,-88.70811,-17.807794,-18.712289,-8.251695,5.465381,10.890068,21.090631,25.944189,28.976887,27.757094,36.268376,38.963769,41.188439,38.949332,48.12532,52.397806,55.63869,45.292865,56.296739,60.123066,62.994621,25.959617,50.897415,70.194236,86.541252,60.132499,82.9067,99.012085,114.130645,47.999061,65.495865,77.603119,89.677299,32.947838,42.911087,52.366241,63.0046,16.499977,17.298935,21.829239,27.850868,8.56062,8.82895,15.212689,23.473875,-30.126007,-49.657662,-59.875207,-68.133836,-34.893571,-59.282816,-73.180321,-86.57351,-31.867992,-53.047822,-67.034265,-79.232324,-22.386587,-37.150154,-44.110641,-49.538101,120.013933,280.073054,136.00458,-25.811588
74,0.523659,0.45452,-1.440125,3.286789,-21.435356,-45.600311,-67.853508,-83.187904,-47.365883,-81.750309,-102.765541,-118.942783,-42.295212,-80.350914,-103.36092,-122.658737,-37.954742,-71.640839,-93.359562,-110.593014,-33.775246,-59.500122,-75.291092,-88.809688,-17.959181,-18.826144,-8.425918,5.317773,10.697568,20.962363,25.759061,28.77074,27.535077,36.052138,38.704862,40.944327,38.691289,47.883295,52.191436,55.516869,44.957301,55.880282,59.65238,62.54267,25.919861,51.09066,70.604691,87.364128,59.800575,82.616295,98.938294,114.212013,48.509628,66.543984,79.392403,92.015328,34.217674,45.349617,55.882096,67.315018,18.24868,20.632851,26.400536,33.419655,7.928049,7.593442,13.320706,20.684992,-31.157109,-50.382816,-60.506493,-68.636089,-35.658535,-59.434636,-72.893805,-85.732901,-33.053637,-53.914822,-67.343727,-78.948544,-24.355703,-39.014559,-46.11795,-51.677494,119.518959,280.354246,133.545822,-22.698127
75,0.459457,0.434439,-2.7705,5.266242,-21.463645,-45.610862,-67.944946,-83.358707,-47.497352,-81.953487,-102.98521,-119.141864,-42.375686,-80.639259,-103.651943,-122.915794,-38.026153,-71.893386,-93.608528,-110.824893,-33.956748,-59.844337,-75.668769,-89.159603,-18.03853,-18.913657,-8.591557,5.136819,10.636756,20.940577,25.684059,28.649227,27.533311,36.140725,38.695822,40.84334,38.684756,47.982577,52.221286,55.458798,44.875321,55.796178,59.436748,62.181319,26.1847,51.232498,70.715332,87.942925,57.699921,80.539513,96.865677,111.77607,47.558762,66.74865,80.594605,93.755241,34.781227,47.906525,60.20121,72.746796,20.565262,25.750259,33.425926,41.887001,7.736178,6.667593,10.835202,16.360209,-31.999521,-50.607544,-60.250736,-67.661063,-36.492153,-59.251274,-71.330736,-82.259959,-34.719466,-54.876857,-66.786337,-76.740541,-27.244066,-41.739092,-48.7999,-54.282626,118.373754,280.536243,129.17066,-17.684327
76,0.363968,0.385236,-3.946243,7.051854,-21.565086,-45.668792,-67.981292,-83.50859,-47.946785,-82.461387,-103.453319,-119.572586,-42.8134,-80.98558,-103.897258,-123.099277,-38.400283,-72.184387,-93.71434,-110.793892,-34.242416,-60.008033,-75.779296,-89.196086,-18.007099,-18.960612,-8.609823,5.206548,10.588331,20.946419,25.544762,28.378514,27.46436,36.213245,38.68714,40.768956,38.584535,47.99352,52.205095,55.397431,44.739705,55.735502,59.380999,62.097697,26.671188,51.413131,70.70636,88.637626,55.599952,78.221786,94.451408,109.27359,45.946884,65.807075,80.714744,94.875755,33.796051,48.506355,62.385956,76.153518,20.283874,27.630615,36.892502,46.741127,7.022849,4.902735,7.21987,10.603101,-33.314934,-51.362172,-60.519035,-67.380994,-37.437571,-58.974546,-69.627647,-78.922245,-35.806576,-54.846834,-64.991895,-73.092561,-28.803165,-42.383476,-48.608474,-53.288161,116.872449,280.547707,123.359144,-11.006245
77,0.422928,0.370503,-4.714028,9.020574,-21.547531,-45.695595,-68.154854,-83.754398,-48.249023,-82.833137,-103.811256,-119.859867,-43.180252,-81.394546,-104.250377,-123.396206,-38.772125,-72.545105,-93.9948,-110.98336,-34.599151,-60.409744,-76.192337,-89.571945,-18.160006,-19.18447,-8.724284,5.254935,10.476204,20.867193,25.364797,28.159608,27.47345,36.308538,38.696476,40.703648,38.657351,48.178684,52.306032,55.403062,44.829255,55.880973,59.45468,62.050605,27.087754,51.005562,69.4151,86.758004,52.92778,75.327118,91.139923,105.366967,43.761727,64.817299,80.383965,94.638588,32.513031,49.43882,64.065216,77.997231,20.443909,31.185173,41.914833,52.734627,6.294676,3.271043,3.904515,4.596206,-34.462047,-51.106481,-58.793586,-64.256003,-38.30015,-57.295565,-65.513982,-72.497824,-36.629313,-52.925222,-60.149681,-65.831435,-29.524169,-40.533533,-44.846305,-48.060648,115.210378,280.656172,116.560117,-2.247709
78,0.397454,0.280828,-4.278419,9.445139,-21.618393,-45.746727,-68.249772,-84.012005,-48.632103,-83.033501,-103.980504,-120.060574,-43.625473,-81.747426,-104.579133,-123.772248,-39.221993,-72.928391,-94.380272,-111.384613,-35.049752,-60.974122,-76.79496,-90.175473,-18.233686,-19.260521,-8.758987,5.239115,10.539017,20.826673,25.128565,27.720279,27.633717,36.40661,38.662378,40.536317,38.876948,48.429712,52.388827,55.251811,45.081173,56.157455,59.513133,61.830157,26.929298,49.97129,67.011658,82.006416,50.854614,73.813522,85.798187,95.517631,42.442886,65.238556,77.487167,87.234695,32.205505,51.441215,63.133987,73.006027,21.346115,35.024986,44.365974,52.492904,3.762132,-0.268602,-1.289046,-2.134489,-34.258307,-46.97121,-50.331476,-52.897694,-36.776656,-50.119858,-53.318906,-56.526531,-34.371082,-45.053397,-47.914028,-50.986265,-27.4848,-34.486419,-35.913039,-37.716806,113.417971,280.712788,110.091837,6.973218
79,0.407684,0.402588,-8.523468,15.773044,-21.718414,-45.828575,-68.450844,-84.293049,-48.723793,-83.128327,-104.042187,-120.107334,-43.782761,-82.054356,-104.915589,-124.055489,-39.435974,-73.300392,-94.834442,-111.830029,-35.340065,-61.445915,-77.344505,-90.752552,-18.244554,-19.212739,-8.77456,5.193222,10.540437,20.661602,24.78564,27.178431,27.744016,36.483873,38.62965,40.343829,39.085269,48.780701,52.575375,55.200534,45.39258,56.656275,59.825442,61.859389,27.202801,50.161674,66.910801,79.912124,49.168865,74.484238,83.677459,89.451095,40.797798,67.198333,76.958244,82.528667,31.473495,54.490253,63.810241,69.690857,22.153473,39.612854,47.870029,53.455948,-0.36953,-5.081195,-6.119367,-6.805541,-34.990102,-43.376877,-42.15475,-41.828179,-35.395988,-42.962139,-41.384506,-41.267582,-30.971342,-36.138481,-34.895983,-35.529795,-22.753783,-26.116754,-24.816117,-25.068417,111.678314,280.56137,99.421028,22.192256
80,0.622261,0.408936,-12.101418,22.039389,-21.786987,-45.935669,-68.650314,-84.318432,-48.863663,-83.551529,-104.454449,-120.412651,-44.046684,-82.683277,-105.572308,-124.623894,-39.68438,-73.874817,-95.393314,-112.303551,-35.450569,-61.625267,-77.483002,-90.906246,-18.31353,-19.269661,-8.857047,5.245154,10.547637,20.348144,24.154798,26.315272,27.788562,36.081976,38.088445,39.753952,39.21313,48.658893,52.369327,54.987285,45.622242,56.974018,60.312727,62.511918,27.513966,51.524048,69.339077,80.726418,48.993153,78.399651,86.005737,88.825264,40.203003,71.582405,79.638909,81.512615,31.400688,59.288967,66.580536,68.688034,23.071633,44.574417,51.827763,55.047638,-6.910091,-12.296249,-11.27121,-9.538923,-37.856983,-41.38219,-35.598005,-32.889208,-34.925431,-36.526018,-30.938041,-28.788144,-26.94834,-26.922189,-22.571131,-21.769383,-15.769818,-15.857546,-12.607999,-11.871953,110.174046,280.08047,85.193081,43.341809
81,0.760254,0.503402,-14.185959,31.597154,-21.922051,-46.247132,-69.087364,-84.81435,-48.920838,-83.878956,-104.827057,-120.849564,-44.181656,-83.17376,-106.15535,-125.242172,-39.870369,-74.369934,-96.101006,-113.114342,-35.636444,-61.830895,-77.784714,-91.38937,-18.437463,-19.346343,-8.998455,4.91821,10.666223,20.189495,23.891765,25.937062,27.97863,35.888141,37.799551,39.341731,39.509914,48.653458,52.283703,54.783965,46.036451,57.350324,60.855167,63.149071,28.177975,53.674416,72.913754,82.768868,49.759587,84.190751,89.495797,88.287529,41.32544,79.032097,84.365296,80.956593,33.854622,67.855191,72.202355,69.291138,27.349869,54.057221,59.741032,59.553017,-12.588948,-17.515584,-13.33213,-8.767851,-37.935473,-36.3696,-25.562629,-19.959289,-31.680243,-27.448064,-17.433293,-13.011827,-20.752254,-15.734885,-8.32344,-6.354855,-7.434839,-4.464521,0.177202,1.317572,108.6383,279.984698,68.711122,74.339789
82,0.543251,0.692543,-13.131202,32.554564,-22.049996,-46.474709,-69.40567,-85.228409,-49.014336,-84.195099,-105.087113,-121.151768,-44.390396,-83.566887,-106.532662,-125.576798,-40.142212,-74.843285,-96.670921,-113.749867,-35.837746,-61.878319,-77.824059,-91.549416,-18.369228,-19.437881,-9.369748,4.299002,10.685724,19.886337,23.50254,25.439144,28.003256,35.453839,37.30477,38.790547,39.598254,48.340668,51.982164,54.483006,46.245279,57.460809,61.20197,63.708616,27.193142,54.150123,75.640926,85.177345,49.080448,88.472626,91.491829,86.457962,41.30635,84.643776,87.538421,79.767231,34.933639,74.372028,77.232605,70.956985,29.548027,60.025589,65.358707,63.275985,-18.456861,-23.46289,-16.53169,-9.49432,-38.4538,-31.918451,-17.609917,-10.42865,-28.266692,-19.204409,-6.348507,-0.862063,-13.889467,-5.593516,3.430634,5.852646,1.716745,5.301653,10.000507,10.863438,107.010922,280.016981,53.409291,106.234093
83,0.220962,1.021426,-18.226673,38.45079,-22.369743,-46.664886,-69.556411,-85.500171,-48.865242,-84.471187,-105.214954,-121.166782,-44.357208,-83.871643,-106.696048,-125.524005,-40.199089,-75.269256,-97.020252,-113.983715,-35.911857,-61.977127,-77.846145,-91.582134,-17.868976,-19.101119,-9.554184,3.635284,10.585688,19.362558,22.825645,24.642848,27.825514,34.802409,36.623095,38.00108,39.41509,47.770464,51.36955,53.667641,45.989336,57.08486,61.114568,63.761413,28.754425,58.16177,81.609168,91.153186,54.500862,96.278721,98.250858,92.277866,46.203769,92.730663,94.91209,86.357025,39.51527,82.814826,85.500446,78.503391,33.799358,68.136531,73.203964,70.529995,-20.628667,-24.765108,-15.866706,-7.107371,-35.288511,-24.966201,-11.811881,-6.133718,-23.439607,-11.469867,-0.477994,3.239813,-7.811158,2.482907,9.905492,11.287565,8.985614,13.711577,16.619793,16.498046,105.196071,280.438221,33.146805,144.084697
84,0.915619,2.24422,-15.920998,34.628316,-23.358284,-48.371063,-70.953254,-85.950748,-48.668174,-84.717762,-106.195633,-122.913356,-43.462326,-83.063163,-105.596603,-124.241798,-38.554641,-73.985252,-93.228664,-107.714687,-33.736885,-60.385528,-74.122284,-85.346145,-9.74608,-8.70582,-0.455953,10.304563,15.15922,20.443573,22.99342,24.39613,26.241159,29.880308,30.932584,31.83109,32.071805,35.271181,37.541076,39.326713,33.557286,40.060382,43.300648,45.663824,30.220528,61.063946,85.506969,95.691341,60.775005,104.291359,107.629772,103.400619,52.302521,100.606258,103.298904,95.642086,44.532474,88.78363,90.073769,81.874008,37.237936,72.202492,75.766376,71.723637,-20.057219,-22.998262,-14.07763,-6.173356,-28.984174,-16.761859,-5.613681,-1.702033,-16.063746,-2.055696,6.692127,8.40228,0.15185,12.939484,19.145826,19.633957,17.319206,24.450909,26.454395,25.762939,104.163294,282.460072,15.277411,178.490644
85,-0.737411,1.547255,-13.615322,30.805842,-23.398293,-48.779228,-71.086762,-85.507141,-47.281014,-83.545647,-105.720326,-123.472641,-42.076447,-81.182293,-102.182007,-119.360619,-37.204445,-72.385185,-88.098931,-98.823464,-32.583115,-59.199051,-70.408745,-78.382324,-1.57981,2.288853,9.63446,18.334624,20.886571,23.013378,24.490732,25.370281,25.572427,25.851131,25.268528,25.327438,25.325104,24.470491,24.940312,25.976237,21.674222,23.725657,25.678242,27.585601,31.59145,62.856651,87.334328,98.791809,67.902878,112.51054,119.62857,119.826221,59.602604,108.270561,112.698864,107.622413,49.985252,92.278438,90.952572,81.068836,39.86376,72.223469,73.045944,66.856911,-16.742519,-18.162353,-11.164462,-6.692275,-19.540789,-7.305426,0.984684,2.866404,-6.139109,9.038105,15.161856,14.625338,9.999559,25.776215,31.151637,30.891823,26.717519,37.519649,39.504313,38.658116,101.636656,284.27085,-0.127138,209.560009
86,-2.352493,1.093995,-12.314736,21.383352,-23.758004,-49.082772,-70.550904,-85.272206,-47.566521,-79.421986,-96.257264,-109.340207,-41.803277,-76.014142,-90.995305,-102.205124,-36.521027,-68.076783,-78.222531,-83.579316,-31.707024,-56.416924,-64.73655,-69.396035,5.027842,12.215541,20.114369,28.421961,26.034579,26.656443,26.940618,26.930244,25.757468,24.595424,23.031237,21.898821,20.851299,18.164748,17.378715,17.405243,13.010614,12.493257,13.472545,14.934164,33.895066,66.904793,92.101685,103.839776,71.941956,116.47379,125.102738,127.052182,62.146305,110.619599,115.287175,110.949028,50.775834,93.438527,92.383198,82.733883,39.065547,72.178242,72.832146,66.194092,-14.710374,-15.25497,-9.108334,-5.600614,-11.755469,2.916404,7.379693,6.517163,3.044882,21.147299,22.018425,18.376034,19.361626,37.976961,38.466036,35.519708,35.623733,48.442729,47.110347,44.224237,97.701788,285.442721,-14.024249,231.021237
87,-3.241128,2.727664,-14.557193,19.265116,-21.40361,-45.047058,-65.314819,-79.815708,-43.459007,-72.448791,-85.869152,-95.194129,-39.668151,-70.016567,-80.087413,-85.809082,-36.131721,-64.663421,-69.970825,-70.027118,-32.894233,-55.802444,-61.090003,-61.693496,3.458122,9.28494,16.449519,23.6078,23.209893,22.20472,22.890581,23.465465,23.549878,21.605024,20.411055,19.635199,19.187385,15.379051,14.406198,14.440618,11.867392,9.81319,10.013916,11.088324,36.409332,70.066383,94.884968,107.727321,77.56905,120.068321,130.413471,134.134185,66.978252,112.80344,119.767021,118.221004,54.25629,94.295288,95.130295,87.625511,40.978277,72.364036,73.855739,68.494732,-12.620469,-12.143614,-7.506084,-5.529984,-1.617867,15.033391,17.429918,15.27704,13.528262,33.188568,32.237241,27.499743,28.452929,49.059702,48.396959,44.25807,42.215935,58.084772,56.816338,53.389221,92.957788,288.223719,-30.084314,250.339687
88,-5.357185,2.921523,-10.130162,12.319491,-17.156204,-38.586044,-56.952049,-69.720451,-42.37841,-63.216408,-69.711845,-73.130287,-40.776604,-62.160576,-63.704922,-61.676308,-38.334091,-59.208435,-56.707626,-50.024643,-35.477577,-53.591034,-53.717514,-49.341499,2.42978,7.177288,13.353144,19.23765,19.647104,19.063674,20.684375,22.188689,19.795663,18.589097,18.720156,18.856835,16.039596,12.282157,12.073009,12.78777,10.025686,7.444902,7.389894,8.315126,36.678647,69.70855,94.930756,110.595612,76.074372,117.637585,132.192215,139.83926,65.594639,110.145058,121.722737,125.003678,52.766419,91.314526,96.537404,93.718449,39.459864,69.061913,73.900292,72.586167,-11.800337,-11.363063,-7.47217,-7.334294,3.34247,19.638181,22.422131,21.366347,19.763831,39.219793,39.43587,35.824477,34.925731,55.646545,56.14098,52.709985,48.076951,64.772675,64.670027,61.908987,86.294031,291.145399,-41.521048,262.659335
89,-8.185318,1.413368,-8.068634,8.624254,-11.481056,-28.700615,-44.928474,-57.27515,-40.248916,-51.967529,-50.283817,-46.884624,-41.571487,-53.036659,-46.295551,-37.009231,-40.818626,-52.793426,-44.54171,-33.773666,-38.701561,-49.97596,-46.397346,-39.629425,-5.460823,-4.280501,1.622739,7.82253,12.061832,15.934534,19.247184,21.534567,17.627977,20.635741,22.865412,24.159664,19.750721,20.895858,22.713506,24.469972,19.497841,20.711163,21.605593,22.980923,36.189812,68.616955,94.232758,111.887833,72.796486,112.253952,128.259499,137.382477,62.323586,104.862694,119.292916,125.681946,50.140961,88.008294,98.000382,100.038712,37.943516,67.210076,75.888153,78.933197,-11.873641,-11.679448,-7.731917,-8.560138,7.078302,23.936238,27.656108,28.05257,24.691298,44.002813,45.473559,43.233366,39.740577,59.829332,60.821019,57.805611,51.89638,68.343763,68.686601,66.086007,76.936643,292.653045,-50.761752,271.377867
90,-6.701889,2.450207,-5.642967,4.613015,-6.955833,-21.044334,-35.815498,-48.110979,-40.540707,-42.590435,-32.2752,-21.670452,-44.350822,-45.549396,-31.344154,-15.681347,-44.741169,-47.825466,-34.680748,-20.747372,-43.004173,-48.115265,-41.092861,-32.287479,-13.879368,-17.30617,-12.259834,-6.226275,2.552898,10.819031,16.136754,19.448027,14.494421,22.047392,27.231951,29.949914,23.252945,28.328564,32.41972,35.127859,29.187043,33.950395,35.598378,36.855493,35.117157,66.898178,92.545097,110.964409,68.345318,104.510903,118.587502,126.130119,57.644898,97.379585,112.451386,119.97448,46.443833,84.347237,99.232155,106.194145,35.87035,66.305786,79.13237,86.59623,-12.943368,-13.094137,-8.261884,-8.523891,9.936593,28.31333,33.380853,35.299957,28.398484,47.627945,50.33575,49.448075,42.834236,61.587342,62.479191,59.523211,53.548686,68.658913,68.738793,65.887468,69.309408,295.136702,-57.330065,276.024332
91,-5.417061,3.101365,-3.736416,2.772112,-2.268951,-14.228668,-28.755569,-40.712351,-40.295459,-36.723804,-23.235489,-10.747684,-47.392891,-42.067714,-24.392578,-6.288013,-49.48312,-46.693027,-30.397934,-14.434559,-48.660484,-49.628059,-39.278354,-28.029659,-21.230248,-30.124296,-27.536318,-23.345132,-6.995691,4.270893,11.634074,16.305635,10.536603,20.837418,28.184327,32.609578,24.885849,31.761553,37.370955,41.118908,36.351202,42.777703,44.391303,45.066779,32.346371,61.79868,86.644947,106.51759,65.495751,98.930775,114.159771,123.602749,56.144474,92.970234,111.136608,122.625492,45.978676,80.845494,98.70837,109.632443,36.125645,63.940155,79.129635,90.204243,-12.979825,-13.707183,-9.915436,-12.115727,12.198584,29.555575,36.497915,40.319821,30.075773,47.394442,53.504151,54.879802,43.431115,60.660789,65.259194,64.27987,52.654107,67.481937,70.506509,69.285358,62.994941,298.29342,-61.963887,278.851797
92,-7.437904,2.291546,-1.939911,1.862356,0.878746,-9.01799,-22.226349,-32.9368,-41.268002,-30.836186,-12.800972,2.057522,-49.211426,-36.412228,-14.707191,5.403591,-50.960037,-41.500729,-21.474312,-4.066235,-49.487618,-45.857323,-32.587544,-20.041775,-20.637383,-30.060076,-28.475258,-25.451797,-9.082547,4.242994,11.835565,16.127905,7.915446,19.796206,27.753865,32.150685,22.292294,30.242628,36.144949,39.811837,34.224974,41.215776,42.785854,42.937315,30.866558,59.440224,84.333973,104.726635,62.701275,95.363423,112.025677,123.859486,53.737736,90.19122,109.611317,123.023358,44.182412,78.809842,97.418713,109.853955,35.052887,62.674702,78.10928,89.871357,-13.157507,-14.258702,-10.655936,-13.08537,12.655055,28.67016,36.042888,40.57869,30.38098,46.526588,52.855759,54.792597,43.413923,59.953499,64.492834,63.914319,52.305217,66.629682,69.400658,68.210357,54.637694,300.620216,-64.823141,280.749403
93,-9.963638,1.613785,-1.631927,1.769075,3.413749,-2.889519,-13.620736,-22.868014,-34.292656,-22.256001,-4.092728,10.331623,-42.874592,-27.747082,-6.521874,12.414653,-45.199185,-33.378708,-13.38089,3.19733,-44.476445,-38.288075,-24.570042,-12.260273,-20.111899,-29.639506,-28.554113,-26.357861,-9.744412,3.671074,10.934417,14.525062,7.006653,19.301289,26.741887,30.401173,21.023965,29.414136,34.620085,37.452317,32.498174,39.586232,40.806259,40.300919,29.284321,57.18544,82.037567,102.614239,60.092377,92.776417,110.474453,123.541042,51.319473,87.957699,108.440426,122.648609,42.268959,76.895553,96.07259,109.080219,33.884468,61.244247,76.894478,88.784077,-13.781754,-14.97035,-11.386146,-13.624117,13.77417,29.201226,36.175602,40.468206,31.573862,46.855706,52.339414,53.87553,44.133612,60.013657,63.635862,62.579497,52.264437,66.036644,68.114533,66.364588,43.62259,302.223337,-67.506534,282.507814
94,-8.518479,2.127351,-1.478909,1.188411,4.387619,0.115585,-7.562965,-13.679117,-29.923301,-16.600078,1.303986,15.143818,-38.33551,-21.82695,-1.286384,16.74416,-40.547275,-27.458988,-8.154694,7.61903,-39.745331,-33.597599,-21.719627,-11.134174,-18.644746,-26.983744,-25.658303,-23.474524,-9.022698,3.122743,9.710821,12.6931,6.818536,17.979127,24.879865,27.969578,19.893859,27.758953,32.380928,34.606043,30.621739,37.207532,38.177433,37.27479,28.121075,55.393353,79.839192,100.26606,58.212696,91.136673,109.239922,122.887482,49.514809,86.512528,107.492981,122.154671,40.668217,75.3513,94.812333,108.234833,32.552697,59.82296,75.559994,87.472229,-14.335272,-15.565933,-11.763923,-12.937884,14.688447,29.609656,36.047705,39.922802,32.357488,47.056284,51.874212,53.112036,44.438906,59.87525,62.921657,61.599136,51.929849,65.323859,66.9825,64.97534,34.108595,304.331573,-69.980959,283.67711
95,0.315216,-0.438094,-1.630794,0.802941,2.448052,-3.313385,-11.813896,-18.257343,-31.748554,-20.0835,-2.985672,10.553261,-39.767269,-25.015423,-4.975456,13.041893,-42.015255,-30.284912,-11.334251,4.371506,-41.303947,-36.191803,-24.720051,-14.387237,-19.212604,-27.064724,-24.798249,-21.985827,-7.935657,3.508337,9.330166,11.664677,8.500895,18.949373,24.786652,27.041691,21.868266,29.247354,32.593781,33.791826,32.680603,38.844084,38.636405,36.903306,27.276478,54.106098,78.286182,98.545063,56.573559,89.865703,108.285106,122.328472,47.908562,85.433075,106.756725,121.656109,39.284614,74.249393,93.945041,107.637462,31.499382,58.911621,74.826382,86.835514,-14.698043,-16.074089,-12.066315,-12.376598,15.382484,29.9098,35.841186,39.348029,32.937904,47.177685,51.56415,52.742237,44.681733,59.716625,62.415118,61.02293,51.683291,64.719026,66.168184,64.077735,33.502287,303.862064,-72.533277,284.448636
96,-1.971702,0.889502,-1.792134,0.554444,2.076576,-3.103752,-11.240342,-17.545899,-26.967076,-18.371052,-4.239922,7.533851,-34.345768,-23.387112,-6.496491,9.273719,-36.707875,-28.216519,-11.511269,2.292137,-36.337532,-33.864544,-25.246147,-17.202336,-19.442796,-27.096464,-24.548913,-21.462282,-8.337874,1.294499,6.551682,8.630201,7.748911,17.080115,22.100596,23.700734,20.889189,27.581748,30.587276,31.660931,31.194159,36.900453,37.165041,35.923327,26.486744,52.883332,76.698018,96.712349,55.355633,88.964997,107.651345,122.002213,46.670563,84.56432,106.087395,121.255578,38.185421,73.221005,93.10698,107.174378,30.644417,57.862095,73.869965,86.032414,-14.996285,-16.416927,-12.182096,-11.90538,16.23511,30.083813,35.418604,38.489625,33.74702,47.411263,51.420569,52.570868,45.137242,59.815451,62.208168,60.817574,51.633645,64.44026,65.702982,63.544163,30.731158,304.697485,-75.124838,284.948999
97,-0.661229,-0.261711,-2.317623,0.131306,0.572823,-5.311946,-14.004129,-20.750638,-26.241262,-19.334552,-6.950317,3.842286,-32.884918,-24.419048,-9.135841,5.941956,-35.287038,-28.810867,-13.330387,-0.10263,-35.142276,-34.206081,-26.766609,-19.655977,-19.655007,-27.256915,-24.560942,-21.039489,-8.348161,0.81807,5.836032,7.898953,8.079035,17.074551,21.788781,23.106647,21.538915,27.809459,30.607451,31.541889,31.947539,37.607625,37.812093,36.640213,26.037003,52.275261,75.90247,95.759961,54.415421,88.526631,107.379719,121.946881,45.639473,84.043602,105.581715,120.878506,37.400288,72.718415,92.771473,107.147084,30.290623,57.610291,73.704552,86.10569,-14.953998,-16.134468,-11.371708,-10.348146,16.655198,29.883211,34.863369,37.924535,34.359585,47.426676,51.280902,52.702791,45.738938,60.004679,62.35942,61.264387,52.008457,64.6141,65.846898,63.884581,29.28963,304.36422,-78.22276,285.008751
98,2.51207,-0.246112,-1.830597,0.082845,-1.882873,-10.495846,-21.326826,-29.399019,-31.504423,-25.139614,-12.934387,-2.152153,-37.40768,-30.00436,-14.447571,1.455689,-39.621053,-33.881195,-18.084263,-4.054802,-39.460991,-39.368488,-31.394039,-23.733164,-20.943813,-29.242204,-26.487222,-22.473445,-9.184065,-0.192019,4.910677,7.127368,8.345105,16.943838,21.843492,23.361996,22.689794,28.247491,30.960662,32.025592,33.737288,39.155436,38.775066,37.44582,25.863671,51.9497,75.454651,95.20467,53.688561,88.135758,107.055531,121.660687,44.833008,83.5551,105.046612,120.431111,36.645573,72.206715,92.242962,106.798634,29.683491,57.301117,73.440274,85.951733,-14.743492,-15.742835,-10.559728,-9.094724,16.828148,29.605358,34.40912,37.386886,34.654627,47.554424,51.509205,53.173724,46.094706,60.211641,62.665466,61.779558,52.304538,64.831535,66.040102,64.115922,31.079578,304.044854,-80.775479,285.018342
99,2.008278,-0.408528,-1.807994,-0.09081,-2.82003,-13.573368,-27.255026,-38.173227,-35.700869,-30.739288,-17.619644,-6.032249,-42.154255,-35.784737,-18.654762,-1.308243,-44.659853,-39.661755,-22.340732,-6.987076,-44.828785,-44.178989,-33.401813,-23.248484,-23.542814,-33.329538,-30.292665,-25.836583,-12.531913,-3.36588,2.902763,6.083848,6.902714,16.205241,21.840515,23.713998,23.008747,29.207364,32.168945,33.14168,35.3077,41.301337,40.506115,38.626253,25.745498,51.734665,75.241722,94.886581,53.086029,87.775314,106.742889,121.374801,44.114055,83.088993,104.553657,119.965004,35.951019,71.684852,91.762218,106.473861,29.122604,56.922226,73.081901,85.614154,-14.596797,-15.463823,-10.060353,-8.427968,17.158648,29.712705,34.513528,37.584524,35.103701,47.782234,51.816401,53.660799,46.61031,60.50829,63.042625,62.31444,52.721834,65.144313,66.342407,64.452746,32.409239,303.543274,-83.26209,284.83448
100,-9.340439,2.570842,-1.760983,0.042212,-0.290153,-8.019344,-19.172155,-28.474222,-30.703382,-23.740104,-9.780876,1.913315,-37.362076,-28.389347,-10.876945,5.970497,-39.667207,-32.226619,-14.489216,0.654511,-39.786152,-36.881767,-25.258793,-14.862253,-22.985862,-33.359264,-31.665809,-28.588699,-15.204001,-6.630154,0.288634,3.962833,3.54448,12.853663,19.246764,21.575915,19.244022,25.875251,29.779748,31.234458,31.22853,37.757481,37.880525,36.334091,25.70731,51.642517,75.14209,94.810536,52.358631,87.373203,106.504246,121.276165,43.306252,82.599896,104.105564,119.585415,35.307873,71.205723,91.358036,106.236317,28.811256,56.730652,72.856304,85.353504,-14.437456,-15.167902,-9.540809,-7.634253,17.379765,29.735158,34.607982,37.86949,35.458297,48.015194,52.123437,54.132857,47.014788,60.762467,63.344833,62.716349,52.998588,65.338939,66.503218,64.606319,22.410192,305.992804,-85.681681,284.75538
101,-3.589439,-1.562149,-1.652126,0.139284,-0.754784,-8.542637,-18.922514,-26.794573,-35.995657,-26.0285,-9.109131,4.423416,-42.853432,-30.163433,-9.050629,10.154823,-44.870596,-33.450028,-12.547543,4.850464,-44.536755,-37.860821,-22.606499,-9.776259,-22.625808,-32.46402,-30.642333,-27.193227,-14.016146,-4.440645,2.878038,6.494846,5.036938,14.999132,21.847197,24.261848,21.0221,28.587476,32.317232,33.428573,33.48936,41.031537,40.230967,37.852879,25.740074,51.68478,75.236309,94.89093,51.650356,86.898456,106.127105,121.007492,42.634231,82.226269,103.743828,119.264671,34.892269,71.017765,91.282734,106.303161,28.792488,57.034012,73.226143,85.724567,-14.351512,-15.048414,-9.190523,-6.837845,17.35052,29.764329,34.754849,38.239153,35.538894,47.923038,52.044767,54.173081,47.22532,60.648909,63.253195,62.717498,53.214048,65.292799,66.416397,64.539691,18.199001,304.302625,-87.955559,284.766634
102,-7.200852,0.699237,-0.494774,0.144645,0.595013,-5.322223,-13.379013,-19.634033,-35.081623,-22.905613,-3.976123,10.696003,-42.158638,-26.290535,-3.195156,16.870709,-43.521102,-29.086727,-6.498905,11.65804,-42.354366,-32.729942,-15.747024,-1.866176,-21.848815,-31.721409,-30.330704,-27.333425,-14.002474,-4.832353,2.733863,6.573109,4.804256,14.425513,21.652485,24.218054,20.409486,28.324938,32.25634,33.246903,32.757618,40.090479,39.162197,36.438597,25.645283,51.317493,74.761619,94.346489,50.889015,86.118313,105.364311,120.210869,41.888969,81.638454,103.189064,118.688919,34.185345,70.463974,90.683407,105.668129,28.181087,56.666645,72.855835,85.223865,-14.350586,-15.181561,-9.186745,-6.792558,17.367933,29.87517,34.99933,38.544014,35.593653,48.059715,52.242244,54.360592,47.350932,60.584255,63.146588,62.568382,53.377006,65.133964,66.152302,64.176165,10.413454,304.878068,-89.035028,284.787485
103,-1.375213,-1.697396,-0.62431,0.155401,0.375927,-5.773464,-13.527592,-19.446968,-38.036843,-24.667523,-4.237965,11.189129,-45.23061,-27.820347,-3.160183,17.678936,-46.192463,-30.324681,-6.226662,12.759945,-44.434559,-33.695,-15.760861,-1.352314,-21.069561,-30.2002,-28.457504,-25.128083,-12.341239,-2.479699,5.285613,9.045127,6.544074,16.648121,23.738773,25.829605,22.088444,30.768279,34.483295,35.165464,34.406947,42.4191,41.2823,38.2291,25.46782,50.906548,74.291989,93.862576,50.075478,85.49548,104.819012,119.690632,41.103104,81.25866,102.88876,118.376507,33.601593,70.22374,90.625878,105.728817,27.93211,56.705269,73.013935,85.392472,-14.613606,-15.560326,-9.442441,-6.768216,17.194859,29.823213,34.951177,38.581064,35.553071,47.883887,51.989858,54.087408,47.435666,60.376539,62.867859,62.317651,53.471793,64.93062,65.912859,63.956742,8.548359,303.029921,-90.14922,284.792135
104,-6.439751,0.39892,-0.236847,0.321089,1.401215,-2.655956,-7.72562,-11.658451,-34.505676,-18.996734,1.479366,16.727268,-41.487167,-21.691189,2.807476,23.409748,-42.141231,-24.151874,-0.153591,18.759258,-40.022541,-27.706043,-10.043129,4.149731,-20.350651,-30.079465,-29.288405,-26.466906,-11.65271,-2.073294,5.115787,8.618419,7.215771,17.053093,23.744577,25.650529,22.489636,31.100299,34.589494,35.215692,34.652936,42.297612,40.905634,37.70248,25.455655,50.634648,73.920285,93.509274,49.191033,84.830441,104.210919,119.105175,40.258358,80.832116,102.521908,117.985829,32.971768,70.016385,90.584851,105.800755,27.657635,56.863461,73.324357,85.745087,-14.772674,-15.887701,-9.691974,-6.796633,16.921194,29.574953,34.617257,38.197756,35.383653,47.596699,51.579156,53.57036,47.39958,60.136281,62.543152,61.989004,53.47298,64.645173,65.574504,63.624414,1.647915,303.270179,-90.84676,284.954562
105,5.320404,-3.308994,0.203911,0.489916,-1.74646,-8.04871,-14.354782,-18.689483,-42.321224,-27.610027,-5.922638,10.404682,-48.885578,-30.033016,-3.867634,18.33672,-49.127128,-31.864357,-6.363396,14.008862,-46.305954,-34.940517,-16.546451,-1.421757,-18.500856,-26.763283,-25.142459,-21.266879,-7.086329,3.514623,10.428434,13.728993,11.418355,21.449289,28.064907,29.637431,26.0019,34.713043,37.624563,37.795932,37.498752,45.209909,43.334339,40.024875,25.396923,50.338898,73.509178,93.116352,48.542095,84.250397,103.601406,118.431164,39.697586,80.518891,102.252789,117.678875,32.525231,69.897824,90.612934,105.893727,27.387337,56.941784,73.5485,86.043927,-15.132013,-16.455756,-10.142678,-6.892556,16.457584,29.247996,34.185127,37.579288,34.92996,47.135794,50.949437,52.670878,47.02678,59.694123,62.040355,61.348985,53.158595,64.260739,65.287969,63.330271,6.544447,299.814642,-91.066721,285.297935
106,-3.523922,1.975346,0.396721,0.29986,-0.16,-5.009422,-10.054596,-13.831386,-37.868774,-22.965923,-1.604404,14.394608,-44.317085,-25.0322,0.443299,21.910675,-44.405433,-27.273937,-2.671177,16.989601,-41.425976,-30.101921,-12.616596,2.023545,-18.383728,-27.078334,-25.809091,-22.340546,-7.423066,2.753685,9.440008,12.993707,10.611339,20.094078,26.818476,28.915026,24.483124,32.695583,35.792243,36.377303,35.429546,42.328561,40.779194,37.854867,25.379482,50.092163,73.125069,92.795254,47.985397,83.832859,103.21938,118.034191,39.091782,80.096844,101.963001,117.366085,31.912228,69.509754,90.439922,105.84042,26.800335,56.560089,73.335091,85.97699,-15.368566,-16.750182,-10.322113,-6.765807,16.079869,29.049765,33.926603,37.206142,34.544786,46.890669,50.638685,52.211764,46.694587,59.558346,61.942517,61.232659,52.828601,64.165915,65.358279,63.483326,2.657135,301.662674,-91.03339,285.470481
107,8.066838,-2.463977,0.400543,0.372256,-3.012978,-10.787762,-18.194001,-23.04562,-45.976456,-32.565274,-10.326016,6.510097,-52.242474,-34.70327,-8.055966,14.508052,-52.276074,-36.560395,-10.904778,9.818721,-49.107113,-39.394616,-21.18163,-5.978497,-17.540896,-25.074916,-22.999287,-18.962589,-4.882828,6.818134,13.558278,16.91587,12.969352,23.142029,29.964004,32.013797,26.69884,35.103615,37.942812,38.312783,37.390702,44.916755,43.179049,40.308001,25.386349,50.020523,72.988633,92.655682,47.555111,83.531353,102.967404,117.800297,38.642086,79.785233,101.79015,117.225415,31.468266,69.195683,90.323193,105.847744,26.385441,56.23256,73.149514,85.978409,-15.584939,-17.067344,-10.542821,-6.530402,15.622027,28.750387,33.574699,36.790093,34.065158,46.605271,50.298378,51.772089,46.283132,59.420396,61.826464,61.057597,52.451467,64.145118,65.52582,63.703232,10.466807,299.075916,-90.890013,285.719956
108,-1.516388,2.418442,0.55925,0.296723,-1.96502,-8.718029,-15.624127,-20.581902,-42.372528,-29.721257,-7.850155,8.941028,-48.793671,-31.603867,-5.807545,16.249729,-48.765095,-33.688752,-9.010197,11.132,-45.512146,-36.283322,-19.074177,-4.266964,-17.490112,-25.44958,-23.513211,-19.955498,-5.783642,5.128162,11.757167,15.436788,11.517576,20.903836,28.040973,30.859077,24.629288,32.339802,35.535609,36.471127,34.803397,41.522188,40.154935,37.724945,25.404614,49.995049,72.855046,92.465847,47.20063,83.162155,102.596821,117.457043,38.284733,79.388867,101.51817,117.006901,31.08799,68.815636,90.074833,105.684963,25.960499,55.784226,72.796921,85.807938,-15.703167,-17.239813,-10.555973,-6.088343,15.233592,28.58124,33.397081,36.567853,33.658594,46.512646,50.207568,51.630026,45.8965,59.452581,61.905048,61.098847,52.079211,64.195123,65.757804,64.010712,8.725457,301.395721,-90.555725,285.918042
109,11.482109,-3.073701,0.494911,0.428054,-6.806065,-17.933796,-28.613205,-36.324314,-52.620873,-43.988434,-21.447728,-3.58778,-58.353321,-45.386582,-18.6278,4.761737,-58.0486,-46.907421,-21.324063,0.209118,-54.50354,-49.093552,-31.672142,-15.982556,-11.904825,-16.629435,-13.884629,-10.413577,1.578205,13.246217,19.474339,22.793905,15.318499,24.722173,31.893606,34.65285,24.963197,32.41846,35.839235,36.90774,31.999718,38.584264,37.778149,36.159436,25.307236,49.950474,72.760586,92.248272,47.127217,82.936375,102.311337,117.05206,38.232594,79.197533,101.368504,116.798665,31.000237,68.658429,89.946499,105.473088,25.812218,55.508423,72.523465,85.554749,-16.039768,-17.497078,-10.592616,-5.883542,14.804377,28.339364,33.201035,36.325865,33.180337,46.289455,50.009201,51.398573,45.401385,59.286249,61.774309,60.916473,51.592852,64.012675,65.692793,63.964757,20.026629,298.208053,-90.241751,286.232129
110,1.133857,1.602362,0.422425,0.162799,-6.810093,-18.437381,-29.43901,-37.167514,-49.9071,-43.044525,-22.016498,-5.10625,-54.893119,-44.419555,-19.528312,2.640187,-54.300281,-45.507969,-21.716125,-1.489643,-50.618557,-46.718925,-31.170913,-17.06702,-13.940131,-19.03081,-15.37132,-11.312281,-0.950351,9.983769,16.243643,19.805555,13.170202,22.266433,29.351304,32.500415,23.55961,30.604578,34.357509,35.902863,31.381238,37.401162,37.020002,36.016076,25.2285,49.937679,72.70824,92.084186,47.069652,82.76374,102.084354,116.74419,38.121677,78.923549,101.094578,116.443393,30.810951,68.316776,89.594593,105.052997,25.50571,55.007847,72.016433,85.081318,-16.153315,-17.436946,-10.386568,-5.589512,14.630883,28.307278,33.226538,36.399447,32.988021,46.338349,50.103852,51.558963,45.17938,59.378764,61.884867,61.062278,51.343726,63.994965,65.685864,63.981541,21.02584,299.698767,-89.953972,286.28328
111,8.138752,-3.203933,0.474518,0.367452,-11.329834,-26.078544,-38.946693,-47.899269,-58.134773,-54.52827,-32.815681,-14.901832,-62.416877,-55.302223,-29.456463,-6.024284,-61.317421,-55.323921,-30.462043,-9.003341,-57.094562,-55.97089,-39.970058,-25.077163,-8.938273,-11.387801,-7.090824,-3.02656,4.974342,16.321042,22.494539,25.854527,16.291056,25.692988,32.950835,35.796677,24.147548,31.505135,35.526,36.817078,29.602691,35.870592,35.93748,35.343281,25.12508,49.964756,72.754543,92.035457,47.112739,82.678161,101.90752,116.417049,38.157211,78.845787,100.936946,116.129711,30.809543,68.242046,89.38536,104.642269,25.468849,54.848156,71.75077,84.671459,-16.361414,-17.565559,-10.406809,-5.645149,14.365134,28.113653,33.108508,36.316195,32.740624,46.30162,50.113781,51.568905,44.924301,59.323633,61.763466,60.848386,51.084115,63.767822,65.397712,63.602097,29.069549,296.380772,-89.574497,286.53667
112,1.532524,0.347062,0.416919,0.254572,-12.353759,-28.029167,-41.486846,-51.245304,-55.839511,-54.361118,-34.583942,-17.664321,-58.743862,-54.459445,-30.869762,-8.481765,-56.928577,-53.473754,-30.577468,-10.20536,-52.192359,-52.612873,-38.393726,-24.619743,-9.695345,-11.87553,-6.801882,-2.69974,5.321997,16.28225,22.249514,25.754912,16.36896,25.862839,32.772401,35.818351,24.067841,31.292269,35.327436,36.940764,29.45223,35.298178,35.583144,35.505931,25.049286,49.941124,72.786736,92.16568,47.048332,82.577523,101.78991,116.208092,38.118965,78.836712,100.922676,116.023979,30.818459,68.31752,89.432293,104.567414,25.52306,54.91713,71.788342,84.604271,-16.478875,-17.603462,-10.370216,-5.6759,14.367357,28.133969,33.143546,36.335326,32.74491,46.339658,50.120784,51.545724,44.873777,59.313803,61.656811,60.683118,50.974409,63.597231,65.171632,63.351711,30.54309,296.612827,-89.216561,286.676235
113,5.618958,-2.988584,0.258431,0.185535,-15.463371,-33.240646,-47.799774,-58.292267,-62.433826,-62.57412,-42.100365,-24.410065,-64.821476,-62.405708,-37.710583,-14.197128,-62.659092,-60.794964,-36.696362,-15.152046,-57.469322,-59.623775,-44.675846,-30.042389,-6.21114,-6.360107,-0.896431,3.40004,10.021598,21.889052,27.66001,30.807515,19.3056,29.384761,36.252457,38.844085,25.372788,33.116487,37.121149,38.378647,29.35149,35.487876,35.97295,36.16051,25.021808,49.992897,72.890762,92.347847,47.159534,82.682739,101.85244,116.186714,38.208915,78.93901,100.930366,115.894867,30.920997,68.399368,89.443142,104.453705,25.66896,55.001312,71.792221,84.456699,-16.566017,-17.598447,-10.300438,-5.724053,14.384561,28.123423,33.148128,36.348392,32.74943,46.345537,50.090008,51.47192,44.83674,59.32288,61.591961,60.548305,50.864161,63.46632,65.000843,63.137055,36.139915,293.5171,-88.980263,286.754627
114,-3.594109,2.905024,0.29702,0.124983,-13.290458,-29.453498,-43.173912,-53.140102,-56.340225,-55.625839,-36.507866,-19.99118,-58.426368,-55.783813,-32.807579,-10.758865,-56.177284,-53.994667,-31.55191,-11.609848,-51.076904,-52.090461,-38.182468,-24.921547,-12.474275,-15.466144,-10.225832,-5.737688,3.581141,14.417646,20.283874,23.667648,16.171284,25.639932,32.264923,35.106109,25.425942,32.628707,36.276527,37.622068,32.376259,38.301323,38.442904,38.434185,25.07793,50.142334,73.078674,92.675605,47.418812,83.006996,102.179786,116.488769,38.402984,79.07682,100.989715,115.873832,31.021442,68.445179,89.42728,104.393486,25.664165,54.975071,71.736351,84.358967,-16.517469,-17.565905,-10.282357,-5.728301,14.416535,28.177862,33.171667,36.329731,32.782405,46.461331,50.190019,51.537524,44.841779,59.392077,61.61545,60.518862,50.848846,63.445103,64.93929,63.053037,32.566909,296.360976,-88.66214,286.818462
