takenoko1/special-research/HandMotion_SimilarSearch_自分用/NewProject/handData_new/key/d3_feature/35.csv
,vel_0x_L,vel_0y_L,vel_0x_R,vel_0y_R,posFromWrist_1x_L,posFromWrist_2x_L,posFromWrist_3x_L,posFromWrist_4x_L,posFromWrist_5x_L,posFromWrist_6x_L,posFromWrist_7x_L,posFromWrist_8x_L,posFromWrist_9x_L,posFromWrist_10x_L,posFromWrist_11x_L,posFromWrist_12x_L,posFromWrist_13x_L,posFromWrist_14x_L,posFromWrist_15x_L,posFromWrist_16x_L,posFromWrist_17x_L,posFromWrist_18x_L,posFromWrist_19x_L,posFromWrist_20x_L,posFromWrist_1y_L,posFromWrist_2y_L,posFromWrist_3y_L,posFromWrist_4y_L,posFromWrist_5y_L,posFromWrist_6y_L,posFromWrist_7y_L,posFromWrist_8y_L,posFromWrist_9y_L,posFromWrist_10y_L,posFromWrist_11y_L,posFromWrist_12y_L,posFromWrist_13y_L,posFromWrist_14y_L,posFromWrist_15y_L,posFromWrist_16y_L,posFromWrist_17y_L,posFromWrist_18y_L,posFromWrist_19y_L,posFromWrist_20y_L,posFromWrist_1x_R,posFromWrist_2x_R,posFromWrist_3x_R,posFromWrist_4x_R,posFromWrist_5x_R,posFromWrist_6x_R,posFromWrist_7x_R,posFromWrist_8x_R,posFromWrist_9x_R,posFromWrist_10x_R,posFromWrist_11x_R,posFromWrist_12x_R,posFromWrist_13x_R,posFromWrist_14x_R,posFromWrist_15x_R,posFromWrist_16x_R,posFromWrist_17x_R,posFromWrist_18x_R,posFromWrist_19x_R,posFromWrist_20x_R,posFromWrist_1y_R,posFromWrist_2y_R,posFromWrist_3y_R,posFromWrist_4y_R,posFromWrist_5y_R,posFromWrist_6y_R,posFromWrist_7y_R,posFromWrist_8y_R,posFromWrist_9y_R,posFromWrist_10y_R,posFromWrist_11y_R,posFromWrist_12y_R,posFromWrist_13y_R,posFromWrist_14y_R,posFromWrist_15y_R,posFromWrist_16y_R,posFromWrist_17y_R,posFromWrist_18y_R,posFromWrist_19y_R,posFromWrist_20y_R,posFromBody_0x_L,posFromBody_0y_L,posFromBody_0x_R,posFromBody_0y_R
6,-0.576908,-0.001958,-0.176548,-0.527633,-20.529247,-45.056144,-60.935932,-67.113035,-68.326292,-76.437006,-59.698419,-41.929802,-70.882742,-78.591551,-56.378643,-32.557376,-69.157648,-76.946262,-56.874584,-36.374479,-64.42848,-71.550047,-59.894714,-46.502666,-17.262531,-15.633425,1.039624,13.645638,8.725951,24.861056,32.501552,35.982138,26.794307,41.273124,47.520851,48.040957,41.728076,52.831313,55.100455,53.451923,53.438085,61.943135,59.915252,56.931065,24.404709,48.42025,67.881878,81.412994,41.821907,76.141102,94.743896,108.75238,32.690277,70.162228,91.903335,107.525276,25.764336,59.753517,80.511303,95.84967,21.150307,47.848045,63.962711,77.485016,-13.64531,-10.548415,3.579499,15.890184,17.963541,33.59425,38.968894,43.0658,35.060575,49.33375,53.296879,55.810146,46.300533,61.04127,65.084638,66.277421,52.211184,66.400033,69.499064,69.798825,47.426193,295.29478,-84.785774,292.390498
7,-0.643615,-0.011263,-0.261212,-0.079534,-19.898838,-44.476445,-60.351769,-66.708441,-70.219054,-77.663664,-58.818198,-39.878357,-73.214762,-80.033736,-55.668709,-30.745022,-71.599589,-78.501824,-56.14864,-34.245638,-66.883479,-73.317953,-60.0481,-45.486786,-16.653499,-15.094369,1.095014,13.820342,8.550518,24.546796,32.902015,37.038379,26.438736,40.525104,47.677882,48.7376,41.292377,52.197469,55.342801,54.33851,53.246522,61.868071,60.086646,57.42676,24.475777,48.522091,68.034932,81.434853,41.73951,76.098656,94.737225,108.808171,32.647088,70.286282,92.105084,107.844899,25.810204,59.971253,80.777035,96.197056,21.331982,48.112141,64.272618,77.895298,-13.538519,-10.536745,3.637371,16.112226,17.888155,33.447382,38.873848,43.002542,35.021968,49.219437,53.100846,55.529033,46.34561,60.969615,64.996198,66.129726,52.350702,66.543404,69.697801,70.012481,46.571194,295.275397,-85.25837,292.302844
8,-0.065426,0.158248,-0.097,-0.111065,-19.693016,-44.238367,-60.082386,-66.261698,-70.075293,-77.065779,-58.099074,-39.013962,-72.985171,-79.097323,-54.745686,-29.82676,-71.253451,-77.56461,-55.153187,-33.37032,-66.424021,-72.585995,-59.355601,-44.960924,-16.628336,-15.336036,0.869168,13.503271,8.092682,24.657748,33.369873,37.683751,25.878455,40.283116,47.662364,49.025752,40.749097,51.87352,55.171011,54.430802,52.766283,61.511135,59.929584,57.475814,24.5709,48.576142,68.057648,81.466656,41.702477,76.037213,94.673046,108.773198,32.610203,70.326863,92.161183,107.926495,25.786858,60.040444,80.870579,96.318776,21.314095,48.160298,64.357888,78.070107,-13.489229,-10.469189,3.770159,16.276804,17.854354,33.396883,38.861498,43.029688,35.006111,49.206545,53.068588,55.481263,46.368669,60.997983,65.00561,66.104681,52.433288,66.618889,69.81719,70.160226,46.359175,295.42164,-85.501963,292.179774
9,0.307205,0.11283,-0.123676,-0.208877,-19.875618,-44.226969,-59.832813,-65.841219,-66.868017,-74.387289,-58.133818,-40.551029,-69.03713,-76.070509,-54.47826,-31.145256,-67.108789,-74.478252,-54.369209,-33.97356,-62.224428,-69.303578,-58.247046,-45.361502,-16.954823,-15.682665,0.316761,12.202228,7.524813,24.264683,32.93872,36.913081,25.02467,39.914096,47.132509,48.501466,39.712814,51.34511,54.527658,53.588268,51.695556,60.614668,59.503494,57.095185,24.653629,48.604019,68.028111,81.518395,41.561199,75.925907,94.596405,108.676575,32.495522,70.306526,92.16497,107.959236,25.744675,60.106888,80.96925,96.459389,21.358429,48.240749,64.476711,78.303166,-13.394109,-10.293658,3.961746,16.494844,17.965221,33.525015,39.029324,43.200156,35.061835,49.262701,53.088274,55.466332,46.404089,61.081001,65.047193,66.083735,52.45784,66.706772,69.998649,70.399323,46.571966,295.518353,-85.720053,291.95478
10,0.298805,-0.481628,-0.09597,-0.030714,-20.070419,-44.143358,-59.570904,-66.197782,-63.469694,-72.714128,-59.841448,-44.863037,-64.579416,-73.550417,-55.373005,-34.814541,-62.13022,-71.144153,-53.562446,-35.100139,-56.984075,-64.876041,-55.924375,-44.904928,-17.218349,-16.052711,-0.952865,9.835371,8.119667,23.149346,30.886407,34.301471,25.114257,39.359046,46.086605,47.256281,39.260047,50.759296,53.927703,52.896564,50.978522,59.775714,59.436877,57.405221,24.732513,48.660084,68.035183,81.603367,41.52681,75.884376,94.517967,108.551056,32.483597,70.342918,92.123955,107.909202,25.781387,60.248348,81.048614,96.529152,21.472298,48.430893,64.638737,78.517078,-13.373633,-10.289397,3.938342,16.504847,17.925971,33.465833,38.987184,43.18431,35.003591,49.180201,52.942209,55.268965,46.371953,61.023708,64.964866,65.989726,52.464866,66.737894,70.065772,70.499667,46.806061,295.010269,-85.880733,291.89761
11,0.01862,-0.220011,-0.036404,0.043694,-20.119332,-43.401478,-58.333786,-65.396267,-58.10043,-68.601197,-59.946522,-47.943604,-58.19672,-68.499138,-54.429348,-36.911099,-55.368473,-65.55328,-51.439694,-35.453362,-50.073624,-58.819233,-52.332917,-43.204262,-17.796827,-16.993627,-2.745151,7.189193,7.50312,21.198324,28.362174,31.47132,24.087848,37.867613,44.341032,45.639816,37.884953,49.448075,52.678042,51.742437,49.423783,58.117685,58.634931,57.110215,24.779469,48.686783,68.043125,81.722729,41.499653,75.839493,94.477902,108.463314,32.474385,70.383202,92.173817,107.982983,25.791641,60.330883,81.136162,96.646397,21.497853,48.520832,64.744755,78.6782,-13.387131,-10.30581,3.876271,16.42041,17.862184,33.401379,38.918543,43.084584,34.923329,49.137409,52.87531,55.153591,46.309166,60.985609,64.887061,65.858815,52.450516,66.769634,70.130227,70.569408,46.772536,294.754507,-85.969282,291.905553
12,-0.31588,0.555149,0.007885,0.089748,-19.803017,-43.015972,-57.909897,-64.84774,-58.170616,-68.404575,-59.737587,-47.650818,-58.327892,-68.314407,-54.01688,-36.311268,-55.494953,-65.44455,-51.178333,-35.067352,-50.156433,-58.906757,-52.346764,-43.128445,-18.545489,-18.405143,-4.219023,5.933585,6.158862,19.789994,27.179394,30.542606,23.086935,37.01516,43.624443,45.080481,37.262063,48.883293,52.234735,51.449122,49.217919,57.760644,58.267281,56.752173,24.778153,48.648331,67.988308,81.774594,41.58815,75.885727,94.471939,108.365845,32.573136,70.42265,92.159226,107.931336,25.864735,60.350807,81.080544,96.54831,21.515419,48.52676,64.723526,78.658997,-13.382253,-10.302142,3.820671,16.27794,17.80031,33.309049,38.82204,42.96695,34.861442,49.122144,52.887709,55.160038,46.238845,60.951016,64.852988,65.802647,52.388556,66.738327,70.130709,70.572706,46.418661,295.248076,-85.999392,291.933721
13,-0.718987,0.305714,-0.014488,0.014302,-19.153312,-41.83089,-56.537029,-63.546672,-57.56948,-66.877739,-58.641323,-46.653007,-58.164756,-67.451843,-53.146511,-35.217601,-55.594436,-64.898185,-50.365287,-34.016647,-50.384296,-58.894317,-52.059803,-42.460041,-18.883029,-19.21826,-5.761981,4.158902,5.334013,18.832344,26.502128,30.045614,22.243227,36.288025,43.460261,45.444005,36.516427,48.431996,52.240478,51.818438,48.68689,57.572317,58.281274,56.806884,24.639931,48.49926,67.852558,81.786495,41.641411,75.919292,94.477982,108.246826,32.660477,70.47488,92.167053,107.932709,25.920101,60.415009,81.061878,96.49601,21.494579,48.53096,64.687752,78.61544,-13.32632,-10.212197,3.808987,16.092602,17.918833,33.401613,38.860757,42.919377,34.915967,49.112646,52.856994,55.082046,46.22027,60.898071,64.765462,65.683024,52.317147,66.675217,70.048049,70.451699,45.681186,295.493428,-86.032368,291.887661
14,-0.636383,0.253078,-0.068619,0.050116,-18.705791,-41.273483,-56.036218,-63.305649,-60.205616,-68.406583,-57.798689,-44.350433,-61.520479,-69.256393,-52.415176,-32.998226,-59.072427,-66.955135,-50.281545,-32.62183,-53.820728,-61.314949,-52.512783,-41.48382,-18.554764,-19.29798,-6.077606,4.337577,4.510083,18.191869,26.439519,30.552887,21.75165,35.653224,43.565613,46.065091,36.41754,48.269525,52.723959,52.935553,48.923628,57.948593,58.586253,57.278638,24.582001,48.482689,67.824669,81.842434,41.759823,75.962528,94.47036,108.145592,32.810131,70.586586,92.232056,107.967362,26.04316,60.541466,81.100903,96.490242,21.554821,48.634564,64.738323,78.613266,-13.293912,-10.143937,3.818461,15.905795,17.963442,33.404145,38.83812,42.850069,34.944978,49.0877,52.833146,55.026608,46.231126,60.845127,64.694314,65.619211,52.319754,66.633351,69.950447,70.338339,45.036867,295.680838,-86.108923,291.872109
15,-0.494178,0.826554,-0.076629,0.081511,-18.85191,-41.651036,-56.420821,-63.28687,-65.629086,-72.400378,-56.91397,-40.08141,-67.85546,-73.825642,-52.207924,-29.433426,-65.639655,-72.120701,-51.585589,-30.907185,-60.342259,-66.759018,-54.87711,-41.190119,-18.031849,-19.117471,-5.627186,6.119126,3.205,17.759146,27.168322,32.191397,21.102135,34.84217,43.78952,46.702343,36.415255,47.804643,52.874111,53.551637,49.433674,58.190309,58.17313,56.76879,24.571746,48.45306,67.776294,81.897285,42.028392,76.150222,94.608993,108.158043,33.089435,70.757103,92.357574,108.022064,26.235591,60.613449,81.087318,96.391296,21.584037,48.610427,64.64899,78.434143,-13.206227,-10.023352,3.849607,15.697881,18.05193,33.421422,38.813172,42.764828,34.968912,49.068878,52.857871,55.078576,46.178465,60.779485,64.65173,65.601847,52.210368,66.53781,69.824007,70.201499,44.549063,296.443931,-86.179178,291.890159
16,-0.665039,0.31037,-0.083004,0.011658,-18.707417,-41.866253,-56.686221,-62.796914,-70.446534,-74.980345,-55.896453,-36.447384,-73.586867,-77.282387,-52.171464,-26.650956,-71.606055,-76.004391,-52.238875,-29.402905,-66.200284,-71.155632,-56.918244,-41.527274,-17.127996,-17.756998,-3.67817,8.653536,4.220288,20.450958,30.515454,35.76971,21.947757,36.450064,45.76315,48.880761,37.182566,48.875111,53.837306,54.530702,49.995047,59.178587,58.506619,56.726639,24.561149,48.426441,67.748554,81.888439,42.310958,76.362419,94.752513,108.241207,33.354103,70.864311,92.409015,108.030361,26.367633,60.586029,80.976688,96.199161,21.490985,48.445072,64.40982,78.093338,-13.103116,-9.913398,3.874234,15.516533,18.127278,33.462623,38.814123,42.720232,35.007235,49.045413,52.893415,55.153109,46.144614,60.728567,64.657239,65.613209,52.117793,66.42661,69.696567,70.04143,43.903994,296.690201,-86.242212,291.837717
17,-0.242203,-0.54425,-0.110928,0.121155,-19.22612,-42.148482,-56.665261,-62.819029,-69.742687,-73.813637,-55.512657,-36.503678,-72.549671,-75.770594,-51.64155,-26.532807,-70.371649,-74.193735,-51.153797,-28.797947,-64.723887,-69.26718,-55.530773,-40.483006,-15.274977,-14.572079,-0.66407,10.881102,6.921375,23.159875,32.956886,37.978776,23.247326,37.610564,46.764421,50.106791,37.202468,48.986423,53.707705,54.468686,48.766221,58.247367,57.806808,56.299938,24.525902,48.361576,67.658707,82.001335,42.442143,76.432011,94.801621,108.211144,33.545219,71.018761,92.559265,108.1558,26.528149,60.745285,81.099587,96.262688,21.530056,48.567146,64.480682,78.086231,-13.206166,-10.012928,3.780903,15.162912,17.986549,33.255289,38.600355,42.526879,34.857045,48.82731,52.789748,55.202929,46.001228,60.49736,64.501108,65.577282,52.012421,66.210298,69.452763,69.859266,43.70937,296.108802,-86.305561,291.921723
18,0.349388,-0.944016,-0.234432,-0.066888,-20.526375,-44.109736,-58.677853,-65.537504,-71.949864,-77.144062,-57.480148,-37.899513,-74.136154,-78.140196,-53.037249,-27.631737,-71.562349,-76.006102,-52.285469,-29.226551,-65.565336,-70.191084,-56.146328,-40.663685,-11.980592,-8.981739,5.014782,16.162491,10.587584,25.815983,35.368796,40.507715,25.331106,38.585604,47.560828,50.734386,37.67728,48.768901,53.567087,54.455299,47.841694,56.990833,56.723138,55.710358,24.720177,48.450233,67.592708,82.233776,42.897754,76.709781,95.116825,108.70618,33.864326,71.250423,92.77708,108.366405,26.645977,60.7015,80.966583,96.050823,21.358978,48.247753,64.146847,77.64434,-13.335595,-10.160228,3.626601,14.640812,17.591865,32.670018,38.146415,42.188523,34.558272,48.599636,52.863836,55.555437,45.805023,60.363831,64.641195,65.968298,51.932862,65.959431,69.277947,69.721686,44.122702,295.12907,-86.476049,291.819119
19,0.828438,-1.318939,-0.623852,-0.98629,-21.65308,-45.656256,-60.601496,-68.656523,-71.140664,-77.59825,-58.967898,-40.052868,-72.618925,-77.601099,-53.945052,-29.149384,-69.732983,-74.984877,-52.629187,-30.12172,-63.574728,-69.034704,-56.247128,-41.369093,-7.708131,-1.574407,13.390095,25.18054,13.962917,29.578682,38.760913,43.192678,26.427478,40.157367,48.772847,51.216804,36.814774,48.821123,53.361952,53.703413,45.178621,55.113638,55.408774,54.618419,25.091789,48.768219,67.78719,82.587971,43.256676,76.855156,95.17321,109.003235,33.947411,71.142506,92.679153,108.522949,26.517368,60.249081,80.493141,95.758507,20.940926,47.25174,62.91045,76.102764,-13.307325,-10.149384,3.408301,14.172423,16.619716,32.082043,38.080318,42.504093,33.606291,48.442506,53.480858,56.649247,45.036996,60.418776,65.204829,66.824838,51.446676,65.837536,69.323248,69.695084,45.016909,293.78016,-87.034132,290.802858
20,3.041851,-5.314185,-1.110809,-2.52264,-21.326592,-45.592936,-61.663594,-70.968619,-68.419539,-78.74338,-64.14247,-47.569365,-70.221549,-79.251189,-59.937704,-37.817602,-68.058334,-76.871178,-58.366082,-38.539158,-62.736466,-71.184723,-60.99539,-47.883156,-0.309388,9.926335,25.620314,37.121742,21.63443,37.448173,45.803263,49.148758,29.286553,43.48703,51.485092,53.292761,35.173072,47.928397,52.060223,51.91887,39.309362,50.070995,51.416055,51.063052,25.508915,49.190838,67.934852,82.512302,42.941883,76.469421,94.822128,108.665176,33.657074,70.670482,92.119926,107.835022,26.232261,59.75513,79.829899,94.796665,20.565204,46.750236,62.05814,74.447891,-13.478745,-10.697951,2.054856,12.62329,14.227134,30.484931,37.221172,42.058094,31.22717,47.393404,53.573224,57.302653,43.069232,59.548342,65.137286,67.240937,50.233898,65.163406,69.063698,69.515415,48.147303,288.444699,-88.056398,288.258942
21,5.483207,-8.752689,-0.812474,-4.339906,-19.999237,-44.797044,-62.977935,-74.052743,-66.252187,-84.235387,-74.441373,-60.637544,-69.250494,-86.383913,-72.260564,-53.888437,-68.579784,-84.753009,-71.131153,-54.714008,-64.962982,-78.847217,-71.627351,-60.55878,9.974168,24.67058,40.699345,51.522692,32.140003,46.685479,53.957455,56.434381,33.330551,46.803027,54.284337,55.4263,32.838869,45.057881,49.194399,48.916849,31.065793,41.780447,44.487325,44.918146,25.959835,49.852272,67.943219,82.697571,43.857274,76.037201,93.494271,105.708092,34.368473,69.936448,89.888684,103.271794,26.396691,58.984978,77.614094,90.503048,19.964562,45.975472,60.550347,71.192322,-13.732872,-10.554837,2.246492,12.95615,10.970517,28.206613,36.575992,42.654122,27.59926,45.461481,53.9903,59.263501,39.773453,57.303901,64.173893,67.358288,48.041598,62.652561,66.824814,67.751601,53.733919,279.681784,-88.765463,283.90881
22,6.248314,-11.225675,-3.585748,-10.162111,-20.040149,-45.272735,-64.184103,-75.278137,-63.448213,-86.275039,-80.776954,-69.823957,-65.476593,-87.871822,-78.854381,-64.352789,-64.352016,-85.636213,-77.031881,-64.441349,-60.818956,-78.772207,-75.096788,-67.101431,15.106849,32.681875,48.786142,59.634145,37.152259,53.606601,59.544749,60.087714,35.037709,52.044081,58.373387,57.653834,31.069331,46.851742,50.656043,49.108442,25.492021,38.651022,42.613367,43.034714,26.075369,50.376125,68.295839,82.750145,48.061935,78.256159,92.510296,101.562864,39.376716,72.428323,88.368175,97.989647,31.143951,61.493906,76.232019,85.516514,23.727556,48.205541,60.076641,67.696529,-14.621386,-11.968613,0.135215,10.732549,5.635034,23.149674,32.231338,38.430165,22.115033,40.812675,50.141878,55.453859,34.966912,52.797306,59.72327,62.765459,44.664814,58.380668,61.952262,62.497283,60.133964,268.38731,-92.19948,273.6779
23,5.052132,-13.571777,-6.279488,-15.566414,-20.895916,-44.824185,-62.51853,-72.39648,-62.029718,-85.859619,-83.418217,-75.325808,-62.318768,-86.192207,-80.705475,-69.929174,-59.321834,-81.916597,-76.884218,-67.740887,-54.21829,-72.783377,-71.441626,-65.778448,15.237093,32.925357,48.872839,59.575285,38.04307,56.220064,60.045434,58.393567,35.964928,55.398659,59.029473,55.973173,31.826465,49.541936,50.993484,47.459755,25.806331,39.810595,42.551715,41.349545,25.690893,50.700142,69.033606,82.666901,55.291054,82.909281,91.545582,95.629503,48.612969,78.238043,87.640297,91.995403,40.625199,67.706961,76.166388,80.327946,32.253267,54.148047,61.295746,64.641094,-16.407282,-15.263998,-4.401267,6.059203,-2.076765,15.199987,24.059844,29.29781,14.486214,33.150066,41.654074,45.532679,28.420368,45.66522,51.324238,53.041757,39.957531,52.208084,54.27403,53.772814,65.359005,254.751634,-98.306059,258.047587
24,13.251114,-26.834667,-6.063595,-22.933523,-22.431049,-47.143513,-65.155672,-74.454895,-62.714521,-90.324898,-92.708817,-88.202723,-61.0406,-89.217041,-89.702339,-84.074255,-56.284836,-82.922716,-83.804026,-79.838322,-49.387407,-70.636019,-73.403383,-72.031214,11.589373,25.345482,37.032531,43.757361,34.486197,54.200097,58.585259,57.469324,33.252727,55.085771,59.454563,57.620946,29.811277,49.247448,52.201495,50.373041,24.454121,39.539919,43.459644,43.293535,23.140681,47.620572,66.009001,79.723583,57.829674,83.393504,89.270497,89.551329,52.628678,79.282694,84.543744,84.30724,44.947255,69.387137,73.945673,73.715962,36.1113,56.451559,60.936161,60.979351,-18.908544,-20.156347,-11.083451,-1.622128,-9.502474,5.803452,13.700583,18.103572,6.969078,23.200359,30.552165,33.528906,21.34424,35.750105,40.182414,41.16267,33.766447,43.672325,44.416541,43.154597,78.728623,228.112277,-104.25115,235.309374
25,11.309109,-29.403835,-8.22829,-28.62633,-23.127732,-47.153344,-64.385971,-72.048649,-67.243584,-92.67445,-94.228878,-90.0821,-64.856118,-90.392121,-90.768734,-86.139885,-58.780278,-82.784981,-83.41824,-80.096215,-50.208298,-69.453507,-71.869069,-70.858212,2.632426,9.702897,15.628214,17.891873,24.057182,45.803676,49.572835,47.370173,26.842249,50.724554,54.046344,51.231081,27.402869,48.162345,50.234577,47.533861,25.772473,41.457658,44.345156,43.08693,23.631048,48.812725,68.02157,80.627678,56.149303,83.295141,86.727836,83.236799,50.420734,78.659013,81.615108,77.306968,42.956165,68.572912,71.00128,67.200725,34.810129,55.635858,58.584594,56.009102,-20.909838,-24.299231,-15.815608,-6.155584,-20.756925,-8.789831,0.087408,4.271072,-4.758623,7.761206,15.169508,17.710117,10.490889,20.91768,24.857196,25.551018,24.68369,30.389403,30.581694,29.446783,90.244229,199.003714,-112.272943,206.978316
26,11.717971,-35.079218,-9.199459,-33.403496,-25.857879,-49.229553,-64.182289,-69.476257,-69.073196,-92.150676,-92.158023,-87.691555,-63.431442,-85.677452,-85.423015,-81.097148,-54.150947,-75.27547,-76.19181,-73.378326,-42.406196,-59.713737,-63.758297,-64.538166,-9.302347,-9.96601,-9.723127,-11.995987,6.349437,27.560901,32.598438,31.598439,14.889142,39.39375,43.104431,40.853776,21.511491,42.701225,45.065902,42.545231,25.733626,41.296533,43.834704,42.215466,24.43939,49.962044,69.344885,79.928295,54.346355,82.487268,84.448585,79.192079,48.295898,77.676115,79.438442,73.350483,41.041488,67.347078,69.043688,63.487003,33.613638,54.324812,56.626224,52.88126,-20.394105,-27.223101,-22.564558,-15.354697,-30.894213,-25.058132,-16.183443,-12.172729,-17.404274,-11.302641,-4.854361,-2.922172,-3.321536,1.217205,4.788929,5.722929,10.534379,11.877716,12.134085,11.419343,102.362611,164.401314,-121.071991,174.051638
27,12.418282,-37.941392,-7.484866,-33.854065,-28.683357,-51.98513,-67.071236,-72.714157,-65.625046,-87.920998,-90.083027,-87.284306,-58.511147,-81.616802,-83.708725,-80.880249,-48.901085,-71.090813,-74.266869,-72.506172,-37.606499,-55.693863,-62.150963,-64.489929,-15.215209,-22.247253,-25.708308,-29.990823,-13.332963,2.533959,9.658802,11.678559,-2.856197,17.106828,23.245758,23.766338,7.747269,24.700307,29.143015,29.120414,17.547176,29.478455,32.377903,32.103978,25.353756,50.688687,69.927716,79.555275,48.093579,77.883969,80.719597,75.222142,40.244603,71.986233,75.081448,68.760407,32.707043,61.149914,65.035252,59.697087,26.318882,48.829136,53.674702,51.129364,-19.173614,-28.787362,-26.845861,-21.269429,-41.179237,-40.359958,-30.074179,-25.171888,-29.870137,-27.989479,-20.29791,-17.695445,-16.381828,-15.542356,-10.608893,-8.5926,-2.027957,-3.870954,-2.838055,-2.570626,115.348726,127.034275,-127.989024,140.771926
28,12.427139,-42.451043,-5.53038,-30.040031,-30.135475,-54.361747,-71.202873,-77.676704,-59.617172,-84.391571,-88.426105,-85.544197,-51.145614,-78.216316,-82.754448,-80.209785,-41.979469,-68.095299,-73.752365,-72.577194,-32.206718,-53.204109,-61.845543,-65.236107,-18.217903,-29.866408,-36.778829,-42.467104,-30.942582,-19.178079,-9.111366,-4.881321,-21.496078,-3.915526,5.725838,8.63984,-9.922982,5.130916,13.145632,15.609411,2.20499,12.24951,17.645575,19.636631,26.299954,50.535233,69.547257,80.408455,37.081444,66.829777,75.052014,74.505707,27.639576,60.392166,69.428066,67.980309,20.339733,50.695244,60.529679,60.019226,15.56321,39.496845,48.351013,49.09774,-19.32862,-31.238175,-31.88154,-28.483526,-50.039014,-53.914452,-46.103377,-42.196885,-41.586581,-44.758434,-38.88324,-37.040843,-29.906114,-33.969075,-30.681958,-29.395734,-16.157804,-21.786941,-21.783026,-22.279012,128.552622,85.316987,-132.742647,111.46565
29,3.617684,-35.179926,-7.561706,-27.644511,-29.18438,-51.735878,-68.121048,-74.705269,-52.781639,-75.200638,-78.91372,-76.029534,-44.33741,-70.538819,-74.401886,-71.378472,-35.933968,-61.133606,-66.095627,-63.774193,-27.671151,-47.685288,-56.189278,-59.018921,-19.706384,-33.894993,-42.294852,-48.507338,-43.441927,-37.674334,-29.049487,-24.960665,-35.207572,-23.456085,-14.650242,-11.956047,-23.765313,-14.246339,-7.137613,-4.989038,-10.791885,-5.848406,-1.788922,-0.283194,29.762386,53.907085,72.744713,84.417103,31.821773,62.742508,73.763134,76.295322,21.064636,56.708748,69.562854,71.944198,13.826156,47.252895,61.155716,64.694984,10.413276,35.975326,47.803791,52.032417,-16.701449,-30.821051,-33.93016,-32.196294,-59.601109,-67.819613,-59.92896,-54.863061,-54.512461,-61.734234,-55.570036,-52.581168,-44.296127,-52.375323,-49.062851,-47.001209,-30.484289,-39.994204,-40.225386,-40.376612,133.596337,51.081525,-138.878322,84.765603
30,4.097831,-30.294567,-4.956196,-22.360213,-29.413398,-50.247779,-64.56475,-71.236747,-41.272934,-65.240661,-73.991684,-75.706489,-31.772781,-61.153289,-70.530784,-72.838554,-23.5345,-51.304161,-61.303276,-63.903877,-16.259033,-36.241447,-46.849823,-52.484848,-19.532087,-35.513088,-44.864095,-51.699606,-53.334343,-53.28201,-45.374536,-40.233672,-47.431016,-41.392555,-33.005669,-29.642087,-37.063283,-33.088964,-26.837167,-24.391277,-24.17988,-24.255951,-21.775844,-20.946042,30.04446,53.342823,71.870808,85.343101,30.694427,57.75317,71.070087,78.185623,20.417839,52.710995,67.765354,74.996235,13.288204,44.29953,60.687034,68.921997,9.768093,33.511322,46.999969,54.894218,-16.650246,-32.678269,-38.64087,-39.546174,-64.736736,-75.271381,-71.005428,-67.576329,-62.529079,-72.332167,-68.890927,-66.721728,-54.517389,-65.041481,-63.961979,-62.715905,-42.119308,-53.580715,-55.793628,-57.342903,139.225004,22.977433,-142.303682,64.595865
31,0.197869,-23.278662,-3.968022,-17.783545,-29.036551,-48.176325,-61.348332,-68.886532,-33.882649,-56.340494,-68.545355,-73.955023,-24.771893,-54.738087,-67.928793,-74.111384,-17.701544,-45.767487,-58.448897,-64.102066,-12.109663,-30.913061,-41.277437,-47.615341,-20.031825,-37.994989,-48.31679,-54.910094,-61.451496,-65.131127,-59.71645,-55.586773,-57.088372,-55.635325,-48.762623,-45.916061,-47.192231,-47.566177,-42.847489,-40.766284,-33.968389,-37.965083,-37.719891,-38.083945,29.685872,52.149079,71.156846,87.079171,28.385651,53.29731,68.594559,79.399762,18.71933,49.425076,66.349526,77.423562,12.179078,42.61076,60.787652,72.780922,8.999497,31.940484,46.83957,57.984032,-19.013915,-36.481958,-43.232272,-44.368319,-69.560672,-80.159624,-80.237059,-80.366796,-68.142271,-77.998866,-78.097073,-78.523719,-60.74982,-71.849018,-74.206205,-75.693179,-48.546049,-61.531222,-66.71349,-70.815539,140.532034,2.508974,-145.162543,49.622523
32,-2.856674,-20.216588,-2.333988,-13.755614,-26.888369,-43.660384,-54.684323,-61.914632,-31.884373,-53.108717,-66.020548,-73.041956,-23.545521,-52.335194,-66.906275,-75.513525,-16.804751,-43.494668,-57.193102,-65.029084,-11.040522,-28.136965,-37.669768,-44.429421,-22.882644,-43.522984,-56.53264,-65.915141,-64.619204,-70.870828,-68.682574,-66.393503,-60.508576,-62.845611,-58.747414,-57.026544,-51.176979,-55.133704,-53.05791,-52.157589,-38.75617,-45.260746,-47.451175,-49.662514,29.375222,51.341904,70.754906,88.836983,27.153523,50.05822,67.408894,82.055981,18.352135,47.204006,65.674954,80.278302,12.494969,42.082489,61.602871,76.869587,9.438595,31.040303,46.158612,59.296521,-21.006113,-39.686144,-47.757868,-49.700307,-71.188833,-82.630746,-87.613238,-91.306296,-71.030283,-82.492765,-86.69417,-89.497731,-65.285382,-78.678269,-85.178914,-89.296839,-54.673556,-69.910519,-78.010092,-84.527317,138.327811,-14.420396,-146.84408,39.154127
33,-3.258477,-15.633922,0.073597,-13.172968,-24.990955,-39.954105,-49.186226,-56.655006,-30.537964,-50.141887,-65.72604,-76.086239,-23.624359,-51.461174,-69.348324,-81.605861,-17.948536,-44.225601,-60.610988,-71.567779,-12.740192,-30.279247,-41.19041,-50.137138,-25.121234,-48.336635,-64.05228,-76.459459,-68.256776,-78.608706,-79.887902,-78.446815,-64.146219,-71.432568,-69.492786,-67.642417,-54.94635,-62.994823,-62.696474,-61.881301,-42.753373,-51.516899,-55.398054,-58.502701,29.429798,51.372368,70.859951,89.504608,27.440106,50.284069,67.618939,82.80764,18.074673,46.970169,65.745541,81.318363,11.889267,41.216995,61.244557,77.369499,8.476925,29.903504,45.785626,60.14946,-20.4208,-39.991648,-48.671737,-50.550197,-72.126464,-83.971039,-88.829296,-92.714842,-72.662532,-84.513467,-88.315823,-90.655978,-67.608013,-81.368444,-87.488503,-91.050724,-57.817461,-73.560469,-81.480583,-87.557015,135.309339,-26.614984,-146.530478,29.420493
34,-4.404739,-11.921948,4.108795,-8.283892,-24.965344,-38.770352,-46.732178,-54.133988,-30.439339,-49.70953,-66.689015,-78.43729,-23.813324,-52.338181,-72.47263,-86.726589,-18.83955,-46.859093,-65.382099,-78.331032,-14.430027,-34.554005,-46.79781,-57.03392,-26.599731,-51.531213,-68.871446,-82.53486,-73.473349,-88.016536,-91.27323,-90.388154,-69.299261,-79.948567,-79.001609,-76.953996,-59.52715,-69.288694,-69.464351,-68.495919,-46.654721,-55.399073,-59.413097,-62.620552,29.089875,51.067887,70.957684,90.000744,26.3485,48.282395,65.74387,82.367031,16.917984,44.784977,63.857632,80.91132,10.975846,39.591534,59.846238,76.840336,7.568974,28.792351,44.452366,58.746495,-21.949456,-42.033592,-50.490762,-51.815685,-73.250303,-83.808839,-90.470733,-97.236806,-73.610907,-84.350612,-89.884295,-94.872864,-68.694203,-81.171411,-88.913931,-94.488048,-59.288133,-74.350288,-83.007732,-90.13775,130.319538,-35.086272,-143.006745,24.587261
35,-5.609505,-9.130249,6.328503,-7.153644,-26.930935,-41.394527,-50.263801,-58.711235,-32.418754,-51.631954,-69.419208,-81.354595,-25.196136,-54.496765,-75.547955,-89.341129,-20.277042,-49.98761,-69.959827,-82.861702,-16.441669,-39.731792,-54.706386,-66.59832,-28.034274,-53.457066,-71.107935,-84.697233,-78.915074,-96.42861,-99.315215,-97.416397,-74.659518,-87.69314,-85.873491,-82.119079,-64.560139,-75.72523,-74.235018,-71.127085,-51.231631,-60.000887,-62.347767,-63.549822,29.026108,50.485703,70.215122,89.733067,26.172913,48.564171,66.287304,83.110966,16.559589,45.474999,64.88308,82.406353,10.804218,40.882862,61.551659,78.590309,7.743256,30.284775,46.344955,60.531555,-21.019049,-41.729248,-50.041434,-50.977743,-74.131499,-84.040328,-90.608633,-97.762826,-74.195034,-84.332611,-89.930805,-95.84571,-69.23655,-80.908619,-88.846221,-95.296354,-60.080236,-74.620148,-83.07307,-90.350831,123.580118,-41.913709,-137.808157,19.736429
36,-8.641811,-8.563923,8.202416,-5.789879,-28.114329,-42.987837,-52.640476,-61.826889,-32.48885,-51.074324,-68.882315,-80.807299,-24.92474,-54.925152,-76.544604,-90.079737,-20.166979,-51.284752,-72.283522,-85.242857,-16.946188,-42.25355,-59.01483,-71.974457,-28.651335,-54.185659,-71.718123,-85.230981,-81.470388,-101.612105,-105.042062,-103.296044,-77.069153,-91.471675,-89.404861,-84.797362,-66.807031,-78.675103,-76.251395,-71.788906,-53.266075,-62.059,-63.226036,-63.02148,29.435588,50.406383,70.031375,89.585357,26.200744,49.188457,67.725803,85.552551,16.53067,46.628047,67.289131,86.285018,11.384227,42.531063,64.501968,82.70153,9.341411,33.119419,49.501831,63.546833,-19.987348,-41.40036,-49.247429,-49.871436,-75.831364,-84.764772,-90.558776,-97.116169,-75.177211,-84.866079,-90.07393,-96.017074,-69.534094,-80.284298,-87.8331,-94.252204,-60.037566,-73.391853,-81.04673,-87.875344,113.981278,-48.973374,-130.56277,15.450808
37,-11.674118,-7.997595,10.282173,-4.190265,-28.515524,-43.55028,-53.862202,-63.480949,-30.649624,-48.036638,-65.078333,-76.795401,-22.999134,-53.623341,-75.462576,-88.942412,-18.50936,-50.750519,-72.353182,-85.474497,-15.943583,-42.119276,-59.723139,-73.162331,-28.450918,-53.716992,-70.702013,-84.136106,-81.139293,-103.567025,-108.453774,-108.027095,-76.528167,-91.284173,-89.595719,-84.988847,-66.267826,-78.138314,-75.513484,-70.481381,-52.758054,-61.573413,-62.047907,-61.035529,29.850517,50.285339,69.829067,88.966987,25.958816,49.617302,69.065265,87.860252,16.615894,48.21595,70.574329,91.131099,12.448299,44.804042,68.132034,87.424965,11.897644,36.754749,53.456737,67.430557,-19.099174,-41.176935,-48.497829,-48.983397,-77.974462,-85.774114,-90.783486,-96.628416,-76.671615,-85.987665,-91.025295,-97.024551,-70.238241,-79.979362,-87.015421,-93.220812,-60.244091,-72.257399,-79.147591,-85.536696,101.457104,-55.993262,-121.130653,12.23825
38,-11.272659,-4.588832,11.096946,-3.308606,-28.734684,-43.311116,-53.89975,-63.769787,-28.524971,-45.389775,-61.647812,-73.176591,-20.979928,-51.706742,-73.48732,-87.657979,-16.946446,-49.866898,-72.125405,-86.480605,-15.326752,-42.646763,-61.16549,-75.866936,-27.776583,-52.901568,-69.947532,-83.304964,-79.975239,-102.579173,-108.54067,-109.33412,-75.603126,-89.986837,-89.064028,-84.959261,-65.657217,-76.827255,-74.680429,-69.835548,-52.353818,-60.543179,-60.470687,-58.823489,30.100491,50.161847,69.468762,87.837101,25.942486,51.082032,71.251202,90.459881,17.015076,51.043431,73.980904,94.576138,13.878411,48.882683,72.766091,92.028889,14.744797,41.452435,58.421116,72.171193,-18.411565,-40.791044,-47.923748,-48.205885,-79.602092,-86.050934,-90.036355,-94.984904,-77.737816,-85.752038,-90.191633,-95.870905,-70.502384,-78.811155,-85.08848,-90.972189,-59.842386,-70.826228,-76.947682,-82.88588,89.481572,-59.95111,-110.73658,9.560628
39,-11.991166,-1.899677,11.060841,-2.669168,-27.076801,-40.693577,-51.008285,-60.668426,-24.227027,-41.96529,-57.834491,-69.642231,-17.805633,-48.742035,-70.043644,-84.848384,-15.106052,-48.531498,-71.004066,-86.558767,-15.015793,-42.469528,-60.92815,-76.410312,-27.62837,-52.766169,-70.147428,-83.703625,-77.251209,-98.204546,-104.322127,-105.696854,-72.792519,-85.227771,-85.101011,-82.098921,-63.023556,-72.667779,-71.477692,-67.661646,-50.089727,-58.046851,-58.31834,-57.048757,30.454262,50.491081,69.528797,86.954224,26.981701,52.637432,73.218807,92.605476,18.661903,53.578388,76.94656,97.40633,16.296295,52.093632,76.383602,95.704948,18.090912,45.448883,62.963963,77.156548,-17.101857,-39.123925,-46.333433,-47.483473,-79.482333,-85.056073,-87.826925,-91.408091,-77.499002,-84.389372,-87.590267,-91.606625,-69.900762,-77.201729,-81.911063,-86.254432,-58.820305,-68.521709,-73.762559,-78.808778,77.073772,-61.547068,-100.092373,7.195179
40,-11.882652,-2.724391,10.584755,-1.859533,-25.416859,-38.147678,-48.145603,-57.799587,-21.319885,-38.139416,-51.992306,-62.611633,-15.249619,-46.687855,-66.602611,-81.058651,-13.278568,-47.746834,-69.468922,-85.132582,-13.958153,-42.6679,-61.043598,-76.668274,-25.950315,-50.360113,-67.532832,-80.639965,-73.58995,-94.531684,-102.662075,-106.229344,-69.046761,-79.228199,-79.636485,-77.571303,-59.401539,-66.488928,-65.575153,-62.660746,-46.580772,-53.590416,-53.872261,-52.954471,30.230335,50.064526,69.187351,86.470894,26.393166,52.612335,73.310154,92.707947,18.508209,54.323433,77.74649,97.956665,16.658478,52.957397,77.216011,96.500782,19.252579,47.169777,64.972858,79.402748,-16.310396,-38.006205,-45.470144,-47.750989,-78.933316,-83.714305,-85.640634,-88.09688,-77.074215,-82.702265,-84.946516,-87.446574,-69.17283,-75.47399,-78.891128,-81.743374,-57.735036,-66.357567,-70.776235,-74.896426,65.168095,-64.202088,-89.530643,5.405017
41,-7.651897,-0.383751,8.76083,-1.671361,-24.081345,-36.178666,-45.984639,-55.837624,-19.563996,-36.513337,-49.430031,-59.527451,-13.984589,-45.846417,-65.111859,-79.722348,-12.819764,-47.90902,-69.104874,-84.917645,-14.352837,-44.153355,-62.540944,-78.277005,-24.745879,-48.326287,-65.332687,-77.583295,-71.092373,-91.401676,-100.432346,-105.181336,-66.619997,-75.365239,-75.91835,-74.262312,-57.242663,-62.797073,-61.97356,-59.658256,-44.675769,-51.00689,-51.133164,-50.305017,29.889427,49.752376,69.268284,86.490635,25.10844,52.247108,72.808983,91.72768,17.324547,54.157848,77.438701,97.231064,15.689655,52.29689,76.363666,95.516453,18.730064,47.022652,65.032253,79.837131,-15.936534,-36.763621,-44.258058,-47.607691,-78.0445,-81.777281,-82.667722,-83.768572,-76.231434,-80.627723,-81.522289,-82.133575,-67.872175,-73.390359,-75.316132,-76.44454,-55.853372,-63.203356,-66.739975,-69.764819,57.541809,-64.505839,-80.744202,3.813656
42,-3.065392,1.911002,6.478145,-1.051925,-22.827301,-34.549919,-44.282272,-54.643764,-19.733574,-37.237312,-49.566971,-59.282753,-14.596115,-46.851299,-65.864948,-80.968494,-14.116974,-49.605228,-70.474972,-86.738228,-16.315384,-47.396152,-65.809284,-81.695686,-23.823204,-47.070598,-64.222414,-75.762748,-69.946893,-89.129384,-98.379812,-103.846242,-65.695797,-73.25929,-73.475339,-71.746859,-56.562655,-60.894113,-59.731022,-57.704682,-44.253396,-49.674495,-49.468539,-48.611184,29.534134,49.425969,69.13955,86.069321,24.03447,52.309422,72.571061,90.845536,16.336647,54.134697,77.117936,96.421475,14.797703,51.681027,75.384385,94.213109,17.987618,46.504475,64.551144,79.603512,-15.128517,-35.047792,-42.898993,-47.233261,-76.800296,-79.212589,-79.12176,-79.164022,-75.215299,-78.124979,-77.745745,-76.662,-66.657038,-71.352953,-71.840491,-71.377783,-54.304553,-60.854685,-63.455853,-65.453633,54.695515,-62.458149,-74.046959,2.898419
43,-2.063576,1.412201,4.522019,-0.638549,-21.98719,-34.082588,-43.964676,-54.808902,-19.978431,-37.599792,-49.429435,-59.165565,-15.134491,-48.36708,-67.568699,-82.889396,-15.080749,-51.00222,-71.273208,-87.033016,-17.516029,-48.486831,-66.163261,-81.033657,-22.959507,-45.283819,-61.687467,-72.382978,-68.532145,-87.312171,-96.78993,-103.03222,-64.090484,-70.112511,-69.49433,-67.240122,-54.93434,-58.11678,-56.184474,-53.845356,-42.807442,-47.791083,-47.381801,-46.474095,29.440681,49.220455,69.023575,85.716465,22.342586,50.848812,70.916897,88.822712,14.687519,52.326244,75.275082,94.642101,13.18753,49.201126,72.891655,92.036968,16.676937,44.893146,63.008812,78.543056,-14.550978,-33.633559,-41.689135,-47.302797,-75.177001,-77.167797,-76.813313,-76.345263,-73.743472,-76.288262,-75.229563,-72.821328,-65.018614,-69.810946,-69.574757,-67.821885,-52.520405,-58.602166,-60.698456,-61.801251,52.946754,-60.872398,-69.210125,2.43342
44,-0.030487,1.500078,2.805096,-0.30015,-23.37355,-36.499901,-47.386253,-59.031967,-21.840728,-39.05413,-50.715557,-60.828678,-16.487274,-50.780903,-70.538028,-86.40374,-16.076912,-52.523243,-72.624939,-88.534664,-18.229065,-49.32249,-66.879467,-81.501686,-21.18756,-41.963122,-57.135072,-66.532213,-67.55282,-86.320932,-96.530201,-103.897001,-63.615913,-68.904101,-67.694516,-64.699778,-54.851724,-57.506849,-55.117078,-52.239144,-42.922545,-47.449714,-46.533258,-45.169963,28.904754,48.33704,68.193843,84.702392,20.507022,48.208271,67.119552,83.567195,12.637058,49.995861,72.356414,91.034523,10.770927,46.429676,69.898178,88.927276,14.046054,42.175289,60.264083,75.944423,-14.219872,-32.57517,-40.750455,-46.901864,-73.284296,-76.240177,-77.04397,-77.525018,-71.858608,-74.890745,-74.155687,-71.79219,-63.129434,-68.468184,-68.526717,-66.671401,-50.848735,-57.200666,-59.219571,-59.880967,53.188001,-59.338771,-66.133295,2.166819
45,0.519036,1.528749,1.427101,-0.378153,-22.823342,-36.383698,-47.954281,-60.109612,-22.359604,-39.652611,-51.46605,-61.960053,-17.227936,-51.732285,-72.145741,-88.763787,-16.992257,-53.384022,-73.379391,-89.291577,-19.332734,-49.999386,-67.128342,-81.382553,-21.068487,-41.267109,-55.891323,-64.679648,-67.225225,-85.735084,-96.324471,-104.170926,-63.131145,-68.217422,-66.878753,-63.508733,-54.330563,-56.973765,-54.597504,-51.444762,-42.405947,-46.611057,-45.328458,-43.475507,28.582534,47.733432,67.297394,83.066208,19.529239,45.752884,63.123802,77.503097,11.654262,48.618049,70.7127,88.539367,9.716125,45.193176,68.801811,87.645103,13.011039,40.861267,59.010875,74.712398,-13.830913,-31.462477,-39.59308,-46.080424,-71.667843,-76.103647,-78.786462,-80.914986,-69.890277,-73.680048,-73.21232,-70.831181,-60.865041,-66.767466,-66.966241,-64.977841,-48.497502,-55.104734,-57.090664,-57.304704,53.916802,-57.751498,-64.496429,1.84719
46,0.64524,1.271756,0.914222,0.496387,-22.862251,-36.706718,-48.695675,-61.179313,-22.983741,-40.028915,-51.880554,-62.56874,-17.826782,-52.496852,-73.241569,-90.203327,-17.658668,-54.350681,-74.295421,-90.319816,-20.176849,-50.822811,-67.580921,-81.644863,-20.923176,-40.801838,-55.145106,-63.71108,-67.024913,-85.466535,-96.195669,-104.19365,-62.869947,-67.618332,-66.173983,-62.645843,-53.87277,-56.210925,-53.801739,-50.483321,-41.718832,-45.478518,-43.996187,-41.866607,28.323876,47.411866,66.772511,82.131546,20.038033,44.598427,60.648583,73.44627,12.02361,48.267197,70.18348,87.45662,9.501526,44.584168,68.30682,86.932915,12.126263,39.552578,57.953911,73.873135,-13.387107,-30.583553,-38.924743,-45.869639,-70.410358,-76.428849,-80.902049,-84.526187,-68.546551,-72.63646,-72.266365,-69.549749,-59.500116,-65.278121,-65.426735,-63.120808,-47.289553,-53.918743,-55.702997,-55.440187,54.77437,-56.471672,-63.369879,2.351647
47,0.428421,1.135775,0.400761,1.027002,-22.797271,-36.643547,-48.538696,-61.184623,-23.158767,-39.764259,-51.70618,-62.671051,-17.966308,-53.070522,-74.217361,-91.477489,-17.911331,-55.071624,-75.098064,-91.213016,-20.602249,-51.16254,-67.931339,-82.217365,-21.035475,-40.478321,-54.695767,-63.112435,-67.234673,-85.556233,-96.211742,-104.069686,-62.942627,-67.13581,-65.217383,-61.19154,-53.737814,-55.66539,-53.111498,-49.426005,-41.343389,-44.822778,-43.164896,-40.576807,28.37059,47.2435,66.420548,81.787617,20.309486,43.274586,58.587238,70.442436,12.107655,47.644444,69.423328,86.37299,9.089665,43.869015,67.860764,86.713108,11.3363,38.60487,57.28331,73.568688,-13.483462,-30.342226,-38.502518,-45.761063,-70.154773,-77.53835,-83.409363,-88.16383,-68.215143,-72.541951,-72.371502,-69.62937,-59.021495,-64.670731,-65.016651,-62.690488,-46.76539,-53.308804,-55.145928,-54.609193,55.337431,-55.409358,-62.834478,3.305188
48,0.400956,0.872453,0.014969,1.277128,-22.735657,-36.460717,-48.315995,-61.084774,-23.2584,-39.784996,-52.077347,-63.394192,-18.093933,-53.709103,-75.153695,-92.66668,-18.174111,-55.919484,-76.140015,-92.621659,-21.10524,-51.807656,-68.752831,-83.558831,-21.205764,-40.349047,-54.562479,-62.968964,-67.407738,-85.651557,-96.170101,-103.827244,-63.197082,-66.963576,-64.789687,-60.567916,-53.985168,-55.707041,-53.215597,-49.436126,-41.460906,-44.897187,-43.252724,-40.537873,28.424698,47.229412,66.500565,81.899219,20.510662,43.476082,58.808006,70.474319,12.359013,48.261623,70.040085,86.818531,9.293827,44.69553,68.945423,87.959461,11.445202,39.065929,57.961246,74.419739,-13.793288,-30.700687,-38.892583,-46.122099,-70.759606,-78.315281,-84.554481,-89.804612,-68.843077,-72.820878,-72.778183,-70.294471,-59.593569,-64.642925,-65.026901,-62.922058,-47.289534,-53.562487,-55.411813,-55.009879,55.800831,-54.7044,-62.757065,4.414821
49,0.616104,0.709519,0.151863,1.354761,-22.452759,-35.911652,-47.37703,-60.213707,-24.092858,-40.752274,-53.122525,-64.518025,-18.944092,-54.845387,-76.564293,-94.509487,-18.917954,-56.748059,-76.886467,-93.464505,-21.681771,-52.085987,-68.851914,-83.692978,-21.546961,-40.602446,-54.77085,-63.134869,-67.403335,-85.235663,-95.325275,-102.625758,-63.145848,-66.250653,-63.690055,-59.257696,-53.810705,-55.143995,-52.297604,-48.255027,-41.136248,-44.042327,-42.242451,-39.31516,28.448959,47.346165,66.904713,82.240276,20.022411,44.601631,60.935658,73.842327,11.895229,48.987316,71.210335,88.727978,9.091782,45.692425,70.178398,89.593815,11.592258,40.141823,59.23724,75.952068,-14.773916,-31.928261,-40.158195,-47.117528,-72.297204,-78.46594,-84.01343,-88.595243,-70.23432,-73.309966,-73.356334,-70.904207,-60.739323,-65.060228,-65.489937,-63.558964,-48.145358,-54.374066,-56.131384,-55.889106,56.464119,-54.230851,-62.558018,5.533612
50,0.519035,0.638357,0.025612,1.384987,-22.82666,-36.253921,-47.336632,-59.902176,-24.765816,-43.189819,-56.781761,-69.046326,-19.593338,-55.85059,-77.758118,-96.00761,-19.495994,-57.681564,-77.733627,-94.44817,-22.103943,-52.672874,-69.358292,-84.265903,-21.00142,-40.069793,-54.339257,-62.742056,-67.256277,-83.577432,-91.745134,-97.26556,-63.310672,-65.887165,-62.93786,-58.369114,-54.039058,-55.016771,-51.785038,-47.641888,-41.414445,-43.769347,-41.766836,-38.828838,28.497837,47.673523,67.597103,83.213802,20.26981,46.721237,64.635715,79.409248,12.14098,49.833034,72.329052,90.661297,9.306862,46.26646,70.848564,90.688557,11.605442,40.535694,59.652317,76.659244,-15.392766,-32.836862,-41.341555,-48.150155,-72.953468,-77.787778,-81.866281,-85.138158,-71.077095,-73.443686,-73.584674,-71.439156,-61.705112,-65.624793,-66.083574,-64.420901,-49.119748,-55.269051,-57.067316,-57.186358,57.031139,-53.861877,-62.484421,6.649216
51,0.580994,0.858046,0.332851,0.880493,-22.518906,-36.018975,-47.019608,-59.383782,-25.519478,-47.107601,-62.283314,-75.78598,-20.463524,-57.560475,-79.684662,-98.516167,-20.45311,-59.060761,-79.128834,-96.149082,-23.127068,-53.983097,-70.830757,-86.172398,-20.328779,-39.513119,-53.931074,-62.281786,-67.660858,-80.87013,-86.727434,-90.501166,-64.067985,-65.732652,-62.610051,-58.322899,-54.828715,-55.364808,-52.290786,-48.707767,-42.17663,-44.283956,-42.393572,-39.941123,28.247143,47.286656,67.262947,83.088158,19.118649,47.060589,66.357788,82.818901,11.290341,49.39991,71.984974,91.058098,9.040821,46.469078,70.97469,91.239189,11.924023,41.267578,60.123207,77.036476,-15.76948,-33.648787,-42.323275,-48.94576,-73.365924,-76.988802,-80.124648,-82.77518,-71.439119,-73.702377,-74.648239,-73.779157,-62.046715,-66.062937,-67.174556,-66.667838,-49.408104,-55.883913,-58.168239,-59.172709,57.638426,-53.294042,-62.125277,7.239498
52,0.910835,0.788257,0.43047,0.162626,-22.824188,-36.691521,-47.993912,-60.03598,-26.514862,-52.119484,-69.397648,-84.394054,-21.647598,-59.539982,-81.758961,-100.929646,-21.713814,-60.689278,-80.764297,-98.01091,-24.505211,-55.727623,-72.781025,-88.554771,-19.491864,-38.50626,-52.768253,-60.707503,-67.70845,-77.125499,-80.196974,-81.807746,-64.657436,-65.569712,-62.537613,-58.784435,-55.622122,-55.979929,-53.199734,-50.315749,-43.095113,-45.192817,-43.561421,-41.802399,27.886562,47.062946,67.238102,83.094486,18.566025,47.573444,67.573711,85.146068,10.822403,49.015205,71.655086,91.440136,8.760315,46.267582,70.673572,91.265774,11.709961,41.20507,59.886429,76.84354,-15.996259,-34.171461,-43.084775,-49.495691,-73.101082,-75.887668,-78.261768,-80.411522,-71.054593,-73.420789,-74.956633,-74.917279,-61.647214,-65.718493,-67.266267,-67.541489,-48.937763,-55.40476,-57.962648,-59.546793,58.564728,-52.778803,-61.67934,7.129106
53,0.444466,0.908626,0.425114,-0.07431,-22.319298,-36.207505,-47.408684,-59.110817,-27.024926,-55.874119,-74.895928,-91.072117,-22.39119,-60.414643,-82.648877,-102.066433,-22.481598,-61.125996,-81.160561,-98.585953,-25.268418,-56.358227,-73.348984,-89.208287,-18.984361,-38.363746,-52.879971,-60.93756,-67.373126,-73.302907,-73.706409,-73.050197,-64.524277,-65.140367,-62.192613,-59.01619,-55.570597,-56.292268,-53.811408,-51.719082,-43.252711,-45.541256,-44.107788,-43.009619,27.455795,46.892967,67.236351,83.151145,18.396835,47.573604,67.524627,85.492263,10.628139,48.651535,71.258113,91.551452,8.498416,45.859508,70.246376,91.132278,11.295661,40.750041,59.311512,76.336853,-15.937294,-34.305676,-43.238096,-49.466199,-72.681538,-74.919083,-77.348918,-79.781261,-70.547364,-72.743801,-74.731979,-75.353182,-61.189854,-65.025907,-67.00247,-68.039111,-48.481712,-54.846821,-57.658367,-59.726604,59.012644,-52.069958,-61.250776,6.855015
54,0.177909,0.671968,0.377803,-0.106754,-21.360672,-35.133407,-46.108634,-57.51884,-26.883842,-58.048645,-78.470043,-95.547512,-22.522888,-60.498733,-82.882541,-102.510337,-22.785255,-60.955135,-81.225219,-98.924263,-25.79631,-56.689842,-73.784671,-89.798469,-18.423914,-38.190444,-53.065562,-61.466051,-66.714762,-69.94714,-68.126889,-65.661587,-63.955303,-64.774138,-61.959406,-59.337267,-55.129885,-56.583378,-54.673679,-53.463278,-43.088727,-46.023002,-45.046882,-44.656675,27.264828,46.811428,67.154629,83.193615,18.606068,47.489113,67.293091,85.255017,10.765103,48.232212,70.703934,91.09116,8.420826,45.156636,69.564766,90.580479,10.875023,39.890808,58.335411,75.332875,-15.702383,-34.244117,-43.180378,-49.267178,-72.193129,-74.185216,-76.687368,-79.430753,-70.021824,-72.15012,-74.303203,-75.250609,-60.719965,-64.382517,-66.401299,-67.786984,-47.986709,-54.123125,-57.048477,-59.375152,59.183412,-51.541504,-60.880114,6.604747
55,0.090546,0.350588,0.546971,-0.385928,-20.796478,-34.472099,-45.521095,-56.989288,-26.538322,-58.528473,-79.220375,-96.39933,-22.344932,-60.270435,-82.751827,-102.503517,-22.790817,-60.552887,-81.135258,-99.116661,-26.105713,-56.830524,-74.082767,-90.270584,-18.124999,-38.031801,-52.981384,-61.443345,-66.033692,-67.806775,-65.281868,-62.365594,-63.345987,-64.463243,-61.904948,-59.68407,-54.606914,-56.758206,-55.389347,-54.748063,-42.716317,-46.312809,-45.824517,-45.953032,27.128116,46.641048,66.846084,82.820915,18.265217,46.992313,66.700458,84.725303,10.41521,47.639808,70.03165,90.50766,8.114559,44.722252,69.101886,90.181938,10.653053,39.63454,57.923858,74.798217,-15.553441,-34.207159,-43.060742,-49.129072,-72.056198,-73.662134,-76.416228,-79.576811,-69.758533,-71.788571,-74.116475,-75.364266,-60.43172,-63.929152,-66.121532,-67.921989,-47.691523,-53.833503,-56.916899,-59.491749,59.225321,-51.306337,-60.38178,6.103398
56,-0.202537,-0.053204,0.241539,-0.21864,-20.221962,-33.474907,-44.031144,-55.292633,-26.331849,-57.624001,-78.184616,-95.218586,-22.271004,-59.633973,-82.087635,-101.748825,-22.569603,-59.496483,-80.216069,-98.383633,-25.580796,-55.717518,-72.941632,-89.02644,-18.201706,-38.372447,-53.551106,-62.483822,-64.935047,-66.503057,-63.813382,-60.544519,-62.249151,-63.606617,-60.911854,-58.52215,-53.80813,-56.354735,-54.881401,-54.07068,-42.391201,-46.034191,-45.626293,-45.668116,27.156475,46.89323,67.194282,82.968933,18.524219,47.581043,67.216358,85.213028,10.60548,48.005424,70.445079,90.931251,8.170417,44.747554,69.288574,90.441009,10.563377,39.4151,57.638088,74.539261,-15.390821,-34.047331,-43.058278,-49.226026,-71.806522,-72.936042,-75.155278,-77.925685,-69.559721,-71.282323,-73.311608,-74.276594,-60.315394,-63.767575,-65.767004,-67.336626,-47.614125,-53.825154,-56.84704,-59.312462,58.967246,-51.426953,-60.195779,5.817346
57,-0.710724,-0.235207,0.608768,-0.348661,-19.589905,-32.294243,-42.499558,-53.758095,-25.356194,-55.893196,-76.279015,-93.10017,-21.355271,-58.042443,-80.460388,-100.100865,-21.644509,-57.770142,-78.620041,-96.960835,-24.580879,-54.088875,-71.199612,-87.154404,-18.183613,-38.46193,-53.705087,-63.008725,-63.761376,-65.744009,-63.197212,-59.719762,-60.924031,-62.989187,-60.430565,-58.103698,-52.650359,-55.960786,-54.65684,-53.840302,-41.589341,-45.507399,-45.266973,-45.304789,27.183918,46.960716,67.165878,82.783024,18.294983,47.590668,67.256836,85.370487,10.421528,47.99342,70.463345,90.988712,8.097519,44.739544,69.336617,90.528019,10.615677,39.423729,57.531647,74.282169,-15.273822,-34.068869,-43.127686,-49.32744,-71.665873,-72.262111,-74.182196,-76.631304,-69.371024,-70.766009,-72.532892,-73.342897,-60.176975,-63.496553,-65.294169,-66.777674,-47.554344,-53.840796,-56.789193,-59.255825,58.197138,-51.71684,-59.646395,5.414005
58,-0.258454,-0.583326,0.616573,-0.288572,-19.522087,-31.971313,-41.995559,-53.089279,-24.844803,-55.216655,-75.561321,-92.268081,-20.798355,-57.458049,-79.930378,-99.48286,-21.063812,-57.121524,-78.177509,-96.583019,-23.99707,-53.451416,-70.591552,-86.479087,-17.697124,-37.580467,-52.444668,-61.557306,-62.776382,-64.958839,-62.452767,-58.975249,-60.067188,-62.422552,-59.825268,-57.413248,-52.05015,-55.605968,-54.420119,-53.535902,-41.274315,-45.228817,-45.088446,-45.059281,26.972741,46.782418,66.988129,82.365372,18.078347,47.608601,67.253129,85.302567,10.265454,47.960186,70.435135,90.863549,7.997235,44.635586,69.213627,90.312996,10.519856,39.203648,57.196095,73.861496,-15.145314,-33.878227,-43.129754,-49.592065,-71.400532,-71.649719,-73.195653,-75.217189,-69.090122,-70.153303,-71.582838,-72.053672,-59.914955,-63.202714,-64.747357,-65.852375,-47.350852,-53.741482,-56.581106,-58.865001,57.879158,-52.34031,-59.089348,5.085289
59,0.013665,-0.252077,0.653985,-0.277506,-19.724121,-32.160347,-42.237168,-53.272259,-24.633019,-54.950009,-75.325848,-92.003506,-20.595246,-57.151875,-79.67133,-99.012909,-20.857178,-56.927823,-77.988774,-96.1726,-23.767136,-53.15831,-70.209412,-85.91351,-17.080942,-36.548692,-51.044231,-59.838236,-61.971059,-64.289799,-61.867133,-58.462425,-59.355774,-61.819931,-59.242178,-56.799116,-51.540667,-55.285329,-54.087581,-53.084625,-41.054187,-45.149944,-45.086736,-44.992561,26.70655,46.495182,66.580146,81.64936,17.797382,47.214065,66.848144,84.952629,10.064563,47.532245,70.050109,90.553733,7.838195,44.229915,68.835022,89.981185,10.373153,38.824859,56.736831,73.339393,-14.851191,-33.573996,-43.15343,-49.975331,-70.901465,-71.211372,-72.767841,-74.63718,-68.538938,-69.647203,-71.023287,-71.354046,-59.380944,-62.819726,-64.34477,-65.285167,-46.908528,-53.46489,-56.30302,-58.499531,57.830252,-52.639281,-58.497934,4.760889
60,-0.138382,-0.095855,0.649337,0.017129,-19.222298,-31.455391,-41.42791,-52.348595,-24.243966,-54.400509,-74.705761,-91.350941,-20.211113,-56.50573,-78.996735,-98.370392,-20.416787,-56.305458,-77.392228,-95.635186,-23.247803,-52.341729,-69.346608,-85.143643,-17.195847,-36.567538,-50.960053,-59.732613,-61.67528,-63.928917,-61.638601,-58.419132,-58.972663,-61.459278,-59.11635,-56.950275,-51.119684,-54.908775,-53.976591,-53.209929,-40.6016,-44.79252,-44.905968,-45.019552,26.393624,46.236821,66.447876,81.504639,17.564244,46.958897,66.529381,84.647187,9.859028,47.036923,69.544373,90.107231,7.576516,43.517201,68.106331,89.261216,9.954769,38.114285,56.05354,72.68795,-14.5703,-33.451983,-43.238268,-50.05213,-70.457998,-70.779106,-72.170541,-73.845657,-68.084516,-69.350041,-70.606718,-70.797774,-58.971069,-62.60224,-64.042087,-64.879818,-46.531936,-53.07288,-55.862393,-58.077633,57.650654,-52.763964,-57.889813,4.74919
61,0.291092,-0.10681,0.7981,0.019865,-18.939583,-31.128777,-41.338623,-52.355988,-23.988419,-54.30169,-74.651951,-91.288903,-20.017388,-56.202633,-78.758217,-98.269513,-20.319214,-56.184346,-77.35421,-95.674565,-23.266732,-52.307282,-69.347992,-85.245347,-16.983555,-36.028914,-50.042058,-58.412895,-61.336653,-63.676605,-61.538194,-58.474824,-58.599943,-61.269333,-59.12928,-57.113598,-50.68714,-54.632355,-53.936348,-53.298868,-40.073356,-44.501682,-44.694497,-44.859476,26.287479,46.135712,66.317299,81.611034,17.43837,46.499359,65.990192,83.946613,9.732902,46.498844,69.028416,89.505352,7.392322,42.826595,67.328556,88.300999,9.650745,37.297233,55.106804,71.616634,-14.154701,-33.046369,-42.875929,-49.644663,-69.956819,-70.352621,-71.570518,-72.800741,-67.629625,-68.835944,-69.563364,-69.323371,-58.576725,-62.567259,-63.696186,-64.030768,-46.298921,-53.249294,-55.978354,-57.967773,57.860413,-52.89795,-57.173046,4.741879
62,0.283424,0.074767,0.737434,0.112868,-18.458679,-30.56266,-40.770149,-51.649784,-24.054749,-54.345245,-74.789543,-91.496601,-20.159477,-56.149429,-78.830532,-98.537945,-20.433815,-56.206799,-77.451176,-95.874802,-23.403488,-52.259022,-69.332874,-85.373932,-17.251299,-36.279663,-50.347506,-58.761605,-61.34402,-63.602955,-61.543739,-58.632442,-58.511825,-61.13116,-59.198847,-57.305036,-50.454717,-54.326234,-53.887034,-53.40982,-39.609987,-44.263831,-44.57065,-44.770086,26.076874,46.010147,66.372414,81.926411,17.307541,45.830418,65.09523,82.786503,9.594418,45.84795,68.270542,88.551693,7.121327,42.091072,66.476155,87.2421,9.175015,36.456059,54.137936,70.500813,-13.781334,-32.646282,-42.565288,-49.268678,-69.393397,-70.16185,-71.687023,-73.140288,-67.082974,-68.513138,-69.051176,-68.755577,-58.043029,-62.418589,-63.4206,-63.510231,-45.923516,-53.251623,-55.993514,-57.843976,58.041178,-52.860866,-56.538271,4.817064
63,0.125976,0.234312,0.791794,-0.005762,-17.653038,-29.684829,-39.964141,-50.875442,-24.163146,-54.270092,-74.665946,-91.376838,-20.511978,-56.155403,-78.78638,-98.619438,-20.770431,-56.190639,-77.324913,-95.760189,-23.520835,-51.952629,-68.941383,-84.972736,-17.713241,-36.909715,-51.152997,-59.820439,-61.309464,-63.6857,-61.680504,-58.780297,-58.354188,-60.940839,-59.243326,-57.506602,-50.19862,-53.931574,-53.6133,-53.301448,-39.21237,-43.887592,-44.339809,-44.650352,26.105106,46.140015,66.590481,82.431805,17.02034,45.291309,64.415279,81.81332,9.328663,45.280312,67.593304,87.6255,6.818424,41.370117,65.627277,86.169926,8.832035,35.716553,53.242561,69.475239,-13.423971,-32.160374,-41.965259,-48.447835,-68.794263,-69.913779,-71.454162,-72.790823,-66.573477,-68.364708,-68.588603,-68.153781,-57.607367,-62.534895,-63.364481,-63.193858,-45.658785,-53.438578,-56.223182,-57.968279,57.972908,-52.674988,-55.940723,4.762868
64,-0.0802,0.184974,0.863171,-0.137573,-16.810798,-28.62236,-38.823784,-49.557872,-23.932045,-53.762363,-74.083385,-90.675773,-20.399414,-55.745807,-78.24884,-98.116848,-20.630264,-55.697353,-76.767746,-95.240318,-23.293762,-51.396755,-68.380222,-84.423271,-18.377207,-37.777463,-52.253767,-61.189941,-61.42763,-63.991798,-62.051927,-59.132911,-58.332953,-61.036164,-59.55224,-57.905103,-50.039169,-53.710786,-53.580166,-53.446995,-38.865086,-43.57545,-44.074523,-44.395687,26.062442,46.130356,66.766205,82.917892,16.648956,44.786407,63.849907,81.014282,8.975017,44.645553,66.89653,86.692863,6.398082,40.514923,64.687317,85.023651,8.305355,34.766979,52.195575,68.332489,-13.245976,-31.86919,-41.537959,-47.833494,-68.188535,-69.666192,-71.243198,-72.405841,-65.94153,-68.206319,-68.236311,-67.689573,-56.984083,-62.603186,-63.364791,-62.987193,-45.163418,-53.512185,-56.439087,-58.119142,57.633905,-52.525953,-55.336355,4.589356
65,0.287407,-0.007596,0.826767,-0.196867,-16.567703,-28.184578,-38.319832,-48.909736,-23.964157,-53.491401,-73.846367,-90.363487,-20.64006,-55.609302,-77.99691,-97.601784,-20.963356,-55.6474,-76.473324,-94.557518,-23.632553,-51.585892,-68.439628,-84.118973,-18.386889,-37.637487,-52.068601,-60.805797,-60.909581,-64.148779,-62.262322,-59.254657,-57.841555,-60.994679,-59.565361,-57.761922,-49.723741,-53.631498,-53.481371,-53.274291,-38.806268,-43.596476,-44.058585,-44.192923,26.017982,46.087463,66.75119,82.961792,16.275547,44.290249,63.257892,80.253776,8.650371,44.151718,66.317642,85.971634,6.066764,39.980724,64.065742,84.268707,7.961197,34.052364,51.305374,67.309616,-13.254059,-31.67073,-41.321307,-47.636293,-67.787157,-69.296386,-71.103864,-72.416999,-65.525962,-67.784786,-67.882777,-67.456582,-56.577623,-62.405108,-63.237893,-62.82653,-44.843211,-53.52333,-56.547347,-58.140186,57.641739,-52.567438,-54.789161,4.3586
66,0.244744,0.048295,0.823803,-0.266539,-16.315453,-28.032875,-38.313973,-48.982441,-24.039322,-53.410286,-73.60643,-89.933236,-20.808632,-55.511673,-77.645462,-96.911305,-21.165001,-55.582627,-76.153267,-93.836369,-23.853905,-51.591912,-68.30428,-83.701012,-18.809064,-38.047559,-52.560388,-61.328928,-61.054793,-64.358669,-62.55799,-59.668756,-57.855084,-61.018095,-59.780215,-58.09039,-49.643731,-53.518662,-53.47099,-53.466001,-38.683051,-43.52676,-44.079055,-44.320753,25.691722,45.702552,66.418109,82.524112,15.58897,43.658363,62.482818,79.476047,8.055805,43.447918,65.442684,85.101482,5.575138,39.455062,63.405269,83.586101,7.517932,33.630329,50.746902,66.572399,-13.421527,-31.758787,-41.42858,-47.62458,-67.410535,-68.900419,-71.116666,-73.022746,-65.083743,-67.516203,-68.115595,-68.249915,-56.189411,-61.911791,-63.129867,-63.302139,-44.512587,-52.985855,-56.153108,-57.99164,57.655495,-52.540823,-54.196346,4.070381
67,0.283653,-0.082029,0.81911,-0.30041,-16.618332,-28.516045,-38.918587,-49.712963,-24.106636,-53.51191,-73.57679,-89.709229,-20.758484,-55.712013,-77.67088,-96.5854,-21.03669,-55.7276,-76.153485,-93.497441,-23.623009,-51.56361,-68.208229,-83.352734,-18.834005,-38.070975,-52.595907,-61.444525,-61.21075,-64.443891,-62.621827,-59.714834,-58.11929,-61.055368,-59.718576,-58.016191,-49.9753,-53.688488,-53.481729,-53.49763,-39.095408,-43.654565,-44.119101,-44.418146,25.373028,45.320893,66.022088,82.054482,14.903389,43.298344,62.189175,79.20456,7.424939,42.914383,64.920296,84.543869,5.092576,39.038361,63.027031,83.151444,7.116612,33.210755,50.226243,65.834977,-13.581299,-31.805723,-41.514944,-47.643283,-67.062633,-68.269613,-70.279175,-71.980905,-64.667477,-66.970014,-67.62723,-67.888619,-55.803934,-61.428797,-62.69431,-63.086518,-44.148593,-52.492766,-55.621918,-57.542739,57.705031,-52.608159,-53.611353,3.784664
68,0.490448,-0.093163,0.810231,-0.426319,-17.883568,-30.094895,-40.84996,-51.872086,-24.231423,-53.6395,-73.740704,-89.902989,-20.609734,-55.627888,-77.509621,-96.316052,-20.825157,-55.718582,-76.142864,-93.464585,-23.520607,-51.718575,-68.561554,-83.97004,-18.534373,-37.384465,-51.689182,-60.363201,-61.598277,-64.502794,-62.765551,-60.018881,-58.617214,-61.277119,-60.025334,-58.412759,-50.396172,-53.98061,-53.846476,-53.908597,-39.334036,-43.876613,-44.334443,-44.675459,24.968639,44.799728,65.417232,81.266063,14.114181,42.451011,61.343868,78.499157,6.707874,42.065368,63.97443,83.670536,4.517051,38.527874,62.329799,82.409008,6.641075,32.896969,49.850143,65.348385,-13.782902,-31.97779,-41.810691,-47.981354,-66.751522,-67.718039,-69.930384,-71.760283,-64.209054,-66.400934,-67.436408,-68.049411,-55.362566,-60.732919,-62.260538,-63.095694,-43.685378,-51.740546,-54.85596,-56.849491,58.006325,-52.666794,-52.990276,3.392873
69,0.684608,-0.265823,0.700355,-0.382426,-18.994995,-31.415931,-42.448768,-53.855118,-25.156013,-54.723919,-74.854992,-91.183914,-21.262047,-56.412288,-78.326191,-97.43201,-21.231788,-56.366581,-76.850956,-94.410061,-23.70211,-52.163624,-69.150593,-84.871959,-18.121202,-36.683598,-50.766144,-59.356101,-62.046845,-64.334098,-62.703844,-60.259553,-59.116571,-61.103385,-59.970536,-58.670758,-50.723604,-53.727539,-53.647226,-53.879155,-39.301494,-43.509217,-43.892409,-44.260633,24.552338,44.375862,64.926213,80.547535,13.151127,41.892094,60.80016,77.99065,5.748093,41.541928,63.418247,83.146626,3.745354,38.420002,62.102818,82.097431,6.085224,32.687084,49.435913,64.680485,-13.99444,-32.100223,-42.082332,-48.250432,-66.655488,-67.048208,-69.030767,-70.776229,-64.040216,-65.605021,-66.615758,-67.463264,-55.182175,-60.02082,-61.547136,-62.6658,-43.470049,-51.216224,-54.093985,-56.018862,58.503164,-52.868508,-52.47769,3.074556
70,0.533524,-0.088976,-1.643406,1.127278,-19.594299,-32.547547,-43.95163,-55.855374,-26.00956,-55.703053,-75.830761,-92.345146,-21.749954,-57.123448,-79.16264,-98.674793,-21.301163,-56.597191,-77.405468,-95.418137,-23.410011,-51.792206,-68.832298,-84.775578,-18.216334,-36.912019,-50.92144,-59.561113,-62.686196,-64.263234,-62.698373,-60.480515,-59.63433,-60.843817,-59.680347,-58.646694,-50.935352,-53.345329,-53.216542,-53.631814,-39.109728,-43.0508,-43.35129,-43.818271,26.959614,46.732853,66.28077,81.398117,17.409588,43.961506,61.953999,77.360962,9.037251,44.661164,66.133095,84.192856,6.208226,42.134983,65.592522,83.924744,8.167752,36.125393,53.570629,68.34224,-14.840655,-33.381044,-43.170935,-49.568834,-69.750777,-74.471231,-77.66495,-79.411165,-66.920798,-70.914055,-72.435042,-73.043024,-57.479815,-63.177075,-64.357489,-64.775144,-44.623799,-52.851967,-55.236342,-56.636625,58.785359,-52.867399,-54.372425,4.291919
71,0.443252,0.240925,-2.546001,1.840613,-20.141944,-33.406402,-44.94358,-57.11079,-26.415229,-56.007671,-76.216049,-92.831577,-21.902549,-57.328502,-79.545158,-99.361759,-21.200431,-56.530037,-77.533138,-95.813449,-23.11972,-51.412502,-68.429351,-84.427288,-18.008427,-36.75613,-50.613836,-59.010428,-62.583641,-64.243523,-62.733398,-60.498947,-59.520907,-60.804624,-59.628692,-58.707746,-50.815976,-53.415823,-53.302115,-53.771363,-39.074024,-43.16736,-43.468245,-43.934843,29.219479,48.971363,68.384457,83.568272,21.452122,45.995773,63.044105,76.586208,12.6446,48.646751,70.165226,86.710773,9.290428,46.309605,69.647564,86.500751,11.059868,39.963158,58.115078,72.497669,-16.079146,-34.599336,-44.191738,-50.89351,-72.435203,-81.439351,-85.91231,-87.981937,-69.954213,-76.05968,-77.19955,-76.700211,-60.452128,-66.834712,-67.274319,-66.637907,-47.096489,-55.226339,-57.118587,-57.754351,58.898397,-52.51725,-57.24864,6.241756
72,0.849312,0.401187,-2.668373,2.276454,-20.076301,-33.457191,-44.991073,-57.239284,-27.297981,-56.405285,-76.704712,-93.423214,-22.917457,-57.629814,-79.956173,-100.022758,-22.103508,-56.598861,-77.696296,-96.210274,-23.802795,-51.581074,-68.555237,-84.559913,-18.037376,-36.695436,-50.377407,-58.452706,-62.178997,-64.238911,-62.781169,-60.439994,-59.021643,-60.706596,-59.589098,-58.638253,-50.319003,-53.233277,-53.163369,-53.550557,-38.6837,-43.057136,-43.384203,-43.688837,31.796825,51.487358,70.698566,85.730564,25.103576,48.568748,64.867275,76.702595,15.886551,52.912811,74.635128,89.911159,12.075599,50.331436,73.623264,89.269192,13.768799,43.640419,62.534843,76.792133,-17.550109,-36.097191,-45.558762,-52.86885,-75.546133,-87.791129,-93.230803,-95.550581,-73.413515,-80.472878,-80.637337,-78.618797,-63.880085,-70.178701,-69.568749,-67.426874,-50.163089,-57.497649,-58.808666,-58.559256,59.379375,-51.986217,-60.285347,8.648056
73,0.873345,0.720942,-2.437489,2.25284,-19.049034,-32.217934,-43.422982,-55.482491,-27.777947,-56.439961,-76.958691,-93.761639,-23.684349,-57.946381,-80.457733,-100.72902,-22.930779,-56.830937,-78.018471,-96.603722,-24.577881,-51.83796,-68.618786,-84.34718,-18.587918,-37.411691,-51.191474,-59.359078,-61.478513,-64.306453,-62.88712,-60.365529,-58.21391,-60.870259,-59.812277,-58.741524,-49.679176,-53.281874,-53.244657,-53.459672,-38.362876,-42.971408,-43.223911,-43.324163,34.331806,53.902405,72.71212,87.453324,28.51054,50.706803,66.093933,75.94043,18.830818,56.619816,78.421417,92.188545,14.607788,54.09351,77.513695,91.99363,16.264195,47.033947,66.64555,80.636147,-19.086175,-37.837274,-47.446275,-55.485839,-78.582821,-93.846078,-100.319608,-103.047636,-76.661037,-84.821242,-84.429702,-81.244307,-66.852867,-73.208991,-72.085411,-68.904598,-52.697085,-59.581663,-60.680215,-59.995749,59.791186,-51.122274,-63.18437,11.043897
74,0.926765,1.238022,-2.575161,2.34554,-18.107025,-31.099502,-41.8545,-53.3722,-27.562935,-56.097118,-76.656383,-93.343906,-23.791214,-57.855881,-80.429203,-100.578472,-23.334503,-56.944839,-78.273628,-96.802357,-25.310234,-52.418953,-69.123699,-84.550712,-18.59066,-37.155588,-50.668122,-58.860864,-60.766654,-64.110124,-62.552414,-59.721837,-57.613098,-61.242596,-60.158777,-58.900328,-49.404751,-53.80997,-53.74943,-53.733134,-38.547084,-43.28849,-43.51483,-43.563366,36.646843,56.174858,74.556759,89.005085,32.641743,53.895436,68.046616,75.255512,22.61586,61.232964,82.608135,94.0089,17.839268,58.360623,81.420307,93.906681,19.188595,50.750553,71.038822,84.584461,-20.246533,-39.174097,-48.804388,-57.476672,-81.048027,-98.983909,-105.836476,-108.436119,-79.534456,-88.715532,-87.696508,-83.231509,-69.666036,-76.226388,-74.438077,-70.10636,-55.265346,-61.873437,-62.855306,-61.825247,60.214863,-49.76001,-66.262619,13.513679
75,0.811661,1.489988,-0.517135,1.910342,-16.919747,-29.429077,-39.686463,-50.658108,-26.585266,-55.501763,-76.272011,-92.698666,-23.36863,-57.690308,-80.484203,-100.599564,-23.492432,-57.257,-78.682148,-97.179188,-26.007362,-53.192551,-69.818195,-84.943955,-19.126579,-37.643397,-51.369131,-60.256738,-60.098762,-64.108889,-62.414489,-59.338694,-56.816135,-61.601637,-60.750537,-59.470791,-48.760102,-54.240451,-54.45391,-54.359475,-38.192019,-43.444033,-44.01441,-44.151952,35.855209,55.324928,74.469463,89.485599,30.778633,54.402752,69.578888,77.544971,21.509422,61.410473,83.451862,95.496723,17.509735,57.891094,81.160709,94.39619,19.478714,50.389984,70.301273,83.948078,-20.44997,-39.200539,-48.989677,-57.561307,-80.367081,-95.597313,-100.913734,-102.910081,-79.412327,-86.999396,-85.16468,-80.152714,-69.946859,-75.974076,-74.286283,-70.054305,-56.251958,-62.160213,-63.547855,-62.889497,60.498596,-48.173602,-67.307682,15.520441
76,0.754967,1.531799,0.49332,2.124572,-15.976868,-28.136444,-38.033684,-48.392693,-25.937142,-55.296433,-76.098633,-92.354851,-22.96502,-57.735535,-80.688939,-100.713787,-23.354187,-57.568119,-79.176728,-97.625554,-26.121163,-53.604767,-70.145348,-84.989891,-20.076553,-38.56756,-52.561173,-62.280194,-59.829511,-63.999362,-62.224983,-59.165552,-56.208516,-61.376946,-60.831381,-59.624889,-47.950134,-53.81089,-54.303059,-54.210199,-37.200974,-42.834223,-43.69863,-43.977748,34.985687,54.428513,73.452232,88.231178,28.640511,54.748226,71.326321,80.541412,19.705021,60.107952,82.34269,95.012123,16.21447,56.049751,79.447929,93.451698,18.560394,48.881859,68.313664,81.971169,-20.455151,-39.690238,-49.814366,-58.490762,-80.170362,-92.55019,-96.305251,-97.255651,-78.995733,-85.328732,-83.353182,-78.52472,-69.384788,-75.152456,-73.720828,-69.702716,-55.789181,-61.70095,-63.458268,-63.36671,60.63814,-46.610202,-67.429785,17.676614
77,0.36145,1.65107,0.09811,2.590288,-14.488472,-26.48259,-36.555016,-46.398628,-24.717568,-52.911907,-73.10289,-89.046089,-22.326393,-56.167328,-78.869557,-98.570767,-22.981865,-56.454518,-77.606335,-95.434365,-25.718788,-52.685532,-68.71661,-82.80336,-21.988957,-40.313935,-53.947994,-63.411257,-59.301446,-64.299271,-62.96398,-60.259214,-54.718954,-60.161747,-59.80399,-58.658624,-45.950198,-51.896238,-52.634754,-52.735247,-35.018547,-40.70552,-41.645157,-42.079664,33.723633,53.030777,71.192356,84.810665,28.148724,54.774479,70.640419,78.438275,19.175846,58.368244,78.183323,88.264904,15.236756,53.94952,75.290188,87.167622,16.827851,46.282677,64.957592,77.80085,-20.521842,-40.151915,-51.201336,-59.960508,-78.422838,-89.965663,-91.965716,-91.650418,-77.129278,-83.731589,-81.862904,-77.173164,-67.466456,-73.680789,-72.616823,-69.02098,-53.794322,-60.555449,-62.863926,-63.229007,60.394186,-45.113749,-67.937079,20.112285
78,1.284402,6.15794,-0.144447,4.104791,-13.894317,-26.542186,-37.385591,-46.965658,-25.464642,-53.101249,-72.600982,-87.904092,-23.407498,-56.374967,-77.769092,-96.076179,-23.937286,-56.601166,-76.328396,-92.503576,-26.137825,-52.627725,-67.571521,-80.210806,-23.164863,-41.04347,-53.713758,-62.14235,-58.478382,-63.80636,-62.654201,-60.171283,-52.928826,-57.653935,-57.018173,-55.922877,-43.505598,-48.663682,-49.252704,-49.602521,-32.240505,-37.495009,-38.371981,-39.016485,32.233475,51.521507,68.909798,81.642506,27.214783,53.808506,70.203747,78.689289,18.308647,55.82262,74.98914,84.871548,13.925457,50.925247,71.455421,82.826282,14.617561,42.865654,61.035404,73.381783,-19.707194,-39.982176,-51.696575,-60.283334,-76.521537,-87.980277,-89.242406,-88.204696,-75.391609,-83.02845,-81.944193,-78.031903,-66.267628,-73.502862,-72.746228,-69.427069,-52.959741,-60.517615,-62.943467,-63.40252,61.201106,-39.383443,-68.559008,23.789442
79,2.065746,10.548102,0.194778,5.977878,-14.020615,-28.010179,-40.144597,-49.737252,-27.97576,-55.283215,-74.298921,-88.883702,-26.012068,-58.130555,-77.26529,-93.219358,-26.042565,-57.780924,-75.044746,-88.521302,-27.174889,-53.053533,-66.201963,-76.614986,-24.352735,-41.813626,-53.325925,-60.359208,-57.163972,-62.893903,-61.676724,-59.180892,-50.562286,-54.129641,-52.71367,-51.459274,-40.443365,-44.217604,-44.250047,-44.741003,-28.81095,-33.148161,-33.634485,-34.342498,30.585137,49.546624,66.248108,78.081368,24.088749,50.342514,68.386219,79.194088,14.951237,50.744729,70.323487,81.813824,10.133732,45.154656,65.946156,78.732914,10.302361,37.517544,55.624592,68.642945,-19.975252,-41.375925,-54.137932,-63.364592,-76.277579,-87.540348,-88.108686,-85.785358,-74.553211,-82.930445,-81.917349,-77.868072,-65.071423,-73.334981,-72.466653,-68.621776,-51.277863,-59.426837,-61.663634,-61.725848,62.821054,-29.667863,-68.810028,28.934798
80,3.176335,14.970781,-1.049594,6.670644,-15.550713,-31.642154,-45.414606,-54.852457,-33.079839,-60.297135,-78.736388,-92.499731,-30.758359,-61.882631,-77.520275,-89.936836,-29.753586,-60.433816,-74.205002,-83.845056,-29.241074,-54.729707,-65.660506,-73.288573,-24.132647,-40.430961,-49.816955,-54.503152,-55.471094,-60.868195,-59.233741,-56.541181,-48.261526,-49.561822,-46.708047,-45.10788,-37.607094,-38.769525,-37.656508,-38.119075,-25.532632,-27.827124,-27.282108,-27.851215,29.23233,48.330642,64.82032,75.474094,22.931064,48.919406,66.540916,76.233913,13.193962,47.444469,64.794616,73.551006,7.35371,41.356452,59.837905,69.774272,6.165126,32.618888,50.720226,63.290531,-20.22318,-42.181682,-55.922841,-66.052607,-74.771456,-87.918798,-86.193349,-81.59571,-72.287638,-81.507568,-77.764338,-72.1549,-62.453546,-71.391313,-68.178982,-62.691884,-48.376804,-57.483045,-59.218232,-58.710921,65.680542,-15.961573,-70.176469,34.340951
81,4.201002,19.482189,-1.773137,7.51973,-17.798309,-36.581222,-52.306915,-61.761795,-39.91555,-67.591438,-85.664817,-98.380256,-37.205932,-67.384964,-78.621082,-86.590473,-35.008621,-64.481323,-73.877391,-78.819271,-32.540817,-57.496467,-65.726005,-69.999469,-22.996613,-37.761976,-44.47411,-46.388972,-53.228095,-58.142261,-55.669608,-52.458018,-45.60781,-44.245769,-39.351135,-37.211014,-34.570844,-32.616543,-29.899345,-30.155838,-22.117058,-21.686948,-19.861285,-20.221253,28.70541,47.816746,63.633339,73.311871,22.676159,48.269143,65.023819,72.942582,11.97353,45.061833,60.432152,66.047539,4.915112,38.178761,54.496514,61.290917,2.066105,28.168202,45.774022,56.766976,-20.856899,-42.881307,-56.900355,-66.966796,-72.721422,-87.180861,-82.338357,-75.520852,-69.133908,-78.620871,-71.978231,-64.422716,-58.648991,-67.64137,-61.99477,-54.91645,-44.133488,-53.593127,-53.663158,-51.73066,69.746183,1.578603,-72.084967,39.918668
82,5.356225,24.072028,-0.74287,5.970537,-21.656456,-43.79567,-61.569123,-71.220898,-48.848832,-79.379941,-97.732247,-109.34689,-44.997208,-76.045956,-82.23713,-84.999894,-41.230889,-71.023076,-75.695572,-75.434899,-36.720887,-62.12542,-67.386864,-67.94275,-20.274464,-33.390863,-37.508454,-37.130529,-51.01117,-54.266337,-50.155871,-46.0124,-43.614372,-38.820546,-31.579742,-28.973788,-32.383429,-26.774479,-22.196668,-22.220769,-19.38067,-15.932453,-12.80246,-13.040916,26.775101,45.153397,60.238323,69.685272,20.7178,45.956223,62.284447,70.255577,9.821171,41.716129,57.235256,62.761505,2.741844,34.925823,50.755978,56.977684,-0.829925,24.787067,41.101776,50.291485,-18.411874,-38.377239,-50.663571,-59.000278,-66.114752,-79.546739,-72.332655,-64.06354,-63.028177,-72.184651,-62.858363,-53.521448,-53.273526,-61.711732,-53.27176,-44.420067,-39.564169,-47.363499,-44.705255,-41.136606,74.545487,23.280224,-73.384758,43.518798
83,5.600706,25.628452,-1.855659,13.081182,-24.576473,-49.647897,-69.003916,-79.240502,-56.363075,-89.295754,-107.361853,-117.644047,-51.555022,-84.025139,-87.959021,-87.743739,-46.255852,-76.98293,-79.73731,-76.878207,-39.793831,-65.914973,-70.113675,-69.093176,-18.269905,-28.914175,-29.720754,-26.661248,-45.947434,-45.34596,-39.020366,-33.714164,-38.156611,-28.97846,-19.544848,-16.08484,-26.587804,-16.881334,-10.284197,-9.430833,-13.23567,-6.533822,-1.950313,-1.575479,28.01754,47.189392,61.933925,69.661628,23.695919,48.856899,62.942184,68.276802,11.096969,41.967876,55.228912,57.701351,2.25436,33.312435,46.873661,50.002475,-3.231583,21.611938,36.333583,43.211883,-17.940298,-36.437467,-47.356595,-54.089409,-62.665973,-75.12423,-64.056413,-53.740284,-59.442237,-67.436242,-54.251053,-42.700095,-49.95617,-57.183172,-45.784145,-35.326206,-36.742298,-43.688385,-38.366976,-32.888492,79.311243,46.477565,-76.075367,54.168869
84,5.845189,27.184876,-2.93521,15.386724,-26.558361,-54.137904,-74.611297,-85.820607,-62.45828,-97.338879,-114.553639,-123.27173,-56.879377,-91.322515,-95.786757,-94.822011,-50.083511,-82.360889,-86.002607,-83.149196,-41.759651,-68.865127,-73.906439,-73.450749,-16.982935,-24.331912,-21.111008,-14.981127,-38.036888,-31.381131,-22.263093,-15.56331,-29.234526,-14.719512,-3.246455,1.455828,-17.183969,-2.937107,5.838067,8.21397,-3.682058,6.508944,12.695158,14.175057,28.441235,48.744862,63.869585,70.912428,29.307593,55.207644,65.798035,67.186838,16.370911,46.837006,56.686015,54.906252,6.778187,37.553936,47.665598,46.441664,-0.103397,24.43677,36.749634,40.297234,-18.038966,-34.412245,-42.772346,-46.21642,-57.096114,-67.496152,-53.835504,-43.182823,-53.149846,-59.201775,-44.01917,-32.206749,-43.865464,-48.864802,-36.09838,-25.844437,-31.357869,-36.673801,-29.962103,-23.970349,84.10004,71.50143,-80.066969,67.394582
85,5.984798,26.979176,-2.421512,17.880097,-28.583256,-58.155275,-79.549716,-91.669507,-68.274338,-102.803879,-119.450019,-128.371007,-61.975029,-96.575291,-103.610362,-104.758163,-53.85244,-86.359888,-92.784308,-92.776328,-44.079552,-70.979441,-78.059331,-80.406164,-17.550592,-23.771081,-20.190608,-14.276294,-29.221729,-17.27479,-6.069425,2.235173,-18.847046,-0.667717,12.667026,19.55312,-6.220968,10.607647,21.536538,26.373841,7.067725,20.014274,28.136465,31.911894,27.597793,48.832786,64.43736,71.506296,35.00065,61.941747,69.418945,68.429575,23.049545,53.937755,61.872007,58.691236,13.788002,44.473011,52.816309,50.233171,6.52993,31.410375,40.959984,41.838855,-19.623635,-34.072228,-39.280817,-38.634654,-51.508053,-56.852369,-43.017029,-33.655673,-45.852002,-48.307705,-34.378758,-24.201938,-36.095688,-37.884961,-26.476993,-18.007816,-23.840231,-26.17436,-19.130481,-13.484431,88.994582,96.500635,-83.578737,83.294708
86,2.321878,28.762111,-0.317883,18.138554,-30.051419,-60.694107,-82.332997,-94.94212,-72.002083,-106.230257,-121.629668,-129.716538,-65.459027,-100.732739,-110.452446,-113.204298,-56.498589,-89.562762,-98.79431,-101.334549,-45.685479,-72.421589,-81.491667,-86.248015,-17.903396,-22.551031,-18.45936,-12.328158,-19.511201,-2.866732,9.831573,18.836911,-7.324646,14.486152,28.671154,36.558633,5.791364,25.242917,37.346081,43.617159,18.505366,34.054126,43.394512,48.5339,27.670876,49.513138,65.475832,72.598383,37.085329,63.673903,70.461239,70.02146,25.270363,54.979305,63.805338,62.403151,15.830635,45.493572,55.307539,54.903471,8.645279,32.231249,42.302777,44.459942,-19.239215,-30.796363,-33.28045,-30.193238,-44.085648,-46.085105,-33.079566,-24.284789,-37.556385,-37.794587,-24.404269,-14.98249,-27.487291,-27.124446,-16.103053,-8.344556,-15.175445,-14.857202,-7.587533,-2.286087,90.023901,123.786605,-85.189179,99.957121
87,-1.341042,30.545045,-4.339565,27.028544,-30.962849,-61.754402,-82.96114,-95.638447,-73.641517,-107.618013,-121.092584,-127.308323,-67.331371,-103.794857,-116.313011,-120.160417,-58.021957,-91.969511,-104.032614,-108.82386,-46.577431,-73.19157,-84.203447,-90.976301,-18.041346,-20.671762,-15.917262,-9.136718,-8.905302,11.843043,25.439904,34.241903,5.332676,30.742097,44.76593,52.472369,18.853027,40.968703,53.266696,59.943925,30.630869,48.628502,58.469301,64.041077,29.972534,55.623276,74.346308,81.916151,44.03163,73.926012,81.269623,80.563711,31.854183,64.929314,74.736174,73.699682,21.789493,54.516884,64.896761,64.428652,14.403088,40.218584,50.866299,53.197746,-20.683167,-31.001127,-30.373684,-24.600712,-41.842471,-39.474457,-25.775116,-17.494478,-32.297812,-28.36494,-15.589107,-7.946592,-19.892657,-16.415955,-6.893603,-0.945504,-5.974806,-5.049964,0.452637,4.381513,87.775721,153.184831,-90.435882,125.838846
88,-1.099777,26.435367,0.232212,23.259806,-32.53917,-63.537838,-85.197533,-98.32778,-73.777096,-107.055971,-120.410088,-127.36064,-67.435295,-103.5544,-119.000479,-125.909981,-58.224014,-91.667679,-106.915283,-115.455277,-47.021576,-72.677307,-85.388186,-94.887308,-17.610477,-20.117191,-16.309683,-10.074296,-1.318118,20.17192,33.315187,42.042595,14.265506,40.069008,54.11882,62.711853,28.257075,50.672277,63.051993,70.62418,39.766456,58.625687,68.884752,75.325869,28.91082,55.606716,74.844137,83.793383,54.442915,81.549173,84.736942,80.867529,44.641067,73.773319,77.956598,73.058298,35.100597,63.883141,68.968992,65.220972,26.68483,50.704531,57.678635,57.476246,-13.67457,-17.869174,-13.034916,-4.741879,-27.524681,-14.38235,0.525471,8.7378,-19.101619,-3.776297,9.712568,16.553834,-7.855205,5.868941,16.970208,22.74987,4.597068,13.880853,21.21536,25.384853,86.047806,178.654782,-90.831808,148.133236
89,-2.505638,22.862781,-0.738527,22.947462,-34.314331,-64.879086,-86.129872,-98.39522,-74.652043,-105.452471,-119.268528,-128.350966,-68.567322,-102.047202,-118.501185,-128.000645,-59.688904,-90.618702,-106.703751,-117.422447,-48.881562,-72.199082,-85.095972,-95.740877,-16.635598,-19.508493,-17.370308,-13.702256,5.233996,23.958184,35.357989,43.562125,21.274017,44.209905,57.171267,65.850849,34.908397,55.254911,66.941429,74.602809,45.431995,63.368378,73.935158,81.185403,29.936977,57.525306,77.190078,86.981758,58.809093,87.098659,91.019462,87.681987,49.614875,79.974403,84.372562,80.001857,40.185367,69.817428,74.665329,71.066791,31.413929,56.719963,63.429359,62.834301,-9.325226,-9.217823,-1.657757,7.610782,-17.9174,0.132085,15.551409,24.111474,-9.696352,10.505265,25.335552,32.957813,1.525884,19.682642,31.839464,38.154431,14.295678,26.278765,33.941633,38.110305,83.21152,200.608029,-91.900983,170.171164
90,-4.261208,20.474609,-0.660519,21.572655,-35.772675,-65.46532,-85.31757,-95.702379,-73.634159,-103.836096,-118.397209,-128.487299,-67.828468,-100.67716,-117.889772,-128.822479,-59.397331,-89.644489,-106.252636,-117.795936,-49.042351,-71.372612,-84.06003,-94.645208,-13.194124,-13.506909,-8.993018,-4.062473,11.576269,27.829947,37.582906,44.377563,27.192115,47.956574,59.110057,66.219573,40.044673,59.622283,70.203889,76.743449,49.426987,67.169264,77.41488,84.118708,32.400776,61.133137,80.852497,90.708355,60.316051,87.952641,94.966324,95.601357,49.521915,79.611591,87.927509,88.443272,38.875591,68.386139,76.987186,78.12553,29.118256,54.420605,63.397671,65.681797,-6.117533,-2.90351,6.037665,15.716493,-8.990514,11.528234,27.259633,37.125212,-0.960342,21.599714,37.605161,47.158963,10.140566,30.989407,44.246183,51.921105,22.704602,36.652254,44.917966,49.742797,78.607555,220.36776,-92.904259,191.028941
91,-1.788345,16.603796,-3.27499,23.750863,-37.488442,-66.554054,-85.207443,-94.26947,-72.575821,-101.471718,-117.589829,-130.475407,-66.903191,-98.586331,-117.45718,-131.648232,-58.951813,-88.340927,-106.514992,-120.458554,-49.109368,-70.439369,-83.86314,-95.959019,-10.529717,-8.507576,-1.878731,3.866231,17.301527,29.765477,36.703383,41.480086,32.231888,48.518917,56.809428,61.893056,44.349912,61.498038,70.459715,75.660236,52.730616,69.566792,79.588365,86.184692,33.066009,63.459114,83.742702,94.349762,64.936123,92.745998,100.645111,102.472034,54.405018,85.181808,94.250462,96.458393,43.756382,73.806896,82.700958,84.696854,33.255112,60.087238,68.875168,71.629486,-5.007019,-0.170974,10.390977,20.995412,-3.067612,20.059696,35.979125,46.322937,6.004413,31.372977,46.894437,56.575098,17.329364,41.045759,54.371349,62.427493,29.3064,45.039602,53.091004,57.806895,76.569243,236.413545,-96.429216,214.221793
92,0.406814,12.257482,0.82584,18.692122,-38.344253,-66.86428,-84.791896,-93.417091,-70.599197,-98.395523,-116.975841,-133.784603,-65.084289,-95.572872,-117.150329,-135.877876,-57.917312,-86.521637,-107.348384,-124.89822,-49.096046,-69.755973,-84.608516,-99.195247,-9.060959,-5.957075,1.419654,5.721608,21.688955,30.714828,34.859577,38.135301,35.739557,47.15191,53.07291,57.111881,47.077217,60.836259,68.549947,73.206904,54.78231,70.409437,80.531293,87.925004,35.404152,65.397526,84.655552,94.631618,69.738625,97.674511,103.30592,102.78257,59.142986,89.384216,95.1679,94.47464,48.04422,76.952774,83.092541,82.502563,36.481773,62.65329,69.915539,70.865684,-3.771048,3.170908,14.892433,26.156882,7.2185,33.780822,46.685127,54.458207,17.043299,45.648918,57.789753,64.909798,27.643498,54.348625,65.677417,71.955371,37.994633,57.468824,65.110968,68.836012,76.812183,248.338103,-95.76725,232.580991
93,-1.832313,11.483032,-3.573406,15.754543,-38.278565,-65.613762,-81.996128,-89.652706,-68.998947,-94.938481,-114.310616,-132.45472,-64.10923,-93.280506,-115.269482,-134.991291,-57.810219,-85.565231,-106.38477,-124.224209,-49.827278,-69.802117,-84.790569,-99.730545,-8.026763,-3.070415,5.05584,7.826952,26.892626,33.978152,36.22278,37.754017,40.129815,48.921085,52.034022,53.397014,50.26465,62.346983,68.214334,70.945567,56.445027,71.807072,81.441396,88.373324,37.420372,67.759083,88.244087,99.151291,67.035576,100.924186,111.242935,113.819252,55.203827,92.13985,104.005417,107.939827,44.071747,78.697746,90.360523,93.941333,33.374038,62.066734,73.109802,77.086269,-9.682946,-4.823683,6.315622,17.08829,8.80304,31.851912,40.495599,45.650202,22.820754,46.778704,54.467568,58.787603,35.56,57.834658,64.871056,68.421358,46.815062,62.846914,66.776303,67.659334,74.749289,259.588157,-99.571237,248.102556
94,-1.823227,9.634201,-2.588402,12.526244,-38.420677,-64.959274,-80.578858,-88.576424,-67.262398,-91.902477,-110.66827,-127.826614,-62.242928,-90.033314,-111.288735,-129.980003,-56.260803,-83.164387,-103.561203,-120.694897,-48.630661,-68.293259,-83.277741,-98.219948,-7.111066,-0.767521,7.653297,10.057388,29.850347,37.84637,39.788137,40.200518,42.410911,51.718551,53.432162,52.595777,51.592543,64.189356,68.453987,69.0399,56.542147,72.504901,80.863832,86.203785,38.741318,69.75626,91.230572,103.564796,68.544331,102.632996,114.477905,119.169388,56.483448,93.652061,107.863701,114.655632,45.142982,79.625027,93.845924,100.457222,34.302967,61.804562,74.308971,80.550648,-11.048581,-6.63397,4.488205,14.575901,13.823509,36.218123,43.534621,48.156269,29.77858,53.214245,59.064207,62.200041,42.848129,64.843107,70.463976,72.618633,53.044851,69.880323,73.157343,73.181648,72.670046,269.047598,-102.415655,260.45404
95,-1.418358,7.925875,-0.915001,11.03323,-37.913979,-63.791359,-79.082279,-88.26749,-66.309769,-88.76247,-103.631756,-116.260654,-60.949264,-85.962078,-102.551411,-116.139381,-54.972702,-79.364353,-94.92532,-106.772907,-47.544548,-65.428734,-77.860153,-89.307198,-5.676456,1.443898,9.291782,11.307056,32.330219,41.685937,43.777942,43.541043,43.362288,53.953645,55.374028,53.360075,50.920427,63.998572,66.900211,65.500564,54.390344,69.775866,76.602041,80.146391,39.258808,70.267742,92.222511,105.830109,71.412243,106.020309,117.542152,121.263313,60.175255,97.793335,111.33094,117.015015,49.062538,83.006287,96.183392,101.477829,38.154316,64.343502,76.117847,81.537621,-10.006778,-5.209672,6.432454,15.49944,18.75833,41.029357,47.636726,51.308022,35.465744,59.268737,64.412201,66.267344,48.089912,70.187964,75.475652,76.652837,57.103817,74.714849,78.144443,77.745177,70.98329,276.864329,-103.599054,271.378126
96,-1.171143,6.027112,1.41758,8.286683,-36.735305,-62.275428,-77.706722,-87.875083,-66.118835,-86.346782,-97.340984,-105.088542,-60.298919,-82.013122,-93.444534,-101.345718,-53.957199,-75.075038,-85.22787,-91.397563,-46.489402,-61.823135,-70.879646,-78.299411,-4.662514,2.11016,8.927245,9.714847,32.943894,44.774545,49.000335,50.294068,42.956316,56.200557,59.318162,58.408542,49.309692,63.623166,66.723222,65.370073,51.90752,67.040175,73.101694,75.905237,39.938656,70.56998,93.043888,107.40422,73.72443,109.254776,120.503814,123.552841,62.451233,101.165542,114.399765,119.297287,51.039608,85.355861,97.905487,102.564445,39.797447,65.246807,76.537971,81.384853,-8.23028,-2.792514,9.027157,17.433401,24.272482,47.165558,53.144541,55.63165,40.708342,64.877292,69.463298,70.016261,52.288755,74.735733,79.118444,78.767899,59.975483,78.260682,81.505715,80.545175,69.654705,282.847608,-102.338916,279.620976
97,-0.787193,4.43631,1.54327,6.675553,-35.697784,-60.892753,-76.321289,-87.032673,-66.962105,-83.704101,-89.002247,-90.793407,-60.476715,-77.727161,-82.264606,-83.684635,-53.413765,-70.123546,-73.74591,-73.900142,-45.741142,-57.668655,-62.583401,-65.755039,-2.518367,4.470372,10.881497,12.115357,33.080227,47.709258,54.526083,57.737537,41.880624,57.938967,63.434482,64.192196,47.124148,63.249342,67.498882,66.975819,48.854172,63.960064,69.75518,72.159556,37.624134,67.238445,90.110058,106.701244,70.95227,104.610203,119.032528,126.560589,60.19313,97.55167,114.758457,125.018314,49.089729,81.848499,98.041569,107.9454,38.194542,61.587742,74.56953,83.018234,-7.834546,-2.893427,7.62068,13.940415,25.056712,45.171575,52.154188,56.63791,41.011326,62.923411,69.631593,72.249094,51.861244,72.915479,78.985804,80.029547,58.752158,75.96159,80.230199,80.199459,68.789509,287.262574,-100.873649,286.275185
98,-7.404487,7.127381,3.088211,6.302358,-32.149453,-56.867192,-73.252213,-86.018464,-67.60825,-78.377873,-74.903893,-69.556366,-61.765091,-70.997956,-66.359448,-59.835309,-54.853421,-64.083744,-58.783036,-51.595093,-47.514256,-58.698075,-61.77958,-62.219662,4.381513,13.578632,22.255305,26.086585,34.471896,50.352583,58.031802,62.35937,39.498281,55.815086,63.242944,65.600303,41.451014,57.792013,63.091013,63.629798,41.271703,55.195581,61.541683,65.372741,35.810154,64.823009,87.850078,105.354595,67.78585,100.396351,116.318058,126.492084,57.416347,94.071041,113.18446,126.292156,46.686973,78.704464,96.572582,108.988987,36.26683,59.033958,72.658893,82.747158,-7.58337,-3.118914,7.090121,13.025509,24.757778,43.154078,51.543304,57.726718,40.526388,60.872433,69.456283,74.015637,51.290251,71.206327,78.588811,80.896807,58.042028,74.527659,79.470076,80.241166,61.440348,294.398532,-97.730112,292.58612
99,-7.598374,7.240298,4.187462,5.764401,-26.975235,-49.844593,-65.726715,-78.586498,-64.776077,-70.92445,-61.305988,-50.792038,-60.056545,-63.937065,-52.010124,-39.077225,-53.641594,-57.969086,-45.300979,-32.021461,-46.701908,-56.27084,-56.502731,-53.578045,11.695182,23.277966,33.101468,39.38209,35.803975,50.825739,58.230465,62.960411,36.445191,51.994847,60.489579,64.296146,34.694333,50.082696,56.683222,59.027095,31.621274,44.053472,51.111322,56.529414,33.477504,61.678768,84.403404,101.915325,64.871338,97.317615,113.445797,123.89384,54.491157,91.075561,110.621326,124.183101,43.861736,75.702186,93.705059,106.357464,33.692127,56.162361,69.948955,80.509998,-8.163626,-4.060917,6.202422,12.607026,24.526041,42.554815,50.576169,56.456302,40.448793,59.989081,68.226301,72.568269,51.041755,70.320591,77.568472,79.873849,57.341952,73.734129,78.732319,79.40383,54.002878,301.631565,-93.381746,298.343256
100,-5.195595,4.592402,3.379406,4.307203,-24.61338,-48.321785,-66.491569,-81.779342,-65.764938,-68.915153,-54.316623,-40.979381,-61.695945,-61.782486,-45.11586,-28.829406,-55.597744,-56.191063,-39.197479,-23.565467,-49.029968,-60.515602,-62.151546,-60.729789,17.431178,30.842553,42.630496,50.810351,37.164548,51.610698,58.389251,63.566455,35.289385,49.659472,58.529721,63.115368,31.648741,46.467605,53.787993,57.423314,27.870715,40.080204,48.604911,56.519918,31.812915,59.36111,81.70808,99.239044,62.44202,94.960807,111.221283,122.020019,52.075596,88.726844,108.433433,122.300171,41.477142,73.578575,91.802604,104.703025,31.376266,54.331466,68.397869,79.397792,-8.88113,-4.924781,5.415276,12.23125,23.873672,41.602339,49.322351,54.819126,39.924716,59.002667,67.051252,71.149343,50.346234,69.498582,76.613094,78.666035,56.312757,72.654336,77.680215,78.183827,49.070057,306.205763,-89.739566,302.632255
101,-4.968361,4.285059,2.213722,2.783177,-20.989173,-43.988594,-62.494754,-78.958889,-64.570781,-64.973819,-46.202476,-30.361267,-62.005199,-59.05577,-38.437362,-19.03617,-57.058101,-55.312385,-34.853462,-16.99823,-51.332668,-64.820297,-67.49921,-66.788085,24.129826,40.246449,53.576547,63.852989,39.561217,53.878828,59.768533,64.439568,34.151436,48.123998,56.908352,61.512611,27.655021,42.425003,50.163911,54.313242,21.6863,33.687789,43.532052,53.412217,30.318809,57.358051,79.378509,96.758537,60.319336,92.901283,109.289451,120.379326,50.053928,86.720993,106.499977,120.661079,39.504742,71.613384,89.868004,102.849472,29.520538,52.572155,66.560589,77.437992,-9.780993,-6.072004,4.473175,11.832948,23.109104,40.449459,47.827917,53.006146,39.501677,58.27048,66.320968,70.517946,49.955503,68.962366,76.131947,78.150408,55.77916,71.996016,76.973778,77.221509,44.372308,310.463871,-87.255232,305.388481
102,-5.232399,5.22385,1.292747,1.517442,-17.215599,-39.624961,-58.626617,-76.019313,-61.83918,-60.479793,-39.977165,-23.023887,-60.907493,-55.837772,-33.414756,-11.988052,-57.201999,-53.376789,-31.000007,-11.624839,-52.243022,-65.592899,-67.393009,-65.841362,30.417611,48.872796,62.908714,74.988033,41.743847,55.254133,60.518405,64.673294,32.183105,45.309785,53.968588,58.326574,21.740134,35.631285,43.701051,48.146574,12.154124,23.021641,32.72883,42.729482,29.458706,56.374455,78.207688,95.158287,58.840897,91.642868,107.934426,119.085732,48.470547,85.374115,105.130783,119.472565,37.778035,70.090222,88.341408,101.333542,27.717316,51.012761,65.060475,75.9711,-10.490715,-6.978858,3.924005,11.906283,21.952457,39.145649,46.444474,51.480627,38.666948,57.209633,65.359526,69.757724,49.205594,68.097033,75.299354,77.2717,55.010009,71.223444,76.171702,76.140494,39.373363,315.663008,-85.729031,306.88121
103,1.252579,0.995108,0.651741,0.225192,-15.860527,-37.703029,-55.750053,-71.492111,-59.270324,-59.414039,-41.022148,-25.03791,-58.569992,-55.872963,-34.697456,-13.492264,-54.971466,-52.898792,-31.681732,-12.534874,-49.629673,-60.601524,-59.99984,-56.497661,31.307583,50.069988,62.978208,75.297724,41.207433,55.221553,61.02834,64.839304,30.838069,45.386627,53.992202,57.935496,19.645968,33.96989,42.353719,46.839639,8.713996,19.218853,28.067625,36.629912,28.790738,55.587799,77.216229,94.046608,57.671551,90.520203,106.898575,118.315728,47.160931,84.205239,104.124138,118.637558,36.381627,68.860257,87.272232,100.358941,26.294552,49.981579,64.169861,75.134377,-11.246862,-7.708341,3.625824,11.950471,21.163373,38.270781,45.519625,50.432352,38.178859,56.442062,64.74364,69.337067,48.782208,67.543897,74.73829,76.626395,54.535938,70.754486,75.645984,75.421101,40.840971,316.639326,-84.862261,307.087612
104,1.157776,1.811955,0.440186,0.05234,-16.084602,-38.38084,-56.916275,-72.711021,-59.329319,-59.862327,-42.021011,-26.345833,-58.539986,-56.129013,-35.697189,-14.681534,-54.839664,-52.561043,-32.144691,-13.249946,-49.396831,-59.045036,-57.772419,-53.929218,30.79577,49.050303,61.335968,73.554324,39.670996,53.910184,59.854131,63.543039,29.328654,43.878818,52.480218,56.089813,18.317926,32.35787,40.652754,44.902392,7.693274,17.387076,25.466685,33.221981,28.611706,55.161713,76.563698,93.298691,56.799717,89.531959,106.038803,117.697884,46.179131,83.204956,103.248985,117.878334,35.38821,67.953815,86.555832,99.846817,25.35482,49.298801,63.589176,74.599983,-11.650315,-8.120155,3.416872,11.972021,20.544942,37.565344,44.757575,49.634091,37.695057,55.897411,64.239583,68.951485,48.337172,67.134393,74.309112,76.252483,54.059361,70.252393,75.094997,74.856764,42.180582,318.459608,-84.24024,307.148279
105,-0.266373,-0.073471,0.375069,0.198601,-16.09861,-38.757557,-57.331558,-73.514247,-59.742141,-61.254249,-44.192928,-28.94989,-58.486953,-56.391048,-36.137901,-14.859123,-54.334167,-51.422653,-31.250495,-12.347351,-48.280265,-55.320602,-51.334453,-45.049438,32.254698,51.085548,62.796686,74.63671,40.538565,54.271017,60.707571,64.728066,28.869293,43.410169,52.605608,56.683482,16.689284,30.603949,39.747382,44.728578,4.672629,14.117873,21.841862,28.91615,28.426529,54.815208,76.137325,92.774734,55.906757,88.698005,105.375846,117.201301,45.195442,82.414947,102.710128,117.425972,34.475086,67.370075,86.234665,99.699463,24.609615,48.924614,63.383606,74.572288,-11.827723,-8.33081,3.3189,12.014099,19.912952,37.021929,44.230548,49.212633,37.205599,55.271448,63.58745,68.37307,47.993223,66.707538,73.749715,75.7023,53.799034,69.967577,74.719123,74.478926,42.070587,318.39254,-83.708793,307.353283
106,-0.44252,-0.066666,0.391971,0.3326,-16.049995,-38.735241,-57.422905,-73.646953,-59.875545,-61.868934,-44.477451,-29.240547,-58.668434,-56.853676,-36.60823,-15.401436,-54.559032,-51.641144,-31.676513,-13.006256,-48.662452,-55.888172,-52.342346,-46.423588,32.054627,50.700127,62.668542,74.637674,40.416238,54.404164,60.708535,64.739132,28.840716,43.18956,52.558839,56.849912,16.881501,30.626723,39.860472,44.992413,5.255911,14.597897,22.269064,29.446191,28.247383,54.529267,75.781471,92.345822,55.200852,87.944309,104.677174,116.535656,44.448086,81.679791,102.101109,116.823887,33.791886,66.841015,85.824795,99.38039,24.039311,48.502819,63.024101,74.304177,-11.896007,-8.441713,3.24675,12.01752,19.327299,36.613968,43.89223,48.953529,36.674397,54.746335,63.072958,67.91645,47.557858,66.300899,73.246338,75.226995,53.437053,69.663826,74.373814,74.163653,41.790962,318.339944,-83.153927,307.699953
107,-0.36644,-0.243556,0.451092,0.232836,-16.482948,-39.160663,-57.736164,-74.078064,-60.060928,-62.095836,-44.779277,-29.972831,-58.593807,-56.720535,-36.471748,-15.267242,-54.140247,-51.038486,-31.108429,-12.458313,-47.883876,-54.961166,-51.370513,-45.394809,32.183389,50.819503,62.878061,74.561733,40.748332,54.323184,60.010088,63.70811,29.355961,43.415468,52.627345,56.888222,17.71791,31.243029,40.398688,45.515785,6.407371,15.857259,23.673515,30.953765,28.035095,54.171055,75.358028,91.955063,54.551697,87.271271,104.125259,116.138329,43.809231,81.069603,101.656357,116.421661,33.255444,66.542004,85.711555,99.340942,23.653061,48.527172,63.204128,74.609745,-11.907381,-8.485099,3.174342,11.940171,18.740855,36.132476,43.485863,48.634625,36.133069,54.126546,62.467619,67.365995,47.138709,65.813417,72.632984,74.603267,53.170921,69.36782,73.965644,73.774687,41.584064,318.10248,-82.543293,307.938881
108,-0.116546,0.855021,0.543869,0.267417,-16.446831,-39.350842,-58.342987,-75.20628,-60.186276,-62.394264,-44.967556,-29.991669,-58.6325,-56.701801,-36.356529,-15.037193,-54.076573,-50.688172,-30.77813,-12.227303,-47.915749,-54.603653,-50.258537,-43.910855,32.527697,51.247186,62.628392,73.896089,41.056318,54.065549,59.351014,62.746434,28.784634,42.246792,51.416407,55.487513,16.166135,29.31502,38.489378,43.347357,3.857203,13.269658,21.214972,28.422838,27.828655,53.817867,74.951008,91.615059,53.929733,86.702225,103.660011,115.802055,43.247761,80.56572,101.275703,116.078613,32.82114,66.310078,85.652,99.410316,23.373734,48.589725,63.434624,75.084927,-11.910556,-8.544763,3.051717,11.735209,18.277405,35.697098,42.999269,48.119416,35.6341,53.575818,61.859414,66.734436,46.66013,65.270605,71.932647,73.877254,52.728195,68.867122,73.409902,73.332097,41.632668,318.972438,-81.834274,308.221235
109,-0.270722,0.494671,0.375984,0.229452,-16.519638,-39.430744,-58.482639,-75.427425,-60.167472,-62.45446,-45.020038,-30.0951,-58.404911,-56.429168,-36.062667,-14.842804,-53.697452,-50.404815,-30.523796,-12.11277,-47.430221,-54.72155,-50.867099,-45.033565,32.760458,51.48154,62.514499,73.723594,41.092589,53.770826,58.761926,61.910234,28.388813,41.499932,50.622901,54.69991,15.263084,28.057164,37.339967,42.227093,2.427643,11.096623,18.87815,25.963183,27.510018,53.343876,74.463192,91.300919,53.353249,86.288796,103.392746,115.657105,42.83028,80.237641,101.04419,115.871269,32.612457,66.242146,85.637764,99.404137,23.403214,48.826058,63.739998,75.521107,-12.015,-8.664225,2.840951,11.339314,18.037024,35.295239,42.546392,47.627179,35.360966,53.047173,61.247282,66.107015,46.415846,64.714197,71.25648,73.225207,52.541449,68.563755,73.034225,73.036288,41.500923,319.479996,-81.319313,308.463574
110,-0.403015,0.402217,0.33815,0.240666,-16.124634,-39.135555,-58.419628,-75.399524,-59.600017,-61.802582,-45.454765,-31.481678,-58.255932,-56.274914,-35.853882,-14.638641,-53.946144,-50.767353,-30.663643,-12.064018,-48.120197,-56.620067,-53.900459,-48.873356,32.590114,51.244679,62.388417,73.458834,41.053971,53.592923,58.428623,61.448144,28.339253,41.228194,50.049339,53.886522,14.937301,27.700494,36.59322,41.163306,1.695778,10.159289,17.922909,25.035445,27.218468,52.88736,73.979622,90.84803,52.65588,85.739273,102.966568,115.307785,42.309368,79.93705,100.876442,115.749596,32.302769,66.154839,85.665344,99.472733,23.300022,48.933998,63.95755,75.831482,-12.180652,-8.928072,2.573572,11.067749,17.826788,34.91971,42.099801,47.145649,35.161438,52.561037,60.621824,65.460673,46.258049,64.234026,70.63931,72.647729,52.438425,68.28284,72.644802,72.646457,41.222448,319.902603,-80.856623,308.72463
111,-0.256874,-0.128391,0.249722,0.250645,-16.086845,-39.101932,-58.465759,-75.598457,-59.060463,-60.332634,-43.822014,-29.682758,-58.185699,-55.699116,-35.396004,-14.264694,-54.099884,-51.032856,-31.256172,-12.784172,-48.409252,-57.45908,-55.329002,-50.835274,31.380732,49.791493,61.376463,72.641134,40.41436,53.150802,57.906671,60.788982,28.73979,41.349508,49.89059,53.544646,16.147769,28.802553,37.306252,41.550765,3.868811,12.559564,20.211107,27.372833,26.932079,52.420246,73.449943,90.452099,52.101047,85.352337,102.674297,115.098919,41.898239,79.757389,100.752971,115.636013,32.056457,66.13916,85.723469,99.556057,23.236107,49.149696,64.279186,76.303001,-12.404485,-9.239368,2.303006,10.78072,17.560483,34.548824,41.72773,46.8109,34.891218,52.036615,59.997169,64.85032,46.023706,63.711753,69.993944,72.033066,52.24485,67.933369,72.224393,72.258776,41.064251,319.79154,-80.508224,308.992603
112,0.123116,0.072865,0.193416,0.210334,-16.178559,-39.268032,-58.463906,-75.5816,-60.164658,-60.518486,-43.357384,-28.743748,-59.121277,-55.703568,-35.033799,-13.899079,-54.728325,-51.5686,-31.387276,-12.704613,-48.585594,-59.188992,-59.039017,-55.988789,30.99741,49.329885,61.240774,72.787891,39.702736,52.927217,58.016748,61.155644,28.547043,41.411852,49.613579,53.117038,16.583518,29.616276,37.868823,42.152795,5.019518,13.705566,21.47751,29.181837,26.688721,52.061806,73.035153,90.153099,51.573429,85.00541,102.437279,114.904702,41.529785,79.610733,100.682396,115.527512,31.899319,66.199013,85.864518,99.722557,23.317143,49.464695,64.676411,76.82547,-12.642742,-9.455075,2.196351,10.677894,17.38531,34.315556,41.447297,46.511114,34.70698,51.702039,59.562163,64.412127,45.859166,63.401828,69.584786,71.690462,52.077951,67.703312,71.970624,72.109007,41.268277,319.886616,-80.233898,309.225148
