takenoko1/special-research/HandMotion_SimilarSearch_自分用/NewProject/handData_new/key/d3_feature/36.csv
,vel_0x_L,vel_0y_L,vel_0x_R,vel_0y_R,posFromWrist_1x_L,posFromWrist_2x_L,posFromWrist_3x_L,posFromWrist_4x_L,posFromWrist_5x_L,posFromWrist_6x_L,posFromWrist_7x_L,posFromWrist_8x_L,posFromWrist_9x_L,posFromWrist_10x_L,posFromWrist_11x_L,posFromWrist_12x_L,posFromWrist_13x_L,posFromWrist_14x_L,posFromWrist_15x_L,posFromWrist_16x_L,posFromWrist_17x_L,posFromWrist_18x_L,posFromWrist_19x_L,posFromWrist_20x_L,posFromWrist_1y_L,posFromWrist_2y_L,posFromWrist_3y_L,posFromWrist_4y_L,posFromWrist_5y_L,posFromWrist_6y_L,posFromWrist_7y_L,posFromWrist_8y_L,posFromWrist_9y_L,posFromWrist_10y_L,posFromWrist_11y_L,posFromWrist_12y_L,posFromWrist_13y_L,posFromWrist_14y_L,posFromWrist_15y_L,posFromWrist_16y_L,posFromWrist_17y_L,posFromWrist_18y_L,posFromWrist_19y_L,posFromWrist_20y_L,posFromWrist_1x_R,posFromWrist_2x_R,posFromWrist_3x_R,posFromWrist_4x_R,posFromWrist_5x_R,posFromWrist_6x_R,posFromWrist_7x_R,posFromWrist_8x_R,posFromWrist_9x_R,posFromWrist_10x_R,posFromWrist_11x_R,posFromWrist_12x_R,posFromWrist_13x_R,posFromWrist_14x_R,posFromWrist_15x_R,posFromWrist_16x_R,posFromWrist_17x_R,posFromWrist_18x_R,posFromWrist_19x_R,posFromWrist_20x_R,posFromWrist_1y_R,posFromWrist_2y_R,posFromWrist_3y_R,posFromWrist_4y_R,posFromWrist_5y_R,posFromWrist_6y_R,posFromWrist_7y_R,posFromWrist_8y_R,posFromWrist_9y_R,posFromWrist_10y_R,posFromWrist_11y_R,posFromWrist_12y_R,posFromWrist_13y_R,posFromWrist_14y_R,posFromWrist_15y_R,posFromWrist_16y_R,posFromWrist_17y_R,posFromWrist_18y_R,posFromWrist_19y_R,posFromWrist_20y_R,posFromBody_0x_L,posFromBody_0y_L,posFromBody_0x_R,posFromBody_0y_R
6,-0.645401,0.261957,0.450314,0.294241,-14.03215,-34.57299,-52.76184,-69.173206,-58.204055,-55.635131,-37.327892,-21.569503,-58.192108,-52.000179,-30.79335,-9.19638,-54.605621,-48.150558,-27.232177,-8.672195,-49.207248,-55.596382,-50.71154,-43.5695,32.982587,52.241343,62.575818,72.355119,39.489414,50.846982,56.440877,61.183778,25.537736,37.880618,46.691537,51.489445,10.081682,22.141006,31.034992,36.836912,-5.641122,2.016757,9.092032,16.080438,25.7952,50.532692,70.974643,87.494213,48.345028,80.895664,97.764209,109.812572,38.051914,75.606021,96.072315,110.356464,28.591404,63.074192,82.793666,97.287769,20.511383,47.080021,62.389652,74.915531,-12.737875,-9.846795,2.358631,11.474301,16.216683,34.489766,41.881377,47.106808,33.718701,51.039667,58.660755,63.135881,45.179158,62.761872,68.946558,71.349155,51.343343,66.802522,71.168128,71.819051,37.8666,320.633299,-77.003299,308.893274
7,-1.39801,0.325129,0.353405,0.174161,-13.307968,-33.049667,-50.599285,-66.301472,-56.303432,-52.77848,-35.105839,-19.880722,-56.442112,-49.526035,-28.86232,-7.857513,-53.059158,-46.590877,-26.389206,-8.322258,-47.659103,-53.335155,-48.353897,-41.291428,32.090824,51.249989,61.837307,71.886112,38.954642,50.630484,56.102423,60.390989,25.588617,38.131386,46.711272,51.253607,10.765505,23.003572,31.757681,37.358987,-4.286615,3.646423,10.569793,17.323893,25.586757,50.335636,70.747398,87.164589,48.168914,80.650726,97.497184,109.572578,37.837246,75.241859,95.663108,109.995048,28.307212,62.557571,82.253677,96.762085,20.154796,46.558628,61.855384,74.363983,-12.84521,-9.988524,2.193832,11.249443,16.115326,34.349581,41.756789,46.98642,33.586753,50.824393,58.447926,62.948074,44.982989,62.534321,68.759701,71.220134,51.058032,66.519903,70.933229,71.61977,36.139137,320.840747,-76.979347,308.949754
8,-2.030319,2.278442,0.152996,0.16953,-12.909142,-31.388443,-48.102413,-63.446995,-53.856823,-49.340275,-31.923534,-17.040711,-53.498818,-45.469723,-25.462669,-5.119789,-49.754139,-42.54998,-23.147781,-5.62056,-44.206467,-49.41679,-45.266762,-38.937767,30.376584,48.658818,59.167577,69.106183,37.367891,48.425229,53.328804,57.22029,24.72216,36.440783,44.528444,48.740292,10.758255,22.133101,30.256405,35.588565,-3.215949,3.563517,9.92234,16.643045,25.456958,50.206615,70.613697,87.023655,47.781475,80.428402,97.372409,109.526058,37.425041,74.949337,95.475895,109.895977,27.928619,62.192379,81.939571,96.449604,19.852478,46.158245,61.450355,73.931659,-12.865723,-10.141567,1.970431,11.02225,15.844056,34.132132,41.577342,46.876874,33.32708,50.643587,58.299305,62.881852,44.749597,62.380006,68.637052,71.174512,50.808856,66.34915,70.822412,71.527749,33.811998,323.032902,-77.123171,309.032997
9,0.481705,-1.861133,0.018848,0.118881,-14.912293,-34.558422,-52.228375,-69.196553,-57.861626,-54.015164,-34.581654,-18.811181,-56.99889,-48.856316,-27.315606,-6.13353,-52.692913,-44.819184,-23.832322,-5.365174,-46.743485,-53.372704,-50.275418,-44.539765,30.643321,49.140187,60.649316,70.440918,38.091594,48.582939,53.717326,58.562448,25.744426,36.678374,45.168969,50.392733,12.210625,23.128629,31.562809,37.902983,-1.144124,5.957359,13.222566,21.420366,25.404591,50.184483,70.579697,87.011788,47.428104,80.190811,97.284142,109.571892,37.105591,74.726189,95.428688,109.966827,27.710816,62.084324,81.903282,96.421394,19.75882,46.071602,61.351032,73.780838,-12.956347,-10.362904,1.723825,10.75444,15.625337,33.912956,41.405195,46.768392,33.161948,50.456608,58.160639,62.803368,44.682981,62.249677,68.526903,71.135623,50.815859,66.374839,70.860945,71.56464,34.036063,321.107765,-77.361963,309.087874
10,2.165794,-3.312922,0.04866,0.022428,-16.027405,-36.723003,-55.024395,-72.333298,-61.61578,-57.679722,-37.515095,-21.317093,-61.03299,-53.137768,-30.692482,-8.991394,-56.744007,-49.573471,-27.475525,-8.405983,-50.474968,-59.044865,-57.083508,-52.004036,32.352004,51.591531,63.937204,73.912971,40.449422,51.400549,56.811392,62.017149,27.946372,39.286217,47.958149,53.781262,14.158419,25.736102,34.451382,41.353028,0.488051,8.710279,17.010065,26.305515,25.366768,50.191121,70.577454,87.029389,47.151009,80.075295,97.24054,109.556511,36.762806,74.441574,95.221619,109.766098,27.368443,61.709725,81.491135,95.94278,19.44286,45.56147,60.710564,72.957001,-13.061398,-10.513254,1.570437,10.555702,15.431403,33.800768,41.3966,46.863462,33.014105,50.43066,58.270258,63.006107,44.599902,62.233906,68.587517,71.257703,50.740178,66.448161,70.970094,71.610644,35.985964,317.758737,-77.529196,309.074196
11,-1.205795,2.8781,0.041829,-0.020217,-14.385155,-33.691075,-50.663178,-66.473259,-57.955868,-53.165142,-34.757881,-19.365647,-57.522606,-49.276577,-28.130104,-7.272789,-53.363846,-46.119278,-25.368302,-7.232506,-47.104523,-53.117283,-48.799908,-42.234295,31.787519,50.66257,61.710052,71.807788,39.123505,50.109509,55.240029,59.648688,26.136097,37.759562,46.051494,51.113583,11.83748,23.263122,31.77754,37.949198,-2.448774,5.226975,12.755981,20.763391,25.399498,50.232605,70.571559,87.104038,46.87936,79.996295,97.272068,109.60326,36.444499,74.241428,95.170909,109.749263,27.066123,61.484596,81.265857,95.645267,19.15916,45.090728,60.111682,72.122188,-13.08774,-10.554948,1.56525,10.494409,15.229949,33.690185,41.392067,46.971772,32.858012,50.384174,58.350422,63.182626,44.555158,62.241995,68.644315,71.369261,50.802447,66.645441,71.159952,71.700515,34.600977,320.620063,-77.666559,309.037205
12,0.28038,-0.952463,0.005115,-0.01319,-15.003594,-35.317898,-53.535622,-70.730118,-59.500214,-56.842255,-38.599434,-23.554344,-59.009457,-51.468647,-29.810944,-8.241051,-54.838085,-46.884865,-25.534012,-6.762291,-48.983128,-55.239349,-51.203899,-44.609528,32.519546,51.747315,63.127224,72.981429,40.070769,50.334651,55.561329,60.501448,26.680797,37.631998,46.303448,51.726875,12.017841,23.088455,31.830856,38.42102,-2.579129,4.768836,12.347255,20.679201,25.468975,50.319317,70.616077,87.167267,46.637432,79.988594,97.349693,109.695511,36.230553,74.155838,95.232262,109.851906,26.904224,61.39175,81.177979,95.508911,19.011028,44.780846,59.668957,71.483219,-13.202164,-10.715351,1.461558,10.394941,14.849233,33.399847,41.189847,46.843356,32.594968,50.242161,58.348471,63.246118,44.446885,62.214973,68.70546,71.490898,50.820058,66.829532,71.365001,71.816088,34.736435,319.655614,-77.806366,309.012029
13,1.365921,-2.309749,0.18885,0.012005,-15.619148,-36.860539,-55.606648,-73.027634,-61.66872,-59.920612,-41.166184,-25.787933,-61.481003,-55.157513,-32.762032,-10.743347,-57.528328,-50.620972,-28.262901,-8.844177,-51.77187,-59.299793,-55.365383,-48.644096,33.994627,53.975368,65.614197,75.278433,41.822591,52.016559,57.516853,62.844604,27.835048,39.097261,48.225553,54.226025,12.452341,23.990764,33.22145,40.243842,-3.081025,5.186775,13.741023,22.894311,25.278031,50.088707,70.361195,86.677163,46.631504,80.066002,97.43557,109.728356,36.2444,74.174996,95.282433,109.895417,26.863553,61.251057,81.04152,95.357827,18.863732,44.487877,59.321526,71.045655,-13.383192,-10.932009,1.308552,10.321334,14.810984,33.221326,40.950069,46.570925,32.601784,50.090773,58.195119,63.117726,44.449848,62.097177,68.62858,71.476657,50.787503,66.760235,71.31555,71.806627,35.991554,317.345109,-77.728318,309.023278
14,-1.301811,2.665839,0.040593,0.021834,-13.636322,-33.410706,-50.905529,-66.787857,-57.383286,-54.858948,-38.01915,-23.400101,-57.482174,-50.951157,-29.961525,-8.813484,-53.895252,-47.093994,-26.156388,-7.696244,-48.559319,-53.992035,-48.365959,-40.647171,33.210767,52.834937,63.318737,73.094716,40.546086,50.800743,56.157307,60.727986,26.111989,37.729996,46.580411,51.724047,10.157535,21.819138,30.972537,37.171019,-6.051059,2.260041,10.540116,18.678598,25.193252,50.043319,70.300335,86.360447,46.903152,80.301418,97.640545,109.89426,36.552784,74.359989,95.410228,110.04372,27.057243,61.165546,80.900241,95.257038,18.839595,44.239139,59.03017,70.739696,-13.542297,-11.150271,1.074631,10.148434,14.768686,32.968805,40.656719,46.221542,32.535502,49.867608,58.002953,62.962437,44.32993,61.911655,68.563212,71.503643,50.613009,66.545307,71.158112,71.689796,34.58757,320.01602,-77.789898,309.050184
15,-3.10833,2.874642,0.132156,-0.049363,-11.927284,-30.538559,-47.670696,-63.554409,-53.053173,-50.527451,-34.389999,-20.230431,-52.96843,-45.849346,-25.714714,-5.350502,-49.445938,-41.29026,-21.234741,-3.687103,-44.587521,-48.111671,-41.734612,-34.215797,32.228356,51.505204,60.899331,70.479241,39.062014,49.10562,54.055842,57.963025,24.090293,35.368759,43.971777,48.3504,7.546494,18.562088,27.689182,33.297243,-9.110754,-2.638866,4.39658,11.058561,25.055248,49.79726,69.97253,85.927128,46.973534,80.37743,97.769657,110.022343,36.725349,74.530117,95.58379,110.237789,27.246529,61.258129,81.008091,95.406338,18.992054,44.364452,59.230396,71.037724,-13.574519,-11.225545,0.938989,10.04121,14.898386,32.764744,40.281189,45.695342,32.654915,49.745947,57.791037,62.73422,44.385295,61.848175,68.493397,71.485698,50.632559,66.476208,71.046233,71.586178,31.406027,322.898853,-77.730955,309.009012
16,1.160706,-3.03691,0.148544,-0.068703,-13.891846,-34.118432,-52.58947,-69.818516,-57.291184,-54.957093,-37.092511,-22.137223,-56.778683,-49.561696,-28.335297,-7.428978,-52.761006,-44.077412,-22.737236,-4.556923,-47.466637,-52.33144,-46.711533,-39.457913,32.933039,52.686255,63.270584,72.830808,40.985811,51.142247,55.971228,60.187114,26.207987,37.335893,46.00754,50.870793,9.783291,21.028597,30.11974,36.168686,-6.654446,0.467204,8.081783,15.617001,24.832123,49.550995,69.725327,85.458195,47.073281,80.383541,97.749951,110.011105,36.917176,74.66676,95.672757,110.362782,27.437394,61.236706,80.986462,95.489148,19.128857,44.438874,59.39193,71.375027,-13.58104,-11.370696,0.66988,9.842842,15.084613,32.600512,39.949046,45.223704,32.838078,49.696929,57.638452,62.554908,44.493308,61.853708,68.530459,71.578842,50.649305,66.414074,71.018976,71.641222,32.499585,319.872991,-77.649559,308.951357
17,-0.062737,1.053104,0.141518,-0.034914,-13.729362,-33.612785,-51.677914,-68.272327,-56.788055,-52.400734,-34.125584,-18.509537,-56.102074,-47.891579,-26.915405,-6.315948,-51.788303,-42.638683,-21.593285,-3.910652,-45.944927,-48.720955,-40.938744,-32.299587,33.355103,53.139083,62.834231,72.603776,40.833152,51.043323,55.822731,59.758418,25.32482,36.786647,45.239575,49.817108,8.014278,19.288927,28.440017,34.213162,-9.351741,-1.904506,5.683854,12.615523,24.606308,49.370842,69.558735,85.096561,47.337604,80.466351,97.79726,110.040859,37.230263,74.862637,95.770283,110.418652,27.692059,61.270351,80.977467,95.521397,19.284119,44.531673,59.549778,71.65876,-13.640975,-11.538978,0.438045,9.714735,15.3215,32.50638,39.663166,44.781794,33.049747,49.677453,57.465329,62.313884,44.603706,61.846817,68.518171,71.574964,50.638388,66.301911,70.909653,71.563059,32.381132,320.943907,-77.563757,308.934255
18,-1.065422,0.967666,-0.006683,-0.231737,-13.520302,-33.191711,-51.398277,-68.405388,-56.110703,-52.137589,-34.17754,-18.551262,-55.417454,-46.578037,-25.732498,-4.925812,-50.999897,-40.552334,-19.797844,-2.284584,-45.16935,-46.338547,-37.516777,-28.199581,33.474022,53.081037,62.229311,72.052159,40.151823,50.539502,55.247612,58.897494,24.322549,35.910434,44.319815,48.516904,6.684322,18.130712,27.363448,32.966347,-10.705446,-3.189631,4.298508,10.748079,24.65578,49.496784,69.68811,85.222286,47.511818,80.479625,97.812046,110.123943,37.444324,75.003124,95.8736,110.535358,27.891071,61.383602,81.097171,95.710224,19.426426,44.739189,59.852966,72.086643,-13.59192,-11.474486,0.461535,9.754639,15.456313,32.510567,39.628216,44.687538,33.188463,49.821813,57.601883,62.445956,44.706854,62.043282,68.715019,71.772788,50.717293,66.379939,70.949988,71.559255,31.266827,321.918739,-77.619323,308.709684
19,-2.258743,0.066543,0.071926,-0.285176,-13.029808,-32.197998,-50.062146,-66.796944,-54.989914,-50.680607,-32.522381,-16.982048,-54.142948,-44.409508,-23.398774,-2.7873,-49.439358,-38.015808,-17.151261,0.117897,-43.230526,-44.186348,-36.752644,-29.18137,33.076225,52.657602,61.80206,71.73239,39.651125,50.32314,54.89724,58.321164,23.875006,35.378898,43.77541,47.905858,6.296319,17.647514,27.000441,32.671784,-10.951387,-5.015122,1.458026,7.111683,24.663379,49.508354,69.69461,85.298126,47.534511,80.435142,97.771316,110.097587,37.461891,75.006729,95.85308,110.470596,27.927166,61.413414,81.118034,95.697624,19.490181,44.765968,59.883259,72.107918,-13.446671,-11.26141,0.657617,9.966047,15.692015,32.635785,39.66891,44.666852,33.453434,50.111262,57.822666,62.648115,44.960969,62.379278,68.967492,71.958249,50.949006,66.716146,71.225284,71.740357,28.974301,321.981716,-77.58118,308.420942
20,3.545906,-3.402275,-0.019696,-0.229575,-15.648651,-37.191067,-56.705418,-74.955815,-60.939789,-59.202198,-41.361397,-26.276001,-59.916127,-51.889412,-29.859375,-8.026955,-54.805825,-44.162956,-21.908547,-3.239571,-48.101521,-49.690853,-41.534455,-32.412358,34.566337,54.741419,64.963656,74.646837,42.013226,52.194745,57.232962,61.484786,26.297512,37.47861,46.427072,51.403229,8.756628,20.340833,29.874713,36.196313,-8.539662,-0.921996,6.667822,13.613434,24.685536,49.660332,69.916855,85.429379,47.635586,80.440579,97.761807,110.122868,37.570805,75.098774,95.969204,110.602696,28.012665,61.511559,81.252514,95.858609,19.51933,44.806721,59.937413,72.16959,-13.387342,-11.202908,0.71029,10.117348,15.79058,32.750257,39.824137,44.848039,33.560002,50.305813,58.020724,62.821102,45.073824,62.607495,69.182691,72.107858,51.056821,66.95954,71.50179,71.996398,32.484999,318.574504,-77.636084,308.18643
21,-0.08091,1.109334,-0.062908,-0.207791,-14.614197,-35.381596,-54.068138,-71.320953,-58.965832,-57.714466,-40.848232,-26.135948,-58.319618,-50.784794,-29.084564,-7.153954,-53.482487,-43.207054,-21.495735,-2.944221,-46.852215,-46.843208,-37.324493,-27.231468,34.884116,54.887347,64.383746,74.2205,41.277989,50.936074,55.920061,60.11799,25.100147,36.296966,45.556107,50.584653,7.183499,18.660567,28.652561,35.017189,-10.644573,-2.636694,5.376769,12.10597,24.719731,49.76025,70.073799,85.636528,47.80798,80.535622,97.873879,110.253731,37.773709,75.272896,96.129479,110.719918,28.216736,61.79908,81.561768,96.148087,19.713524,45.164463,60.345234,72.609101,-13.338237,-11.100044,0.806856,10.24595,15.888085,32.833534,39.922,44.948928,33.639476,50.400168,58.132987,62.936403,45.163375,62.711656,69.251173,72.108834,51.18052,67.122254,71.624661,72.077255,32.370964,319.677768,-77.732117,307.972569
22,-1.054596,1.205466,-0.069442,-0.170332,-13.859184,-33.989628,-52.221703,-69.165161,-56.383655,-56.852131,-41.248009,-27.335632,-55.918396,-49.33548,-28.229874,-6.441536,-51.311508,-41.42268,-20.498199,-2.222099,-45.054851,-44.703255,-35.193695,-25.215637,34.331463,54.031203,62.968526,72.561563,40.248425,50.16711,54.985642,58.632091,24.081216,35.306614,44.659714,49.376865,6.218168,17.644699,27.777472,33.959689,-11.472843,-3.815903,4.018594,10.327349,24.780612,49.752639,70.076339,85.667198,47.898193,80.586273,97.935813,110.361305,37.945335,75.388206,96.202606,110.77906,28.424709,62.020694,81.792617,96.362915,19.918613,45.481773,60.71371,73.009391,-13.226296,-11.019966,0.778129,10.198204,15.989491,32.851442,39.985726,45.047531,33.684022,50.43791,58.246879,63.114676,45.182381,62.701097,69.229807,72.074735,51.227067,67.103481,71.566146,72.018357,31.278877,320.87286,-77.83905,307.791863
23,-2.677986,1.006866,-0.034791,-0.211458,-12.532791,-31.632969,-49.152638,-65.538105,-53.257118,-52.684605,-37.168099,-23.57151,-52.714314,-45.329887,-24.647575,-3.61425,-48.155125,-37.842259,-17.317612,0.262527,-42.018951,-41.717388,-33.342018,-24.80381,33.080757,52.547884,61.429285,71.033561,39.425118,49.439578,53.978604,57.224934,23.424018,34.291485,43.443909,47.853704,5.682384,16.685406,26.654985,32.510517,-11.875506,-5.819989,1.041618,6.643566,24.75063,49.686425,70.021637,85.696587,47.912522,80.61596,98.007729,110.468537,38.00243,75.432724,96.230301,110.805588,28.525315,62.163838,81.917199,96.458794,20.076989,45.739415,60.980347,73.308381,-13.141525,-10.858699,0.876498,10.209245,16.174285,32.955293,40.103743,45.16393,33.802003,50.580158,58.434057,63.331309,45.239389,62.752831,69.242935,72.053765,51.247346,67.082659,71.527169,72.020913,28.571148,321.871828,-77.903584,307.572507
24,4.404831,-2.745374,-0.06974,-0.194279,-15.224419,-36.704167,-55.791836,-73.801598,-59.313263,-59.623192,-42.603584,-28.130676,-58.487057,-52.390743,-30.669022,-8.752075,-53.604687,-44.437981,-22.68631,-4.015,-47.036991,-48.652577,-39.723931,-29.674656,34.443219,54.157186,63.862659,73.202902,41.326809,51.154992,55.847949,59.873298,25.599374,36.440437,45.793834,50.973754,8.114016,19.28968,29.076268,35.416492,-9.170887,-1.217941,7.005559,14.277769,24.731072,49.675862,70.048371,85.772141,47.916207,80.615204,98.03936,110.53038,38.066586,75.564675,96.387108,110.974732,28.640396,62.423939,82.213188,96.777649,20.245011,46.103909,61.423405,73.847489,-13.105759,-10.832406,0.897851,10.228882,16.190908,32.979549,40.164493,45.266263,33.806239,50.63556,58.496264,63.382796,45.262928,62.770627,69.232166,72.032683,51.301279,67.115819,71.557637,72.108117,32.96695,319.121853,-77.982353,307.373627
25,0.855629,0.403526,-0.079136,-0.236072,-14.835297,-35.732002,-53.798573,-70.430821,-58.703407,-57.788624,-39.578098,-23.977249,-57.944081,-51.996849,-30.295647,-8.448075,-52.99831,-44.937069,-23.562927,-5.195389,-46.002136,-48.218697,-39.597141,-30.034069,34.638733,54.191421,63.411066,73.086701,40.454955,50.897839,55.703676,59.650861,24.69893,36.450713,45.951224,51.082337,7.263565,19.024092,29.111824,35.398288,-10.127833,-1.839927,6.640306,13.884383,24.886631,49.814232,70.23785,86.032803,47.960175,80.706196,98.162533,110.681362,38.063404,75.651753,96.504513,111.092297,28.62513,62.63015,82.437687,96.974362,20.255013,46.336396,61.728058,74.254017,-12.994016,-10.739286,1.022179,10.355297,16.076374,33.109262,40.352511,45.464877,33.695817,50.741635,58.610663,63.486982,45.188865,62.74305,69.165846,71.945331,51.278999,67.040557,71.426121,71.97943,33.818064,319.523968,-78.066004,307.136144
26,0.061775,0.226921,-0.030246,-0.311173,-14.511291,-35.00956,-52.678505,-68.730572,-57.873459,-56.74958,-39.104885,-23.857246,-57.078197,-51.138176,-29.99794,-8.465561,-52.09346,-44.224583,-23.413742,-5.33091,-45.011044,-47.143982,-38.717457,-29.393337,34.385037,53.829946,62.890707,72.5348,39.935029,51.351136,56.535281,60.303044,24.413457,36.806802,46.322504,51.184348,7.250165,19.435114,29.586573,35.686724,-9.903643,-1.623307,6.574813,13.456835,25.068203,50.015739,70.476779,86.341186,47.889221,80.745483,98.24327,110.788673,37.906082,75.657737,96.594909,111.18663,28.455608,62.778762,82.623642,97.124725,20.138282,46.457553,61.920558,74.558807,-12.895264,-10.581328,1.275171,10.589826,15.990282,33.322313,40.646048,45.81867,33.650628,51.00694,58.92354,63.821941,45.181468,62.846099,69.236378,72.03025,51.311567,67.08035,71.441016,72.026298,33.878889,319.774719,-78.0972,306.848801
27,-0.620384,1.091821,-0.074513,-0.360795,-14.017502,-33.963799,-51.253395,-67.02879,-57.214028,-54.748066,-36.497223,-20.837219,-56.271504,-49.502655,-28.584412,-7.424355,-51.143109,-42.983792,-22.422615,-4.538017,-43.851242,-46.10598,-38.369808,-29.724598,33.711538,52.750487,61.60851,71.259482,39.110488,50.490879,55.685213,59.415419,23.884442,36.079037,45.452984,50.170419,7.134383,18.891267,28.868491,34.770434,-9.527841,-2.474339,4.976206,11.517934,25.230045,50.281918,70.78204,86.629658,47.793778,80.761379,98.313686,110.900883,37.742924,75.712498,96.798626,111.44466,28.331108,62.942734,82.892796,97.443913,20.096146,46.586369,62.145023,74.908802,-12.866217,-10.480576,1.490482,10.899602,16.002311,33.580726,40.880823,46.036044,33.723061,51.261154,59.068468,63.872971,45.295706,63.068166,69.387962,72.12395,51.427769,67.288757,71.649102,72.233854,33.26635,320.900188,-78.163868,306.521654
28,4.74884,-3.487676,-0.067394,-0.407874,-17.095276,-39.458885,-58.393501,-76.086468,-64.722816,-62.763119,-42.714969,-25.912765,-63.146587,-57.15477,-34.699585,-12.330162,-57.265228,-49.767345,-27.483581,-8.14975,-48.98925,-53.057018,-45.248714,-35.660511,35.186768,54.746829,64.568615,74.126208,40.877106,52.52721,58.459363,63.343511,26.012534,38.620227,48.493093,54.083284,9.688887,21.95757,32.270914,39.039006,-6.447619,2.267513,10.764419,18.749019,25.412967,50.5028,71.054066,86.894554,47.742313,80.796593,98.370666,110.967819,37.652366,75.723541,96.895065,111.54586,28.238148,62.987457,82.991661,97.535568,19.987472,46.463207,62.048881,74.827194,-12.71373,-10.338118,1.691937,11.195338,16.002521,33.80304,41.175694,46.41224,33.760544,51.456458,59.259524,64.057963,45.412908,63.263248,69.591875,72.326862,51.628754,67.654888,72.006464,72.520833,38.024826,317.450911,-78.221626,306.152179
29,-0.378731,0.436366,-0.01648,-0.360869,-16.405334,-37.662803,-55.522968,-71.738559,-63.540836,-60.354812,-40.941799,-24.723129,-62.160141,-55.273613,-33.049575,-10.765892,-56.227626,-48.42049,-26.636673,-7.704185,-47.600349,-50.741237,-42.810768,-33.480606,35.189065,54.656055,64.342707,74.238297,40.032508,51.879522,57.932977,62.778569,25.104346,38.232298,48.14156,53.567396,8.864667,21.495602,31.999594,38.654943,-7.332614,1.436809,9.982843,17.687442,25.595387,50.707764,71.295388,87.170517,47.846272,80.997025,98.496621,110.980545,37.661305,75.797608,97.005936,111.624115,28.154595,62.986885,83.010567,97.51941,19.791172,46.247658,61.798519,74.494194,-12.661465,-10.252717,1.802692,11.289976,16.000408,34.085239,41.537242,46.804107,33.736275,51.517245,59.363289,64.127642,45.399693,63.270287,69.659429,72.387958,51.626358,67.754874,72.151293,72.651583,37.646181,317.92835,-78.23802,305.832383
30,-0.999,1.573993,0.023484,-0.503575,-15.892021,-36.673645,-54.572239,-70.948059,-61.338272,-58.12032,-39.438893,-23.818291,-59.904431,-52.616501,-31.20369,-9.567627,-53.98019,-46.009129,-24.986778,-6.582321,-45.609261,-48.881355,-42.650952,-35.178349,34.466795,53.769715,63.008651,72.869389,38.794758,50.469736,56.391934,61.019473,23.467886,36.077938,45.951298,51.171109,6.880046,18.936888,29.554476,36.170489,-9.358744,-2.988942,4.017754,10.415961,25.687431,50.816562,71.410766,87.321991,47.837837,80.974914,98.426193,110.896865,37.671283,75.759819,96.911132,111.476028,28.174999,62.907337,82.896995,97.349739,19.81002,46.096149,61.552368,73.994545,-12.706049,-10.189139,1.80725,11.214554,16.18771,34.158068,41.666103,47.014343,33.913697,51.620084,59.522482,64.286625,45.594874,63.448116,69.858476,72.523883,51.834198,67.970766,72.362801,72.739441,36.681954,319.541231,-78.179763,305.367696
31,-1.335411,1.808188,-0.040375,-0.719577,-15.503151,-35.813988,-53.350891,-69.753765,-59.830593,-56.33487,-37.731777,-22.395539,-57.927441,-50.120087,-29.105553,-8.170326,-51.666424,-43.41005,-22.935814,-5.130707,-43.089535,-46.552838,-41.34383,-35.099957,32.970447,51.345443,60.168379,69.883757,36.701901,47.833993,53.389542,57.791396,22.023334,33.724543,43.302155,48.541826,6.146784,17.351088,27.719735,34.375639,-9.259351,-4.25196,2.131204,8.341777,25.89196,51.0191,71.55368,87.610107,48.159118,81.111008,98.432144,110.829025,37.992737,75.781494,96.783531,111.32016,28.361915,62.719837,82.58226,96.953865,19.758476,45.682422,60.924305,73.005695,-12.816385,-10.224251,1.676103,10.862095,16.145065,34.084152,41.684405,47.059902,33.819404,51.518307,59.582206,64.402629,45.538656,63.432481,70.034007,72.777998,51.838915,68.08693,72.572949,72.937203,35.414521,321.363143,-78.15216,304.661843
32,1.773994,-4.413191,0.156463,-1.194587,-17.525734,-39.220756,-58.105247,-75.878757,-65.204475,-60.744198,-40.559337,-24.342476,-63.093246,-54.556755,-32.150825,-10.308014,-56.288841,-47.129288,-24.90358,-6.232292,-46.866325,-51.411781,-46.409054,-40.049183,34.071803,53.11668,63.127607,73.087689,38.498295,50.160836,55.910589,60.935381,23.94376,36.123139,45.755376,51.504105,7.98381,19.83937,30.35549,37.687376,-7.503613,-1.154547,5.952814,13.114392,26.199028,51.215104,71.70361,87.780785,48.539978,81.303383,98.455216,110.680001,38.348717,75.807496,96.646683,111.171708,28.602185,62.839829,82.557999,96.763459,19.837613,45.834527,60.97823,72.903637,-12.808184,-10.360175,1.281581,10.410329,15.254476,33.551531,41.618518,47.305385,32.905609,51.041038,59.620727,64.766154,44.883954,63.044404,69.967169,72.916356,51.637313,67.922354,72.596143,73.153194,37.24114,316.947948,-77.943072,303.465252
33,-1.828857,-0.092218,0.47762,-2.256298,-16.301949,-36.199105,-53.56342,-69.373696,-61.848301,-58.090554,-41.769928,-28.810673,-60.527252,-51.581108,-30.149163,-8.730606,-54.162312,-44.523388,-23.713532,-5.743469,-44.975624,-48.130646,-42.987728,-36.481739,33.783737,52.684612,62.560763,72.838897,37.588921,48.57595,54.328,59.611366,22.717224,34.72448,44.565507,50.56046,6.545989,18.291213,29.103538,36.478377,-9.206332,-3.173045,4.154506,11.054151,26.976081,51.850696,72.013881,88.19189,49.001564,81.156543,97.869083,109.659633,38.473892,74.998386,95.403957,109.764621,28.287426,61.990768,81.402477,95.370403,19.111118,44.804969,59.744224,71.347824,-12.670629,-9.971407,1.40828,9.964602,13.747395,33.250102,42.135838,48.450966,31.087492,50.717404,60.249877,65.9054,43.333833,62.679484,70.277477,73.613222,50.692506,67.627409,72.809688,73.726731,35.42601,316.832255,-77.451725,301.185479
34,-2.524979,-0.307023,0.966762,-4.327481,-13.990425,-32.275749,-48.69025,-63.573955,-57.276535,-57.222439,-46.928959,-38.830318,-56.352962,-49.089889,-29.36055,-9.824043,-50.383541,-41.334274,-21.921753,-4.985412,-41.70195,-44.041054,-38.79063,-32.444355,32.425981,51.369736,61.374784,71.770158,37.175391,47.654942,54.023904,60.188189,22.163767,32.930877,42.564497,48.693547,6.054653,17.01256,27.571189,34.573957,-9.371316,-3.787918,3.215035,9.502265,27.70332,52.851322,72.882775,89.032242,48.952458,80.162544,96.3647,107.774826,37.882221,73.212639,93.115746,107.129311,27.128494,60.058159,79.163109,92.875076,17.401188,43.036984,58.03228,69.656113,-11.758316,-8.429598,2.780053,10.520874,12.012826,32.744687,42.743524,50.112917,28.701604,50.026256,60.883325,67.69295,41.202357,61.898329,70.484773,74.707575,49.525658,67.122216,72.817666,74.390808,32.906193,316.51396,-76.479801,296.846726
35,-1.900268,-0.33155,0.364197,-5.781407,-14.913506,-32.629212,-47.933293,-61.440731,-53.881817,-57.247616,-51.727009,-47.99207,-51.456128,-47.901043,-32.686661,-18.262848,-44.678936,-38.855633,-23.499939,-10.55832,-35.3676,-38.046959,-33.368683,-28.140862,27.409106,44.292718,54.248317,63.823534,33.523348,44.053287,51.164563,58.394561,21.863376,32.475591,42.179063,49.220982,9.17185,20.001218,30.221306,37.472348,-3.204846,4.353083,12.772356,20.205747,28.198173,54.067486,74.144028,90.486191,48.544304,78.78186,94.671387,105.843681,37.016121,70.820332,90.300774,103.979301,25.871372,57.76165,76.476128,89.771072,15.848305,41.434605,56.415928,67.874027,-11.219087,-7.366886,3.558009,10.667667,8.987389,30.729092,41.873757,50.181966,24.926677,47.504888,59.641635,67.557173,37.756054,59.27921,68.839915,73.909241,47.259282,65.137829,71.320046,73.557399,31.004603,316.176584,-76.116926,291.059493
36,6.030235,-6.578062,0.790054,-9.184781,-18.29979,-37.523186,-53.208779,-66.324955,-53.953182,-62.428826,-62.343887,-63.041737,-49.909207,-53.019459,-44.085491,-35.234001,-42.285885,-42.816593,-33.706398,-26.189507,-32.425873,-38.401497,-37.102501,-35.098549,21.231558,35.841718,44.768283,52.533521,33.530487,47.184589,56.139214,64.782012,26.53288,41.145757,51.937099,59.760481,17.841189,32.017935,43.019314,50.951661,8.915414,20.096129,29.465556,37.319628,29.742073,55.471356,75.30288,90.589737,57.210663,82.369286,92.700394,98.553818,46.535511,74.073864,86.631363,93.743866,34.708031,60.735272,72.995568,80.171208,22.937805,44.857601,55.747731,63.040764,-9.117967,-4.284627,5.902215,12.116715,12.048802,39.045403,53.604087,63.457094,26.387704,54.831426,70.389393,80.002364,38.759486,65.067829,78.071441,85.413515,48.634031,69.418566,77.937195,82.237939,37.005924,309.599979,-75.355786,281.876169
37,6.890739,-3.981444,0.277256,-10.932343,-20.262062,-39.366005,-53.398006,-64.217411,-47.86869,-62.706367,-69.908191,-75.976684,-41.642315,-52.891948,-52.3167,-50.245628,-33.292225,-42.162265,-41.499069,-40.156128,-23.820327,-32.996006,-35.312164,-36.714866,12.244749,24.967915,35.50834,44.703174,29.185011,46.426405,57.476926,67.143187,28.098265,46.425146,58.419311,67.005656,24.897248,42.019723,53.559615,61.747473,20.47619,34.528719,43.833703,51.091637,29.675881,55.284451,74.203022,87.792881,62.437615,83.766323,89.421925,91.167172,53.032769,75.716744,82.11565,84.400269,41.011586,62.290844,68.9278,71.734886,28.195496,46.852158,53.801743,57.444397,-8.620913,-2.514303,8.186351,14.453993,10.843904,38.342363,51.548281,59.564016,24.501922,53.672174,66.782355,74.02348,36.79139,63.441608,74.133494,79.57662,47.137375,67.478171,73.937795,76.588221,43.96891,305.644615,-75.006283,270.969906
38,9.301438,-6.931335,-0.695812,-12.799415,-21.869614,-40.967423,-54.624733,-65.089623,-42.586018,-61.534195,-72.272908,-80.710041,-34.614739,-52.481118,-59.221676,-63.267723,-26.056652,-41.762947,-47.989884,-52.011017,-17.410126,-30.043328,-36.185005,-41.126564,3.518131,13.885531,25.599979,36.088608,26.440958,47.764734,60.435857,70.493294,31.368579,53.334374,65.722223,74.27358,33.44648,53.333991,64.758669,72.811652,33.171333,50.169023,58.895777,65.352412,29.354256,54.732719,72.365856,84.003101,65.633114,84.310089,85.475487,83.385132,57.244812,76.562199,77.456257,75.277943,45.183426,62.659069,64.146252,62.963276,31.692856,46.848633,50.069344,50.777767,-7.156243,-0.231268,11.022263,17.611045,9.998059,35.95661,47.31881,53.733134,22.329912,51.088648,61.092955,65.794595,33.871385,60.520541,67.691209,70.430099,44.155262,63.980503,67.333773,67.622271,53.488879,298.77391,-75.483564,258.231121
39,14.840172,-13.916456,-3.150959,-14.14261,-25.895669,-46.123833,-59.816597,-70.008236,-39.839436,-59.947335,-71.253434,-80.271573,-30.8359,-52.541955,-65.131199,-74.529717,-22.781182,-42.919487,-54.906006,-64.086251,-15.382988,-30.211533,-39.75515,-48.302399,-4.698144,3.481513,16.827271,28.395445,23.711615,48.80739,63.056174,74.358191,34.500968,60.171195,74.29281,84.758146,41.541972,64.285044,76.907829,86.387196,45.122767,64.730116,74.306123,81.797943,31.4408,56.848984,74.030182,83.180603,65.922546,85.729557,83.515251,77.988396,56.892391,77.687828,74.415012,67.667416,44.808872,63.584736,61.122803,55.730496,31.709221,47.261318,47.735367,44.970348,-7.081229,-1.562311,9.054771,15.8569,1.87715,25.566881,37.751497,42.94273,12.790758,39.676615,49.606823,52.407241,24.176089,49.323771,56.019331,57.01124,35.181519,53.546412,56.567428,55.816283,68.605214,284.928075,-78.35836,244.159132
40,16.378097,-18.221867,-2.097988,-11.912038,-25.950485,-45.444534,-59.396942,-68.80537,-36.112816,-55.434986,-66.720818,-76.160877,-29.398064,-51.433342,-65.85133,-76.882278,-24.179306,-45.016388,-59.06749,-70.197601,-19.80526,-35.469406,-46.420624,-56.178978,-9.78896,-3.006356,11.597579,24.597992,21.816927,48.989578,64.450251,76.259548,35.575672,64.032448,79.678186,91.28714,44.78556,70.328853,84.116386,94.610449,49.834904,71.616436,81.833659,90.129308,32.95824,56.938064,72.982178,81.261875,66.626656,82.981338,79.715275,72.935818,57.310718,74.627975,69.585628,61.024292,44.782036,60.319302,56.307884,49.456089,31.125034,43.583713,42.737286,38.898685,-5.575531,-2.676436,5.426095,10.885326,-5.375595,10.961365,20.861068,24.856344,3.194979,23.08244,30.948924,32.520114,13.257752,32.453114,36.927747,36.478747,23.940833,37.850891,38.898375,36.56773,85.419256,266.806778,-80.020403,232.347664
41,15.307274,-15.429724,-2.324776,-10.190386,-25.217468,-45.16182,-59.393738,-69.281616,-34.521721,-51.403999,-60.955639,-68.706951,-28.532707,-49.0028,-62.042061,-71.481011,-24.415947,-44.887734,-56.152268,-64.243881,-21.405853,-37.812767,-46.817482,-53.803276,-6.882244,1.601361,19.931613,37.112912,13.739948,40.656397,56.285538,67.644625,23.171632,52.506968,68.903444,80.63065,30.212229,56.478853,69.30555,77.890846,34.489692,55.21129,63.890447,70.16461,32.784634,56.02248,71.328942,80.359852,58.190026,74.957302,75.645802,73.54549,48.303566,66.614914,66.427826,63.408371,36.251438,53.148091,53.807682,52.050911,23.646744,36.374954,38.214455,37.638188,-5.945478,-6.384882,-0.707067,3.262101,-18.75586,-13.785928,-11.00816,-11.738902,-12.160472,-4.451637,-3.889128,-7.290044,-3.50856,5.077539,2.928637,-1.973704,7.001879,13.197113,9.700619,3.986804,101.252741,251.661241,-81.818968,222.441465
42,11.27092,-15.251821,-1.43312,-10.216754,-23.981896,-43.853989,-58.488739,-68.744889,-35.464989,-47.577095,-54.827545,-61.421242,-30.578797,-45.124718,-54.648606,-62.053231,-26.489754,-41.24318,-48.989617,-55.246857,-22.637856,-35.126313,-41.809021,-47.19413,-2.768752,5.151207,21.605642,37.456022,7.740106,31.191282,45.108615,55.002426,11.390481,37.761032,52.809385,62.899587,14.230494,37.218629,49.455337,56.530119,15.972473,32.679035,41.572613,47.601207,34.136901,56.740791,71.956592,82.316539,52.482135,68.128612,72.136425,74.122833,41.606803,59.467678,63.685169,64.675151,29.738445,46.726329,51.414825,53.098217,17.93906,30.279167,34.46981,36.407947,-4.751398,-8.713872,-6.401628,-4.988384,-27.377218,-29.601777,-29.548276,-31.804933,-23.930594,-23.915292,-25.150609,-29.491886,-17.496485,-15.986799,-19.300536,-24.451002,-7.922603,-7.192997,-11.347898,-17.094749,113.207457,236.853702,-82.568292,212.668993
43,10.82785,-16.313606,0.369586,-8.749601,-21.652634,-42.022156,-58.090645,-69.63382,-35.255127,-45.917633,-52.14624,-57.796165,-32.519096,-45.713905,-52.854217,-58.242142,-29.824333,-43.492126,-48.632263,-52.627121,-26.672264,-38.393692,-43.829086,-48.232292,0.947362,7.714318,22.063891,36.224607,-2.090252,17.712685,31.487461,41.719949,-3.087225,20.230324,36.355728,47.283253,-3.015989,17.58196,31.052269,38.545595,-2.182433,12.674346,22.71952,29.350292,35.05679,57.051556,72.962391,84.975712,48.024571,61.650055,69.144288,75.42175,36.810494,53.143719,61.783608,67.081994,25.523987,41.862431,50.54813,55.755135,14.844258,27.574437,34.357716,38.618489,-5.22821,-12.874381,-13.908132,-14.166693,-36.375575,-44.551317,-47.113836,-51.433314,-34.996589,-42.994182,-45.974195,-51.160908,-30.080639,-36.891858,-40.585792,-45.365212,-21.210896,-27.244615,-31.233124,-36.124905,124.788826,221.178345,-81.445187,204.557641
44,4.115685,-13.280025,3.380528,-6.58315,-19.286614,-39.493584,-56.166047,-68.54567,-36.230759,-45.045582,-49.187806,-52.695775,-33.713128,-45.507866,-49.82602,-51.874993,-30.362389,-42.774605,-45.271145,-46.187588,-26.079289,-37.346993,-41.528824,-43.999592,4.854693,10.436221,22.100225,34.387878,-10.706429,4.460368,17.452574,26.668156,-16.513561,2.486466,18.723379,29.142044,-19.584033,-2.923802,11.04621,18.484806,-20.237599,-8.383601,1.779702,8.184412,33.084412,54.151176,69.915413,84.534599,47.049122,55.328384,65.254166,75.387211,37.485809,47.468925,59.11869,69.108307,26.89167,37.518253,49.121166,58.429104,16.221485,24.84185,32.98249,40.086628,-4.739443,-14.628351,-18.502819,-20.250566,-37.734948,-51.645463,-59.692616,-66.716368,-38.375238,-53.10796,-61.053707,-68.087783,-35.935208,-49.678169,-57.070064,-62.788239,-29.319478,-41.178003,-47.930682,-53.745879,129.662236,208.78216,-77.306934,198.858331
45,0.361152,-13.689276,4.129864,-8.164454,-18.753067,-39.626152,-56.030548,-69.1352,-40.017242,-47.181736,-49.189064,-49.991741,-35.164032,-45.322998,-46.476723,-44.695015,-28.780426,-38.986404,-38.635311,-36.203945,-21.245693,-30.837684,-33.126617,-33.247272,9.640042,15.601532,25.568116,36.384911,-14.729691,-4.100401,8.040576,16.883038,-25.956582,-12.95,2.872604,13.045614,-32.972794,-22.307034,-8.093479,-0.634603,-35.983867,-28.779502,-18.762795,-12.575435,31.748336,53.165565,69.439224,84.908901,46.407692,54.11388,64.121395,75.878952,37.9197,47.065406,59.4375,71.782734,28.135551,37.986408,50.41753,61.700718,17.842128,26.059318,34.446556,42.587722,-4.951482,-15.962161,-20.764885,-22.468493,-38.992718,-53.139058,-63.44622,-72.916393,-40.821431,-56.579618,-67.159847,-76.733933,-39.881491,-55.440125,-64.455444,-71.286559,-34.858009,-48.829916,-56.396911,-62.502705,130.698469,196.297786,-72.501989,191.898779
46,-9.942077,-15.320525,5.539993,-6.747529,-16.220513,-33.471657,-47.563134,-58.811943,-33.383973,-38.107396,-40.289383,-41.438908,-27.813172,-34.090622,-35.217362,-33.738511,-20.681672,-26.090012,-26.771267,-25.559018,-12.490574,-17.196259,-19.922127,-21.21381,9.597274,14.594976,22.029114,30.131188,-10.967175,-4.53574,6.150483,14.715747,-21.739053,-15.115994,-1.306749,8.139606,-29.455341,-24.788115,-11.279898,-2.861446,-33.715268,-30.538018,-21.100677,-13.99988,30.936241,52.936089,69.707794,85.613811,45.43681,53.152016,63.730053,76.445274,37.099148,46.191673,59.515491,73.258495,27.763252,37.685245,51.101463,63.595127,17.946018,26.616486,35.682976,44.652214,-4.81862,-16.790728,-22.17424,-23.069102,-40.880144,-55.388947,-65.31632,-74.2746,-43.33623,-59.51543,-69.567971,-78.556114,-42.890849,-59.537895,-68.313993,-74.820523,-38.656413,-54.044609,-61.806043,-68.071469,121.466052,182.434592,-66.252336,186.608581
47,-5.385613,-15.179659,6.753948,-4.887323,-14.049293,-29.700394,-43.001106,-53.473183,-31.080253,-36.725841,-38.541595,-38.976025,-25.837807,-33.455063,-34.609817,-32.658943,-19.183731,-25.870743,-26.531879,-24.443378,-11.502285,-16.716728,-19.246948,-20.16576,7.630338,11.436245,17.427745,24.119304,-14.338705,-8.690666,3.435108,13.812462,-23.326113,-17.560829,-1.558037,10.516095,-29.234491,-24.567815,-9.351482,1.478781,-31.998353,-27.644684,-17.212834,-8.845857,29.823349,52.394634,69.657875,86.301361,44.727688,53.243809,64.356629,77.628983,36.433594,46.210991,60.246678,75.087685,27.262711,37.788963,52.002617,65.696377,17.356808,26.77438,36.725578,46.754036,-4.808517,-17.656987,-23.859236,-23.996149,-42.914079,-57.728268,-67.295519,-75.814921,-45.655822,-62.02719,-71.689524,-80.405792,-45.384318,-62.509269,-71.051852,-77.481052,-41.574255,-57.355444,-64.946095,-71.211903,116.640089,168.959621,-58.938738,183.425946
48,-6.043716,-12.645657,7.118431,-3.860772,-15.175415,-30.183518,-41.844063,-50.411225,-32.526375,-36.813526,-37.845429,-37.774441,-25.561386,-31.614624,-32.952256,-31.478028,-17.092484,-21.852036,-23.008862,-21.670041,-7.641438,-11.48861,-13.917412,-15.052929,5.775986,9.326925,14.750408,20.877691,-15.042357,-9.244925,3.118896,13.810486,-22.741867,-16.973558,-0.596052,12.424751,-27.699592,-23.086459,-7.455522,4.507885,-29.946177,-25.95145,-15.196535,-5.884233,28.37645,51.441765,68.494194,84.755287,44.379559,54.466084,66.54451,80.527222,36.140831,47.720433,62.79673,78.820404,26.982079,39.111054,54.45567,69.440609,16.73132,27.432175,38.512665,49.805271,-3.916779,-17.436488,-24.713429,-25.621962,-44.875173,-59.629785,-68.628827,-76.678629,-47.985973,-63.728938,-72.907377,-81.696851,-47.816876,-64.44139,-72.58643,-78.832336,-44.216333,-59.602257,-67.095898,-73.691089,111.063532,158.193971,-51.353148,181.445181
49,-4.129349,-9.177476,7.577523,-3.013333,-15.795902,-30.517147,-41.39177,-48.789997,-33.923824,-38.766953,-40.999535,-42.05127,-26.242012,-32.462345,-34.696976,-34.293102,-16.893917,-21.723484,-23.807614,-23.395397,-6.58136,-10.635155,-13.291134,-14.862671,2.407235,4.648034,9.60152,15.875531,-18.25038,-11.938525,0.027072,10.780761,-23.442781,-15.804462,1.279907,15.379509,-25.989528,-19.281732,-3.326395,9.610482,-26.347758,-20.937514,-10.049935,-0.218547,26.871162,49.86193,66.315879,80.621475,43.307487,55.205452,68.300949,83.070442,34.954147,48.961429,65.23455,82.453743,25.80764,40.029796,56.472427,72.594062,15.556858,27.885749,40.048564,52.433074,-3.348207,-17.288387,-25.051278,-26.352643,-47.224363,-61.573664,-70.117569,-77.946533,-50.303671,-65.226516,-74.141398,-83.415946,-49.708211,-65.678196,-73.44452,-79.68921,-45.728935,-60.584886,-67.758252,-74.458382,107.408867,150.772081,-43.300941,180.187434
50,-2.214981,-5.709295,7.044834,-1.668842,-15.910755,-30.701283,-41.644226,-48.609501,-35.272602,-42.586121,-48.003914,-51.806511,-27.879685,-35.998226,-39.843979,-41.104168,-18.588032,-25.485088,-28.928135,-29.61945,-8.322052,-14.156365,-17.368115,-19.594986,-2.475913,-2.600427,1.98108,9.112824,-23.962775,-16.771464,-5.840366,4.723286,-25.428853,-14.053541,4.06984,19.380367,-24.104301,-13.153634,3.035898,16.786572,-21.203096,-12.602876,-1.773033,8.151203,25.50373,48.309711,63.738247,74.356189,41.472564,54.611972,68.369648,83.476101,33.116512,48.862049,65.894039,83.436527,24.149952,39.897113,56.977993,73.50262,14.271537,27.697277,40.511661,53.53561,-3.352566,-17.764952,-26.425138,-28.403127,-49.698208,-63.595206,-71.444894,-78.57735,-52.571288,-66.644423,-75.02814,-83.706457,-51.463109,-66.782046,-74.065643,-79.670771,-46.90565,-61.345052,-68.080601,-74.297991,105.641871,146.589281,-35.808122,180.045087
51,1.655777,-3.841839,12.918331,-8.20006,-15.121113,-30.646969,-42.680786,-49.119107,-41.345433,-51.624298,-57.696121,-62.24041,-35.431343,-46.820675,-50.686272,-52.520565,-26.527348,-36.601353,-39.802883,-40.6665,-15.90548,-24.683876,-27.996906,-30.718231,-10.188089,-13.756046,-8.176547,1.489254,-31.606333,-22.885428,-10.924623,0.805383,-28.515015,-14.204323,5.914412,23.254909,-22.875616,-8.596923,9.381518,24.776013,-16.369768,-4.623203,8.00885,19.090659,16.383316,34.908336,49.733986,60.972725,38.279663,52.489792,63.02948,73.680977,35.926346,51.959862,63.262939,74.611381,31.664234,47.106788,58.210144,68.465835,25.629158,38.723511,47.487957,55.668159,-3.100081,-17.070432,-25.943633,-29.19733,-48.259694,-53.745792,-55.743455,-59.229149,-50.411171,-54.897493,-56.726485,-61.168803,-48.221415,-54.601036,-55.689411,-57.373833,-42.799846,-50.936556,-52.561864,-54.886106,107.692108,143.947391,-22.495331,173.044976
52,-1.106873,-6.122621,22.633289,-16.281947,-16.735553,-32.866344,-44.545257,-50.539249,-43.565952,-54.339065,-60.290748,-65.000404,-36.173011,-47.597065,-51.546707,-54.194836,-25.855854,-35.68333,-39.556537,-41.549549,-14.003242,-22.865753,-26.940891,-30.475456,-10.996161,-13.419327,-5.545801,6.161876,-27.320454,-16.154046,-4.211841,7.22064,-23.039365,-5.713055,13.869464,30.755256,-16.734482,0.884155,18.015862,32.906881,-9.974902,4.242464,16.770412,28.173249,5.880741,16.572235,26.114994,33.993725,24.216717,34.982289,42.44569,49.719853,26.783375,39.882305,47.037701,54.192204,27.352844,39.937809,46.510288,52.396443,25.81358,36.312069,41.84943,46.719509,-0.257839,-9.007224,-13.474218,-14.732821,-35.885943,-32.083946,-29.304591,-29.180176,-38.257598,-31.853469,-28.26777,-28.967977,-36.108844,-32.036114,-27.95845,-26.107716,-30.671757,-30.015029,-27.188879,-26.277227,106.909858,138.668046,0.462581,157.606305
53,-1.610904,-3.674103,11.483689,-6.636119,-17.27845,-34.053143,-45.987145,-51.927498,-45.462639,-57.232625,-63.899826,-69.703366,-36.705952,-48.539223,-52.331898,-55.417225,-25.00581,-35.104283,-38.959317,-41.288041,-11.951455,-20.862328,-24.799382,-28.232598,-12.817808,-14.768182,-4.715471,8.442643,-24.67908,-12.597331,-1.257816,9.686763,-19.122568,0.420919,19.746927,36.387224,-11.7982,8.29212,24.834031,39.323579,-4.268905,11.793041,24.082991,35.424634,-2.700394,3.626358,12.210102,20.891796,20.607982,30.479106,33.618404,35.529796,28.755489,39.907161,40.565403,41.012111,33.863983,44.201076,44.323711,43.708454,35.94952,44.899223,45.69453,45.104496,-0.461356,-8.42083,-11.248227,-11.188829,-34.569962,-21.874948,-13.067993,-8.846352,-36.287895,-20.235024,-9.30328,-4.613287,-32.798509,-19.661616,-8.837775,-2.367684,-25.907256,-18.358886,-10.234748,-5.090692,105.557076,135.502878,12.204392,151.479121
54,-1.370568,-2.198549,22.974494,-13.707554,-17.753917,-35.619804,-48.360878,-54.996929,-46.519947,-59.748058,-68.006836,-75.598881,-36.463291,-49.465359,-53.999897,-57.688888,-23.616257,-34.590179,-39.056694,-41.836979,-9.719421,-18.823494,-23.066459,-26.590896,-14.252684,-15.668226,-3.533874,10.376326,-22.824583,-10.159724,1.068939,11.800352,-16.226329,5.293495,24.892718,41.471407,-8.045298,14.042942,30.718634,44.998164,0.365982,18.123119,30.488478,41.710961,-12.094287,-14.492179,-12.109737,-6.815151,4.653248,8.438977,7.833264,6.331456,17.767628,22.4446,18.295292,14.330258,27.838555,32.268094,27.361897,22.112812,34.527981,38.302403,35.295559,31.041676,1.198168,-1.598163,-0.075441,2.618057,-21.082795,-0.677439,12.598059,20.515567,-21.767996,2.954127,18.651662,27.393767,-18.219947,3.501439,18.290608,27.714708,-11.894322,3.457245,15.30382,23.165475,104.411648,133.727909,35.404026,138.195147
55,-2.395546,-3.240279,9.507512,-6.198161,-17.758701,-35.292,-47.742439,-54.772831,-45.579311,-58.755993,-65.944381,-72.460521,-34.426632,-47.211696,-52.314365,-56.824768,-20.534065,-31.097282,-35.855552,-39.097377,-5.972305,-13.724945,-17.897323,-21.492576,-13.810736,-13.426692,1.034477,15.781463,-17.661519,-2.676025,10.834644,23.012591,-10.893125,12.482367,32.507063,49.086319,-3.168608,20.518881,37.57046,51.481871,4.750249,23.632664,36.532584,47.92409,-20.445145,-27.648434,-25.210808,-15.608574,1.548019,4.498214,-0.042618,-6.367676,20.369133,23.288681,13.00843,2.896843,34.897842,37.289268,25.911735,14.362518,45.053695,47.676338,39.948783,30.474426,1.15083,-0.970568,2.064372,5.181829,-17.846159,12.538514,31.448429,42.507088,-17.464282,17.253479,39.299759,51.897671,-12.907917,18.138844,38.573648,51.004945,-5.843398,16.019533,32.292829,43.112822,102.175083,130.739405,45.070519,132.248761
56,-0.840351,0.211322,14.164375,-5.998355,-19.127334,-37.944523,-50.725914,-58.948265,-46.821155,-60.994297,-69.601318,-77.39249,-34.103096,-47.472301,-52.722839,-57.126949,-18.81102,-29.660374,-34.715286,-37.912102,-3.281616,-10.71777,-14.880397,-18.09201,-12.513248,-10.543858,4.868085,18.557101,-16.37461,-1.051844,12.603114,24.935746,-10.481042,14.341086,35.195318,52.236251,-3.378559,21.904221,39.67657,53.837681,4.328624,24.662877,38.278411,50.251278,-22.237953,-33.917725,-37.859505,-34.426804,-12.55188,-15.565567,-20.41452,-25.432411,4.991684,3.520569,-5.089439,-12.802254,19.631744,18.448196,8.890892,-0.140144,30.687584,29.98288,23.202576,15.797951,2.697647,5.228216,13.006317,19.897817,-7.150957,21.892843,39.706837,51.25388,-6.765955,27.185965,47.706837,60.306786,-3.08823,27.999996,46.982838,59.248545,2.732153,26.196625,41.783293,52.165415,101.434038,131.060541,59.3342,126.36022
57,0.011811,5.361795,-12.08931,11.394378,-17.651391,-37.688382,-51.919922,-60.907975,-46.885998,-64.327824,-77.367852,-89.187459,-34.84639,-51.50298,-58.383774,-63.392544,-20.316147,-34.012494,-40.122254,-43.550034,-5.671303,-14.850346,-19.285,-22.535637,-17.202618,-17.8943,-1.727916,12.166038,-22.088141,-9.10353,3.160494,14.832125,-13.892469,10.319213,31.932641,49.605183,-4.401875,20.156739,38.267579,52.662106,5.712438,25.769573,38.805666,49.952177,-20.582062,-28.742088,-27.663482,-19.793564,-0.88044,-0.028862,-5.803024,-12.360718,17.698517,18.640549,8.090676,-1.366791,32.005234,32.674072,21.381111,10.726319,42.151383,43.574021,35.640679,26.853127,-0.284003,-2.907142,0.769132,4.808825,-19.251451,11.093579,30.729061,42.499443,-18.052455,16.553649,39.159338,52.634118,-13.171233,18.038561,38.868593,51.746691,-6.255805,15.065847,31.771976,43.091555,101.535399,136.439385,47.33444,137.771647
58,-1.829579,2.444245,10.126099,-6.804964,-14.965381,-33.256954,-46.025963,-54.313557,-44.958824,-64.702377,-80.309349,-94.334255,-34.497082,-52.817688,-60.829342,-66.662441,-21.212334,-35.813473,-42.386238,-46.105328,-7.496933,-16.831135,-20.996212,-24.297615,-20.112671,-22.452175,-5.077576,10.47064,-24.264071,-12.226165,-0.551135,10.760256,-13.868133,9.778245,31.770895,49.862438,-2.523301,21.422175,39.601366,54.070284,9.128853,28.803411,41.334978,51.757972,-22.028732,-33.846611,-36.680191,-32.334892,-13.146126,-16.220535,-21.134445,-25.578736,4.443947,2.938019,-6.018334,-13.400093,19.053772,17.723488,7.823067,-0.758331,30.123138,29.429695,22.601578,15.76767,1.514707,3.247813,10.538227,17.151048,-8.151523,21.909627,40.139868,51.596175,-7.332855,27.448701,48.297789,60.695061,-3.58261,28.080136,47.366358,59.271331,2.070936,24.435293,40.090504,50.354534,99.777128,138.838472,57.531847,130.921525
59,-1.648933,-1.515294,-10.691414,5.590068,-14.024403,-30.613278,-41.260826,-48.214131,-43.871819,-62.106949,-74.885285,-86.308262,-34.299763,-51.512993,-59.059399,-65.110165,-21.693718,-35.73103,-41.84832,-45.802746,-8.414841,-16.960225,-20.440327,-23.771233,-19.814472,-21.270432,-2.752265,14.247444,-20.40911,-5.722339,7.196999,18.881942,-9.602223,14.759133,36.067156,53.34699,1.654911,25.85993,43.471265,57.193374,12.896086,32.166426,44.338445,54.255382,-20.55732,-28.490273,-26.260941,-16.998596,-2.936989,-2.083328,-7.195839,-12.763687,14.11068,16.417282,6.46241,-2.729462,27.59301,29.419373,18.546547,8.670708,37.400734,40.252304,32.933853,25.105637,0.336033,-0.818403,4.442966,9.57169,-15.936176,16.698274,36.274254,47.73334,-15.505677,21.455489,44.361656,57.659681,-11.214832,22.337137,43.839655,56.651359,-4.443177,17.613638,34.415641,45.537557,98.157498,137.210045,46.869736,136.39846
60,-1.064736,-2.73529,-0.72226,0.482406,-13.230411,-29.761906,-40.154434,-47.02811,-43.395904,-60.866432,-72.862495,-83.842632,-34.599025,-51.152778,-57.851223,-63.209942,-23.171287,-36.407101,-42.045891,-46.026455,-10.818512,-19.456707,-22.839214,-26.292206,-14.81041,-13.471911,4.970556,21.40457,-14.107598,1.729052,14.301031,25.16488,-5.309908,19.498854,39.639065,55.429331,4.048932,28.7452,45.506108,58.137321,13.515288,33.538761,45.503459,54.835298,-20.240661,-28.545021,-26.198501,-16.762664,-3.260719,-2.141075,-6.915985,-12.052414,14.175133,16.420121,6.922348,-1.742637,27.91539,29.917283,19.477707,10.115479,37.932793,40.836342,33.698914,26.179299,0.488434,-0.516517,4.774604,9.800359,-16.049339,16.790876,36.08415,47.049047,-16.224,21.552771,44.302673,57.163406,-12.254141,22.080984,43.503672,55.926064,-5.487524,17.248311,33.981289,44.79034,97.11244,134.398966,46.167154,136.805077
61,1.191067,2.269069,0.216225,0.580534,-13.012138,-30.217918,-41.414269,-48.517525,-44.538986,-63.090431,-75.993942,-87.917061,-36.120209,-53.438919,-60.108421,-65.288178,-24.959152,-38.777298,-44.522919,-48.499191,-12.733131,-22.326851,-25.939774,-29.543953,-15.593709,-15.346837,2.427303,18.70691,-16.653321,-1.676444,9.950504,20.196392,-7.814577,16.643878,37.257537,53.567438,1.878787,26.228382,43.200557,56.317246,11.624867,31.488949,43.363479,52.750246,-20.300583,-28.835358,-26.193695,-16.272583,-3.346687,-2.843674,-8.151352,-13.706795,14.32798,15.405647,4.917503,-4.391189,28.230217,29.265473,17.815979,7.792511,38.313583,40.526093,32.764435,24.742355,-0.046961,-1.472185,3.655446,8.688042,-17.519962,14.910249,34.029757,44.551039,-16.980955,20.347051,43.199903,55.863566,-12.344623,21.499561,42.732378,54.704857,-4.886933,17.511979,34.071414,44.58021,98.306059,136.600934,46.385931,137.31851
62,-0.282715,0.510787,-0.172691,0.019057,-12.801727,-29.624679,-40.81398,-48.385643,-43.865616,-62.602432,-75.195488,-86.804901,-35.461876,-52.609108,-59.318275,-64.69075,-24.300476,-37.762298,-43.434128,-47.413307,-12.081917,-21.423294,-25.050156,-28.68901,-14.892162,-14.951418,1.863646,17.702923,-17.065554,-2.513545,9.043983,19.271704,-8.711582,15.008196,36.039633,52.828286,0.609149,24.522478,41.956657,55.512786,9.911972,29.378197,41.514487,51.184144,-20.023361,-28.302738,-26.01075,-16.391762,-2.095688,-1.606179,-7.061165,-12.952881,14.601768,15.615005,4.872345,-4.562165,27.747871,28.671776,16.918442,6.759475,37.326462,39.763595,31.799057,23.503006,-0.901242,-2.727164,2.371036,7.934989,-17.518938,13.016215,31.686513,42.202374,-15.818505,19.706217,41.859387,54.312148,-10.551954,22.135738,42.220368,53.534328,-2.902782,19.493339,35.093259,44.726224,98.001034,137.056948,46.19093,137.282794
63,1.804733,1.766432,-0.330323,2.418596,-15.81887,-34.726043,-47.997894,-56.817054,-45.995269,-64.160728,-76.025436,-86.929344,-36.137764,-52.919036,-58.889511,-63.805778,-23.595245,-37.442871,-43.056953,-46.9514,-10.284553,-20.192871,-24.181526,-27.918434,-10.675201,-10.625832,2.574936,14.757898,-17.526428,-4.734219,6.130291,16.194089,-12.139094,10.831905,32.187668,49.376982,-4.973916,18.938363,37.170889,51.46485,2.407729,22.396745,35.778862,46.457644,-19.890151,-27.832546,-25.255737,-15.987648,-1.590042,-1.20829,-6.891288,-13.062194,15.09256,15.696259,5.025261,-4.365348,28.012436,28.0933,16.458252,6.256073,37.194535,38.914856,30.805848,22.361687,-2.28093,-5.441273,-0.815216,4.163837,-19.516582,8.948253,26.892577,36.882608,-16.643465,16.709477,37.927437,49.894309,-10.409162,20.500038,39.441693,50.18377,-2.15893,18.98887,33.861419,43.225882,99.730882,138.748801,45.785722,139.626811
64,1.904526,3.493233,-6.529174,4.631812,-13.297233,-31.87722,-46.34436,-55.426208,-45.653915,-66.427139,-81.536064,-95.359634,-37.912193,-55.492287,-61.072792,-65.448875,-27.053764,-40.8563,-45.683967,-48.582229,-15.165436,-26.041763,-30.257698,-33.878746,-12.327914,-15.196079,-3.561301,8.187246,-21.850791,-13.241419,-4.97197,3.511888,-15.196443,5.548923,26.436938,43.601762,-6.842322,14.820154,31.97926,45.987316,1.290442,20.082352,32.853448,43.475334,-17.790322,-22.601681,-18.626541,-8.826119,5.616234,8.776703,2.590553,-4.498215,21.996277,24.895546,12.745308,2.276161,34.108291,36.071434,23.33432,11.90657,41.988464,45.266212,37.027954,27.911201,-4.172592,-9.2625,-5.825064,-1.384302,-23.821481,-0.204455,17.64439,28.081358,-20.059473,8.93489,29.984605,41.803127,-13.171819,13.970006,32.722285,43.380381,-4.76907,14.135695,28.749029,38.012294,101.476347,142.188638,39.097487,144.205227
65,2.744705,6.112914,-2.205918,-0.54617,-14.496116,-34.242576,-49.938514,-59.800529,-47.2294,-69.178779,-86.02375,-101.100334,-39.37928,-57.046005,-61.107788,-63.576782,-27.902549,-41.923324,-45.451721,-46.498146,-15.266098,-26.439834,-30.569275,-33.400955,-11.298405,-15.677207,-5.6574,5.004686,-27.079661,-24.38399,-19.47553,-13.207857,-21.940613,-4.840849,15.53565,32.046426,-14.388118,3.874629,20.858412,34.431017,-6.547939,9.320045,21.946146,32.263701,-12.533523,-14.427784,-11.922088,-5.899498,9.254586,11.862122,5.930947,-0.518257,21.558129,24.354309,13.195885,3.513703,30.236664,32.026932,20.602204,10.418793,35.101982,38.320015,32.375084,25.538544,-3.953798,-7.000977,-2.667815,2.153997,-19.376476,-1.346998,14.058309,23.9971,-15.264942,8.085636,26.452284,37.747718,-8.565066,13.752422,30.2908,40.468824,-0.807337,14.83324,27.105344,35.069023,103.937524,148.249117,36.608041,143.606622
66,-0.928047,3.0923,-24.571609,9.459447,-15.868057,-35.682792,-50.945045,-61.080849,-45.586441,-65.562607,-80.640747,-93.872715,-37.323921,-52.589515,-53.860267,-54.057129,-25.635521,-37.722862,-38.981849,-38.366066,-12.801315,-22.441475,-25.550857,-27.383034,-4.623469,-7.021114,0.740005,9.520827,-24.317343,-25.702244,-22.948682,-18.876946,-23.187008,-8.892565,9.244086,22.511805,-19.262973,-3.569766,12.091595,22.928533,-14.522789,-0.660501,11.733653,20.473683,-1.02261,6.522205,15.719513,25.576011,27.701385,38.962898,38.007591,34.594711,34.45816,46.080185,40.730987,34.892692,37.905613,47.743812,42.077865,35.934906,38.360287,48.337486,46.871361,43.59423,-5.858848,-13.29106,-13.484721,-13.471649,-33.244186,-20.378031,-7.061795,1.67272,-30.610031,-13.179341,2.73064,12.935711,-23.882453,-7.279818,7.441487,16.919595,-14.482065,-3.936465,6.26348,13.231668,102.687761,151.188733,11.714716,152.913385
67,-0.18124,4.20981,-10.556603,-0.808646,-15.72266,-34.612255,-49.630817,-59.141006,-41.911686,-60.581875,-73.829521,-85.197132,-35.039566,-49.916233,-51.024536,-51.041931,-25.030105,-37.467613,-39.075165,-39.023346,-13.745567,-24.012897,-27.731415,-30.124134,-2.186811,-4.120914,1.176555,8.989538,-21.339887,-24.832045,-23.813126,-21.53013,-21.79101,-9.951641,5.03188,15.096327,-19.87898,-7.10076,6.128438,14.142338,-17.398552,-6.061834,5.122437,12.165442,10.027783,22.277459,32.598313,40.7165,28.091698,40.199112,44.798676,46.102021,28.960144,43.315224,45.706147,45.574562,28.415978,41.853127,44.179413,43.901688,26.689041,39.185452,43.281166,44.64608,-8.059769,-14.956808,-14.993025,-15.848707,-38.305899,-32.303326,-22.49675,-14.315956,-36.482662,-26.541105,-14.302748,-4.718084,-29.945338,-20.461055,-9.198465,-0.741277,-19.463335,-13.271701,-6.072628,-0.538001,102.159817,155.077604,0.811409,151.7838
68,-0.286171,4.983579,-26.883499,-1.054432,-11.813015,-28.435398,-43.447139,-51.989044,-34.442379,-52.910831,-64.802994,-75.033943,-31.406296,-48.250362,-52.158394,-54.181137,-26.01915,-40.928055,-45.361633,-47.90332,-19.221359,-32.099567,-37.922767,-42.274143,-7.342587,-10.752587,-5.784408,3.840234,-19.142887,-21.753521,-21.824207,-21.211831,-16.826221,-7.019385,3.501286,9.717385,-13.800726,-4.621493,4.436131,8.772202,-11.279012,-3.833941,4.096171,8.526726,21.417732,41.012421,56.506233,67.039994,40.752892,61.240586,70.789101,74.306374,35.71938,59.401257,67.5718,70.425911,30.848568,53.313961,61.792511,65.032677,26.796147,46.29237,54.679608,58.826283,-13.329234,-25.908744,-31.164587,-35.421382,-54.645767,-52.118163,-41.407171,-32.440739,-51.273374,-44.540121,-32.501755,-22.498114,-42.488612,-36.430118,-25.780173,-17.405144,-29.42777,-26.833505,-20.865489,-15.990701,101.573089,159.774961,-26.372647,150.443146
69,0.764809,6.938746,-14.144382,-10.351468,-13.702526,-31.461857,-47.85593,-57.321259,-32.064434,-50.540852,-62.030502,-72.214302,-28.685303,-47.469464,-54.68177,-59.822365,-24.125931,-41.436333,-47.872238,-52.049881,-18.656777,-33.078312,-39.648651,-44.211857,-7.029692,-10.075951,-7.451163,0.317557,-16.528165,-19.071016,-18.953215,-18.369337,-14.840711,-7.3065,0.413715,4.311222,-13.263214,-8.184851,-1.991531,0.268404,-12.539511,-9.240733,-3.788382,-1.38839,29.319179,49.614361,64.207077,72.175014,34.719509,55.849777,71.17852,78.658092,25.207786,51.560016,67.288318,74.829746,17.691719,43.700638,59.575493,67.725231,13.096641,34.914001,47.729976,55.309593,-16.784855,-31.08706,-38.525366,-45.212238,-61.397293,-62.614727,-53.976783,-45.497111,-57.358914,-54.640346,-44.940758,-35.149026,-47.4247,-45.405214,-37.045851,-28.779138,-32.487516,-32.811983,-28.984026,-24.706278,102.126606,166.306207,-40.728321,139.684178
70,-1.999947,8.413283,-20.006333,-15.222014,-12.333195,-29.23019,-46.380626,-56.503921,-28.847362,-50.56509,-63.745353,-75.341823,-27.786552,-51.51614,-63.844688,-72.87371,-26.592888,-49.054504,-60.370651,-68.442283,-24.792663,-43.302005,-52.506546,-59.596928,-15.128566,-21.671727,-19.703642,-11.131598,-16.047758,-14.919313,-13.559982,-12.184934,-8.886841,-1.108524,4.010418,6.539746,-3.748351,0.311402,3.853319,4.941528,-1.03715,1.849709,4.951698,5.847017,32.773476,53.001229,67.609761,75.104851,29.26355,54.191655,72.750653,81.620591,17.420426,49.444691,69.003697,78.333401,9.438607,41.40366,61.151642,70.948243,5.859524,32.190285,47.362862,55.548672,-22.786371,-42.334391,-54.323993,-63.79432,-72.593791,-77.70859,-67.475867,-58.264577,-66.463278,-67.539754,-56.94121,-46.472953,-54.289141,-55.282933,-46.552296,-37.638105,-36.927111,-39.161494,-35.157745,-30.192154,99.954454,174.002361,-60.906859,123.745035
71,-1.08332,7.130209,-12.685615,-23.597525,-11.15189,-28.24751,-46.660366,-57.732651,-28.007573,-53.328244,-68.9431,-82.389702,-28.982598,-57.970402,-76.257832,-89.907074,-30.447281,-57.950203,-74.324227,-86.115601,-31.41465,-53.653302,-65.872719,-75.291585,-21.702676,-30.007106,-27.46063,-18.009063,-12.177144,-7.145479,-4.101215,-1.074707,0.314724,7.758057,10.858823,13.261908,8.81175,11.783813,13.371416,14.335099,13.489072,15.466293,16.329174,16.748324,29.97258,46.385135,57.752048,62.55875,19.933204,44.094074,61.75288,69.07513,8.311111,40.907203,58.474949,65.238144,1.224392,34.285606,51.833565,59.002579,-1.100041,26.139976,39.742939,45.157425,-27.872487,-50.655765,-65.138169,-75.566004,-73.581099,-79.676748,-67.406762,-57.237204,-63.92812,-65.952107,-53.961795,-42.696853,-49.374382,-50.827845,-41.370065,-32.016841,-31.239484,-34.032257,-30.274226,-25.285287,98.476628,179.918448,-73.98698,98.933388
72,-1.235322,9.440261,-14.811699,-23.198123,-13.510677,-32.696937,-52.538223,-65.372949,-33.571426,-62.605751,-80.175825,-94.62145,-34.350059,-67.317386,-88.58967,-104.135478,-35.737335,-66.840883,-85.648126,-98.718515,-36.705093,-61.556304,-75.323284,-85.583181,-23.96731,-32.079314,-28.482581,-18.96449,-7.954447,0.079448,4.70729,8.942479,7.480964,15.598753,18.169232,20.694169,17.980504,21.345537,22.341534,23.575357,24.039516,26.565707,26.487265,26.7614,25.538772,37.519363,45.364311,47.098617,10.542721,38.65741,53.290203,56.937103,0.136551,36.750744,50.214146,52.693874,-5.211777,31.228111,44.575584,47.534328,-5.55463,22.591633,33.752163,36.475651,-29.819169,-55.789428,-73.320222,-86.198085,-74.171705,-79.550857,-65.025697,-55.584936,-62.62967,-63.491181,-50.038952,-39.832054,-46.693327,-47.35728,-35.845978,-26.484924,-28.301338,-31.125919,-25.885723,-20.6107,96.399055,188.250666,-89.64093,74.627222
73,-1.387321,11.750313,-13.713123,-21.649904,-19.409557,-42.578476,-64.014198,-79.424818,-45.538925,-78.397614,-97.443529,-112.037069,-43.888939,-79.557095,-100.840204,-115.558925,-42.463051,-75.726545,-94.342352,-106.251028,-40.663994,-67.011017,-80.858242,-90.47172,-21.92247,-27.888351,-22.769495,-13.99788,-3.379668,6.755471,12.865532,17.866624,12.61188,22.413566,25.941645,28.836529,23.757909,28.996573,30.763673,32.6623,30.614181,35.147952,35.425971,35.886246,23.025924,31.405563,35.010051,33.636875,4.50856,31.286659,43.211792,44.681293,-4.663342,30.562912,40.705032,40.341762,-9.159794,26.713691,36.437656,35.92852,-9.15762,18.778884,27.808937,27.880806,-31.334994,-58.74673,-78.207335,-92.958286,-71.709235,-79.127435,-65.576814,-57.634648,-59.661439,-63.863857,-50.788152,-41.306722,-43.925044,-47.34267,-35.990215,-27.14973,-26.409639,-30.84493,-25.749589,-20.524633,93.871925,199.038275,-104.493862,52.014614
74,-2.955894,12.258816,-14.038147,-20.59769,-24.066388,-49.39737,-71.859421,-89.030371,-54.040741,-88.626572,-107.919485,-122.092513,-51.156304,-88.620049,-110.148177,-124.678139,-48.091942,-83.016501,-103.699145,-117.323908,-44.271286,-71.739121,-87.375561,-99.150668,-20.821276,-24.895111,-17.709518,-8.791246,1.493785,14.574752,21.735533,27.691719,18.167119,30.339305,35.167267,39.122368,30.248865,39.789804,43.952992,47.143796,38.227895,47.181081,49.492208,50.928041,19.561786,24.555278,25.967044,23.064113,-2.162911,27.520969,35.878498,33.81435,-10.509327,27.757473,33.982372,30.304836,-13.337162,24.856384,30.691246,26.954486,-11.524109,17.266594,23.923347,21.381992,-32.769437,-62.025263,-83.081622,-98.992005,-70.931222,-78.100087,-63.69555,-57.344508,-57.75224,-61.933193,-48.836388,-41.244496,-41.394914,-45.101754,-33.755165,-26.84383,-24.117476,-29.106717,-23.792236,-19.659151,89.327185,210.346977,-120.120855,30.46681
75,-1.198655,13.334124,-11.956364,-14.709695,-28.420589,-56.19635,-79.643406,-97.80451,-61.711532,-96.084526,-114.962842,-128.935381,-57.108375,-94.223133,-116.009748,-131.423652,-51.890396,-86.322984,-107.204195,-121.371671,-45.690032,-72.425331,-88.137783,-100.441034,-18.79885,-20.481697,-11.493326,-2.735123,4.914388,20.0758,28.776044,35.93656,21.864994,36.14167,42.801459,48.010686,34.445535,46.685041,52.638423,56.855371,42.873145,53.478302,57.330336,60.089691,17.168655,20.294838,20.506691,17.199371,-7.737671,24.435139,30.794128,26.369087,-15.019844,25.493328,29.112877,23.005199,-16.286785,23.526489,26.809399,20.666325,-12.6576,15.789471,19.926086,15.065781,-33.173069,-62.619308,-83.619277,-99.956399,-71.317959,-78.244664,-64.775726,-59.795592,-57.943722,-62.201073,-49.874666,-43.882128,-41.535995,-46.146898,-34.980454,-29.477498,-24.564166,-30.280031,-24.770443,-21.330315,86.107166,222.575256,-134.098583,14.65127
76,-2.592453,13.778036,-11.151009,-11.40101,-32.287159,-61.158371,-84.767223,-103.410947,-68.121437,-101.925624,-120.175741,-133.958341,-62.258102,-98.420826,-120.006368,-135.798545,-55.503501,-89.1891,-110.234029,-125.017118,-47.494445,-73.720275,-89.374237,-102.422018,-16.664299,-16.434514,-5.987511,2.609498,8.226359,25.937347,36.165111,44.446175,25.479171,42.363271,50.633868,56.925074,38.591396,53.70069,61.389605,66.722852,47.544748,60.209344,66.034057,70.239186,16.245358,18.253647,18.014431,14.591778,-11.835365,23.665764,28.430271,21.725407,-18.255947,25.184304,27.116375,18.776207,-17.83921,24.017132,25.856152,17.679703,-12.152309,16.550125,19.476414,13.217697,-33.501136,-62.687764,-83.842597,-100.297995,-72.108531,-78.548037,-65.776526,-62.285528,-58.994497,-63.0128,-50.956489,-46.423453,-42.793616,-47.902209,-36.548846,-32.276699,-26.126111,-32.315793,-25.90707,-22.674078,81.367275,235.516272,-147.39703,2.41324
77,-3.475513,13.174951,-8.784336,-11.645318,-34.270088,-63.509033,-87.002026,-105.889687,-70.80835,-103.356091,-121.242302,-135.410294,-64.023972,-98.772915,-120.283104,-136.841583,-56.307243,-88.646931,-109.746792,-125.31213,-47.165062,-72.201164,-87.647942,-101.446301,-15.136533,-13.66323,-2.065403,6.578345,11.122855,30.353168,41.677341,51.149447,28.613054,47.077229,56.661523,64.22622,41.949623,59.018821,68.281308,74.766238,51.050597,65.151859,72.732352,78.393543,14.947861,15.908615,15.134629,11.940697,-14.087494,21.420571,26.005451,18.971031,-20.0877,23.573536,24.940968,15.628613,-18.651581,23.336563,24.542622,15.461254,-11.956146,17.093067,19.002445,11.208595,-34.298347,-63.059818,-84.169468,-100.428036,-71.004965,-78.382886,-66.922361,-64.210709,-57.254631,-62.699492,-51.061743,-46.931166,-40.85151,-47.000116,-36.310638,-32.867997,-24.447112,-31.344337,-25.089113,-22.188659,76.036755,247.857583,-158.036373,-10.065718
78,-4.265259,12.385255,-6.463577,-7.660158,-34.24276,-63.194572,-86.434959,-105.172657,-69.834389,-100.386005,-118.22533,-133.238308,-62.554046,-95.592338,-117.187855,-134.773922,-54.474769,-84.932052,-105.905044,-122.161354,-44.880363,-68.105438,-83.149406,-97.440033,-14.218106,-12.396901,-0.262723,8.503662,13.249712,32.626522,44.402412,54.92178,30.838168,49.54485,59.899975,68.632681,44.057462,61.835158,72.275412,79.76896,53.000404,67.663372,76.352458,83.007325,13.09362,13.479572,13.651783,11.136692,-17.394356,20.853172,24.579609,15.870117,-22.582535,23.34906,23.371113,12.456505,-19.800053,24.047642,23.815556,13.333775,-11.464645,17.471077,18.322678,9.70079,-34.01995,-62.093287,-83.225519,-100.149634,-70.670327,-78.160565,-66.711878,-64.608678,-56.514008,-62.029968,-50.43455,-47.201798,-39.980915,-46.469655,-35.497218,-32.611596,-23.541943,-30.673368,-24.263787,-22.003561,70.095606,259.174201,-166.17584,-18.794513
79,-4.936569,11.825612,-4.45752,-7.523478,-33.03701,-61.598122,-84.758755,-103.525852,-68.484764,-98.632473,-116.225018,-130.982426,-60.843041,-93.721985,-114.805321,-131.789486,-52.432846,-82.666912,-102.943737,-118.602505,-42.710884,-65.883041,-80.417095,-94.172745,-13.889669,-11.84983,0.400352,9.059415,14.782147,34.361622,46.188036,56.566415,32.477295,51.586183,61.907801,70.641718,45.571767,63.881974,74.283362,81.931632,54.132486,69.063958,77.9028,85.148371,11.887528,12.080407,12.291653,9.895741,-18.024971,20.37901,24.024823,15.173081,-22.7681,22.523587,22.432743,11.414383,-19.57632,23.628228,23.118794,12.423432,-10.930114,17.073212,17.817124,9.671757,-33.432519,-60.823001,-81.810157,-98.867659,-68.601232,-76.899579,-65.950243,-63.749026,-53.890536,-60.929015,-49.773111,-46.333786,-37.10891,-44.892309,-34.2435,-30.953018,-20.559683,-28.410754,-22.513861,-20.326062,63.815088,270.016573,-171.977309,-27.301231
80,-4.625359,9.051177,-2.356968,-6.824502,-32.033043,-59.915863,-82.640956,-101.071415,-67.176612,-97.232025,-114.177921,-128.103561,-59.417656,-92.517139,-112.787864,-128.984768,-50.550041,-80.965278,-100.247875,-115.056278,-40.347267,-63.628303,-77.634315,-90.722969,-13.631391,-11.475474,0.827666,9.221436,16.399329,35.600459,46.739912,56.214673,33.69473,52.529273,62.455503,70.940245,46.320516,64.491637,74.52188,82.134631,54.450093,69.503115,77.958018,84.936173,10.936329,10.474297,10.645718,8.127091,-18.471347,19.184556,23.123452,14.435235,-23.062808,21.09018,21.151886,10.217549,-19.944911,22.153313,21.544648,10.936512,-11.360343,15.929925,16.817036,9.184319,-32.718048,-59.691202,-80.516442,-97.833758,-65.841321,-74.271061,-63.64991,-61.499316,-50.170863,-57.893796,-47.346146,-43.944384,-32.768109,-41.243822,-31.638434,-28.259742,-16.00081,-24.232596,-19.380867,-17.486778,58.214784,278.534131,-175.309222,-34.659352
81,-3.682136,6.28103,-0.962162,-5.426033,-30.825279,-57.826973,-80.414681,-98.751057,-65.351212,-95.91132,-112.382916,-125.443005,-57.637001,-91.511593,-111.17807,-126.594669,-48.476669,-79.507828,-98.026451,-111.975048,-38.124481,-61.850968,-75.540333,-88.000248,-14.01948,-11.90396,0.387632,8.671487,17.005779,35.860811,46.247687,54.643718,34.081658,52.569608,62.158372,70.210848,46.492651,64.369198,73.820382,81.051516,54.335114,69.576635,77.404006,83.737017,10.231888,9.083748,8.97773,6.246232,-19.01715,18.008435,22.356606,13.896126,-23.358558,19.782189,20.267235,9.832158,-20.28796,20.707604,20.415299,10.281601,-11.763599,15.257012,16.520634,9.563599,-32.036651,-58.901631,-79.505452,-97.090315,-63.181521,-71.68446,-61.278713,-58.875047,-46.503723,-54.935865,-45.101581,-41.528714,-28.481636,-37.893622,-29.15726,-25.420693,-11.492857,-20.343568,-16.482426,-14.713746,53.816654,284.5844,-176.987378,-40.316146
82,-2.829094,3.554033,-0.022499,-3.877271,-29.763199,-55.956596,-78.41605,-96.551697,-63.746956,-94.744309,-111.00016,-123.42667,-56.158676,-90.640183,-109.964127,-124.86533,-46.776604,-78.379395,-96.401802,-109.6814,-36.311005,-60.435242,-73.885803,-85.744846,-14.442545,-12.251047,0.03768,8.125786,17.10001,35.621046,45.431272,53.039565,33.944053,52.0018,61.292261,68.942877,46.217182,63.668194,72.548064,79.458713,53.936342,69.155002,76.344949,82.075016,10.067231,8.57333,8.060521,4.998516,-18.716663,18.064705,22.431107,13.862812,-23.028144,19.250508,20.111287,10.365887,-20.338806,19.475647,19.741459,10.438889,-12.155536,14.18937,16.199845,10.648201,-31.268124,-58.164856,-78.880853,-96.960855,-61.131463,-69.804475,-59.042305,-56.246129,-43.689528,-52.96457,-43.801642,-39.955876,-25.244316,-35.704348,-27.581686,-23.135743,-7.995123,-17.476738,-14.698519,-12.977467,50.350742,287.974309,-177.646695,-44.357541
83,-2.151947,1.143864,0.673943,-2.342928,-29.017937,-54.452499,-76.686413,-94.781925,-62.28923,-93.700333,-109.855705,-121.910202,-54.813744,-89.533802,-108.664272,-123.335564,-45.300865,-77.319878,-95.110474,-108.1077,-34.796883,-59.191269,-72.49411,-84.006043,-14.890432,-12.412919,0.086574,7.907869,17.010695,35.523518,45.176095,52.438611,33.755431,51.594532,60.883881,68.427163,46.009491,63.244575,71.862277,78.629826,53.633098,68.825626,75.744661,81.268618,10.103027,8.226276,7.018341,3.773621,-18.58762,17.291599,21.8176,13.510368,-23.004067,18.39283,19.59938,10.467041,-20.650349,17.968025,18.697208,10.259857,-12.773838,13.54517,15.975517,11.076107,-30.535999,-57.497989,-78.307717,-96.444205,-59.816334,-68.644376,-58.08915,-55.235898,-42.373948,-52.149501,-43.570541,-39.561612,-24.019688,-34.998003,-27.39796,-22.665896,-6.966688,-16.732713,-14.200039,-12.092664,47.619736,289.09218,-177.551811,-46.726462
84,-1.373451,-0.151943,0.295486,-1.410139,-28.759392,-53.833374,-75.830143,-93.697003,-61.261711,-92.803666,-108.876171,-120.688065,-53.888718,-88.61023,-107.69759,-122.326413,-44.342835,-76.488316,-94.218956,-107.144429,-33.787651,-58.077004,-71.299095,-82.608445,-15.182759,-12.563726,0.124316,8.004632,16.843957,35.082706,44.61077,51.61386,33.663287,51.064405,60.334772,67.76405,45.962647,62.754313,71.318058,77.990857,53.557331,68.569152,75.44222,80.850222,10.390561,8.454586,7.010228,3.675785,-18.164989,17.40968,22.062825,13.849286,-22.684696,18.462731,19.921086,11.097119,-20.52087,17.704308,18.683659,10.610493,-12.808342,13.711739,16.341832,11.577416,-30.308016,-57.350454,-78.189755,-96.071939,-58.904848,-67.855163,-57.521367,-54.791499,-41.253523,-51.511045,-43.220762,-39.162093,-22.892878,-34.383617,-27.126338,-22.341459,-5.976674,-16.076287,-13.777628,-11.547753,45.733023,289.004482,-177.769587,-48.072356
85,-0.885064,-0.538636,0.60608,-0.438514,-28.418266,-53.456153,-75.357948,-93.20557,-60.523223,-91.932312,-108.174591,-120.183803,-53.210815,-87.612464,-106.813156,-121.623939,-43.724281,-75.585182,-93.415718,-106.432365,-33.244308,-57.394615,-70.650146,-81.962356,-15.485114,-12.848693,-0.257697,7.570069,16.694792,34.79259,44.333029,51.325213,33.598584,50.883525,60.207899,67.614589,45.916643,62.575286,71.299162,77.983866,53.505558,68.574388,75.600745,81.032101,10.631973,8.762523,7.144248,3.825519,-18.065197,17.522953,22.090896,13.729373,-22.57108,18.680751,20.278633,11.596241,-20.369236,17.934345,19.04528,11.117465,-12.641991,14.350204,17.09856,12.354412,-30.188387,-57.492752,-78.429396,-96.348659,-58.712088,-67.898135,-57.488707,-54.714879,-41.083895,-51.871859,-43.586498,-39.500257,-22.94386,-34.790145,-27.394959,-22.528045,-6.310071,-16.789783,-14.235897,-11.797842,44.468605,288.608492,-177.542861,-48.368224
86,-0.788543,-0.309469,0.411758,0.093867,-28.191605,-53.286576,-75.083233,-92.93153,-60.05048,-91.237747,-107.434914,-119.486653,-52.732109,-86.92051,-106.108372,-120.978768,-43.268578,-74.890778,-92.724255,-105.817669,-32.756584,-56.749672,-70.051369,-81.400589,-15.709267,-13.161853,-0.602153,7.282276,16.880266,34.766582,44.298128,51.294882,33.782132,50.829482,60.132243,67.618418,45.998413,62.474238,71.328543,78.183889,53.452244,68.362918,75.587062,81.262542,10.847179,9.075828,7.648716,4.444439,-17.929413,18.025291,22.417213,13.699413,-22.344578,19.259857,20.611118,11.664185,-20.104134,18.623611,19.427582,11.254463,-12.340508,14.79538,17.316124,12.427414,-30.087901,-57.591053,-78.823907,-96.80563,-59.122901,-68.308782,-57.670785,-54.944504,-41.466909,-52.417362,-43.888352,-39.770156,-23.400727,-35.198513,-27.568984,-22.706109,-6.834647,-17.355009,-14.573271,-12.098666,43.416825,288.513322,-177.39434,-48.060058
87,-0.607956,-0.05802,0.154598,0.354354,-28.02182,-53.281769,-75.050182,-93.046967,-59.874413,-90.810928,-106.912468,-118.957832,-52.568047,-86.477039,-105.574196,-120.411553,-43.169472,-74.517998,-92.297871,-105.386776,-32.677826,-56.47142,-69.760368,-81.073071,-15.937325,-13.496528,-0.919871,6.981551,16.968309,34.667138,44.223595,51.208912,33.947931,50.787701,60.089289,67.626593,46.081183,62.385008,71.353688,78.275699,53.388171,68.120671,75.468414,81.263048,10.836205,9.241493,8.157189,4.946778,-17.966446,18.113892,22.75161,14.077034,-22.163246,19.64185,21.005894,11.890881,-19.70375,19.281029,19.815388,11.372749,-11.759651,15.454846,17.680847,12.550278,-29.979985,-57.657323,-79.050296,-96.912733,-59.253021,-68.828763,-58.124625,-55.265581,-41.626162,-52.839673,-44.238977,-39.999138,-23.585989,-35.463243,-27.838234,-22.97148,-7.062993,-17.604326,-14.657257,-12.089816,42.653446,288.694974,-177.395165,-47.466032
88,-0.462158,-0.04614,0.240315,0.06503,-27.862015,-53.227822,-74.908265,-92.868267,-59.738526,-90.546765,-106.621193,-118.657872,-52.457611,-86.268071,-105.28339,-120.090775,-43.14402,-74.330269,-92.040264,-105.049164,-32.74173,-56.414795,-69.68557,-80.885353,-16.070088,-13.547275,-0.764409,7.247152,17.173012,34.707041,44.279874,51.273923,34.189721,50.792863,60.108518,67.718972,46.253763,62.349415,71.354515,78.324259,53.468521,68.041173,75.461634,81.326058,10.848587,9.285244,8.378769,5.064468,-17.926094,18.179283,23.180236,14.823223,-21.977188,19.885734,21.288528,12.140373,-19.407143,19.716327,20.158401,11.554813,-11.391186,15.717796,17.753379,12.504146,-29.847377,-57.565031,-79.067204,-97.262769,-59.059496,-68.829646,-58.08631,-54.982691,-41.299973,-52.457438,-43.809367,-39.45726,-23.077136,-34.841787,-27.305841,-22.478867,-6.368536,-16.897908,-14.068455,-11.63957,42.097075,288.84487,-177.249063,-47.204966
89,-0.203728,-0.121253,0.07854,0.106433,-27.809303,-53.202164,-74.718201,-92.683926,-59.654835,-90.304871,-106.406834,-118.468197,-52.405151,-86.0079,-104.996052,-119.819561,-43.093048,-74.108254,-91.779339,-104.749386,-32.682633,-56.213219,-69.461243,-80.633251,-16.149215,-13.508162,-0.520581,7.542393,17.294932,34.840212,44.436609,51.422878,34.30181,50.902297,60.299623,68.006667,46.315736,62.436051,71.55965,78.61808,53.49695,68.092611,75.579639,81.444915,10.945244,9.405728,8.521992,5.15308,-17.72414,18.147492,23.368618,15.213433,-21.673313,20.018578,21.49585,12.432335,-19.000019,20.061757,20.541184,11.945172,-10.908222,16.050122,17.970463,12.706582,-29.791357,-57.479741,-79.068933,-97.413301,-58.913784,-68.9066,-58.21848,-54.976966,-41.160343,-52.399955,-43.792133,-39.335618,-22.930503,-34.620295,-27.143388,-22.323132,-6.233766,-16.613967,-13.810227,-11.429409,41.853212,288.862898,-177.210658,-46.959252
90,0.056625,-0.05108,0.245957,-0.113633,-27.75515,-53.155472,-74.550007,-92.456405,-59.69672,-90.250442,-106.317123,-118.382618,-52.414535,-85.875206,-104.81084,-119.65385,-43.089317,-73.960808,-91.586792,-104.562858,-32.68943,-56.06131,-69.263591,-80.394218,-16.114326,-13.427442,-0.321053,7.80766,17.410874,34.937,44.485873,51.434684,34.35021,50.940854,60.309392,68.037061,46.276709,62.428098,71.575001,78.687636,53.371795,68.022475,75.554865,81.452758,11.049431,9.45916,8.465813,5.017307,-17.651344,18.062839,23.459587,15.400406,-21.621002,19.991215,21.578567,12.472538,-18.997513,20.103378,20.612949,11.906238,-10.956173,16.103142,17.881187,12.343963,-29.710063,-57.410019,-79.035106,-97.558,-58.946598,-68.860836,-58.092658,-54.789863,-41.210867,-52.359811,-43.686046,-39.195543,-22.974778,-34.449975,-26.906501,-22.116127,-6.237125,-16.494715,-13.570493,-11.13292,41.881645,288.905888,-176.992893,-46.978815
91,0.104302,-0.139717,0.076343,-0.068074,-27.629265,-53.064537,-74.314957,-92.171585,-59.723511,-90.127922,-106.183525,-118.308632,-52.450012,-85.675164,-104.635208,-119.577473,-43.103279,-73.749184,-91.37994,-104.430302,-32.631752,-55.766327,-68.954418,-80.123474,-15.969718,-13.179748,0.003199,8.120402,17.633399,35.072555,44.524925,51.427732,34.420606,51.022451,60.384221,68.165132,46.205536,62.471558,71.672493,78.884793,53.183123,67.952414,75.517136,81.453907,10.975434,9.445439,8.457642,5.022011,-17.576122,18.227681,23.625698,15.595494,-21.442508,20.273941,21.864602,12.737698,-18.756351,20.411454,20.849202,12.100274,-10.703441,16.478383,18.214703,12.587998,-29.734534,-57.416163,-79.06138,-97.64613,-58.839405,-68.896874,-58.085395,-54.738986,-41.128288,-52.345244,-43.650317,-39.175054,-22.900745,-34.400247,-26.835821,-22.04147,-6.168533,-16.525343,-13.541378,-11.019058,41.974921,288.848877,-176.927576,-46.964183
92,-0.015518,-0.215089,0.243199,-0.098436,-27.513176,-52.912743,-73.997372,-91.669854,-59.514565,-89.793412,-105.840603,-118.032074,-52.261918,-85.344281,-104.388669,-119.491757,-42.907998,-73.392952,-91.052365,-104.22995,-32.370827,-55.311379,-68.508397,-79.784604,-15.658151,-12.765934,0.374368,8.429376,17.950623,35.308639,44.622194,51.379134,34.521457,51.118671,60.45852,68.247593,46.164337,62.527788,71.770121,79.070662,53.057794,67.977657,75.544195,81.49917,11.218574,9.59111,8.375931,4.936569,-17.373734,18.459343,23.633343,15.347889,-21.265125,20.610889,22.121818,12.817978,-18.623039,20.762684,21.10429,12.154621,-10.61459,16.890735,18.515522,12.553814,-29.672247,-57.421678,-79.130202,-97.87871,-59.003334,-68.726319,-57.784819,-54.630287,-41.399502,-52.317907,-43.464553,-39.101454,-23.281153,-34.337756,-26.611865,-21.931888,-6.586775,-16.790086,-13.610668,-10.999385,41.955088,288.706913,-176.688692,-46.989494
93,0.057769,0.021218,0.461517,-0.063097,-27.434051,-52.857261,-73.881431,-91.497276,-59.43489,-89.631786,-105.658962,-117.89265,-52.138824,-85.153106,-104.283771,-119.511772,-42.717361,-73.130596,-90.843029,-104.152439,-32.088981,-54.967598,-68.203045,-79.594322,-15.529686,-12.672506,0.322374,8.340294,18.054499,35.338155,44.492962,51.046706,34.498547,51.081756,60.353432,68.086609,46.045071,62.491762,71.724326,79.009368,52.871653,67.916499,75.481554,81.436196,11.169159,9.492554,8.288807,4.963932,-17.579063,18.95628,23.524864,14.550545,-21.486282,21.053215,22.23793,12.476326,-18.857025,21.152653,21.073174,11.631798,-10.871635,17.092049,18.426201,12.015816,-29.734639,-57.582123,-79.260025,-97.919657,-59.172505,-68.414467,-57.206267,-54.391881,-41.43649,-52.092777,-43.058445,-38.94223,-23.298764,-34.089296,-26.195574,-21.66554,-6.59931,-16.886354,-13.540315,-10.861972,42.018442,288.810657,-176.22159,-46.970065
94,0.087113,0.124624,0.432942,0.087612,-27.348976,-52.801209,-73.839672,-91.43771,-59.316548,-89.633641,-105.681942,-117.918984,-52.030083,-85.127152,-104.278347,-119.50145,-42.613861,-73.06509,-90.812084,-104.126953,-31.991776,-54.946541,-68.242184,-79.644917,-15.529203,-12.696391,0.196935,8.170296,18.096551,35.227165,44.304921,50.821281,34.528546,50.912128,60.129341,67.85286,46.06603,62.33609,71.523255,78.804036,52.866825,67.813253,75.346285,81.296394,11.112556,9.329864,8.118312,4.989589,-17.712605,19.338077,23.638652,14.272041,-21.527733,21.475753,22.462463,12.410007,-18.877545,21.533763,21.131069,11.338531,-10.890576,17.469406,18.583042,11.837677,-29.718646,-57.703562,-79.414303,-98.170629,-59.206437,-68.353069,-56.931083,-54.145028,-41.382014,-52.080922,-42.837663,-38.772967,-23.249364,-34.146311,-26.104808,-21.524403,-6.562093,-17.167257,-13.77719,-11.042419,42.125702,289.000489,-175.768501,-46.817245
95,-0.046921,0.133492,0.42707,0.066357,-27.316544,-52.69162,-73.75391,-91.311207,-59.186863,-89.669151,-105.714054,-117.883953,-51.845993,-85.113876,-104.306339,-119.481319,-42.3498,-72.947914,-90.772865,-104.095734,-31.652252,-54.80397,-68.231438,-79.716179,-15.491881,-12.752621,-0.015091,7.95538,18.123722,35.158981,44.192942,50.689975,34.551875,50.80425,59.992267,67.68974,46.100561,62.224977,71.337633,78.571101,52.911545,67.737424,75.149918,80.993162,11.330258,9.433674,8.120865,5.073853,-17.617767,19.827152,23.782265,14.042793,-21.47723,21.940384,22.721707,12.507374,-18.874145,21.872578,21.204975,11.191017,-10.901115,17.601895,18.625042,11.845745,-29.693791,-57.845026,-79.66656,-98.315585,-59.165719,-68.097089,-56.533941,-53.904961,-41.16372,-51.72385,-42.366933,-38.274166,-22.939741,-33.787992,-25.712452,-21.084598,-6.178901,-16.87653,-13.580657,-10.865393,42.110006,289.189495,-175.310206,-46.695374
96,0.037354,0.345395,0.349068,0.288294,-27.337441,-52.620942,-73.775986,-91.390034,-59.085812,-89.788754,-105.884823,-118.002789,-51.699029,-85.203496,-104.4157,-119.497433,-42.163857,-72.985451,-90.855332,-104.133236,-31.471047,-54.873688,-68.392571,-79.896985,-15.616938,-13.06199,-0.438094,7.552088,17.860628,34.914424,43.952548,50.461066,34.359411,50.567919,59.716255,67.38042,45.983618,62.009505,71.009528,78.152964,52.858019,67.580244,74.867756,80.589401,11.642956,9.71196,8.27956,5.418377,-17.067982,20.526317,24.076801,13.986854,-21.077717,22.389404,23.051205,12.82061,-18.63121,22.064037,21.276272,11.243225,-10.728539,17.601379,18.578499,11.883751,-29.664818,-58.095739,-80.095817,-98.69062,-59.593724,-68.141623,-56.347992,-53.879223,-41.558188,-51.949239,-42.465833,-38.320299,-23.410143,-34.061552,-25.884198,-21.166732,-6.689873,-17.132627,-13.836928,-11.123281,42.181384,289.583438,-174.927114,-46.358532
97,0.18782,0.52084,0.876686,0.011078,-27.406014,-52.653145,-73.971542,-91.682648,-59.32124,-90.226776,-106.351158,-118.3606,-51.93132,-85.565323,-104.741798,-119.67112,-42.359619,-73.322983,-91.19672,-104.363194,-31.614395,-55.235756,-68.801479,-80.23169,-15.924863,-13.563256,-0.967728,7.035435,17.3779,34.436748,43.559667,50.254214,34.011263,50.163676,59.308665,67.017537,45.77195,61.645696,70.560714,77.665358,52.747116,67.304775,74.532155,80.216725,11.383953,9.59166,8.351429,5.532005,-17.340363,20.207325,23.518696,13.312649,-21.499901,22.072037,22.607574,12.359276,-19.06715,21.606812,20.682312,10.746002,-11.097187,16.805134,17.766598,11.40564,-29.980758,-58.355473,-80.265804,-98.343055,-59.153919,-67.648941,-55.945046,-53.718654,-41.013049,-51.197304,-41.894401,-37.913716,-22.790361,-33.372498,-25.527701,-20.998228,-6.00035,-16.438633,-13.51853,-11.038627,42.400217,290.131353,-174.019415,-46.320379
98,0.226479,0.261748,0.432152,0.289856,-27.472298,-52.670174,-74.138581,-91.96288,-59.497571,-90.537129,-106.739651,-118.74622,-52.150292,-85.856564,-105.005906,-119.86266,-42.589852,-73.642502,-91.50792,-104.624039,-31.804024,-55.502381,-69.077809,-80.473973,-16.065704,-13.801909,-1.165169,6.891222,17.143396,34.23612,43.458322,50.363969,33.833532,49.971274,59.16612,66.923701,45.678793,61.493308,70.421516,77.571522,52.745448,67.20075,74.435416,80.168695,11.536091,9.790157,8.446152,5.846088,-16.750683,20.323231,23.556198,13.414215,-20.942459,22.142349,22.668743,12.681621,-18.590355,21.343506,20.591697,11.03667,-10.68417,16.713867,17.766552,11.709961,-30.101763,-58.563566,-80.351439,-98.159884,-59.011725,-67.320052,-55.845899,-53.66049,-40.848472,-50.980813,-41.912363,-37.853163,-22.674319,-33.373103,-25.759907,-21.130114,-6.014663,-16.301182,-13.545694,-11.103113,42.650254,290.385678,-173.563705,-46.037946
99,0.233985,0.19213,1.160923,0.342511,-27.506332,-52.717643,-74.292011,-92.200435,-59.81773,-90.822143,-107.096798,-119.130844,-52.512611,-86.124504,-105.320194,-120.182911,-42.943542,-73.942005,-91.840255,-104.970886,-32.061332,-55.733413,-69.299285,-80.716095,-16.134073,-13.975625,-1.309393,6.734204,16.888886,34.092835,43.393793,50.429771,33.575243,49.828099,59.113385,66.957664,45.476153,61.348491,70.301584,77.503584,52.66642,67.104531,74.333429,80.097904,11.425998,9.863479,8.404575,5.86568,-16.915261,19.279552,22.904342,13.312992,-21.290932,21.012886,22.097305,12.716114,-18.961292,20.144531,20.002693,11.05751,-11.050541,15.610634,17.100689,11.620445,-30.504141,-58.801404,-80.380647,-97.726931,-58.428888,-66.698516,-55.679852,-53.424838,-40.337592,-50.454841,-41.850489,-37.791221,-22.248809,-33.02969,-25.888477,-21.351569,-5.667693,-15.781009,-13.424317,-11.157873,42.894212,290.566795,-172.392809,-45.706448
100,0.236458,0.149905,0.786724,0.565152,-27.535972,-52.706383,-74.357929,-92.371513,-60.001224,-91.037018,-107.329456,-119.36008,-52.728492,-86.392685,-105.50964,-120.303783,-43.179954,-74.269592,-92.137024,-105.244549,-32.269409,-56.007889,-69.544979,-80.927055,-16.239901,-14.092691,-1.328745,6.743763,16.59651,33.91098,43.284841,50.431204,33.328538,49.687914,59.042076,66.978758,45.302128,61.241194,70.234956,77.548354,52.59458,67.065875,74.332652,80.185516,11.259601,10.013958,8.580356,6.088051,-16.495285,19.088756,22.886364,13.666946,-20.873062,20.886062,21.996288,12.946403,-18.589874,19.673218,19.872745,11.585083,-10.781582,15.30455,17.041946,12.14788,-30.684984,-58.725179,-79.885483,-96.853026,-57.856696,-65.766529,-55.406656,-53.168475,-39.812497,-49.529116,-41.472626,-37.510905,-21.704738,-32.382428,-25.82777,-21.383087,-5.126575,-14.973443,-13.040279,-11.037021,43.111593,290.719173,-171.625162,-45.138823
101,0.09327,0.025664,1.514271,0.56724,-27.627182,-52.709153,-74.364041,-92.316777,-60.161648,-91.200325,-107.447148,-119.433564,-52.938378,-86.570481,-105.610302,-120.323754,-43.399453,-74.489411,-92.307953,-105.37397,-32.427819,-56.141671,-69.624825,-80.977181,-16.262045,-14.065126,-1.198032,6.918985,16.452792,33.916908,43.344936,50.585159,33.187586,49.676094,59.098454,67.096762,45.208909,61.228757,70.28858,77.718204,52.578129,67.084388,74.384855,80.326974,11.06298,10.007183,8.432705,5.966423,-16.604576,18.68066,22.745887,13.836982,-21.029229,20.400604,21.614902,12.767074,-18.767212,19.116645,19.610492,11.659652,-11.009594,14.721439,16.564361,11.948925,-30.50363,-58.187086,-78.820795,-95.54992,-56.52747,-63.868692,-54.150511,-52.047329,-38.281952,-47.458471,-39.934949,-36.188045,-19.984842,-30.330802,-24.371579,-20.278076,-3.292872,-12.75427,-11.300159,-9.722677,43.150847,290.756718,-170.164907,-44.559702
102,0.143989,-0.124131,1.656772,0.899956,-27.69429,-52.70153,-74.315002,-92.258571,-60.170265,-91.233639,-107.52784,-119.547569,-52.934624,-86.590118,-105.577412,-120.253807,-43.389793,-74.496174,-92.286724,-105.320377,-32.419784,-56.134552,-69.577274,-80.881485,-16.220178,-13.930757,-0.906805,7.297417,16.586581,34.157463,43.605486,50.913808,33.297774,49.859407,59.334971,67.395585,45.295533,61.388481,70.511116,78.026956,52.684698,67.290387,74.625175,80.606012,11.356144,10.271004,8.124779,5.738159,-15.945636,18.595001,23.129116,14.8125,-20.434971,20.033421,21.525067,13.109001,-18.421074,18.30035,19.491497,12.187798,-11.032619,14.296417,16.444828,12.046944,-29.851094,-57.312082,-77.437202,-94.128576,-55.275183,-61.62449,-52.593066,-50.348445,-36.938065,-45.458856,-38.557247,-34.895985,-18.643567,-28.428914,-23.07934,-19.165389,-1.967065,-10.587244,-9.531515,-8.294253,43.223596,290.671802,-168.579375,-43.620531
103,0.020645,0.128021,0.982201,6.723262,-27.734848,-52.659416,-74.263298,-92.163643,-60.209083,-91.380764,-107.609997,-119.522117,-52.936157,-86.681591,-105.591179,-120.112976,-43.350219,-74.545875,-92.323265,-105.285724,-32.362106,-56.157875,-69.606697,-80.897884,-16.264083,-13.988037,-0.938544,7.246139,16.445518,34.129453,43.605103,50.935902,33.189661,49.861568,59.348296,67.43087,45.209206,61.360816,70.470188,78.012655,52.626072,67.284842,74.552989,80.482572,11.59663,11.678844,10.098598,7.566696,-14.40461,19.984646,23.517471,15.152481,-19.097649,22.43605,22.696106,13.437881,-17.224262,20.868153,20.970783,12.784,-10.401192,16.185184,17.863598,12.571518,-32.159615,-60.477236,-81.073296,-96.868196,-58.644645,-65.050737,-55.473248,-52.818481,-40.070503,-48.353494,-41.043468,-37.691847,-21.366693,-31.446744,-25.614534,-22.063614,-4.116141,-12.921039,-11.548155,-10.470314,43.133949,290.863515,-167.707466,-36.833577
104,0.027008,0.194724,1.83926,6.87195,-27.851417,-52.67601,-74.249588,-92.113426,-60.212654,-91.444851,-107.597362,-119.44622,-52.911003,-86.691089,-105.441822,-119.82994,-43.287895,-74.527427,-92.184677,-105.031036,-32.271171,-56.093902,-69.484474,-80.711803,-16.383459,-14.089703,-0.963665,7.205618,16.226847,33.957589,43.451048,50.842436,33.044103,49.784343,59.274788,67.393807,45.114456,61.319382,70.42553,78.009122,52.559357,67.286386,74.535798,80.452068,12.156006,12.532871,10.968201,8.660431,-13.791744,20.876553,24.023678,15.34259,-18.506802,24.252674,23.727036,13.694023,-16.554554,22.89949,21.995167,12.835533,-9.891621,18.193222,18.990498,12.498024,-33.677298,-62.53723,-83.336356,-98.776626,-60.420259,-67.52541,-57.133717,-54.311667,-41.940497,-50.433667,-42.192735,-38.866673,-23.195264,-33.063733,-26.600003,-23.281912,-5.720398,-14.134472,-12.043739,-10.835401,43.047838,291.128949,-165.981325,-29.890917
105,0.151909,0.276419,2.403419,7.194614,-27.967598,-52.762138,-74.307289,-92.126323,-60.216179,-91.433716,-107.60123,-119.490474,-52.90496,-86.627529,-105.320194,-119.687164,-43.289428,-74.472748,-92.058964,-104.845985,-32.295593,-56.097358,-69.464412,-80.664482,-16.478912,-14.254366,-1.090228,7.172298,16.009523,33.765323,43.313271,50.806461,32.878489,49.650654,59.149263,67.27164,44.98977,61.207268,70.337005,77.911631,52.467362,67.171073,74.401046,80.269509,12.118813,12.925667,11.430165,9.677651,-12.752941,22.050774,25.305039,16.512406,-17.293373,25.619122,25.121212,14.740231,-15.226913,24.456471,23.310311,13.585602,-8.636856,19.651257,20.103104,13.037419,-34.088913,-63.265674,-84.081695,-99.239883,-60.700537,-69.005733,-57.656038,-54.053396,-42.153912,-52.034997,-42.916369,-38.83521,-23.281733,-34.014942,-26.933967,-23.339463,-5.537011,-14.33437,-11.857104,-10.36572,43.203935,291.472043,-163.573718,-22.629628
106,0.35994,0.286238,3.363408,6.564927,-28.004883,-52.823364,-74.35548,-92.2416,-60.210686,-91.361973,-107.551243,-119.492455,-52.894615,-86.538231,-105.184147,-119.581021,-43.284485,-74.420185,-91.961941,-104.735481,-32.307793,-56.14547,-69.467789,-80.622631,-16.463561,-14.249858,-1.038975,7.247634,15.806056,33.464438,43.021574,50.583431,32.69446,49.453546,58.963937,67.109323,44.832022,61.079778,70.237142,77.812139,52.353,67.128848,74.417262,80.290232,12.152778,13.557724,12.24583,10.511398,-10.617932,22.825286,25.740417,17.188121,-15.23338,26.429397,25.729213,15.495609,-13.607037,24.932132,23.864959,14.526191,-7.866555,20.062751,20.852474,14.269603,-33.278297,-61.874542,-82.201605,-96.471699,-58.3918,-67.361739,-55.86648,-51.740651,-40.647196,-50.808381,-41.428011,-36.703203,-22.338094,-32.703012,-25.340658,-21.327419,-4.985036,-12.928572,-9.970165,-7.768201,43.732693,291.798425,-160.041492,-16.024557
107,0.194961,0.348631,3.79454,7.317356,-27.980598,-52.7761,-74.279606,-92.172592,-60.001602,-91.102684,-107.220565,-119.173633,-52.687111,-86.368812,-105.009807,-119.432808,-43.115318,-74.286277,-91.813797,-104.623615,-32.243065,-56.175979,-69.500885,-80.687519,-16.409654,-14.197569,-0.922169,7.362575,15.546123,33.215028,42.756244,50.259772,32.432514,49.224094,58.692173,66.763804,44.61734,60.913805,70.035069,77.546525,52.222632,67.012362,74.271358,80.128248,11.919319,14.484089,13.866863,12.269062,-7.58226,23.406956,26.923084,20.007774,-12.431419,26.303467,26.899178,18.672283,-11.743664,24.516655,24.867119,17.35017,-7.578152,18.756786,20.965233,16.229416,-31.607251,-58.655592,-78.058967,-91.437941,-55.64923,-64.774317,-53.073447,-47.860515,-39.368425,-48.99503,-39.153169,-33.301886,-22.029644,-31.797559,-23.962457,-19.211047,-5.305669,-13.02933,-9.995156,-7.177948,44.445161,292.133823,-155.729445,-8.720434
108,0.272187,0.340566,3.870792,11.754759,-27.96016,-52.672943,-74.066403,-91.975663,-59.689293,-90.628041,-106.749573,-118.803807,-52.386292,-85.961232,-104.611508,-119.113026,-42.893052,-73.96217,-91.479756,-104.335602,-32.16156,-56.091065,-69.363236,-80.518719,-16.295872,-14.055357,-0.618196,7.756617,15.301678,32.963419,42.515319,50.035086,32.19438,49.089527,58.537081,66.540836,44.413193,60.790205,69.916743,77.377687,52.084657,66.943485,74.238926,80.104437,12.372963,15.830269,15.767956,14.512322,-5.474155,26.13826,31.519341,25.759449,-10.150222,28.280629,30.181252,22.769303,-9.734676,26.196225,27.494397,20.552147,-5.856651,21.218022,23.598793,19.08292,-29.948956,-56.118836,-75.117678,-88.79532,-53.454806,-62.394888,-50.940841,-45.403577,-37.651072,-46.784075,-36.787888,-30.247723,-20.629633,-29.517734,-21.866537,-17.036142,-4.100233,-10.862706,-7.875524,-5.123703,45.822756,292.17909,-150.753245,2.739026
109,0.339065,0.306615,3.365994,11.477432,-27.834869,-52.56578,-73.979084,-91.789959,-59.507881,-90.205467,-106.269893,-118.380134,-52.204124,-85.618892,-104.283943,-118.81913,-42.746773,-73.701702,-91.246284,-104.166515,-32.092323,-56.099327,-69.408382,-80.574291,-16.157884,-13.878022,-0.324474,8.315496,15.396379,33.068371,42.555556,50.004891,32.236025,49.140348,58.520594,66.377963,44.418763,60.814029,69.900627,77.205787,52.091734,67.013548,74.343791,80.181552,11.835571,17.241211,18.544132,17.47269,-1.127129,30.395668,38.310963,35.30468,-5.643551,31.617771,35.721004,30.467285,-5.832745,29.139725,32.357277,27.216991,-2.621739,23.817089,27.414699,24.472847,-27.747634,-51.557728,-69.078821,-82.307124,-49.231306,-56.789526,-46.151795,-39.734365,-34.039451,-41.343401,-31.850405,-24.349805,-17.392244,-24.713108,-17.439934,-12.107527,-1.152188,-6.925661,-4.886829,-2.04124,47.854946,292.045498,-145.694126,13.776251
110,0.407089,0.105087,5.166206,10.67585,-27.857986,-52.621559,-74.006721,-91.742191,-59.439422,-89.789806,-105.769455,-117.899219,-52.148483,-85.243755,-103.921577,-118.523151,-42.701019,-73.437252,-90.985244,-103.974517,-32.078636,-55.985458,-69.24916,-80.408409,-15.920726,-13.393924,0.371651,9.075779,15.692076,33.395203,42.841868,50.236998,32.417373,49.347162,58.668758,66.430723,44.52795,60.976679,69.987151,77.145988,52.156485,67.19523,74.592657,80.467443,11.64608,18.69833,21.675946,20.913494,3.209576,30.776264,39.587448,39.680214,-1.653328,30.947136,37.556385,36.460923,-3.314907,27.525685,33.684689,32.513615,-2.302025,21.651638,27.391148,27.253212,-25.11385,-45.780181,-61.010136,-72.679679,-43.583237,-49.417595,-41.196559,-35.875236,-30.173962,-34.07179,-26.531398,-20.139298,-15.189354,-19.59721,-13.304151,-8.308283,-0.631373,-3.642188,-2.003375,0.883735,50.428739,291.729398,-138.361216,24.030914
111,0.334969,0.033876,2.448109,21.712822,-27.89669,-52.664497,-74.036991,-91.74432,-59.220085,-89.3489,-105.289993,-117.48373,-51.887352,-84.851738,-103.542847,-118.22715,-42.453621,-73.10812,-90.642162,-103.697113,-31.916428,-55.771637,-69.051476,-80.248295,-15.767214,-13.032943,1.002024,9.912609,16.085143,33.918353,43.359991,50.683491,32.809637,49.663634,58.90809,66.55326,44.888573,61.190052,70.117223,77.133107,52.487406,67.437341,74.836214,80.7182,13.373726,24.200455,29.97369,29.145653,13.028068,42.900158,50.31815,50.212967,7.734707,42.164452,48.326282,47.160015,4.80883,37.584457,43.225834,41.80862,4.156437,29.59378,34.523895,33.834629,-25.66751,-45.450706,-60.324713,-72.369235,-43.945959,-46.425942,-39.022957,-34.413412,-30.189135,-30.761666,-24.193972,-18.958532,-14.781635,-17.027899,-11.719296,-7.794866,0.486772,-2.28999,-1.607586,0.026102,52.908983,291.336545,-133.767832,45.317007
112,0.287796,0.194255,2.921482,23.665962,-27.793053,-52.642731,-74.068817,-91.80146,-59.159981,-89.281677,-105.147881,-117.238758,-51.69841,-84.743568,-103.345814,-117.892365,-42.181572,-72.87775,-90.359413,-103.345242,-31.651108,-55.563766,-68.903664,-80.081074,-15.801511,-12.823696,1.489642,10.702112,16.386237,34.297018,43.726541,50.975199,33.126465,49.985106,59.187597,66.749046,45.138427,61.454331,70.352899,77.287346,52.597506,67.519407,74.901249,80.751866,14.802235,28.878365,37.348858,37.694332,21.320503,52.783779,60.763069,61.779911,15.194115,50.920395,58.559887,58.250004,10.783974,44.978416,52.07531,51.614182,8.489822,34.483738,39.616608,38.995777,-27.308897,-46.188307,-61.093949,-72.832381,-41.837935,-44.084693,-38.033671,-34.368457,-26.789829,-26.52421,-21.654233,-18.6841,-10.659498,-11.703086,-8.314205,-6.568959,4.621858,3.432669,3.431261,3.089973,54.971455,291.095416,-129.071674,68.547585
113,0.299744,-0.184943,5.395163,18.695932,-27.770943,-52.678711,-74.18731,-91.852581,-59.031372,-89.176083,-105.033131,-117.069924,-51.462067,-84.589966,-103.186947,-117.70261,-41.860474,-72.717305,-90.190682,-103.136227,-31.362099,-55.431954,-68.831498,-80.043137,-15.566414,-12.347612,2.056943,11.516563,16.783132,34.8268,44.211628,51.399005,33.461375,50.292673,59.454186,66.971348,45.42411,61.696566,70.481229,77.322298,52.837259,67.777512,75.059441,80.815753,15.389883,31.896715,42.561556,44.161382,31.255056,60.978733,68.038913,69.651575,24.553625,56.843685,64.948288,66.229196,18.077533,48.700641,56.626327,58.099125,12.906377,35.265049,40.829515,41.814165,-25.306387,-41.063919,-53.997722,-64.692872,-32.550933,-33.128584,-29.85776,-27.413324,-17.437378,-15.945772,-13.991909,-12.630108,-1.853896,-1.488049,-1.159889,-0.8779,12.208964,12.066419,10.108487,8.41605,56.49852,290.72793,-122.44919,87.060974
