takenoko1/special-research/HandMotion_SimilarSearch_自分用/NewProject/handData_new/key/d3_feature/38.csv
,vel_0x_L,vel_0y_L,vel_0x_R,vel_0y_R,posFromWrist_1x_L,posFromWrist_2x_L,posFromWrist_3x_L,posFromWrist_4x_L,posFromWrist_5x_L,posFromWrist_6x_L,posFromWrist_7x_L,posFromWrist_8x_L,posFromWrist_9x_L,posFromWrist_10x_L,posFromWrist_11x_L,posFromWrist_12x_L,posFromWrist_13x_L,posFromWrist_14x_L,posFromWrist_15x_L,posFromWrist_16x_L,posFromWrist_17x_L,posFromWrist_18x_L,posFromWrist_19x_L,posFromWrist_20x_L,posFromWrist_1y_L,posFromWrist_2y_L,posFromWrist_3y_L,posFromWrist_4y_L,posFromWrist_5y_L,posFromWrist_6y_L,posFromWrist_7y_L,posFromWrist_8y_L,posFromWrist_9y_L,posFromWrist_10y_L,posFromWrist_11y_L,posFromWrist_12y_L,posFromWrist_13y_L,posFromWrist_14y_L,posFromWrist_15y_L,posFromWrist_16y_L,posFromWrist_17y_L,posFromWrist_18y_L,posFromWrist_19y_L,posFromWrist_20y_L,posFromWrist_1x_R,posFromWrist_2x_R,posFromWrist_3x_R,posFromWrist_4x_R,posFromWrist_5x_R,posFromWrist_6x_R,posFromWrist_7x_R,posFromWrist_8x_R,posFromWrist_9x_R,posFromWrist_10x_R,posFromWrist_11x_R,posFromWrist_12x_R,posFromWrist_13x_R,posFromWrist_14x_R,posFromWrist_15x_R,posFromWrist_16x_R,posFromWrist_17x_R,posFromWrist_18x_R,posFromWrist_19x_R,posFromWrist_20x_R,posFromWrist_1y_R,posFromWrist_2y_R,posFromWrist_3y_R,posFromWrist_4y_R,posFromWrist_5y_R,posFromWrist_6y_R,posFromWrist_7y_R,posFromWrist_8y_R,posFromWrist_9y_R,posFromWrist_10y_R,posFromWrist_11y_R,posFromWrist_12y_R,posFromWrist_13y_R,posFromWrist_14y_R,posFromWrist_15y_R,posFromWrist_16y_R,posFromWrist_17y_R,posFromWrist_18y_R,posFromWrist_19y_R,posFromWrist_20y_R,posFromBody_0x_L,posFromBody_0y_L,posFromBody_0x_R,posFromBody_0y_R
6,5.846855,-0.737966,-0.019935,0.370515,-12.027054,-30.434052,-46.039536,-59.317177,-55.964012,-49.666992,-36.432209,-26.985912,-57.033073,-35.538872,-11.777252,9.673027,-51.849861,-28.280308,-3.282944,16.724991,-44.032608,-36.758377,-24.01648,-11.79245,32.415977,53.490961,65.883428,75.518987,44.015755,55.411744,57.428192,58.466784,26.826095,39.336148,45.764811,48.897829,8.43828,22.142882,30.411176,35.779547,-8.822319,2.11957,9.619096,15.981735,22.777485,46.16169,65.450203,79.715286,45.081276,77.793365,95.080856,107.211113,35.533699,72.394913,92.877869,106.592491,26.345741,60.623737,80.539169,94.35775,18.28014,44.276733,59.946258,72.047767,-15.182525,-14.124036,-2.879348,7.232825,10.11284,25.843461,31.714777,35.554368,27.754389,42.447603,48.73508,52.430533,40.322475,56.014366,60.581612,62.36862,47.95122,62.831291,66.164627,65.877031,24.548012,290.74305,-67.081535,286.269455
7,-1.934258,1.161031,-0.217907,0.198922,-11.289436,-28.847637,-43.188926,-55.552757,-53.38108,-42.902675,-27.053901,-16.42004,-54.295372,-31.209995,-7.52465,13.26146,-49.160453,-25.094959,-0.687744,18.455086,-41.182388,-36.066902,-25.794914,-15.839149,31.562562,52.445465,64.393762,73.973017,42.556642,52.933935,54.683917,56.228814,25.841732,37.511844,43.977791,47.514114,7.847008,20.385923,28.707507,34.397412,-9.052512,0.3367,7.694805,14.077649,22.656807,46.106632,65.404175,79.67989,44.992412,77.793331,95.080112,107.193043,35.445305,72.490322,93.021229,106.813717,26.276585,60.637081,80.599949,94.427318,18.231708,44.247871,59.969616,72.055195,-15.499983,-14.567725,-3.300139,6.891803,9.752132,25.442837,31.310189,35.062823,27.544068,42.171234,48.419894,52.07658,40.189799,55.828375,60.371167,62.1757,47.880257,62.696676,65.954825,65.567465,22.286653,292.010671,-67.626543,286.574967
8,1.658936,-0.75275,-0.194298,-0.017191,-12.271545,-30.815128,-46.246502,-59.188648,-55.688084,-49.646873,-37.186981,-28.472363,-56.48156,-35.173119,-11.695198,9.514893,-51.099323,-28.10685,-3.617088,16.136124,-43.148781,-35.852119,-22.746368,-10.188995,32.205804,53.062598,65.152143,75.020156,42.876806,53.864366,56.520794,58.127281,25.733854,38.149849,45.307376,48.868831,7.361575,20.943331,29.672493,35.192078,-9.98272,0.381346,7.825852,14.01265,22.719967,46.124703,65.364407,79.828983,44.972534,77.846272,95.194256,107.336231,35.333428,72.390484,92.969959,106.814861,26.127594,60.488457,80.487133,94.338513,18.096245,44.187733,59.965222,72.099735,-15.490881,-14.553312,-3.353591,6.72194,9.550306,25.361611,31.296838,35.058401,27.376205,42.087624,48.351116,52.013447,40.073152,55.796635,60.345491,62.171031,47.836834,62.725142,65.95002,65.534416,23.760183,291.313262,-68.006247,286.613117
9,-0.6996,0.782427,-0.117554,0.002495,-11.237847,-29.177731,-44.333725,-57.518326,-54.631176,-47.745175,-34.930596,-26.055279,-55.476563,-33.681828,-10.035004,11.054397,-50.078499,-26.565766,-2.514382,16.766624,-41.844315,-34.437252,-21.835213,-9.907311,32.16989,52.981335,64.57842,74.317226,42.393585,52.623318,55.123284,57.316992,25.273962,37.159261,44.274971,48.042599,7.057479,19.831775,28.515241,34.139876,-9.976001,-0.427893,6.704749,12.478882,22.812012,46.201367,65.386357,80.090756,45.045491,77.916699,95.257405,107.378277,35.318665,72.293118,92.852543,106.723034,26.053883,60.30098,80.23827,94.058384,17.958504,43.941594,59.683789,71.733479,-15.520176,-14.534145,-3.355938,6.493414,9.400463,25.308097,31.348955,35.153719,27.259534,41.951871,48.252896,51.92928,40.034002,55.720447,60.301389,62.154729,47.867338,62.799835,66.022651,65.566278,22.959057,292.121896,-68.225327,286.641819
10,-0.729378,0.359264,-0.041771,0.008744,-10.369354,-28.188606,-43.561489,-56.889599,-53.731888,-48.510223,-37.811531,-31.073067,-54.543102,-33.119041,-9.489647,11.533356,-48.993118,-25.283592,-1.548431,17.749512,-40.739136,-32.497307,-20.11805,-8.636684,32.30337,52.787636,64.156974,74.022244,42.649589,53.007653,55.670997,57.717814,25.575884,37.305375,44.259719,47.694944,7.311792,19.990202,28.771444,34.29151,-9.802693,-0.45226,6.412249,11.64204,22.858475,46.197922,65.360596,80.275143,45.002861,77.840298,95.199246,107.363011,35.269513,72.22926,92.787129,106.72855,26.065304,60.286538,80.199292,94.080906,18.025452,44.06123,59.789189,71.862133,-15.612752,-14.574407,-3.394581,6.337321,9.351396,25.236059,31.315474,35.176579,27.227819,41.824554,48.132655,51.847325,40.028617,55.614681,60.184866,62.088791,47.894916,62.78457,65.982748,65.554533,22.170656,292.496094,-68.326121,286.665497
11,-1.810364,-0.577354,-0.031951,-0.069087,-10.083137,-27.342476,-42.305019,-55.71722,-51.936184,-46.739101,-36.316017,-29.708942,-52.793243,-31.258335,-7.801803,13.12143,-47.321296,-23.435554,0.225701,19.470612,-39.239719,-30.319198,-17.913116,-6.518841,32.581802,53.188001,64.587041,74.506528,43.055499,53.61046,56.494624,58.634103,25.902482,37.94716,44.954893,48.302407,7.58363,20.42695,29.329976,34.859182,-9.593248,0.000111,6.942302,12.126571,22.95631,46.349338,65.488781,80.523822,44.838375,77.631008,95.064594,107.314144,35.082836,72.00056,92.630298,106.617771,25.925136,60.061718,79.982746,93.88068,17.941143,43.887863,59.600051,71.627002,-15.616518,-14.486474,-3.257581,6.365529,9.302873,25.286559,31.429676,35.355767,27.202341,41.866162,48.186082,51.949486,40.046328,55.714112,60.277084,62.22489,47.944737,62.883915,66.065482,65.630919,20.334772,291.927623,-68.383592,286.605293
12,-3.896667,0.555902,-0.116318,-0.176495,-8.928463,-24.149723,-37.139809,-49.020424,-48.019078,-40.456513,-29.24247,-21.967747,-49.211231,-26.894486,-3.617043,17.092048,-44.482063,-20.866482,2.507767,21.649292,-37.087773,-30.08947,-20.410973,-11.359486,27.671088,46.845629,59.245581,70.089237,38.956754,49.639896,53.063401,55.841219,25.526793,37.098771,43.979607,47.406804,10.854907,23.584718,31.715394,36.842284,-2.927402,7.671044,15.302431,21.552512,23.03326,46.485271,65.625652,80.819034,44.451885,77.314144,94.921818,107.381023,34.701839,71.769138,92.5704,106.660023,25.713089,59.979709,79.996868,93.976993,17.945343,43.95956,59.692509,71.80299,-15.516878,-14.309596,-3.070663,6.502615,9.416395,25.408788,31.59634,35.644438,27.266846,41.942967,48.220465,52.009705,40.128135,55.833167,60.36582,62.323802,48.044278,63.059089,66.231454,65.814861,16.44627,292.491429,-68.491745,286.436702
13,-1.925675,0.409146,0.06673,-0.058959,-8.792896,-23.502617,-36.074031,-47.893386,-46.758052,-36.69239,-22.414821,-13.025905,-47.912727,-24.365009,-1.183067,19.393067,-43.261963,-18.759395,4.546028,23.420014,-35.976814,-28.560035,-18.903808,-10.094799,27.201933,46.341992,58.633955,69.360495,38.773158,49.523077,52.222842,54.275685,25.370848,36.694762,43.349419,46.554154,10.543586,22.856285,30.779554,35.745325,-3.48013,6.512964,14.020554,20.238673,23.085926,46.598614,65.759045,80.899796,44.295502,77.229767,94.907181,107.473755,34.58162,71.693734,92.524544,106.594139,25.677189,59.980328,80.02002,94.047684,18.001259,44.079151,59.777447,71.992813,-15.579431,-14.372804,-3.046531,6.655076,9.389372,25.36555,31.575073,35.748672,27.169897,41.798891,48.042969,51.835025,40.057134,55.680309,60.264092,62.238747,48.047254,62.999882,66.161614,65.790112,14.54976,292.901597,-68.39585,286.378765
14,-4.733963,2.001627,0.000241,-0.061232,-7.49208,-19.716076,-29.34177,-38.446884,-41.432418,-26.890754,-11.47681,-1.656772,-43.01334,-17.745517,4.923821,24.562958,-39.094665,-14.421535,8.627701,26.92495,-32.406177,-28.76976,-24.256405,-19.911998,20.52165,37.430346,50.262131,61.913705,32.756581,43.495409,46.78247,49.348731,23.852023,34.473032,40.650803,43.91546,13.296889,25.039706,31.991159,36.720673,3.0532,13.608235,21.659525,28.980234,22.967044,46.479801,65.689819,80.72826,44.159626,77.133213,94.945942,107.686031,34.550926,71.679302,92.594272,106.70248,25.769817,60.124534,80.174366,94.229633,18.242317,44.441162,60.123321,72.506939,-15.475308,-14.356254,-3.078468,6.685903,9.41963,25.295488,31.559882,35.870024,27.12419,41.717591,47.986566,51.812165,40.0013,55.522957,60.139517,62.109145,48.025963,62.899884,66.058714,65.711652,9.857425,294.892952,-68.353981,286.307261
15,2.472817,-0.924305,-0.102826,-0.060281,-9.858902,-23.283268,-34.094032,-44.677185,-45.537655,-31.707699,-12.920208,0.316795,-47.087265,-22.790486,0.661445,21.452247,-43.220158,-19.530693,4.578094,23.683662,-36.576393,-32.377556,-24.858593,-17.548668,21.038909,38.261852,51.244518,62.627046,32.802696,44.012705,47.150169,49.550383,23.532613,34.769212,41.019502,44.398991,12.764761,25.505835,32.13468,36.764664,2.376823,14.128704,22.656473,30.912936,22.916062,46.505311,65.817616,80.688057,43.803189,76.989235,94.944695,107.812386,34.288559,71.663498,92.754456,106.891961,25.671135,60.287293,80.446061,94.536988,18.386857,44.726212,60.478203,73.029419,-15.304481,-14.298764,-3.07701,6.804303,9.312568,25.175631,31.489253,35.922697,27.00826,41.647381,47.951344,51.810263,39.93167,55.430678,60.073666,62.052001,48.004413,62.831205,66.012154,65.721026,12.380511,293.948356,-68.406538,286.226689
16,-1.465027,2.902554,0.008,-0.018586,-8.455719,-21.125931,-31.078766,-40.556156,-43.432903,-25.238411,-5.344906,8.082573,-44.701469,-18.482883,4.55159,24.396881,-40.683666,-15.878609,7.569145,25.718216,-33.566208,-32.80315,-29.538597,-25.764656,19.40992,35.916089,48.135817,59.524779,30.136177,40.223687,43.334747,46.370187,21.470198,31.385807,37.599208,41.559991,11.240069,22.428268,28.975294,34.211741,1.393966,11.079234,19.25484,27.614846,22.739799,46.309696,65.697235,80.504436,43.741859,77.092564,95.069721,107.921276,34.307007,71.793629,92.885364,106.987049,25.726444,60.467056,80.635906,94.748211,18.505932,44.979332,60.736439,73.447391,-15.23999,-14.336655,-3.188199,6.737723,9.310406,25.118499,31.408494,35.889957,26.915485,41.502624,47.812491,51.695938,39.795547,55.187738,59.890193,61.913284,47.864288,62.620216,65.856246,65.684073,10.96114,296.829952,-68.352882,286.187145
17,5.93145,-0.948956,-0.020222,0.100789,-10.680004,-26.245857,-39.490208,-52.121418,-50.299301,-36.147961,-15.301312,-0.782227,-51.294422,-26.873852,-3.179718,17.668487,-46.602104,-22.314469,2.017776,20.978256,-38.973759,-35.176277,-27.061821,-18.921868,24.886824,42.842757,54.100042,64.460959,34.333377,44.830663,47.481621,49.609305,21.648163,32.39618,38.928744,42.853316,7.518693,19.426852,26.746648,32.385028,-6.027198,2.960821,10.422753,17.905619,22.557907,46.132885,65.587658,80.283348,43.858017,77.3302,95.265244,107.999977,34.447643,71.974594,93.023369,107.048767,25.818764,60.574116,80.669815,94.675965,18.566712,45.057736,60.778141,73.445343,-15.292848,-14.474519,-3.368708,6.507394,9.227438,24.972027,31.225145,35.675386,26.844052,41.355337,47.667958,51.574388,39.70901,54.99525,59.70919,61.762749,47.750198,62.406065,65.655644,65.548087,16.936735,295.854097,-68.328959,286.261035
18,-1.509773,2.401498,-0.255993,0.032456,-9.136059,-23.753403,-36.090752,-47.709973,-47.969651,-30.191494,-9.039071,5.324432,-48.646088,-22.704438,0.808685,21.106865,-43.768124,-18.913159,4.855384,23.297355,-35.82161,-35.382477,-32.236107,-28.262249,23.256527,40.40185,51.000567,61.469127,31.321254,41.332293,44.521059,47.590882,19.782189,29.887842,36.255322,40.501009,6.916108,17.903149,25.112732,31.237422,-5.302359,2.914101,10.54045,18.496879,22.455632,46.042488,65.544297,80.214627,43.807137,77.386814,95.378254,108.119557,34.408482,72.094151,93.203099,107.240536,25.834717,60.7015,80.803814,94.768284,18.673268,45.176411,60.90675,73.513333,-15.338963,-14.491809,-3.347169,6.424056,9.202528,24.890529,31.170336,35.624331,26.89654,41.388312,47.726695,51.662667,39.770933,55.038525,59.714476,61.781225,47.764919,62.37498,65.604242,65.492906,15.473225,298.223167,-68.538689,286.261063
19,4.640556,-2.318641,-0.168731,0.066789,-11.321938,-28.808693,-44.205895,-58.774098,-53.464863,-39.234787,-17.353455,-2.070007,-53.531696,-29.130455,-5.342262,15.548172,-47.971138,-23.802063,0.327988,19.152626,-39.598732,-36.199379,-28.151287,-19.808659,29.504186,49.010116,59.423582,68.927057,36.713423,47.494687,50.411221,52.734901,20.843036,32.182128,39.158826,43.356681,3.837627,15.958838,24.159614,30.546335,-12.252875,-4.61798,2.574671,9.918264,22.505218,46.111736,65.651699,80.362438,43.775837,77.589168,95.583171,108.256816,34.326015,72.227108,93.348255,107.356258,25.75708,60.731964,80.888317,94.858051,18.621185,45.128666,60.904907,73.466617,-15.522955,-14.635675,-3.42017,6.400936,9.105148,24.781712,31.02064,35.464373,26.866307,41.326735,47.605233,51.51128,39.756644,55.032251,59.653578,61.705272,47.731895,62.310019,65.469936,65.304222,20.157898,295.880242,-68.663303,286.303568
20,-3.417091,2.26167,-0.099587,0.069234,-9.005379,-24.526314,-38.057053,-50.81939,-48.800766,-31.490628,-11.040986,2.561851,-49.223305,-22.584938,0.279281,20.037139,-44.146054,-18.267506,4.908622,23.091545,-36.181172,-35.638653,-33.22807,-29.597443,26.734582,45.063314,55.429764,65.326836,33.666251,43.951461,47.068721,49.915155,19.820055,30.445905,37.122915,41.358821,4.855423,16.020885,23.845045,30.344017,-9.26718,-1.644636,6.071214,14.054851,22.459339,46.059975,65.617149,80.37624,43.98412,77.878658,95.828167,108.422848,34.477718,72.381306,93.450749,107.42712,25.853726,60.780911,80.888226,94.809712,18.660027,45.152355,60.916615,73.430294,-15.59288,-14.647481,-3.441103,6.346387,9.19297,24.80834,31.014305,35.420432,26.93348,41.310816,47.515411,51.367044,39.74837,54.994917,59.574822,61.588256,47.610161,62.188581,65.29906,65.069485,16.781245,298.127287,-68.722452,286.358177
21,3.14257,-1.886129,-0.306553,0.039607,-10.884796,-27.699669,-42.464584,-56.705818,-52.587879,-38.719608,-17.419933,-2.819298,-53.108929,-28.510162,-4.967972,15.764237,-48.090214,-23.798607,-0.04834,18.873253,-40.339828,-37.753006,-31.545387,-24.580994,27.935182,46.806726,57.766004,67.643377,34.93059,45.858808,48.82158,51.225351,20.656859,32.016885,38.860201,42.988229,5.358256,17.506106,25.321954,31.456845,-9.167837,-0.538649,7.351609,15.458191,22.500504,46.100121,65.690907,80.566704,44.063404,77.999748,95.963768,108.60624,34.551487,72.559044,93.640206,107.673386,25.956402,60.910504,81.014305,94.961815,18.800549,45.245156,60.987454,73.442322,-15.543937,-14.582397,-3.460159,6.151984,9.211099,24.690828,30.889631,35.296659,26.991451,41.279496,47.42339,51.238825,39.790879,55.040328,59.569585,61.528086,47.578433,62.155557,65.238446,64.952418,19.968206,296.230012,-68.984614,286.386638
22,-2.614563,0.654122,-0.114006,-0.11693,-9.122795,-25.048862,-38.814823,-51.491627,-49.735428,-33.245556,-13.286694,-0.388504,-50.141601,-23.867969,-0.788933,19.091721,-44.924297,-19.164196,4.064507,22.342598,-36.881275,-36.583603,-34.310829,-30.882797,27.226732,45.707112,56.484115,66.716269,34.524273,44.92172,47.878602,50.612589,20.81515,31.701254,38.064881,42.136073,5.992087,17.412468,24.970533,31.339199,-8.158847,0.27842,8.376728,16.554372,22.523232,46.110317,65.67643,80.728867,44.214157,78.110413,96.013481,108.681954,34.668972,72.717591,93.734368,107.812752,26.069996,61.038517,81.105263,95.160782,18.916763,45.381237,61.089031,73.566376,-15.574195,-14.590079,-3.42532,6.132618,9.179161,24.672105,30.897238,35.354445,27.012915,41.297811,47.382523,51.153596,39.836623,55.053221,59.532028,61.430075,47.60911,62.123569,65.156058,64.792533,17.391243,296.881244,-69.06102,286.266818
23,7.055374,-2.030106,-0.147491,-0.360339,-12.293037,-30.963089,-47.056194,-61.770881,-55.754757,-47.655464,-32.608658,-22.6539,-55.999248,-35.205128,-11.900024,9.241448,-50.784004,-28.742214,-5.22393,13.862023,-42.82354,-41.744488,-35.576546,-28.388386,29.374016,48.19359,59.234502,69.329225,36.407981,46.115911,49.597177,53.096721,21.820508,32.827976,39.860175,44.262831,6.234741,18.225819,26.263784,32.559707,-8.867434,-0.319719,7.780329,15.793952,22.400345,45.883804,65.451713,80.783706,44.488094,78.187706,95.999382,108.704773,35.091545,73.009598,93.991653,108.248062,26.503017,61.304523,81.367813,95.620376,19.243549,45.600563,61.215065,73.699699,-15.823271,-14.844947,-3.656538,5.692585,8.951426,24.374592,30.653868,35.196945,26.860404,41.10058,47.249254,51.060243,39.736625,54.859424,59.388335,61.335931,47.582237,62.039009,65.104411,64.754212,24.474638,294.861685,-69.18049,285.917026
24,3.99083,0.922155,-0.349617,-0.994737,-13.950966,-34.073307,-51.204735,-66.662201,-58.443249,-52.036206,-36.839173,-26.597374,-57.788647,-40.244019,-16.655571,5.161377,-52.010846,-33.243473,-9.680443,9.733566,-43.638806,-46.426518,-43.337357,-38.574303,29.691797,47.914479,58.508108,68.251459,34.982016,43.790861,47.736996,52.122054,20.367608,30.474409,37.968859,42.970939,4.825993,15.69945,24.324192,31.234841,-10.177801,-3.70369,4.050321,12.183456,22.094799,45.401355,65.021816,80.802017,44.943374,78.2238,95.967293,108.646934,35.822742,73.199112,94.145256,108.43277,27.223194,61.549427,81.465545,95.609138,19.794204,46.019497,61.391842,73.779304,-16.200159,-15.109486,-3.972379,4.646212,8.703918,24.231726,30.932127,35.879657,26.634484,41.225378,47.807786,51.988388,39.536319,54.761747,59.630273,61.884064,47.474186,61.936021,65.255736,65.206286,28.496538,295.795276,-69.499037,284.933725
25,4.36956,-0.723369,-1.062504,-2.021029,-13.9216,-33.792595,-51.339546,-66.918572,-60.46249,-55.954193,-40.017883,-28.851929,-60.428032,-46.877438,-23.868736,-2.261261,-55.12936,-41.939243,-20.018921,-1.745659,-46.842888,-50.909065,-47.172913,-42.281628,23.372828,37.392752,46.188123,53.581364,29.590131,39.564848,44.311046,48.9219,19.145481,29.661045,37.917149,43.603695,7.391969,18.692517,27.50519,34.346691,-4.077527,2.559271,10.167589,18.337946,22.271965,45.170814,64.77198,80.967808,45.281284,77.768246,95.241268,108.118526,36.508278,72.733829,93.380665,107.851078,27.981113,61.175194,80.759136,94.936764,20.392696,45.904884,60.949814,73.346374,-16.9825,-16.317324,-6.329813,0.784724,8.064307,23.859642,31.286488,36.991658,26.011916,41.769522,49.368935,54.300842,38.968733,55.088567,61.001811,63.987333,47.080798,62.003527,66.176866,66.733645,32.908682,295.08494,-70.518957,282.925729
26,7.648544,-1.753291,-1.949364,-3.055645,-14.719368,-35.442432,-54.047825,-69.862152,-59.058895,-62.696319,-54.881092,-49.077244,-59.147964,-57.859142,-43.023891,-27.30962,-54.830623,-53.567848,-39.31596,-26.332718,-48.099094,-59.898868,-62.056217,-61.751861,22.876391,36.781904,46.040909,53.885854,32.355128,41.81476,46.145119,50.330525,22.931509,30.490414,35.617452,38.501258,11.388455,18.465682,23.294984,26.944137,-0.531029,3.146974,8.115918,13.661611,22.068054,44.267464,63.344032,79.669728,45.153099,76.760903,93.812794,106.641026,36.649601,71.462082,91.739216,106.26376,28.301995,60.155171,79.488556,93.56004,20.702316,45.532894,60.283905,72.473923,-19.119163,-19.803061,-11.735061,-6.664179,5.118145,21.699156,30.147032,36.862748,23.10173,40.113018,48.886306,54.755905,36.411513,53.432162,60.391038,64.334222,45.400817,60.724317,65.885231,67.260426,40.59732,293.356942,-72.428227,279.895377
27,11.748574,-4.380216,-2.258308,-5.996311,-19.631402,-42.811078,-62.255425,-77.415551,-62.384091,-75.711766,-74.170453,-72.001729,-60.551857,-71.165669,-64.429425,-54.728898,-55.205441,-64.824898,-58.291489,-51.215985,-47.89,-62.507023,-66.080945,-67.387528,14.904511,25.950771,35.243874,42.546182,29.596886,41.426326,47.473074,52.574004,25.975817,36.496284,42.956402,46.641815,19.653488,29.167782,34.826071,38.718656,12.153777,18.11867,23.569564,29.403545,21.713562,43.231945,61.383041,77.22139,42.581325,73.066417,89.742851,102.096393,35.500625,68.782459,88.193035,101.253994,28.399292,58.589309,76.714474,89.095516,21.655563,45.304722,59.26807,69.899265,-16.688037,-16.361834,-8.559966,-4.099351,3.572187,19.53373,28.298472,35.723441,20.203351,37.19725,46.954877,53.737567,33.249447,50.468525,58.29555,63.292134,42.908867,57.883477,63.642617,65.942857,52.394371,289.011401,-74.638058,273.933741
28,7.152488,-4.69171,-9.966145,-10.906766,-20.458648,-43.56982,-62.520996,-76.669201,-59.204429,-74.340843,-74.622413,-74.145824,-55.530464,-72.794208,-74.34177,-72.161178,-48.92902,-65.658348,-67.26947,-66.886608,-40.832371,-58.978409,-67.244488,-73.215408,5.331123,13.625129,22.917035,29.637937,26.316642,42.340158,49.79631,55.101424,29.077552,43.426298,50.596583,54.666664,28.325334,40.718765,46.898944,51.238763,25.466462,34.595236,40.516298,46.375053,20.430508,40.724545,57.645458,72.618622,42.389214,74.259373,90.718552,101.941841,37.623986,73.370808,92.399334,103.668251,32.383301,65.10046,82.547871,92.981529,26.977078,52.42725,66.153809,75.356129,-19.258199,-21.900598,-18.044186,-16.496338,0.496239,15.92206,24.418509,31.636762,17.903989,34.596891,43.526754,49.402183,31.400418,48.038499,54.81657,58.985303,41.529289,56.073265,61.435337,63.547288,59.584528,284.511593,-84.566534,263.218877
29,9.5476,-7.526758,-8.635219,-11.915816,-20.041168,-42.310821,-60.746498,-73.907536,-55.73093,-76.292725,-83.642509,-88.288971,-50.891109,-75.141632,-84.774136,-89.129951,-43.487709,-66.17141,-75.51075,-80.979298,-34.990551,-54.076309,-63.962254,-71.748608,-4.050358,0.862283,9.561483,16.250979,24.716566,44.582723,53.76885,59.413752,33.934309,52.240145,60.119843,64.275189,38.643791,54.713076,61.174552,65.57338,40.181709,54.811629,61.771296,67.465709,17.591709,34.08958,48.055858,60.215229,36.622684,66.84312,82.661304,93.667328,34.991684,70.699848,88.387584,98.17337,32.659458,65.796833,81.663265,90.537162,29.655452,55.385536,68.311969,76.16851,-20.755153,-27.148705,-28.323864,-30.56717,-4.190976,8.727297,16.631782,23.144178,13.408274,27.424519,35.398634,40.344224,27.407463,41.948525,47.463182,50.619344,38.395455,51.534041,56.372099,58.089131,69.100256,277.313851,-93.233625,251.632077
30,12.45163,-9.421075,-9.122006,-10.229672,-22.890313,-46.31099,-64.985939,-78.691212,-55.76278,-82.651612,-95.544342,-103.801895,-48.384064,-79.149617,-94.465542,-103.091469,-39.028267,-65.914833,-79.446099,-87.955731,-29.274742,-48.070473,-57.408863,-64.259159,-4.717386,0.213977,8.258327,15.054207,28.139033,48.964594,59.182002,65.350584,38.272078,58.88113,66.953576,70.753955,43.063478,61.034527,67.903211,72.51735,43.652379,60.275367,67.03873,71.484438,13.037922,24.880326,35.40287,44.347687,29.394745,56.846546,71.889897,82.723286,30.827545,65.395111,82.009838,91.466194,31.24902,63.764992,78.308132,86.566658,30.637459,55.339119,67.608593,75.047276,-22.557327,-32.573454,-37.686437,-43.135182,-9.820773,0.356893,6.912057,12.206303,7.717752,18.24884,24.205976,27.796244,22.011441,33.547356,37.084654,38.941119,33.540798,44.815658,48.923752,50.457188,81.36208,268.478068,-102.545437,241.987697
31,3.287933,-8.711304,-11.70385,-7.935657,-23.50985,-44.627678,-59.678513,-69.85738,-54.133186,-76.945209,-86.128418,-91.544369,-45.278847,-70.354053,-81.82505,-88.153278,-34.02372,-55.337448,-65.398029,-71.639477,-21.95034,-35.979538,-42.579666,-47.440704,-10.572732,-8.056736,-0.148361,6.2083,21.99199,43.695778,53.640126,59.475799,36.337808,60.22409,69.313973,74.038053,45.677435,67.610119,75.633967,80.932684,50.903063,70.866268,78.129709,82.547988,11.671669,22.153416,30.607521,37.392277,28.968167,55.219529,68.826153,77.691994,31.906426,65.407483,79.76635,86.249062,32.936154,64.451489,77.052201,83.182011,32.234906,55.787075,67.224667,73.419434,-15.560881,-24.373122,-29.807714,-35.939246,-6.679727,0.97872,6.05159,10.05172,7.436022,15.144524,19.548588,21.961312,18.73857,27.569052,29.715929,30.81411,27.715845,36.273514,39.136621,40.573726,84.29944,260.796615,-114.59986,235.081891
32,13.114174,-22.483485,-11.609298,-3.622192,-21.449478,-41.120522,-55.288651,-65.166573,-54.924339,-79.355496,-87.593033,-91.114231,-47.914902,-74.590393,-84.53302,-88.266769,-38.022583,-61.286064,-70.073158,-73.795761,-27.042755,-43.449417,-49.779923,-53.001274,-13.19011,-14.008884,-9.88198,-6.096044,15.998,35.690664,45.295656,50.721479,31.313868,53.662664,61.889326,65.7035,41.711057,62.611558,69.532804,73.841846,47.870315,67.413431,73.548557,76.512243,11.942733,21.763927,29.470997,35.471443,31.361126,54.75658,66.535011,74.657787,33.303932,63.435093,76.104171,82.828949,32.868049,61.370945,72.74144,79.343376,30.612671,51.466255,62.027538,68.848056,-13.092965,-21.663712,-28.31643,-34.797259,-4.212058,2.907357,8.04761,11.882471,7.384225,14.312288,18.482145,21.077873,16.254548,23.673218,26.136504,27.485009,22.959729,30.159432,32.897149,34.246296,96.874981,239.881721,-126.747791,233.02829
33,13.486519,-28.270262,-8.942196,0.133652,-19.070275,-36.990715,-49.682694,-58.217949,-56.129208,-82.408871,-90.314804,-92.616612,-51.606995,-80.008988,-89.149155,-91.198139,-43.790577,-68.855862,-76.934304,-79.380707,-34.118637,-52.704758,-59.238831,-61.870194,-15.687075,-20.58831,-20.505573,-19.538133,7.822635,22.616227,30.245306,34.259694,23.416284,41.30548,47.363779,49.825253,34.48306,51.658048,56.513032,59.331259,41.702202,58.622701,63.031557,64.360438,12.005052,21.589428,28.846836,33.869579,31.793867,52.135162,63.268879,72.137111,32.743377,57.859726,69.38665,77.181301,31.417808,54.850759,65.47689,73.264927,28.449445,45.403644,55.349974,63.007015,-7.635117,-13.160556,-17.823009,-22.25436,1.155789,7.348478,12.740216,17.169171,9.380376,15.68676,20.776809,24.787962,15.599371,22.453278,26.605116,29.626668,20.164208,26.438309,29.948011,32.301542,109.818049,213.793839,-136.233438,235.344322
34,14.04602,-32.960573,-15.165802,0.30627,-16.342964,-33.005974,-44.683616,-52.319389,-57.926685,-86.134426,-94.849754,-97.585602,-56.258308,-86.441276,-95.900642,-97.934086,-50.886715,-77.952724,-86.580826,-89.3386,-42.516174,-63.537803,-71.268837,-74.511383,-18.252137,-27.226738,-30.850107,-33.587593,-3.294354,5.278002,9.576239,11.354817,11.982806,23.775242,26.251666,26.769996,23.623176,35.340909,37.182634,38.00116,32.169556,44.550134,46.491962,45.896096,12.542238,24.309345,32.731281,38.054912,38.244398,60.787548,72.99741,82.617656,38.317257,63.367195,75.726665,85.011703,36.260605,58.881151,70.823044,80.226437,32.767576,48.970138,59.719614,68.503017,-5.351711,-8.23774,-10.092932,-11.207533,9.374497,16.134944,21.454841,26.590629,16.144108,23.749425,29.036149,33.674266,20.205173,27.889178,33.250843,37.549826,22.253953,28.881316,33.065444,36.460012,123.376098,184.256245,-151.887211,239.073571
35,15.792984,-33.423281,-12.1451,-5.084702,-13.675781,-30.404754,-42.425148,-49.048828,-59.003551,-89.862087,-100.839225,-105.713196,-60.15168,-92.712433,-104.09626,-108.564067,-57.570362,-87.088977,-97.980926,-103.079704,-51.577537,-75.651169,-85.404876,-90.718689,-21.17463,-32.391586,-38.117415,-43.50847,-14.145334,-11.617485,-11.153677,-11.961997,0.007561,4.95032,3.775145,1.874415,11.950952,17.489767,15.936355,14.076741,21.91448,29.210393,28.904753,26.701443,16.520983,33.533386,45.637894,54.20866,46.254839,72.192284,86.192047,96.15889,44.379707,71.474476,85.446499,94.763157,41.009835,65.33864,79.181877,89.248089,36.637076,54.28513,66.216151,75.584919,3.071256,6.468998,8.845092,11.032644,21.1297,28.862877,33.972675,38.965016,23.346886,32.184642,37.614973,42.134813,23.117273,31.337087,37.039033,41.71467,21.505464,27.478334,31.233815,34.704534,138.719667,155.217691,-164.481726,238.373596
36,19.200875,-30.685435,-7.046642,-13.066165,-10.108155,-27.243233,-41.837014,-49.922974,-59.850689,-94.916073,-109.946686,-118.670037,-63.910836,-101.117066,-117.269715,-126.06712,-64.28056,-98.404232,-113.729348,-122.697029,-60.794907,-89.066803,-102.039917,-110.636742,-27.374717,-44.416373,-55.698047,-65.887152,-26.677104,-29.080087,-29.855499,-31.132196,-11.428244,-12.165282,-14.725222,-16.897531,2.210461,2.531817,0.248836,-1.418734,13.931739,17.575171,17.054041,15.416235,15.923635,34.148277,47.413719,56.747085,48.664942,78.989284,95.171665,106.298893,47.395798,79.09053,95.437763,106.219871,44.845791,73.242445,88.754825,99.342178,41.703741,62.603874,75.61286,85.14172,-2.351048,-1.091945,-0.363278,1.75998,17.984357,24.445426,29.054329,34.02118,23.218976,30.760888,35.477903,39.608332,25.380796,32.714739,37.615597,41.644941,25.369805,31.458359,34.510947,36.924326,157.573935,129.555529,-171.874975,230.330704
37,8.752304,-13.208876,-7.796311,-21.661748,-8.062065,-24.364403,-39.448838,-48.085099,-57.687756,-91.753201,-108.861763,-120.696808,-62.821381,-99.247216,-117.988907,-130.344624,-64.519856,-98.153195,-115.93863,-127.991593,-62.176552,-90.214257,-104.945114,-116.14,-28.177948,-46.564516,-58.596074,-70.395074,-32.503601,-38.369054,-41.638627,-44.61039,-18.096332,-23.557541,-28.695877,-32.629838,-4.567369,-8.662051,-13.243543,-16.769763,7.773154,7.449449,5.279373,2.328735,13.073222,31.284394,44.193741,52.536347,51.513102,87.369645,105.669938,117.321225,53.02406,90.677479,109.074566,119.87764,52.743245,86.826914,104.246167,114.532254,51.481676,77.402962,92.082522,101.470139,-8.74949,-12.097715,-14.735371,-15.870152,12.503724,14.38671,15.629838,18.365499,20.520866,23.280467,24.085162,25.315304,24.383935,27.810595,28.822943,30.268329,25.246675,28.776427,29.251738,30.053728,166.166634,121.85491,-179.830891,214.177213
38,6.252044,-2.736547,-4.254112,-24.251709,-8.220131,-24.584701,-39.439705,-47.45034,-56.319534,-89.130592,-108.30265,-123.278709,-61.166977,-95.8992,-116.949234,-132.399559,-62.59655,-94.964378,-114.747757,-129.375137,-60.307411,-86.839439,-102.880622,-116.31681,-27.719309,-45.907386,-58.155753,-69.64451,-34.237133,-39.877193,-43.295004,-46.159501,-20.781378,-27.213801,-32.190656,-35.561815,-8.146503,-13.759387,-18.198445,-21.206623,2.982638,1.389922,-0.286657,-2.385795,12.147274,31.019451,43.31947,50.41206,55.319927,92.664311,111.075531,122.647785,57.68248,97.106095,115.751141,126.033016,57.535057,93.354126,110.91465,120.660885,56.227776,83.046536,97.717816,106.791321,-11.664838,-18.417696,-25.024786,-30.900912,4.762946,1.664347,-1.557197,-2.853326,12.91655,9.764179,5.641036,2.970171,16.857752,15.088504,11.345175,9.347803,17.828715,17.321176,14.398708,12.733534,172.276239,124.095946,-184.227442,194.903087
39,3.192719,12.589853,-0.536213,-26.658406,-10.768273,-27.876709,-42.686371,-50.475769,-56.182732,-89.97448,-109.297875,-123.097618,-60.904038,-96.272827,-117.399628,-132.03804,-62.439263,-95.157761,-114.6633,-128.150803,-61.005776,-87.511093,-103.360428,-116.095162,-25.517326,-41.177058,-52.426297,-62.213966,-27.041888,-31.715956,-34.506519,-36.53226,-14.453449,-20.215442,-24.609515,-27.791415,-3.256648,-8.177804,-12.329772,-15.340531,5.793109,4.631232,3.423672,1.807571,11.738652,30.590126,42.797161,48.733784,56.850666,92.353489,109.991261,121.098244,60.515431,98.108666,115.790715,125.481526,60.93433,95.045689,111.295452,119.961422,59.605706,84.974236,98.551003,107.132309,-14.373334,-24.134308,-34.200527,-44.616531,-8.68023,-16.639346,-23.311929,-27.789791,-0.222777,-10.043531,-18.168737,-23.968502,4.958904,-2.716672,-10.321624,-14.969294,7.803851,2.261943,-3.980221,-8.105396,175.321404,140.067616,-184.911209,171.626498
40,3.112564,15.97527,-2.494777,-22.372859,-13.511604,-30.838829,-44.941772,-52.722519,-57.825417,-90.364746,-110.107201,-124.50444,-61.495285,-95.626946,-116.93541,-131.38916,-61.688667,-93.497543,-113.097542,-126.551102,-59.277351,-85.042328,-101.015671,-114.184799,-22.814146,-35.761602,-45.164152,-51.517331,-17.668373,-17.370452,-16.984179,-16.062782,-5.615249,-6.067978,-6.920171,-7.123774,4.304504,3.754055,2.619076,2.007432,11.180524,12.799762,13.541724,13.71691,8.110336,24.255798,33.929603,35.558944,56.750415,90.663276,106.941066,117.374713,63.060699,98.40208,114.678199,123.889801,64.88285,96.91658,111.820713,119.536468,63.962894,88.906746,101.550613,109.245815,-23.342959,-40.151835,-55.291214,-69.546353,-24.828927,-39.534998,-49.32376,-55.985826,-12.596152,-30.275128,-42.049796,-50.259037,-3.714164,-18.351562,-29.442288,-36.591992,2.407179,-8.230676,-17.264903,-23.85889,178.534412,158.095964,-187.305542,151.306717
41,2.698517,15.828533,-3.675854,-12.54196,-16.717209,-34.83815,-47.90474,-54.180519,-60.347466,-91.753945,-111.600838,-126.512581,-62.054123,-95.038925,-116.338577,-131.4478,-60.312836,-91.095726,-111.075989,-125.268563,-56.514702,-81.6446,-97.739639,-111.13662,-19.621811,-28.785517,-34.918926,-37.659798,-7.088089,-2.587645,0.5432,4.129633,3.552686,8.020174,10.641257,13.516369,11.680646,15.868411,17.940403,19.871974,16.604006,21.309054,23.754136,25.544991,6.046486,20.084038,28.172058,27.913788,54.672878,85.16708,100.605389,111.724754,62.382099,94.083458,109.54747,119.618397,65.492809,95.07661,109.418381,117.735992,65.448807,88.917137,100.85226,108.81007,-25.781458,-45.403139,-62.844178,-79.080875,-32.793804,-51.71676,-63.950425,-73.036442,-20.906503,-43.504474,-58.251837,-68.758972,-11.794656,-31.204385,-45.001391,-54.365476,-4.872632,-19.595425,-30.635837,-38.856576,181.422266,174.795406,-190.792059,139.635666
42,1.627876,12.799039,1.438351,3.194892,-18.984993,-37.503845,-49.522636,-55.435593,-62.029541,-93.171364,-113.08017,-128.712364,-62.17511,-94.40435,-115.700043,-131.931267,-58.700775,-88.342918,-108.502029,-123.851807,-53.348259,-77.201866,-92.875397,-106.185196,-17.119444,-24.062086,-28.876123,-30.792214,-0.280847,5.658641,8.625513,12.109311,8.744815,14.763813,17.340652,20.401261,14.563285,20.440572,22.961205,25.686207,16.89314,23.028433,26.265476,29.142378,3.928928,15.964736,23.197368,22.220626,50.02985,80.228977,94.068775,103.148986,58.728035,90.176879,103.474582,111.150627,62.716644,92.022628,104.147197,110.575195,63.517341,86.415355,96.449512,102.502853,-27.109696,-48.009549,-66.226526,-83.2765,-38.413801,-59.052857,-72.134614,-81.472406,-25.529485,-50.224172,-66.435774,-77.483941,-15.045148,-36.776841,-51.833431,-61.693435,-6.660578,-23.478772,-35.248456,-43.761214,183.218902,187.129813,-189.184948,142.365926
43,-0.65197,0.974977,4.602687,16.773191,-19.376243,-37.656692,-49.318245,-54.805321,-64.881981,-97.206138,-115.932197,-129.472961,-65.891212,-99.77108,-119.4207,-133.667747,-63.344192,-94.285652,-113.012626,-126.471931,-58.476951,-83.879402,-98.903206,-110.575012,-17.710957,-24.785319,-29.852323,-32.530216,1.253842,4.431827,5.411534,7.933872,9.789058,13.848981,13.924051,15.322333,14.935486,19.930686,19.976845,20.85409,16.713885,21.655734,22.898331,24.299726,4.852147,17.226139,26.382557,27.194928,52.115216,76.867699,85.499325,91.240174,61.956047,87.810997,95.628754,100.407235,66.718163,90.817978,97.770264,101.363903,68.121746,87.063961,93.122795,97.060936,-27.246079,-47.490328,-63.702892,-78.390463,-39.956759,-61.997865,-71.30548,-76.140543,-26.669429,-52.58491,-65.158862,-71.955779,-15.356111,-38.096238,-49.857042,-56.159549,-5.452086,-23.876495,-33.028585,-38.474237,182.642641,187.077474,-184.506552,158.111801
44,0.945488,-8.012771,7.660653,29.858127,-18.031265,-35.857773,-46.650627,-51.545929,-65.81797,-96.014282,-114.429954,-130.231407,-66.285187,-97.815239,-117.267013,-134.157738,-62.672172,-91.73426,-110.790596,-126.738693,-56.233406,-80.067581,-94.962593,-107.801925,-21.646909,-31.86672,-39.066645,-44.839691,-9.389069,-9.699779,-11.334201,-11.165098,-0.859516,-0.18459,-2.875407,-3.985816,4.81305,7.000194,4.605099,3.40133,7.802418,10.096014,10.004067,10.21844,9.678222,24.190692,34.245655,36.100364,55.796848,77.830925,82.12294,83.631282,62.931392,85.933067,89.987823,90.734104,65.336895,87.227748,90.915493,91.186615,64.757274,82.831604,86.283943,86.95951,-17.71468,-34.391058,-48.423061,-60.767315,-31.882979,-49.021738,-54.523582,-56.86254,-23.170305,-42.505025,-50.328871,-54.089835,-15.275601,-32.064717,-39.569757,-43.576549,-7.753666,-21.432043,-26.96517,-30.23554,183.442446,177.852579,-176.991582,186.757804
45,-0.417435,-14.159857,6.233711,35.872265,-15.498092,-32.578674,-43.541427,-48.267562,-63.886116,-94.098106,-111.489967,-126.41455,-65.382339,-96.946266,-115.609222,-132.238632,-63.182235,-92.078681,-110.634017,-126.561653,-57.749816,-81.387084,-95.89318,-108.433593,-25.644489,-39.77005,-49.568315,-59.160112,-22.724868,-29.924435,-36.221649,-40.268641,-14.304736,-20.72873,-28.446556,-33.83457,-7.721278,-11.632542,-18.317611,-22.909217,-2.591788,-4.563936,-7.72673,-10.434449,8.599502,21.175449,29.203228,31.46751,51.524597,74.666416,79.460483,81.019592,57.711685,82.068409,86.620983,87.572651,59.882927,82.3251,86.198696,86.616554,59.696388,77.255436,80.707226,81.372047,-13.347166,-26.214599,-37.919013,-49.293711,-20.567055,-32.35858,-35.208485,-35.334672,-13.642117,-26.588967,-31.325662,-32.773333,-7.843827,-19.055516,-23.658768,-25.303688,-2.26921,-11.663275,-14.935788,-16.228817,182.304067,162.016059,-171.478815,220.953406
46,-1.016716,-14.128031,4.985355,30.881499,-12.618576,-28.322502,-39.201576,-44.275039,-61.44342,-90.956245,-107.219993,-120.83876,-64.971244,-96.269577,-113.911743,-129.138771,-64.630485,-93.425972,-110.840469,-125.743881,-60.451744,-83.923416,-98.037826,-110.402229,-29.625297,-48.359533,-62.079288,-75.952513,-36.78272,-49.953107,-60.124345,-68.037956,-27.705354,-40.469059,-52.620181,-62.260903,-19.822858,-29.602067,-40.287531,-48.484287,-12.459683,-18.303304,-23.873148,-29.130701,7.384197,18.838406,26.442501,29.668705,48.089241,71.337639,77.304566,79.905464,53.993065,78.607739,84.219269,86.537796,56.192608,78.014122,82.620152,84.203648,56.367291,73.202774,77.135182,78.91983,-9.193068,-17.692376,-25.743414,-34.590568,-7.01925,-14.861355,-15.383127,-13.406959,-2.31243,-10.439568,-12.356177,-11.52322,0.79001,-6.344299,-8.088687,-7.296318,3.64893,-2.372945,-3.179418,-2.191411,180.430423,146.099153,-167.350388,250.04603
47,-0.809921,-10.730622,0.575089,20.740061,-9.811134,-24.152984,-34.895942,-39.821937,-58.413917,-88.342232,-104.240341,-116.512115,-64.252693,-96.507751,-113.584282,-126.463669,-66.257332,-96.215217,-113.000358,-125.954613,-64.00898,-88.632751,-103.024727,-115.034431,-32.926468,-55.069289,-71.497449,-86.144493,-46.525132,-62.602661,-73.886208,-82.840438,-35.812213,-51.912658,-65.506264,-76.240004,-25.601678,-38.930659,-51.553388,-61.54868,-15.627016,-24.518539,-32.02984,-39.335482,8.142563,19.17469,26.584259,30.491443,48.881561,69.702907,77.857669,84.014007,53.681064,75.547302,83.691421,90.141803,55.16914,74.475494,81.395004,86.133087,54.825771,69.621814,75.502144,80.649067,-4.162187,-9.245864,-15.385473,-23.038004,4.235412,0.5849,1.666891,4.125409,6.099397,2.483577,3.134748,5.113008,6.31729,3.278824,3.76039,5.550745,6.732302,3.951496,4.916333,6.685853,178.809934,133.691834,-167.585867,269.109394
48,1.298516,4.476855,-0.467068,5.993254,-9.673371,-24.661011,-35.982262,-42.369942,-56.271218,-86.774849,-102.395119,-113.869904,-61.987816,-94.952637,-111.805092,-123.837136,-63.635788,-94.265076,-111.19851,-123.930405,-61.188859,-86.375771,-100.884522,-112.788483,-33.411777,-55.916838,-72.793368,-88.04622,-46.759227,-64.220916,-77.239749,-87.745933,-35.860959,-53.832928,-69.172428,-81.412422,-25.740813,-40.768103,-54.692513,-65.779459,-15.771759,-25.651646,-34.17077,-42.386693,5.098875,13.290659,18.32488,21.125616,41.741158,67.255302,81.768076,92.527491,46.289595,73.092184,87.704807,98.66946,48.23045,72.191351,85.064896,93.670143,48.457523,67.274477,77.862076,86.0961,-2.744274,-6.915947,-12.766218,-19.774334,10.296005,9.732106,8.733201,8.396908,11.85758,11.555571,10.61405,9.919055,11.273897,11.03383,10.064157,9.590266,10.253273,10.405698,10.150595,9.703466,179.572535,136.705242,-168.58885,273.639201
49,1.650924,11.502657,-1.578552,-8.443455,-10.026443,-24.782066,-35.885353,-42.085235,-55.222458,-86.275841,-102.62455,-113.586754,-61.437263,-95.570274,-113.113014,-124.422088,-63.852241,-95.471649,-112.77951,-124.815376,-62.354004,-88.479126,-103.439598,-115.190803,-30.160587,-50.159366,-65.370388,-78.595023,-38.540995,-54.184918,-66.294872,-75.976194,-28.176367,-44.931471,-59.402945,-70.690346,-18.930842,-33.341375,-46.522581,-56.735266,-10.457105,-19.569002,-28.087033,-36.096691,-1.201807,3.627187,7.140077,9.947988,35.034908,63.766937,83.207067,98.993276,41.809026,72.562837,91.958359,107.979355,45.823906,73.174993,90.466736,103.496967,48.103626,68.75247,82.770881,94.758693,-10.13901,-16.07462,-21.766859,-27.170774,9.065084,3.967903,-0.318483,-2.616278,14.434894,8.950309,4.303763,1.351705,16.05123,11.087997,6.824063,4.487631,16.030432,12.463778,9.444393,7.170464,181.094902,147.093477,-170.295959,264.081324
50,2.039383,20.431328,-1.621972,-18.897293,-11.263023,-26.442856,-37.26503,-42.724617,-55.834694,-87.886276,-104.865188,-116.543243,-61.473358,-96.666206,-114.805481,-126.857254,-63.221557,-96.066078,-113.756538,-126.217895,-61.398651,-88.639137,-103.887794,-115.743942,-25.575773,-41.779384,-54.183782,-64.51186,-25.625902,-38.462831,-48.753624,-56.914095,-15.785239,-29.486297,-42.023928,-51.577235,-7.955046,-20.058633,-31.510593,-40.121237,-1.776794,-9.588141,-17.385866,-24.205198,-0.566156,5.554659,11.191962,15.207522,38.73024,66.232213,85.603575,102.479857,45.912467,75.549265,94.701497,111.523613,49.590203,76.439158,93.769295,107.585965,51.157277,71.652289,85.814118,98.262429,-11.789623,-19.303265,-24.989194,-27.087967,3.684363,-5.290003,-11.861958,-16.390745,9.813197,0.211477,-6.982952,-12.142589,12.31759,3.864014,-2.516366,-6.845237,13.099362,7.09427,2.472042,-1.412473,183.656473,167.09396,-171.395743,244.753186
51,1.622841,22.682254,-1.512233,-19.509845,-11.096031,-26.563614,-37.903976,-45.358864,-56.05339,-88.878822,-107.272842,-120.52494,-61.145531,-97.207855,-116.537178,-130.019096,-62.578079,-95.652168,-114.488205,-127.763718,-60.954895,-87.936241,-103.512085,-115.459602,-21.751021,-34.083047,-43.280073,-49.474331,-12.884125,-23.38196,-31.904703,-38.396202,-3.619383,-14.962767,-25.592557,-33.720449,2.542456,-7.58497,-17.230008,-24.725822,6.052905,-0.580448,-7.537323,-13.722294,0.955759,8.531622,15.754068,19.593229,42.768471,69.553848,87.645899,103.881151,49.881094,78.728868,96.730831,112.5588,53.04776,79.359072,96.109279,109.483783,53.778465,73.584303,87.529964,99.613117,-13.291233,-22.996273,-29.713508,-30.491131,-4.587179,-16.933254,-26.324738,-33.303473,2.757125,-10.728498,-20.963616,-28.739778,6.744405,-4.683145,-13.764735,-20.361229,8.65122,0.584233,-6.03819,-11.665314,186.067778,189.548666,-172.119512,225.015793
52,0.302444,20.974855,-1.339794,-20.081518,-10.116485,-25.981681,-38.749534,-47.365745,-55.615173,-87.924407,-107.118415,-122.127365,-60.333915,-95.926071,-115.658317,-131.24105,-61.376586,-93.6473,-112.660514,-127.292312,-59.824172,-85.993309,-101.45121,-113.813072,-18.402265,-27.065008,-32.981093,-36.466916,-2.14558,-11.81667,-19.473252,-25.055094,5.50852,-4.910109,-14.213704,-21.383538,9.163317,0.219992,-8.037347,-14.384697,9.674425,4.255258,-1.978446,-7.151686,0.917879,9.089693,17.338846,21.145963,43.907901,70.17437,87.220007,102.846433,51.738836,80.271337,97.366997,112.543098,55.366172,81.413103,97.74274,110.884094,56.355045,76.28037,89.705715,100.997898,-15.99206,-27.717747,-34.715884,-33.563856,-11.318764,-27.511235,-38.520209,-47.187114,-2.620323,-20.261625,-32.983834,-43.144031,2.589652,-12.26633,-23.509246,-32.110072,5.222739,-5.217391,-13.431653,-20.498339,187.188852,210.509828,-172.640676,204.920582
53,-0.558746,13.132349,-1.661431,-15.495222,-7.277092,-21.412079,-34.602997,-43.27121,-52.377525,-82.838219,-103.232551,-121.266289,-57.722214,-91.331474,-112.340996,-131.078407,-59.594902,-89.821152,-109.65184,-126.4086,-59.138786,-83.416122,-98.954681,-112.335159,-15.856827,-22.598959,-26.546329,-27.539856,1.928107,-6.362627,-12.112874,-16.573835,8.967605,-0.364673,-7.39334,-13.215514,12.149221,3.894228,-2.532594,-7.880291,12.134944,7.231134,2.124869,-2.26461,0.74746,8.806984,17.873223,21.963867,44.035309,69.83305,86.191681,101.36768,52.748783,80.937996,97.432492,111.928631,56.912991,82.640465,98.564999,111.348198,58.223133,78.397637,91.352394,101.848584,-17.936729,-31.389112,-38.80906,-36.258323,-15.688199,-34.558445,-47.003234,-57.099334,-6.019529,-26.945737,-41.727971,-53.647332,-0.077287,-17.742079,-30.884932,-41.228243,2.875655,-9.439835,-19.030069,-27.40437,187.310194,223.762529,-173.622019,189.545712
54,-2.531708,5.637837,-2.05093,-10.440525,-4.66658,-18.09954,-32.518501,-41.404449,-48.411003,-78.37722,-99.459503,-119.265449,-54.735855,-87.8199,-109.28469,-129.347694,-57.682045,-87.364723,-107.48529,-124.965042,-58.528862,-82.285469,-97.922996,-111.612854,-15.64254,-22.046119,-25.172185,-24.760211,3.081889,-6.046872,-11.75056,-16.081264,10.494532,0.241654,-6.287847,-11.72476,13.70664,4.855892,-1.091451,-6.249685,13.720263,8.512492,3.510709,-0.8773,0.74897,8.472302,17.976013,22.08442,43.954239,69.325424,85.226773,100.083962,53.329582,80.995045,97.170101,111.225884,57.896313,83.33218,98.945069,111.42548,59.417736,79.830689,92.676705,102.977955,-18.775868,-33.088316,-40.823865,-38.158291,-17.207271,-37.032673,-50.437941,-61.562129,-7.167642,-29.767175,-45.964179,-59.034314,-0.94141,-20.181406,-34.77572,-46.362802,1.950572,-11.124448,-21.544336,-30.757461,185.297739,229.641964,-175.153696,179.346785
55,-3.99694,0.91797,-0.030624,-4.795599,-2.254395,-14.939919,-30.128838,-40.235985,-45.319565,-75.013733,-96.803215,-117.431351,-52.49366,-85.470612,-107.437477,-128.022537,-56.222718,-85.232048,-105.752724,-123.40844,-57.881127,-80.851273,-96.599053,-110.209763,-16.492004,-23.773489,-27.555257,-27.377157,1.174986,-9.304923,-15.519398,-20.183271,9.040161,-3.270203,-10.370192,-16.380989,12.305152,2.295546,-4.002366,-9.755084,12.233892,6.766955,1.639584,-3.160597,0.870552,8.211731,17.829838,22.199272,43.604828,69.213547,85.030815,99.612385,53.282776,81.264782,97.47908,111.265285,58.175606,83.905666,99.520889,111.78162,60.05722,80.805862,93.708115,103.935207,-19.265499,-33.924565,-41.670746,-39.814387,-17.421434,-37.419441,-51.198434,-62.625823,-6.886925,-30.288213,-46.986253,-60.333252,-0.442713,-20.228151,-35.372464,-47.367975,2.334437,-11.010247,-21.795981,-31.384474,181.601698,230.656654,-174.883421,174.647906
56,-3.749588,-1.108519,1.295402,-1.439711,-1.192452,-13.579148,-28.688622,-38.145264,-43.383591,-73.272423,-95.245789,-116.171173,-50.779953,-83.88105,-106.029351,-126.848053,-54.568886,-83.762833,-104.480576,-122.485199,-56.296395,-79.686882,-95.469979,-109.080826,-17.172604,-25.311124,-30.336718,-31.297641,-1.32819,-12.868811,-19.713498,-24.982982,6.663252,-7.038201,-14.629401,-20.901835,10.212024,-0.460288,-7.240051,-13.159149,10.352975,4.52649,-0.948845,-5.921383,0.341206,6.795479,16.245312,21.003743,43.368382,69.262276,85.420235,100.220147,53.471352,81.646786,98.131531,112.083916,58.609074,84.464219,100.139042,112.431267,60.77211,81.933369,94.802044,104.885399,-19.955387,-34.508279,-41.996115,-40.581586,-16.299824,-36.516501,-50.381198,-61.851528,-5.345968,-29.396635,-46.351137,-59.760455,0.985216,-19.637878,-34.981139,-47.2197,3.505818,-10.670298,-21.839231,-31.990468,177.986223,229.526133,-173.453906,173.186193
57,-2.195114,-1.854427,1.551716,1.444602,-0.964806,-13.371437,-28.195473,-37.258416,-42.986847,-72.950318,-94.836823,-115.59945,-50.25673,-83.218644,-105.370903,-126.267449,-53.895104,-83.099465,-103.982781,-122.036156,-55.544587,-79.180138,-94.914917,-108.456665,-17.68018,-26.465844,-32.403961,-34.148064,-3.101661,-15.491177,-22.830251,-28.48418,5.154912,-9.561755,-17.535659,-24.244249,9.094514,-2.316912,-9.276233,-15.550828,9.576316,3.420417,-2.076963,-7.250252,0.553379,6.808102,16.280709,21.096783,43.50095,69.621403,86.060635,101.032769,53.729862,82.344212,98.974961,112.868225,58.866955,85.065216,100.75367,113.073532,61.002342,82.450997,95.240982,105.150879,-20.385602,-34.475527,-41.288481,-39.390335,-14.691683,-34.828332,-48.893124,-60.417246,-3.511203,-27.831041,-44.761491,-57.965612,2.618501,-18.342145,-33.724123,-46.057348,4.797204,-9.585751,-20.922522,-31.287996,175.86501,227.508068,-171.828289,174.467157
58,-1.259697,-1.095217,1.728367,2.31911,-0.936928,-13.787155,-28.610573,-37.473313,-42.782708,-73.012184,-94.97461,-115.48359,-49.972138,-83.157784,-105.297867,-126.271294,-53.529946,-82.967812,-103.900589,-121.968476,-55.21003,-79.167778,-94.874359,-108.537461,-18.25157,-27.515614,-33.900063,-35.861824,-4.001588,-17.286238,-24.938349,-30.822188,4.605172,-11.198462,-19.433559,-26.609797,8.769139,-3.399534,-10.384147,-16.927147,9.451431,2.888227,-2.657689,-8.09648,0.653126,6.898979,16.477089,21.557247,44.062523,70.346466,86.799191,101.722916,54.207115,83.109238,99.765507,113.756161,59.217384,85.693257,101.437294,113.848904,61.210739,82.750626,95.74847,105.942272,-20.049296,-33.482228,-39.511007,-37.697533,-13.122419,-32.871942,-46.860893,-58.354973,-1.855204,-25.875695,-42.555333,-55.743671,4.121593,-16.721678,-31.858204,-44.184988,6.06704,-8.139951,-19.268512,-29.54533,174.619234,226.089066,-170.086001,176.462482
59,-1.004105,-0.288004,1.857983,2.740027,-0.896233,-13.887199,-28.659302,-37.705925,-43.23278,-73.544609,-95.435554,-115.566513,-50.176094,-83.367508,-105.447258,-126.394798,-53.480667,-82.997086,-104.016907,-122.154785,-55.021866,-79.182472,-94.873901,-108.692459,-18.461978,-27.988659,-34.600139,-36.658701,-4.438879,-18.189288,-25.922774,-31.82168,4.344153,-12.139193,-20.512413,-27.850004,8.669165,-3.993301,-11.061129,-17.763544,9.490779,2.625837,-2.983089,-8.523669,0.560005,6.528808,16.144718,21.961406,44.381195,70.813785,87.237716,101.964615,54.484966,83.590862,100.071979,113.918369,59.385486,85.835483,101.473652,113.650303,61.248482,82.581802,95.632072,105.782581,-19.363534,-32.581605,-38.242432,-36.339809,-12.078072,-31.666587,-45.596307,-57.055806,-0.804942,-24.440356,-40.909136,-54.185172,4.96892,-15.638626,-30.595119,-43.077582,6.684087,-7.518792,-18.519344,-28.763688,173.601442,225.298818,-168.241705,178.700265
60,-1.026924,0.143582,1.751793,2.172997,-0.93853,-14.31926,-29.009514,-37.833984,-43.728836,-73.922768,-95.844658,-115.882393,-50.494469,-83.499298,-105.596855,-126.602257,-53.593849,-83.024826,-104.160576,-122.395523,-55.007401,-79.174141,-94.855751,-108.81514,-18.551528,-27.981656,-34.746451,-37.230979,-4.323591,-18.306861,-26.139024,-32.067854,4.354997,-12.39537,-20.895636,-28.264572,8.63677,-4.107057,-11.277812,-18.088116,9.41527,2.569163,-3.019793,-8.581035,0.251552,5.986141,15.642025,22.051094,44.095756,70.57806,86.874527,101.30088,54.348884,83.525161,99.847217,113.495292,59.30714,85.727096,101.288223,113.176643,61.170753,82.440181,95.481582,105.483947,-18.690985,-31.721249,-37.039991,-34.933987,-10.830368,-30.450005,-44.481823,-56.079236,0.464375,-23.269803,-39.701254,-53.161671,6.008352,-14.763807,-29.734367,-42.548405,7.385139,-7.032656,-17.92591,-28.16151,172.522516,224.910966,-166.541914,180.341828
61,-0.835968,0.629842,1.32011,1.61586,-1.279198,-14.767593,-29.491676,-38.540245,-44.157028,-74.334572,-96.100021,-115.813019,-50.667847,-83.65757,-105.640755,-126.468979,-53.690003,-83.09697,-104.187538,-122.236611,-55.104332,-79.287483,-94.917847,-108.845192,-18.787551,-28.2695,-34.805546,-37.140329,-4.091175,-18.269551,-26.218262,-32.21151,4.85252,-12.272438,-21.028733,-28.616957,9.232094,-3.884793,-11.210504,-18.183916,10.036911,3.016482,-2.629037,-8.194527,-0.017281,5.724071,15.422493,22.20789,43.692215,70.204674,86.483894,100.728241,54.038189,83.359131,99.553219,113.033878,59.102451,85.568985,101.040974,112.650867,61.025677,82.361572,95.378208,105.21627,-18.153189,-31.098323,-36.129252,-33.932914,-9.818797,-29.513535,-43.599298,-55.229754,1.430127,-22.334482,-38.625315,-52.207318,6.777095,-14.026026,-28.978196,-42.109755,7.925085,-6.555103,-17.362771,-27.645388,171.583569,225.03472,-165.324783,181.4516
62,-1.458092,1.575635,1.118523,1.440835,-1.222824,-14.577667,-29.245582,-38.597671,-44.058105,-74.336632,-96.023552,-115.596313,-50.49646,-83.499458,-105.276008,-125.924126,-53.531021,-82.861015,-103.9254,-121.908394,-55.027267,-79.066521,-94.644104,-108.541374,-19.02813,-28.643336,-35.164216,-37.642903,-4.505174,-18.575252,-26.576772,-32.712354,4.656895,-12.398667,-21.362172,-29.15143,9.197625,-3.826734,-11.186371,-18.250408,10.109383,3.195683,-2.445896,-8.036186,-0.509148,5.119068,15.075897,22.565563,43.364502,70.065055,86.424167,100.719749,53.772663,83.191372,99.361896,112.924621,58.936134,85.252327,100.627327,112.08768,60.945648,82.172504,95.107154,104.895183,-17.565164,-30.526354,-35.28116,-32.763435,-9.298056,-28.926018,-42.931579,-54.482803,1.878311,-21.810197,-37.875653,-51.443781,7.056441,-13.76371,-28.501842,-41.69457,8.109422,-6.465256,-17.105964,-27.300339,169.969528,226.173351,-164.362209,182.455431
63,-1.463425,1.666953,0.986366,1.324706,-1.343856,-14.633194,-29.147781,-38.683364,-44.330703,-74.408294,-95.997253,-115.54129,-50.639373,-83.389274,-105.056671,-125.740745,-53.632278,-82.686378,-103.736618,-121.655365,-55.150497,-78.996322,-94.526184,-108.424713,-18.89386,-28.434299,-34.909706,-37.958275,-4.284787,-18.093525,-26.085251,-32.352486,4.910244,-11.827612,-20.924374,-28.915742,9.467869,-3.328644,-10.698704,-17.927158,10.399918,3.651129,-1.993205,-7.705303,-0.558163,4.996857,14.89563,22.526745,43.072288,69.956188,86.42102,100.730221,53.451725,82.955223,98.997711,112.368027,58.667107,84.916706,100.163452,111.306335,60.793018,81.857254,94.608066,104.121735,-17.423471,-30.327628,-34.840533,-31.892519,-8.380951,-28.020163,-42.100393,-53.671043,2.760392,-20.945319,-36.967044,-50.533838,7.794261,-13.144452,-27.947149,-41.223278,8.650146,-6.121306,-16.85738,-27.108072,168.315427,227.473019,-163.566519,183.412852
64,-1.888755,2.55333,0.557899,1.366945,-1.324654,-14.60257,-29.272499,-39.580605,-44.386849,-74.217202,-95.828659,-115.434906,-50.758278,-83.175705,-104.739006,-125.534294,-53.816185,-82.371918,-103.382172,-121.303299,-55.354454,-78.689553,-94.08458,-107.947243,-18.903654,-28.615203,-35.360805,-39.041587,-4.383267,-17.846894,-25.854058,-32.463661,4.759141,-11.291952,-20.468631,-28.761082,9.329561,-2.948397,-10.233945,-17.68107,10.344664,3.945493,-1.588604,-7.446383,-0.380012,5.457459,15.50742,22.945759,43.286568,70.06699,86.413056,100.771695,53.519864,82.946103,98.923279,112.42352,58.635098,84.822064,100.022862,111.265217,60.667351,81.640812,94.330937,103.871018,-17.136481,-29.820645,-33.999308,-30.544434,-7.715998,-27.110457,-41.099099,-52.576784,3.29221,-20.183604,-35.931898,-49.267233,8.247199,-12.515043,-27.024648,-40.085144,9.087363,-5.536295,-16.034273,-26.046287,166.219626,229.711029,-163.215666,184.464477
65,-2.068428,2.593653,0.882157,1.443675,-1.837166,-15.253876,-30.156876,-41.199074,-44.832047,-74.253067,-95.611313,-114.933037,-50.960701,-83.01281,-104.386849,-125.166298,-53.913414,-82.147751,-102.982315,-120.797264,-55.253266,-78.210205,-93.378159,-107.017846,-18.779239,-28.781249,-35.613377,-39.537924,-4.045825,-17.00883,-25.191179,-32.286129,5.301792,-9.961379,-19.290396,-27.981446,10.010495,-1.624962,-8.935038,-16.698126,11.149593,5.092902,-0.509663,-6.611123,-0.468212,5.501701,15.657222,23.086292,43.050705,69.87735,86.298752,100.744846,53.262325,82.700958,98.573135,111.99258,58.471367,84.628109,99.765129,110.945434,60.649532,81.688476,94.347519,103.934383,-16.947006,-29.339399,-33.166393,-29.462246,-6.76887,-26.009459,-39.989616,-51.428565,4.079627,-19.294806,-34.963182,-48.236884,8.754788,-11.927636,-26.382345,-39.465849,9.319508,-5.235805,-15.627177,-25.581998,163.942595,231.896528,-162.542112,185.499998
66,-2.784142,2.898058,0.637905,1.668879,-2.655693,-16.61071,-31.848793,-43.505058,-45.398895,-74.705406,-95.967613,-115.073364,-51.16317,-82.928306,-104.154831,-124.804298,-53.973267,-82.063614,-102.805344,-120.479759,-55.07151,-77.784462,-92.746925,-106.151619,-18.811287,-28.870244,-35.675819,-40.113413,-3.321048,-15.618544,-23.686359,-31.001646,6.273978,-7.98791,-17.275024,-26.046645,11.071355,0.192649,-6.98328,-14.826052,12.238759,6.577432,0.927726,-5.367358,-0.233585,5.817284,15.958317,23.163391,43.331268,70.14901,86.591938,101.14056,53.402206,82.796471,98.570675,112.045978,58.523277,84.635834,99.712795,110.916172,60.681747,81.687675,94.297291,103.876224,-16.696385,-28.878951,-32.569934,-28.649684,-5.799994,-24.80703,-38.684571,-50.05008,4.99898,-18.249383,-33.745328,-46.881512,9.54113,-11.017929,-25.317336,-38.324751,9.949288,-4.568555,-14.832449,-24.64827,160.982529,234.134634,-162.080131,186.508925
67,-3.197777,3.525874,1.115272,2.335265,-4.360153,-19.367912,-35.252655,-47.7873,-45.931137,-75.206749,-96.439132,-115.223808,-51.092193,-82.924621,-104.207107,-124.73806,-53.726715,-82.047661,-102.655403,-120.083587,-54.69754,-77.472931,-92.278198,-105.416176,-19.123559,-29.314624,-35.889598,-40.330478,-1.927378,-13.275474,-21.119678,-28.374252,8.238135,-5.10871,-14.303828,-22.932472,13.259852,3.049779,-4.06966,-11.937639,14.531824,9.21746,3.498594,-2.926957,-0.199733,5.785321,15.80167,22.832669,43.167149,69.903294,86.306717,100.821511,53.227398,82.546486,98.176381,111.588696,58.376713,84.509365,99.54094,110.754868,60.620121,81.642907,94.255978,103.835301,-16.565364,-28.717746,-32.338605,-28.411698,-5.032264,-23.698042,-37.555835,-48.886875,5.84948,-17.184967,-32.585582,-45.668518,10.359508,-10.029651,-24.251524,-37.279391,10.653885,-3.740495,-13.926904,-23.716,157.642347,236.755683,-161.107264,187.939365
68,-4.007057,4.268658,1.259697,2.981075,-6.745491,-23.17559,-40.07151,-54.025085,-46.419044,-76.13855,-97.649345,-116.107178,-50.585495,-82.840416,-104.325577,-124.433647,-52.814163,-81.7015,-102.315079,-119.410423,-53.596435,-76.444633,-91.133949,-104.013542,-19.706125,-29.718497,-35.596049,-39.408026,-0.375467,-9.877534,-17.068357,-23.935596,10.80079,-0.596422,-9.33665,-17.53871,16.384595,7.793013,0.976842,-6.621077,17.945399,13.632898,7.951354,1.584936,0.280747,6.720234,17.027298,23.955849,43.157811,69.912152,86.398568,101.112946,53.109902,82.531678,98.344826,111.859749,58.251492,84.506298,99.63818,111.033028,60.452031,81.549786,94.2281,103.908303,-16.862939,-28.806246,-32.02453,-27.915299,-4.284046,-22.501171,-36.065081,-47.040328,6.675071,-15.788864,-31.057716,-43.931861,11.173774,-8.612923,-22.635169,-35.368895,11.396483,-2.43246,-12.43594,-22.091939,153.503248,239.729888,-159.979609,189.625987
69,-4.125435,4.794463,2.168953,3.960535,-10.19545,-28.657402,-46.944305,-62.68975,-47.496895,-77.816528,-99.69461,-117.995384,-50.276275,-82.754013,-104.713714,-124.537468,-51.764877,-80.94944,-101.661873,-118.553146,-52.010376,-74.761894,-89.378563,-102.202286,-19.884386,-29.092459,-33.326253,-35.91709,1.250915,-5.036043,-10.390211,-15.651433,13.775677,5.807046,-1.437142,-8.288499,20.347872,14.681728,9.187979,2.781436,22.525673,20.249701,15.307692,9.732989,1.157936,7.967881,18.630101,26.102234,42.565018,70.007778,87.271488,102.513325,52.361412,82.599003,98.954281,112.451271,57.702805,84.688248,100.218899,111.537461,60.282841,81.805367,94.729843,104.451691,-17.574278,-29.409152,-32.53807,-28.832712,-2.930625,-20.555316,-33.912869,-44.614005,8.497005,-13.539938,-28.988755,-41.783984,13.157099,-6.35303,-20.824943,-33.695347,13.294778,-0.465363,-10.855796,-20.859363,149.269718,242.863574,-157.918751,191.925745
70,-5.03405,5.128026,2.37838,5.160519,-14.658943,-35.633377,-55.446121,-72.593879,-49.486976,-79.384918,-101.000587,-118.928627,-50.345993,-82.157432,-104.161148,-123.15731,-50.378334,-79.060066,-99.565635,-115.916176,-49.493362,-71.778763,-86.324226,-99.074112,-19.670643,-27.237131,-28.768591,-29.110293,3.392222,1.328881,-1.040087,-3.572039,17.209395,13.907489,9.239874,4.684275,25.014412,23.430798,20.140773,15.574318,28.066871,28.706877,25.212187,20.811494,3.261063,11.198937,22.654621,30.728176,43.059689,71.32029,89.375507,105.257275,52.053589,83.417507,100.648361,114.361027,57.088257,85.167801,101.317154,112.69051,59.648335,81.597176,94.938961,104.765888,-18.319704,-30.114712,-33.341875,-30.243585,-1.685934,-17.943298,-30.702663,-40.715714,10.450282,-10.021029,-25.090402,-37.243723,15.725731,-2.320605,-16.47706,-28.830588,16.312162,3.512216,-6.847799,-16.78328,144.13508,245.975072,-155.640959,195.069736
71,-7.762642,6.649346,2.955666,7.077956,-19.456215,-42.997009,-64.418312,-82.764724,-51.888107,-82.54351,-103.442276,-120.324863,-50.520561,-83.427108,-105.347877,-123.248588,-48.727226,-78.574241,-99.007438,-114.912643,-46.436187,-69.812828,-84.592346,-97.439277,-19.365744,-24.461944,-22.180267,-19.65276,6.227986,10.317407,11.407302,11.686512,21.614929,24.86263,23.499996,21.639444,31.047094,35.249877,34.764271,32.653754,35.517676,40.677429,39.371815,36.878322,5.943775,15.811363,28.840015,38.885936,43.253528,72.658378,91.985035,108.628189,51.291458,84.068847,102.630901,116.648609,56.012603,85.509796,102.498699,114.015369,58.60144,81.219223,94.834579,104.793251,-19.352073,-30.889828,-34.23034,-32.361835,-0.75091,-14.148365,-25.744722,-34.824231,12.315712,-5.10177,-19.424444,-30.610395,18.457383,3.080728,-10.522023,-21.987136,19.718265,8.825295,-1.328622,-10.991623,136.271959,250.478703,-152.785772,200.001977
72,-9.093841,5.329419,3.429645,8.234936,-24.638993,-50.371056,-72.594567,-91.513321,-55.299546,-85.497986,-105.220093,-121.163384,-50.889977,-83.422829,-104.973816,-121.834625,-46.45269,-76.015938,-96.220047,-111.736336,-41.807762,-64.94989,-79.610115,-92.593575,-17.144854,-18.79564,-12.352738,-6.746134,10.013879,20.765477,26.112125,29.872613,26.147137,36.970156,40.070151,41.84545,36.725514,47.808996,51.652675,53.186185,42.349939,52.405351,54.524082,55.150602,9.815312,22.489254,37.510494,49.975056,43.695099,74.663349,95.58823,113.044316,49.941845,84.642987,105.081105,119.851639,53.975773,85.527821,103.970593,116.201191,56.570172,80.388851,94.716362,105.210411,-20.527615,-31.432688,-34.725986,-33.973557,0.683577,-8.702485,-18.349468,-26.084436,14.911539,1.919067,-10.848115,-20.629664,22.159704,10.908655,-1.270305,-11.30897,24.228466,16.279224,7.203248,-1.530792,127.069897,253.618579,-149.464348,206.04737
73,-10.404968,4.729303,4.150658,8.876375,-29.150986,-56.14103,-78.483719,-97.636643,-58.817528,-87.858216,-106.10883,-121.231545,-51.962128,-83.060257,-103.779511,-119.673249,-44.995217,-73.263131,-92.784119,-107.853699,-37.794251,-60.206131,-74.302849,-87.141884,-13.969549,-11.852658,-1.81419,6.129581,14.39701,30.580311,39.985924,47.291948,30.655671,47.747926,55.448535,61.177862,42.066122,58.977448,67.195193,72.372644,48.638935,62.964586,68.739015,72.604331,14.380142,30.071789,47.001743,62.067089,45.981995,77.876633,99.619022,117.365272,49.529686,85.093128,106.819542,122.33749,51.901817,84.514172,104.122661,117.34457,53.552547,77.98423,93.025577,104.470482,-20.567938,-30.490884,-33.877091,-34.040372,2.004826,-2.33671,-9.031134,-14.681568,17.252139,10.201353,0.44627,-7.179745,25.857096,20.294236,10.948916,2.849522,29.225087,25.425843,18.613958,11.523417,116.56794,256.345949,-145.410679,212.921812
74,-11.195984,3.547697,8.860107,11.154631,-32.564484,-60.076561,-81.005951,-97.286614,-62.687439,-90.081997,-106.864163,-121.262833,-53.891922,-83.282753,-103.105523,-118.124005,-44.700051,-71.615799,-90.517411,-105.088807,-35.109764,-56.855851,-70.551041,-83.128052,-11.032921,-5.773701,6.205546,15.094271,19.413082,38.960262,50.975237,60.983842,34.969617,55.981997,67.001939,76.104345,46.481857,67.206197,78.503793,86.665975,53.419899,70.661737,78.971293,85.356483,17.086705,35.56976,54.198452,71.236496,44.406567,79.246136,101.662308,118.327664,45.838921,85.001335,107.79871,122.458329,47.067112,83.089623,103.892475,116.978886,48.124718,75.440895,91.557495,102.797013,-22.194864,-30.896003,-32.790333,-32.758297,1.431548,2.36682,-0.828826,-3.58797,18.962589,18.131008,12.238574,7.4801,29.903156,30.356985,24.606959,19.310009,35.332277,36.100674,31.654274,26.491458,105.221575,258.073827,-136.700953,222.256624
75,-11.019471,3.243317,8.034005,9.745352,-34.636688,-61.959732,-81.725463,-96.916168,-64.658935,-92.022674,-108.930324,-123.579437,-55.353813,-84.565921,-104.511245,-119.98217,-45.365409,-72.339363,-91.40372,-106.340354,-34.508995,-56.070373,-69.596237,-82.13063,-8.023219,-0.231564,12.501136,21.347537,23.584594,44.147531,57.251536,68.178963,38.043873,60.371352,73.206225,84.054611,49.11482,71.559181,84.811486,94.842865,55.911651,74.709662,85.094278,93.586244,20.457092,41.541263,61.777576,80.40311,44.882274,80.677825,102.898784,118.988307,43.697193,84.128986,107.501873,122.353294,43.239051,80.396553,101.74942,115.447334,43.223567,71.557994,87.900318,99.353508,-22.145143,-29.258939,-29.431655,-28.882434,2.376575,8.375047,8.477677,8.19938,21.221616,26.012558,23.634476,21.233126,33.477948,39.253292,36.687426,33.627792,40.021405,45.005231,42.945472,39.503652,93.978721,259.930508,-128.890331,230.61534
76,-14.098846,3.783287,8.801616,8.764878,-31.688118,-58.238319,-77.74419,-92.839005,-65.503098,-90.86832,-104.131599,-115.01944,-58.355415,-83.562012,-96.402843,-105.389328,-49.745132,-72.823597,-84.688625,-93.197502,-39.678658,-59.478138,-68.241634,-75.530434,2.202514,13.569344,25.84419,34.734595,29.619153,48.179203,60.037999,69.688712,37.138513,56.778899,68.555876,77.779843,42.009695,61.623774,73.986898,82.725607,43.326769,59.052512,68.8504,76.768631,23.366169,46.292084,67.608719,87.051659,46.094593,82.027256,103.816246,119.28495,42.420628,83.094887,106.990334,122.208367,40.067608,77.404026,99.412342,114.053387,38.637211,67.442494,84.263375,96.446308,-21.11643,-26.701249,-25.197972,-23.360527,3.976912,13.53017,16.273135,18.044792,23.369641,32.405418,33.441232,33.468488,36.547574,46.723326,47.457303,46.616794,44.062982,52.826069,53.544869,52.366387,79.576927,262.779116,-120.391663,238.445539
77,-12.573853,3.984137,9.150295,7.218388,-28.639617,-54.112815,-73.153221,-87.728073,-67.465107,-87.591785,-93.655906,-98.514049,-62.633617,-81.231262,-85.548099,-87.069511,-55.079372,-72.111019,-75.573749,-76.96035,-45.006671,-62.29803,-67.769187,-71.395649,10.4117,23.80634,35.286211,44.044148,31.851393,47.549571,57.159059,64.831918,33.912177,50.532363,60.815548,68.089536,34.034048,50.781254,61.604533,68.673497,31.624374,44.955831,54.006737,61.428359,25.414284,49.505425,71.307312,90.938508,47.554253,82.671868,103.623585,118.512921,41.987698,81.900433,105.691075,120.926938,37.82182,74.46238,96.509034,111.568371,34.690934,63.329327,80.196339,92.709549,-19.343551,-23.094913,-19.992622,-17.305157,6.193246,18.014226,22.756139,26.275517,25.662903,37.74284,41.632832,43.833049,39.466442,52.684217,55.93587,56.87849,47.832882,59.383643,61.945284,62.218431,66.668546,266.143544,-111.575896,245.044218
78,-11.091247,6.321254,9.267506,6.779986,-24.689987,-49.111908,-67.565758,-81.148075,-67.476597,-81.717922,-80.723499,-80.387776,-64.924873,-75.848396,-71.708599,-66.107483,-58.74955,-68.755394,-63.997364,-58.749436,-49.56181,-65.110256,-69.488972,-71.477154,13.020259,25.488248,35.576635,44.21679,29.108823,42.252595,49.067284,54.452032,28.309772,41.328698,49.315002,54.775678,26.043643,39.461143,47.655411,53.176589,22.124085,33.362191,41.635499,49.026986,25.982266,50.701286,72.916786,92.319409,47.577908,82.610436,103.203838,117.863892,41.049271,80.900848,104.707718,119.902405,35.822834,72.390164,94.505413,109.638405,31.609646,60.462135,77.326527,89.86544,-18.160352,-20.65224,-15.968694,-12.445956,8.153289,21.404755,27.125424,31.523573,27.568693,41.184943,46.831944,50.534289,41.539675,56.168866,60.920869,63.166015,50.247644,63.104215,66.504452,67.676648,55.210911,272.109752,-102.674778,251.469158
79,-25.663239,4.056285,4.923512,4.163039,-14.332317,-30.038646,-43.816772,-56.152462,-50.125934,-54.704567,-46.631961,-40.680553,-51.093979,-52.562095,-40.431415,-28.09885,-48.805252,-50.690128,-38.833259,-28.568023,-43.423256,-56.02478,-58.670745,-59.200916,9.858293,19.179555,26.937074,34.348729,23.335728,36.302351,41.797409,45.019175,23.86709,36.77925,43.101566,46.130374,21.951518,34.849438,40.949131,44.195202,18.564533,28.702271,36.308674,42.666262,27.841037,53.060405,75.696579,95.119388,51.765976,84.046039,103.786903,119.040424,43.892418,80.310871,103.92255,120.502521,36.941505,70.655605,92.414531,108.620967,30.807781,57.471153,73.752502,87.419941,-15.344471,-16.787368,-11.668481,-8.31531,11.518873,25.636746,31.810379,36.286235,29.325629,43.864665,50.424164,54.750028,42.292648,57.751616,63.520229,66.379779,50.637438,64.511607,68.812795,70.733838,29.200424,276.06041,-98.098514,255.52657
80,-20.956672,3.913186,5.829975,4.973193,-4.376976,-12.922177,-22.693543,-33.032971,-37.488488,-32.001652,-15.324223,-2.743756,-41.445774,-32.404599,-10.932347,9.542999,-42.046452,-34.311779,-13.721157,3.026458,-39.522538,-49.539528,-50.318722,-49.18689,6.281103,12.594268,18.450035,24.782206,17.352742,31.983897,36.88977,38.69939,19.40745,34.217817,39.431293,40.514124,18.179506,31.842674,36.286789,37.837861,15.747651,25.179768,32.164814,37.794241,27.951748,53.239242,75.909588,95.230476,53.375942,84.64872,104.030021,118.858291,45.238106,80.146339,103.552551,120.116455,37.46862,70.034992,91.629902,107.778236,30.082168,56.10506,72.209095,86.1679,-14.610271,-15.453509,-9.897072,-6.848861,13.18853,27.588022,34.109977,38.823929,30.219997,45.149568,52.447589,57.454374,42.887329,58.570007,65.167816,68.829381,51.403649,65.721742,70.550229,73.197296,7.992485,279.945647,-92.519806,260.471814
81,-19.947476,1.405007,5.209728,4.295199,2.22662,2.484776,-0.181823,-5.883018,-19.798599,-3.254848,17.462803,31.687809,-24.66885,-5.632221,17.487133,38.141156,-27.133827,-10.905246,10.847374,26.47427,-26.595428,-33.251713,-36.368705,-39.000091,-4.817804,-3.771357,-0.172272,4.498554,9.092513,25.747513,31.559042,33.902446,18.122856,36.485082,42.540069,44.364522,22.730487,40.125911,45.0181,47.008971,25.762506,37.646805,45.882976,52.538794,27.628109,52.663158,75.197811,94.216358,53.723579,84.566803,103.241192,117.550381,45.354332,79.594551,102.268467,118.362614,37.02182,69.213192,90.21999,105.876286,28.863167,54.624756,70.453331,84.121502,-14.437136,-14.979551,-9.043287,-6.420327,14.052553,29.130448,36.162967,41.275963,31.050503,46.571851,54.291011,59.462719,43.610536,59.541538,66.48321,70.345908,52.074863,66.478369,71.123148,73.370592,-12.107197,281.341543,-87.462284,264.757902
82,-18.780452,1.666359,3.916832,4.348451,9.717189,18.543228,21.994514,19.782703,-0.140179,22.878982,43.416458,56.702545,-6.908112,17.963951,40.866394,60.726722,-12.493138,8.221927,29.030559,42.552886,-15.624733,-21.059876,-25.435776,-30.008412,-15.506491,-19.044926,-17.792245,-15.333924,3.084261,21.991891,28.913087,31.616495,18.247012,39.253033,45.370893,47.102498,27.646833,47.421847,51.737978,53.368992,34.517246,47.805341,55.932894,62.065364,26.998123,51.55933,74.03286,92.651333,54.389385,85.197567,103.24934,116.895458,45.995064,79.93753,101.814342,117.290829,37.181957,69.086243,89.365826,104.318905,28.27771,53.796844,69.373947,82.806782,-14.905747,-15.604922,-9.495855,-7.320128,14.152182,29.512016,36.845816,42.153635,31.003215,46.521402,54.35086,59.377159,43.351531,59.136801,66.239334,70.10733,51.785835,66.118266,70.612671,72.547867,-30.989954,283.020598,-83.647757,269.119049
83,-18.505143,-1.00337,3.003181,3.378143,16.891217,34.024498,43.353882,44.505272,17.715866,46.492173,67.3751,81.00689,9.575249,38.572953,61.558869,81.156807,1.422959,25.640087,46.209561,58.473221,-4.463333,-7.888767,-11.391105,-15.988758,-21.654572,-27.38175,-27.615574,-26.777387,0.905002,21.854249,29.952914,32.956257,19.989127,44.36588,50.753467,51.689356,31.965953,54.556465,59.142334,60.071913,40.622336,55.124655,62.852731,67.689135,26.54852,50.586811,72.821663,91.43105,54.325985,84.837262,102.422162,115.464856,45.798546,79.489232,100.800145,115.664395,36.662522,68.318219,88.008099,102.277371,27.435917,52.495549,67.743153,80.632862,-15.299579,-16.016118,-10.008519,-8.671746,14.435493,30.324899,37.909405,43.272663,31.481373,47.320613,54.966808,59.486518,43.848239,59.927256,66.674414,69.917867,52.149594,66.740932,70.933328,72.172165,-49.546028,282.032848,-80.695507,272.512812
84,0.956887,2.327015,1.92437,3.122496,16.701953,33.276867,42.372207,43.308174,15.926662,45.476074,67.000007,80.890754,7.854938,37.80994,61.513733,81.536132,-0.027981,25.151928,46.353813,58.871978,-5.546002,-9.211682,-12.637104,-17.091923,-22.166335,-27.984101,-28.378587,-27.728751,0.766422,21.884074,29.851088,32.668932,19.936133,44.390321,50.379679,50.781798,32.028914,54.648608,58.990601,59.902111,40.605404,55.339386,62.646485,67.200899,26.027424,49.741162,71.704663,89.876324,54.031643,84.634884,101.847508,114.491741,45.368099,79.076969,99.811535,114.043659,36.046578,67.446671,86.593197,100.269985,26.822605,51.203774,65.948582,77.958973,-15.459549,-16.489373,-10.788279,-9.755441,14.783308,31.032793,38.726684,44.112,32.156119,48.153354,55.539938,59.684799,44.539275,60.792428,67.051277,69.633964,52.522467,67.17232,71.061127,71.661526,-48.606376,284.365692,-78.788372,275.641137
85,3.416359,2.211653,1.378132,2.432052,15.205581,30.07909,38.080009,38.450191,12.25138,42.404434,63.937408,77.445648,4.311412,35.45684,59.212303,79.05146,-3.308705,22.575313,43.695716,56.148513,-8.496232,-12.301793,-15.769295,-20.191704,-22.799957,-28.799108,-29.284009,-28.498383,0.659988,22.082503,29.789424,32.610825,20.204463,44.267055,49.759593,49.72174,32.393093,54.88715,58.535068,58.979016,40.899817,55.966115,62.974984,67.367106,25.542973,49.287598,71.30603,89.346909,53.826382,84.547577,101.659149,114.282532,44.835274,78.732262,99.112473,112.863007,35.179607,66.691601,85.531654,98.83152,25.836708,49.957958,64.50721,75.876343,-15.296182,-16.397883,-11.060968,-10.297054,15.196814,31.832177,39.661882,44.966626,32.741242,49.115339,56.329714,60.062242,45.039121,61.718981,67.529893,69.423111,52.691824,67.442689,70.964821,70.913507,-45.224515,286.572538,-77.444738,278.068382
86,7.055065,5.341448,0.89494,2.046854,11.667183,23.903366,32.77026,34.876739,5.870407,35.561428,57.330448,71.143169,-1.714588,28.898494,52.580784,72.093578,-8.24453,16.355587,37.165432,49.829921,-11.891854,-16.506031,-19.585488,-23.368538,-23.29028,-29.95704,-29.931833,-28.460259,-2.201538,17.763642,26.086745,29.555216,17.755182,39.200915,45.253789,45.571742,30.869969,50.408195,54.431765,55.026026,40.307346,54.366939,60.816881,64.48267,25.352394,49.235618,71.320552,89.18954,54.083644,84.634723,101.639865,114.112461,44.865119,78.738773,98.802234,112.216999,34.906642,66.198326,84.74374,97.666088,25.296867,48.7607,62.961204,73.603076,-14.957951,-15.84281,-10.805829,-10.564483,16.144929,32.700202,40.508085,45.575607,33.539723,49.90399,56.93036,60.298968,45.569939,62.380636,67.780142,69.05677,52.944963,67.778672,71.127088,70.633196,-38.23205,291.901713,-76.612398,280.102963
87,6.752815,4.517907,1.048816,2.05078,8.584785,18.781586,28.831661,32.727837,-0.078255,29.358089,51.370411,65.466328,-7.462772,23.351452,46.995655,65.710796,-12.962654,11.309486,32.492626,45.732799,-15.159771,-19.982769,-22.537628,-25.757572,-23.520522,-30.564812,-30.149355,-28.371622,-3.849904,14.759633,23.441345,27.657256,16.136556,35.237909,41.615591,42.443935,29.798106,46.616855,50.954859,51.625246,39.910625,52.9605,59.23034,62.624588,25.187748,49.392071,71.589226,89.492569,53.630493,84.473694,101.439972,113.840836,44.087448,78.502144,98.541641,111.71434,34.125298,65.788445,84.273583,97.002915,24.807335,48.245568,62.41911,72.669113,-14.650705,-15.516149,-10.701186,-10.422086,16.855627,33.638525,41.376629,46.279402,34.550294,51.006927,57.638773,60.593753,46.543336,63.454205,68.248803,68.821118,53.671655,68.329956,71.260531,70.203772,-31.553152,296.41179,-75.637499,282.145913
88,11.784805,2.582501,0.551354,2.397485,2.313023,6.796189,12.908821,13.370316,-11.40469,17.170956,39.107655,53.481755,-18.13536,12.319302,35.585758,53.204602,-21.890705,1.507496,22.462178,35.977124,-22.18602,-25.615574,-26.144325,-27.05286,-19.128512,-23.438258,-20.153902,-15.880267,-1.656233,15.568131,24.05843,28.375351,16.156587,33.092725,39.669613,41.084661,28.575966,43.296486,47.496959,48.355191,37.977084,50.276123,55.457069,58.078275,25.16003,49.713844,72.104118,89.954612,53.684291,84.755035,101.696617,114.032318,44.03667,78.962242,98.939323,111.970916,34.161827,66.281925,84.647918,97.058464,25.085884,48.806785,62.967212,72.8554,-14.346128,-15.343533,-10.901863,-10.724874,17.356015,33.845981,41.410913,46.146589,35.100873,51.26161,57.410272,60.051806,46.929905,63.534863,67.754738,67.914474,53.908591,68.211617,70.637593,69.187112,-19.843832,298.980166,-75.16163,284.529273
89,3.014065,2.307045,0.444545,2.105343,1.568413,5.17297,10.216747,10.186317,-13.44389,14.691971,36.302147,50.13311,-20.296772,10.377651,33.316132,50.725525,-24.064762,-0.111855,21.365227,35.155357,-24.47636,-28.217812,-29.094498,-30.590973,-19.442883,-23.920789,-20.285492,-15.192948,-1.72385,15.326328,23.469602,28.019187,16.094602,32.461586,38.501394,39.651211,28.37976,42.845683,46.258332,46.356108,37.824535,49.582851,54.813346,57.65337,25.352337,50.243386,72.95596,91.155018,53.775879,85.040371,102.067212,114.331318,44.03603,79.402806,99.419941,112.34721,34.216221,66.855893,85.151059,97.223843,25.346398,49.474194,63.73375,73.446247,-14.348153,-15.340309,-11.128178,-10.986806,17.690455,34.033233,41.422608,45.924979,35.459038,51.61791,57.398267,59.72569,47.177809,63.705022,67.45326,67.236269,54.06829,68.189115,70.170451,68.320038,-16.892738,301.242667,-74.780056,286.590072
90,-2.782253,1.625579,0.026677,1.716377,2.575275,7.861931,13.954445,14.58934,-9.883175,18.176021,39.553745,53.299564,-17.003174,13.202682,35.978794,53.292858,-21.194687,2.526787,24.187786,37.830333,-22.098278,-25.876797,-26.80093,-28.640293,-19.636927,-24.24478,-20.587822,-15.156021,-1.54313,14.76829,22.71589,27.300005,16.129739,32.090207,37.918619,38.965313,28.415008,42.608871,45.896377,45.904392,37.932846,49.171866,54.211539,56.91738,25.858703,50.935043,73.752456,92.186462,53.946922,85.328224,102.299034,114.511711,44.130031,79.783264,99.646865,112.519729,34.38224,67.237014,85.39524,97.327674,25.677143,49.780151,63.989009,73.576561,-14.214772,-15.288389,-11.233561,-10.809706,17.864456,34.050894,41.206198,45.535409,35.70231,51.701261,57.167062,59.270318,47.431554,63.881839,67.31163,66.842252,54.311142,68.489543,70.220901,68.034184,-19.692364,302.77072,-74.770752,288.208923
91,-3.317997,-1.748858,-0.036473,1.350642,5.787025,12.682754,16.404613,14.00156,-6.152767,21.708298,42.720016,55.561706,-13.725128,16.340458,39.241516,56.908218,-18.819203,5.651756,27.727592,41.421844,-20.97551,-24.376236,-25.696907,-27.979431,-19.525332,-23.563303,-20.309426,-16.089885,0.462807,18.692949,25.667213,29.35932,18.03028,36.564346,41.132345,41.241062,29.705863,46.646348,48.787543,48.271779,38.554129,50.855293,55.785236,58.683244,26.126004,51.320343,74.100209,92.67017,54.047058,85.572956,102.551159,114.800938,44.204155,80.010212,99.809658,112.686939,34.536164,67.631687,85.735897,97.576,26.000862,50.343624,64.63987,74.31744,-14.060816,-15.260552,-11.241687,-10.460223,17.776536,33.881513,40.823889,44.983879,35.683118,51.68507,56.875822,58.668795,47.45739,63.905687,67.134208,66.446655,54.359419,68.61339,70.260928,67.927652,-22.986294,300.913197,-74.783158,289.4509
92,-4.337185,-1.571474,-0.228161,0.597374,8.55019,17.037094,19.279266,14.92733,-2.356842,25.40427,46.293079,58.738941,-10.077976,19.427044,42.679333,61.539539,-15.866558,9.103145,31.754986,45.626324,-19.131844,-22.878113,-24.904724,-28.017529,-19.313318,-23.115637,-20.393827,-16.774833,1.458483,21.067932,27.308107,29.9366,19.360693,40.060308,43.581613,42.394844,30.801266,50.187536,51.408009,50.123242,39.365567,52.206602,56.99831,59.86453,26.572987,51.746739,74.425301,93.112175,54.239125,85.571343,102.539246,114.824501,44.355893,79.895714,99.497612,112.343239,34.594609,67.497151,85.463585,97.149353,25.885266,49.902386,64.024212,73.488213,-13.70648,-14.812973,-10.773212,-9.665595,18.035356,34.070259,40.820579,44.739248,35.775397,51.920141,57.032125,58.710822,47.437765,64.153108,67.376677,66.643959,54.24912,68.922858,70.683263,68.310603,-27.259638,299.225388,-74.947478,289.931939
93,-9.907024,0.587728,-0.011295,0.483308,14.428836,28.405025,34.592262,33.685626,7.933994,36.735992,57.612785,69.477973,-0.616482,29.540153,52.913658,72.707633,-8.129952,18.022567,40.836799,54.506927,-13.199296,-18.024777,-22.187165,-27.660267,-23.631957,-30.421019,-30.729265,-30.29201,-1.440019,19.42873,25.511331,27.711325,18.987597,41.380779,44.066181,41.830532,32.017391,52.908247,53.576387,51.674993,41.629609,54.773431,60.130822,63.400581,26.851685,51.871948,74.387913,93.085384,53.906674,85.332447,102.33363,114.55505,43.963646,79.593121,99.127544,111.902515,34.177128,67.135368,85.118969,96.772945,25.428921,49.330078,63.440174,72.865643,-13.501036,-14.556437,-10.334858,-8.73446,18.062514,34.068974,40.663017,44.420109,35.807397,51.977396,57.023899,58.628805,47.457909,64.221231,67.454754,66.691507,54.21223,68.995822,70.916594,68.557839,-37.078605,299.699647,-74.870716,290.301778
94,-3.125908,-0.463869,-0.107826,0.189685,15.33102,30.381374,38.152816,38.322441,10.663616,40.552459,61.506591,73.396888,1.939418,32.927261,56.290535,75.865997,-5.759251,20.695163,43.191169,56.804054,-10.916256,-14.703152,-18.302788,-23.103688,-22.601639,-29.092447,-29.26562,-29.637407,-1.40271,20.199153,26.402871,28.059523,19.3756,42.696013,45.50378,42.996108,32.875018,54.193693,55.047096,53.131117,42.81145,56.385931,61.207416,63.486488,26.9076,51.927177,74.318699,93.015026,53.763485,85.236843,102.241619,114.452144,43.676536,79.349933,98.794498,111.474392,33.796863,66.708835,84.72607,96.370022,24.940636,48.764522,62.946785,72.385197,-13.391614,-14.174832,-9.684922,-7.879489,18.060699,34.033838,40.56818,44.300128,35.811472,51.919969,56.82515,58.214102,47.45014,64.322761,67.527768,66.666374,54.115233,69.136774,71.103006,68.634928,-40.09798,299.142634,-74.872009,290.398319
95,0.844059,0.858652,-0.179821,0.328043,15.10128,29.444114,37.006702,36.932739,9.763916,39.734653,60.695194,72.260021,1.302967,32.227054,55.248561,74.376354,-6.192238,19.824966,41.767398,55.045909,-11.085091,-14.963574,-18.770028,-23.744351,-22.065756,-28.702296,-28.939886,-30.299174,-1.408947,20.16966,26.077594,27.19787,19.522504,42.732434,45.439843,42.850846,33.119043,54.03723,54.855015,52.973196,43.113483,56.456487,60.815535,62.537619,27.027191,51.928745,74.133522,92.935501,53.275554,84.977691,102.141609,114.423477,43.07642,78.968536,98.627998,111.394844,33.21056,66.211098,84.419334,96.051887,24.441078,48.358509,62.661152,72.014694,-13.363197,-13.99667,-9.31316,-7.265084,18.02676,33.965443,40.381966,44.013841,35.84888,52.047285,56.773267,57.946488,47.465281,64.47479,67.535882,66.448185,54.0005,69.084755,70.960671,68.253348,-39.137609,299.962868,-74.935518,290.687944
96,3.268283,1.023217,-0.102562,0.374961,14.033741,26.713681,33.516175,32.91195,5.969227,35.861939,57.183884,68.774209,-2.517139,28.603787,51.533341,70.643143,-9.637447,16.202946,38.023797,51.423707,-14.005279,-18.246917,-22.21733,-27.27246,-21.546794,-28.160732,-28.338005,-30.182293,-1.341553,20.217974,25.921822,26.807829,19.505065,42.464251,45.051569,42.41805,33.117141,53.510943,54.203264,52.40913,43.206133,56.136323,60.293188,61.931328,26.963928,51.82521,74.016243,92.941955,52.773525,84.862038,102.245682,114.558906,42.413772,78.794128,98.636948,111.33371,32.586399,66.008114,84.293152,95.778534,23.961479,48.297569,62.742485,71.997917,-13.517721,-14.041377,-9.162304,-6.78048,17.910336,33.826752,40.255044,43.9276,35.889067,52.140899,56.636996,57.581197,47.558969,64.675405,67.457372,66.146744,54.008207,69.115803,70.658118,67.610983,-35.698317,300.942754,-74.867071,291.019574
97,9.032067,1.370464,-0.263992,0.389188,11.735069,20.692177,23.965484,20.871654,-3.437794,25.159126,47.256294,59.499161,-12.468373,18.269909,41.619232,60.973205,-18.735581,5.76947,27.68058,41.414406,-21.651512,-27.178139,-31.22485,-36.032925,-21.38954,-27.942766,-27.836024,-29.665862,-1.526199,20.564344,26.091031,26.870259,19.010951,41.515827,43.993142,41.451495,32.542121,52.295127,52.889326,51.209357,42.634176,55.260999,59.082102,60.515601,26.915691,51.858169,74.068107,92.969398,52.537227,84.934684,102.446388,114.844482,42.071056,78.811752,98.763656,111.471542,32.259326,65.999565,84.398437,95.862327,23.709251,48.448883,63.0027,72.205169,-13.695896,-14.133817,-9.116411,-6.619299,17.756096,33.636363,39.973178,43.594827,35.810089,51.995884,56.287069,57.007091,47.528193,64.583595,67.220646,65.790445,53.942937,68.966985,70.262447,67.007582,-26.426777,302.233557,-74.89159,291.329101
98,2.397983,2.909901,-0.268628,0.328253,10.137303,17.77303,22.143826,21.155823,-5.342994,22.955166,45.16515,57.385975,-14.461612,16.058075,39.352307,58.476757,-20.454975,3.925679,25.587147,39.352444,-22.842258,-29.118873,-33.371818,-38.136417,-22.273954,-29.461208,-28.959449,-29.612496,-3.458406,17.863641,24.440616,26.614675,17.153425,38.872193,41.991577,40.094296,31.03041,49.30905,50.103247,48.585681,41.346199,52.926871,56.509642,57.36964,26.899876,51.979031,74.223759,93.095204,52.685086,85.239682,102.84628,115.346135,42.12386,78.970906,98.942059,111.652783,32.257325,66.207116,84.589703,96.013562,23.652581,48.792778,63.389283,72.590138,-13.820311,-14.185243,-9.010299,-6.373594,17.508872,33.372726,39.706885,43.332264,35.553713,51.696407,55.892101,56.473752,47.338433,64.376286,66.974175,65.471565,53.807703,68.89449,70.01626,66.639402,-23.695216,305.009148,-74.82664,291.523044
99,5.085102,1.152893,-0.218856,0.28378,8.680916,14.135056,16.567887,14.148137,-10.208404,17.13984,39.410248,51.44767,-19.29412,10.398354,33.614708,52.669533,-24.833576,-1.55936,20.04181,33.760094,-26.61692,-34.356823,-39.154998,-44.387329,-22.480818,-29.878666,-29.474324,-30.373286,-3.358222,17.464227,23.73198,25.723937,16.969025,37.887459,40.873042,39.075846,30.594538,48.191936,48.815121,47.415338,40.761336,51.833444,55.370495,56.439098,26.937046,52.081638,74.337993,93.183002,52.62648,85.247623,102.887569,115.475956,42.138233,79.008579,99.027797,111.838039,32.364635,66.405819,84.815425,96.326488,23.840068,49.179874,63.792366,73.076099,-13.80801,-14.203188,-9.004149,-6.153935,17.474008,33.196268,39.379102,42.926367,35.517812,51.504648,55.64232,56.231851,47.29695,64.162667,66.748885,65.258774,53.746101,68.670805,69.728083,66.38462,-18.21951,306.03348,-74.654892,291.678263
100,1.072735,1.891748,-0.006878,0.247816,5.749237,10.714886,14.174984,12.136631,-11.360527,16.722645,38.792668,51.570385,-20.644237,10.430672,33.441502,51.353039,-25.570644,-1.465095,19.907604,33.446011,-26.472095,-32.909408,-35.814228,-38.646297,-21.545299,-28.34371,-26.731802,-25.7702,-3.911407,15.294318,21.840071,24.324451,15.721507,34.551134,37.935687,36.740384,29.150789,44.850794,45.924412,44.878817,39.2918,49.936089,53.425975,54.377006,26.848388,52.078033,74.422828,93.147697,52.687717,85.25029,102.878631,115.463562,42.272335,79.074669,99.00769,111.785591,32.528492,66.657016,84.951141,96.41304,23.988647,49.561775,64.216713,73.639503,-13.734872,-14.163333,-9.009422,-6.070868,17.506946,33.038916,39.189121,42.752219,35.510118,51.308875,55.433963,56.060643,47.283699,63.961176,66.522064,65.089912,53.784535,68.55742,69.54203,66.283782,-16.701273,307.780553,-74.216268,291.781404
101,3.83947,0.035939,-0.15897,0.25456,4.072918,8.029141,10.387745,7.537502,-14.976356,11.737209,33.64674,46.668125,-24.481613,5.553246,28.585499,46.681835,-28.993629,-6.312904,14.783581,28.196743,-29.338222,-36.866249,-40.133514,-43.1334,-21.403854,-28.054966,-26.327708,-24.960183,-3.644596,15.637106,22.270138,24.886083,15.929309,34.104271,37.565456,36.520812,29.287171,44.59059,45.597505,44.396632,39.333815,49.711181,53.153705,54.038527,26.895927,52.212868,74.612469,93.296917,52.731434,85.207043,102.75848,115.349155,42.451435,79.065296,98.906307,111.717968,32.790024,66.784447,85.052295,96.58057,24.26485,49.861358,64.552242,74.172809,-13.710394,-14.183995,-9.067418,-6.118391,17.401859,32.808204,38.841862,42.350483,35.330165,50.930221,55.027287,55.667935,47.098806,63.574754,66.153847,64.766747,53.668951,68.291868,69.301154,66.165505,-12.395548,307.663943,-73.908983,291.883415
102,-4.510952,2.42032,-0.021961,0.357486,3.894345,9.198956,15.529724,16.099812,-10.086056,18.307297,39.55259,52.203575,-19.160728,12.277931,34.430809,50.950997,-23.811848,0.555954,20.958801,33.829148,-24.357708,-29.89262,-32.153297,-34.135975,-21.850309,-29.10124,-26.546144,-23.837969,-5.468308,11.986891,19.074048,22.553016,14.185897,30.709591,34.658567,34.351334,27.966786,41.172038,42.611119,41.835682,38.392096,48.011637,51.224881,51.814005,26.845951,52.170593,74.576683,93.333984,52.601955,85.040565,102.577491,115.119232,42.425319,78.9803,98.822021,111.576233,32.860485,66.822818,85.020446,96.440849,24.453449,50.058345,64.724956,74.306396,-13.725721,-14.283204,-9.173024,-6.107536,17.161711,32.464192,38.481967,42.059589,35.136676,50.717453,54.791252,55.480658,46.935191,63.344783,65.813589,64.37126,53.540707,68.016918,68.906828,65.728559,-16.388786,309.947517,-73.41323,292.104155
103,1.100796,2.792749,-0.113663,0.108248,3.711937,8.443188,13.672771,14.023064,-9.576943,17.397938,37.737041,49.994213,-18.489361,11.307278,32.721531,48.725498,-23.254818,-0.403828,18.818745,31.153919,-24.161339,-29.145161,-31.350254,-33.20771,-21.794067,-29.857769,-28.324371,-26.045917,-6.901177,8.870866,15.272099,18.343602,12.008541,27.351171,31.126271,31.262899,25.55726,38.147107,39.898435,39.534441,35.903875,45.405683,48.782652,49.780971,26.884666,52.160694,74.589683,93.55085,52.301147,84.749061,102.292099,114.862884,42.205856,78.758171,98.580459,111.308372,32.788467,66.664581,84.831596,96.169121,24.569012,50.105907,64.731983,74.210129,-13.654955,-14.236409,-9.199181,-6.165729,17.261896,32.467885,38.382809,41.996777,35.270267,50.796297,54.777012,55.457675,47.024606,63.35617,65.672354,64.134312,53.558516,67.821688,68.549009,65.252686,-14.734274,312.653445,-72.973177,292.125582
104,0.969498,-0.248286,0.098671,0.06348,3.241458,7.699573,12.725727,12.971225,-10.490044,15.988185,36.116512,48.259609,-19.563,9.880909,31.291774,47.104831,-24.314278,-2.070832,16.837543,28.832073,-25.12127,-30.398735,-32.657376,-34.535466,-21.717274,-29.746705,-28.229782,-25.690592,-6.615569,9.392348,15.705451,18.718773,12.31954,27.710028,31.364429,31.378348,25.839657,38.485586,40.14372,39.665982,36.101761,45.53384,48.851109,49.844945,26.999737,52.103679,74.455147,93.509285,51.92205,84.420959,101.9767,114.49649,41.741123,78.440758,98.205711,110.783478,32.382454,66.427151,84.4888,95.628753,24.295303,49.985058,64.487251,73.68853,-13.606654,-14.269804,-9.230328,-6.164396,16.989675,32.324451,38.318304,42.002926,35.088214,50.822812,54.764884,55.319786,46.948529,63.380993,65.630375,64.02111,53.568606,67.808387,68.383925,64.904549,-13.172361,312.324822,-72.282091,292.108725
105,-0.236046,0.150387,-0.074398,0.277518,4.413196,9.56686,15.973148,17.845791,-9.676861,16.44865,36.483845,48.378605,-18.940029,9.701763,30.843715,46.738987,-24.047024,-2.534374,16.130275,28.180401,-25.201069,-30.511185,-32.40477,-34.046391,-22.680285,-31.523845,-30.576483,-28.631147,-6.88963,9.34317,15.493054,18.459927,12.541941,27.766566,31.324304,31.074449,26.443465,38.561366,40.180301,39.516385,36.947976,46.011047,48.921072,49.505984,27.052643,52.062744,74.436413,93.643078,51.712749,84.241115,101.785892,114.286663,41.469108,78.3055,98.019275,110.453075,32.169674,66.358143,84.300075,95.245113,24.212757,50.064274,64.357681,73.210201,-13.739639,-14.525784,-9.404365,-6.312201,16.469576,31.983453,38.081529,41.808203,34.692469,50.613145,54.559886,55.020704,46.67831,63.188851,65.384844,63.704356,53.404708,67.616146,68.055537,64.458106,-12.817497,312.418902,-71.765579,292.329936
106,-3.730351,1.525642,-0.0191,0.17736,4.46156,10.77879,21.058663,26.49075,-5.633011,22.274369,41.855873,53.728386,-14.49377,15.71085,36.311165,50.7995,-19.482296,4.023377,22.487618,34.325753,-20.628032,-21.620453,-20.431846,-19.528129,-23.038127,-32.186216,-30.299815,-27.096167,-8.087315,6.661758,13.140476,16.800991,11.329558,25.232429,29.001884,29.278686,25.682182,36.126758,37.976911,37.472571,36.460185,44.761553,46.586141,46.283898,27.12981,52.015857,74.331138,93.603057,51.580032,84.018425,101.49797,113.967636,41.316021,78.059738,97.699607,110.009399,32.038032,66.188987,84.030876,94.840896,24.120826,49.921234,63.999195,72.537345,-13.791041,-14.586633,-9.464807,-6.406161,16.199072,31.832547,37.955632,41.690408,34.464202,50.494609,54.463629,54.894881,46.526058,63.033894,65.211325,63.519006,53.343526,67.51548,67.84556,64.181056,-15.942204,313.909945,-71.179035,292.472697
107,-1.569935,-0.617368,-0.049221,-0.00825,4.690213,12.3597,23.877881,30.520729,-2.554115,24.749463,43.588635,54.951542,-11.324638,18.604271,38.860897,53.181874,-16.418209,7.504315,25.355107,36.870907,-18.070678,-15.114921,-11.992195,-9.84732,-22.402234,-31.297356,-30.05353,-27.579821,-7.354845,6.840995,12.91805,16.662682,11.670902,25.549245,29.451624,29.99798,25.83778,36.665851,38.556883,38.089272,36.429495,44.812879,46.022187,45.297447,27.087558,51.879123,74.165897,93.456584,51.672363,83.921962,101.285533,113.713543,41.390361,77.877422,97.435169,109.675403,32.036911,65.995628,83.780582,94.585292,23.983097,49.643062,63.525547,71.898731,-13.896053,-14.648791,-9.466276,-6.378978,15.987935,31.737427,37.932426,41.66041,34.23633,50.392103,54.487304,54.915259,46.332656,62.893647,65.198086,63.55529,53.196992,67.489001,67.972668,64.429565,-16.969225,313.269942,-70.685342,292.441812
108,6.774754,-4.749113,-0.05127,0.185004,3.582481,9.216602,16.792168,18.848099,-10.824383,15.258247,34.856369,46.706451,-20.318848,9.534439,30.597038,45.636909,-24.924866,-2.164249,16.904961,28.999054,-25.744537,-25.3377,-22.831867,-21.407021,-21.128113,-28.649758,-26.71697,-24.751652,-2.949224,14.074512,19.589231,22.384389,16.105817,31.173337,34.439934,33.952637,29.654919,41.88996,42.914005,41.665473,39.793361,48.619545,49.847501,49.56093,27.0061,51.738934,73.984005,93.217632,51.722237,83.806446,101.082127,113.460377,41.485897,77.769642,97.312099,109.534252,32.121426,65.959534,83.715031,94.564419,24.006271,49.518024,63.268009,71.572872,-14.058531,-14.898003,-9.624258,-6.424982,15.45167,31.346523,37.625947,41.343124,33.795519,50.094405,54.377882,54.911036,46.058496,62.625971,65.081958,63.544719,53.098241,67.474737,68.086523,64.638072,-9.755693,308.49846,-70.297834,292.604447
109,0.705437,2.5342,-0.12569,0.090699,3.066581,8.138248,15.813492,18.157665,-10.952339,15.287452,34.83284,47.142791,-20.753929,9.327896,30.322632,45.056144,-25.318634,-2.06947,17.09571,29.916458,-25.964413,-24.635994,-20.978463,-17.912659,-21.085691,-28.755549,-25.578799,-22.049837,-5.352229,10.234908,16.675464,20.684795,13.578928,26.91651,30.986826,31.458192,27.459,37.673432,39.542086,39.026075,38.033116,45.922262,46.712569,46.148096,26.893764,51.527996,73.674202,92.857109,51.784618,83.763015,100.95861,113.273071,41.594638,77.670158,97.219528,109.462463,32.174846,65.832355,83.639144,94.561271,23.962268,49.113063,62.804546,71.12107,-14.184168,-14.986615,-9.608574,-6.209584,15.419733,31.330517,37.505175,41.035113,33.706278,50.011424,54.355516,54.963449,45.895463,62.46363,65.046316,63.607815,52.855463,67.39766,68.248346,64.970363,-8.717937,311.010013,-70.091205,292.672499
110,5.879459,-1.862306,-0.09874,-0.093119,3.288277,5.820786,8.388989,6.88472,-16.671444,7.015915,26.959591,39.585491,-27.028793,1.236969,23.205517,39.557751,-31.584457,-10.40498,9.582813,23.185352,-32.2584,-33.760734,-32.624977,-32.287216,-20.050841,-27.485467,-25.231885,-22.126383,-3.646621,13.732773,20.300139,24.182573,15.089145,30.046985,33.959874,34.17579,28.464742,40.543073,42.048375,41.122427,38.43868,46.888619,48.305124,48.550644,26.844223,51.344501,73.349029,92.464233,51.834125,83.762306,100.922905,113.231804,41.590507,77.469315,97.037498,109.332756,32.057133,65.500706,83.422394,94.519203,23.725697,48.498012,62.217144,70.686859,-14.218267,-14.974278,-9.552221,-5.987172,15.582519,31.518867,37.605754,41.000458,33.792308,50.18572,54.551956,55.1724,45.885792,62.554291,65.273458,63.896288,52.703544,67.451704,68.577105,65.428896,-2.573891,309.125591,-69.925358,292.557264
111,3.226101,0.959861,-0.210537,-0.236825,3.637344,5.13929,4.964516,1.336887,-19.635281,2.598255,22.938469,35.579292,-30.568783,-3.683441,18.908958,36.38752,-35.243191,-15.565544,4.976761,19.461342,-35.820557,-41.23312,-42.709053,-44.160427,-20.063006,-28.044271,-26.31584,-23.081045,-5.444485,12.343635,19.448848,23.701932,13.683101,29.120049,33.222314,33.390559,27.215432,39.512335,41.281941,40.693509,37.35007,45.810605,47.761584,48.289044,26.805679,51.218147,73.16106,92.291988,51.887501,83.76511,100.917332,113.234173,41.559254,77.322063,96.909794,109.287655,31.916256,65.177685,83.228634,94.485752,23.463924,47.915794,61.702652,70.330982,-14.168262,-14.864374,-9.364426,-5.641679,15.882329,31.746566,37.736022,41.000643,34.018413,50.501994,54.880382,55.533022,45.986124,62.81342,65.647134,64.324045,52.619712,67.574785,68.982274,65.975412,0.830498,310.065217,-69.957607,292.300204
112,-0.789803,2.421542,-0.124111,-0.04104,4.825047,5.898606,4.120697,0.401631,-18.494464,2.667561,23.123703,35.880501,-29.453224,-4.373176,18.4628,36.571175,-34.901287,-16.623893,4.172471,18.896142,-36.186126,-45.167518,-49.011074,-52.202659,-20.482994,-29.517141,-28.954793,-26.553233,-7.369677,10.530001,18.377083,22.816222,11.585835,27.844027,32.203433,32.920651,24.959134,38.00481,40.101409,39.939969,35.032676,43.597545,47.001437,48.820777,26.850071,51.181103,73.105224,92.270691,51.762897,83.758072,100.959892,113.253845,41.333175,77.273414,96.861694,109.203758,31.658924,65.087642,83.126976,94.345848,23.234848,47.708748,61.554794,70.236923,-14.131285,-14.84123,-9.326658,-5.48745,16.093701,31.862077,37.794463,40.95727,34.238998,50.745377,55.000005,55.523377,46.17166,63.055828,65.811342,64.394256,52.716574,67.70561,69.0852,66.003534,0.150386,312.466962,-69.972027,292.239367
113,-0.729423,-0.662026,-0.262173,-0.314964,4.784077,5.725021,4.133011,0.474632,-18.207722,3.188507,23.687691,36.536774,-29.109799,-3.782318,19.207306,37.522339,-34.497883,-15.861168,5.117958,20.04602,-35.708279,-44.312599,-47.926186,-50.753162,-20.118013,-28.56064,-27.778954,-24.847156,-7.167976,11.059523,18.92886,23.263393,11.792513,28.686425,33.037816,33.630979,25.276481,38.820039,41.008498,40.843513,35.327423,44.41843,47.990716,49.843315,26.941532,51.200066,73.023914,92.176838,51.797573,83.802807,101.001927,113.304279,41.19112,77.125294,96.632984,108.962917,31.393112,64.748428,82.824612,94.075848,22.888264,47.254223,61.174061,69.929867,-14.05569,-14.608505,-9.068937,-5.142389,16.522508,32.259897,38.128311,41.221846,34.580935,51.138048,55.244883,55.646977,46.355899,63.376807,66.08087,64.627055,52.720192,67.815241,69.254446,66.190983,-0.505228,311.779936,-70.160391,291.899403
114,-0.553963,0.550517,-0.198189,-0.120512,4.481301,5.618214,5.667435,3.652634,-17.958698,3.410111,23.931061,36.964874,-28.495136,-3.449867,19.632523,37.962456,-33.706352,-15.549522,5.603188,20.62365,-34.681881,-44.138145,-48.49768,-52.035404,-20.532456,-29.439682,-28.910468,-25.953624,-7.488151,10.473315,18.38747,22.948936,11.415638,28.251048,32.684431,33.507886,24.948118,38.394146,40.563315,40.538318,35.133156,43.853994,47.737132,50.058305,27.001431,51.254402,73.12682,92.324147,51.715142,83.788662,101.023007,113.353718,41.04657,77.102108,96.577824,108.874569,31.261071,64.712094,82.75684,93.987431,22.803051,47.443829,61.427273,70.213749,-14.034881,-14.568874,-9.061577,-5.083492,16.618753,32.330614,38.262951,41.446889,34.699236,51.266723,55.312623,55.626142,46.50284,63.550646,66.172495,64.647124,52.892686,67.853576,69.12903,65.970238,-0.997994,312.291248,-70.297383,291.739686
