takenoko1/special-research/HandMotion_SimilarSearch_自分用/NewProject/handData_new/key/d3_feature/39.csv
,vel_0x_L,vel_0y_L,vel_0x_R,vel_0y_R,posFromWrist_1x_L,posFromWrist_2x_L,posFromWrist_3x_L,posFromWrist_4x_L,posFromWrist_5x_L,posFromWrist_6x_L,posFromWrist_7x_L,posFromWrist_8x_L,posFromWrist_9x_L,posFromWrist_10x_L,posFromWrist_11x_L,posFromWrist_12x_L,posFromWrist_13x_L,posFromWrist_14x_L,posFromWrist_15x_L,posFromWrist_16x_L,posFromWrist_17x_L,posFromWrist_18x_L,posFromWrist_19x_L,posFromWrist_20x_L,posFromWrist_1y_L,posFromWrist_2y_L,posFromWrist_3y_L,posFromWrist_4y_L,posFromWrist_5y_L,posFromWrist_6y_L,posFromWrist_7y_L,posFromWrist_8y_L,posFromWrist_9y_L,posFromWrist_10y_L,posFromWrist_11y_L,posFromWrist_12y_L,posFromWrist_13y_L,posFromWrist_14y_L,posFromWrist_15y_L,posFromWrist_16y_L,posFromWrist_17y_L,posFromWrist_18y_L,posFromWrist_19y_L,posFromWrist_20y_L,posFromWrist_1x_R,posFromWrist_2x_R,posFromWrist_3x_R,posFromWrist_4x_R,posFromWrist_5x_R,posFromWrist_6x_R,posFromWrist_7x_R,posFromWrist_8x_R,posFromWrist_9x_R,posFromWrist_10x_R,posFromWrist_11x_R,posFromWrist_12x_R,posFromWrist_13x_R,posFromWrist_14x_R,posFromWrist_15x_R,posFromWrist_16x_R,posFromWrist_17x_R,posFromWrist_18x_R,posFromWrist_19x_R,posFromWrist_20x_R,posFromWrist_1y_R,posFromWrist_2y_R,posFromWrist_3y_R,posFromWrist_4y_R,posFromWrist_5y_R,posFromWrist_6y_R,posFromWrist_7y_R,posFromWrist_8y_R,posFromWrist_9y_R,posFromWrist_10y_R,posFromWrist_11y_R,posFromWrist_12y_R,posFromWrist_13y_R,posFromWrist_14y_R,posFromWrist_15y_R,posFromWrist_16y_R,posFromWrist_17y_R,posFromWrist_18y_R,posFromWrist_19y_R,posFromWrist_20y_R,posFromBody_0x_L,posFromBody_0y_L,posFromBody_0x_R,posFromBody_0y_R
6,4.12928,-0.402736,0.57241,-0.061355,0.774387,-5.402584,-15.038464,-24.225552,-32.99596,-14.374867,7.186935,20.587074,-42.663941,-19.353092,4.94648,23.327476,-46.064747,-30.22181,-6.409012,10.341774,-45.846783,-58.730736,-64.594448,-70.123032,-18.280395,-23.474086,-19.829293,-12.995572,-5.713605,13.863572,21.226358,24.884712,12.100462,29.898314,34.255053,35.64235,25.132726,39.394577,41.84161,42.281038,35.33876,44.363077,49.126516,52.958759,26.347904,50.332421,71.973381,91.372353,49.868477,82.774224,100.413437,113.029244,40.086594,76.892922,97.052239,110.132332,31.130871,65.312428,83.93232,95.77089,23.438462,49.655731,64.503754,74.343842,-13.96609,-14.896904,-9.285125,-4.784977,15.588348,30.774911,36.192374,39.34162,33.392906,48.649667,52.04836,52.429595,45.296274,60.935591,63.118715,61.848781,51.869741,65.67349,66.517853,63.563157,13.109802,306.923121,-69.34813,289.736153
7,-8.17012,4.344203,0.125233,0.434773,0.97483,-3.660599,-10.880082,-17.35952,-24.949631,-3.198967,17.53894,29.983657,-33.662373,-8.328061,14.865554,31.965683,-37.23824,-18.889367,3.89447,19.554657,-37.249043,-47.881302,-53.52578,-59.01891,-18.787921,-24.851527,-22.11486,-15.397613,-8.007917,9.733606,17.699002,22.165347,8.915043,26.229809,30.923063,33.183585,21.53884,35.233933,37.908232,38.836118,31.375829,39.926989,44.842235,48.886084,26.257736,50.183475,71.862728,91.251743,49.720676,82.658352,100.327915,112.952991,39.918732,76.833584,96.998554,110.051319,30.97134,65.309933,83.857418,95.549961,23.302071,49.677326,64.475452,74.192951,-14.197025,-15.24798,-9.653949,-5.171807,15.334479,30.43947,35.865652,38.991359,33.158007,48.3246,51.606881,51.825107,45.073898,60.583428,62.611657,61.200499,51.664408,65.474863,66.151722,62.983864,4.651309,311.277501,-69.51127,290.181103
8,0.455383,-1.418222,-0.025589,0.23123,1.638222,-2.854317,-10.152992,-16.866142,-25.533714,-4.386315,16.817757,29.561783,-34.542,-9.689953,14.103653,31.676376,-38.18375,-20.181221,2.927032,18.598526,-38.120705,-48.630489,-53.872124,-59.210701,-18.732197,-25.490743,-24.5294,-18.89365,-7.098889,11.552403,19.280788,23.169261,10.466473,28.387109,32.724779,33.832075,23.302049,37.225582,39.607233,39.694647,33.083191,42.093836,47.118615,50.625347,26.209373,50.151432,71.921299,91.451397,49.857136,82.681858,100.326725,112.956745,40.023651,76.87167,97.014896,110.010372,30.99892,65.311947,83.81908,95.417164,23.218563,49.614235,64.371895,73.962765,-14.284747,-15.334035,-9.781055,-5.418043,15.278917,30.260431,35.695332,38.83413,33.15823,48.195159,51.438513,51.622604,45.07969,60.488641,62.438571,60.934516,51.65007,65.448694,66.01492,62.726538,4.932421,309.869427,-69.71113,290.422481
9,1.477936,-1.677425,0.053684,0.115548,2.687702,-0.752964,-6.758412,-12.281514,-26.731602,-6.165207,15.637344,29.421363,-37.114231,-12.564618,12.232956,31.433349,-41.296715,-24.539669,-0.687561,16.399177,-41.613968,-53.203812,-58.347222,-63.175564,-19.307575,-25.939705,-24.266677,-18.603349,-7.322734,12.373387,20.892684,25.067814,11.210096,29.721041,34.497325,35.1584,24.853652,39.326417,41.771807,41.697744,35.249284,44.440265,48.882058,51.584096,26.058575,50.048641,71.925682,91.485878,50.037747,82.794296,100.434403,113.001778,40.215592,77.057579,97.10257,109.974701,31.082371,65.468056,83.874481,95.364876,23.12138,49.609612,64.382572,74.016175,-14.312363,-15.340297,-9.777104,-5.407311,15.462266,30.318686,35.712338,38.767723,33.272653,48.09684,51.303514,51.487011,45.106243,60.308737,62.191297,60.667519,51.619787,65.37752,65.866064,62.559206,6.297243,308.202426,-69.77056,290.548453
10,-7.47551,4.687659,-0.114155,-0.19134,2.868942,0.681004,-2.415642,-4.485432,-19.945095,3.394569,24.494774,37.576904,-28.905968,-2.794292,21.119637,39.210526,-32.86084,-13.235275,9.815849,25.829063,-33.042698,-42.121502,-46.997612,-51.942719,-20.374277,-28.354072,-27.708842,-22.050121,-10.371204,7.301245,16.359006,21.181663,7.562524,25.7136,30.665242,31.951318,20.974417,34.822268,37.308438,37.348057,31.169978,39.708615,44.313158,46.970451,26.073864,50.167328,72.035237,91.513745,50.277993,83.006436,100.54311,113.063725,40.411423,77.12669,97.027211,109.846676,31.187966,65.407471,83.757374,95.314076,23.122376,49.410897,64.121579,73.794308,-14.275856,-15.148834,-9.479195,-5.126544,15.55047,30.495762,35.893242,38.927484,33.357498,48.219983,51.485826,51.702014,45.175416,60.433708,62.434372,60.995328,51.671979,65.514124,66.08098,62.843814,-1.228855,312.896819,-69.935303,290.363847
11,1.945381,-2.101404,-0.067028,-0.102148,3.124169,0.380757,-4.123764,-7.969265,-21.941402,0.300476,21.611138,34.909973,-31.241398,-5.689636,18.415787,36.665474,-35.230259,-16.299991,6.870049,22.639664,-35.299793,-45.006798,-50.176803,-55.821934,-19.343452,-27.119126,-27.431187,-22.327454,-7.870596,11.069157,19.822685,24.400244,9.689603,28.316578,33.126824,33.91902,22.480485,37.111949,39.319637,38.847481,32.202519,41.22486,46.388515,49.641527,26.075478,50.214306,72.120095,91.599038,50.34113,82.994774,100.528244,113.030663,40.465691,77.238694,97.122734,109.849526,31.236477,65.561428,83.865372,95.350342,23.170304,49.527867,64.234188,73.876946,-14.284377,-15.067804,-9.282779,-4.860906,15.797312,30.712321,36.048779,39.007427,33.67886,48.459204,51.63257,51.73967,45.49679,60.691146,62.588798,61.052015,51.98062,65.750159,66.209446,62.906874,0.688917,310.801908,-70.02994,290.268192
12,5.323906,-1.886783,-0.12561,-0.150362,2.804318,-0.869316,-6.8577,-12.792927,-27.104473,-5.981758,15.816101,29.609963,-37.324482,-12.218788,12.597931,31.632202,-41.218632,-23.515217,0.653435,17.537842,-41.037804,-52.513126,-57.811706,-63.223366,-19.472054,-26.524075,-24.922887,-19.063205,-7.735302,11.853127,20.526565,24.951452,10.778818,29.14733,33.810672,34.207974,24.339258,38.670615,40.841586,40.378446,34.792899,43.523851,47.999645,50.757529,26.080971,50.31102,72.297134,91.793907,50.508373,83.066849,100.633118,113.230202,40.561031,77.279778,97.1418,109.931877,31.251617,65.606026,83.891281,95.465492,23.091797,49.563446,64.227963,73.851059,-14.234174,-14.978217,-9.176259,-4.807578,15.94818,31.004672,36.365114,39.277757,33.853416,48.776749,51.925687,51.922673,45.712459,61.021609,62.876801,61.256149,52.241157,66.082438,66.522039,63.20372,6.008537,308.920963,-70.159836,290.123668
13,-3.242454,-0.831112,-0.155354,-0.399624,3.025463,0.713905,-3.949711,-9.410901,-24.421097,-2.34311,18.858421,31.998458,-34.567955,-8.538655,15.574676,34.088768,-38.787255,-19.998436,3.57138,19.70224,-38.890171,-49.72102,-55.000534,-60.506138,-19.854412,-26.735013,-25.12602,-19.808754,-6.480285,13.210674,21.628379,25.790603,11.943382,30.629057,35.024698,35.061563,25.265009,40.244238,42.015277,41.144436,35.552652,44.560135,49.170063,52.133749,26.102784,50.260437,72.206234,91.64304,50.40128,83.007443,100.614407,113.237195,40.350152,77.177044,97.042157,109.787945,30.994526,65.46674,83.780148,95.298672,22.837979,49.336636,64.02071,73.538441,-14.074944,-14.729338,-8.935853,-4.438101,16.372232,31.502343,36.871294,39.761671,34.330883,49.401737,52.509475,52.437808,46.158161,61.668407,63.44099,61.709805,52.602212,66.563153,66.909733,63.44798,2.77339,308.097724,-70.307883,289.731917
14,-1.313805,-0.262303,-0.321888,-0.439638,1.120708,-1.164105,-5.233749,-11.381619,-23.533459,-0.873253,20.193306,33.125999,-33.079159,-6.971821,16.489334,33.962059,-37.266312,-18.564629,3.97039,19.103233,-37.473965,-47.626316,-52.113625,-56.639179,-19.429174,-25.186449,-21.970722,-15.390265,-4.258345,14.063199,21.923187,26.038173,13.370125,29.878876,34.446504,34.838076,26.143136,39.44315,41.378531,40.872622,36.442166,44.90238,49.38241,52.409921,26.199063,50.413674,72.419083,91.797661,50.570824,83.148331,100.728539,113.400765,40.387425,77.093812,96.910744,109.722542,30.92347,65.194268,83.505867,95.110863,22.660035,48.989583,63.588273,73.018158,-13.944515,-14.565947,-8.783959,-4.212601,16.763125,31.992851,37.407399,40.295812,34.669769,49.996851,53.178281,53.097487,46.423947,62.295334,64.169941,62.390949,52.772532,67.006582,67.476416,63.983887,1.479263,307.837132,-70.610093,289.29399
15,5.464348,-5.042501,-0.252845,-0.238727,1.057915,-1.678608,-7.595501,-16.114174,-28.697388,-8.279503,13.021225,26.194885,-39.400189,-14.551563,9.355385,27.679504,-44.011437,-27.482437,-4.494484,11.280327,-44.614598,-56.7659,-61.416996,-65.743069,-18.510032,-22.963633,-18.743943,-12.447241,-0.544392,19.684314,26.600768,29.696575,17.654862,34.881276,38.925199,38.385118,30.532985,44.819029,46.34256,45.417069,40.982291,50.266934,54.751607,58.084438,26.31372,50.533939,72.57399,91.922355,50.764068,83.319351,100.954651,113.610351,40.473289,77.219375,97.078468,109.859436,30.914234,65.23994,83.561531,95.076416,22.567726,48.910927,63.519802,72.850708,-13.794264,-14.463651,-8.727779,-3.982087,17.065405,32.342791,37.812988,40.696349,34.947596,50.463721,53.665023,53.554786,46.641271,62.768713,64.616224,62.731206,52.912594,67.335032,67.792232,64.191183,6.98041,302.787412,-70.826139,289.048044
16,-4.722382,2.670828,-0.329075,-0.279594,0.730305,-0.300533,-2.448864,-7.496338,-24.290737,-1.779877,19.021614,31.746231,-34.482422,-8.469005,14.674256,32.213173,-39.151268,-21.069408,1.070824,16.367134,-39.800422,-50.584522,-54.536693,-57.777752,-19.935268,-25.024453,-19.600581,-12.366755,-2.636038,15.489251,22.585559,26.054648,15.750777,31.328133,35.563693,35.542883,28.994276,41.346137,43.075482,42.75664,39.865288,48.259701,52.091425,54.90528,26.550259,50.787517,72.814258,92.135593,50.821506,83.474476,101.168438,113.829655,40.448158,77.276653,97.168682,109.954479,30.896965,65.276173,83.6143,95.06068,22.637913,48.990406,63.572296,72.743763,-13.64363,-14.324156,-8.639871,-3.834132,17.187832,32.606811,38.1776,41.147017,35.107518,50.897456,54.144947,54.032562,46.794833,63.20845,65.062198,63.109366,53.02377,67.61128,68.013225,64.262666,2.312771,305.444445,-71.100471,288.754655
17,-5.989185,0.878585,-0.254128,-0.201837,1.377514,2.1339,3.013733,1.46949,-18.817635,5.304188,25.526584,37.495685,-28.281727,-1.551659,21.015598,37.973774,-33.150444,-13.461605,7.622646,21.876652,-34.290619,-42.769833,-46.263668,-49.471905,-20.472867,-26.313394,-22.073055,-15.681072,-2.613203,14.708059,21.594724,25.110645,15.550495,31.067534,35.322458,35.614995,28.523726,40.705501,42.19728,41.69268,38.960694,47.591771,51.682625,54.666071,26.609276,50.808129,72.828221,92.094738,50.941121,83.664379,101.338658,113.922055,40.554348,77.463192,97.331623,109.981465,31.024487,65.479741,83.761128,95.036419,22.830769,49.254456,63.805973,72.831654,-13.656178,-14.42828,-8.717257,-3.674533,17.358683,32.803683,38.469518,41.520853,35.348764,51.179643,54.44472,54.323887,47.027224,63.529824,65.361909,63.312895,53.233758,67.845597,68.122511,64.216711,-3.587139,306.304397,-71.265324,288.534185
18,0.098602,-0.143619,-0.176399,0.089797,1.465336,2.116322,2.860748,1.18507,-18.516357,5.383335,25.515759,37.27882,-28.129314,-1.457153,20.970005,37.534001,-33.157619,-13.516594,7.399601,21.416668,-34.448433,-42.66338,-45.98093,-48.897674,-20.045061,-25.522322,-20.805702,-13.949579,-2.433003,14.711789,21.469161,24.860592,15.645825,30.975427,35.082842,35.384555,28.647387,40.588262,41.944338,41.489768,39.117725,47.742232,51.692789,54.639049,26.649742,50.920853,72.968411,92.25848,51.090935,83.85458,101.495327,113.988567,40.737465,77.753163,97.597332,110.165989,31.250908,65.85054,84.057026,95.21941,23.132092,49.731949,64.242497,73.179875,-13.806145,-14.696795,-8.870755,-3.7297,17.294117,32.807018,38.517832,41.606921,35.326534,51.144618,54.379562,54.212601,47.047454,63.448586,65.207015,63.104883,53.315738,67.815748,67.954081,63.980862,-3.383148,306.135994,-71.336334,288.599198
19,0.978905,-0.72805,-0.024708,0.16969,0.969257,0.688225,0.16769,-2.597065,-19.978191,4.165638,24.275745,36.109692,-29.268562,-1.922196,20.89864,37.540752,-33.973034,-13.53764,7.855602,22.241009,-35.058003,-42.982658,-46.114769,-48.760895,-18.573375,-22.919431,-17.645032,-10.551404,-1.118633,16.061702,22.467295,25.642822,16.293686,31.803241,35.591258,35.839038,28.877099,41.162627,42.53324,42.198379,38.98532,48.18108,52.245863,55.420118,26.632141,50.843102,72.835625,92.16829,50.983281,83.834999,101.484925,113.903115,40.656201,77.944428,97.801461,110.254853,31.271611,66.252148,84.427163,95.42054,23.319432,50.224697,64.730793,73.529,-13.925767,-14.91638,-9.057353,-3.83249,17.183893,32.734017,38.442423,41.552235,35.350222,51.063108,54.173698,53.915718,47.154665,63.368631,64.930423,62.724883,53.490566,67.732953,67.616813,63.52323,-2.258938,305.384532,-71.215737,288.745476
20,0.644806,-0.105543,-0.119991,0.084376,0.981891,0.519562,-0.406483,-3.659054,-20.392273,3.529964,23.755016,35.681728,-29.92194,-2.561806,20.255688,36.781414,-34.674877,-14.431606,6.942776,21.349125,-35.76004,-43.716603,-46.875664,-49.50111,-18.155955,-22.131447,-16.490757,-8.936854,-1.053376,16.190636,22.723842,26.005161,16.279977,31.604354,35.536757,35.921523,28.906294,41.102741,42.539105,42.251879,39.051232,48.198851,52.236365,55.39685,26.634876,50.816849,72.852642,92.269947,50.789921,83.770969,101.398853,113.806355,40.479412,77.946613,97.795933,110.23415,31.203724,66.368305,84.531269,95.530323,23.396359,50.444824,64.922356,73.68211,-14.068102,-15.115155,-9.259548,-4.098609,17.180583,32.703389,38.342177,41.41815,35.415121,51.00153,54.051704,53.768801,47.262419,63.347364,64.825595,62.602815,53.622638,67.736028,67.520432,63.385217,-1.440336,305.2603,-71.161932,288.811163
21,0.585205,-0.170283,-0.060768,0.105927,1.176178,0.764145,-0.518063,-4.042568,-21.02393,2.639179,23.033672,34.791355,-30.55259,-3.317242,19.664028,36.218067,-35.153984,-14.969525,6.728176,21.231892,-36.164555,-44.225727,-47.570252,-50.441494,-17.959021,-22.069906,-16.901236,-9.782303,-1.041137,16.252782,22.683544,25.981189,16.538304,32.203939,35.799912,35.854487,29.294333,41.755344,42.916758,42.375195,39.335951,48.586002,52.480069,55.298877,26.552845,50.7491,72.845364,92.262257,50.823772,83.760784,101.353352,113.759571,40.493763,77.916859,97.725346,110.142277,31.161507,66.304035,84.429462,95.420551,23.263824,50.331802,64.738872,73.444805,-14.172016,-15.301987,-9.444701,-4.234325,17.07983,32.616975,38.251527,41.319584,35.303797,50.884649,53.977097,53.732047,47.17992,63.280809,64.768871,62.548338,53.596332,67.679612,67.477491,63.363098,-0.674223,305.076596,-71.041792,288.903669
22,0.667087,0.604796,-0.071709,0.056007,1.275879,0.545105,-0.549476,-3.89344,-21.392063,1.913109,22.449326,34.119645,-30.898933,-3.839195,19.173775,35.519577,-35.394401,-15.535686,6.452454,21.034447,-36.05199,-45.186973,-49.21249,-52.883159,-18.104554,-22.619263,-17.780254,-10.841854,-1.317668,15.816886,22.343608,25.823157,16.226723,31.942067,35.356569,35.246999,29.009775,41.755776,42.532671,41.752108,39.113143,48.298887,52.309268,55.275115,26.601277,50.814057,72.942982,92.411579,50.803437,83.685894,101.270016,113.680699,40.470349,77.821553,97.624706,110.034336,31.115765,66.178448,84.309048,95.311695,23.175625,50.143982,64.496544,73.16708,-14.165557,-15.282078,-9.437661,-4.199299,16.944882,32.48725,38.094447,41.135457,35.15924,50.824702,53.975171,53.741532,47.049331,63.239721,64.76277,62.540114,53.475487,67.628718,67.451667,63.31728,0.18235,305.674602,-70.924015,288.952886
23,-3.462101,5.890865,-0.116386,-0.013733,0.712578,-0.257778,-0.429885,-1.588737,-17.821449,6.659581,26.770489,38.325863,-25.96479,1.093964,23.441723,39.165493,-29.938465,-9.370536,11.939793,26.226185,-30.416931,-38.836956,-43.532833,-47.975921,-18.415887,-24.412247,-21.192049,-15.007956,-4.656956,9.855625,17.094268,21.786571,11.867232,25.877783,30.12568,31.379114,24.222773,35.300019,36.94132,37.058905,33.952489,41.99359,46.021903,48.749987,26.705498,50.927376,73.106335,92.649845,50.833076,83.583355,101.19849,113.673328,40.483875,77.670284,97.467762,109.88174,31.102581,66.03717,84.126102,95.068462,23.114364,49.976372,64.258415,72.818584,-14.062903,-15.152328,-9.411356,-4.244081,16.907139,32.45656,38.04701,41.057713,35.08052,50.874287,54.118543,53.917595,46.955075,63.314859,64.885592,62.64704,53.412526,67.668238,67.50476,63.341683,-3.071824,311.561145,-70.832474,288.934831
24,3.768998,-0.955204,-0.14518,-0.029628,2.520996,1.230777,-0.51352,-1.859997,-20.194908,2.123371,22.039341,33.395816,-29.498555,-4.307019,17.840503,34.085003,-34.242794,-15.317562,6.165813,20.626659,-35.447319,-45.01799,-50.917546,-56.716999,-19.327213,-27.02266,-25.959108,-21.270646,-5.452512,11.045271,18.286964,22.604627,12.055977,28.071848,31.888703,32.696435,24.743723,37.404706,38.405137,37.884643,34.521394,42.929355,47.411657,50.65506,26.833775,51.098637,73.358173,92.913265,50.982742,83.560741,101.188923,113.750645,40.657173,77.579372,97.372799,109.836491,31.250588,65.983589,84.00539,94.933056,23.185696,49.978283,64.21122,72.775715,-13.949529,-15.056887,-9.410491,-4.27114,16.857344,32.412717,38.034759,41.043362,34.972321,50.856306,54.172871,53.965476,46.870539,63.319404,64.957049,62.690439,53.422295,67.786305,67.68002,63.511534,0.885092,310.607021,-70.789736,288.906283
25,-4.416172,1.754489,0.08773,-0.069457,3.246173,3.592437,4.454074,5.355571,-16.726754,8.150093,28.070549,39.065506,-25.680725,1.251297,23.226333,39.086952,-29.931439,-9.097195,12.452682,26.845138,-30.553048,-39.065667,-44.446129,-49.818982,-20.765021,-29.177279,-27.993067,-23.166988,-7.838338,7.70392,15.467095,20.357493,10.321779,25.953698,29.968167,30.861263,23.622102,35.36934,36.569471,36.290038,33.636833,41.584963,45.358012,47.667996,26.820157,51.06173,73.290585,92.854535,50.752705,83.430302,101.187733,113.752293,40.41346,77.553807,97.408436,109.790806,30.998291,66.030442,84.085682,94.905568,22.98325,49.93126,64.301743,72.952549,-13.789744,-14.847232,-9.24742,-4.102438,16.812155,32.451027,38.086531,41.119056,34.924613,50.903743,54.15794,53.933786,46.836737,63.299014,64.843169,62.528838,53.401102,67.807831,67.64549,63.454983,-3.379829,312.367386,-70.550755,288.842702
26,-2.716267,0.102123,0.118218,-0.17479,3.458141,3.768608,5.349815,7.554359,-14.563694,12.122074,31.925526,42.842159,-22.897877,5.417541,27.376888,43.096424,-27.102894,-4.541748,16.479046,30.422596,-27.855858,-33.541443,-37.29808,-41.472084,-20.682745,-28.825759,-27.438511,-22.337149,-7.385028,8.135703,15.761435,20.431297,10.377589,26.322077,30.256405,31.239583,23.376705,35.429768,36.502632,35.820957,33.055119,41.424708,45.010011,47.104931,26.744064,50.988052,73.26218,92.82114,50.460102,83.347309,101.153767,113.701939,40.08847,77.462871,97.337803,109.711887,30.708973,65.987503,84.113674,94.997417,22.743175,49.882862,64.336086,73.08942,-13.69434,-14.744825,-9.126217,-3.973454,16.923898,32.644911,38.275857,41.29271,35.057524,51.037938,54.210192,53.919471,47.004858,63.431184,64.919418,62.572458,53.571903,67.993057,67.864406,63.715828,-5.964071,312.47711,-70.300512,288.675513
27,4.38636,-4.168153,0.254322,-0.110929,3.632183,3.223023,1.895279,0.808136,-18.837524,6.429257,26.288716,37.6852,-28.130859,-0.588009,21.547474,37.814106,-32.868496,-11.510284,9.566609,23.684933,-34.091125,-40.246639,-43.763409,-47.168621,-19.509487,-26.45873,-24.696744,-19.796046,-4.10513,13.432197,20.005281,23.322995,13.794783,30.594946,33.649368,33.645404,26.505636,39.413769,40.055974,39.066818,36.091659,45.352825,49.012278,51.450555,26.643688,50.862076,73.223808,92.758575,50.08366,83.277878,101.13208,113.572449,39.666939,77.416145,97.315613,109.62291,30.326958,65.984299,84.134239,94.992622,22.451328,49.882278,64.404259,73.206619,-13.641296,-14.7613,-9.1255,-3.911654,16.952909,32.68106,38.292184,41.312224,35.128463,51.044632,54.13666,53.842568,47.154245,63.494392,64.90408,62.555526,53.765997,68.167947,68.035542,63.916234,-1.483692,308.314286,-69.952171,288.569913
28,0.972187,-2.779398,0.351665,-0.048462,3.828587,4.318989,4.461479,3.223904,-20.258079,5.137665,25.228958,37.044571,-30.409378,-2.422027,20.248856,37.005821,-35.268013,-13.959274,7.589791,22.30632,-36.28252,-42.3437,-43.899273,-44.97393,-20.03712,-26.293474,-22.102164,-15.657262,-3.455862,14.614211,20.957373,23.781269,15.344076,31.802117,34.88403,34.491767,28.765133,41.183906,41.855269,40.824543,39.2392,48.491882,51.573895,53.610361,26.417325,50.603749,72.972989,92.445454,49.751565,83.258778,101.137265,113.451085,39.29535,77.449757,97.343113,109.585911,29.94413,65.997105,84.185978,95.091191,22.079533,49.77982,64.378808,73.311894,-13.671862,-14.914058,-9.251199,-3.834564,16.825864,32.583816,38.169536,41.153834,35.050238,50.860196,53.832614,53.50614,47.17093,63.371991,64.700415,62.384429,53.823883,68.215162,68.107741,64.045539,-0.456368,305.541807,-69.545369,288.52837
29,-8.014023,2.509537,0.313981,-0.115547,3.491307,5.545887,8.326607,9.549958,-13.535877,14.307106,33.791726,44.911377,-22.263279,7.254513,29.505822,45.591866,-26.666439,-3.252285,17.321457,31.078629,-27.564903,-30.643032,-31.181991,-31.67332,-19.720044,-24.971892,-19.700259,-12.238846,-4.190593,11.744842,18.451369,21.941984,13.426676,28.91584,32.550902,32.952823,26.39919,38.099831,39.307212,38.647026,36.457912,45.577411,48.725657,50.569857,26.196395,50.386699,72.734928,92.198238,49.400241,83.099247,101.00806,113.215038,38.896774,77.368412,97.248882,109.376712,29.53823,65.912315,84.131458,95.007694,21.702667,49.582042,64.241397,73.21764,-13.77869,-14.995421,-9.262389,-3.796168,16.76189,32.610146,38.25932,41.27342,35.062588,50.88665,53.823907,53.493641,47.22322,63.432864,64.697364,62.388701,53.854585,68.254929,68.139159,64.091111,-8.440161,308.055898,-69.201158,288.417377
30,3.436673,-1.093748,0.195282,0.005237,3.312858,4.189315,4.774143,4.306491,-15.747666,9.911441,29.162304,40.575817,-24.818951,2.734176,24.90002,41.215816,-29.907383,-8.523354,11.447971,24.869739,-31.50198,-35.159192,-36.216946,-37.130654,-18.870037,-24.12927,-19.668643,-12.941318,-2.253853,14.372964,20.35627,23.170347,14.837858,30.266038,33.405688,33.724765,27.189447,39.19805,40.026394,39.251933,37.014024,46.357059,50.150708,52.956461,26.107223,50.328117,72.781459,92.225658,49.421012,83.04459,100.926029,113.104007,38.850219,77.26688,97.093036,109.142864,29.419258,65.807888,83.897975,94.601154,21.496742,49.556041,64.078113,72.793613,-13.875157,-15.204903,-9.48027,-3.959202,16.769361,32.644664,38.38634,41.436292,35.115396,50.984252,53.914544,53.556564,47.31913,63.564997,64.706959,62.280897,54.00959,68.340872,68.11888,63.999399,-4.978832,306.967618,-68.98122,288.428082
31,2.135067,0.140321,0.22071,-0.045819,3.758331,4.633644,4.168968,2.231002,-16.640191,7.201217,26.180969,37.567474,-26.554093,-0.61916,21.162551,37.490387,-32.097645,-12.993267,6.936401,20.633285,-33.902871,-40.509156,-43.010125,-44.856183,-18.82323,-24.400687,-20.049161,-13.536221,-3.052199,13.445177,19.775631,22.929781,14.191715,28.814447,32.595313,33.293007,26.722293,37.932858,39.363924,39.36774,36.971899,45.402052,49.473294,52.784611,25.953141,50.168187,72.682125,92.172284,49.264904,82.896115,100.750225,112.878239,38.740448,77.313275,97.120709,109.150349,29.327237,65.87455,83.960003,94.642536,21.428547,49.575589,64.168831,72.978573,-13.963213,-15.359934,-9.691777,-4.18348,16.682837,32.417422,38.134177,41.185499,35.081063,50.811092,53.686117,53.345119,47.33836,63.448017,64.535294,62.157915,54.047134,68.260523,68.024266,63.951839,-2.823652,307.114664,-68.740397,288.388988
32,-4.998288,3.682696,0.146714,-0.078473,3.572308,5.406578,7.703053,9.161259,-12.141964,13.462956,32.341175,43.495961,-21.064224,5.706837,27.310604,43.444485,-26.187629,-5.578388,14.260517,27.889126,-27.793613,-33.406906,-35.794841,-37.952247,-20.126114,-26.799629,-22.71831,-15.893593,-5.966745,8.678786,15.964519,20.318084,11.080247,24.886281,29.63427,31.513582,23.840056,33.956305,35.983361,36.503027,34.066887,41.461684,45.414773,48.303951,25.751094,50.015762,72.595287,92.112705,49.308105,82.843769,100.659977,112.797924,38.79673,77.324649,97.062847,109.069118,29.346839,65.884666,83.913768,94.566318,21.393528,49.596096,64.194946,73.038173,-14.091036,-15.496784,-9.825898,-4.252998,16.74628,32.445507,38.161459,41.182807,35.122498,50.775684,53.60268,53.250258,47.344869,63.422416,64.445472,62.061313,54.042491,68.241826,67.95949,63.907243,-7.811377,310.809713,-68.58312,288.322868
33,-1.329494,-2.99655,0.158683,-0.156488,5.019195,7.583828,9.0989,9.538124,-11.226162,14.351875,33.194733,43.769668,-20.413056,6.798832,28.465645,44.751388,-26.075729,-5.317543,14.562813,27.71331,-28.206356,-34.317078,-38.206982,-42.215138,-20.20287,-26.673226,-24.143102,-18.929082,-3.923176,12.529579,19.41018,23.272471,13.391293,29.585228,33.535513,34.548726,25.970877,38.671109,39.949256,39.860644,35.797085,44.463681,48.985034,52.474722,25.71753,50.033524,72.723072,92.237309,49.283913,82.72633,100.430066,112.574055,38.857888,77.260563,96.947331,108.997982,29.482842,65.879471,83.884106,94.61491,21.600758,49.725666,64.361699,73.359593,-14.128926,-15.492215,-9.814709,-4.278253,16.930086,32.522584,38.230199,41.319473,35.27748,50.76762,53.604841,53.322556,47.444657,63.43878,64.510594,62.196139,54.084296,68.232131,67.995059,64.029768,-9.141111,307.824109,-68.424677,288.177326
34,2.54163,-2.589083,0.182339,-0.060157,2.866871,4.023044,4.05812,1.473735,-13.451008,11.874904,31.055957,42.320423,-22.705651,4.915878,26.449917,42.160686,-28.043953,-7.377549,12.848682,25.935939,-29.560994,-34.960465,-36.619171,-38.337662,-18.856267,-24.209892,-20.537101,-14.775639,-1.383358,14.760324,21.042366,24.447753,16.376777,31.404925,35.175121,35.566125,28.801911,40.194257,41.041979,40.937991,38.512151,46.733304,49.815341,51.885919,25.673321,50.030262,72.774239,92.160027,49.385147,82.74408,100.35807,112.508949,38.980339,77.208481,96.81427,108.874008,29.599526,65.818382,83.806114,94.650215,21.701569,49.752457,64.455196,73.659119,-14.161098,-15.534057,-9.873878,-4.368113,16.860938,32.439962,38.172944,41.317905,35.15425,50.555384,53.460555,53.297658,47.300927,63.24949,64.448658,62.28154,53.967551,68.109618,67.965369,64.126062,-6.610822,305.252214,-68.253679,288.134357
35,-6.431065,-0.616492,0.467583,-0.186943,4.246365,7.455986,10.02158,8.627106,-7.551681,19.817207,38.450638,48.834686,-16.360725,12.965847,33.764534,48.785935,-22.081879,0.181194,19.711647,31.958107,-24.100262,-28.791927,-30.559284,-32.752819,-19.840704,-25.453816,-22.254688,-17.187066,-1.019153,14.788792,20.736925,23.902535,16.847303,32.555756,36.158917,36.404202,29.18343,41.51416,42.174963,42.024206,38.717286,47.334914,50.166677,51.841645,25.569752,49.938434,72.700401,92.069549,49.409157,82.691757,100.187073,112.301124,39.052414,77.145538,96.661377,108.793533,29.597248,65.572105,83.618042,94.702469,21.523807,49.219345,63.988609,73.462189,-14.107055,-15.383621,-9.696951,-4.223889,16.74029,32.231529,37.912715,41.053996,34.881993,50.177162,53.223335,53.235746,46.920964,62.880136,64.396207,62.513746,53.529234,67.830098,67.981053,64.371408,-13.057297,304.671568,-67.801506,287.98326
36,-1.850304,-3.396717,0.601764,-0.100443,5.222329,9.292466,11.785641,9.736428,-6.004818,21.729126,40.089982,49.87999,-14.602134,15.219189,35.60376,50.231461,-20.699478,1.951767,20.565171,31.41314,-23.182125,-27.583282,-30.270515,-33.873058,-20.084519,-25.450334,-23.239397,-19.491863,2.258101,19.412909,24.02727,25.752379,20.111566,37.97391,40.29244,39.485547,31.907302,46.882024,46.223357,45.068415,40.821653,50.728013,53.831341,55.807577,25.550446,50.051079,72.887661,92.272786,49.744503,82.719624,100.031674,112.099514,39.480229,77.054936,96.444272,108.55505,30.007405,65.432545,83.384388,94.493786,21.83099,49.212445,63.893898,73.390606,-14.353266,-15.523869,-9.726913,-4.301991,16.443418,32.073065,37.92257,41.246187,34.430832,49.831483,53.219321,53.509622,46.394369,62.463728,64.313338,62.640062,53.013667,67.485963,67.834198,64.381276,-14.936045,301.320219,-67.228186,287.928185
37,0.428193,-5.167818,1.171303,-1.272627,7.156105,12.162792,13.696987,8.775833,-4.969861,22.429641,40.142097,49.040817,-14.611977,15.795948,35.493095,49.401649,-21.84517,0.731117,18.324302,28.024704,-25.399407,-29.71241,-32.317738,-35.516785,-18.560358,-22.667662,-20.289691,-17.92959,6.083984,26.063676,29.957681,30.464158,23.848911,44.096117,45.710397,43.83458,35.151508,52.60567,51.507624,50.174001,43.868419,55.47142,58.497425,60.60588,25.767815,50.206238,72.842778,91.968418,50.412323,82.471791,99.337612,111.119923,40.2025,76.635968,95.78191,107.950115,30.408474,64.684925,82.503285,93.756787,21.670189,47.977902,62.42918,72.191929,-14.365258,-15.194356,-9.062157,-3.854819,15.56744,31.845033,38.626155,42.786885,33.27889,49.662818,54.529047,56.012243,45.263126,62.136587,65.363552,64.749506,52.126598,67.455026,68.996514,66.535316,-14.533378,296.225384,-66.082409,286.728541
38,2.364521,-1.317037,1.539505,-3.266893,7.945255,13.368187,14.435463,8.773487,-4.367936,21.773677,39.184948,47.978405,-15.618988,13.764644,32.951557,46.515941,-23.795494,-1.49104,15.658573,25.393238,-27.923459,-29.680928,-30.250855,-31.121247,-17.470526,-20.790203,-17.298069,-13.995324,4.878307,25.934814,31.743367,33.773461,22.468603,43.362843,47.310028,47.24992,34.026033,51.271465,52.399658,52.939826,42.957328,55.160519,58.730915,61.287728,26.376309,51.169407,73.261975,92.177113,51.137238,81.74944,98.118656,109.763752,40.497826,74.62975,93.243771,105.452877,29.839428,61.804013,79.210911,90.502316,19.997383,44.715443,58.716854,68.581593,-14.241016,-14.231988,-7.338407,-2.429854,14.17561,31.847096,40.131729,45.728156,31.419437,50.117968,57.566809,61.365028,43.520579,62.227706,67.898715,69.490196,50.936322,67.698483,71.159359,70.496963,-12.208734,295.080278,-64.582781,283.633579
39,5.839382,-1.43897,2.163082,-6.484596,5.14476,8.198982,8.197174,3.350464,-12.525707,7.169552,23.017673,32.016861,-20.372429,3.221443,20.701732,34.62252,-24.935143,-6.480549,8.739738,18.309242,-25.576607,-28.049275,-29.143719,-30.599419,-10.036727,-10.877817,-8.351521,-7.066236,5.66665,27.18242,35.927859,40.203618,17.206542,40.021899,47.729425,50.519358,24.509998,43.958747,48.599636,50.96653,30.309979,43.455432,49.761582,54.508521,26.867306,52.129853,73.928765,92.402436,51.350487,80.509987,96.037743,106.839089,40.171063,71.650498,89.182869,100.667565,28.506283,56.805668,72.931824,83.623467,17.408615,39.519711,52.233902,61.570622,-12.705555,-10.599409,-2.566952,1.84341,12.973453,31.800943,41.922466,49.274272,28.932106,50.250731,60.846361,67.606722,40.827829,63.061966,72.331431,77.206725,48.880342,68.333574,74.420473,76.45463,-6.489258,294.025285,-62.539605,277.53296
40,19.878101,-8.971458,2.404313,-9.272985,-4.330353,-8.022159,-12.365948,-18.757736,-24.883907,-15.253303,-5.184151,1.150646,-28.30616,-15.825497,-5.102772,4.30069,-28.463642,-18.489178,-8.986736,-2.704708,-25.535419,-28.901585,-30.095032,-31.263496,-4.716966,-1.481837,3.683436,6.19569,12.646558,34.220312,44.188261,49.569068,22.288082,46.818569,57.202877,61.859413,28.347502,49.469811,57.106003,61.103218,32.913019,48.038189,56.10945,61.971268,27.772521,52.063167,71.710441,88.098907,49.980011,77.889793,92.505111,102.130805,37.962215,67.074508,82.868019,92.19326,24.981548,49.967021,64.738311,74.294311,12.562305,31.759471,43.379997,52.113567,-10.327189,-5.322244,5.171103,11.37403,10.956511,29.860856,41.992676,50.955291,25.257141,49.251004,63.438927,73.013316,36.941171,62.224988,74.876264,82.533501,45.858289,67.440873,75.976916,80.570097,13.079189,285.774389,-60.444946,268.980537
41,17.935433,-11.398237,-3.405322,-17.727222,-11.907292,-21.013104,-27.676838,-33.937432,-33.493573,-33.005425,-27.052918,-22.672772,-32.098378,-29.067593,-23.392308,-16.989876,-27.362618,-24.020794,-18.864979,-14.734028,-20.261628,-22.944878,-23.419465,-23.62904,1.529162,9.625222,18.335093,23.820234,18.23339,43.238095,56.421055,63.771169,25.111188,53.592219,68.007495,74.919885,29.634319,54.078528,66.400477,73.28114,32.956096,51.88361,62.335522,69.539843,29.247643,53.141728,70.927575,85.154011,50.164502,76.420287,90.166048,99.027901,36.951949,62.885176,76.852942,84.488755,22.114821,43.146298,56.308978,64.75795,7.777806,23.056475,32.903612,40.516285,-6.145617,2.33716,15.217376,23.284635,10.498453,29.137352,43.098249,53.67523,22.200131,48.142739,66.069835,78.784714,32.848175,60.285081,76.29837,86.731214,42.092464,65.086558,76.198174,83.39931,30.518435,275.409027,-64.346455,252.28619
42,25.244167,-20.900378,-9.622329,-24.992998,-21.356712,-35.687325,-43.869164,-48.992489,-46.291649,-54.394489,-52.626515,-50.142632,-39.930737,-46.164574,-45.353142,-42.345051,-29.752384,-33.343151,-32.462631,-30.846314,-17.616017,-20.068474,-20.152588,-20.245159,7.272692,21.075638,34.196674,43.453962,26.995205,53.740482,69.552972,79.383761,31.930607,62.909294,81.364652,91.485347,35.092092,62.611386,79.164744,88.657969,36.98699,58.795926,71.703109,80.650311,31.042568,55.420727,71.981723,84.328056,51.551937,76.330816,89.444635,98.153766,36.973039,59.528166,71.71491,78.089641,20.222631,37.17826,48.5711,55.897648,4.027485,15.161436,22.745836,28.600456,-0.674246,11.59398,26.577217,36.61156,11.846094,29.411771,44.373013,56.087622,20.205,46.499067,67.327642,82.720192,29.03652,56.927254,75.348884,87.805387,37.907849,60.760547,73.666914,82.798713,55.135763,256.134938,-74.595623,228.919481
43,21.709259,-23.837833,-18.96167,-27.847176,-29.427612,-48.575111,-57.696282,-61.356869,-55.399899,-70.226772,-72.179707,-71.545487,-42.523064,-56.735298,-60.284798,-60.085453,-26.357826,-35.758713,-38.66359,-39.69017,-9.110458,-12.135933,-13.005386,-14.581352,13.055964,31.727757,47.632379,58.638574,36.945185,65.402826,81.699327,91.268665,39.165854,72.898609,92.599979,102.934318,39.708702,70.466606,88.333001,97.921148,39.258776,63.581114,77.702199,87.126349,33.523487,58.299293,72.910457,82.41766,55.890884,79.73208,91.674139,98.694179,40.420686,60.246591,70.432508,74.935238,22.577207,36.213844,44.599954,49.73061,5.472748,13.9447,19.550554,23.634853,2.333765,17.661946,34.715032,46.901044,13.635733,29.5669,44.54952,56.412812,19.910785,46.694952,68.151294,83.952335,27.005796,54.527856,69.950577,80.062553,34.691555,55.711043,66.162362,73.656293,76.112566,234.921134,-94.289749,203.696334
44,20.802681,-35.06917,-18.289593,-27.956832,-30.89035,-49.853943,-57.676529,-59.986576,-55.590592,-72.369667,-77.228348,-79.821396,-42.128266,-59.326927,-65.960964,-69.08202,-25.557289,-37.046471,-42.385803,-46.080277,-8.016243,-10.61966,-12.684723,-15.78756,10.343885,30.713185,49.361081,63.095472,43.714104,77.018819,93.420852,102.86622,49.646442,87.623032,106.914688,116.871423,52.664691,87.253752,105.473124,115.738711,53.469496,80.386143,95.263509,105.598441,34.429722,56.972466,67.835529,73.243549,56.684017,77.222517,85.375986,90.066856,40.282728,56.392096,62.944857,65.059422,21.130171,30.591968,36.11598,39.813618,2.607067,6.569338,9.718946,12.066593,8.385688,25.96703,44.618082,58.960022,18.407916,33.601401,46.653715,56.500201,20.471935,46.000433,65.405623,78.919022,23.971455,48.8009,60.933078,67.912146,28.895797,46.628743,54.781181,60.033275,96.197886,202.873581,-113.296703,178.761119
45,11.033844,-33.597047,-20.736643,-28.342346,-29.143707,-46.336807,-52.273132,-53.621269,-53.579086,-68.551163,-71.777985,-73.930687,-39.90612,-53.948387,-58.349533,-60.241081,-22.504761,-30.748123,-34.495217,-37.506661,-3.514389,-3.032707,-3.61734,-5.558602,13.349155,36.087317,56.755971,72.639263,43.301828,77.551583,95.751134,107.355963,47.039086,84.590784,105.382666,117.506421,48.62727,83.083963,102.577852,114.920079,48.537485,75.303065,90.813385,102.517929,32.935192,53.564621,61.857159,64.392483,56.419773,72.279522,76.171091,78.041548,40.223803,51.017813,53.351527,53.473435,20.978806,24.843178,26.277638,28.00149,1.951985,0.700539,0.261418,0.284317,14.02941,33.360438,52.257268,66.837442,23.999137,39.592907,51.56073,60.453648,21.694813,45.2504,62.587316,74.38241,20.984099,43.169368,52.729045,57.579166,22.075751,37.67326,44.588127,48.596417,106.611632,172.267678,-134.653444,153.409917
46,9.953636,-30.319286,-17.063982,-23.175856,-27.340919,-43.135391,-48.786827,-49.518127,-49.644745,-62.320908,-65.300377,-66.994125,-35.862282,-47.981712,-51.423752,-52.702354,-18.526863,-24.8535,-28.136719,-31.028458,-0.027763,3.131126,3.763596,2.917465,17.144737,40.634106,60.385679,74.889653,41.344155,70.022189,87.151333,99.353647,40.807025,71.43531,92.10962,105.725882,39.073932,67.543002,86.139361,98.566255,36.617161,57.965365,72.672862,84.293135,28.895966,45.754132,50.422096,49.777142,51.770611,62.321451,61.451821,59.234705,36.830475,42.087135,39.070622,35.669644,18.691675,16.776707,13.131872,11.739069,0.303394,-6.331415,-10.566644,-13.052696,18.77706,39.656195,58.776371,73.905765,28.347361,44.584736,56.451282,65.090332,21.958648,43.540562,58.943023,69.050058,17.046134,37.091281,44.570914,47.810022,13.819641,28.732856,35.254793,38.849979,115.995031,145.20103,-152.287663,133.486699
47,11.789452,-28.292377,-11.777859,-17.493231,-27.501801,-43.792603,-49.998162,-51.752999,-50.301545,-62.625321,-65.752053,-66.892159,-36.687584,-48.567582,-51.665062,-52.097786,-19.737305,-26.321068,-29.617905,-32.136223,-1.65754,-0.036873,-0.17743,-1.227745,18.611549,40.632283,59.480059,74.644546,33.278779,56.660294,72.721095,84.790299,29.621425,54.713335,74.579856,88.194155,26.198581,49.644373,68.040247,80.627667,23.136539,41.030005,55.269922,66.544423,26.317864,38.585633,38.301407,34.230252,45.059189,50.724043,46.158738,40.464529,30.005356,30.390129,23.605305,17.114148,12.465643,5.852818,-1.925966,-6.464773,-4.88657,-15.711542,-22.683157,-27.094711,19.958444,42.279217,62.467149,77.854735,33.033427,53.528882,66.477048,75.649177,25.049435,49.150951,63.98616,73.121528,17.515128,39.291664,46.397139,49.184321,11.069296,26.191611,32.126782,34.982557,127.117516,120.414483,-164.732489,119.499298
48,9.459182,-23.498051,0.560715,-12.265645,-25.761634,-41.187606,-47.793113,-49.938583,-48.307891,-61.504074,-65.136428,-65.74736,-34.640327,-46.91336,-49.814552,-49.545387,-17.668029,-24.617317,-27.849334,-29.863609,0.078095,1.545662,1.277733,0.124192,19.639873,39.492568,57.032841,71.915882,24.366058,38.00221,52.164926,64.891482,17.759066,31.38235,49.138995,63.354323,13.103925,26.035783,42.680298,55.447807,9.811103,19.728552,32.451632,43.342824,20.836235,27.05999,23.153332,16.85606,32.284493,34.592245,28.421551,21.822573,18.038143,14.857018,6.156521,-1.516765,1.714285,-9.326763,-18.664896,-24.305872,-14.133831,-31.107588,-41.004953,-47.280785,24.656922,48.432782,68.177494,83.153068,40.199327,62.49382,76.467919,86.217537,30.282301,53.832398,68.733063,78.118606,20.486286,42.580257,53.676179,59.898252,11.390182,27.239281,35.692078,40.720566,135.828924,100.009038,-164.919548,110.326259
49,4.938858,-14.060711,3.436146,-5.349561,-22.629249,-37.252258,-43.960693,-45.657051,-44.892974,-58.355232,-61.25045,-60.317573,-31.090759,-42.495346,-43.541633,-41.404632,-14.349838,-20.44654,-22.016784,-22.624923,2.648667,4.882233,5.931817,5.543244,20.176262,36.619816,52.22948,66.697071,14.744214,18.069949,30.233588,42.93177,5.73804,7.454343,22.952301,36.957838,0.126891,2.628073,17.144662,29.307048,-2.865374,0.018531,10.676029,20.611886,18.633247,22.15147,16.261597,9.286926,26.431766,28.029837,21.971466,14.721708,12.385506,6.440014,-3.004349,-11.123589,-3.335707,-16.401329,-26.853041,-33.772047,-18.129776,-37.388071,-48.86503,-56.425438,25.400198,51.064781,71.334804,86.685204,46.015227,70.501192,86.858932,98.194511,36.981195,62.427375,77.790328,86.999649,26.698328,50.244359,62.928045,70.202308,15.827628,32.29512,42.533752,49.308392,139.896011,88.867503,-162.355173,107.895874
50,5.933442,-9.240721,8.426016,-2.232228,-22.623276,-38.160439,-45.488915,-47.258629,-48.039643,-62.291222,-65.171975,-62.948685,-34.628289,-45.989182,-46.551293,-43.840393,-18.553002,-25.195267,-26.100289,-25.766739,-2.783593,-3.476578,-3.355568,-4.280137,15.56287,28.263905,42.169857,56.134898,7.772463,8.628027,20.262645,32.579826,0.164188,1.001129,16.042566,29.604352,-3.95504,-1.930176,11.320549,22.071296,-5.705911,-3.234073,6.373686,14.908859,17.014984,18.715439,12.035705,5.607353,22.210464,23.973724,20.211925,14.900562,8.744087,2.591388,-5.075741,-12.160149,-6.181034,-19.247681,-28.774441,-35.665283,-20.448372,-40.370774,-51.322437,-58.685784,26.329505,53.127109,73.608455,89.378596,50.685374,76.020611,93.507809,106.268519,43.388933,69.511586,86.011247,96.488921,34.0581,58.44821,72.741584,81.805044,23.431688,40.03977,50.588469,58.148418,144.907322,82.319669,-154.851288,108.356533
51,2.190948,-6.33374,16.217605,1.328807,-23.429489,-39.953224,-47.985992,-50.93042,-52.978157,-69.910858,-73.505859,-71.295319,-42.387108,-56.993774,-58.584801,-55.861793,-28.530144,-39.040214,-40.381164,-39.64389,-14.001274,-19.351158,-20.59893,-22.508537,12.874214,24.94926,39.502795,54.822677,5.492379,7.870473,20.195961,32.805728,0.867328,3.949353,18.937623,31.930984,-0.027688,4.329976,17.319293,27.551836,1.24019,6.669564,16.543424,25.002569,19.389141,22.542836,17.050381,11.794567,24.331032,29.663556,26.972317,22.363026,9.388768,5.175934,-1.280582,-7.492733,-7.093105,-18.293266,-26.387317,-32.545887,-22.691356,-41.618248,-52.071167,-59.144233,26.046775,53.946846,75.201023,90.817381,54.123538,81.06294,99.1433,111.923721,48.484645,77.669903,95.230127,106.201421,40.320098,67.251336,83.845389,94.483688,30.940865,47.376299,58.29975,66.225736,146.211868,77.959675,-139.520085,111.659086
52,-7.539253,3.670037,17.958836,2.52051,-21.864075,-38.051445,-46.327286,-49.970833,-51.67955,-69.696945,-74.529648,-74.069802,-41.392662,-57.354744,-59.798515,-58.612839,-27.639839,-38.698723,-40.117127,-39.760506,-12.945053,-16.897545,-17.116402,-18.512238,11.017441,22.580199,36.29068,50.504853,8.120285,11.931563,25.056076,38.451852,5.154005,9.933005,25.178651,39.116608,5.214526,11.222014,23.999094,34.713365,6.718766,13.421378,23.343972,32.306068,19.807446,24.535858,21.225872,18.125851,27.079342,35.407162,34.703156,31.692066,13.036526,10.768238,5.454849,-0.082764,-3.538822,-13.55975,-19.799835,-24.428455,-20.540966,-38.289494,-48.193565,-55.059917,27.600402,56.153743,77.669291,93.691325,55.071543,78.934483,96.440589,109.188603,49.887583,76.100621,93.895929,106.065169,42.471643,67.044478,83.703356,95.144855,34.209215,49.778619,61.003485,70.044696,137.716599,82.671105,-122.517265,115.220989
53,-10.123261,8.098079,15.81625,0.372657,-23.32743,-40.483566,-47.995308,-50.703117,-54.057129,-71.883087,-76.780471,-76.758041,-44.349357,-58.727966,-60.727432,-59.976722,-31.153267,-40.852684,-42.323501,-42.474014,-16.576561,-20.178039,-19.934807,-20.862579,10.222991,23.900435,38.899857,53.667475,15.764553,27.908259,43.532454,58.16212,14.526068,30.04772,47.707757,62.619802,15.414274,31.559833,47.099732,59.558155,17.091545,30.652034,42.252263,52.469794,21.664501,29.2733,28.044296,26.632828,32.891682,43.05582,43.116051,40.728847,18.620899,17.804306,11.99517,5.744716,0.887054,-7.172756,-12.875542,-17.064766,-18.302136,-33.317711,-42.75808,-49.458378,28.034947,57.243843,80.218701,97.508841,53.592899,75.95092,93.061181,105.767255,48.033244,72.688769,91.190452,104.349132,40.694065,63.63275,80.413375,91.908486,33.326284,48.144561,59.937148,69.657824,126.419986,91.054925,-107.874367,115.879387
54,-8.307129,11.52548,11.013222,-3.888324,-24.986435,-43.141548,-50.590461,-53.815017,-56.278312,-73.844925,-79.537536,-80.616462,-47.201294,-62.001434,-65.001937,-64.860786,-34.564498,-45.198715,-47.654182,-47.826553,-20.161468,-24.906372,-25.527305,-26.084976,9.688658,26.149404,42.823713,58.214744,26.425514,46.763414,64.817184,80.617571,26.925347,52.312497,72.675048,88.974699,28.247633,53.301103,71.144842,84.685225,29.420521,49.173971,62.8908,74.482272,21.699554,31.055751,31.858726,31.172447,34.313758,46.094902,47.229274,45.822532,20.125705,20.778236,14.894496,8.151763,1.967456,-4.600445,-9.590619,-13.19521,-17.59116,-31.088643,-40.076214,-46.211873,27.788191,56.607492,79.700466,97.226122,48.530284,68.165526,85.167366,98.706551,42.503907,65.364367,86.719845,103.097734,35.437734,57.293631,75.083721,87.596232,29.37304,44.748288,56.789099,66.435156,116.636129,102.05494,-98.337873,111.465598
55,-7.636848,15.816713,6.720714,-2.760441,-24.789024,-42.1054,-48.581177,-51.12339,-52.939636,-68.934654,-74.380989,-75.95771,-43.732819,-57.960663,-60.656593,-59.981964,-30.9963,-40.90876,-43.025436,-42.771423,-16.13221,-18.028793,-17.187309,-16.246216,12.964746,32.408352,50.100191,65.487751,37.923886,61.307631,80.368767,97.044774,37.840319,64.563465,85.394688,102.138275,37.741216,63.509101,82.451583,96.812753,37.293279,57.315844,71.811833,84.280519,23.324696,33.954151,34.994202,33.236572,35.687657,47.382179,45.95406,42.557831,20.343556,20.198811,11.725136,3.257721,1.363094,-5.371628,-11.912762,-16.176132,-18.165825,-30.111797,-39.857277,-46.30204,26.152855,54.178564,76.727542,92.775251,44.233012,65.258131,79.98458,90.791556,37.057688,61.782262,83.302293,98.968052,29.55542,52.624127,70.571952,82.494092,23.986225,39.994581,52.088942,61.293063,106.932982,117.203924,-93.683458,108.037428
56,0.106979,13.583553,-7.037613,-6.273055,-25.83609,-43.46125,-49.858108,-52.380066,-49.796035,-62.474052,-66.824546,-68.204773,-37.775413,-47.497146,-48.453117,-47.312484,-22.94783,-28.353744,-28.584572,-27.295211,-6.655792,-4.228592,-1.146057,1.818467,12.791796,32.798738,50.136407,64.565651,47.512959,73.251081,92.931493,110.626506,48.040524,77.213771,98.303618,115.863175,46.729711,74.352245,94.002801,109.495337,43.998515,64.344529,79.262916,92.802052,23.070877,31.875939,30.918394,27.663557,32.49697,41.30674,39.183523,35.724003,16.945662,13.840754,5.368418,-2.546356,-1.660274,-10.285663,-17.154007,-21.181955,-20.15522,-32.437814,-41.952324,-47.891979,25.829271,53.621826,76.027783,91.580656,42.941391,65.014023,78.279463,87.484844,35.629407,60.182628,80.223446,94.344555,28.10934,50.747091,66.74406,76.944419,22.522447,38.722387,49.713037,57.690295,104.706751,130.135032,-103.054281,101.111928
57,6.688191,11.086089,-16.359043,-7.93247,-25.381497,-41.379868,-46.569798,-47.563454,-43.539437,-52.873535,-53.957611,-52.942097,-30.789242,-36.122956,-34.381359,-31.329621,-15.80777,-17.546837,-15.7122,-13.19315,0.026081,5.643493,10.755855,15.255523,15.564173,38.110693,56.648006,70.853491,55.797536,85.138708,104.218239,120.060233,55.622962,87.755641,107.756568,122.861207,52.783659,82.460253,101.097484,114.936628,48.157084,68.991,83.31678,95.99945,22.880551,28.874279,24.939989,19.343393,28.133166,34.185013,29.526587,23.91988,11.312433,4.339411,-4.752542,-11.765144,-7.832611,-18.781151,-26.601539,-30.706953,-25.329243,-39.722677,-49.361091,-54.572296,26.439235,54.882608,77.752645,93.262823,44.332757,69.174902,82.225153,89.519001,36.813817,63.087132,79.520924,89.09966,28.754601,52.546757,66.197692,73.460992,22.185821,39.073715,48.979886,54.933904,109.180836,140.553386,-121.62743,92.511723
58,17.805702,4.951247,-17.955494,-4.424677,-23.871311,-37.086891,-41.077938,-41.561188,-36.025978,-41.577072,-40.096115,-38.522381,-22.806828,-25.158875,-22.080906,-19.564774,-8.083626,-7.348572,-4.399166,-2.045437,6.90794,15.552978,22.359844,27.52961,19.188539,43.630871,63.108223,77.023975,61.280528,92.810999,109.46921,120.836053,59.853359,93.00939,110.012212,121.163144,55.008786,85.269439,100.923928,111.157688,47.837118,68.487598,81.516336,92.328932,20.362152,22.476414,15.711428,7.974661,19.141623,21.747517,15.240755,7.961987,2.09677,-7.824262,-18.242952,-26.638115,-16.022312,-29.939117,-39.751327,-46.283289,-31.446728,-47.927793,-58.591015,-65.376972,27.040154,55.479587,77.092237,91.995384,46.158853,72.773136,86.010961,93.966241,38.015172,63.809644,78.284928,86.344839,29.079532,52.924182,65.504223,72.018774,21.0585,37.862321,47.107732,52.662718,125.525946,144.814195,-141.043516,87.396608
59,18.736565,3.846538,-18.50378,-1.681315,-21.298863,-31.426049,-33.209576,-31.392609,-27.419999,-27.820679,-24.362801,-22.744778,-13.937771,-10.095795,-5.906491,-4.707688,0.748672,6.805252,10.835392,11.860645,14.898388,27.628944,36.994571,43.050155,22.722966,47.868005,66.599845,77.427298,60.188565,92.171938,104.085111,110.763048,55.640085,88.880641,101.269657,108.123045,48.058018,78.002879,89.902375,96.862326,38.923662,57.141485,67.606839,76.020839,10.864643,7.424972,-2.416529,-11.554052,4.555315,0.449821,-9.38716,-19.296467,-6.657526,-19.312128,-30.650248,-39.554295,-17.915749,-32.264088,-42.502453,-49.541056,-26.885033,-42.323691,-52.129395,-58.922676,24.337863,49.758139,69.449592,83.891834,45.10975,70.988116,82.819872,90.05329,39.635496,64.528035,77.396389,84.756408,33.384906,57.4952,70.932146,78.944811,27.353169,44.852183,54.828805,62.034442,144.036404,148.293679,-159.773403,85.348239
60,27.065734,-12.907923,-22.78458,0.895968,-22.529857,-31.333099,-30.823436,-26.872512,-24.760711,-22.600707,-16.954536,-14.133419,-8.890079,-1.823799,3.287877,3.867257,7.530648,17.021691,20.845723,20.108563,22.586049,37.409226,45.793065,49.642479,24.43591,51.196815,70.889016,81.490215,59.135417,92.293252,103.574645,109.070666,53.563721,86.98263,96.542687,100.003211,44.914798,74.764329,83.53424,87.290135,34.906192,53.091781,60.637515,65.810205,12.457718,8.474544,-2.469366,-11.564043,3.634477,-1.205693,-9.363791,-18.21563,-8.073367,-20.788714,-29.792227,-36.861191,-19.483498,-34.669453,-44.069332,-50.816535,-28.537091,-46.286745,-56.493828,-63.914383,23.634568,49.346529,69.613582,84.793384,50.245414,76.688055,91.512779,101.67402,46.445368,71.157639,83.87342,91.487418,40.886556,64.32537,77.989062,86.841213,34.35385,51.287731,61.890452,70.272929,172.177345,134.852674,-181.482776,85.711125
61,22.910592,-12.780119,-10.528668,8.219026,-21.370251,-27.375618,-24.181744,-17.343659,-21.403931,-16.426987,-9.336548,-5.47411,-4.188801,6.757484,12.178424,11.799682,13.301536,26.470962,29.830867,27.535686,28.653637,45.170906,52.290332,54.20755,25.898351,53.241662,74.429112,85.219107,50.439855,81.954604,92.490539,96.883476,43.283581,74.763225,82.849231,84.533449,34.141815,62.936039,70.419293,72.413535,24.805579,42.415191,48.852443,52.064113,12.987625,8.713005,-2.855633,-11.960873,3.688442,-0.637871,-7.14331,-14.714001,-8.081474,-19.73188,-27.924156,-34.82333,-19.480385,-34.686687,-43.974026,-51.085407,-28.810352,-47.318836,-58.126236,-66.524288,23.809686,49.830581,70.293476,86.108473,53.088484,79.753757,96.495491,109.329129,50.070204,75.387119,89.525772,98.584903,44.910105,68.609308,83.555606,93.945755,38.090692,54.499462,66.104044,75.918395,196.848753,121.545049,-190.250628,93.402645
62,13.776981,-12.751058,1.002686,12.440688,-21.246857,-26.846382,-22.784569,-14.393303,-22.531998,-16.968575,-9.023888,-3.903778,-4.775993,6.94696,12.605492,12.50676,13.171341,26.967613,30.240883,27.843727,28.690552,44.174095,49.800392,50.598114,25.208599,51.752203,73.274831,84.403647,41.207842,69.202885,80.092334,85.414061,33.294159,61.408001,69.542288,71.296158,24.495309,50.852271,58.242214,59.811241,16.515114,33.161121,39.265335,41.516989,9.797012,5.208835,-4.903382,-13.164162,1.770778,-2.997826,-8.197563,-14.627632,-7.770745,-17.432396,-25.169129,-32.552353,-16.892968,-30.623234,-39.416943,-46.781227,-24.892662,-42.290543,-52.479527,-61.035439,22.634268,46.981128,65.670255,80.989247,52.142036,76.640666,93.563243,108.701628,50.599165,74.906288,92.029585,105.171406,46.884365,70.036194,87.081339,100.48828,41.177695,57.200401,69.703199,81.481843,212.619318,108.417805,-187.254358,105.467147
63,4.643372,-12.721999,5.594507,9.854369,-22.159676,-29.745392,-26.631913,-18.021447,-28.144913,-24.225472,-16.016556,-9.422425,-10.651658,-1.255372,4.569076,5.988487,7.14006,18.511642,22.075767,21.032684,22.696792,34.418792,38.323242,38.81417,22.366653,46.728438,67.426176,79.043837,31.439382,54.0381,66.380031,74.662423,23.595456,46.916962,56.621861,60.291342,15.975282,38.513027,47.003005,49.483254,10.0348,25.329574,31.876192,34.168837,11.106188,8.338085,-0.503964,-7.896881,7.571365,4.542154,0.252806,-5.39213,-1.384529,-9.13595,-15.172033,-20.735636,-10.735823,-22.271599,-29.192665,-34.393913,-19.686676,-35.931032,-44.521048,-51.096239,21.478322,45.397881,64.338282,79.50816,51.605922,76.144918,93.175459,108.098292,51.84371,78.33397,96.677455,110.368879,49.829881,74.936796,92.831701,106.843888,45.654664,63.236531,76.533661,88.857438,219.003285,95.433728,-179.919256,115.059438
64,-0.851418,-14.463898,11.063804,6.897188,-24.788132,-35.254555,-34.2136,-26.626144,-37.981018,-39.543938,-30.323776,-21.283699,-21.58001,-19.936043,-13.126671,-8.834724,-4.696014,-0.464561,3.6194,5.032127,10.874291,16.18808,17.562813,17.340317,18.88708,42.042144,63.197199,78.389011,25.760018,44.492357,60.40156,71.3156,19.570823,40.084057,52.826489,58.089279,14.095865,34.313456,45.186555,48.567353,9.889847,26.204108,34.287953,36.823036,21.495558,23.742531,16.55579,10.321313,23.393189,27.286257,26.818388,23.958716,8.703873,4.435072,0.560698,-3.701471,-7.437738,-18.280151,-24.660758,-29.737403,-23.36539,-40.788282,-49.772924,-56.491899,23.964683,50.944006,71.627467,87.093006,56.623235,84.269802,102.923181,118.702048,55.361643,84.331256,102.886038,115.931183,51.501229,78.071592,95.662253,108.905042,45.362139,63.350979,76.474035,88.169513,219.407879,80.843498,-167.59944,121.830294
65,-17.681007,1.72806,19.650845,2.947989,-24.031266,-36.065666,-37.487915,-31.601418,-46.144043,-53.332192,-43.959366,-33.877396,-32.704812,-37.391854,-29.019493,-22.285675,-17.703598,-19.843644,-13.990425,-9.715508,-2.736718,-2.502755,-0.315216,1.357154,19.663777,41.444117,61.957671,78.098068,21.162447,35.728227,51.403402,61.467138,13.418068,31.411867,45.822388,51.645686,7.703661,25.568098,39.025168,43.711493,4.05452,18.675999,29.296631,33.53337,19.978403,23.25135,17.624828,12.342957,27.090557,34.613188,34.804865,32.198141,12.902344,11.2307,7.434774,2.894915,-3.702936,-12.197273,-17.605087,-22.10289,-20.486217,-35.86976,-43.98385,-50.15312,23.910485,51.526251,72.783349,88.958659,52.83812,79.196277,98.337472,114.723778,51.175743,80.032625,99.708091,113.818714,47.67473,74.961656,93.773049,107.761363,42.529562,61.526255,75.731066,88.21842,202.893454,82.604816,-146.782013,124.811541
66,-23.105347,3.005368,16.532101,-3.450811,-25.669739,-40.290115,-42.758309,-38.253273,-54.850868,-68.391335,-60.753433,-50.948593,-42.842537,-55.480797,-48.136162,-40.077072,-28.247589,-36.727524,-31.531311,-26.398224,-12.542152,-15.641693,-13.451798,-11.412117,19.21797,41.258272,62.208748,80.443645,23.711436,37.889534,53.976776,63.799945,16.794593,34.639443,49.795298,55.830122,11.734159,28.507979,41.869953,46.257407,7.995203,21.261062,30.570134,33.939397,19.758734,24.488502,21.148052,17.233223,30.753879,40.850526,42.237447,40.35708,17.331722,17.702505,14.854002,10.830293,0.546633,-5.402264,-9.08836,-12.107781,-16.794903,-30.403582,-37.624312,-42.891878,23.028121,50.216933,71.451417,87.762406,50.378713,74.846603,93.734659,109.763121,49.007069,77.84051,97.425475,111.55634,46.192942,74.23641,93.129696,107.055927,42.127406,62.606468,77.55631,90.938958,181.053412,85.653891,-128.984607,121.404437
67,-26.231369,6.440692,13.111061,-6.487967,-25.918045,-41.408974,-44.268059,-41.045403,-59.717308,-76.631462,-71.127419,-62.695023,-48.157898,-65.127533,-59.044357,-51.139359,-33.301704,-44.841499,-40.85038,-36.333412,-16.700325,-21.703392,-20.283768,-18.857605,20.663571,44.047083,65.888694,85.152208,27.529362,42.745522,59.860065,70.56157,20.75421,39.362625,55.559074,62.217167,16.164625,33.3714,47.053933,51.50346,12.876395,26.621051,35.53371,38.557251,23.423384,30.820072,28.49992,25.321781,37.471493,51.663385,54.69861,54.289564,22.754093,25.835077,23.740785,20.134558,3.974333,-0.178974,-3.037697,-5.159409,-15.268982,-27.607309,-35.100878,-40.40399,22.036162,49.570714,71.725021,88.173181,49.077569,74.055382,93.129603,108.511834,47.267325,78.037592,97.693545,111.016061,44.306887,74.171473,93.41991,106.928387,40.460213,62.360157,77.831667,91.380745,156.129604,91.965855,-114.565985,114.787742
68,-23.229813,9.13325,8.201013,-6.947141,-26.562675,-42.015243,-44.65654,-42.312538,-61.95243,-81.412811,-79.261642,-73.541244,-50.927787,-70.501808,-67.029327,-60.90065,-35.74942,-48.237762,-46.054367,-43.060478,-18.403793,-23.774643,-22.791847,-21.91024,21.243648,45.488151,67.538568,87.018551,30.64329,47.45621,65.283165,77.569663,24.699751,44.85227,62.48434,71.683151,21.051839,40.348522,55.83592,62.995566,18.460712,33.575372,42.719546,46.507977,24.906636,34.099503,32.811333,30.206383,40.595009,56.940022,61.014233,61.889042,25.05811,29.444275,27.969693,24.8844,5.161194,1.566216,-0.791061,-2.270118,-14.95103,-26.694316,-34.26828,-39.512775,20.512567,48.148,70.857017,87.386491,46.120142,70.953039,89.99137,105.014122,44.117409,75.503439,95.77279,109.418717,41.191125,71.400149,90.857407,104.117296,37.805751,59.73562,75.676328,89.538653,134.059232,100.91131,-105.205531,107.652806
69,-20.588173,11.917971,0.44085,-8.477887,-26.319442,-41.455375,-44.312622,-43.24958,-61.890358,-81.887306,-83.129058,-80.152198,-50.656631,-70.514991,-69.848602,-65.880889,-34.447105,-45.751808,-45.271041,-43.612747,-15.891655,-19.732292,-19.38636,-19.246788,22.770323,47.348308,69.221212,88.268361,34.586857,53.508887,72.05684,86.303302,29.527022,51.623147,70.570631,82.682011,26.433709,48.275664,65.318407,75.486575,24.109807,40.532946,50.488199,56.121961,24.775921,34.614853,34.277755,31.98603,40.583187,58.140152,62.746719,63.814178,24.945236,30.351516,29.098446,26.015739,5.23946,1.874416,-0.093933,-1.209229,-14.302254,-26.063988,-33.246414,-38.01907,17.84553,44.79525,67.96188,84.589864,42.217553,66.380989,85.909322,101.028688,40.565532,72.648915,94.338192,109.079621,38.233398,68.891007,88.248329,101.212914,35.56134,57.716449,73.685124,87.355467,114.335214,112.448667,-103.900526,98.794305
70,-15.320343,12.224223,-4.460289,-8.150628,-24.703399,-38.77256,-40.896698,-39.91159,-57.537231,-76.185173,-80.070213,-79.427787,-46.196594,-65.610168,-67.916519,-66.367469,-29.590599,-39.753891,-41.279365,-41.156776,-10.756988,-13.231453,-13.711578,-14.304039,22.899566,47.796005,69.886264,89.335482,36.473801,57.425883,76.882573,93.09791,32.481939,56.490216,76.834852,92.050351,30.241252,54.374091,72.401605,85.10175,28.416206,46.775635,57.449484,64.72643,24.924785,34.812217,34.2999,31.557117,38.871025,55.548706,60.692207,62.43346,23.129333,27.885395,27.125141,24.782627,3.77758,-0.554421,-2.809685,-3.826126,-15.279362,-27.015209,-34.119129,-38.744351,16.995961,43.222028,65.987984,82.236488,41.237123,64.924426,83.50263,98.21521,40.004967,71.523433,93.61368,109.375905,37.654203,67.527694,86.124429,98.897873,34.79259,56.305915,71.76631,85.234445,99.367664,124.24386,-108.008022,90.214647
71,-7.88784,11.428624,-7.339531,-5.590808,-22.496635,-35.315826,-37.218613,-36.504387,-54.758423,-72.292076,-76.547241,-76.908005,-44.387672,-62.817741,-65.024597,-64.21598,-28.637215,-37.780998,-38.621727,-38.198845,-10.43914,-13.350059,-13.905212,-14.284172,23.470029,48.453925,70.077807,88.691691,38.651084,60.910613,80.744215,98.070801,34.449129,60.280252,81.517429,98.33876,32.196153,58.735047,78.4996,93.331864,30.685318,51.622091,64.719539,74.371486,23.783329,33.141357,31.621433,28.226349,35.501919,50.433048,54.909817,56.457687,19.58313,23.507137,22.455906,20.241577,0.787685,-4.780724,-8.092232,-10.340962,-17.476135,-28.874016,-35.680916,-40.650192,16.443529,42.287614,64.507382,79.987192,39.521924,62.90189,80.917326,95.967,37.916,67.244624,89.944791,107.632481,35.086503,62.482833,80.993365,94.757594,31.885208,51.765611,66.674779,80.076038,91.386452,134.991618,-115.440925,83.942973
72,-0.084251,9.794085,-15.03178,-1.850839,-22.196068,-35.328484,-37.753762,-37.277092,-53.265679,-70.932473,-74.823807,-74.905495,-43.584023,-61.176476,-62.682724,-61.283501,-28.446122,-36.879044,-36.843132,-35.465721,-10.703156,-13.200302,-12.916168,-12.454468,22.103146,45.792951,66.281108,84.212464,39.315333,62.723592,82.243256,99.788462,35.198605,62.680762,84.126297,101.89262,32.799417,60.762943,81.954078,98.904949,30.96764,52.884776,67.30877,78.883786,24.526439,34.969619,33.283046,29.20919,34.584686,47.659297,50.918163,51.485435,16.986877,20.29145,18.12442,14.817592,-2.669941,-9.309208,-14.249028,-17.934781,-21.224419,-32.703885,-39.69294,-44.842152,17.285366,43.707275,66.750719,82.888837,36.559399,58.256722,76.483146,92.348531,33.482283,59.087814,82.49035,101.002963,30.07132,55.200231,74.554705,88.90991,26.998503,46.255918,61.908419,75.215818,91.091704,143.954746,-130.683202,81.261177
73,1.722358,7.925307,-14.555432,-2.338692,-21.334556,-34.835083,-37.926864,-37.747398,-51.608482,-68.995903,-71.60939,-70.590408,-41.813987,-59.052909,-59.552352,-57.031745,-26.734932,-34.931854,-34.163955,-31.997749,-9.057815,-10.582122,-10.036583,-9.28688,21.943077,44.665043,64.559692,81.892699,40.42479,64.75612,84.269077,101.340361,35.862781,64.025686,85.548274,102.985886,32.943654,60.756076,81.720637,98.432868,30.796147,52.731091,67.688733,80.174605,24.343907,33.841656,31.270626,26.738228,31.625714,42.397133,44.335751,43.489323,13.635258,15.287132,12.111397,7.756943,-5.983909,-13.573299,-19.753944,-24.869602,-24.223697,-36.559364,-44.270805,-50.182308,18.947657,46.477571,70.456961,87.360981,37.065067,58.728205,77.025543,93.434567,33.408689,57.446353,80.646118,99.245898,29.483864,53.261157,72.685959,87.904756,26.154473,44.799708,60.338019,74.000576,92.690626,150.863685,-145.36207,77.906117
74,3.481957,5.704472,-11.123165,0.623982,-21.485573,-35.003517,-38.207726,-37.785187,-49.896309,-67.378098,-68.856194,-67.001885,-39.737595,-56.600853,-56.587006,-53.537933,-24.579598,-32.185387,-31.37645,-29.577438,-6.963387,-7.484413,-6.6194,-5.880272,20.73238,43.305478,63.20235,80.027954,40.169928,65.201211,84.70824,101.144224,35.267143,63.61625,85.309331,102.306984,32.150254,59.633658,80.482412,96.893239,30.215922,52.285519,66.855862,79.198436,23.051754,30.640812,27.149437,22.590271,26.45715,33.900066,35.282467,34.783264,8.286804,7.835506,4.526207,0.410912,-11.15332,-20.341679,-27.432884,-33.333721,-29.049213,-42.178493,-50.985775,-57.932785,21.979614,50.235269,73.77318,90.512234,37.835737,59.879868,77.800468,94.721266,33.145824,54.776468,76.698939,95.275908,28.403911,50.29211,69.694367,85.506289,24.666307,42.743332,58.302275,72.411633,96.217054,155.584442,-156.440764,77.546384
75,4.051964,3.220173,-12.370949,0.258616,-22.271553,-36.131378,-39.906098,-39.523384,-48.73185,-66.367012,-67.184578,-64.854241,-38.376343,-54.82283,-54.451126,-50.810715,-23.297196,-29.869332,-28.688668,-26.880684,-5.851982,-4.840508,-3.221512,-2.130158,19.346577,41.280385,60.561075,76.603523,39.397097,64.135769,83.495202,99.561622,34.481912,62.250146,83.96642,100.787726,31.426106,58.492745,79.239994,95.849039,29.761377,51.747957,65.783999,78.168723,23.622139,30.375252,26.752465,22.742443,25.309925,30.70586,31.188492,30.061077,6.981571,4.117848,-0.001682,-4.752468,-12.48167,-23.162338,-30.889938,-37.552116,-30.266556,-44.666576,-54.076057,-61.603603,24.033699,53.956998,78.579975,96.204864,40.17141,63.247841,81.962971,99.935478,34.633942,55.738769,76.461491,94.138744,29.5561,51.101943,70.942906,87.451076,25.836336,44.114939,59.994317,74.648697,100.502524,157.86771,-168.578207,76.868095
76,3.536178,1.50345,-8.629692,0.891825,-23.00235,-37.326667,-42.189857,-42.261726,-47.917556,-65.845047,-66.389877,-63.930084,-37.282196,-53.629806,-53.287124,-49.717529,-22.083275,-28.443947,-27.459938,-26.208893,-4.55532,-2.407837,-0.495575,0.562638,18.63515,39.807366,58.533969,74.42771,38.217355,62.198547,81.798893,98.008364,32.852985,59.745166,81.867091,99.154773,29.454761,55.597947,76.538154,93.923797,27.623664,49.160676,62.972687,75.722011,23.828499,29.435543,25.548065,21.665795,23.397492,28.394188,29.15197,28.319481,4.720883,0.878643,-3.092754,-8.004272,-15.030247,-26.876266,-34.450687,-41.040722,-32.691421,-48.95557,-58.929691,-66.4995,25.263019,55.538351,80.108309,97.77073,42.324343,66.54677,86.018194,104.515629,36.756568,58.614435,78.751665,95.502119,31.829737,54.683219,74.820646,91.001366,28.098154,47.737693,63.585362,77.784715,104.507784,158.691751,-176.738817,77.080511
77,1.98935,-0.132776,-4.593624,-1.167713,-22.988915,-36.989205,-42.069077,-42.175186,-46.888619,-65.178315,-65.975624,-63.804726,-36.445725,-53.745804,-54.200638,-51.323296,-21.356919,-28.097603,-27.376854,-26.632828,-3.811524,-0.925438,1.126075,2.13636,18.032973,38.919445,57.480433,73.595611,37.052804,60.021672,79.980949,96.342067,31.748184,57.680628,80.45082,98.561599,28.404239,53.907455,74.776279,92.574711,26.726011,47.976588,61.468484,74.262453,23.799305,28.249878,23.742828,19.607895,22.947807,27.773483,28.962982,28.365509,5.405731,0.588924,-2.302803,-6.160389,-13.400528,-25.551006,-32.294849,-38.54512,-30.335232,-47.535862,-57.623932,-65.642475,24.217752,54.631645,79.005941,96.30916,46.598923,73.666988,93.589931,112.273074,42.603727,67.7527,86.850775,102.580914,38.164465,62.527893,81.84462,97.882857,34.007051,53.802973,69.254865,84.107562,107.153904,158.011712,-180.675671,75.365535
78,0.319381,-0.624037,-0.982178,1.36164,-22.983284,-36.858375,-42.278823,-42.528556,-46.265121,-64.397209,-65.308754,-63.089744,-35.778167,-52.900085,-53.64814,-51.195053,-20.579727,-27.107528,-26.461395,-25.94371,-2.820877,0.4189,2.650612,3.644989,17.255671,38.094027,56.749234,73.222514,35.862885,58.329884,78.727811,95.445364,30.658425,56.250377,79.292345,97.817012,27.331584,52.647994,73.523881,91.676032,25.728667,46.990458,60.275837,73.168594,23.19365,26.621086,21.931446,17.741261,21.821034,26.914261,29.082001,29.572163,4.32209,-0.08313,-2.190456,-5.098755,-14.219398,-26.663967,-32.777206,-38.450512,-30.613426,-47.940456,-57.849987,-65.76091,24.059103,53.480883,76.350037,92.504216,47.95432,75.41069,95.642076,114.568688,44.027864,69.589219,88.2497,104.009553,39.837105,64.891847,84.134405,99.890122,35.684834,56.751061,71.907305,86.077975,108.263923,157.008673,-180.867211,76.348173
79,-0.916557,-0.699904,-3.579048,0.114633,-22.670059,-36.289833,-41.531227,-41.534477,-45.37104,-63.3712,-64.470886,-62.202393,-34.966919,-51.984123,-52.863831,-50.721428,-19.743896,-26.411591,-25.845108,-25.473656,-1.907661,1.479881,3.863113,4.822975,16.7353,37.409499,56.104757,72.837291,34.961922,57.615901,78.348947,95.227916,29.819595,55.802069,78.894759,97.556376,26.667323,52.246468,73.081304,91.372418,25.231428,46.739677,60.014151,72.94733,25.105763,29.947254,25.41909,20.858586,26.267647,32.147152,34.176338,34.302452,8.69014,5.028454,3.18607,0.539074,-10.128959,-21.864143,-27.634426,-32.974079,-27.081367,-44.383816,-54.067898,-61.889099,23.323965,53.305889,77.035726,93.918338,49.091528,77.439327,98.199247,117.400464,45.527029,72.772157,91.798706,107.254822,41.585056,67.538254,87.160324,103.204674,37.570069,58.719986,74.374926,89.180946,108.16321,155.933098,-183.630415,76.087135
80,-1.394897,-0.265786,2.248192,1.146551,-22.430352,-35.953423,-41.08239,-40.977059,-44.898331,-62.544022,-63.635834,-61.219002,-34.371941,-51.082261,-52.055375,-50.148034,-19.002343,-25.55214,-25.130677,-24.963044,-1.126168,2.192939,4.471527,5.254119,16.364131,37.08831,56.067336,72.907365,34.24001,57.055454,78.072861,95.144207,29.087927,55.359491,78.569285,97.334815,26.045496,51.867542,72.71731,90.980513,24.756246,46.497912,59.700409,72.464936,24.013287,28.08902,23.116825,18.165619,25.042419,31.520473,34.333443,35.265507,7.543362,5.672287,4.532696,2.515469,-11.256981,-22.116383,-27.374073,-32.216412,-28.017769,-45.312195,-54.986023,-62.663738,22.954944,51.589802,73.95435,89.662296,48.319148,75.739776,95.933174,114.279654,45.166579,72.495212,92.079429,108.303177,41.473275,67.851149,87.345099,103.084032,37.385533,59.438606,74.793439,88.794369,107.507178,155.333112,-180.643358,76.899486
81,-1.439255,0.134035,-2.540806,-0.391905,-22.242874,-35.647041,-40.479035,-40.220444,-44.44764,-61.982643,-63.032044,-60.460236,-33.939377,-50.624199,-51.657761,-49.85582,-18.613037,-25.223374,-24.960777,-24.88163,-0.809212,2.541756,4.843185,5.61914,15.818146,36.412316,55.441348,72.247056,33.612602,56.559981,77.548848,94.600125,28.649944,55.051172,78.097537,96.803281,25.893307,51.763987,72.394257,90.389957,24.854516,46.642038,59.674363,72.199743,25.647949,31.730107,27.528031,22.40522,29.206639,36.460236,39.133599,39.612099,11.538655,11.053219,10.1941,8.118393,-7.430088,-16.868179,-22.112537,-26.981312,-24.631622,-41.119057,-50.763302,-58.674179,21.464511,50.251645,73.596185,90.071454,47.401462,75.425504,95.772289,114.385901,44.92834,73.412477,93.679963,110.258429,41.675699,68.459711,88.272788,104.458547,37.962659,59.857669,75.829154,90.6021,106.692627,155.23164,-182.55946,76.272074
82,-1.214813,0.425337,3.541203,0.273956,-21.982453,-35.381745,-40.067757,-39.705277,-44.332512,-61.71904,-62.78405,-60.108353,-33.711205,-50.558648,-51.795868,-50.176163,-18.319451,-25.26455,-25.310898,-25.42495,-0.480927,2.624748,4.856758,5.608589,15.605712,36.211689,55.368075,72.145192,33.128232,55.962571,76.928342,93.961971,28.407524,54.691611,77.657812,96.448722,25.927096,51.649885,72.119282,90.029248,25.057885,46.719917,59.749316,72.320712,24.063823,28.71397,24.165138,18.994846,26.771118,34.456398,37.568092,38.535644,9.244549,9.718151,9.27269,7.640487,-9.770909,-19.433327,-24.642666,-29.405468,-26.809571,-43.412659,-53.182823,-61.052571,22.505407,50.690129,72.786532,88.556673,46.980151,73.861779,93.679993,111.991671,43.944304,71.877578,92.823058,110.78755,40.549229,67.283409,86.921547,102.820648,36.729274,59.167182,74.728026,88.86582,105.990406,155.527836,-178.505665,76.416889
83,-0.777306,0.555198,-3.590676,-0.574014,-21.844185,-35.299919,-39.826538,-39.392807,-44.418823,-61.695602,-62.801903,-60.145271,-33.761421,-50.715546,-52.137314,-50.723465,-18.377907,-25.659531,-26.039864,-26.358765,-0.532745,2.328186,4.576515,5.432236,15.442222,35.982607,55.118936,71.798019,32.720037,55.386415,76.260944,93.27338,28.139601,54.310957,77.222657,96.085531,25.886526,51.531682,71.83176,89.499516,25.196552,46.857497,59.908138,72.424378,25.796368,32.536984,28.480019,22.970032,31.657185,40.146378,42.85952,43.245243,14.132653,16.317593,16.350644,14.895928,-5.127765,-12.866455,-17.463352,-21.573612,-22.789478,-38.38956,-47.768772,-55.291648,21.044646,49.121342,72.218064,88.629298,45.958313,73.926612,93.601985,111.579074,43.7593,73.674793,95.344977,113.357498,40.88585,68.663599,87.868286,102.943538,37.333188,59.784718,76.024039,90.690947,105.63909,156.000952,-181.670351,75.760793
84,-0.667923,0.467414,2.080319,-0.124989,-21.719353,-35.268814,-39.837456,-39.753525,-44.769173,-61.904755,-63.107849,-60.560165,-34.119507,-51.242065,-52.875687,-51.664192,-18.766022,-26.513123,-27.272987,-27.828003,-0.840294,1.726616,4.017746,5.0121,15.223255,35.735951,55.003858,71.880097,32.100667,54.658117,75.602054,92.797333,27.823253,53.767664,76.773608,95.880754,25.876991,51.304984,71.463418,88.912738,25.514294,47.161247,60.254224,72.748926,24.96397,30.786941,26.773556,21.77243,30.383915,39.225597,42.085338,42.556549,12.942947,15.500061,15.374782,13.812137,-6.349663,-14.032677,-18.667626,-22.799858,-23.781841,-39.040169,-48.423786,-55.871041,21.471372,49.209317,71.469952,87.511338,46.130578,72.590784,91.87729,109.531251,43.735162,71.854373,93.515516,112.097302,40.849219,67.391498,86.552428,101.779178,37.227743,59.43839,75.420311,89.859039,105.316647,156.427493,-179.244552,75.594931
85,-0.376945,1.160203,-3.108868,-0.050104,-22.090966,-36.320389,-41.36261,-42.151406,-45.770783,-62.693779,-64.128846,-61.875023,-35.219262,-52.504006,-54.38118,-53.505799,-19.959458,-28.728882,-29.896454,-30.530686,-1.928238,-0.219773,1.756782,2.763633,14.100361,34.031591,53.127992,70.021151,30.520006,53.223335,74.070571,91.17084,26.818427,52.620416,75.386892,94.54035,25.321053,50.322548,70.331731,87.689192,25.403922,46.792215,59.900679,72.341485,27.147103,35.370724,33.09977,28.981018,35.294804,44.895024,47.779278,48.055538,17.906616,21.330231,21.27079,19.491543,-1.592823,-8.264248,-12.456871,-16.092865,-19.698601,-34.212021,-43.050316,-49.976074,21.080683,49.223532,72.65178,89.557598,44.43438,70.930278,90.684753,108.718603,41.842246,70.358605,92.761148,111.179208,38.944892,65.705094,84.674314,99.14267,35.609629,57.712238,74.554212,89.616743,105.245928,157.427062,-182.047194,75.384193
86,-0.678658,1.246704,1.663834,0.410103,-22.525635,-37.740303,-43.808144,-45.896324,-47.322533,-64.165352,-66.246506,-64.656509,-36.787697,-54.420273,-57.062462,-56.908241,-21.608414,-31.911209,-33.963387,-34.99054,-3.570694,-3.701729,-2.873451,-2.612297,12.524256,31.157109,49.45057,65.955566,28.262867,50.929628,71.660588,88.581991,25.469205,51.047238,73.616112,92.724999,24.687037,49.228713,69.228165,86.544376,25.512306,46.607149,59.906841,72.333161,27.215595,35.948604,34.654815,31.906757,36.562031,46.757538,50.238407,51.476074,19.348182,23.882973,24.616607,24.283047,-0.230702,-6.48317,-10.153839,-12.582516,-18.702828,-32.208676,-40.004917,-45.503311,21.106161,48.876322,71.648577,88.590543,43.008909,67.002544,86.164901,103.562067,40.512253,66.696873,89.259177,108.288295,38.157901,63.814734,82.065896,95.631782,35.260109,57.519941,73.675633,87.477529,104.86968,158.379519,-180.08095,75.500049
87,-0.855492,1.581317,-0.403679,2.318598,-23.428985,-40.301857,-47.783157,-51.192489,-49.738792,-66.838211,-69.858421,-69.358406,-39.316749,-57.612877,-61.56665,-62.692978,-24.395256,-36.812393,-40.487869,-42.518989,-6.660621,-9.690284,-10.711921,-11.778785,9.885031,26.54812,43.739842,59.528373,24.300701,47.152998,67.637758,84.285546,22.930954,48.662857,70.987508,89.895064,23.610394,48.03199,67.918624,84.933505,25.997096,46.858831,60.041358,72.183157,28.70684,40.266357,41.763073,42.207149,40.772415,52.082371,57.298862,60.732056,23.634052,29.046432,31.251263,33.011364,4.243904,-0.398735,-2.374832,-2.842186,-14.363457,-25.202545,-30.815254,-34.149159,18.806169,44.993604,67.275654,84.361919,37.429957,59.662007,78.109739,95.345082,36.320716,60.142228,81.93819,101.003383,35.583638,60.125833,77.693183,91.218116,34.418982,56.287335,71.693414,84.631076,104.347503,159.537546,-180.151314,77.395357
88,-1.500801,2.267883,2.889347,3.75742,-24.716995,-43.370659,-52.449119,-56.937286,-52.177986,-70.49794,-75.236023,-76.512336,-41.856743,-61.961334,-68.201774,-71.392524,-27.39196,-43.154022,-49.431129,-53.235443,-10.412384,-17.74562,-21.333252,-24.438629,6.798942,21.158593,37.397062,52.626146,18.827145,41.391721,61.482835,77.98399,19.585341,44.716696,66.520569,85.171973,22.521659,46.339139,65.737512,82.387646,27.17916,47.237237,60.125721,72.120331,28.839283,42.087227,46.199215,49.286259,42.418201,55.829304,63.581348,69.380127,26.246429,33.60331,37.705158,41.238007,7.516731,5.624496,5.904018,7.122952,-10.548786,-17.498772,-20.50201,-21.558861,15.626893,39.587627,60.455265,76.736675,30.77333,49.874258,67.071896,83.150777,30.607907,51.569832,72.073506,90.396113,31.549873,55.095873,72.579786,86.281251,32.507066,54.314798,68.776578,80.840842,103.254129,161.003452,-176.85454,80.3508
89,-2.794395,3.454256,0.534279,6.976438,-25.846344,-46.474457,-56.776932,-61.803314,-55.351113,-74.74102,-81.423683,-84.914211,-45.128197,-66.885475,-75.777123,-81.441925,-31.166863,-50.292412,-59.611611,-65.696228,-15.058296,-26.945618,-33.390541,-38.844521,2.894254,14.943822,30.841774,45.699393,12.967661,35.115434,54.302757,70.307574,16.429068,40.964285,61.811211,79.685893,22.05479,45.255185,63.61299,79.18758,29.080751,48.061482,60.390717,71.709457,30.13306,47.29929,55.142063,61.295231,48.201931,63.708332,74.103161,82.2453,33.205753,44.294563,52.00494,58.507919,15.651192,19.60334,24.025474,28.304844,-1.664806,-2.277969,-1.170387,1.319,9.442861,29.269183,48.309145,63.562237,20.652086,37.383397,53.091825,68.266198,23.248462,43.552479,63.119647,80.561471,27.378923,51.025916,67.671888,80.578774,31.748098,53.515069,67.059978,77.982675,100.902237,163.442423,-175.877758,86.311953
90,-3.902001,4.729921,4.44231,9.198694,-26.336883,-48.306083,-59.667823,-64.977081,-57.708755,-78.880485,-87.840465,-93.909038,-47.865234,-71.818428,-83.699661,-92.153274,-34.702949,-56.951751,-69.424026,-78.152103,-19.769897,-35.881485,-45.01522,-52.888504,-1.063033,8.548579,24.081043,38.396629,7.102903,28.553675,46.53763,61.849065,13.425441,37.105872,56.865288,73.761509,21.898882,44.546994,61.647931,75.862493,31.399554,49.106175,60.599162,71.006132,29.646767,49.029076,59.460308,68.374203,50.724175,68.443829,81.382908,92.097771,37.417191,52.385674,64.211918,74.131153,21.504936,31.545948,40.394852,47.745003,5.510147,11.775822,17.178086,23.197334,3.370553,18.630414,34.904062,48.709873,12.028949,26.656522,40.468885,54.169252,17.609519,36.37148,54.688449,71.365309,24.945826,47.557783,63.811097,76.77073,32.441165,53.565469,65.715887,75.405959,97.489614,167.024821,-170.94607,94.363124
91,-4.734535,6.415238,3.678005,12.61609,-26.9496,-49.986053,-62.347938,-67.617691,-59.361122,-82.604988,-93.743568,-102.169681,-50.207771,-76.466091,-91.195255,-102.367412,-38.111503,-63.085052,-78.478168,-89.703392,-24.563072,-44.135399,-55.369606,-65.146545,-4.9664,2.682475,18.205541,32.233073,2.29903,22.808923,39.477965,53.985273,11.413946,33.995751,52.34738,67.84955,22.559006,44.4724,60.107839,72.637306,34.220102,50.615516,61.232561,70.590762,29.991452,51.877099,65.124218,76.620026,53.362839,73.117733,88.49342,101.60915,41.882412,60.47453,76.126809,89.194863,28.121922,44.255448,57.863846,68.264752,14.162213,26.959889,36.558884,45.52755,-2.623182,8.044381,21.848161,33.747391,2.647333,16.259094,28.853276,41.578282,10.980656,28.901916,45.951261,61.55806,21.152363,42.468463,58.286338,71.407522,31.736495,51.544922,63.212292,73.004721,93.540888,171.967296,-166.482256,105.506451
92,-5.269523,8.546282,4.305966,14.11738,-27.229134,-50.731751,-64.274918,-70.316735,-60.276719,-84.872681,-97.868088,-108.144494,-51.963822,-80.079644,-97.206906,-110.710328,-40.992646,-68.075661,-85.865834,-99.185406,-28.724877,-50.566155,-63.197365,-74.406739,-8.201221,-2.207232,12.752016,25.729667,-0.35982,19.65334,35.044495,48.208546,11.366991,32.596733,49.403466,63.292567,24.436663,45.103168,59.370674,70.24985,37.273759,52.183729,62.280539,70.850866,29.678501,53.115475,68.199062,80.981575,54.691418,76.200668,92.306511,105.744621,45.091896,67.419227,85.490661,100.147373,33.481819,55.097317,72.114704,84.77956,21.40432,39.403324,52.180389,63.374359,-7.692607,-0.640686,11.149691,21.445683,-3.374098,8.970778,20.459702,32.131728,6.994376,24.333787,40.466774,54.940811,18.975525,38.515683,53.872146,66.861641,31.358711,49.322709,60.70168,70.912468,89.196076,178.868794,-161.251579,117.979047
93,-5.288567,9.851698,8.183784,16.778723,-27.280449,-50.291428,-63.163239,-67.983559,-60.957596,-84.359985,-95.130924,-103.180069,-54.259117,-82.44278,-100.918121,-115.665504,-44.628616,-71.916847,-90.969955,-105.395016,-33.371887,-55.464615,-68.797657,-80.672825,-10.884746,-5.266891,9.380085,21.414462,0.867173,18.573535,30.237324,39.559746,14.312819,33.431524,47.830374,59.287039,27.944321,47.066843,59.896294,68.827108,40.226725,54.38523,64.330541,72.057741,30.656079,56.736191,75.289914,90.525513,58.656006,82.819817,99.524849,113.203881,49.639996,76.313198,95.97836,111.847721,39.01482,65.757134,84.78629,98.872147,27.592644,50.303868,65.197117,77.739189,-10.007575,-5.719033,3.651684,11.013976,-5.305083,8.276364,19.783918,31.508394,6.658386,24.704512,40.475295,54.533456,20.096949,38.738059,53.228904,65.473394,33.869273,50.171222,60.485183,69.63894,84.870134,187.212581,-152.10517,133.249859
94,-3.912117,12.116023,8.227043,17.671436,-26.025833,-48.628853,-63.000984,-69.467377,-59.331757,-83.361076,-95.387112,-104.711552,-54.911705,-84.036404,-103.014771,-118.094387,-47.684303,-75.862667,-93.897125,-107.230934,-38.914558,-61.960762,-74.827023,-85.750259,-6.964125,-0.920723,11.138564,19.812398,8.871632,24.01581,33.635721,41.057022,18.725059,31.609283,41.132468,48.271977,27.538066,40.452707,48.619212,53.84773,34.803384,44.608967,51.694975,57.122873,31.825322,59.639409,80.340798,97.098313,61.671021,87.83812,105.018563,118.997521,53.05283,82.114323,102.382187,118.807332,43.244706,72.30328,92.032162,106.773674,32.549103,57.439568,73.062916,86.003701,-11.704272,-8.813506,-1.146853,3.035181,-5.015547,9.813518,21.531529,33.132406,7.858704,26.325312,41.765731,55.307226,21.900266,39.836179,53.662566,65.249277,36.048285,51.328116,60.878867,69.20444,81.891472,197.759495,-142.944672,149.352186
95,-2.822228,12.582276,11.995652,19.727874,-27.386924,-50.275566,-65.402526,-72.887283,-59.96006,-83.713485,-96.068962,-105.591362,-56.354873,-85.403892,-104.141796,-118.861209,-50.062088,-78.360488,-95.620891,-107.787002,-42.34053,-65.02462,-78.073322,-89.132434,-6.773513,-0.767656,9.378443,16.022997,13.226371,23.916355,29.410314,33.012067,22.399666,30.221282,35.402747,38.404842,29.924633,38.556044,43.237009,45.204834,35.31595,43.510502,49.436207,53.690613,32.549389,61.819004,83.808986,100.827392,64.32423,93.452362,109.467533,120.857986,55.746746,88.130436,106.033939,118.934406,46.007183,77.780399,94.969185,106.525474,35.193844,62.038673,76.635509,87.191757,-13.145632,-11.426358,-5.383673,-3.027475,-3.129641,14.438246,26.353556,36.933909,11.241946,31.999532,46.50631,58.219437,26.048806,45.47057,58.242297,68.382826,40.462303,55.94754,64.838896,72.109846,79.958227,208.686171,-130.060037,167.42446
96,-1.850486,12.589316,10.024223,18.68318,-26.80037,-50.146546,-66.726837,-76.231842,-58.063317,-81.4254,-94.154549,-103.976944,-55.787201,-85.136204,-103.26408,-117.172074,-51.244812,-80.334938,-95.953182,-106.384781,-45.768471,-69.05365,-81.150513,-90.695332,0.535611,8.874263,18.104122,24.485521,24.15008,31.200631,33.966802,34.844239,28.022448,30.448153,31.139831,29.944516,29.212095,32.131,32.215252,30.478225,27.936936,31.678517,34.458681,36.244503,34.129921,64.593681,88.134087,106.05249,67.764931,98.862522,114.693718,125.160645,58.805386,93.13932,110.488174,122.291988,48.75555,82.057411,98.861446,109.742935,37.690155,65.435566,79.656956,89.699547,-13.715088,-12.550253,-7.07472,-6.524339,0.179422,19.641299,31.378928,41.252671,15.410791,37.327753,50.77561,60.877471,30.301581,50.463931,61.999612,70.212935,44.116211,59.743943,67.499745,72.949503,78.612494,219.943651,-119.531061,184.775804
97,-9.903122,12.951458,9.669766,17.671794,-23.544411,-45.159439,-61.232214,-71.022623,-51.792618,-71.197958,-82.155402,-90.677777,-50.740236,-75.371046,-90.602801,-101.741009,-47.971035,-73.095114,-85.048256,-92.258372,-44.685248,-65.750679,-75.708836,-82.645804,7.003558,18.278202,28.362668,35.483293,32.403244,36.159343,36.057905,34.550652,31.244874,30.05232,27.15378,22.635904,27.007271,26.51005,22.974611,18.396028,20.396408,21.678482,22.080829,22.073722,36.071754,68.137321,93.294628,111.788509,72.038978,104.664894,120.805286,131.000507,62.47443,98.686809,116.066665,127.192291,51.842754,86.612068,103.251606,113.637393,40.268383,68.841007,82.471263,91.809928,-13.598046,-12.331829,-7.31089,-8.380692,3.923831,25.582578,37.71814,47.215909,19.822624,43.476366,56.563983,65.509456,34.927775,56.581792,67.323708,73.880527,48.395799,64.76303,71.780013,75.759197,68.964289,231.754357,-109.606378,201.306846
98,-18.223755,13.780753,7.24665,15.927136,-17.331619,-35.701058,-51.265566,-62.374426,-41.242973,-54.34659,-64.716402,-73.62743,-40.74745,-56.349718,-66.595625,-73.48074,-39.567524,-56.729044,-63.354034,-66.354761,-38.46686,-55.076408,-61.673092,-65.138174,12.313081,26.133398,37.86844,45.50047,36.173527,39.908359,39.347449,37.554575,30.851944,29.432864,24.823554,18.387611,22.721064,21.737262,15.997531,9.667039,12.921261,13.338484,11.902657,10.670718,36.423832,68.047142,92.564083,111.039437,72.287636,103.989178,120.08376,130.251789,62.640255,97.795178,115.19141,126.110287,52.119141,85.422238,101.781121,111.84327,40.800156,67.980744,80.942093,89.648129,-13.921803,-12.602358,-7.63056,-8.573464,6.36275,27.865725,40.011723,49.248473,22.920209,46.411647,59.01104,67.256004,38.008218,59.748426,69.678029,75.283669,50.604981,67.553382,74.065593,77.215988,50.80913,244.58219,-102.291132,216.281062
99,-11.849259,10.322038,7.56435,13.847653,-15.162643,-32.234733,-46.860174,-58.401849,-41.363994,-47.397291,-50.013582,-52.616672,-40.988176,-45.912958,-47.53961,-46.920318,-39.161144,-45.60811,-44.829643,-42.171232,-36.970853,-47.459186,-49.151973,-48.156045,16.033025,32.014137,45.806172,55.744135,36.552131,41.086483,39.990888,37.662725,29.612404,32.1268,30.772429,26.851691,20.44755,23.705248,21.871168,18.591814,9.99444,13.367161,14.545303,15.750134,36.13892,67.253598,91.311653,109.427948,71.454174,103.070961,118.759941,128.51548,61.602723,96.723919,113.825524,124.382973,50.906823,83.828534,99.933781,109.795407,39.5705,66.046749,78.668393,87.087914,-13.106747,-11.705037,-6.423043,-7.061777,9.558729,31.410385,43.412504,51.983942,26.41385,50.133332,62.358271,70.10775,41.196837,63.339077,72.632342,77.38453,52.926834,70.484959,76.752218,79.433828,38.883539,254.248936,-94.803114,229.473423
100,-15.286686,11.046222,3.110962,10.37591,-7.999957,-20.130672,-31.540689,-41.106107,-32.435245,-29.824601,-25.945982,-23.73785,-34.213136,-28.773599,-22.812704,-15.981456,-34.257945,-31.453325,-23.939506,-16.039518,-33.447172,-40.394073,-40.010066,-36.828031,17.587728,33.261903,46.83954,57.562438,34.548541,41.924251,43.850055,44.458025,27.02663,32.444297,34.400933,33.525022,17.253979,23.165451,24.343112,23.967447,6.841736,11.239539,14.106876,17.538229,36.318077,66.943428,91.194454,110.11908,70.565609,100.88871,117.641327,129.421532,60.357182,94.056599,113.290329,127.152512,49.774166,81.149586,99.567078,112.430191,39.051235,64.28286,77.796192,88.242428,-11.790834,-9.926046,-4.145231,-5.711037,11.709878,32.27447,44.154187,53.242502,28.178121,50.079584,61.940652,70.24097,42.416296,63.0107,71.856336,76.490593,53.322505,70.442251,76.299241,78.863032,23.439056,264.988453,-91.849949,239.542628
101,-7.098472,8.567178,4.054619,9.670497,-6.416096,-17.627026,-28.647486,-38.939901,-35.352139,-25.823175,-13.653185,-4.881878,-37.868883,-22.761847,-8.658915,4.87817,-37.532867,-25.36437,-10.729076,2.453985,-35.559465,-38.887413,-36.90255,-32.137773,17.909411,33.417242,47.572691,58.101507,29.632899,40.496606,43.863183,45.81972,23.160017,33.477826,39.053406,41.188445,15.312658,26.623623,31.753026,34.733014,7.590843,16.460808,22.489828,29.208773,35.141247,65.424786,89.623879,108.610382,69.031277,98.828384,115.488602,127.233536,58.900177,92.449894,111.601845,125.366844,48.405624,79.462727,97.635773,110.457916,37.803429,62.575573,75.976811,86.485851,-11.258817,-9.374886,-3.619451,-5.320206,12.965796,33.213756,45.148542,54.16819,29.325036,50.982165,62.957694,71.426664,43.296524,63.823089,72.728993,77.547785,53.937997,71.25879,77.147951,79.837169,16.165226,273.375814,-87.970688,249.033308
102,0.857162,6.161197,3.564617,7.730102,-6.441547,-18.222255,-29.603954,-40.454589,-40.531826,-29.026977,-12.226627,0.559742,-42.469505,-24.180244,-5.218036,12.534634,-40.479641,-24.113594,-5.516647,10.912526,-36.251781,-35.724311,-30.82687,-23.673523,20.834095,36.285592,48.909747,59.270726,28.914606,41.779205,46.626118,49.764608,21.544991,34.21904,42.730581,47.367,13.210908,27.073554,35.723478,41.437614,5.491081,16.613911,25.181917,33.987995,33.9749,63.568714,87.505509,106.530728,67.180458,96.825176,113.075535,124.435055,57.097458,90.513394,109.327481,122.753437,46.54953,77.427578,95.273426,107.770924,35.912842,60.341881,73.896263,84.570854,-10.813856,-9.014869,-2.962908,-4.539001,14.638824,34.695099,46.257999,54.852384,30.995619,52.207244,63.869377,71.978491,44.592109,64.881763,73.647259,78.237191,54.792425,72.181007,77.98788,80.385513,16.867893,279.451533,-84.560566,256.677932
103,8.698792,2.907975,2.396714,6.312263,-8.46381,-22.550182,-35.411659,-47.723362,-48.68557,-38.643276,-19.35696,-4.365841,-49.880699,-33.272907,-11.478092,8.661335,-46.068615,-30.02766,-9.153477,9.194515,-39.618198,-37.693977,-31.26297,-22.99609,24.821616,40.314399,50.86174,61.326693,31.185589,45.636519,52.017942,56.33253,22.159086,35.895169,46.350761,52.511773,12.313946,26.846362,37.996017,45.586773,3.416749,15.098384,25.434093,35.668249,33.057563,61.899696,85.667427,104.772708,65.247322,95.004604,111.051601,122.253971,55.303619,89.027767,107.892093,121.401752,44.800071,76.05511,94.006816,106.641963,34.234291,58.82135,72.875644,84.313167,-10.565755,-8.888676,-2.600471,-4.454477,15.543431,35.268698,46.257159,54.423108,31.792706,52.513019,63.84275,71.751002,44.922844,64.978452,73.790519,78.49968,54.749051,72.155455,78.21879,81.038808,25.386658,282.325758,-82.343879,262.956445
104,-1.786629,3.421554,1.340766,5.063447,-5.369282,-16.88007,-28.644024,-39.838188,-43.364399,-31.950599,-12.805744,1.285069,-46.199238,-29.687919,-8.535084,10.241787,-44.488575,-29.471924,-9.281765,7.861622,-40.143379,-40.500137,-37.11684,-31.875286,15.486324,26.468177,35.463829,45.032611,24.694385,41.381075,48.752753,53.529678,21.873329,37.024855,47.120294,52.754612,17.38836,32.572218,42.634781,49.401527,13.406755,25.712871,35.876149,45.863673,32.101365,60.38942,84.008492,103.234463,63.937203,93.62518,109.755719,121.033093,54.147126,87.870678,106.852124,120.295109,43.605572,74.941189,93.027363,105.654065,32.952771,57.550736,71.979607,83.793652,-10.685217,-9.127205,-2.675213,-4.417686,15.978364,35.717155,46.318663,54.253714,32.141979,52.463249,63.421613,71.001254,44.875926,64.636861,73.381609,78.080457,54.375054,71.649435,77.68355,80.496071,23.454134,285.693469,-81.149008,267.966049
105,-0.425537,1.450788,0.612671,4.328778,-7.340401,-19.361824,-32.035389,-45.240875,-43.973087,-31.568882,-11.971058,2.5807,-46.808315,-29.493324,-7.947224,10.879841,-45.039162,-29.629555,-8.938763,8.341221,-40.682465,-41.415665,-37.192428,-30.873676,15.460229,27.094266,37.554748,48.140239,25.35656,43.426225,51.299723,56.149872,23.341175,39.397245,49.879143,55.462491,19.393668,34.789516,44.92319,51.527471,15.972436,28.280837,37.660848,46.453032,31.275547,58.930905,82.465691,101.657605,62.779759,92.512791,108.603665,119.882618,53.183499,86.878086,105.784893,119.080662,42.643376,74.070271,92.226254,104.852932,31.870938,56.576695,71.244084,83.361065,-10.83406,-9.642154,-3.243403,-4.560169,16.477554,35.749524,45.986656,53.70705,32.406802,52.135231,62.691439,69.891722,44.65612,63.982554,72.56675,77.129402,53.773642,70.706235,76.671905,79.392455,22.865484,287.049599,-80.69945,272.200169
106,1.108887,1.613415,0.51915,3.339289,-8.380303,-20.801228,-33.464344,-46.648567,-44.756504,-33.352375,-13.811154,0.737011,-46.53011,-30.729824,-9.481762,9.156452,-43.900349,-29.916847,-9.357777,7.96027,-38.966721,-40.341442,-36.386181,-30.144207,15.257687,26.813968,37.045394,47.500961,26.143075,44.148198,52.382949,57.532649,24.307519,40.352474,51.092143,56.839612,20.351824,35.405822,45.710335,52.465954,16.80966,28.747657,37.790178,46.160681,30.595757,57.61274,80.944679,100.000683,61.717575,91.454807,107.592259,118.975605,52.216438,85.815342,104.788548,118.160282,41.682346,73.021786,91.233456,103.979473,30.880612,55.585888,70.264229,82.507633,-10.940555,-9.790836,-3.319825,-4.482622,17.0422,35.860527,45.713336,53.203414,32.839586,52.186929,62.385207,69.353728,44.757786,63.801823,72.181971,76.648922,53.569619,70.326507,76.219102,78.959734,23.788862,288.520599,-80.365809,275.397043
107,1.428016,1.560643,0.168583,3.09482,-9.097892,-21.84708,-34.466079,-47.824321,-45.877304,-34.846984,-15.245967,-0.415866,-47.690105,-32.365379,-10.779613,8.319958,-45.170974,-31.822345,-10.893024,6.774846,-40.336853,-42.02766,-37.954341,-31.682064,14.568305,25.827147,36.289717,47.004735,26.081373,44.504201,53.200191,58.641316,24.728805,41.212472,52.134712,57.988046,21.309709,36.348194,46.748915,53.611313,18.150348,30.23641,39.299185,47.712209,30.104553,56.677769,79.889076,98.804832,60.957962,90.791336,107.050095,118.606522,51.52367,85.103691,104.117455,117.488319,40.988594,72.45536,90.747711,103.505516,30.154118,55.019669,69.678429,81.985336,-11.167698,-10.149619,-3.545412,-4.40252,16.814514,35.257979,44.846755,52.200871,32.481075,51.548083,61.60042,68.483813,44.228411,63.104253,71.473755,75.980881,52.990301,69.775039,75.691234,78.552588,25.0007,289.91799,-80.413404,278.328611
108,1.499405,3.448724,0.242786,2.678832,-9.996276,-22.736583,-35.070488,-48.227794,-47.029129,-35.893467,-15.539989,-0.478534,-49.411491,-34.103382,-12.255787,7.320546,-47.240295,-34.76501,-13.681331,4.421574,-42.753341,-46.126098,-43.376999,-38.169101,9.825774,18.63431,28.629429,38.872736,21.267237,39.759447,48.902584,55.142858,23.435837,39.429614,50.424904,56.701994,23.312274,37.478585,47.336544,54.237325,22.940611,34.433042,42.625543,50.438786,29.503991,55.808041,78.945672,97.852513,59.803597,89.7636,106.094136,117.776654,50.486721,84.101635,103.22881,116.654309,40.172905,71.64235,89.972134,102.729481,29.618374,54.63414,69.235383,81.467789,-11.549242,-10.804544,-4.018408,-4.044097,16.670252,34.92728,44.306056,51.502449,32.481087,51.118016,60.956647,67.650824,44.181678,62.583301,70.825919,75.223203,52.791785,69.29835,75.094404,77.815498,26.304119,293.184525,-80.366604,280.825254
109,7.848359,1.907445,0.721768,2.246146,-14.730263,-31.178753,-45.624367,-60.938874,-54.653847,-46.699975,-25.451787,-8.855015,-55.06057,-43.396042,-21.12418,-0.718815,-50.722916,-41.893822,-20.630414,-1.603558,-44.340477,-49.847237,-48.047345,-43.393513,16.211336,27.518898,38.685472,50.452791,23.701537,41.136692,50.235899,56.545272,22.960755,38.404668,49.587717,55.823274,20.774209,34.6126,45.119532,52.156115,18.684613,29.843011,38.106859,46.002526,29.07978,55.016533,78.091392,96.973251,58.368931,88.505539,104.91925,116.747063,49.097111,82.892395,102.269279,115.815216,38.996143,70.616363,89.04911,101.916366,28.775081,53.940388,68.529533,80.738926,-11.778039,-11.156891,-4.190815,-3.603569,16.74297,35.041877,44.015422,50.726086,32.778206,51.176963,60.515676,66.627237,44.459284,62.608471,70.439436,74.422893,52.823242,69.131933,74.563437,76.884215,33.971804,294.870481,-79.82551,282.849911
110,9.060573,1.458742,0.701248,1.664717,-16.908485,-36.305797,-52.513229,-68.529224,-62.47158,-58.185951,-37.00312,-20.211571,-61.100407,-53.205574,-31.576652,-10.892189,-54.796417,-48.3158,-27.539886,-8.674393,-46.530578,-50.574863,-47.097359,-41.34074,21.084604,33.568216,44.023685,55.265236,27.087819,44.121905,52.409341,57.867287,23.274348,38.720831,49.244299,54.877616,18.352667,32.155749,42.26859,48.947736,13.446597,24.705747,32.971843,40.815306,28.744469,54.415867,77.357151,96.204346,57.176765,87.364426,103.964333,115.948769,47.942104,81.84771,101.480873,115.118683,37.968933,69.722397,88.230583,101.136406,28.025059,53.173611,67.774899,79.898163,-12.156272,-11.531741,-4.339152,-3.196757,16.868928,35.276615,43.972975,50.259994,33.140322,51.352273,60.392162,65.967706,44.862601,62.818386,70.243255,73.67764,53.015211,69.278565,74.349929,76.125192,42.895483,296.096624,-79.261156,284.282029
111,-3.222473,3.1181,0.674149,1.357361,-14.029221,-31.042969,-45.407398,-59.881645,-57.036541,-51.319611,-31.520073,-15.972038,-55.889523,-47.038239,-26.271149,-6.396172,-49.952969,-42.321442,-22.763763,-4.902374,-41.82058,-42.535034,-37.07967,-30.425079,19.563889,31.327071,40.786122,51.410491,25.344197,42.098899,49.645441,54.473089,22.006994,36.55039,46.423552,51.774028,17.507217,30.288182,40.063741,46.495343,12.852805,23.530377,31.482237,38.811258,28.506614,53.982822,76.896663,95.849144,56.119182,86.490394,103.361068,115.564292,46.878158,81.079193,100.998207,114.764968,36.989067,69.041187,87.676323,100.66674,27.250522,52.514419,67.203826,79.392952,-12.279243,-11.820412,-4.509448,-2.662357,16.943226,35.36414,43.829257,49.713861,33.30259,51.284223,60.100774,65.160047,44.989596,62.772393,69.947964,72.904957,52.907407,69.196005,74.126676,75.534314,39.56468,298.996313,-78.695337,285.420979
112,0.009224,0.426954,0.755561,1.114866,-14.763565,-32.419361,-47.789566,-63.271706,-58.246742,-51.707657,-30.380951,-14.212418,-57.959061,-48.004749,-26.156777,-5.746079,-52.670403,-44.843708,-23.78183,-4.995163,-45.253407,-48.996929,-45.59721,-40.083595,18.645476,29.867489,39.792361,50.212274,23.107264,40.434108,48.043044,53.127585,21.261519,36.192053,46.050914,51.297562,18.105901,31.326837,40.566415,46.813383,14.895151,25.712193,33.207347,40.500947,28.220627,53.55415,76.393799,95.438713,55.199936,85.838677,102.903191,115.253334,46.078,80.621476,100.771935,114.662293,36.399239,68.711529,87.419472,100.497094,26.968529,52.326325,67.065937,79.349671,-12.475769,-12.15626,-4.77138,-2.421567,16.933309,35.198439,43.448307,48.986083,33.383471,50.932185,59.42362,63.996386,45.034601,62.446611,69.312775,71.838478,52.73647,68.865085,73.661042,74.766621,39.47378,299.21824,-78.0399,286.330818
113,-1.034775,1.020451,0.891415,0.669412,-14.166939,-31.714954,-47.117935,-62.447021,-57.622066,-50.363457,-29.212669,-13.23864,-57.412948,-46.411686,-24.428512,-4.1567,-52.301365,-43.289852,-21.769295,-3.032272,-44.860634,-47.802864,-43.684135,-37.80233,18.294053,29.141761,38.63207,48.552126,23.224231,40.465193,47.560612,52.325138,21.177933,35.823279,45.201128,50.261822,17.57949,30.708937,39.586077,45.773579,13.966498,24.830458,32.365218,39.821655,27.92783,52.936466,75.536888,94.416081,54.466827,85.357647,102.672283,115.217045,45.435539,80.268276,100.632031,114.652828,35.787895,68.365002,87.213352,100.417614,26.382649,51.825325,66.667431,79.086067,-12.496839,-12.253752,-4.816866,-2.010421,16.886144,34.937111,42.9782,48.182414,33.324314,50.491595,58.657902,62.750373,44.963068,62.132573,68.662234,70.712644,52.592542,68.712326,73.360477,74.118501,38.342577,300.051066,-77.244913,286.812605
114,-1.331634,1.005877,0.603596,0.647774,-12.278756,-28.669568,-44.065041,-59.605809,-56.555764,-47.259842,-26.098755,-10.675782,-57.877602,-44.113038,-21.435585,-0.774216,-53.743092,-42.679448,-20.435509,-1.145005,-47.113598,-49.933205,-46.109791,-40.484631,14.130334,23.538763,33.097122,43.060057,19.741866,37.831538,44.924277,49.90956,20.042171,34.520888,43.649687,49.060628,18.457667,31.278066,39.413608,45.488194,16.716627,27.119237,34.002716,41.263984,27.632881,52.31813,74.699363,93.497246,54.120128,85.333397,102.816948,115.433716,45.161201,80.243339,100.651314,114.726311,35.461761,68.336494,87.270332,100.516182,25.971176,51.607498,66.540207,79.09473,-12.808764,-12.74983,-5.179736,-1.727925,16.31804,34.067159,41.956626,46.967536,32.722729,49.557645,57.57417,61.494345,44.385554,61.287642,67.651405,69.505869,52.054758,68.168231,72.809071,73.46717,36.923327,300.924664,-76.728933,287.3281
115,-4.186592,1.372316,0.647403,0.701472,-9.821869,-24.808514,-40.360005,-56.390008,-53.589718,-42.258465,-20.605042,-5.27179,-56.946682,-40.055867,-16.60508,4.039764,-54.365582,-41.452389,-18.356438,1.336006,-49.15178,-54.060792,-52.741574,-49.132359,8.756382,16.874807,27.145049,37.146924,15.14645,34.059774,40.914267,45.815632,18.559939,33.110016,41.527189,46.949197,19.770432,32.517039,39.533899,45.274797,20.538768,30.674567,37.16719,44.639497,27.37278,51.75087,73.899788,92.690793,53.902119,85.336224,102.886929,115.486256,44.98201,80.185238,100.629033,114.688969,35.250367,68.208687,87.203785,100.419034,25.693783,51.468396,66.424176,79.020665,-13.09005,-13.106586,-5.322194,-1.468486,15.700648,33.186598,40.963211,45.888794,32.19685,48.73697,56.547891,60.398165,43.937234,60.569325,66.816861,68.664841,51.628137,67.607217,72.226073,72.911688,32.649102,302.215874,-76.169163,287.948466
