takenoko1/special-research/HandMotion_SimilarSearch_自分用/NewProject/handData_new/key/d3_feature/47.csv
,vel_0x_L,vel_0y_L,vel_0x_R,vel_0y_R,posFromWrist_1x_L,posFromWrist_2x_L,posFromWrist_3x_L,posFromWrist_4x_L,posFromWrist_5x_L,posFromWrist_6x_L,posFromWrist_7x_L,posFromWrist_8x_L,posFromWrist_9x_L,posFromWrist_10x_L,posFromWrist_11x_L,posFromWrist_12x_L,posFromWrist_13x_L,posFromWrist_14x_L,posFromWrist_15x_L,posFromWrist_16x_L,posFromWrist_17x_L,posFromWrist_18x_L,posFromWrist_19x_L,posFromWrist_20x_L,posFromWrist_1y_L,posFromWrist_2y_L,posFromWrist_3y_L,posFromWrist_4y_L,posFromWrist_5y_L,posFromWrist_6y_L,posFromWrist_7y_L,posFromWrist_8y_L,posFromWrist_9y_L,posFromWrist_10y_L,posFromWrist_11y_L,posFromWrist_12y_L,posFromWrist_13y_L,posFromWrist_14y_L,posFromWrist_15y_L,posFromWrist_16y_L,posFromWrist_17y_L,posFromWrist_18y_L,posFromWrist_19y_L,posFromWrist_20y_L,posFromWrist_1x_R,posFromWrist_2x_R,posFromWrist_3x_R,posFromWrist_4x_R,posFromWrist_5x_R,posFromWrist_6x_R,posFromWrist_7x_R,posFromWrist_8x_R,posFromWrist_9x_R,posFromWrist_10x_R,posFromWrist_11x_R,posFromWrist_12x_R,posFromWrist_13x_R,posFromWrist_14x_R,posFromWrist_15x_R,posFromWrist_16x_R,posFromWrist_17x_R,posFromWrist_18x_R,posFromWrist_19x_R,posFromWrist_20x_R,posFromWrist_1y_R,posFromWrist_2y_R,posFromWrist_3y_R,posFromWrist_4y_R,posFromWrist_5y_R,posFromWrist_6y_R,posFromWrist_7y_R,posFromWrist_8y_R,posFromWrist_9y_R,posFromWrist_10y_R,posFromWrist_11y_R,posFromWrist_12y_R,posFromWrist_13y_R,posFromWrist_14y_R,posFromWrist_15y_R,posFromWrist_16y_R,posFromWrist_17y_R,posFromWrist_18y_R,posFromWrist_19y_R,posFromWrist_20y_R,posFromBody_0x_L,posFromBody_0y_L,posFromBody_0x_R,posFromBody_0y_R
6,-0.755298,0.19481,-0.107849,-0.298033,19.405105,40.70042,59.255985,69.597484,29.228256,61.337185,79.437137,87.31097,19.946697,53.923748,73.656658,86.393245,9.193725,39.01411,59.008792,70.741481,0.844265,8.983841,12.970893,15.310821,-18.712202,-22.957395,-18.795454,-10.716228,-0.402612,17.783526,22.57458,23.075154,19.858303,40.343842,42.828172,40.378755,34.009657,50.610305,52.590369,50.252967,44.723848,58.737264,59.813586,57.303284,24.216808,49.410449,70.678985,86.081245,54.079101,85.680313,102.599281,114.014808,45.584312,80.707672,99.318901,111.22808,36.052974,69.532424,86.211296,96.155021,26.763851,53.281162,66.958511,75.604202,-15.562795,-14.004795,-3.819892,5.14418,12.741605,27.093117,33.409567,36.922671,30.093187,43.685947,47.865771,49.607824,42.130516,55.783384,58.022404,57.047822,49.692484,62.559676,62.840122,59.658667,-41.537881,289.78049,-64.262105,287.128532
7,0.966453,-0.176013,0.042228,0.092589,19.47995,40.248379,58.215786,67.920422,29.132881,60.737927,78.704029,86.781727,19.416962,53.737393,73.518253,86.317211,8.535256,38.2645,58.383808,70.347737,-0.011352,8.870854,14.665535,18.643822,-18.029922,-21.817878,-17.149781,-8.637413,-0.125835,18.365882,23.174856,23.621521,19.759712,40.338654,43.056364,40.81018,33.846858,50.562374,52.616859,50.432179,44.609696,59.065072,59.762333,56.800091,24.273617,49.396454,70.706726,86.346474,53.960232,85.668915,102.68232,114.176857,45.4735,80.751618,99.576966,111.574677,35.984585,69.655174,86.44867,96.455155,26.769928,53.44709,67.123833,75.742218,-15.622891,-14.117564,-4.041564,4.758413,12.710557,26.973111,33.257611,36.760601,30.092174,43.655874,47.820062,49.537885,42.133813,55.804823,58.001396,56.928606,49.64396,62.532679,62.779989,59.530176,-40.812138,289.545706,-64.460587,287.16235
8,0.918434,-0.094021,0.034172,-0.211829,19.180138,39.479954,56.889553,66.256108,28.898701,60.019604,78.124317,86.761151,19.056267,52.99902,72.784161,86.020924,7.918568,36.895237,56.943547,69.155834,-0.891575,6.813984,12.274144,16.286156,-17.849191,-21.353947,-16.331897,-7.652,0.335292,18.997045,23.835671,24.114091,20.101154,40.52719,43.294992,40.995086,34.136146,50.719355,52.64314,50.556581,44.893278,59.330722,60.163994,57.326896,24.274933,49.361653,70.725037,86.55867,53.685196,85.514969,102.630776,114.272118,45.21983,80.724152,99.712281,111.846474,35.801777,69.62732,86.566841,96.768883,26.692234,53.373516,67.12365,75.926743,-15.55315,-14.042834,-3.998919,4.821497,12.632208,26.996873,33.345149,36.896057,30.030498,43.851315,48.070597,49.734906,42.080708,56.088221,58.356573,57.20389,49.565216,62.644756,63.072205,59.892923,-40.125389,289.38857,-64.6581,286.887406
9,-0.050548,-0.367057,0.017578,0.104779,19.318004,39.248131,56.378792,65.419784,29.310219,60.554374,78.773895,87.866089,19.291946,53.833717,73.747925,87.082786,8.01004,37.216392,57.359665,69.681221,-0.997925,7.407989,14.065372,19.234623,-17.694865,-20.786263,-15.34809,-6.385981,0.380593,19.266771,24.39676,24.753814,20.083222,40.457746,43.580279,41.391301,34.267798,50.853885,52.952139,50.927911,45.169191,59.970815,60.602385,57.336974,24.382553,49.418576,70.853257,86.753975,53.586983,85.484894,102.700997,114.462479,45.123345,80.771714,99.887719,112.105797,35.764595,69.751603,86.775147,97.031685,26.744763,53.579533,67.350769,76.163842,-15.596117,-14.235965,-4.308092,4.569419,12.480857,26.802025,33.149263,36.728305,29.905786,43.745066,47.932806,49.55063,41.984278,56.074832,58.300811,57.060974,49.488151,62.565072,62.959979,59.729852,-40.421814,288.967015,-64.886399,286.937687
10,0.875931,0.070358,0.237854,0.066282,19.112262,38.347595,54.653526,63.215538,28.388752,59.476799,78.034767,87.590217,18.227108,53.181266,73.382423,87.04985,7.07238,36.351768,56.805381,69.392211,-1.955956,6.158065,13.660617,19.675048,-17.740658,-20.47672,-14.801326,-5.879071,0.159823,19.409316,24.828446,25.311593,19.696678,40.196752,43.568004,41.492239,33.952649,50.625471,52.807866,50.80961,44.978544,59.824639,60.332252,56.92158,24.377461,49.311127,70.67363,86.659745,53.413182,85.247063,102.535263,114.420914,44.976082,80.636193,99.897744,112.222275,35.674439,69.723404,86.778786,97.05954,26.720925,53.675297,67.430489,76.208863,-15.592942,-14.270853,-4.397765,4.411475,12.373956,26.599793,32.95028,36.524517,29.839294,43.696988,47.868006,49.436763,41.985242,56.101225,58.252548,56.89541,49.572787,62.600283,62.896525,59.554481,-39.787879,288.967484,-64.890541,286.93408
11,3.09534,-0.058045,0.3177,0.059762,17.03508,33.276123,46.363964,52.662083,24.739243,54.270893,72.899723,82.700718,15.254059,49.723377,70.093861,84.079731,4.943058,33.494122,54.345532,67.424,-3.648868,4.040428,12.691475,19.508,-16.59593,-17.800482,-10.651168,-0.992749,1.389495,21.272745,26.739719,27.394731,19.517255,40.079253,43.782228,42.133961,32.711552,49.773784,52.04857,50.344246,43.043471,57.87303,58.95854,56.53491,24.24852,49.131718,70.437321,86.3596,53.181896,84.957744,102.299022,114.315296,44.793217,80.43211,99.767315,112.174587,35.557743,69.604168,86.716472,97.06921,26.662571,53.652649,67.439541,76.231006,-15.672649,-14.374717,-4.445202,4.494578,12.363236,26.481183,32.78821,36.352493,29.874405,43.636695,47.695463,49.214387,42.059663,56.143315,58.197578,56.775293,49.680096,62.665084,62.833984,59.40775,-36.907259,288.825934,-64.787561,286.910337
12,0.30748,0.331513,0.385414,0.099517,16.752434,32.722801,45.346928,51.483959,24.273892,53.896259,72.566792,82.197201,14.833786,49.600262,69.830692,83.699398,4.568379,33.365742,54.082913,67.07935,-3.954655,3.272461,11.065556,17.213551,-16.921761,-17.973186,-10.560419,-0.918549,0.972273,20.782274,26.421001,27.135169,19.219273,39.43821,43.201824,41.491609,32.55499,49.27095,51.528385,49.861383,42.913721,57.481186,58.88733,56.840378,24.124283,48.919167,70.175549,86.027973,52.877724,84.753101,102.107403,114.119533,44.486629,80.189564,99.491856,111.889492,35.286953,69.415707,86.542797,96.899471,26.442913,53.599628,67.428005,76.214069,-15.775538,-14.559425,-4.606617,4.498012,12.255555,26.462164,32.740921,36.310737,29.816607,43.569424,47.500381,48.938746,42.045547,56.111352,58.062653,56.597489,49.682431,62.622859,62.673248,59.204566,-36.783394,289.088299,-64.585762,286.940706
13,4.022141,-0.682762,0.164967,0.109879,14.157772,26.953582,36.492141,40.051345,18.801853,47.172649,66.125209,76.033779,10.439518,44.932193,65.521053,79.711063,1.501007,30.010311,51.297145,64.835071,-5.883648,1.418838,10.131912,16.957901,-13.372619,-11.923288,-3.190112,6.524314,4.035612,24.385572,30.011195,30.837082,19.569373,40.027445,44.002529,42.477232,30.621301,47.951727,50.534932,49.276051,39.249106,54.005935,56.312585,55.523266,24.026161,48.827934,70.096572,85.789924,52.648967,84.489418,101.879379,113.914146,44.277408,79.969551,99.256324,111.629905,35.092769,69.33815,86.43045,96.657852,26.279605,53.577713,67.397872,76.067619,-15.687124,-14.658103,-4.763871,4.504372,12.330557,26.458409,32.611714,36.067033,29.842418,43.327757,47.120196,48.556461,42.059046,55.807577,57.62052,56.186996,49.742625,62.597998,62.461777,58.923169,-32.909786,288.356967,-64.569328,287.002015
14,2.913025,-0.136629,0.332553,0.235726,12.198406,22.642227,29.471878,30.870471,15.459835,42.673427,61.557895,71.417072,7.774772,42.238849,62.775432,76.904697,-0.311451,28.057193,49.661785,63.551685,-7.157959,0.852035,11.025821,18.819477,-11.173366,-7.822134,2.123313,11.860982,6.258553,26.776634,32.18639,33.148387,19.826403,40.023234,43.993575,42.797062,29.187197,46.634319,49.296355,48.448003,36.663888,51.25903,54.058942,54.331977,23.841362,48.479393,69.755276,85.511708,52.418816,84.287968,101.6395,113.672505,44.052212,79.732327,98.956776,111.289524,34.854996,69.174008,86.224286,96.38419,26.046639,53.448727,67.227208,75.799839,-15.712503,-14.887691,-5.066251,4.216479,12.231979,26.252101,32.302715,35.696962,29.726476,43.020796,46.70979,48.116847,41.942263,55.500665,57.210312,55.787718,49.623817,62.402114,62.157088,58.604982,-30.111768,288.191698,-64.351782,287.209101
15,4.945621,-1.339872,0.248841,0.212236,7.209892,12.293083,14.417519,11.257725,8.197392,33.747688,52.322823,62.411842,2.99992,37.476814,57.861534,72.19574,-2.547054,26.453636,48.342865,62.722549,-7.493225,3.150513,15.310741,24.612728,-1.42378,6.474555,17.64308,26.777979,14.72525,34.672831,39.602712,40.505936,21.022606,41.34521,45.781026,45.168746,24.0289,42.488272,46.061793,46.422045,26.00332,40.889789,44.995265,46.982195,23.626739,48.218742,69.573383,85.291134,52.104492,84.046337,101.314075,113.245479,43.814323,79.538028,98.653919,110.884472,34.664898,69.086071,86.109752,96.19202,25.922195,53.407516,67.204982,75.805652,-15.712713,-15.045858,-5.282118,4.087569,12.202647,26.163761,32.086404,35.41727,29.631071,42.681243,46.28843,47.719385,41.784281,55.107192,56.789965,55.487525,49.40921,62.140749,61.887671,58.418731,-25.259279,286.839396,-64.196073,287.408907
16,1.92786,-0.87057,0.134651,0.228205,4.375637,6.937054,6.900559,1.44199,4.988125,30.195202,48.411267,58.461697,1.574284,36.535664,56.588024,70.728344,-2.402996,27.667912,49.493305,63.677182,-6.135578,6.175381,18.663792,28.276612,5.883913,16.512678,27.82812,36.006295,21.150603,40.175349,44.710522,45.540027,22.173548,42.586295,47.041983,46.764686,20.436793,39.367086,43.472982,44.707113,18.297005,33.208334,38.003439,40.994975,23.466648,47.997574,69.42358,85.22794,51.922199,83.893925,101.148983,113.063633,43.662861,79.399395,98.496906,110.721577,34.511089,69.036564,86.049854,96.054531,25.789982,53.441505,67.241215,75.787319,-15.763373,-15.243274,-5.561501,3.760316,12.127312,25.9525,31.752679,35.012718,29.509645,42.318558,45.888818,47.407755,41.612232,54.6967,56.344571,55.147737,49.209434,61.837665,61.538966,58.114647,-23.403958,285.96525,-64.133961,287.633536
17,1.222653,-1.71618,0.073688,0.160292,1.010147,0.576839,-2.196774,-10.704552,2.547168,27.188026,44.724266,54.54554,1.21566,36.615005,56.28733,69.982177,-1.189247,29.931587,51.88948,65.918289,-3.957356,11.204887,25.630611,36.544944,14.04381,28.404165,40.918034,48.731462,28.885781,47.40778,51.394201,52.327855,23.972708,44.656465,49.109424,49.438813,16.879364,36.534607,41.190847,43.37218,10.268711,25.354349,30.713025,34.806719,23.368481,47.827836,69.241356,85.08236,51.71624,83.691971,101.00734,113.007981,43.515553,79.272881,98.474648,110.791192,34.411984,68.998833,86.060189,96.043213,25.76825,53.486058,67.311219,75.828278,-15.776477,-15.364985,-5.75814,3.480228,12.133314,25.722702,31.427217,34.617528,29.458454,41.990194,45.561356,47.205547,41.526967,54.359789,56.007006,54.900513,49.120501,61.644967,61.313738,57.888183,-22.22838,284.246609,-64.107348,287.791367
18,-1.86073,-0.423509,0.262963,0.198577,0.697117,0.624367,-1.99039,-10.651256,4.909356,29.961926,47.052578,56.579281,3.961213,40.2216,59.473149,72.700116,1.531266,33.76997,55.499531,69.149014,-1.575988,15.138623,29.81955,40.726559,16.126009,31.438629,44.235834,51.897541,31.854469,49.728595,53.188446,54.011035,25.187907,45.488021,49.558077,50.088822,16.401799,35.79144,40.198357,42.555642,8.35903,23.161975,28.264905,32.411569,23.289459,47.665134,69.059395,84.856407,51.621139,83.700668,101.001251,112.996742,43.4114,79.142761,98.307678,110.613098,34.312774,68.828636,85.927551,95.959968,25.697262,53.419407,67.300941,75.887398,-15.995481,-15.556967,-5.886976,3.319084,12.010653,25.473403,31.159023,34.383654,29.363482,41.822652,45.405226,47.086937,41.414914,54.258049,55.940995,54.862857,48.935213,61.42432,61.127881,57.712948,-24.139962,283.81905,-63.895237,287.985894
19,-0.430046,-0.914363,0.158981,0.011522,-1.099605,-2.509929,-6.078083,-15.963707,4.420853,29.885205,46.564488,55.889798,4.822415,41.98486,60.98798,73.805249,3.310193,36.943943,58.636311,71.940869,0.785489,19.382458,34.493283,45.571667,21.303633,38.635479,51.813857,59.371169,36.772037,54.114121,57.235592,57.985761,26.249174,46.835897,50.880166,51.670003,13.98096,33.887243,38.550449,41.318337,2.876495,17.818897,23.107498,27.580599,23.247871,47.665421,69.047539,84.756271,51.406437,83.614288,100.953163,112.939362,43.230492,79.053955,98.229172,110.513695,34.189167,68.754135,85.916542,95.971001,25.657562,53.409096,67.396843,76.099526,-16.104569,-15.582271,-5.865968,3.295002,11.940196,25.387867,31.076575,34.315063,29.319726,41.760458,45.393185,47.115478,41.376395,54.213145,55.95836,54.924349,48.864868,61.380157,61.168884,57.780256,-24.624693,282.889996,-63.790941,287.982725
20,-3.403175,-0.000148,0.187981,0.041843,0.220814,0.864555,-1.218235,-9.838211,8.42094,34.92889,51.470066,60.398724,8.591755,46.555195,65.38979,77.542614,6.400669,40.759792,62.437237,75.290806,3.228207,22.17104,37.046116,47.679348,19.342847,36.288259,49.819504,57.95869,35.918782,53.193274,56.254279,57.176312,26.665507,47.068683,50.748242,51.595544,15.330602,34.879288,39.111389,41.65621,5.180958,19.842581,24.625953,28.952384,23.233303,47.677517,69.071548,84.703766,51.349754,83.647384,101.042175,113.003998,43.135517,78.986274,98.191131,110.455536,34.080208,68.664734,85.843139,95.865143,25.574135,53.400043,67.410667,76.101288,-16.207149,-15.678887,-5.933215,3.279132,11.890313,25.372034,31.105238,34.385346,29.299681,41.827678,45.522292,47.295443,41.37196,54.256036,55.995545,54.945887,48.849886,61.413798,61.216011,57.807635,-28.089077,282.872354,-63.664169,288.007074
21,-2.640221,0.896072,0.093864,0.072396,2.026143,4.933262,4.856495,-1.795394,11.944519,39.501217,56.237217,65.091397,11.266262,49.664944,68.36681,80.178303,7.959687,42.469906,64.010571,76.552517,3.820416,22.020813,35.85252,45.369908,13.86466,29.186271,42.765804,51.494188,32.432379,49.738994,52.717945,53.712127,26.655307,46.516067,49.763324,50.204469,18.127069,37.048864,40.449608,42.131714,10.590196,24.888467,29.066772,32.802906,23.272614,47.737679,69.157906,84.708641,51.297306,83.687462,101.059616,112.949822,43.097489,78.979202,98.137871,110.313446,34.084088,68.651024,85.818741,95.785767,25.632054,53.44978,67.444565,76.127587,-16.294884,-15.775773,-5.994804,3.298373,11.778953,25.307455,31.083107,34.405613,29.209451,41.84282,45.596566,47.418499,41.306135,54.216232,55.964991,54.946554,48.79152,61.368066,61.208502,57.845353,-30.785374,283.747885,-63.626381,288.058929
22,-2.175808,1.372045,0.118355,0.02549,4.027897,9.01141,10.776421,6.088349,15.005459,43.506226,60.390381,69.226204,13.182576,51.910447,70.52781,82.08117,8.813405,43.230469,64.515198,76.72332,3.884205,21.467068,34.629937,43.387116,7.386646,20.394741,33.85764,43.401549,27.448775,44.699197,47.668972,48.740959,26.146397,45.424196,48.382313,48.330627,21.46448,39.721187,42.393807,43.231982,17.379024,31.319797,34.721281,37.546091,23.241531,47.744877,69.212791,84.700401,51.156795,83.603645,100.965454,112.81105,42.971249,78.935142,98.058975,110.110565,34.025494,68.70163,85.826935,95.67627,25.661442,53.587807,67.542801,76.145462,-16.291376,-15.807982,-5.987505,3.412958,11.687044,25.258759,31.041179,34.402328,29.196101,41.930963,45.685227,47.491625,41.362266,54.291691,55.974501,54.924213,48.888271,61.419023,61.222125,57.856703,-33.015942,285.099296,-63.562786,288.063785
23,0.555806,-0.027343,-0.110527,0.020748,3.262642,7.705925,9.070633,3.956463,13.879978,42.240863,59.091968,68.069446,12.591282,51.268306,69.949894,81.604923,8.840995,43.444988,64.868213,77.191097,4.446956,22.68679,36.366909,45.567821,9.17889,22.682149,36.21779,45.812507,28.46368,45.403831,48.475642,49.747157,25.987142,45.420664,48.581532,48.606639,20.271672,38.723844,41.722012,42.752676,15.226923,29.15952,32.618581,35.498694,23.310219,47.865257,69.417824,84.982704,51.013161,83.627769,101.053619,112.949501,42.887672,79.022095,98.191132,110.260117,34.050991,68.841797,86.041809,95.961571,25.822723,53.772423,67.741058,76.394989,-16.343938,-15.966544,-6.176165,3.254469,11.384677,25.03983,30.848518,34.269614,28.959202,41.771165,45.621106,47.491094,41.23616,54.205105,55.963448,54.957126,48.857457,61.425963,61.313108,58.000989,-32.511051,285.050266,-63.724228,288.062846
24,-0.320755,0.925515,0.067028,-0.028985,4.579433,10.268234,12.590995,8.60226,15.030189,43.590282,60.575351,69.528179,13.087589,51.356449,69.919407,81.510898,8.69704,42.676014,63.87878,75.984569,3.779663,20.639167,33.110836,41.286266,4.611583,16.587223,29.989088,39.81264,25.493436,42.402378,45.38312,46.677013,25.93379,44.798652,47.669898,47.406878,22.631131,40.340816,42.713291,43.25609,19.857982,33.297156,36.414181,39.016479,23.273895,47.785309,69.425686,85.075848,50.937263,83.668865,101.133099,112.974461,42.849438,79.125881,98.336941,110.348316,34.058624,69.015347,86.248135,96.105389,25.9216,54.058582,68.024425,76.607449,-16.304073,-15.984564,-6.264938,3.106774,11.364546,25.139457,30.930831,34.401797,28.919002,41.760568,45.623464,47.558055,41.215041,54.212119,55.957655,54.999548,48.839216,61.413279,61.324853,58.0701,-32.88212,285.958905,-63.707514,288.016985
25,-0.323284,0.464178,0.102516,0.166553,5.480747,11.851764,14.601974,11.121105,16.544826,45.066947,61.912605,70.797317,13.764976,52.144203,70.654312,82.244705,8.596458,42.234146,63.363304,75.444648,2.976573,19.102111,31.288078,39.176696,2.201723,13.11743,26.506352,36.298609,23.709256,40.641429,43.730345,45.13886,26.042656,44.288482,47.184787,46.832315,24.382101,41.575416,43.559679,43.749759,23.180364,36.514451,39.429972,41.694693,23.315506,47.742966,69.335529,85.235562,51.225586,83.917042,101.333119,113.077366,43.097511,79.380741,98.531124,110.427944,34.272743,69.249859,86.413479,96.181217,26.102326,54.341366,68.266651,76.75787,-16.458362,-16.002792,-6.292293,2.847077,11.238958,25.063936,30.887457,34.390323,28.849817,41.695607,45.490689,47.362084,41.164578,54.174946,55.845973,54.852002,48.776144,61.242033,61.10638,57.87876,-33.243049,286.399741,-63.642643,288.160196
26,1.682098,-0.586678,0.080532,-0.101135,4.613296,9.845352,11.539661,7.048141,14.933063,42.593857,59.472839,68.568649,12.303234,50.242676,69.04747,81.205948,7.44738,40.742569,62.056503,74.523353,2.078052,18.054634,30.46994,38.755966,4.878529,16.597251,30.117133,39.521091,25.496535,42.208506,45.520131,47.200347,26.397177,44.423777,47.665427,47.746024,23.603255,40.735512,43.085633,43.916547,21.392072,34.796542,38.134844,40.911401,23.293259,47.726567,69.296814,85.40641,51.544155,84.156258,101.541756,113.214226,43.408882,79.643028,98.749993,110.585655,34.542172,69.473305,86.556153,96.243942,26.310631,54.499363,68.4012,76.871956,-16.375666,-15.809649,-6.153157,2.772458,11.464952,25.27169,31.088196,34.583726,29.076972,41.901965,45.618228,47.395294,41.355387,54.350761,55.998509,54.953334,48.920702,61.355148,61.223595,57.987095,-31.5951,285.78954,-63.59626,288.035538
27,3.335243,-0.811067,-0.018471,-0.090773,3.051087,6.344936,6.501778,0.513611,11.439617,37.732338,54.872315,64.29158,9.035191,46.240448,65.538757,78.552361,4.693394,37.464523,59.309555,72.468865,-0.17466,15.481007,28.293137,37.049927,8.726766,21.853989,35.471968,44.310651,28.381008,45.170649,48.632031,50.469118,26.837124,45.034958,48.606639,49.041819,22.010453,39.68452,42.476589,43.898047,18.102541,32.083945,36.078864,39.522388,23.421158,47.87756,69.466233,85.860489,52.129967,84.592003,101.921013,113.524704,43.949788,79.992531,98.993203,110.804444,34.941342,69.688614,86.668419,96.31176,26.51492,54.577561,68.406785,76.832612,-16.310037,-15.621199,-6.073042,2.586391,11.673224,25.51017,31.363615,34.84966,29.206031,42.036655,45.752189,47.478867,41.410666,54.464864,56.136237,55.069104,48.949045,61.474771,61.364558,58.143163,-28.293697,284.955381,-63.648571,287.921673
28,1.633015,0.768064,0.002438,-0.069407,3.75428,7.14236,7.445686,2.137001,10.974449,36.996311,54.620601,64.119884,7.252418,43.820125,63.176433,76.576641,1.876339,33.458141,54.879146,67.946491,-3.75412,9.007358,19.865913,27.094379,3.831181,15.302159,28.880408,38.228618,24.149981,41.21735,44.734024,46.498109,26.533991,44.143393,47.543297,47.570331,25.254523,42.499881,44.710077,45.619809,24.453138,38.504012,42.746698,46.180996,23.486538,48.012966,69.649395,86.308926,52.654106,84.927944,102.18433,113.694454,44.414097,80.335522,99.26572,110.998364,35.278198,70.036709,86.856297,96.322437,26.685345,54.839962,68.603817,76.886021,-16.207174,-15.442926,-6.054888,2.417751,12.027547,25.811635,31.612259,34.997824,29.533752,42.329685,45.907343,47.484202,41.686344,54.697774,56.211992,55.006958,49.209063,61.678596,61.391049,58.049783,-26.699037,285.695274,-63.684488,287.824095
29,-0.332897,0.357337,-0.121925,-0.127997,5.63554,10.402279,11.595165,6.967586,12.951931,38.77478,56.652717,66.277038,7.749275,43.927528,63.391868,77.008667,1.269367,32.080536,53.244461,66.390129,-5.128888,6.816639,17.553806,24.974659,1.383481,10.85019,23.093135,31.840896,20.634888,37.957311,41.859876,43.637312,25.487643,43.01467,46.49706,46.325999,26.604597,43.752353,46.05878,46.90218,27.417282,42.009954,46.210909,49.151006,23.667698,48.273571,69.950626,86.904224,53.045574,85.251606,102.473774,114.015117,44.70203,80.604549,99.479839,111.217357,35.431286,70.211803,86.971424,96.472309,26.656334,54.692115,68.440006,76.744617,-16.055761,-15.437492,-6.330454,1.992847,12.217603,25.832766,31.576938,34.794209,29.792512,42.497708,45.961067,47.300075,41.95281,54.947048,56.434221,55.071821,49.495796,61.995166,61.6454,58.176965,-27.074186,286.003866,-63.848665,287.647353
30,1.108085,1.149262,-0.249756,-0.221671,7.75264,14.139988,16.185642,12.771115,13.604645,38.696434,57.173538,66.90651,7.00573,41.371994,61.070549,75.0756,-0.68605,28.05336,48.526428,61.478234,-7.990139,0.446148,8.466934,14.009766,-3.657193,3.078406,14.199668,22.963113,14.745689,32.548407,37.101944,38.919308,23.560857,41.286115,44.926561,44.4178,28.32978,45.242427,47.491476,47.976686,32.038448,46.170437,50.847821,54.022237,23.91037,48.648193,70.502964,87.584347,52.897739,85.323635,102.612614,114.256588,44.542053,80.849407,99.828815,111.663174,35.275955,70.409923,87.271763,96.834217,26.473583,54.481853,68.230373,76.41061,-15.853641,-15.681345,-6.983799,1.201885,12.114356,25.451408,30.961039,33.931901,29.851927,42.394066,45.779013,46.962979,42.151288,55.072759,56.485979,54.993286,49.778464,62.308561,61.814842,58.116227,-26.041043,287.095459,-64.173363,287.368013
31,-3.243988,1.406674,-0.256497,-0.724481,11.67302,21.6847,27.240795,26.683445,18.268536,44.906548,63.152458,72.188645,9.863297,44.457115,63.8023,77.231003,0.62677,29.364945,49.24688,61.509796,-7.710995,0.101578,6.935566,11.496071,-9.816129,-6.869214,2.211011,10.45458,7.704229,25.601511,30.376053,31.707799,21.458565,39.573147,42.724419,41.044091,30.564663,47.337298,49.0434,48.203817,37.531184,51.950412,55.82919,57.373419,24.153523,49.075573,71.026566,88.221566,52.488648,85.063752,102.464241,114.333733,44.043686,80.703209,99.868126,111.934983,34.742546,70.157914,87.339936,97.340676,25.894673,53.85569,67.883469,76.438569,-15.692583,-15.818183,-7.45304,0.536364,11.773667,25.222499,30.74059,33.766756,29.662465,42.440033,46.059385,47.371051,42.203616,55.529342,57.14645,55.650571,50.022132,62.976899,62.703703,58.986834,-29.374455,288.441547,-64.519284,286.582946
32,9.65268,0.572389,-0.97348,-1.438179,8.519634,14.530735,17.371341,15.018459,5.665867,29.919628,48.89154,59.350547,-1.963005,29.734382,49.777313,64.647697,-9.216511,17.343521,37.49295,50.965736,-15.144883,-8.545029,-1.393834,4.326095,-4.626242,-0.35541,7.643615,14.580668,10.244381,26.97715,31.376286,32.010451,20.452268,37.584611,41.192675,39.485746,26.28126,41.825629,44.543215,43.991821,29.848729,42.398401,46.432086,47.973673,24.634873,49.760456,71.744202,89.396553,51.18298,84.153053,101.679749,113.833603,42.629368,79.899742,99.353897,111.781746,33.555451,69.311646,87.00602,97.668068,25.086502,52.690579,66.990349,76.006348,-15.71264,-16.066988,-8.005991,-0.38326,10.862972,24.819269,30.513842,33.832631,29.013209,42.446331,46.511769,48.099878,41.904817,55.998694,58.099196,56.934608,49.989008,63.582225,63.835526,60.279838,-19.82377,288.951978,-65.594759,285.082809
33,7.93016,0.442245,-0.989364,-4.273487,3.868344,6.276592,6.787274,4.533703,-1.376495,16.188824,31.595478,40.341774,-5.319202,17.862053,33.565979,44.973221,-8.405285,10.531334,26.10997,36.227326,-10.375717,-6.582996,-1.528335,2.235443,-1.206925,3.934019,11.728836,18.345985,9.259906,23.426661,28.122533,29.591365,16.364513,31.651569,36.666777,36.341636,20.175983,33.973705,38.77249,39.613864,22.059247,33.325277,38.560822,41.001927,25.475887,50.703071,72.250991,89.661369,50.928897,83.324386,99.441742,109.505035,42.154712,78.352409,95.733444,105.384773,32.81599,66.813446,82.334724,90.627021,24.017223,50.188762,62.640438,69.39727,-15.991899,-16.136371,-7.569155,0.704819,8.825517,24.95207,31.615038,35.390124,26.863245,43.006692,48.361601,50.670424,40.218315,56.457377,60.105208,60.275874,49.138446,63.885396,65.018503,62.219567,-12.037789,289.329342,-66.728302,280.744441
34,21.980953,-10.25688,-3.809836,-11.220556,-5.967807,-11.797508,-16.978111,-22.222389,-20.119342,-12.444019,-1.918361,4.559784,-19.328121,-7.871875,2.155919,10.370957,-16.889328,-7.752262,1.850842,8.333783,-13.368061,-14.546093,-13.112148,-12.31858,2.493865,9.800976,17.555815,23.660412,15.152032,32.674477,39.869685,42.949264,20.612041,40.538516,48.808427,50.533252,23.441988,41.508961,49.488546,52.242454,24.455868,38.798945,46.261507,50.446999,26.055874,51.762674,73.283043,89.715717,50.819475,83.198822,96.081642,102.748901,42.738905,78.332714,92.000044,97.621222,34.063471,67.060982,79.085793,83.776692,25.737316,51.310885,61.080076,64.782978,-11.412378,-10.176721,-3.110504,3.167574,8.40139,24.337795,31.424883,35.220533,22.135929,38.869599,45.312106,48.079562,32.551365,49.158144,54.272295,55.529558,39.733871,54.038156,56.429706,54.708432,9.805778,279.032176,-70.675524,269.483599
35,26.325932,-17.656863,-6.518589,-18.305552,-16.412155,-30.621861,-40.205647,-47.542362,-38.469086,-40.835312,-35.599045,-31.56094,-33.215756,-33.257492,-29.47316,-25.111645,-25.744721,-26.646629,-23.192459,-20.431732,-17.46365,-23.142551,-24.013722,-24.950913,4.849544,15.495908,25.704226,33.717417,19.352134,39.589893,49.089256,54.021347,23.543073,47.434641,58.519235,62.142873,25.845067,47.719705,58.54228,62.951939,26.500288,43.994612,52.871295,57.513951,26.252541,52.685034,74.584671,89.453762,50.906027,83.850678,91.696816,93.677582,44.374392,79.744206,88.0255,88.327372,37.185042,69.95549,77.173645,77.090916,30.071159,55.934435,62.268042,62.286724,-1.778189,1.936364,5.339719,6.925531,9.896591,23.411181,30.454377,33.815773,15.019998,30.229841,37.535062,40.391896,18.986134,34.293919,40.926624,43.01585,21.788633,34.192562,38.402032,38.165188,36.007004,261.545973,-77.318819,251.348707
36,30.885887,-24.571082,-12.493709,-26.764641,-26.184013,-50.008404,-66.861843,-77.676853,-58.402576,-72.681564,-70.451019,-66.018551,-49.938103,-62.965301,-62.444298,-58.780941,-38.59695,-51.0924,-51.190224,-49.272674,-26.386665,-38.365047,-41.229149,-42.645721,4.946517,16.688296,29.242649,38.736379,20.54083,40.992813,50.265379,54.758573,24.146498,48.202347,59.216842,62.903428,26.380221,48.454289,59.177519,63.515017,27.073443,44.271711,52.969454,57.480211,25.285686,51.596941,74.190833,88.687191,46.54957,81.855628,86.935123,85.011875,41.006361,78.516357,83.196836,79.285749,35.626218,70.408001,73.998287,70.081913,30.694164,57.88278,61.335954,58.265865,-4.943998,-4.716379,-3.413125,-1.741862,-0.845363,9.720632,16.802732,19.752456,5.306299,17.502635,24.603365,27.337772,11.14635,22.862929,28.799768,31.099045,16.357017,24.863223,27.90288,27.657318,66.758657,237.31432,-89.946762,224.923495
37,21.065231,-32.164468,-17.011746,-33.876573,-27.633384,-52.864345,-71.556472,-81.31913,-59.056354,-81.259723,-82.366676,-79.414981,-50.502342,-71.991005,-74.317634,-73.063671,-39.312904,-59.36959,-62.297561,-62.490005,-27.137077,-43.701027,-47.644661,-50.176963,-7.877685,-2.490431,10.016645,21.909991,4.104982,24.334108,35.136293,40.076795,15.378779,39.886518,50.667115,53.670494,25.653048,48.093876,57.411223,60.227746,34.105135,52.063032,59.401834,62.239401,22.550491,49.057474,73.474068,87.359928,42.702639,80.203171,82.948425,77.286369,39.329092,78.480538,78.782908,69.972353,36.575987,73.055283,71.68499,62.87431,34.255577,62.705034,62.003214,54.745537,-9.410065,-14.138325,-15.64937,-14.264654,-16.219764,-11.322271,-2.801721,0.827826,-9.679389,-1.806051,6.455549,9.382185,-2.488733,5.004674,11.59406,14.195438,4.859881,9.095694,12.509683,13.06748,87.787885,205.748152,-106.994511,191.645222
38,23.720925,-42.32803,-17.313366,-40.899446,-28.71492,-55.161942,-75.068711,-85.904572,-57.418511,-82.227116,-85.409374,-82.942852,-48.781586,-74.829003,-77.981232,-75.53928,-38.918358,-63.077202,-66.550621,-65.432739,-28.724694,-48.190087,-52.296066,-53.289322,-14.85836,-15.709497,-6.054295,5.989394,-9.07381,10.123615,23.61416,30.02079,5.555771,30.427293,42.32212,46.235059,19.783022,42.98892,52.604404,55.632125,32.438232,50.716712,57.672377,60.181902,20.458603,45.422533,69.712383,82.82737,34.928507,73.298996,76.558766,70.563835,32.282072,72.944573,73.491743,64.244082,31.550268,70.008625,68.859215,59.632668,31.856106,61.878599,61.23305,53.646332,-12.370003,-22.086388,-27.679623,-28.590719,-29.907306,-31.760405,-22.725875,-18.421495,-23.50645,-21.859115,-12.906423,-9.486198,-15.628085,-13.282631,-6.4457,-3.727286,-6.921085,-6.979575,-3.147258,-1.793621,111.412571,164.169676,-124.404116,151.49533
39,14.340729,-39.090413,-15.870895,-39.828723,-26.698975,-51.457695,-69.977852,-78.972382,-47.44883,-71.272797,-74.217888,-70.949959,-38.662423,-64.314698,-66.49141,-63.018174,-30.071022,-54.132019,-56.591355,-54.081322,-22.181351,-41.741822,-45.102013,-44.645829,-19.663264,-26.489173,-20.824345,-10.591845,-29.511936,-18.816666,-5.503654,1.392058,-15.546228,1.188547,12.821997,17.181021,-0.805639,16.088693,25.474435,28.721845,13.58112,27.263894,34.010101,36.562857,19.495027,41.753208,64.227796,76.303282,26.90435,64.512102,69.022041,63.32583,23.73191,64.571834,66.223789,57.502001,23.695736,62.892019,62.601866,53.691633,25.481861,55.769543,55.515066,47.968906,-20.115215,-35.903968,-43.932074,-45.127843,-46.486121,-52.599245,-41.98965,-36.432258,-37.01529,-39.370488,-29.098387,-24.813946,-25.749397,-26.435848,-18.795942,-15.600673,-13.538092,-15.597746,-11.210997,-9.207122,125.600985,125.995235,-140.427326,112.582579
40,10.13903,-38.969197,-14.428425,-38.757998,-23.182663,-44.606117,-61.161575,-68.267738,-34.631699,-54.784721,-57.924774,-54.161201,-25.862366,-49.179085,-50.874825,-46.086182,-18.348724,-40.814072,-42.698387,-38.707809,-12.225334,-30.945488,-33.837685,-31.604439,-23.246887,-38.027818,-39.627543,-34.258227,-48.726244,-48.069269,-35.237027,-28.158626,-35.898022,-29.101178,-17.297989,-12.169759,-21.325301,-12.139927,-2.417856,1.688423,-5.977304,2.504486,9.062682,12.174007,19.659765,38.0495,57.020307,67.787664,18.630169,53.842489,60.338253,55.572355,13.678608,53.362324,56.979046,49.746111,13.01239,51.705465,52.912943,45.051207,15.132843,44.377865,44.849264,37.713261,-32.645701,-55.591068,-64.406726,-63.876028,-65.956211,-73.838793,-60.593049,-53.204467,-50.205913,-54.340171,-42.120345,-36.601062,-32.85267,-34.454979,-25.456669,-21.424725,-14.991141,-16.758821,-11.681535,-9.173024,135.520254,88.59708,-155.075512,75.395623
41,11.845345,-33.880586,-10.358002,-31.671045,-22.130036,-39.295441,-52.499085,-59.121117,-23.110703,-39.553483,-44.392182,-42.670121,-13.446236,-33.433297,-37.326714,-34.325776,-5.944588,-25.765366,-29.649582,-27.107552,-0.872223,-17.628869,-21.202492,-19.696061,-26.200688,-46.265687,-54.665608,-55.073365,-65.349819,-70.896309,-56.029212,-46.120926,-55.336051,-54.883816,-40.022387,-31.581192,-42.141618,-38.875089,-26.072864,-18.254206,-26.772898,-23.122411,-14.75741,-8.601746,20.886561,36.783142,52.440394,60.994108,14.938328,46.114683,52.842831,48.606051,9.122933,44.537762,48.887455,42.530073,7.481964,42.327536,44.516699,37.551802,8.811676,35.018612,36.455195,30.144734,-32.711867,-56.742207,-68.518637,-72.173122,-73.706555,-82.414956,-67.298736,-58.379738,-61.659503,-66.111486,-51.376454,-44.204965,-46.818872,-48.094312,-36.035985,-30.047905,-30.139728,-31.398313,-23.655126,-19.087664,147.085213,56.123421,-165.7139,45.131505
42,9.546592,-27.987788,-5.161731,-29.376968,-23.135582,-36.125633,-45.152023,-50.788673,-11.782928,-23.995949,-32.383919,-33.615532,-0.665474,-18.338516,-26.974525,-26.702453,6.990006,-11.411247,-19.855636,-19.799698,10.846962,-4.116279,-11.364784,-12.566665,-28.22599,-51.279215,-65.048853,-71.751867,-72.361386,-83.441281,-69.464218,-58.406423,-65.165142,-71.859856,-56.374915,-45.998623,-54.322368,-58.142385,-43.930299,-33.180608,-40.709447,-42.594273,-33.230218,-24.422547,23.473131,36.284854,47.466299,53.848051,11.588024,38.207387,44.60654,40.48578,3.288276,34.963874,40.411045,34.949415,-0.57866,31.305891,35.260042,29.124132,-0.969052,23.440773,26.837911,21.425273,-30.395949,-54.294087,-67.816418,-74.281405,-75.336327,-83.298672,-66.837294,-57.241147,-66.557941,-70.486972,-53.929951,-45.579418,-53.978845,-54.325484,-40.155991,-32.882823,-38.709944,-38.446326,-28.933168,-23.201606,155.83608,29.174525,-171.671356,16.793429
43,8.216446,-20.679571,-4.320294,-19.83808,-23.229744,-32.639374,-38.58863,-43.332115,-6.215538,-18.434326,-26.82946,-27.481201,3.966591,-12.903786,-22.015869,-21.613792,10.777931,-6.998863,-15.885361,-15.343117,13.587158,-1.139168,-8.436149,-8.962372,-31.027612,-55.858527,-73.070812,-85.130075,-77.915095,-91.211014,-78.268776,-68.187873,-72.361077,-83.166146,-67.341837,-57.720604,-63.12279,-71.858633,-56.893488,-45.670228,-51.113854,-57.364304,-47.285032,-37.561454,24.416113,35.744053,44.679537,49.639704,8.955093,35.446547,39.597176,33.69195,0.251518,32.159386,35.872982,29.193129,-4.157467,27.946409,30.633104,23.391386,-5.053505,19.219654,22.120611,15.92133,-29.087859,-53.3585,-68.378229,-76.844337,-77.763161,-84.930519,-67.149361,-58.004913,-71.1596,-74.632326,-56.795108,-48.822352,-60.268031,-60.491515,-44.952892,-37.733126,-46.19129,-45.655877,-34.926212,-28.837059,162.96789,9.30348,-177.076286,-2.236125
44,5.261559,-15.046469,-3.194246,-13.651815,-23.467781,-30.438217,-34.374298,-38.517128,-1.505081,-14.622025,-23.677231,-23.753426,8.020088,-10.271302,-19.984154,-18.621025,13.885322,-5.627564,-14.796501,-13.055878,15.650734,-0.615395,-7.993309,-7.083481,-32.780392,-58.618567,-76.526242,-90.562241,-80.315025,-94.258731,-80.794554,-70.9918,-75.041991,-87.428778,-71.037903,-61.942061,-66.051606,-77.576055,-62.026937,-51.033177,-54.483692,-64.167546,-53.880822,-44.11079,24.589325,35.336105,43.303505,47.781589,6.73645,34.010708,37.051746,30.079788,-1.916599,30.718632,33.552486,26.165394,-6.264862,26.191211,28.304352,20.551128,-7.123959,17.27742,20.182182,13.811737,-27.57372,-52.110215,-68.222744,-78.086304,-78.26961,-85.011749,-66.59906,-58.026479,-73.030835,-76.501782,-58.058163,-50.29697,-63.227247,-64.067127,-47.874211,-40.638304,-49.991886,-50.230613,-38.962867,-32.523324,166.999655,-5.122369,-181.500326,-15.26732
45,2.075271,-6.917572,-1.070343,-6.874729,-23.500053,-29.55027,-32.685928,-36.188072,1.358391,-13.902694,-22.983375,-22.203437,10.522202,-9.65213,-19.310783,-17.156868,15.922806,-5.034279,-13.935287,-11.406006,17.277741,0.521118,-6.621368,-5.104797,-32.501631,-58.9232,-77.149995,-92.359541,-79.383013,-92.894695,-78.710601,-68.818666,-74.451076,-87.322752,-70.609737,-62.02882,-66.013135,-78.978869,-63.35549,-52.876254,-55.165113,-66.933784,-56.567817,-46.850229,23.765156,34.687568,42.627777,47.401153,5.317383,32.674381,36.072555,29.416752,-3.202446,29.108917,32.391174,25.270695,-7.524502,24.077923,26.799751,19.4935,-8.425667,15.62725,19.322708,13.57933,-25.878035,-50.31752,-66.643971,-76.977328,-76.326936,-83.324345,-64.952399,-56.330893,-71.626884,-75.518771,-56.81472,-48.740174,-62.357505,-64.384308,-48.149803,-40.577017,-49.638087,-51.114366,-39.979878,-33.307091,167.924143,-12.246709,-183.721452,-22.348817
46,-3.727249,-4.126508,1.906734,-3.728885,-22.27082,-28.281669,-30.768745,-30.868286,4.916084,-11.028763,-20.770958,-19.834511,14.453499,-7.172241,-17.02787,-14.305801,19.730667,-2.489685,-11.821861,-8.904899,20.859421,3.140488,-4.380455,-2.347343,-29.193254,-55.469598,-73.142295,-85.644647,-75.136086,-88.687714,-74.194491,-64.474507,-69.618088,-82.371795,-65.461908,-57.333251,-60.834876,-73.122874,-57.365744,-47.597835,-49.917316,-60.920029,-50.421292,-41.288419,22.786194,33.105458,40.354912,45.113354,4.302967,31.050179,34.080494,27.275128,-4.778721,27.267563,30.170231,22.911301,-9.400944,21.924042,24.520958,17.016552,-10.50301,13.730141,17.617012,11.778431,-23.368616,-47.462583,-63.154184,-72.433671,-72.651564,-80.039914,-60.980681,-52.042883,-67.77727,-71.546442,-52.488004,-44.354963,-58.400866,-59.860861,-43.579044,-36.34644,-45.900168,-46.428301,-34.868654,-28.211515,163.181625,-16.58111,-182.829987,-26.285595
47,-5.893844,7.882743,3.699417,-0.138907,-21.238678,-27.816376,-29.911583,-27.982956,5.038879,-11.504105,-20.229561,-18.112862,15.58493,-7.524651,-16.251435,-12.357285,21.554512,-2.124024,-10.670311,-6.936333,23.45066,3.923858,-3.280632,-0.192696,-26.392707,-52.46386,-70.174922,-81.531045,-76.040384,-90.058845,-73.215809,-62.141262,-70.721975,-82.298899,-62.836528,-53.324389,-61.94437,-71.874997,-53.774303,-43.323355,-50.725593,-59.035623,-46.504266,-37.213367,21.114521,31.30909,37.565678,41.230351,3.872441,28.575703,31.266014,25.317147,-5.774368,23.178177,26.152199,20.155907,-11.314384,16.34721,19.464215,13.710251,-13.535442,7.257294,11.674015,7.724087,-19.753179,-41.452082,-55.71392,-64.070134,-64.944699,-69.027637,-50.618919,-41.832094,-59.367908,-59.785298,-41.380044,-32.855523,-49.590033,-48.201933,-32.374099,-24.755703,-37.112961,-35.992092,-24.547296,-17.385637,156.778805,-8.678325,-179.639546,-26.40446
48,-8.779702,12.065962,2.837065,9.431109,-19.862754,-26.731041,-28.095886,-22.866302,5.719254,-8.887024,-18.02053,-16.388351,17.058174,-4.334518,-13.720733,-10.39167,23.66407,1.692307,-7.753143,-4.865776,26.326516,7.937027,-0.221992,2.012192,-22.804155,-48.419708,-65.489393,-73.858241,-72.277035,-87.293538,-69.527499,-57.749127,-66.044399,-78.466965,-58.666152,-48.354493,-56.623936,-66.353306,-48.221458,-37.520279,-44.801375,-51.486178,-39.513397,-30.788533,20.801903,30.668215,36.080441,38.591538,4.495606,27.078758,30.200815,25.233736,-5.703398,20.708822,24.140751,19.294807,-11.775312,13.895788,17.4839,12.680781,-14.418022,4.55714,9.186075,6.2047,-19.164654,-39.763165,-53.407026,-60.930592,-62.181914,-65.575072,-47.586686,-38.097633,-55.874536,-55.288799,-37.424201,-28.180486,-45.426125,-42.756522,-27.330689,-19.172799,-32.637816,-30.455664,-19.073964,-11.520589,147.947445,3.175095,-176.854139,-17.185893
49,-7.656166,14.929546,2.526009,18.481003,-18.722076,-25.921165,-26.825523,-19.632019,6.481751,-8.083488,-16.977951,-15.42128,18.186745,-3.411415,-12.54348,-9.374565,24.604409,2.415299,-6.80809,-4.130241,26.962418,8.607926,0.427391,2.17511,-19.925944,-44.430008,-60.51948,-65.728769,-67.322708,-82.378891,-65.141702,-53.573373,-59.93261,-72.426386,-53.127782,-42.858541,-49.772172,-58.411913,-41.265609,-30.904791,-37.60129,-42.233738,-31.189257,-23.075395,21.208637,30.351934,34.930984,36.091392,3.839607,26.445945,30.116129,25.404894,-6.444506,20.434438,24.078495,19.307521,-12.206606,14.810606,18.239645,13.009729,-14.194348,5.715259,9.862283,6.215698,-21.796716,-42.777141,-56.712989,-63.456443,-65.320515,-69.824223,-52.026355,-41.931722,-57.864529,-58.186468,-40.670433,-31.396793,-46.305007,-43.946459,-28.776859,-20.63101,-32.709076,-30.573317,-19.310036,-11.912815,140.495315,17.241571,-174.124094,0.43204
50,-4.694366,20.957348,1.599506,18.667582,-18.938599,-26.247025,-27.812943,-20.950424,7.210625,-8.934059,-18.333618,-16.832199,18.872223,-4.814278,-13.678345,-9.745308,24.434349,0.218376,-8.495774,-5.019905,25.64463,5.534431,-2.275017,0.416565,-20.849143,-45.557867,-61.50948,-65.115383,-70.056083,-84.766871,-67.847845,-56.9847,-61.760557,-73.469207,-54.781124,-45.549289,-50.409016,-58.379704,-41.723549,-32.149851,-37.301219,-41.43129,-30.769384,-23.214987,21.151577,29.868536,34.471642,34.841755,1.833904,26.729244,30.970831,26.20756,-7.841818,21.722677,24.99733,19.512623,-12.386953,17.324015,19.950605,13.911638,-12.838234,8.848663,12.149225,7.626698,-24.532037,-46.463517,-61.151986,-67.562179,-68.50796,-73.536102,-56.717979,-47.538042,-59.855567,-60.439679,-43.598588,-35.391082,-47.447816,-45.497444,-30.784507,-23.517459,-33.481481,-32.120801,-21.013038,-13.941755,136.041384,36.954262,-172.284153,17.854965
51,-2.3741,19.941123,0.523224,16.844759,-19.600548,-27.07505,-29.291954,-23.813187,7.77562,-11.314613,-20.113815,-17.201912,19.405769,-7.883835,-15.979797,-10.616203,24.210754,-3.245476,-11.049271,-6.3452,24.263352,1.988022,-5.144554,-1.397186,-22.722948,-47.915418,-64.335186,-68.556691,-74.569946,-88.972779,-71.913851,-61.619823,-66.159046,-76.784445,-58.125848,-49.817435,-54.168728,-60.824329,-44.301253,-35.701835,-40.380565,-43.812764,-32.923264,-25.622988,20.786533,29.211989,34.577122,34.987404,-0.554615,27.050434,32.414949,28.041201,-8.95693,23.679651,26.951054,20.589603,-11.707151,20.974588,22.726129,15.397677,-10.341763,13.260521,15.250208,9.074581,-27.558196,-50.598065,-66.110142,-72.654531,-72.625725,-78.732183,-63.982841,-56.300457,-63.134816,-64.893341,-48.680894,-41.547838,-50.219952,-49.638192,-35.059346,-28.60444,-36.036324,-36.259221,-25.317289,-18.696709,133.871733,55.424712,-171.55648,33.229051
52,-1.323463,9.547824,-1.267559,17.813759,-19.618859,-26.825135,-29.38765,-24.281067,10.567588,-11.797875,-20.587693,-16.75264,21.922462,-8.891739,-16.628655,-10.313301,25.735954,-5.028603,-12.314804,-6.72242,24.37912,0.003341,-6.971444,-2.645714,-23.775749,-49.231739,-65.317277,-67.973045,-75.010214,-87.461172,-70.70429,-61.48265,-65.787487,-74.859895,-57.166364,-50.195984,-52.646179,-58.496036,-43.022933,-35.872216,-37.991163,-41.745582,-31.52156,-24.710348,20.979721,29.115217,36.06609,37.674248,-3.648502,28.878445,34.674311,28.978746,-10.125841,28.258787,31.133663,22.787727,-10.138247,28.248293,28.734529,19.008631,-5.884495,22.352417,22.947367,14.114971,-32.89006,-58.837398,-76.340667,-83.652249,-81.778,-91.916643,-78.482869,-72.137875,-71.67848,-78.365663,-62.638834,-56.904129,-58.397683,-62.432538,-48.086269,-42.766755,-43.888642,-47.790123,-37.265216,-31.487739,132.68779,63.222511,-172.684519,49.292785
53,1.805832,6.852369,-0.626284,7.656643,-20.334801,-27.689347,-31.069657,-28.069588,10.299774,-14.343201,-22.342141,-17.402482,21.492027,-12.011765,-18.590607,-11.045929,24.890853,-8.607514,-14.633126,-7.916108,22.875938,-3.405419,-9.355225,-3.944252,-25.378882,-51.063194,-67.520457,-71.132455,-78.203093,-89.551016,-73.355661,-64.777411,-69.216636,-76.60012,-59.159525,-52.921381,-55.841978,-60.338532,-45.032754,-38.836965,-40.8971,-44.72817,-34.11354,-27.483491,21.021401,29.143284,37.271782,39.673405,-5.225532,30.349949,36.269429,29.685185,-10.703201,31.056942,33.542084,23.862202,-9.291916,32.134278,31.815296,20.768326,-3.57447,27.187065,26.9221,16.572006,-35.178956,-62.72521,-81.378435,-89.296943,-85.755983,-97.809392,-85.287933,-80.054456,-75.520747,-84.355922,-68.880324,-64.279387,-62.329822,-68.43619,-54.176791,-49.866495,-48.002806,-53.62339,-43.228863,-38.151862,134.589049,68.56105,-173.215376,55.435598
54,2.302299,4.758054,0.238507,-2.126455,-21.322426,-28.696724,-32.595703,-30.857529,9.716721,-15.945282,-23.60218,-18.069237,20.616966,-13.92009,-20.063805,-11.862854,23.936554,-10.644791,-16.365944,-9.168251,21.739952,-5.657776,-11.076691,-4.787178,-27.368177,-54.325005,-71.783964,-76.844392,-82.960789,-94.086947,-77.809168,-69.536601,-74.617512,-81.378527,-63.801316,-58.075571,-61.319141,-65.656842,-49.888022,-44.159109,-46.133547,-50.398969,-39.037931,-32.335208,20.169387,28.629386,37.78902,41.154544,-5.828694,30.174385,36.573463,30.426052,-10.75953,31.10527,33.675842,23.731063,-8.855965,32.004146,31.71231,20.738788,-2.823716,27.530639,27.190452,16.884075,-34.297112,-62.081487,-80.701027,-88.77285,-84.081424,-96.06905,-85.054573,-80.978398,-73.893693,-82.759082,-67.571624,-63.521704,-61.061519,-67.622747,-53.4301,-49.61947,-47.255139,-53.423962,-43.136072,-38.337021,136.943504,72.437071,-172.924713,52.42711
55,0.608917,-2.742416,0.686828,-3.351183,-21.403907,-28.69226,-32.234161,-30.50457,9.625008,-16.094124,-22.735748,-16.531814,20.678444,-13.915764,-19.462738,-11.273666,24.314209,-10.236259,-15.628853,-8.561943,22.341088,-4.860122,-9.940178,-3.808456,-27.239274,-53.756364,-71.188623,-76.562255,-81.749715,-91.919557,-75.975978,-68.013947,-73.796429,-79.335466,-61.85272,-56.083261,-60.668631,-63.819921,-48.179128,-42.661495,-45.555792,-48.954164,-37.380871,-30.667527,19.816532,28.389771,38.076153,42.196747,-6.040169,29.735184,36.028794,29.695805,-10.857776,30.91761,33.589909,23.422291,-8.813003,31.84457,31.652252,20.57745,-2.774597,27.454972,27.041222,16.51014,-33.714286,-61.324309,-79.722536,-87.544596,-83.200436,-95.066877,-84.335032,-80.488006,-72.861157,-82.010981,-66.650282,-62.463073,-59.935123,-66.671339,-52.166933,-48.342835,-46.113343,-52.469164,-42.09893,-37.405664,137.578365,69.26636,-172.211941,48.647632
56,0.765267,-2.911161,1.077198,-2.546988,-21.617089,-28.655228,-32.331963,-31.000466,9.731117,-16.28817,-22.737007,-16.400894,20.540497,-14.281197,-19.414925,-11.115555,24.002151,-10.909264,-15.804795,-8.439308,21.869476,-5.691971,-10.383889,-3.971489,-26.841663,-53.137261,-70.312267,-75.694637,-80.379863,-90.177887,-74.439375,-66.621686,-72.411738,-77.980835,-60.594302,-54.831927,-59.370916,-62.801077,-47.253181,-41.870522,-44.418776,-48.209245,-36.67972,-30.030325,19.830643,28.629399,38.464245,42.500691,-6.311394,29.3153,35.51706,28.919358,-11.301418,30.572788,33.315136,23.006035,-9.234272,31.379528,31.311001,20.203308,-2.958961,27.320378,26.914547,16.273602,-33.301843,-61.149988,-79.475065,-86.557683,-82.220618,-94.104257,-83.075386,-79.086112,-71.519994,-80.885753,-65.613376,-61.409803,-58.442276,-65.696585,-51.356546,-47.46259,-44.710188,-51.597521,-41.393512,-36.622397,138.368214,66.132299,-171.110161,45.877744
57,-0.403931,-2.112463,1.490891,-1.196828,-21.202721,-28.143951,-31.861862,-30.60553,10.367821,-16.046654,-22.383728,-15.828552,20.979607,-14.215828,-18.978401,-10.302956,24.256439,-10.977196,-15.452179,-7.72744,22.088928,-5.547684,-9.806511,-3.06237,-25.69468,-52.162228,-69.36267,-74.582382,-78.484928,-88.513189,-72.81742,-65.154101,-70.477697,-76.080176,-58.611904,-53.184698,-57.572163,-60.742763,-45.359519,-40.342767,-42.882944,-46.629225,-35.143228,-28.596709,20.137115,28.806049,38.244461,41.966251,-6.597885,28.522876,35.396038,29.520881,-12.0233,29.808059,32.869583,22.585361,-10.13649,30.507705,30.689003,19.571548,-3.690216,26.78762,26.458397,15.57827,-32.605379,-60.557734,-78.788783,-85.529884,-80.908187,-92.775647,-82.074906,-78.16595,-70.040244,-79.342549,-64.155714,-60.057988,-56.866683,-64.235749,-50.027096,-46.296359,-43.264982,-50.260198,-40.183068,-35.589696,138.003599,63.94882,-169.579954,44.6099
58,-0.763618,-1.122765,1.010696,-0.152839,-20.785996,-27.83622,-31.532799,-30.111947,11.178176,-16.288834,-22.281739,-15.144173,21.669662,-14.509827,-18.823723,-9.729676,24.696533,-11.289277,-15.336571,-7.268258,22.399795,-5.389298,-9.316979,-2.420861,-24.580795,-51.043187,-68.145204,-72.989851,-76.989796,-86.859093,-71.00431,-63.550282,-68.793003,-74.048741,-56.699321,-51.681297,-55.788169,-58.490076,-43.439241,-38.909465,-41.127349,-44.769425,-33.456206,-27.155725,19.484699,28.231659,37.99902,42.47509,-7.205257,26.907738,34.95932,30.487747,-12.368969,28.728092,32.331734,22.438236,-10.068306,29.771073,30.281399,19.487892,-3.157802,26.798069,26.649662,16.017563,-31.831676,-59.799451,-77.73839,-84.356645,-78.845877,-91.392382,-81.790538,-77.961241,-67.513497,-77.727892,-62.898284,-58.415883,-54.108378,-62.742605,-48.822494,-44.725131,-40.519854,-48.672039,-38.967214,-34.129372,137.288121,62.803513,-168.521118,44.434519
59,-0.894883,-0.371015,0.606423,0.588142,-20.332969,-27.3059,-30.990944,-29.865028,11.63015,-16.336006,-22.223396,-14.96125,22.055535,-14.601104,-18.737892,-9.523727,24.987351,-11.265632,-15.141334,-7.021934,22.737488,-4.729362,-8.693435,-2.062591,-23.63807,-50.058755,-67.035253,-71.940335,-75.632034,-85.384653,-69.741316,-62.49895,-67.307362,-72.429559,-55.321601,-50.490008,-54.192032,-56.903412,-42.142884,-37.788627,-39.477279,-43.616242,-32.575306,-26.380338,19.029624,27.742595,37.784477,42.858696,-7.560082,26.675228,34.43692,29.700439,-12.668084,28.719383,32.170669,22.26844,-10.13641,29.835056,30.17554,19.383213,-2.928509,27.042057,26.776439,16.169952,-31.503306,-59.336804,-77.160017,-83.815847,-77.654132,-90.125053,-80.494972,-76.68775,-65.944963,-76.385074,-61.742205,-57.197863,-52.329182,-61.411933,-47.766142,-43.700661,-38.701336,-47.544106,-37.995967,-33.072687,136.470794,62.395994,-167.837139,44.986157
60,-0.415008,-0.013134,0.157321,0.717701,-20.229241,-27.27443,-30.866844,-29.652489,11.511085,-16.815193,-22.665276,-15.414482,21.85794,-14.966767,-19.096482,-10.029259,24.757507,-11.610718,-15.41201,-7.364433,22.612221,-4.605858,-8.665764,-2.348236,-22.781456,-49.211213,-66.143929,-71.105254,-74.452132,-84.219355,-68.866764,-61.790223,-66.013222,-71.292333,-54.393937,-49.507887,-52.792792,-55.788861,-41.206167,-36.748899,-38.0288,-42.811203,-31.92379,-25.657556,18.857495,27.62637,37.931431,43.216988,-7.447437,27.268731,35.044625,30.47168,-12.45219,29.160588,32.308995,22.358517,-9.766536,30.201737,30.291298,19.605916,-2.434982,27.389603,27.05832,16.690911,-30.909274,-58.763767,-76.629958,-83.39324,-76.447381,-89.261456,-80.037074,-76.355768,-64.57621,-75.295248,-60.963669,-56.536757,-50.879073,-60.367907,-47.022655,-43.029614,-37.311971,-46.867723,-37.436564,-32.419485,136.140078,62.22924,-167.595526,45.550238
61,-0.420914,-0.111756,-0.083187,0.394356,-20.145058,-27.343574,-30.744942,-29.159866,10.987702,-17.285087,-22.892601,-15.65506,21.428398,-15.211647,-19.141594,-10.257431,24.579277,-11.518982,-15.138588,-7.229164,22.810822,-4.233032,-8.2183,-2.010292,-22.2233,-48.244726,-65.055683,-70.321684,-73.699703,-83.128695,-67.790621,-60.917874,-65.487744,-70.251313,-53.397588,-48.599334,-52.364917,-55.0272,-40.392272,-35.949243,-37.656222,-42.263859,-31.251136,-25.007305,19.13229,27.820507,38.026005,43.584298,-7.170581,27.616288,35.589833,31.331681,-12.220996,29.437764,32.608155,22.687443,-9.575031,30.427987,30.48555,19.855626,-2.333622,27.541706,27.267918,16.949021,-30.12182,-57.777211,-75.684942,-83.162552,-75.472712,-88.649342,-79.545448,-75.809313,-63.706869,-74.72694,-60.358959,-55.886259,-50.099986,-59.65435,-46.23588,-42.27167,-36.594733,-46.216793,-36.694145,-31.732166,135.771372,61.971522,-167.626505,45.798632
62,-0.164062,-0.266008,-0.261325,0.021767,-20.259819,-27.412308,-30.61615,-28.879692,10.553489,-17.636032,-22.968178,-15.706101,21.029159,-15.45401,-19.1353,-10.413597,24.304161,-11.605362,-14.982445,-7.157845,22.701187,-4.425888,-8.279183,-2.049157,-21.729433,-47.173437,-63.767607,-69.859643,-73.227282,-82.077493,-66.74838,-60.106203,-65.292249,-69.354797,-52.458853,-47.736675,-52.26466,-54.46684,-39.624709,-35.203237,-37.564752,-41.818466,-30.653541,-24.500563,19.08966,27.749748,38.060646,44.058837,-7.014439,27.796417,36.060447,32.072593,-11.953789,29.773372,33.018596,23.166801,-9.194218,30.775932,30.84169,20.330783,-1.937394,27.836414,27.655574,17.545944,-29.637326,-57.297892,-75.301163,-83.039848,-74.793883,-88.322658,-79.399908,-75.610113,-63.067449,-74.217289,-59.93285,-55.281124,-49.490676,-59.142822,-45.751535,-41.655198,-35.969973,-45.753362,-36.255599,-31.182062,135.630358,61.561376,-167.864782,45.676261
63,-0.015061,-0.557508,0.294433,-0.202232,-20.349747,-27.401367,-30.547714,-28.988777,10.182518,-17.767868,-23.0205,-15.907676,20.713417,-15.518715,-19.098747,-10.588714,24.117874,-11.552307,-14.805519,-7.0914,22.646668,-4.473678,-8.270668,-2.054992,-21.531004,-46.589636,-62.981017,-69.492252,-72.806483,-81.267432,-66.03778,-59.594452,-65.057696,-68.680395,-51.823224,-47.154492,-52.101959,-54.040546,-39.127,-34.712074,-37.382075,-41.414748,-30.189789,-24.085828,19.403412,27.868893,37.723,43.708843,-6.943703,28.051895,36.546261,32.807614,-12.232761,29.869068,33.0634,23.145767,-9.714214,30.620155,30.713734,20.144932,-2.612846,27.402123,27.366772,17.238602,-29.37193,-56.924377,-74.979728,-82.962988,-74.89781,-88.075255,-79.101827,-75.385626,-63.493503,-73.862447,-59.395462,-54.766694,-50.028319,-58.910684,-45.361884,-41.318251,-36.470022,-45.5953,-35.987424,-31.000992,135.591345,60.888867,-167.594301,45.359028
64,-0.046142,-0.6631,0.54689,-0.435569,-20.245606,-27.219178,-30.363442,-28.818673,10.298332,-17.665421,-22.849709,-15.676827,20.770179,-15.453072,-18.892044,-10.3377,24.135406,-11.452057,-14.545967,-6.774834,22.641769,-4.511742,-8.169022,-1.851769,-21.446672,-46.206728,-62.382465,-68.779054,-72.299161,-80.553283,-65.297301,-59.00954,-64.645253,-67.942207,-51.13774,-46.586067,-51.744369,-53.443846,-38.574242,-34.242092,-37.082833,-40.862669,-29.631942,-23.595037,19.690968,27.995018,37.435238,43.313931,-6.944652,27.55172,36.88218,34.132702,-12.549167,29.385579,32.850815,23.086625,-10.254535,30.03558,30.334809,19.875939,-3.323112,26.824379,27.068757,17.007374,-28.949946,-56.3839,-74.523855,-82.960067,-74.623169,-87.939262,-79.373937,-75.688691,-63.648138,-73.517762,-58.916087,-54.132468,-50.354405,-58.629454,-44.904548,-40.686031,-36.845705,-45.259329,-35.586158,-30.584862,135.440918,60.158508,-167.151696,44.8562
65,-0.00396,-0.674303,0.54308,-0.160372,-20.171562,-27.046989,-30.2463,-29.033386,10.22628,-17.64006,-22.631836,-15.35804,20.691948,-15.462959,-18.679024,-10.014404,24.089973,-11.326881,-14.238007,-6.405579,22.628334,-4.525566,-7.970055,-1.491417,-21.3923,-45.779631,-61.660287,-68.060624,-71.82743,-79.962918,-64.563316,-58.371509,-64.312893,-67.306689,-50.497356,-46.152924,-51.532361,-52.928334,-38.079478,-33.986574,-36.963667,-40.289377,-28.979659,-23.104521,19.824508,27.979065,37.030128,42.809944,-6.908741,27.194183,37.007492,34.709953,-12.812851,29.049888,32.853206,23.276172,-10.732716,29.629692,30.173698,19.754619,-3.924637,26.396141,26.817215,16.670711,-28.771691,-56.003567,-74.110838,-83.007961,-74.808049,-87.899211,-79.275914,-75.53621,-64.125401,-73.590232,-58.741512,-53.721191,-50.906212,-58.741216,-44.758545,-40.328293,-37.305913,-44.985768,-35.188831,-30.165898,135.311371,59.418222,-166.734203,44.629845
66,-0.065987,-0.38476,0.471119,0.221511,-19.995231,-26.718086,-29.955459,-29.265609,10.561982,-17.558715,-22.413116,-14.905655,20.943879,-15.322036,-18.432998,-9.534553,24.201004,-11.194061,-14.02684,-6.00531,22.597321,-4.526985,-7.869552,-1.20179,-21.236782,-45.566185,-61.299943,-67.770509,-71.449389,-79.564214,-64.194716,-58.127133,-63.846339,-66.944851,-50.16572,-45.986292,-51.026996,-52.501405,-37.74786,-33.825777,-36.466583,-39.71781,-28.483996,-22.797431,19.581859,27.688911,36.655712,42.594738,-6.987294,27.340667,37.016796,34.546428,-12.971489,29.296531,32.877433,23.185936,-10.898827,29.769653,30.185302,19.745006,-4.09441,26.432865,26.802166,16.669635,-29.024151,-56.241429,-74.44203,-83.566715,-75.0335,-87.834342,-79.123125,-75.549906,-64.465232,-73.564878,-58.521421,-53.561937,-51.283767,-58.945239,-44.821561,-40.38627,-37.69528,-45.187655,-35.252477,-30.154542,135.140545,58.968964,-166.367923,44.786858
67,-0.084114,-0.117968,0.136459,0.335453,-19.93071,-26.541481,-29.859031,-29.741226,10.75486,-17.487991,-22.290001,-14.660957,21.065552,-15.453392,-18.486786,-9.28981,24.159462,-11.380783,-14.08612,-5.800232,22.396431,-4.732017,-8.022171,-1.177276,-21.222104,-45.440412,-61.057616,-67.716113,-71.279717,-79.360117,-64.144692,-58.19307,-63.608531,-66.764577,-50.099999,-46.120481,-50.734213,-52.351246,-37.729125,-33.965536,-36.110912,-39.388655,-28.257829,-22.743264,19.760159,27.925392,36.69952,42.613815,-6.604935,27.772888,37.666191,35.697269,-12.689289,29.785549,33.085396,23.29557,-10.664452,30.16103,30.315125,19.815296,-3.914703,26.878704,27.083141,16.879887,-28.89006,-56.011409,-74.280083,-83.755913,-74.871226,-87.809203,-79.468149,-76.159593,-64.470808,-73.45272,-58.331273,-53.549161,-51.382642,-58.861203,-44.683166,-40.415898,-37.859091,-45.137804,-35.157418,-30.21833,134.968099,58.795439,-166.319796,45.066754
68,-0.037513,0.414166,0.123196,0.406212,-19.892487,-26.559746,-30.008378,-29.986016,10.929702,-17.741112,-22.367112,-14.368699,21.082351,-15.865792,-18.681084,-9.081276,23.942688,-11.867959,-14.343911,-5.790734,21.928779,-5.253663,-8.388314,-1.407601,-21.051883,-45.370436,-61.099871,-67.704739,-71.279408,-79.311846,-64.065052,-58.147763,-63.593742,-66.647738,-50.022897,-46.265508,-50.758406,-52.277763,-37.783243,-34.213946,-36.246763,-39.287878,-28.250542,-22.966917,19.814243,28.063362,36.750915,42.332611,-6.297547,28.084121,37.856506,35.881771,-12.284855,30.121902,33.251781,23.390728,-10.162663,30.612819,30.506469,19.927253,-3.372334,27.509422,27.431568,17.134082,-28.791228,-55.894533,-74.216134,-83.722147,-74.686925,-87.728828,-79.475972,-76.239256,-64.232426,-73.377236,-58.340517,-53.797131,-51.157431,-58.575489,-44.444148,-40.436744,-37.709556,-44.849997,-34.846992,-30.102788,134.867564,59.152915,-166.259622,45.416276
69,-0.224167,0.602073,0.071903,0.455243,-19.833527,-26.622506,-30.244675,-30.162529,11.093856,-17.921242,-22.469994,-14.216767,21.112884,-16.110329,-18.865219,-8.98629,23.769241,-12.192673,-14.617127,-5.871048,21.572754,-5.664368,-8.784691,-1.721375,-20.947883,-45.294236,-61.036398,-67.364747,-71.252479,-79.379692,-64.164427,-58.234134,-63.367829,-66.712286,-50.206691,-46.489428,-50.428622,-52.219897,-37.848335,-34.280711,-35.884394,-39.097669,-28.184691,-22.98188,19.628174,28.018867,36.895019,42.421463,-6.266762,28.28611,38.016254,35.985203,-12.018894,30.37714,33.407547,23.475517,-9.674904,30.994743,30.700001,20.076382,-2.717697,28.052273,27.699966,17.336243,-28.912735,-55.996212,-74.220624,-83.40236,-74.585322,-87.7307,-79.410684,-76.125858,-63.906699,-73.398787,-58.403225,-54.004922,-50.740171,-58.405219,-44.368566,-40.563234,-37.285306,-44.624442,-34.660278,-30.071271,134.62274,59.689427,-166.208376,45.805958
70,-0.314736,0.964183,-0.006283,0.551178,-19.908119,-26.856285,-30.686096,-30.497337,11.222534,-18.141563,-22.520645,-13.962684,21.092446,-16.648567,-19.100876,-8.826416,23.472565,-12.895683,-15.05635,-6.07679,21.007828,-6.46447,-9.514549,-2.399093,-20.829612,-45.31801,-61.247758,-67.470884,-71.266577,-79.440355,-64.324145,-58.490497,-63.257351,-66.673995,-50.33641,-46.833828,-50.296106,-52.16258,-37.98555,-34.544175,-35.80216,-39.058766,-28.302962,-23.269704,19.524731,28.048222,37.200131,43.012024,-6.133484,28.909355,38.084267,35.426594,-11.690494,30.859085,33.527069,23.412174,-9.163971,31.573609,30.927338,20.153481,-2.052177,28.640419,27.984444,17.623421,-29.033945,-56.315239,-74.578659,-83.513073,-74.604217,-87.724988,-79.09551,-75.788121,-63.634108,-73.284598,-58.458664,-54.242519,-50.371312,-58.192514,-44.356148,-40.786215,-36.916829,-44.61316,-34.735965,-30.227438,134.309864,60.602605,-166.212799,46.306131
71,-0.575203,1.218453,-0.168846,0.708185,-19.98722,-27.229683,-31.178901,-30.590995,11.113221,-18.657875,-22.662666,-13.636459,20.892769,-17.328689,-19.368988,-8.692383,23.117272,-13.624283,-15.429634,-6.196426,20.563774,-7.167503,-9.998726,-2.70845,-20.59425,-45.194731,-61.230424,-67.236868,-71.415395,-79.410227,-64.082509,-58.365261,-63.179452,-66.451137,-50.160607,-46.921051,-50.15111,-51.870599,-37.712298,-34.44367,-35.657584,-38.741857,-27.93509,-23.049027,19.33271,28.115135,37.713718,43.91605,-5.88406,30.021206,38.329685,34.76334,-11.189644,31.711029,33.877647,23.550854,-8.41824,32.438759,31.338249,20.385212,-1.138653,29.51833,28.468689,18.091187,-29.182325,-56.505203,-74.667759,-83.279564,-74.62433,-87.661929,-78.732548,-75.442486,-63.269763,-73.142344,-58.536662,-54.54375,-49.792927,-57.937158,-44.394483,-41.099296,-36.243732,-44.510401,-34.747828,-30.301996,133.817688,61.78971,-166.298618,46.982968
72,-0.833725,1.546014,0.248211,0.650238,-19.961174,-27.489235,-31.617073,-30.875518,10.80867,-19.062103,-22.929863,-13.697204,20.63292,-17.662353,-19.62799,-8.916458,22.817574,-13.874359,-15.711708,-6.579872,20.249199,-7.441017,-10.344337,-3.245865,-20.323851,-45.105002,-61.19514,-66.596115,-71.552573,-79.499098,-64.140943,-58.433445,-63.072426,-66.284214,-50.2255,-47.084325,-49.943054,-51.470185,-37.569846,-34.33644,-35.436987,-38.343826,-27.669526,-22.825138,18.96627,27.875198,37.9281,44.340797,-6.072247,30.705986,37.865215,32.770191,-11.209259,32.133396,33.929718,23.422909,-8.202564,32.930763,31.579376,20.535278,-0.765015,29.923759,28.636288,18.251564,-29.329594,-56.77257,-74.888504,-83.177861,-74.97422,-87.609021,-77.580927,-73.979415,-63.303787,-72.872217,-58.232071,-54.366619,-49.563845,-57.512698,-44.056752,-40.906839,-35.829899,-44.053547,-34.275721,-29.852212,133.076311,63.311895,-165.958059,47.609377
73,-1.243789,1.652867,0.25383,0.853786,-19.986191,-27.688889,-31.887154,-31.187508,10.519935,-19.305176,-23.240067,-14.036454,20.362083,-18.072922,-20.026406,-9.296997,22.478897,-14.292321,-16.166268,-7.139557,19.935516,-7.718239,-10.828286,-4.018753,-20.197467,-44.933465,-60.922715,-66.272987,-71.509478,-79.445931,-64.119028,-58.398044,-62.713792,-65.930495,-49.97325,-46.664119,-49.396254,-50.953408,-37.150023,-33.689123,-34.721818,-37.930172,-27.476784,-22.4658,18.540481,27.566494,38.106777,45.123573,-6.420147,31.384838,37.466629,31.039936,-11.44701,32.644466,33.97411,23.151146,-8.271366,33.323101,31.687042,20.482612,-0.691372,30.151897,28.668468,18.215996,-29.826116,-57.359439,-75.296384,-82.926253,-75.566579,-87.560436,-76.855428,-73.290354,-63.538717,-72.755707,-58.088113,-54.306487,-49.506213,-57.407216,-44.148396,-41.121471,-35.577698,-44.052763,-34.354879,-29.955335,131.982479,64.94376,-165.554272,48.442161
74,-1.28048,2.048212,0.187099,1.172158,-20.162636,-28.105659,-32.478172,-32.228164,9.76577,-20.18621,-23.954269,-14.631386,19.632408,-19.141342,-20.902611,-10.183685,21.693512,-15.365158,-17.030227,-8.09182,19.154206,-8.556473,-11.644981,-5.062614,-20.012166,-44.668284,-60.641233,-66.367497,-71.734768,-79.233485,-63.838163,-58.140526,-62.849489,-65.443198,-49.513006,-46.172253,-49.445716,-50.457169,-36.64619,-33.123001,-34.620906,-37.645774,-27.309645,-22.295443,18.322987,27.433663,38.280865,46.031079,-6.586795,31.159149,37.500756,31.556694,-11.488037,32.735092,33.860333,22.909046,-8.137905,33.530766,31.691838,20.332581,-0.433708,30.602566,29.030743,18.404045,-30.11591,-57.5629,-75.238141,-82.878451,-75.43082,-87.361099,-77.32523,-73.993024,-63.245272,-72.462892,-57.904639,-54.135258,-49.070409,-57.146542,-44.012495,-41.036125,-35.070448,-43.832659,-34.235015,-29.881432,131.000267,66.895009,-165.068905,49.517356
75,-1.500343,2.358582,0.21246,1.215082,-20.231667,-28.3648,-33.145111,-33.546501,8.804947,-21.395668,-25.144295,-15.715485,18.522056,-20.320908,-22.067642,-11.36776,20.500671,-16.545021,-18.156555,-9.235474,17.961136,-9.718506,-12.665108,-6.066078,-19.95275,-44.473734,-60.183527,-65.804457,-72.039544,-79.13721,-63.701102,-58.063851,-62.91676,-65.165,-49.330947,-45.893209,-49.331299,-49.948248,-36.092153,-32.447656,-34.266817,-37.03468,-26.757287,-21.747693,17.848274,27.025932,38.084038,46.556454,-6.612866,30.293907,37.543304,32.869503,-11.266216,32.429008,33.724022,22.848495,-7.701622,33.500221,31.766018,20.414566,0.0993,31.074108,29.563202,18.819591,-30.577242,-57.758798,-75.033408,-82.465545,-74.985174,-87.183474,-78.279769,-75.051019,-62.620025,-72.050122,-57.689094,-53.746781,-48.236353,-56.737959,-43.821378,-40.745046,-34.083863,-43.226975,-33.905287,-29.588989,129.993702,69.131346,-164.362667,50.610193
76,-1.925469,2.612709,0.530823,1.584923,-20.052177,-28.351707,-33.89376,-35.433197,7.840485,-22.49517,-26.552925,-17.461029,17.352173,-21.570465,-23.493347,-13.057342,19.179703,-17.93328,-19.70803,-11.112396,16.514718,-11.206993,-14.251052,-7.955841,-20.052582,-44.566489,-59.93587,-65.00627,-71.97741,-79.204018,-64.0714,-58.473404,-62.597881,-64.889093,-49.4455,-45.863921,-48.780226,-49.236061,-35.651909,-31.724848,-33.456392,-36.28984,-26.286768,-21.145243,17.575481,26.798126,37.969539,46.567577,-6.567261,30.025783,37.111999,32.26815,-11.233784,32.366226,33.659832,22.602298,-7.618824,33.58826,31.832245,20.252071,0.217941,31.365852,29.843113,18.873962,-31.167811,-58.394012,-75.576552,-82.891475,-75.06913,-86.81814,-77.895558,-74.725471,-62.325661,-71.65445,-57.521096,-53.631326,-47.624938,-56.119621,-43.416381,-40.382757,-33.266516,-42.43471,-33.29644,-29.114937,128.641468,71.561642,-163.258609,52.012703
77,-1.68972,2.995611,0.56163,2.403313,-20.070007,-28.851928,-35.704765,-38.972442,6.073792,-24.586166,-28.804115,-20.051445,14.977364,-24.047928,-25.978683,-15.845031,16.440537,-21.022636,-22.452484,-13.815971,13.594025,-14.595657,-17.136543,-10.519752,-20.499926,-44.755618,-59.442157,-63.981528,-71.533949,-78.791049,-63.854236,-58.561361,-61.639687,-64.12222,-49.06106,-45.536124,-47.584491,-48.004727,-34.615447,-30.730605,-32.099167,-34.724109,-25.066406,-20.227718,18.264152,27.673782,38.481674,46.976772,-5.379868,31.652481,38.059021,32.604309,-10.352486,33.668667,34.788151,23.580116,-7.14774,34.326176,32.618431,20.898102,0.331604,31.639503,30.424484,19.654587,-31.205033,-58.442615,-75.969012,-84.317717,-75.325925,-86.060561,-76.502795,-73.473838,-62.544312,-71.340448,-57.240131,-53.342661,-47.611123,-55.818593,-43.253594,-40.149735,-32.833805,-41.965777,-33.142724,-29.008651,127.754224,74.364236,-161.894503,54.222999
78,-1.304329,3.377359,0.770782,3.105836,-19.979988,-30.195488,-39.038749,-44.255355,2.418457,-28.932426,-33.455864,-25.458114,10.616524,-28.761932,-30.5102,-20.713966,11.763657,-26.120933,-26.862487,-17.962783,8.959717,-20.088363,-21.891357,-14.757774,-21.103932,-45.109386,-58.593392,-61.223768,-70.561492,-77.263017,-62.57123,-57.559109,-60.025785,-61.808223,-47.292739,-44.001831,-45.620686,-45.308809,-32.366596,-28.710052,-29.970612,-31.795967,-22.604813,-18.279907,19.611225,29.607399,40.002137,48.013264,-2.876976,33.893223,41.605248,37.37431,-8.469337,35.620537,38.698288,28.992211,-6.107723,35.724541,36.08471,25.814896,0.531796,31.998585,33.026287,24.277474,-30.396776,-57.299257,-75.378703,-85.673411,-75.046103,-84.926638,-74.193953,-69.871727,-62.804183,-70.58177,-55.640808,-50.599473,-47.823249,-55.421174,-42.311617,-37.960386,-32.491788,-41.397556,-32.84074,-28.072342,127.240184,77.55664,-160.333432,57.14388
79,-0.688408,4.09412,0.87648,3.552767,-19.743804,-32.352355,-43.759735,-51.825851,-3.874877,-36.016342,-41.976242,-36.434761,3.650528,-36.508598,-38.448646,-29.693069,4.807847,-33.951232,-34.422866,-25.773536,2.4264,-27.789299,-29.493621,-22.558982,-21.785811,-45.267523,-57.336943,-58.898204,-68.05537,-74.612177,-60.38038,-54.85181,-56.795337,-57.234277,-42.936982,-39.478218,-41.74468,-40.310187,-27.833479,-24.212367,-25.670986,-26.686848,-18.158227,-14.043161,20.544251,31.8326,42.69413,50.070591,0.428021,37.569363,46.886925,43.982346,-5.568935,38.717434,45.248612,38.946797,-4.017025,37.736298,42.151005,35.467427,1.670723,32.807419,37.093094,31.997303,-30.423489,-56.962081,-75.41534,-87.046752,-75.055434,-83.476708,-70.841962,-64.539666,-62.702468,-69.066706,-54.030598,-47.424057,-47.302353,-53.86142,-41.16054,-35.510723,-31.257614,-39.669564,-32.317628,-27.442149,126.983007,81.775218,-159.025721,60.821105
80,-1.111495,5.97271,1.372765,4.278964,-19.944466,-35.195252,-48.772866,-59.089188,-11.955575,-45.00087,-52.655045,-49.679833,-4.810341,-44.928612,-49.304581,-43.335572,-3.105881,-41.893044,-44.657387,-38.279961,-4.334977,-34.813088,-38.565766,-33.860001,-22.262574,-44.663085,-55.446875,-56.913107,-64.016115,-70.368621,-55.958588,-49.03833,-52.144642,-52.198976,-37.884032,-33.363822,-36.578579,-34.955457,-22.609376,-18.170065,-20.126182,-20.746156,-12.999499,-8.994571,21.430733,34.546063,46.150326,53.003597,4.786125,41.875557,53.479557,53.274742,-1.659782,42.941563,53.833408,52.491772,-1.048679,40.815697,49.998631,48.208042,3.829788,34.725689,42.952812,43.045727,-30.187424,-56.072604,-74.662195,-87.565437,-73.770747,-80.668528,-67.109817,-59.264742,-61.260682,-65.954689,-51.88093,-44.251025,-45.387337,-50.594521,-39.06788,-32.768875,-28.674045,-35.941154,-30.242956,-25.870311,126.026951,88.068904,-157.497517,65.421045
81,-0.278641,7.767189,1.838184,4.305232,-19.636482,-38.001206,-54.377793,-67.106346,-21.809899,-55.411629,-65.662857,-66.078987,-15.33934,-55.555321,-63.484886,-61.678963,-12.854096,-51.764145,-58.017906,-55.473015,-12.873528,-43.272309,-49.671913,-48.269943,-23.366486,-43.921426,-52.175677,-51.992902,-58.483982,-64.26973,-50.438688,-42.073026,-45.759019,-45.090775,-31.328331,-25.616035,-29.608174,-27.500521,-15.847391,-10.667748,-12.799508,-12.493597,-5.648854,-1.978477,21.884915,37.396477,50.100644,57.267048,10.286259,46.355404,61.998734,67.250966,3.447339,46.999798,63.418374,68.728409,2.811242,43.473301,58.693898,63.664845,6.569767,36.74302,49.48629,55.72427,-29.188079,-54.271412,-72.118256,-85.837494,-70.041522,-74.535569,-61.779058,-53.261286,-57.11051,-59.040211,-47.022827,-39.304569,-40.667191,-44.276218,-35.011619,-29.130256,-23.200086,-29.190778,-25.844091,-22.581341,125.908705,96.329926,-155.498938,70.22011
82,-0.689736,8.915413,2.922112,4.488681,-20.577163,-42.906166,-61.926704,-75.769752,-33.378067,-67.46434,-80.286781,-84.61457,-27.18354,-67.050018,-79.15139,-82.423782,-23.179527,-61.709701,-72.23513,-74.7751,-21.080223,-51.352226,-60.924545,-64.140564,-24.609558,-42.761648,-48.341415,-46.75123,-52.071195,-54.815612,-41.717195,-32.295749,-38.516461,-35.461415,-22.402716,-15.223076,-21.861844,-18.323817,-7.517347,-1.333259,-4.773313,-3.118081,3.273414,7.353239,21.247204,38.929413,53.323803,61.494804,15.281994,49.183639,69.157391,80.368423,8.238075,49.394062,71.727493,83.849338,6.446491,44.989735,65.962852,77.375679,9.031494,37.775906,54.525352,65.978588,-28.750627,-51.962774,-67.990841,-80.576309,-63.624111,-66.544331,-55.900968,-47.293053,-49.929407,-50.427788,-40.438307,-32.385152,-33.264972,-35.889142,-28.729429,-23.230598,-15.666962,-20.313971,-18.776645,-16.303646,124.957964,105.802449,-152.837831,75.265901
83,-2.120842,10.440309,4.553329,4.88242,-22.541015,-47.912109,-68.794006,-83.594375,-44.676773,-78.07624,-93.364792,-101.933624,-38.030319,-76.695945,-93.303955,-102.308017,-32.174743,-69.348358,-84.829765,-93.291069,-27.735672,-56.452629,-69.526748,-78.09375,-25.284571,-40.683061,-43.583768,-41.401508,-44.647585,-44.058023,-30.89914,-20.394975,-30.284835,-25.327876,-12.112263,-3.008288,-13.487735,-8.736732,2.00382,9.603665,3.568445,6.51586,13.156913,18.255966,19.801827,38.833981,54.980404,64.398606,19.169094,50.277638,72.005333,87.146759,12.525536,49.676091,74.975304,91.777073,9.746716,44.355984,68.244496,83.972992,11.015236,37.082028,55.396168,69.621369,-28.55646,-49.144658,-62.485131,-73.186045,-54.967611,-56.505882,-48.629289,-41.546486,-40.38698,-39.9868,-32.750751,-25.567227,-24.052218,-25.758505,-20.966124,-16.650554,-7.373648,-9.810344,-9.556031,-8.300546,122.376108,116.817249,-148.745516,80.722812
84,-4.17659,11.951169,5.136858,8.682163,-24.821823,-52.164367,-74.023246,-88.582901,-54.051704,-86.119629,-103.005615,-114.23909,-47.319831,-83.546653,-104.064079,-117.988769,-40.229072,-75.172187,-94.972114,-108.351562,-33.791816,-60.646728,-76.532226,-89.369361,-25.414,-37.693878,-37.887737,-34.105673,-37.268813,-32.170545,-18.594605,-7.335091,-22.379578,-15.434787,-2.058117,9.153109,-5.982226,0.217911,10.884263,19.733307,10.359335,14.757663,21.864888,27.817825,19.358311,39.546513,56.793835,67.449818,26.103007,56.107092,76.584452,91.893397,19.919037,54.954781,79.443449,96.414008,16.182461,48.992586,71.99061,87.746859,15.854193,41.06555,58.733872,72.74996,-27.755315,-46.008194,-57.006804,-65.709298,-46.029408,-45.209891,-39.59274,-34.618022,-30.733769,-28.51194,-23.589463,-18.176953,-14.615078,-15.024952,-12.146244,-9.459286,1.440545,0.567521,-0.059743,0.17368,117.949796,129.081885,-143.85838,89.718442
85,-4.875984,12.945368,5.599755,12.248195,-26.101227,-54.767326,-77.553726,-92.442032,-61.046036,-91.959503,-110.163414,-123.569538,-54.684654,-89.739074,-111.554443,-128.085205,-47.150528,-81.053764,-102.005195,-117.740227,-39.64698,-65.625458,-81.842811,-96.513977,-25.797846,-35.213722,-32.498791,-26.280012,-29.820854,-20.415069,-7.373968,3.713355,-14.114229,-4.095645,8.885026,20.796557,1.951079,10.39977,20.322234,29.210378,17.195094,23.225615,30.574124,36.968268,19.75201,40.97525,59.203834,70.814678,35.438272,66.130262,83.14607,95.180277,29.994884,64.461937,85.204176,98.377744,25.517223,57.865808,77.455553,89.783415,23.127554,48.770284,63.963615,74.706442,-27.221058,-43.460274,-52.385984,-59.059002,-37.919283,-33.429382,-29.008813,-25.954026,-21.738835,-16.811405,-13.500323,-9.884775,-5.542523,-4.08081,-2.764091,-1.544212,10.284809,10.193291,8.620265,7.954064,112.894678,142.161227,-138.437759,102.100611
86,-6.156326,14.424539,4.809139,14.170867,-28.193161,-57.457535,-80.486115,-95.235558,-66.227394,-96.032204,-114.494442,-129.03685,-60.383103,-93.666618,-115.340057,-132.776688,-52.907341,-85.109757,-105.605782,-121.774967,-44.631981,-69.592941,-85.244476,-100.487434,-25.837558,-32.907227,-28.471195,-21.840473,-23.236761,-9.500727,3.425122,13.875366,-6.910162,6.493926,19.294385,31.173127,8.718133,19.533149,29.08868,37.527664,22.557079,30.13136,37.881852,44.763972,21.392624,43.407188,62.555992,74.758701,41.433763,72.179998,87.99404,99.108175,35.655407,69.48167,89.351446,101.758032,30.181709,62.570017,81.242632,92.630671,25.976274,52.118677,66.770245,76.306566,-26.387797,-40.289235,-47.444734,-51.621646,-31.375826,-25.573279,-21.023539,-18.026687,-15.364487,-9.808247,-5.80766,-1.983377,0.499725,3.469709,5.30005,6.679097,15.975708,17.46573,16.546665,15.898557,106.350191,156.596334,-134.016781,116.282046
87,-6.425079,14.87371,4.186695,16.239327,-29.548325,-58.494141,-80.903893,-95.38971,-68.950081,-97.466858,-115.726559,-130.328705,-63.220734,-95.153916,-116.171242,-133.481495,-55.841675,-86.688034,-106.426724,-122.098618,-47.334137,-70.985047,-86.154419,-101.25895,-24.706111,-29.91017,-24.167018,-17.198644,-16.412944,-0.776326,12.198535,22.167373,0.419075,15.648925,28.890622,40.472517,15.559004,28.148666,38.062127,46.044158,28.019978,37.092781,45.571952,52.722551,23.023979,45.844574,65.305275,78.743706,47.336866,76.927706,91.624495,102.462221,41.281162,73.313187,91.339296,103.517573,34.685268,65.238378,82.423067,93.58211,28.361258,52.917166,66.282898,75.258459,-24.849107,-36.671235,-42.094049,-45.041664,-25.962717,-18.970517,-13.609433,-9.732322,-10.535321,-3.619701,1.197961,5.615968,4.638663,9.515489,12.43641,14.692436,19.308656,22.533698,22.791207,22.877497,99.716715,171.456753,-130.038483,132.508082
88,-12.007187,17.175371,3.195213,17.99076,-27.133393,-55.837029,-79.557553,-94.598374,-66.868744,-97.796917,-113.199875,-123.027043,-64.754723,-99.58049,-115.79036,-126.423134,-60.362377,-93.505715,-108.652577,-118.26733,-54.168629,-79.681252,-92.225636,-102.401562,-12.190804,-11.941418,-4.956101,1.842879,-1.725628,12.248046,21.023508,27.978049,6.891432,19.001528,29.119135,38.07833,13.760029,22.448312,29.533666,35.347887,18.300587,23.304655,29.954655,36.210466,25.933411,49.877324,69.080693,83.747693,53.909117,83.008433,97.185809,107.51322,47.288006,78.718243,95.844401,107.947592,39.67733,69.507471,86.104426,97.377863,31.472849,54.983889,67.486187,76.315424,-22.232272,-32.408468,-36.793739,-38.764932,-21.703426,-13.078292,-6.270952,-0.985598,-7.411139,1.103977,6.69494,11.715001,6.617301,12.922092,16.886058,19.837777,19.9651,23.411277,24.336536,24.894129,87.677811,188.64033,-126.874987,150.507048
89,-9.694256,17.084795,7.304163,20.673415,-25.444805,-54.047424,-79.023136,-94.53348,-64.680302,-98.534254,-111.465431,-117.05987,-65.086704,-103.857977,-116.141968,-120.841078,-62.852709,-98.914536,-109.796631,-114.037296,-58.741282,-86.491819,-96.324761,-101.941092,-0.445795,4.615714,12.929999,19.59385,12.51072,23.770302,27.569386,30.775263,14.014664,22.003024,27.493821,32.553453,13.2018,17.081183,20.320078,23.493852,10.13462,11.350177,15.655483,20.455966,26.605511,51.152733,70.97342,85.750134,59.170246,88.588795,100.080906,107.038067,53.759938,85.087921,97.798153,104.839783,46.657334,75.410214,87.727627,94.59438,37.945633,60.070862,69.597805,74.993283,-21.87228,-30.390089,-32.536996,-31.779906,-16.678083,-4.666553,4.109366,10.441537,-1.428275,11.731355,19.658231,25.209222,13.489488,24.359586,31.126085,35.220841,27.239205,34.535437,38.225592,40.176423,78.044506,205.801155,-119.509873,171.256493
90,-7.612244,16.358956,5.086224,17.740955,-25.239017,-54.244308,-80.454002,-96.139738,-63.595791,-100.273893,-111.181331,-113.366369,-65.494892,-108.319948,-117.645675,-117.604013,-64.610475,-103.754081,-110.990295,-110.564987,-62.085314,-92.402338,-99.692905,-101.21842,11.170347,20.779699,30.547812,36.997895,26.133071,34.71833,33.381952,32.696825,21.196262,24.806555,25.004798,26.076995,13.131602,12.057071,10.88548,11.367887,2.817122,0.670801,2.519479,5.821662,27.916431,53.643963,74.248947,89.284321,59.105759,89.052349,102.128162,110.215702,52.612976,84.238563,98.262852,106.128136,44.644386,73.280731,86.692772,94.342289,35.538162,57.198132,67.383202,72.85191,-19.75087,-26.014541,-25.54215,-22.220472,-10.530545,3.455503,12.977503,19.74252,5.540864,21.428949,31.168668,37.472978,20.383786,34.471562,42.668608,47.227308,33.060886,43.601089,48.638811,50.958082,70.520073,222.249878,-114.335838,189.087215
91,-5.126404,12.96771,5.381058,18.005679,-24.410968,-53.581283,-80.800323,-98.046987,-61.908908,-100.115621,-110.518089,-111.45849,-64.543018,-108.841661,-116.802085,-113.767851,-64.458612,-105.068595,-110.41801,-107.140262,-63.008119,-94.83399,-100.631412,-99.489343,23.953362,38.459991,49.083198,56.428737,38.150232,44.407723,40.580383,37.625521,26.018042,26.355527,23.866108,21.833223,10.603516,5.829814,2.450547,1.152948,-6.357026,-11.519335,-10.855327,-8.434519,29.391666,55.713707,76.454063,92.363765,61.703888,91.545364,104.62611,112.262523,55.047134,86.86996,100.143963,106.96923,46.634376,74.785068,87.347099,93.996334,36.991253,57.910034,67.263313,71.67263,-18.285866,-22.002796,-18.679092,-13.993409,-3.802553,12.515178,22.177339,29.054865,12.851199,31.285451,41.046499,47.261184,27.138096,43.723614,52.370364,57.037781,38.270225,51.11625,56.678492,59.188931,65.536296,235.324432,-108.812153,207.199738
92,-3.05484,11.779608,5.49282,17.27548,-23.069812,-52.443741,-80.362175,-98.638555,-60.030246,-98.984178,-109.698932,-110.850237,-63.970928,-107.830587,-113.638767,-108.236211,-65.335046,-105.910709,-107.839771,-101.061836,-65.339304,-98.098989,-101.805988,-97.614389,35.607294,55.161982,67.137277,76.107222,49.255092,53.535581,48.897496,45.446098,29.75714,27.498687,23.259114,19.054022,7.293359,-0.249515,-4.840263,-7.291792,-15.954535,-23.777176,-24.244571,-22.635781,30.646271,57.589371,78.995648,94.876042,63.781037,95.226677,108.287259,114.753674,57.146691,91.09076,104.355492,109.561696,48.800263,78.722718,91.14822,96.479416,39.295327,61.806553,71.140709,74.481732,-17.456989,-19.332769,-13.704565,-7.049525,2.04263,20.398767,29.932821,36.376884,19.564087,39.958013,49.343408,54.770627,33.896913,52.238589,60.430324,64.304817,44.243392,58.532722,63.794635,65.634859,62.619936,247.134353,-103.180853,224.505531
93,4.361321,9.110211,5.538689,16.355239,-24.659924,-53.714974,-80.230786,-98.331831,-60.055424,-97.11862,-111.477425,-117.673365,-62.024792,-103.172751,-112.394966,-111.983511,-62.264082,-101.109547,-104.244461,-99.674057,-61.90975,-94.002691,-98.842289,-97.015509,34.871501,55.087055,67.975625,78.945938,51.442724,57.082562,54.780495,52.875031,33.639463,33.350897,28.772487,23.292595,12.111176,6.875816,2.187848,-1.028497,-10.854111,-16.728971,-17.392671,-16.735628,30.966465,58.655216,81.243233,96.876366,65.131565,98.767078,111.691235,117.332005,58.426048,94.974964,108.195431,112.184841,50.230602,82.220352,94.342198,98.552982,41.219639,65.602261,74.802876,77.031841,-17.744734,-18.186151,-10.301574,-1.691356,7.386128,26.890057,35.856303,41.727643,26.680167,48.304087,57.148549,61.757118,42.016623,61.953015,69.386394,72.280352,52.728294,68.763999,73.503776,74.386288,67.10673,256.219259,-97.516691,240.835465
94,3.35828,7.440999,1.613354,10.66258,-25.381302,-53.673317,-78.767109,-97.170239,-59.140503,-93.728428,-111.312035,-122.052326,-59.862556,-97.332642,-109.649025,-113.689693,-59.578926,-95.739601,-99.443241,-96.246174,-59.318069,-89.987228,-95.230248,-94.612953,33.837817,53.971885,66.316731,77.514217,52.835295,59.974371,60.504943,60.273786,36.206242,38.883332,35.305637,29.343351,15.580901,13.49055,9.529261,5.971129,-6.919097,-10.753514,-11.083261,-10.947966,32.467872,60.805469,83.488884,100.233558,63.451916,96.92791,113.303421,122.89064,54.566116,91.693199,110.218986,120.221123,44.922535,78.091324,95.239036,104.885742,35.437031,60.863148,73.251858,79.369674,-15.414669,-14.275312,-5.015789,3.451354,11.587082,29.548449,37.162398,42.710401,30.308201,49.367132,56.481595,60.530841,44.22909,62.239265,67.537747,69.181926,53.252468,68.002394,70.727464,70.091188,70.502747,263.606763,-95.8656,251.44455
95,2.167076,5.693993,3.908123,10.409785,-25.456718,-53.16925,-76.908165,-95.747887,-59.802269,-90.395611,-107.077114,-118.951504,-59.637291,-90.392509,-99.165779,-102.068367,-58.738197,-89.362381,-90.380917,-86.200813,-57.966316,-85.521709,-90.925655,-91.385239,33.931814,54.090199,65.954417,78.112283,51.452036,60.188114,63.761968,65.013526,35.43556,42.093675,41.87104,36.742162,16.060677,18.673967,18.813498,16.555804,-5.199101,-6.652286,-4.788782,-3.646634,32.316124,60.154346,82.669361,100.562725,62.625,94.610607,111.727512,122.837963,53.43766,89.451588,109.534756,122.1385,43.63369,75.85421,94.409099,106.573002,33.974098,58.295093,71.546699,79.776581,-14.526117,-12.272141,-2.054325,6.256243,14.740725,31.487425,38.712247,44.459741,32.593127,49.94587,56.215241,59.725937,45.374351,62.218345,67.247681,68.577871,53.43982,67.926973,70.683956,69.941814,72.683384,269.227286,-91.943916,261.780865
96,-0.297615,5.098348,4.728367,8.427622,-24.964119,-51.644348,-73.357613,-90.301277,-61.580566,-87.570362,-97.484974,-104.78603,-61.350838,-86.424774,-88.305153,-86.880627,-60.355751,-85.241707,-80.547844,-72.684448,-59.491104,-84.110928,-88.461319,-88.500801,32.210423,51.065479,62.792698,74.530055,48.580124,59.824392,65.27578,67.564399,35.091216,45.484292,47.862621,44.507289,19.096179,26.313605,29.411734,28.691156,1.299525,3.853708,7.552138,9.987722,31.153701,58.521858,80.922603,98.88858,60.976226,92.699318,109.570587,120.516449,51.40813,87.010368,106.92247,119.474968,41.331939,73.161403,91.509636,103.78379,31.52441,55.014164,68.374042,77.054363,-13.647359,-10.592147,0.253548,9.096083,17.129725,33.589051,40.339556,45.523405,34.682984,51.56756,57.641861,60.625765,46.77227,63.555636,68.441452,69.359632,54.063486,68.729691,71.414525,70.36998,72.418974,274.217756,-87.182344,270.100609
97,-2.411797,5.009762,4.785873,6.642801,-24.000297,-48.778495,-68.910415,-84.845809,-62.410217,-84.433582,-87.179008,-88.815273,-62.023407,-82.932964,-78.660541,-72.313041,-60.810836,-80.760509,-71.718532,-60.623085,-59.582908,-80.27592,-81.881561,-79.699493,30.471556,47.859262,59.186411,69.802221,45.274636,58.589285,64.473716,66.45504,34.255757,47.577173,51.484122,49.342062,21.116924,31.654842,36.10591,36.184902,6.144697,11.670803,16.198813,19.096327,30.061878,57.060894,79.21225,97.233009,59.08643,90.843315,107.418251,118.106232,48.966797,84.530228,104.188362,116.526238,38.552033,70.622555,88.755501,100.904892,28.690521,52.25449,65.877262,75.029675,-13.096225,-9.241789,2.287223,11.134908,18.79953,35.886104,42.405292,47.173449,36.387097,53.458703,59.302502,61.750486,48.105152,65.302901,69.990486,70.514216,54.827376,69.941061,72.377658,70.854683,70.05784,279.128155,-82.345808,276.644047
98,-3.473396,4.145157,3.691475,4.427048,-22.458755,-45.557854,-63.942673,-78.877167,-63.565887,-80.696422,-75.894813,-71.221458,-63.406769,-78.319393,-66.762886,-54.125976,-62.010177,-75.466862,-61.29261,-46.376255,-59.979996,-76.017208,-73.786983,-68.367302,29.529677,45.721857,56.231333,65.329268,41.454398,55.436333,61.703111,63.754052,31.835548,47.369062,53.964759,54.101994,20.905861,34.298241,41.596868,43.685205,8.343555,16.764138,23.060197,27.233636,29.025764,55.624809,77.568947,95.716576,57.198074,89.084244,105.354881,115.917,46.578312,82.323853,101.549446,113.842804,35.894566,68.496838,86.593941,98.829117,25.949581,49.912411,64.043175,74.139633,-12.695354,-8.413086,3.570248,12.581177,19.714597,37.6483,44.21101,48.674811,37.251677,54.798884,60.59726,62.727933,48.684481,66.594991,71.223975,71.440965,55.054049,70.84915,73.492388,71.991211,66.640766,283.188847,-78.598011,280.98663
99,-11.06345,2.366424,3.063343,2.780806,-19.635378,-39.781711,-55.662328,-69.218296,-59.756956,-69.696361,-56.94469,-46.377788,-59.570051,-65.633205,-46.433818,-27.863651,-57.823826,-62.171848,-43.117241,-25.417694,-54.941145,-64.040828,-58.23698,-50.647968,29.371682,45.856899,57.071744,66.439689,38.258449,53.31123,59.952814,62.061856,29.180602,46.852384,55.709289,57.577535,19.489572,36.036528,46.139519,50.075138,8.689722,20.311433,28.456763,34.027478,28.293892,54.540539,76.279347,94.315464,55.627316,87.852688,104.029415,114.741772,44.570126,80.587956,99.571896,111.953625,33.644119,66.735088,84.841015,97.208279,23.607456,47.907452,62.394001,73.123341,-12.520402,-8.026566,4.101672,13.442398,20.264262,38.846295,45.520168,49.774191,37.670011,55.477175,61.263016,63.271325,48.78821,67.150757,71.810332,71.839281,54.696341,71.005774,73.868906,72.385821,55.647331,285.479725,-75.464653,283.69189
100,-18.465339,0.665484,2.339138,1.405896,-15.307394,-30.599591,-43.132365,-55.27509,-48.466639,-49.851391,-32.454289,-19.319882,-48.360186,-44.792153,-23.908505,-4.812458,-46.793164,-41.313961,-20.24762,-2.324776,-44.064303,-44.877675,-35.275761,-25.562977,28.572002,45.990663,57.913822,66.833261,37.66756,54.236869,61.531698,64.007291,28.312836,48.029458,57.705235,60.232815,18.509915,37.790425,48.104343,52.50598,8.232806,23.114173,31.860953,37.851694,27.873802,53.997826,75.370972,92.79657,54.69968,87.000366,103.061028,113.8927,43.241158,79.306458,97.975021,110.249703,32.026508,65.455582,83.505638,95.72255,21.809635,46.438225,61.058476,71.944908,-12.53847,-8.039224,4.31402,14.022099,20.028932,39.067707,45.869738,49.931322,37.475671,55.525477,61.185939,63.076613,48.591054,67.279433,71.827487,71.640272,54.397964,71.062807,73.953282,72.305595,37.268864,286.096979,-73.038643,285.049556
101,-11.158883,0.065678,1.542206,0.604685,-14.071569,-27.807918,-39.337755,-52.000018,-43.951726,-40.328258,-21.778598,-8.295032,-43.434637,-33.404754,-11.913722,7.186261,-41.017582,-28.966541,-6.708114,11.292618,-37.136838,-31.544082,-18.239112,-5.967247,29.947912,49.334781,61.707718,70.412772,40.430409,57.292946,64.332944,66.434934,29.001402,49.701412,59.116961,61.075918,16.53747,37.298792,47.32604,51.525667,3.845118,19.782874,28.338956,33.993923,27.4254,53.555408,74.733925,91.633507,53.788753,86.2771,102.233299,113.123474,42.17466,78.517799,97.064484,109.339394,30.953762,64.937805,83.021805,95.123039,20.818508,46.124096,60.82584,71.661026,-12.695835,-8.48652,3.791994,13.576334,19.327657,38.438186,45.238179,49.123416,36.951162,55.031411,60.553516,62.34455,48.233914,66.821936,71.19967,70.864958,54.213824,70.834305,73.724014,72.024211,26.18922,286.125591,-71.417198,285.617175
102,-16.38834,1.763147,0.589222,0.082486,-9.054044,-16.918281,-23.395963,-32.879745,-32.090898,-20.590679,-1.051231,11.786179,-33.222982,-15.277049,6.792321,25.240769,-31.973236,-14.124881,8.182377,25.345356,-28.587907,-21.820392,-11.309486,-2.270896,22.572752,39.843867,52.77867,62.46111,33.718794,51.452814,59.475792,63.139018,26.798728,47.519634,57.077987,59.303472,18.161321,38.849099,48.637138,52.863836,9.012936,24.258087,32.654322,38.488316,27.319313,53.533584,74.603039,90.893978,53.227077,85.738209,101.550968,112.343662,41.54163,78.003445,96.357296,108.467136,30.35646,64.636333,82.670139,94.532238,20.305183,45.817062,60.534439,71.224422,-12.774345,-8.9958,3.129659,13.429159,18.617638,37.567061,44.380454,48.189404,36.319394,54.285269,59.707252,61.492814,47.697019,66.007893,70.257408,69.869505,53.796305,70.167389,73.017121,71.287282,9.882207,287.869871,-70.746649,285.680794
103,-13.250175,-1.883252,0.50077,0.279915,-7.351885,-12.970024,-18.134417,-27.909588,-25.217611,-9.483662,11.246864,24.219658,-26.084719,-2.285168,20.57254,38.949394,-24.622204,-0.962345,22.693096,39.878483,-21.332663,-9.872234,2.580872,12.5839,23.59524,42.551091,56.219131,66.077214,35.767833,54.111269,62.0681,65.680184,27.745658,49.947858,59.242994,60.881158,17.77264,40.207941,49.78283,53.821869,7.559788,24.352306,33.05796,39.20094,27.042126,53.279377,74.313389,90.159794,52.674088,85.163899,100.891079,111.483273,41.060074,77.598507,95.863049,107.561726,29.971653,64.533383,82.402554,93.785077,20.073178,45.884537,60.579747,70.977253,-12.97948,-9.5972,2.476599,13.174092,17.72574,36.623342,43.300587,46.907959,35.594963,53.421245,58.56514,60.101071,47.188442,65.231752,69.125745,68.50398,53.482316,69.528531,72.068547,70.097931,-3.286594,285.959418,-70.164505,285.933508
104,0.135487,-0.554827,0.271386,0.390534,-8.79332,-15.87394,-22.527718,-33.969235,-28.857136,-12.798523,9.110721,23.273014,-29.442696,-4.516011,19.162616,38.126484,-27.117348,-2.104203,22.370807,39.984249,-22.85542,-10.448445,2.711288,13.457496,25.043349,44.587391,58.077818,67.591371,36.797404,55.218033,63.0911,66.832323,27.875581,50.4263,59.690072,61.239328,16.908819,39.807193,49.419497,53.530691,5.985158,22.947342,31.757113,38.321453,26.775329,53.01337,73.992336,89.434558,52.116417,84.566951,100.245723,110.715442,40.594265,77.247768,95.458912,106.855648,29.63134,64.514545,82.278659,93.225162,19.910041,46.120536,60.879512,71.045642,-13.105253,-10.059266,1.927762,12.824363,16.89085,35.584367,42.228513,45.794316,34.914634,52.530964,57.417188,58.754146,46.757857,64.536677,68.062169,67.219127,53.31228,69.042802,71.250787,69.025216,-3.06966,285.367858,-69.811672,286.287309
105,3.194412,2.557764,0.175094,0.180534,-8.900425,-16.899468,-24.012829,-35.247265,-32.478996,-14.081497,8.108631,22.885998,-33.839127,-7.689228,16.300609,35.102451,-31.544449,-6.815346,17.000828,34.382343,-26.64711,-17.247528,-7.219002,1.221348,20.996646,38.441978,51.951362,62.317614,32.658199,50.729112,58.784082,63.298754,26.915337,47.458723,56.312843,58.317805,18.972542,39.593561,48.413484,52.24732,10.763862,26.302069,34.218904,40.197258,26.473984,52.60754,73.587628,88.881947,51.505909,83.875637,99.623005,110.183315,40.089489,76.790692,95.026371,106.263142,29.266194,64.329678,82.033917,92.737919,19.713089,46.203003,61.064678,71.254566,-13.063387,-10.196414,1.694147,12.632096,16.391819,34.881523,41.55447,45.226532,34.409379,51.863417,56.635921,57.932927,46.388626,64.021481,67.32535,66.397822,53.101575,68.772347,70.853447,68.583885,0.207802,287.875768,-69.553528,286.417989
106,1.118271,0.478775,0.097664,0.3079,-9.074101,-17.511818,-25.134705,-36.753891,-33.019741,-14.796582,7.274997,22.093357,-34.550045,-8.767296,15.0546,33.644886,-32.431984,-8.314362,15.218754,32.310093,-27.670063,-19.606591,-9.950226,-1.589962,20.556243,37.520847,51.020377,61.241799,31.487956,49.411519,57.396514,62.157508,26.32514,46.600949,55.31287,57.398169,19.017905,39.230086,47.679309,51.291374,11.507301,26.659098,34.231267,40.078339,26.231781,52.133606,73.066074,88.418919,50.879047,83.219341,99.075474,109.70612,39.642723,76.42654,94.744595,105.900616,28.969334,64.201046,81.946369,92.565228,19.552483,46.292038,61.225285,71.41618,-13.101277,-10.373181,1.413442,12.242784,15.970521,34.121449,40.76835,44.463915,33.948696,51.121523,55.774219,57.044697,46.030449,63.467221,66.571464,65.584062,52.819573,68.434535,70.3517,67.976582,1.397673,288.302596,-69.384264,286.673942
107,2.721622,1.871495,0.158901,0.233046,-10.539287,-21.433925,-31.297062,-44.817089,-35.953331,-17.587463,4.166794,19.155647,-36.670372,-11.08398,12.29448,30.583992,-33.726265,-10.152351,12.981171,29.885468,-28.341442,-21.815517,-13.376987,-6.05072,21.399234,38.301434,51.363671,61.462704,32.589879,48.960765,55.920753,59.898616,26.317717,44.977876,52.307428,53.757117,18.003184,36.770678,43.987449,47.027446,9.655047,24.229367,31.407062,37.064931,25.786434,51.459584,72.284088,87.749817,50.223919,82.521378,98.536629,109.386498,39.140614,75.927269,94.314354,105.486466,28.642708,63.861557,81.693489,92.425988,19.376679,46.216942,61.19513,71.433586,-13.217479,-10.642091,0.985289,11.685079,15.604032,33.451445,39.928705,43.468795,33.574205,50.562188,54.965363,56.000929,45.731898,63.071389,65.932186,64.743639,52.553243,68.157177,69.938998,67.424879,4.196749,290.133332,-69.147909,286.866229
108,7.701988,1.077927,0.255558,0.117708,-12.669731,-26.594318,-39.066593,-54.215091,-43.549324,-26.598621,-4.313964,11.666016,-44.055233,-20.473297,3.335839,22.295701,-40.324447,-18.939445,4.111863,21.356369,-33.831584,-29.732494,-21.910869,-14.549995,21.869452,38.047936,50.331452,59.920797,31.215945,47.567899,54.603049,58.664559,25.08466,43.299192,50.655333,52.049731,17.035358,35.416912,42.511046,45.353899,9.218163,23.3339,30.381376,36.05614,25.326348,50.864525,71.614071,86.990902,49.622315,81.905331,98.053608,109.043599,38.578766,75.404629,93.844838,105.129353,28.14996,63.34132,81.307492,92.30064,18.951233,45.814431,60.833393,71.181851,-13.387267,-10.890784,0.655913,11.295027,15.308817,32.944191,39.306706,42.741437,33.294439,50.177619,54.474966,55.428356,45.497518,62.775333,65.566365,64.321897,52.307329,67.938915,69.712547,67.199725,11.98899,291.178266,-68.802098,286.950944
109,-0.070747,2.644276,0.119397,0.210964,-12.081665,-26.126781,-38.495487,-53.057545,-43.598568,-24.636177,-3.1474,12.184914,-43.474354,-18.966087,4.275925,22.929634,-39.361175,-17.883957,4.438431,21.137604,-32.396118,-29.939907,-24.532505,-19.30481,20.093374,35.218471,47.173758,56.837117,29.456342,44.77457,51.190894,55.476558,23.608998,39.952715,46.694439,48.704687,15.865781,32.376334,38.896227,42.033876,8.266219,21.349007,28.166784,33.94661,25.023456,50.457309,71.114799,86.414199,49.25465,81.432083,97.63401,108.675659,38.240455,74.969329,93.405212,104.727378,27.834835,62.834014,80.867317,92.084152,18.646236,45.361084,60.372962,70.818603,-13.585881,-11.12798,0.359388,10.866677,15.156664,32.467515,38.62187,41.875956,33.126379,49.666672,53.858994,54.812185,45.275625,62.308389,65.047316,63.874738,51.967085,67.496078,69.197981,66.712922,12.04208,293.783263,-68.558864,287.122629
110,-0.131401,4.533679,0.07228,0.26896,-10.221886,-22.885014,-33.578396,-45.731609,-41.079529,-23.477623,-2.471626,12.468498,-41.650944,-18.950066,4.046997,22.932747,-38.375782,-18.709396,3.399193,20.234047,-32.183533,-32.398201,-29.308033,-25.987701,14.955616,26.194981,36.131277,45.208094,23.170705,37.362766,44.046284,48.667673,19.635321,35.503609,42.192772,44.551255,14.12406,29.642556,35.975407,39.28413,8.575613,19.936071,26.438451,32.258328,24.687539,49.988938,70.572121,85.971726,48.881916,81.025452,97.303093,108.403771,37.965878,74.654549,93.137032,104.530289,27.637986,62.547158,80.664254,92.096146,18.525284,45.236824,60.239159,70.753807,-13.923495,-11.406523,0.048178,10.30481,14.904537,32.004004,38.071451,41.246163,32.893222,49.16285,53.313651,54.28028,45.036305,61.875037,64.590598,63.465728,51.647082,67.089365,68.712561,66.215424,12.056179,298.288512,-68.341084,287.363159
111,-0.29464,0.212112,0.147068,0.210569,-9.844688,-22.390171,-33.040798,-44.951763,-41.183258,-22.755203,-1.546142,13.489769,-42.141597,-18.571735,4.598191,23.66858,-39.152252,-19.123397,3.194321,20.175911,-33.070037,-33.863594,-31.157695,-28.003898,14.441495,25.412407,35.45253,44.632716,22.259418,36.680647,43.343158,47.967177,19.415565,35.096551,41.621173,43.973642,14.597835,29.913752,35.968677,39.206559,9.738485,21.145675,27.758848,33.793605,24.272221,49.523346,70.052136,85.482434,48.592106,80.641262,96.931767,108.054142,37.766293,74.431424,92.888157,104.206021,27.523316,62.395878,80.474179,91.915593,18.513623,45.282029,60.273663,70.806302,-14.250031,-11.755697,-0.311839,9.838582,14.619015,31.496033,37.517241,40.700858,32.675453,48.728288,52.800394,53.733307,44.824143,61.463508,64.103548,62.960091,51.373577,66.7086,68.275838,65.756631,11.926414,298.483473,-68.029141,287.556577
112,-0.509422,0.372059,0.019433,0.022095,-9.090797,-21.143795,-31.225193,-42.468761,-40.488808,-22.366928,-1.497642,13.270592,-41.703277,-18.283665,4.862755,24.210938,-38.965553,-18.908638,3.602326,20.809708,-33.164635,-33.500622,-30.22158,-26.556026,13.335075,23.766214,33.885699,43.269045,20.756722,35.265327,42.1029,46.761895,18.225325,34.376639,41.248151,43.932936,13.802699,29.602974,35.912397,39.263666,9.2285,20.607693,27.218025,33.338183,24.063606,49.209411,69.739414,85.147327,48.350303,80.319477,96.665256,107.880329,37.632339,74.233829,92.691112,104.058872,27.440391,62.201763,80.256649,91.751712,18.481304,45.152412,60.168857,70.837932,-14.374632,-11.869986,-0.438441,9.6311,14.517299,31.228653,37.244724,40.504491,32.535168,48.336197,52.475018,53.560306,44.659762,61.121163,63.834537,62.857634,51.177345,66.484334,68.032664,65.56219,11.596098,298.842848,-67.830602,287.565988
113,-3.913399,-0.812771,0.074089,0.230662,-7.905395,-18.505451,-27.471611,-38.086773,-36.890293,-17.148468,3.416565,17.426743,-38.58126,-13.134521,9.642311,28.211655,-36.459858,-14.972236,7.558594,24.085328,-31.25449,-31.681171,-29.18589,-26.48061,12.02625,22.632267,33.595101,43.421802,21.037957,35.865713,42.419791,46.911553,19.465434,35.477933,41.802274,44.224126,15.803721,31.293873,36.991868,40.071855,11.772308,23.116464,29.631972,35.900158,23.892814,48.840877,69.315799,84.795124,48.012291,79.9491,96.339855,107.560306,37.426425,74.026119,92.480289,103.736446,27.351825,62.122364,80.143283,91.568286,18.516746,45.278949,60.325824,71.041614,-14.487301,-12.084111,-0.72658,9.213804,14.241967,30.823879,36.806494,40.102755,32.276829,47.857767,51.9926,53.189977,44.440709,60.673201,63.359196,62.490293,50.978077,66.122934,67.634596,65.193615,7.870708,298.022809,-67.568504,287.789382
