takenoko1/special-research/HandMotion_SimilarSearch_自分用/NewProject/handData_new/key/d3_feature/51.csv
,vel_0x_L,vel_0y_L,vel_0x_R,vel_0y_R,posFromWrist_1x_L,posFromWrist_2x_L,posFromWrist_3x_L,posFromWrist_4x_L,posFromWrist_5x_L,posFromWrist_6x_L,posFromWrist_7x_L,posFromWrist_8x_L,posFromWrist_9x_L,posFromWrist_10x_L,posFromWrist_11x_L,posFromWrist_12x_L,posFromWrist_13x_L,posFromWrist_14x_L,posFromWrist_15x_L,posFromWrist_16x_L,posFromWrist_17x_L,posFromWrist_18x_L,posFromWrist_19x_L,posFromWrist_20x_L,posFromWrist_1y_L,posFromWrist_2y_L,posFromWrist_3y_L,posFromWrist_4y_L,posFromWrist_5y_L,posFromWrist_6y_L,posFromWrist_7y_L,posFromWrist_8y_L,posFromWrist_9y_L,posFromWrist_10y_L,posFromWrist_11y_L,posFromWrist_12y_L,posFromWrist_13y_L,posFromWrist_14y_L,posFromWrist_15y_L,posFromWrist_16y_L,posFromWrist_17y_L,posFromWrist_18y_L,posFromWrist_19y_L,posFromWrist_20y_L,posFromWrist_1x_R,posFromWrist_2x_R,posFromWrist_3x_R,posFromWrist_4x_R,posFromWrist_5x_R,posFromWrist_6x_R,posFromWrist_7x_R,posFromWrist_8x_R,posFromWrist_9x_R,posFromWrist_10x_R,posFromWrist_11x_R,posFromWrist_12x_R,posFromWrist_13x_R,posFromWrist_14x_R,posFromWrist_15x_R,posFromWrist_16x_R,posFromWrist_17x_R,posFromWrist_18x_R,posFromWrist_19x_R,posFromWrist_20x_R,posFromWrist_1y_R,posFromWrist_2y_R,posFromWrist_3y_R,posFromWrist_4y_R,posFromWrist_5y_R,posFromWrist_6y_R,posFromWrist_7y_R,posFromWrist_8y_R,posFromWrist_9y_R,posFromWrist_10y_R,posFromWrist_11y_R,posFromWrist_12y_R,posFromWrist_13y_R,posFromWrist_14y_R,posFromWrist_15y_R,posFromWrist_16y_R,posFromWrist_17y_R,posFromWrist_18y_R,posFromWrist_19y_R,posFromWrist_20y_R,posFromBody_0x_L,posFromBody_0y_L,posFromBody_0x_R,posFromBody_0y_R
6,0.216659,2.760169,0.114178,-0.171753,-17.138328,-35.155803,-49.215145,-59.740207,-58.07761,-53.815578,-33.405716,-16.518242,-59.357872,-52.346615,-29.428161,-7.67926,-56.546734,-51.315262,-29.796547,-10.597091,-51.262768,-50.287193,-36.879776,-24.339432,-2.905814,0.253856,9.306281,18.169948,11.061981,23.038783,28.398113,31.305026,19.892439,31.185663,36.396829,37.772666,25.962084,36.451725,37.942553,37.170229,29.550907,39.09757,38.385909,37.175835,24.337291,48.420994,68.613029,84.962093,48.419014,81.094562,98.274845,110.530117,39.403244,75.384693,94.96281,107.771312,31.067814,64.599918,83.223804,95.878223,24.024376,50.557754,65.783878,77.570217,-15.172409,-12.83591,-1.772372,7.451027,16.7858,31.20856,35.732617,37.98116,34.011868,47.138906,50.054588,50.594336,45.17349,59.209704,61.809841,61.268265,51.160698,65.385918,67.396635,66.188167,36.032615,305.83857,-73.806759,294.911674
7,4.184693,-3.58182,0.225231,0.025935,-21.393929,-42.136677,-57.7771,-70.051758,-65.664906,-63.550301,-41.577118,-23.314339,-65.608487,-59.997895,-36.04525,-13.314125,-61.388295,-57.082741,-34.125298,-13.647835,-54.81601,-54.185933,-39.359551,-25.76001,1.764518,7.987576,18.700371,28.874085,15.654866,29.160755,34.876065,37.696638,22.498627,35.145432,41.067445,42.281347,26.787069,39.021481,40.808439,39.551979,28.736777,39.731537,39.248389,38.064769,24.168045,48.180473,68.36261,84.758102,48.059612,80.836624,98.036568,110.34034,39.131813,75.06237,94.596382,107.387558,30.904438,64.376781,82.957809,95.607925,23.980339,50.55003,65.696045,77.398498,-15.137644,-12.811197,-1.726343,7.553484,16.805029,31.182279,35.668076,37.976862,34.038618,47.139944,50.005398,50.550691,45.222655,59.25183,61.839889,61.30166,51.197539,65.407803,67.329081,66.038534,40.196154,302.249417,-73.602682,294.930276
8,-5.474076,4.960448,0.056442,0.07688,-16.114334,-32.720192,-46.052307,-56.307426,-55.220329,-50.875431,-31.04338,-14.596069,-57.112896,-50.135662,-27.939285,-6.677581,-55.16201,-50.15578,-29.282226,-10.398742,-50.795425,-50.206329,-36.867302,-24.219612,-4.184023,-1.841706,6.72604,15.401108,8.728853,20.409486,25.859232,28.830069,18.273577,29.258617,34.500881,36.030501,25.091168,35.419505,36.788536,35.888549,29.391504,38.833759,37.861326,36.366003,24.074558,48.028919,68.247013,84.542633,47.99445,80.736878,97.878731,110.201935,39.113835,74.807991,94.237152,107.022469,30.933472,64.127884,82.672119,95.339813,24.039002,50.460835,65.564037,77.245972,-15.105225,-12.938564,-1.930232,7.504799,16.743822,31.102534,35.580093,37.915222,33.926911,47.013589,49.872275,50.388509,45.09451,59.140654,61.811508,61.292928,51.042841,65.294058,67.233564,65.911402,34.717106,307.174683,-73.551212,294.971974
9,0.958626,-1.327338,0.109783,0.010757,-18.078735,-35.804912,-50.11964,-61.035496,-58.245747,-55.55381,-34.802925,-17.430221,-59.609619,-53.629394,-30.788589,-8.749123,-57.080635,-52.696049,-31.039856,-11.325188,-52.157272,-51.938461,-37.910271,-24.405807,-2.701778,0.033284,8.600943,17.82869,9.975026,22.56617,28.633493,31.834746,18.815412,30.860818,37.045122,38.645199,24.794001,35.969936,38.089581,37.290543,28.388789,38.265384,37.669394,36.220729,23.93739,47.802052,67.976715,84.205685,47.831898,80.565777,97.75034,110.163769,38.950344,74.519268,93.94154,106.768421,30.792092,63.881527,82.407406,95.095562,23.925213,50.2916,65.383587,77.092083,-15.047328,-12.967661,-2.071937,7.272494,16.714157,31.055628,35.614253,38.048306,33.913215,46.932239,49.879105,50.468574,45.112554,59.110088,61.837393,61.368683,51.061774,65.320833,67.248878,65.899459,35.68055,305.812632,-73.436611,294.948018
10,-4.635979,3.187112,0.263935,0.214533,-13.671341,-27.961795,-39.808925,-48.482471,-50.932411,-45.708881,-26.353065,-10.437355,-53.85712,-45.98188,-24.082557,-3.187065,-52.84362,-47.018291,-26.438415,-7.964538,-49.304351,-47.859466,-34.500526,-22.001449,-6.98575,-6.422364,1.195784,8.947252,5.967782,16.936989,22.467245,25.742252,16.821948,27.209603,32.717603,34.714933,24.54427,34.108334,35.576697,35.067046,29.677322,38.430529,37.278118,35.717204,23.656334,47.457482,67.71539,84.067795,47.480347,80.350823,97.558091,109.97255,38.650452,74.347985,93.729561,106.456124,30.566597,63.779515,82.279999,94.907708,23.814114,50.307599,65.366307,77.019104,-15.118292,-13.206215,-2.413515,6.961655,16.643922,30.890125,35.411688,37.898105,33.902112,46.708987,49.568674,50.140779,45.135093,58.94493,61.563493,61.042048,51.056599,65.193343,67.01093,65.593029,31.050178,308.957377,-73.167069,295.120184
11,1.565689,-2.140801,0.070542,0.218473,-16.413757,-32.522277,-46.019199,-56.473285,-55.190002,-51.932819,-31.293605,-14.21807,-56.966709,-50.178588,-27.144927,-5.070419,-54.972564,-49.671226,-27.924018,-8.222236,-50.600624,-49.600376,-35.679862,-22.176177,-0.256375,2.787204,10.099787,18.247976,11.518799,23.026149,28.902627,32.319845,18.71907,30.074254,36.493061,38.485673,22.890903,33.657927,36.347417,36.291879,24.78795,34.404292,34.532202,33.851885,23.524521,47.444378,67.80788,84.171798,47.388027,80.21505,97.384849,109.767769,38.539078,74.269638,93.61457,106.295151,30.465271,63.685753,82.183571,94.802765,23.753551,50.28083,65.311134,76.926361,-15.316881,-13.46406,-2.599174,6.899299,16.368021,30.651719,35.239688,37.823226,33.669042,46.473792,49.389474,50.034531,44.966477,58.756233,61.390506,60.896922,50.917364,65.016589,66.826926,65.425895,32.62572,306.793392,-73.086674,295.315473
12,-0.287979,0.414445,0.153122,0.107297,-15.49546,-31.557312,-44.628009,-54.712497,-53.752006,-49.295654,-29.413936,-13.041,-55.712997,-48.369049,-25.779373,-4.078514,-53.926277,-48.392086,-27.085853,-7.791023,-49.570415,-48.678497,-35.512893,-22.592422,-0.589507,2.733147,10.907889,18.946113,10.775002,22.072252,27.925413,31.469541,17.972939,29.243402,35.318074,37.605655,22.459328,33.369058,35.884473,36.061598,24.627521,34.487703,34.835235,34.519221,23.363399,47.303432,67.726616,84.239685,47.060829,80.026725,97.256881,109.656418,38.243751,74.192733,93.589714,106.221336,30.239227,63.669044,82.230674,94.827942,23.636867,50.299404,65.34621,76.949386,-15.4203,-13.538666,-2.625911,6.890692,16.300541,30.554635,35.109333,37.711063,33.665337,46.343907,49.207459,49.836041,45.001762,58.658236,61.173948,60.611414,50.934902,64.936956,66.688605,65.240286,32.351657,307.190034,-72.919636,295.404967
13,-0.061065,1.145914,0.001968,0.212595,-15.647484,-32.080742,-45.313305,-55.961048,-52.977917,-48.87513,-29.279766,-13.392563,-54.014637,-47.252243,-25.577065,-4.982781,-51.551892,-46.711716,-26.531845,-8.34684,-46.7986,-46.796528,-35.223473,-23.857086,0.219511,3.319295,10.553763,17.369391,11.177541,21.81873,27.024253,30.301706,17.818588,28.224113,33.828679,36.038393,21.735676,32.01465,34.471723,34.853971,23.371642,32.757161,33.256043,33.152969,23.256386,47.363125,67.876648,84.487633,46.872734,79.93261,97.192726,109.556168,38.016392,74.3069,93.795593,106.48732,30.049553,63.787834,82.471985,95.164307,23.581261,50.484764,65.589672,77.219422,-15.695127,-13.839416,-2.895218,6.74638,15.941968,30.264321,34.760468,37.342228,33.367983,46.134399,48.925691,49.549975,44.79449,58.555408,60.994685,60.388519,50.810709,64.771662,66.497623,65.096938,32.30793,308.331678,-72.90033,295.613292
14,0.1073,-0.055093,0.034126,0.036926,-15.392304,-31.866314,-45.476452,-56.677975,-52.565461,-48.675728,-29.058003,-13.158875,-53.875283,-47.068486,-25.118432,-4.385651,-51.670029,-46.801758,-26.389847,-8.095253,-47.272717,-47.115166,-35.388268,-23.861413,2.194029,5.70759,12.905119,19.888807,12.048518,22.787174,28.028104,31.243374,17.912547,28.392765,33.976842,36.075158,21.106006,31.559338,34.130934,34.558754,22.002486,31.774687,32.513234,32.448137,23.169159,47.426388,68.049431,84.681519,46.579308,79.811875,97.171074,109.524285,37.7333,74.385567,94.047318,106.848977,29.834851,63.86134,82.719407,95.496117,23.478527,50.486069,65.655236,77.331986,-15.73519,-13.870229,-2.917311,6.835425,15.852258,30.136795,34.592297,37.189939,33.301973,46.135289,48.89599,49.533699,44.751574,58.597906,60.999453,60.364375,50.779501,64.744591,66.54716,65.240756,32.438456,308.282217,-72.842978,295.65585
15,1.333602,-1.094588,-0.109497,0.002446,-16.62371,-34.279369,-48.750572,-60.780521,-54.726688,-51.060104,-30.959346,-14.636558,-55.36774,-48.723896,-26.417587,-5.32798,-52.514442,-47.851501,-27.245979,-8.649009,-47.558281,-47.8026,-36.502876,-25.085998,4.285293,9.111668,17.031134,24.370961,14.237928,25.395808,30.545125,33.696113,18.854438,29.608495,35.121967,37.188296,20.941565,31.758298,34.4921,34.950227,20.835145,30.857805,32.032804,32.409444,23.159729,47.702545,68.415207,84.881012,46.703877,79.935059,97.287735,109.612084,37.779396,74.518364,94.218041,107.074929,29.819275,63.91,82.839821,95.678536,23.440247,50.467209,65.656632,77.363228,-15.816479,-13.980503,-2.978852,7.017601,15.704871,30.041699,34.487432,37.076108,33.176335,46.150998,48.943166,49.615233,44.663085,58.647627,61.082853,60.449664,50.740968,64.781073,66.652234,65.43848,33.79739,307.197527,-72.927143,295.668194
16,-0.195442,0.294549,-0.099357,-0.150572,-16.257019,-33.805733,-48.368614,-60.461654,-54.001179,-50.531696,-30.668747,-14.492821,-54.797333,-48.298404,-26.153961,-5.241966,-52.114551,-47.612537,-27.088783,-8.615616,-47.419109,-47.531124,-36.170448,-24.829971,4.311105,9.039124,16.865088,24.122478,14.278684,25.513257,30.584399,33.606464,18.798468,29.543188,34.990081,37.011246,20.771357,31.546606,34.226278,34.671103,20.483229,30.625426,31.760929,32.01996,23.15879,47.84507,68.662674,85.096824,46.714885,80.06781,97.506202,109.871246,37.754402,74.630035,94.468803,107.500053,29.739761,63.90295,83.001411,95.963791,23.307712,50.286026,65.563236,77.417862,-15.633747,-13.815309,-2.847435,7.281127,15.849095,30.101275,34.430202,36.952051,33.262588,46.310042,49.086452,49.778847,44.683907,58.80241,61.289247,60.673707,50.731656,64.906697,66.938311,65.851195,33.625751,307.499277,-73.002697,295.524823
17,-2.054283,1.438587,-0.269566,-0.070581,-14.47126,-30.537758,-44.61589,-56.298546,-51.413109,-46.982952,-27.396194,-11.79007,-52.830803,-45.381363,-23.362152,-2.92186,-50.672207,-45.40559,-25.323463,-7.533874,-46.554165,-45.895145,-34.657677,-23.71962,2.918671,6.757138,13.830499,20.513746,13.004674,23.744256,28.403103,31.315054,18.203639,28.257384,33.303899,35.314863,20.507386,30.432456,32.659806,33.078634,20.393321,29.905898,30.641147,30.784581,23.246704,48.144219,69.068836,85.418301,46.986992,80.382237,97.889774,110.2477,37.954548,74.89587,94.806713,107.901867,29.861675,64.068844,83.210003,96.162312,23.373493,50.370014,65.712902,77.615925,-15.555164,-13.802983,-2.920078,7.305123,15.775094,30.058742,34.343591,36.797614,33.155031,46.378375,49.191551,49.925727,44.587206,58.894505,61.439363,60.853709,50.692506,64.980242,67.093539,66.098345,31.609005,308.944551,-73.234726,295.460929
18,5.153664,-5.818482,-0.139309,-0.145039,-19.076477,-38.572609,-55.112274,-68.979378,-61.556271,-59.625172,-37.533932,-19.614876,-62.426377,-56.067524,-31.173271,-8.034783,-59.171757,-54.274967,-30.807633,-10.157914,-53.798287,-52.581379,-38.157463,-24.324921,10.749833,19.118805,28.881495,38.020902,20.393901,33.432785,39.389353,42.816032,22.247426,34.825763,41.462969,43.610574,21.404805,33.956972,37.277909,37.708544,18.329906,29.943825,31.623732,32.421115,23.338154,48.405293,69.45916,85.606819,47.173657,80.686341,98.275017,110.650635,38.128086,75.056465,95.011368,108.085648,29.979412,64.165501,83.289734,96.132294,23.41135,50.343888,65.696022,77.594605,-15.34972,-13.661563,-2.823847,7.507392,15.967335,30.192444,34.459002,36.895438,33.341381,46.586659,49.463895,50.247718,44.722377,59.00852,61.591083,61.028043,50.784353,65.07966,67.229328,66.239308,36.805075,303.131111,-73.331629,295.320932
19,-2.9095,2.233661,-0.24226,-0.135901,-17.020935,-34.9235,-49.855454,-62.188729,-57.720589,-53.479866,-32.297024,-15.332818,-58.907731,-51.014214,-26.859055,-4.378716,-55.926384,-49.887566,-27.370263,-7.56839,-50.840115,-48.930188,-35.427773,-22.615265,6.520214,13.585177,23.351116,32.111894,17.074717,29.197744,34.703386,38.227099,20.764181,32.170742,38.176871,40.6222,21.748285,33.099258,35.773582,36.239439,20.283973,30.988431,32.210497,33.021934,23.536251,48.734677,69.856968,85.827496,47.509701,80.986714,98.500935,110.8373,38.401451,75.208294,95.121769,108.17078,30.149185,64.240872,83.324833,96.115391,23.46167,50.350411,65.727402,77.648083,-15.282004,-13.642876,-2.769333,7.694633,16.003286,30.297704,34.561286,36.955115,33.410061,46.714249,49.658422,50.478368,44.782177,59.059502,61.720105,61.199623,50.849414,65.168693,67.3491,66.350818,33.956841,305.364142,-73.512623,295.184401
20,2.790824,-1.949411,-0.215423,-0.199651,-19.743324,-39.783474,-56.594055,-70.714313,-62.545429,-61.016979,-38.749443,-20.493255,-62.982193,-56.985614,-31.934074,-8.447776,-59.279892,-54.480457,-30.839469,-9.853523,-53.470882,-52.300632,-37.652893,-23.464347,12.364112,21.058644,30.438556,39.202817,20.556774,33.528757,39.909143,43.750438,21.383501,34.04667,41.316052,43.95545,19.750758,32.507491,36.496012,37.499926,16.01261,27.641917,29.864389,31.244967,23.675331,48.901794,70.048381,85.900646,47.680904,81.148075,98.676441,111.020633,38.568489,75.336902,95.312244,108.449215,30.251815,64.309616,83.410686,96.23093,23.467472,50.304439,65.727813,77.76044,-15.164148,-13.52812,-2.649142,7.80482,16.164183,30.443175,34.70388,37.056447,33.52483,46.894016,49.896333,50.749082,44.829403,59.158549,61.906727,61.445624,50.859096,65.237569,67.522692,66.579924,36.819602,303.412517,-73.656109,294.982536
21,-2.540817,1.495064,-0.186859,-0.182806,-17.253708,-35.271091,-50.31459,-62.756779,-58.822735,-55.055385,-33.418556,-16.05455,-60.268776,-52.780346,-28.232757,-5.285339,-57.392086,-51.678989,-28.804298,-8.525253,-52.258117,-50.692314,-36.784389,-23.412323,6.156306,12.828216,22.661499,31.21282,15.998642,28.760538,34.863566,38.830264,20.157804,32.013451,38.617756,41.552247,21.634763,33.262007,36.395248,37.245057,20.666344,31.575011,32.968224,33.882401,23.79673,49.099834,70.259639,85.943721,47.871459,81.241825,98.714687,111.02798,38.764034,75.436992,95.399974,108.550266,30.394626,64.413906,83.462322,96.231159,23.521362,50.361877,65.798458,77.846225,-15.153193,-13.514806,-2.575882,7.945215,16.25135,30.56039,34.876484,37.241735,33.622395,47.060792,50.130676,51.022537,44.943333,59.294474,62.102698,61.680782,51.009891,65.426896,67.729383,66.778204,34.368107,304.912481,-73.753646,294.80463
22,2.458122,-1.599793,-0.228711,-0.100789,-20.150939,-39.873069,-56.09563,-69.763847,-62.683834,-61.748931,-39.091712,-20.450637,-63.251346,-57.867267,-32.57254,-8.693985,-59.72842,-55.46379,-31.583519,-10.109939,-54.223926,-53.596744,-38.906078,-24.454353,8.909967,16.334985,25.867865,35.154448,18.749982,31.899633,38.602566,42.872644,21.558514,33.984722,41.474491,44.402165,21.74127,33.955823,37.961214,39.014306,19.720809,31.105128,32.934237,33.936433,24.021389,49.356537,70.496109,85.993836,48.121514,81.35241,98.752533,111.044449,38.997094,75.591751,95.546059,108.755677,30.554879,64.502346,83.529419,96.314804,23.555306,50.370781,65.797119,77.860932,-15.160245,-13.531331,-2.53094,8.056811,16.301059,30.613038,34.985647,37.363717,33.66257,47.146625,50.294154,51.215001,44.974752,59.345357,62.244625,61.872801,51.081139,65.527462,67.869495,66.930481,36.912448,303.321139,-73.896138,294.712292
23,-3.122222,2.494383,-0.220493,-0.118808,-16.390526,-33.232888,-46.974003,-58.01548,-57.279076,-53.606713,-31.892292,-14.444504,-59.015637,-51.835671,-27.185418,-4.22699,-56.469944,-51.25803,-28.609772,-8.362977,-51.712761,-50.665524,-37.271439,-24.141175,2.051645,6.496811,15.423438,24.112647,13.719657,26.100356,32.210682,36.361681,19.966514,31.202595,37.595182,40.522127,23.380806,34.113855,37.012518,37.816731,24.292094,34.455038,35.286619,35.717748,24.155674,49.444393,70.556065,86.07906,48.246998,81.411289,98.749294,111.019672,39.088623,75.686726,95.619564,108.843761,30.59166,64.55896,83.569073,96.353176,23.507458,50.336346,65.769447,77.87701,-15.127566,-13.503481,-2.474215,8.102877,16.372677,30.74469,35.181927,37.595565,33.740067,47.301371,50.486606,51.390545,45.036132,59.483937,62.41581,62.035514,51.149175,65.650198,68.050424,67.132319,33.866953,305.826668,-74.039904,294.60463
24,3.138496,-2.156756,-0.357021,-0.008472,-18.833977,-37.263588,-52.434162,-64.834019,-61.457668,-60.508484,-37.868179,-19.382217,-62.703838,-57.626942,-32.279411,-8.631088,-59.785687,-56.295616,-32.759926,-11.58458,-54.688122,-54.954987,-40.840782,-26.674599,5.255145,10.765258,19.622107,28.76118,16.743105,29.796278,36.477524,40.890381,21.446967,33.504859,40.684073,43.679339,23.270951,34.848795,38.560551,39.665476,22.809107,33.591656,34.880448,35.496434,24.260467,49.611408,70.787796,86.301132,48.592609,81.71228,99.026527,111.286445,39.392624,75.939308,95.844246,109.055214,30.828197,64.731788,83.715591,96.468429,23.656391,50.461281,65.883568,77.999565,-15.158763,-13.566022,-2.524876,8.073681,16.376184,30.742319,35.259683,37.729613,33.722567,47.303446,50.532387,51.433449,45.000007,59.475774,62.449587,62.061325,51.132021,65.675108,68.122647,67.213384,37.066927,303.682494,-74.335447,294.60874
25,-2.091774,1.001443,-0.413441,-0.027837,-17.051308,-34.196445,-48.121193,-59.654686,-58.471241,-55.313232,-33.566814,-16.03933,-59.945538,-53.127331,-28.540466,-5.611336,-57.220917,-52.285023,-29.400421,-8.967545,-52.249397,-51.441834,-37.84893,-24.415604,3.428334,8.924256,18.196649,27.242466,16.202913,28.497828,34.751329,39.205682,21.288504,32.593473,39.234224,42.296958,23.392983,34.041668,37.236622,38.335249,23.109548,33.226588,34.340516,35.079977,24.439659,49.757503,70.92326,86.447056,48.853168,82.001507,99.299526,111.540836,39.57938,76.102764,95.972729,109.136318,30.920654,64.767506,83.750828,96.452671,23.63958,50.370232,65.786957,77.92194,-15.187736,-13.529268,-2.430892,8.162231,16.399057,30.807515,35.406056,37.932154,33.71696,47.387464,50.687912,51.609154,44.913927,59.46267,62.483204,62.096054,50.977768,65.567094,68.11168,67.262612,35.043188,304.697278,-74.680853,294.594244
26,2.365059,-2.081458,-0.398815,0.125353,-19.500893,-38.578823,-54.193703,-67.41362,-62.620445,-61.236797,-38.778111,-20.330544,-63.180393,-57.585766,-32.388085,-8.772102,-59.641319,-55.487778,-31.733734,-10.431336,-54.001133,-53.617561,-39.21452,-24.755264,8.765508,16.213484,25.284941,34.657579,20.344748,33.214497,39.888543,44.420085,22.667452,35.000368,42.352372,45.228608,22.210647,34.023588,38.101066,39.468751,19.711423,30.521722,32.355055,33.487829,24.584232,49.867401,71.040493,86.687347,49.109596,82.391693,99.706512,111.924499,39.798008,76.398056,96.229637,109.260406,31.112137,65.029724,83.980659,96.594978,23.826061,50.630527,65.996178,78.073974,-15.292255,-13.637578,-2.579475,7.921417,16.380939,30.772577,35.397288,37.96813,33.685677,47.369482,50.66378,51.541081,44.80353,59.371181,62.348206,61.919398,50.758246,65.317005,67.878992,67.079275,37.473175,302.623755,-75.01474,294.727532
27,-1.144638,0.035074,-0.420582,-0.09743,-17.408798,-35.430245,-49.838024,-61.669911,-60.899471,-56.807545,-34.953724,-17.254692,-62.043068,-54.3899,-29.775078,-6.545815,-58.715138,-52.922184,-29.649056,-8.885948,-52.876053,-51.36319,-37.565586,-23.781853,7.092455,14.650903,24.606551,33.546072,19.498347,32.593337,38.91327,43.21799,22.395837,34.948337,41.682306,44.559579,22.619238,34.618281,38.136215,39.379942,20.680497,31.478446,33.324339,34.615478,24.679596,50.016964,71.221687,86.882206,49.325775,82.717747,100.029476,112.26186,39.953716,76.590626,96.403278,109.413906,31.197029,65.152737,84.155262,96.806271,23.831429,50.637714,66.0378,78.20145,-15.317115,-13.637961,-2.545747,7.959307,16.440245,30.892731,35.556184,38.1797,33.736202,47.506148,50.813834,51.674919,44.78566,59.417297,62.432779,62.014679,50.638821,65.270606,67.938446,67.216411,36.388933,302.665905,-75.374926,294.637178
28,-3.285736,3.240822,-0.422424,-0.122253,-15.922028,-32.724289,-46.598408,-58.56007,-56.034382,-51.232716,-30.343792,-13.324471,-57.147938,-48.739014,-25.389313,-3.02369,-54.193131,-47.813084,-25.827713,-5.778511,-48.866467,-47.858815,-35.878418,-23.268208,5.773763,11.634074,19.68434,27.41391,16.6612,28.660145,34.700311,38.769527,19.721958,31.351808,38.044701,40.935003,20.078073,31.064768,34.897184,36.555491,18.323583,28.287679,30.079873,31.050405,24.825199,50.200206,71.386448,87.065059,49.615162,83.079128,100.407428,112.663341,40.234497,76.881603,96.674068,109.662769,31.426471,65.393417,84.400165,97.060787,23.976047,50.788101,66.170608,78.377254,-15.369208,-13.603369,-2.472635,7.920948,16.35945,30.863646,35.60262,38.319095,33.617912,47.531206,50.928455,51.837309,44.637582,59.367562,62.469767,62.121322,50.455187,65.19301,67.964813,67.342393,33.179444,305.912859,-75.721103,294.521057
29,1.070205,-0.470674,-0.101521,-0.275234,-15.879272,-33.414756,-47.749832,-60.178218,-57.158432,-52.629856,-31.551807,-14.446357,-58.12603,-49.854148,-26.226883,-3.846153,-55.023891,-48.624458,-26.435554,-6.280586,-49.466594,-48.695869,-36.690811,-23.983944,8.015599,14.449004,22.10671,29.243254,17.622308,29.655833,35.944804,40.226479,19.194684,31.07881,38.188147,41.41426,18.34007,29.695959,34.20243,36.385294,15.519633,25.302454,27.784191,29.368101,24.962895,50.227913,71.327866,87.079216,49.582272,83.116928,100.478623,112.69384,40.242531,76.963806,96.753662,109.696037,31.44595,65.518192,84.455292,97.022141,23.985054,50.806812,66.150147,78.350029,-15.181882,-13.392578,-2.343144,7.912525,16.514925,31.0497,35.825391,38.603962,33.749527,47.766624,51.222794,52.182581,44.750017,59.573796,62.669431,62.32043,50.531362,65.330886,68.12834,67.53692,34.333734,305.445461,-75.738539,294.249099
30,2.487191,-1.206949,-0.156544,-0.057885,-16.234932,-34.589768,-49.379391,-61.842739,-58.917424,-55.694229,-34.409191,-17.087151,-60.166249,-53.108448,-29.3107,-6.757943,-57.450669,-52.189923,-29.76883,-9.316384,-52.210076,-52.560562,-40.365532,-27.33926,6.974858,12.833922,20.530765,27.592394,16.733127,29.902588,36.606028,40.844428,19.416331,32.153378,39.498676,42.736411,19.885992,32.055541,36.652464,38.589241,18.414665,29.029771,31.412349,32.632352,25.002411,50.319169,71.517437,87.430653,49.728642,83.434262,100.840565,113.07185,40.413174,77.326825,97.135083,110.068257,31.642491,65.900734,84.830899,97.392827,24.204117,51.126709,66.487645,78.705471,-15.092159,-13.527551,-2.703593,7.476221,16.268714,30.746765,35.454086,38.192334,33.553074,47.581311,51.01388,51.944212,44.656737,59.513269,62.634789,62.291766,50.542218,65.390599,68.179729,67.571006,36.893103,304.237113,-75.822905,294.189815
31,-1.504052,2.525247,-0.067474,-0.310283,-12.915939,-29.333244,-42.407215,-52.353469,-54.013835,-48.895946,-29.026691,-12.798706,-56.205631,-48.022201,-25.519432,-3.855583,-54.318923,-48.574367,-27.870025,-8.630928,-49.490798,-50.152816,-39.652702,-28.049686,0.026651,2.42253,8.986055,14.609455,11.413625,23.445544,29.731094,33.856355,17.361288,28.651215,35.368709,38.805724,21.040539,31.45997,35.574004,37.608656,22.592573,31.979772,33.79768,34.673906,25.01984,50.394665,71.678604,87.605953,49.665287,83.523136,100.984165,113.206432,40.341522,77.476765,97.340527,110.331471,31.559292,66.029583,84.979672,97.518093,24.089424,51.016731,66.456871,78.76038,-14.917072,-13.529466,-2.8318,7.377235,15.945105,30.558142,35.356149,38.172561,33.338887,47.528934,51.138406,52.220359,44.595073,59.621233,62.841307,62.529578,50.638758,65.587755,68.447343,67.802792,35.450174,306.751362,-75.829256,293.868534
32,-2.31665,-0.662879,-0.14843,-0.274864,-13.201446,-29.624805,-43.116394,-53.697452,-53.428688,-48.006489,-27.832363,-11.8144,-55.49564,-46.379459,-23.667114,-2.44677,-53.563168,-46.602562,-25.322021,-6.104233,-48.832111,-48.495094,-36.839493,-24.725887,1.116065,3.864464,9.656875,15.14482,12.22983,24.745453,30.746333,34.25036,17.52168,29.19809,36.181246,39.127865,20.364286,30.922631,35.361374,37.264027,21.35065,30.681014,32.433922,33.047092,25.033653,50.43013,71.839268,87.939915,49.530224,83.493084,101.002911,113.255825,40.154251,77.487271,97.41631,110.506359,31.3984,66.089218,85.139958,97.84219,24.023644,51.074364,66.611286,79.053692,-14.863571,-13.598614,-3.044184,7.050489,15.602057,30.614978,35.657664,38.720621,33.060121,47.664032,51.516331,52.80295,44.399139,59.813339,63.16199,62.911135,50.505798,65.6026,68.55616,67.946547,33.189005,306.072064,-75.922205,293.577251
33,6.179443,-6.461118,-0.578132,-0.88308,-17.936714,-38.57389,-55.197853,-68.305698,-64.796321,-60.699337,-38.88422,-21.516723,-65.756057,-57.358371,-32.942939,-10.286773,-62.242263,-55.164207,-31.336303,-10.41323,-55.87762,-54.494602,-39.685478,-25.352142,9.041421,16.873362,25.255523,32.484088,20.307166,34.760418,41.150326,44.771296,21.909367,35.631259,43.561988,46.723696,21.519364,34.375812,39.463737,41.445197,19.67294,30.723164,33.409702,35.067169,25.270912,50.725605,72.259174,88.582225,49.608821,83.351108,100.671146,112.84132,40.008167,77.197506,97.121486,110.407459,31.112766,65.473274,84.572284,97.575405,23.650428,50.461933,65.971984,78.381397,-14.713333,-13.400704,-2.918522,6.941919,15.406147,31.113871,36.665419,40.202877,32.903089,48.241324,52.883695,54.806245,44.235686,60.443267,64.388488,64.542012,50.303936,65.628054,68.854994,68.410947,39.394432,299.590886,-76.474353,292.674111
34,-2.069023,1.561606,-1.525727,-1.809077,-16.78498,-36.602096,-52.108383,-64.377124,-61.852329,-56.776291,-36.781849,-20.626487,-62.360744,-53.885833,-31.591964,-10.097076,-58.404533,-51.647346,-29.778557,-10.097397,-51.538639,-50.59124,-37.744514,-25.23864,8.09007,15.654964,23.820579,30.936524,18.925921,32.719357,38.776727,42.215694,20.387491,33.282299,41.162133,44.718944,20.064944,31.61153,36.847903,39.391971,18.44512,28.091485,30.597897,32.645034,25.812721,51.355316,72.652188,89.173405,49.943871,82.94347,99.79176,111.686337,40.015263,76.600926,96.192639,109.639469,30.651146,64.305165,83.332409,96.702931,22.636791,48.817944,64.145439,76.420681,-14.707516,-13.179675,-2.717673,6.548051,13.674221,30.696784,37.187901,41.564004,30.96551,47.92195,53.887522,56.807106,42.495472,60.239379,65.40469,66.537575,49.013624,65.088701,69.129932,69.321963,37.335863,301.124921,-77.989626,290.837463
35,-2.040573,-1.46756,-0.542553,-3.542646,-17.333656,-37.862778,-55.274963,-68.828911,-60.651008,-61.512016,-47.264088,-34.427238,-61.271931,-60.594189,-44.358742,-26.260643,-57.339889,-57.068092,-40.665905,-24.398025,-50.767547,-54.086872,-44.835228,-34.903255,12.317601,21.165682,28.914963,35.343095,24.544109,34.215236,36.155767,36.837307,22.72178,29.944713,33.550382,34.882733,18.289323,23.892247,25.802656,27.218828,12.32674,16.558237,17.351137,18.971344,25.922264,51.792172,72.131527,88.507416,46.73013,78.163983,94.195862,105.323067,36.317597,70.919518,89.431893,101.498646,26.904682,58.118443,75.455727,87.159371,18.909588,42.680523,55.998951,65.815945,-15.101026,-13.372225,-2.815806,6.055776,9.544983,28.137576,36.56132,42.388854,26.846202,45.831909,54.43678,58.996875,39.151935,58.760148,66.078128,68.623801,47.00077,63.604221,68.694616,69.451207,35.308943,299.634726,-78.518526,287.272182
36,2.699547,-3.147481,-5.472828,-10.320593,-20.568054,-43.613777,-62.824665,-77.419601,-63.633579,-72.401859,-64.891914,-57.120403,-62.584099,-70.795383,-62.494263,-50.973461,-57.275185,-64.256149,-54.939686,-44.667446,-49.864872,-57.625649,-52.5229,-46.395321,11.177788,20.635259,29.044356,37.010283,25.345543,34.988389,36.75923,37.273327,24.179498,32.336579,35.929379,37.239475,20.014853,26.813153,28.808593,30.274659,13.979973,18.872396,20.047148,21.88037,26.891144,52.579445,71.643803,86.527314,53.455124,80.641091,90.338677,95.689682,43.747822,73.252076,84.522732,90.150216,34.047295,60.383183,71.055096,76.772656,24.82695,45.577309,54.282647,59.347584,-14.216662,-11.907604,-2.287384,6.161703,12.811592,35.993932,46.151714,51.811547,29.329395,53.014976,63.265223,67.407095,41.456904,64.367382,73.188823,75.346926,49.543998,67.681675,73.772525,74.488756,38.031538,296.452415,-83.968306,276.916759
37,5.771873,-1.839087,-13.135666,-17.420162,-22.66896,-47.374202,-68.445213,-83.41809,-65.193431,-82.336944,-82.540248,-80.081394,-62.691478,-80.92218,-81.419666,-76.847854,-56.296199,-72.488708,-71.881805,-68.188957,-48.013652,-62.503189,-63.906909,-62.970714,6.940709,14.36112,23.223663,32.093282,23.419658,32.200913,34.406292,35.754069,24.874016,32.144843,35.597704,37.695748,23.09311,29.510954,32.037608,34.228784,18.916843,23.886479,25.775301,28.045357,29.282204,55.294453,73.707425,87.842835,54.698559,78.851223,86.545876,90.003354,43.450871,69.56083,79.352234,83.470162,32.264843,55.467694,65.123864,69.679905,21.707966,40.190381,48.041577,52.099343,-13.045701,-10.808274,-3.789499,1.445281,12.133116,36.063648,45.667641,50.638475,26.542118,51.946929,61.519576,64.857791,37.285578,61.754512,70.025301,71.772146,44.630332,63.364827,69.161301,69.61986,43.754756,294.588906,-97.152627,259.472175
38,2.785264,-1.422397,-15.570533,-21.680125,-23.478127,-48.505143,-70.237095,-84.827546,-63.01038,-88.026879,-96.147114,-99.59198,-59.507344,-87.266568,-96.776654,-99.790558,-52.674866,-77.567402,-85.715619,-89.011117,-44.231186,-64.720036,-72.238049,-76.553204,-0.270368,4.280959,13.633256,23.337358,19.614228,28.057412,30.656462,32.569057,25.107841,31.706873,34.736904,37.113171,26.82575,32.848898,35.487184,37.971082,25.5098,30.469049,32.504936,34.695606,27.354091,51.089618,65.710476,75.523739,51.265995,73.227607,80.104305,82.958919,40.137153,63.491993,70.095886,71.695244,29.03984,49.638874,57.421657,60.446102,18.546718,35.035984,41.836132,45.08052,-14.393959,-15.91649,-13.811418,-13.524983,3.800836,24.113869,31.257848,33.967839,17.346382,40.341976,48.903387,52.060537,28.53757,50.906854,58.590026,60.824106,37.244477,53.932439,59.435339,60.443489,46.447489,293.195377,-112.815691,237.820918
39,3.081825,-3.413673,-18.313168,-24.710181,-24.805321,-50.292961,-73.515656,-88.088711,-63.102745,-94.461777,-109.186238,-118.035004,-59.273186,-94.370373,-111.301953,-121.213291,-52.341397,-83.653588,-98.845082,-108.389843,-44.040482,-68.532727,-80.100849,-88.293778,-8.277705,-6.204472,4.454699,15.391117,16.850884,25.724357,28.254864,30.285427,27.637953,34.180619,36.166549,38.082096,33.830728,40.259527,41.961516,43.685946,36.159164,42.4736,44.070873,45.230571,26.854225,48.957539,62.044899,70.691014,42.971398,57.668759,60.68129,60.72385,29.95887,48.712086,54.420822,54.61504,18.07481,35.204487,41.739945,43.15781,7.291683,21.11142,27.460407,29.803562,-14.7654,-21.92394,-25.031771,-27.939968,-11.50123,0.077126,2.753303,1.75675,-0.497665,19.922412,29.982802,34.169875,10.709269,30.972438,39.781974,42.891688,20.807456,35.134564,41.357413,43.081027,49.315304,289.880051,-131.342869,213.209084
40,3.669365,-0.525682,-24.179901,-31.168977,-25.872345,-51.118515,-73.790829,-87.326672,-63.472081,-95.260632,-111.794518,-123.286343,-58.172413,-93.307549,-112.916691,-127.053395,-50.123108,-81.959084,-100.076466,-113.256558,-40.748612,-65.651585,-79.324711,-90.246746,-18.18704,-19.474882,-8.017154,4.790103,8.809759,21.178193,27.485936,32.397873,26.09344,37.392357,43.023081,47.298482,38.949233,50.575169,55.672838,58.985945,47.600639,58.820405,62.179219,63.756016,26.319111,46.307568,58.870571,67.032623,38.281105,46.159161,45.410454,42.802494,23.718247,38.397732,43.109951,42.933975,10.534527,24.865929,31.115021,32.714241,-1.343914,10.463608,17.684338,21.211601,-13.746037,-26.747179,-35.56565,-42.132362,-23.659572,-21.585937,-25.113041,-30.930436,-15.529994,1.630606,12.140977,16.847198,-5.426818,12.162139,21.432666,24.971768,4.54785,16.685511,23.758446,26.404124,52.727211,289.634879,-155.780228,182.320617
41,1.219894,-1.203478,-22.851105,-31.100447,-26.358238,-51.238907,-74.488953,-88.995701,-63.18742,-95.124103,-111.760334,-123.683636,-57.655872,-92.797989,-112.451443,-127.225891,-49.562279,-81.678715,-99.849232,-113.215656,-40.171463,-65.342491,-79.258633,-90.553779,-17.361252,-18.229759,-5.70149,7.625138,9.847363,22.690374,29.274969,34.576081,27.104145,37.919211,43.441341,47.882949,39.87497,51.297673,56.538813,59.986165,48.37736,59.857515,63.407435,65.100779,24.459137,42.485585,54.640068,63.761032,22.939202,26.388485,27.262402,26.873955,5.647591,19.084568,28.870423,33.591545,-8.648323,5.006275,16.081822,22.380913,-20.420322,-10.181911,0.68042,7.84021,-14.305113,-33.761427,-47.461015,-57.712466,-43.980663,-54.889034,-64.82444,-74.292588,-37.836558,-26.727122,-14.557524,-7.485607,-27.840013,-14.714759,-4.192464,1.393219,-16.793167,-8.185332,-0.055853,4.033605,53.264311,288.709111,-179.314127,151.49788
42,0.400704,-0.120204,-19.144569,-26.227172,-26.40873,-51.151772,-74.423882,-89.336609,-62.588322,-95.001927,-111.798306,-123.951954,-57.114853,-92.696972,-112.263714,-127.097569,-49.204537,-81.740181,-99.907071,-113.326024,-40.072129,-65.499264,-79.402943,-90.742379,-17.789453,-18.655034,-6.041351,7.0496,9.216768,21.994769,28.728108,34.250731,26.762296,37.470805,42.919612,47.469358,39.787569,51.001666,56.105585,59.709981,48.463836,59.852649,63.195866,64.898757,21.511242,37.427204,48.669434,58.096779,14.381275,13.30172,11.524658,9.34362,-2.791775,5.738159,15.269176,19.934692,-17.051388,-7.733208,2.485268,8.539993,-28.754173,-22.165695,-12.069317,-5.278725,-18.139486,-42.925299,-59.619881,-70.986539,-61.522053,-80.904229,-95.119705,-108.023318,-55.964646,-51.819501,-35.679345,-25.602468,-45.318547,-38.396277,-24.585624,-16.61062,-32.789667,-29.939033,-19.769493,-13.325116,52.893134,288.746914,-199.230577,125.428715
43,0.424987,-0.183275,-19.005043,-27.708336,-26.538139,-51.159851,-74.356418,-89.396095,-62.20681,-94.800155,-111.634758,-123.844791,-56.753265,-92.379535,-111.855915,-126.708881,-48.828369,-81.428913,-99.578727,-112.960144,-39.74382,-65.245548,-79.110557,-90.36335,-18.125648,-18.942371,-6.181154,6.667575,8.798335,21.596985,28.370474,33.922848,26.597138,37.345773,42.829456,47.445238,39.784407,50.863469,55.937463,59.561385,48.514792,59.879572,63.288331,64.987678,22.482021,39.287464,53.078178,66.034012,9.890831,3.007358,-2.164982,-7.06089,-8.658463,-5.109947,5.397308,11.0018,-24.157551,-18.73217,-8.458111,-2.523216,-37.158611,-33.925255,-23.858105,-17.521248,-17.41295,-44.501886,-62.265287,-72.094946,-70.929068,-96.796074,-114.075254,-129.314064,-66.775852,-65.215222,-44.922981,-32.810693,-57.023542,-52.422198,-35.203923,-26.096039,-44.738668,-44.618502,-32.058159,-24.672884,52.470205,288.661773,-219.083536,97.818513
44,0.485367,0.212965,-17.328358,-25.76042,-26.478767,-50.978119,-74.14674,-89.519623,-61.986717,-94.634136,-111.512901,-123.770313,-56.589088,-92.151581,-111.526829,-126.33641,-48.731369,-81.226032,-99.271099,-112.543636,-39.707451,-65.121013,-78.864555,-89.957348,-18.505153,-19.441969,-6.745775,5.798821,8.28094,20.989373,27.707447,33.192884,26.282803,37.058225,42.49898,47.140993,39.555177,50.567734,55.658178,59.377208,48.293454,59.562459,63.064411,64.877984,21.675499,38.746525,53.251213,66.885567,10.521103,3.700939,-1.558342,-6.808399,-7.145279,-6.284363,3.077053,8.100186,-22.782165,-20.075306,-10.30513,-4.688381,-36.355259,-35.496734,-26.036316,-20.028099,-18.058204,-45.20463,-63.577569,-73.347837,-71.861591,-99.290488,-118.233538,-134.974378,-67.507372,-69.234154,-47.666106,-35.166205,-58.681138,-57.189557,-38.551653,-29.224957,-47.296153,-50.071217,-36.6597,-28.819998,52.207895,288.898435,-237.159571,72.08179
45,0.434052,0.125847,-13.707012,-18.805779,-26.320175,-50.771599,-73.97477,-89.713486,-61.51791,-94.401341,-111.45686,-123.832077,-56.224228,-91.94711,-111.382244,-126.232178,-48.502556,-81.139836,-99.258637,-112.533486,-39.645195,-65.142918,-78.891621,-89.936383,-18.772434,-19.703741,-7.097283,5.090902,7.808846,20.404905,27.171231,32.726792,25.994355,36.727614,42.183139,46.855361,39.401555,50.281755,55.405607,59.239665,48.212511,59.354398,62.896463,64.808589,21.382633,39.25716,54.139538,68.187664,11.68824,5.16291,-0.027111,-5.285557,-5.343601,-6.449089,2.248306,7.312546,-20.96711,-20.178394,-10.538235,-4.894386,-34.825825,-35.333794,-26.099052,-20.199829,-18.636213,-45.470941,-64.250001,-73.624355,-72.841255,-101.530577,-121.280168,-138.981232,-68.137041,-72.885172,-50.217146,-37.642755,-59.73854,-61.088707,-41.322579,-32.065235,-48.773656,-53.90522,-39.88075,-32.092467,51.891255,288.863422,-251.617275,53.115151
46,0.176216,0.143373,-10.142876,-11.521194,-26.116448,-50.455696,-73.614395,-89.524544,-61.300118,-94.214997,-111.311074,-123.674217,-56.087059,-91.801495,-111.238278,-126.023483,-48.431168,-81.061238,-99.191838,-112.410141,-39.60878,-65.061413,-78.810997,-89.847702,-18.968208,-19.97716,-7.533625,4.305349,7.498229,20.015259,26.804729,32.404343,25.732347,36.338561,41.789134,46.469383,39.175214,49.85296,55.023408,58.983005,48.003683,58.930777,62.503964,64.559771,21.469563,40.198334,55.743805,70.320752,13.410027,7.465977,2.290226,-2.906467,-3.092445,-5.904613,2.096592,6.909554,-18.751156,-19.574043,-10.176452,-4.683277,-32.960609,-34.57489,-25.702297,-20.116939,-18.591629,-45.236635,-64.260888,-73.17204,-72.783062,-102.678048,-122.901228,-141.037768,-67.832389,-75.823831,-52.406556,-39.451857,-59.905421,-64.171597,-43.431053,-33.846926,-49.530537,-57.168698,-42.783001,-34.72377,51.628149,288.864534,-262.199473,41.451696
47,0.18576,0.086672,-6.483936,-8.326136,-25.844581,-50.155197,-73.323394,-89.344791,-61.187782,-94.073684,-111.210228,-123.651352,-56.061699,-91.739925,-111.281902,-126.149952,-48.435882,-81.04264,-99.230747,-112.48827,-39.560486,-64.979416,-78.746315,-89.787895,-18.990153,-20.072119,-7.816268,3.778842,7.325884,19.781671,26.502499,32.03725,25.543491,36.056128,41.491288,46.108984,38.991322,49.581073,54.821954,58.821603,47.808343,58.615418,62.227175,64.330184,21.258156,40.642719,57.031963,71.919823,13.963818,7.374584,2.148468,-2.901535,-2.557812,-5.098949,1.770996,6.23885,-18.156017,-18.609947,-9.543056,-4.39793,-32.608784,-33.918949,-24.812336,-19.547871,-15.340568,-42.278704,-61.462111,-69.66117,-71.32632,-103.463815,-124.191792,-142.583294,-66.163226,-73.521059,-49.409851,-36.429161,-58.145966,-61.96069,-40.351621,-30.865832,-47.718927,-54.671128,-39.603466,-32.018731,51.454696,288.922384,-269.042622,33.096738
48,0.003754,0.016587,-3.968468,-1.083522,-25.52829,-49.812744,-73.038803,-89.199818,-61.070046,-94.044457,-111.229683,-123.713379,-56.016792,-91.812344,-111.444328,-126.298027,-48.425194,-81.149883,-99.453129,-112.747513,-39.524529,-65.033157,-78.888187,-89.976311,-19.063291,-20.156162,-8.001977,3.421528,7.21535,19.628455,26.358101,31.978191,25.378752,35.847509,41.263181,45.862475,38.797079,49.367935,54.65461,58.724394,47.595451,58.317039,61.898427,64.047292,21.305569,41.095013,58.044754,73.390732,14.984551,8.528458,3.040696,-2.116653,-1.655914,-3.932647,2.288693,6.186344,-17.371879,-17.732711,-9.065448,-4.283855,-31.981041,-33.038097,-24.11095,-19.21233,-14.137503,-40.862748,-59.781642,-67.908749,-70.370139,-102.590183,-123.416763,-141.812871,-65.469769,-72.535448,-48.199549,-35.273224,-57.632777,-61.413823,-39.549132,-30.127624,-47.495984,-54.1251,-38.932819,-31.356859,51.158112,288.923565,-273.311428,31.99781
49,0.116478,-0.053563,-1.987976,1.146533,-25.383911,-49.773491,-73.135735,-89.125111,-61.191982,-94.249043,-111.415089,-123.894093,-56.06115,-92.034645,-111.769169,-126.647781,-48.336823,-81.279076,-99.731896,-113.169251,-39.327164,-65.128624,-79.191731,-90.49292,-19.032082,-20.26094,-8.329019,3.170328,7.063716,19.467003,26.194982,31.899917,25.137667,35.503832,40.979636,45.630949,38.587845,49.113055,54.398099,58.476517,47.475977,58.125206,61.597938,63.700638,21.174443,41.375702,58.6451,74.098835,15.456436,8.818188,3.00404,-2.215084,-1.600158,-3.591167,2.202198,6.076344,-17.505455,-17.61026,-9.170952,-4.363037,-32.323208,-33.000377,-23.996189,-19.182529,-12.629281,-39.498213,-58.37537,-66.112245,-69.661641,-102.19361,-122.80202,-141.026499,-64.794405,-71.230157,-46.765496,-34.129206,-56.954598,-60.281185,-38.518277,-29.483358,-46.962164,-53.125553,-37.866619,-30.648193,50.965284,288.856336,-275.60871,33.130677
50,0.038521,-0.149016,-1.35514,0.340096,-25.316895,-49.725884,-73.17524,-88.95583,-61.444176,-94.474629,-111.547119,-124.00074,-56.242584,-92.29842,-112.106106,-127.007263,-48.356987,-81.45385,-100.001553,-113.519612,-39.203888,-65.256386,-79.50539,-91.000878,-18.969257,-20.337943,-8.605253,2.92177,7.06694,19.50761,26.186077,31.869203,25.015216,35.295115,40.781973,45.445883,38.454328,48.955048,54.163349,58.159811,47.385871,57.978314,61.278713,63.262247,21.252914,41.520057,58.847019,74.583801,15.555347,8.862876,3.008148,-2.267544,-1.704895,-3.354332,2.465744,6.166534,-17.760991,-17.550293,-9.202527,-4.62196,-32.695393,-33.183381,-24.403393,-19.827828,-12.23711,-38.909774,-57.434299,-64.653743,-69.233957,-101.38844,-122.071302,-140.360576,-64.854654,-70.599925,-45.923435,-33.398618,-57.343847,-60.066688,-38.204338,-29.31021,-47.591685,-53.299578,-37.937211,-30.763364,50.680378,288.67374,-277.287277,33.437193
51,0.046119,-0.293253,-2.186223,-3.276792,-25.293457,-49.700317,-73.166015,-88.8735,-61.740337,-94.777896,-111.80429,-124.267547,-56.481536,-92.599514,-112.529537,-127.493602,-48.445541,-81.659191,-100.372043,-114.029823,-39.116706,-65.321273,-79.740326,-91.459156,-18.808471,-20.231991,-8.645341,2.733988,6.922073,19.43945,26.114818,31.839921,24.724174,35.048065,40.602687,45.339302,38.195656,48.751802,53.964624,57.929939,47.251613,57.863545,61.084163,62.987137,21.571908,41.963517,59.27155,75.469048,16.551247,10.442643,4.938046,-0.294147,-0.870357,-2.715911,3.440873,7.085953,-17.071174,-17.147438,-8.753047,-4.366424,-32.033695,-32.612686,-24.233551,-20.06282,-13.490736,-38.890971,-56.61986,-63.623456,-68.858823,-99.729095,-120.37424,-138.796642,-65.10667,-71.492373,-47.104004,-34.913911,-58.127416,-61.232332,-39.734568,-31.158739,-48.647944,-54.885686,-39.726936,-32.395025,50.386259,288.417701,-279.813738,30.197615
52,-0.039276,-0.391868,-2.724025,-7.395439,-25.42884,-49.88269,-73.305713,-88.902786,-62.163654,-95.088318,-111.997123,-124.408138,-56.818039,-92.864742,-112.790989,-127.772289,-48.642952,-81.847961,-100.577396,-114.297592,-39.13369,-65.374008,-79.903644,-91.800636,-18.779547,-20.213627,-8.610786,2.78529,6.967534,19.515638,26.136467,31.791459,24.724272,35.058463,40.623707,45.373437,38.158235,48.730486,53.864477,57.749751,47.203374,57.830916,61.044976,62.939293,22.061405,42.474334,59.363697,75.880657,18.189777,13.083835,7.731182,3.008045,0.52359,-1.468071,4.635063,8.653942,-15.815701,-16.450596,-8.741593,-4.097077,-30.669091,-31.895188,-24.655747,-20.553532,-16.583444,-40.949415,-58.298274,-65.56886,-68.952128,-97.345665,-116.771005,-134.442793,-65.993153,-74.506775,-51.478324,-39.751383,-60.00721,-64.862095,-44.658441,-36.015434,-51.638689,-59.27892,-45.174829,-37.361327,50.038856,288.325317,-282.84589,23.10166
53,0.045296,-0.363845,-2.804581,-18.434202,-25.656944,-50.193466,-73.568619,-89.150539,-62.624989,-95.436424,-112.249603,-124.633793,-57.185944,-93.132042,-113.036762,-128.069469,-48.910744,-82.069382,-100.795326,-114.571907,-39.278503,-65.486584,-80.064903,-92.098366,-18.724887,-20.20371,-8.654271,2.5568,6.964322,19.523998,26.04168,31.595425,24.674945,35.050052,40.615851,45.379735,38.108451,48.728275,53.761921,57.54937,47.193197,57.907412,61.132166,62.983715,22.544987,43.337517,60.308716,76.98848,19.584641,14.83279,9.991139,5.780171,1.827747,-1.112022,4.845154,9.312195,-14.652111,-16.267845,-9.057095,-4.246731,-29.59148,-32.104214,-25.589539,-21.293838,-17.36526,-41.184833,-58.247571,-64.986511,-69.807118,-98.699886,-118.233141,-135.81905,-67.277871,-76.20435,-53.485218,-41.440479,-61.685333,-66.585704,-46.672629,-37.769127,-53.591207,-61.795953,-47.964194,-40.070386,49.766865,288.435567,-285.967758,5.141553
54,-0.033783,-0.471798,-4.196823,-22.088228,-25.860969,-50.425644,-73.648888,-89.376457,-62.956226,-95.555065,-112.322845,-124.738083,-57.560165,-93.249493,-113.107452,-128.221424,-49.345848,-82.333237,-101.005314,-114.803867,-39.704864,-65.682278,-80.140984,-92.148067,-18.602954,-19.993722,-8.413852,2.404734,6.983798,19.551452,26.015522,31.456166,24.664893,35.155473,40.67612,45.387886,38.089395,48.783603,53.715275,57.410086,47.210561,58.02948,61.291717,63.105907,23.473972,44.720501,62.051948,79.468964,22.687717,18.722134,14.212875,10.591999,4.829304,0.916042,6.84518,11.865429,-11.669712,-14.47665,-7.889568,-2.786751,-26.405434,-30.039642,-24.820839,-20.71106,-20.973478,-44.084144,-60.946551,-67.898758,-71.408114,-99.053375,-118.047518,-135.21928,-69.475262,-81.686856,-59.870405,-47.4092,-64.485541,-72.014281,-52.840926,-43.268192,-57.070348,-67.349402,-54.308277,-45.52065,49.409294,288.465596,-290.488369,-16.444848
55,-0.134903,-0.290375,-2.64719,-29.759055,-26.025627,-50.603302,-73.643921,-89.557938,-63.05516,-95.645313,-112.434036,-124.851379,-57.64357,-93.288872,-113.042896,-128.164604,-49.453079,-82.363232,-100.929462,-114.696167,-39.797401,-65.639294,-79.929394,-91.812996,-18.664865,-19.929341,-8.17578,2.369499,6.919825,19.44944,25.909225,31.331146,24.660446,35.21227,40.799794,45.588501,38.102696,48.810786,53.719029,57.432205,47.24109,58.130553,61.480513,63.318255,24.220642,45.772339,63.566768,80.925728,24.546696,21.270893,17.230259,14.137745,6.718929,1.951904,7.392425,12.693352,-9.731758,-13.322113,-7.369869,-2.240765,-24.597531,-28.900143,-24.253178,-20.223942,-21.733106,-44.49366,-60.961056,-67.774961,-72.251582,-101.06441,-119.981896,-136.881014,-70.257019,-84.444901,-62.895375,-49.54698,-65.307964,-74.493646,-55.428429,-44.99871,-57.98112,-70.343651,-57.656495,-48.388796,48.948372,288.755205,-293.461578,-45.623919
56,0.056694,-0.050512,-1.561649,-30.159432,-26.230865,-50.830078,-73.810078,-89.868072,-63.165653,-95.706161,-112.458847,-124.859493,-57.742378,-93.287647,-112.960956,-128.181301,-49.576881,-82.363209,-100.802627,-114.577995,-39.909027,-65.659813,-79.861896,-91.701462,-18.711845,-20.004763,-8.180201,2.216247,6.951491,19.375464,25.761951,31.123319,24.78086,35.189127,40.721593,45.557861,38.259592,48.887542,53.757784,57.51978,47.396393,58.263946,61.65681,63.510928,24.848133,46.745704,65.118381,82.641174,26.058013,23.166412,19.495147,16.875698,8.157348,3.376659,8.425861,13.698108,-8.394104,-12.117829,-6.549923,-1.351101,-23.460457,-28.177025,-23.89396,-19.648098,-22.766142,-45.468032,-61.873681,-68.448004,-73.819372,-103.013627,-122.170192,-139.136391,-72.04231,-87.260791,-65.504435,-50.948993,-67.163123,-77.198293,-58.071708,-46.536543,-59.936046,-73.211443,-60.800246,-50.655064,48.808468,289.189511,-295.219825,-75.298533
57,0.097046,0.10111,-0.176251,-30.209326,-26.287765,-50.854156,-73.747822,-89.909351,-62.919056,-95.521774,-112.319607,-124.712173,-57.585983,-93.153648,-112.856071,-128.167992,-49.531448,-82.289841,-100.717781,-114.532459,-39.941643,-65.559654,-79.654198,-91.447563,-18.60225,-19.918682,-8.163096,1.990129,6.994185,19.356284,25.715872,31.035337,24.783281,35.078791,40.602958,45.443289,38.273276,48.845539,53.769443,57.597795,47.421365,58.305628,61.782584,63.661451,25.262306,47.407047,66.256622,84.065403,26.834175,24.234409,21.127327,18.464905,9.066776,4.401718,9.188782,13.808979,-7.584801,-11.127422,-5.457916,-0.78796,-23.136269,-27.719112,-23.155849,-19.12056,-22.212173,-44.769846,-61.095262,-67.03563,-74.859451,-104.945174,-125.112575,-142.668194,-73.157844,-88.501765,-65.791548,-49.530802,-67.999962,-78.008851,-57.978274,-45.202525,-60.113048,-74.061993,-61.282354,-50.062832,48.761421,289.508322,-295.540169,-105.290158
58,0.215515,0.223623,0.703446,-22.947022,-26.2603,-50.883957,-73.71627,-89.822697,-62.815807,-95.391815,-112.252373,-124.697296,-57.551651,-93.052048,-112.852581,-128.344883,-49.54351,-82.156048,-100.625839,-114.543045,-39.927955,-65.385635,-79.468105,-91.307659,-18.506586,-19.819449,-8.165331,1.861688,7.12149,19.404326,25.742079,31.018985,24.821183,34.989031,40.557337,45.470521,38.243759,48.764411,53.804653,57.750405,47.332271,58.163194,61.712361,63.658549,25.378177,47.170166,66.055961,84.474185,27.675132,25.725608,22.857673,20.150321,10.028972,5.78516,10.400001,14.388633,-6.677411,-9.888302,-4.137303,0.233676,-22.484768,-26.175019,-21.659478,-18.095135,-23.21176,-45.116601,-61.287744,-67.298427,-74.498435,-102.596861,-122.407418,-139.786391,-73.211344,-90.62286,-67.863236,-50.870116,-68.308914,-79.846249,-59.633814,-46.199237,-60.476071,-75.558903,-62.892452,-50.610415,48.911167,289.763299,-294.902492,-128.205826
59,0.267082,0.383939,2.347824,-21.439104,-26.141784,-50.792404,-73.694709,-89.898903,-62.55471,-95.310493,-112.236625,-124.719818,-57.340324,-93.038944,-112.969745,-128.601963,-49.354934,-82.118064,-100.706749,-114.705825,-39.726196,-65.317051,-79.516342,-91.452198,-18.529878,-19.843976,-8.27479,1.698692,7.234753,19.391507,25.686751,30.938871,24.921651,34.843461,40.403072,45.350799,38.297766,48.639169,53.720722,57.734709,47.311017,57.98691,61.526308,63.507458,25.113956,46.677291,65.398761,83.907371,26.807842,25.346225,23.164924,20.386104,9.311657,6.174682,10.282024,13.166885,-7.360016,-9.555668,-3.788704,-0.105732,-23.518238,-26.286862,-21.180005,-17.750336,-19.960567,-41.525052,-57.424919,-62.86702,-72.557308,-101.178182,-121.836655,-139.916692,-71.293598,-87.29618,-63.638134,-46.250746,-66.362633,-76.709406,-55.341435,-41.620589,-58.209275,-72.647445,-59.148678,-46.824296,49.140421,290.145938,-292.592496,-149.64623
60,0.268021,0.276901,1.691562,-12.414509,-26.014412,-50.662628,-73.693714,-89.998112,-62.372749,-95.346336,-112.322639,-124.882965,-57.148453,-93.101532,-113.19746,-128.931187,-49.14283,-82.136742,-100.932724,-115.069988,-39.507225,-65.311993,-79.764484,-91.929634,-18.414899,-19.776458,-8.421484,1.477824,7.31719,19.423074,25.682985,30.938019,24.978277,34.793307,40.257576,45.156125,38.342202,48.639602,53.751906,57.828162,47.337162,57.932384,61.370351,63.330964,24.734551,46.467327,65.181828,83.920235,26.879711,25.798256,23.919937,21.210205,9.356632,6.986103,10.692147,12.844631,-7.390159,-9.077465,-3.420204,0.004006,-23.75275,-25.775539,-20.558922,-17.330749,-18.740654,-40.251247,-56.098456,-61.433864,-71.156791,-99.007954,-119.619374,-137.805457,-69.880129,-85.786102,-61.84678,-44.584758,-65.091076,-75.566045,-53.751983,-39.858922,-57.130518,-71.539149,-57.763793,-45.1299,49.41235,290.359137,-290.897026,-162.124441
61,0.01593,0.390349,1.386063,-8.35979,-25.849182,-50.405845,-73.530796,-89.70647,-62.227146,-95.315288,-112.245346,-124.797684,-57.037536,-93.208935,-113.337055,-129.002289,-49.060226,-82.228512,-101.113586,-115.274517,-39.461357,-65.381996,-79.908851,-92.133167,-18.49347,-20.017161,-8.951043,1.072482,7.149352,19.176739,25.409591,30.614718,24.788777,34.581985,39.984516,44.729689,38.155802,48.429255,53.568792,57.594746,47.203497,57.764769,61.131994,63.039106,24.394752,46.581802,65.437889,83.983097,26.776417,25.884109,24.061844,21.396217,9.376556,7.47551,10.54121,12.418533,-7.224964,-8.470184,-3.150604,0.197571,-23.666245,-24.994515,-19.530716,-16.335858,-15.783343,-37.663431,-53.525924,-58.949913,-69.308724,-98.099747,-118.529265,-136.466369,-67.60679,-83.26176,-59.212936,-42.215036,-62.711878,-73.043892,-50.45962,-36.460089,-54.723971,-68.826808,-54.353765,-42.110113,49.407017,290.72035,-289.532226,-170.513367
62,0.163605,0.233553,1.164059,-4.492626,-25.787315,-50.274857,-73.443913,-89.647305,-62.268425,-95.387547,-112.332813,-124.868362,-57.101898,-93.258373,-113.392685,-129.068493,-49.142281,-82.36908,-101.277031,-115.42511,-39.541809,-65.535381,-80.127674,-92.411064,-18.544773,-20.190952,-9.240764,0.752219,7.080796,19.040826,25.280483,30.486759,24.736017,34.444021,39.797066,44.50283,38.124457,48.281535,53.391197,57.424623,47.205782,57.698325,61.07422,63.052851,23.961856,46.453033,65.545806,83.778923,26.547443,25.59843,23.821437,21.176158,9.171123,7.457668,10.185253,11.953411,-7.381554,-8.397961,-3.095822,0.317985,-23.786545,-24.705574,-18.85524,-15.505154,-12.885107,-34.985051,-50.824773,-56.064604,-67.886977,-98.36886,-119.007214,-137.107185,-65.724489,-80.667716,-56.039113,-39.685103,-60.671534,-70.541942,-47.018487,-33.53538,-52.599865,-65.846184,-50.423108,-39.156554,49.536043,290.940756,-288.402746,-175.01914
63,-0.092377,0.085697,0.397625,-1.088413,-25.780769,-50.063255,-73.208587,-89.446495,-62.106422,-95.240398,-112.115135,-124.593452,-56.964592,-93.132454,-113.211937,-128.779186,-49.040909,-82.34396,-101.220966,-115.332424,-39.451355,-65.462597,-80.055702,-92.396312,-18.541154,-20.326062,-9.474057,0.512405,7.028679,19.000046,25.294932,30.513731,24.713552,34.415616,39.676603,44.231758,38.164052,48.237594,53.303758,57.282572,47.318452,57.764485,61.149099,63.174475,23.79721,46.736881,66.104106,84.064716,26.563442,25.825653,24.133998,21.596134,9.13338,7.869976,10.382686,12.18798,-7.352726,-8.054764,-2.790562,0.786655,-23.665249,-24.494156,-18.311577,-14.609002,-11.061231,-33.407448,-49.249035,-54.420147,-67.383093,-99.479126,-120.341535,-138.764667,-64.696465,-78.956686,-53.877386,-38.065016,-59.477787,-69.238186,-45.068137,-31.786704,-51.372233,-64.339844,-48.360023,-37.705058,49.396677,291.043758,-288.05211,-176.090248
64,-0.096176,-0.002791,0.041519,1.168435,-25.776741,-49.875229,-72.885601,-88.974552,-62.080982,-95.0686,-111.873482,-124.274311,-56.979332,-92.907062,-112.961998,-128.465675,-49.068672,-82.188515,-100.989864,-115.047409,-39.410477,-65.169273,-79.685966,-92.026543,-18.450801,-20.405918,-9.658827,0.306158,7.101878,19.079568,25.422398,30.656955,24.73372,34.506785,39.731376,44.191287,38.15653,48.271087,53.356049,57.324019,47.290886,57.816083,61.315788,63.456242,23.818176,47.040321,66.767154,84.442142,26.718761,25.991386,24.215091,21.793338,9.398094,7.94712,10.317341,12.400348,-7.061291,-7.963463,-2.709217,1.116485,-23.339585,-24.191918,-17.955242,-14.114079,-10.572492,-33.197058,-49.06948,-54.280847,-67.647175,-100.760179,-121.462964,-139.601401,-64.626116,-78.837609,-53.64622,-37.873448,-59.316201,-69.178495,-44.876337,-31.57732,-51.251057,-64.101429,-47.862534,-37.408804,49.246353,291.09989,-288.064739,-174.86289
65,-0.008972,0.017735,-0.115391,1.985995,-25.802353,-49.774429,-72.712944,-88.85178,-62.004536,-94.774384,-111.500301,-123.803307,-56.963837,-92.61343,-112.577099,-128.037689,-49.101288,-81.994961,-100.659496,-114.644932,-39.406151,-64.872551,-79.227047,-91.496166,-18.378578,-20.459159,-9.747476,0.183892,7.222834,19.225818,25.592915,30.772366,24.786368,34.569856,39.798844,44.19551,38.136807,48.222625,53.337116,57.28624,47.199322,57.749071,61.444154,63.751113,23.937126,47.129436,67.213234,85.020515,26.952232,26.368011,24.546307,22.14798,9.639484,8.124012,10.587948,12.949036,-6.849552,-7.766247,-2.308765,1.743668,-23.036511,-23.921448,-17.495224,-13.407909,-10.739656,-33.402425,-49.409987,-54.7499,-68.252069,-101.71297,-122.482808,-140.573042,-65.251033,-79.382257,-54.130414,-38.327752,-59.941371,-69.646174,-45.264527,-32.018218,-51.819673,-64.314668,-47.852685,-37.458266,49.193791,291.190648,-288.22372,-172.803872
66,-0.003433,-0.143866,-0.132591,1.739485,-25.782166,-49.724945,-72.55521,-88.86216,-61.813076,-94.507199,-111.255318,-123.498127,-56.761803,-92.250744,-112.190163,-127.65009,-48.87838,-81.648892,-100.279175,-114.251793,-39.125382,-64.427914,-78.724263,-90.983826,-18.267773,-20.291223,-9.474008,0.328685,7.457066,19.610979,26.108543,31.40553,25.024156,34.888883,40.214474,44.717289,38.322799,48.446372,53.612757,57.652135,47.258022,57.85028,61.699196,64.185156,24.079033,47.203502,67.42456,85.319515,27.365959,26.729976,24.935394,22.554599,10.0765,8.305961,10.770961,13.302292,-6.418911,-7.572819,-2.118828,1.996811,-22.564762,-23.605465,-17.281529,-13.195313,-11.147413,-33.897639,-50.093605,-55.115732,-68.732686,-102.315911,-123.077104,-141.215687,-65.77833,-79.5484,-53.932634,-38.254769,-60.565314,-70.091408,-45.576087,-32.557735,-52.567261,-64.875088,-48.284503,-38.018309,49.157461,291.110956,-288.389208,-171.000213
67,-0.009568,-0.034519,-0.130154,1.371751,-25.677497,-49.585807,-72.436775,-88.788734,-61.579845,-94.274654,-111.042789,-123.300418,-56.490074,-91.966655,-111.885875,-127.320842,-48.545517,-81.303417,-99.949619,-113.946613,-38.745758,-64.016555,-78.307113,-90.550724,-18.247259,-20.28007,-9.470796,0.431672,7.495808,19.780892,26.356126,31.754433,25.074508,35.070628,40.450978,45.006047,38.323825,48.565785,53.806147,57.912994,47.170115,57.832188,61.738902,64.309658,24.172794,47.303799,67.622761,85.735851,27.799404,27.168125,25.389256,23.034725,10.551556,8.600143,10.979656,13.708866,-5.907486,-7.222481,-1.875126,2.350674,-22.024956,-23.175648,-17.050392,-12.94606,-11.387937,-34.34264,-50.777731,-55.583234,-69.143653,-102.820009,-123.602649,-141.862817,-66.191693,-79.87848,-54.027075,-38.581642,-61.079469,-70.551102,-45.932043,-33.134456,-53.219923,-65.514794,-48.873589,-38.730828,49.121051,291.115707,-288.546204,-169.589192
68,0.143212,-0.020575,0.09137,1.065704,-25.629112,-49.54477,-72.405281,-88.801483,-61.361355,-94.121498,-110.906433,-123.142536,-56.268654,-91.750168,-111.659466,-127.11097,-48.300316,-81.055996,-99.713162,-113.752533,-38.490326,-63.748295,-78.054714,-90.282246,-18.212691,-20.29846,-9.512528,0.494275,7.558806,19.871566,26.460508,31.843057,25.173605,35.211764,40.624793,45.192422,38.373793,48.705872,54.030746,58.207642,47.118738,57.832126,61.790661,64.401332,24.184513,47.16949,67.421733,85.777645,28.028629,27.401664,25.623767,23.229183,10.842453,8.793239,11.090744,13.916072,-5.573353,-6.988083,-1.731217,2.541618,-21.671677,-22.847157,-16.856564,-12.77575,-11.504555,-34.766658,-51.503036,-56.103985,-69.45209,-103.300337,-124.143911,-142.517589,-66.491633,-80.199573,-54.128734,-38.806166,-61.46954,-70.935643,-46.179452,-33.518111,-53.753508,-66.017723,-49.325046,-39.261152,49.25655,291.097889,-288.462547,-168.520731
69,-0.008744,0.100492,-0.035614,0.942945,-25.601165,-49.454841,-72.353816,-88.940288,-61.046081,-93.923515,-110.734748,-123.006626,-55.952339,-91.563526,-111.39418,-126.795364,-47.98574,-80.790939,-99.417949,-113.474418,-38.244346,-63.567832,-77.86132,-90.050422,-18.307552,-20.416304,-9.58806,0.522125,7.416892,19.824797,26.460657,31.883257,25.126935,35.270057,40.726274,45.324642,38.357047,48.774267,54.17523,58.414989,47.07765,57.796472,61.750561,64.35854,24.19305,47.003036,67.207718,85.897338,28.352783,27.716137,25.947921,23.520664,11.156181,8.90332,11.134769,14.103641,-5.242562,-6.92426,-1.737191,2.680149,-21.363007,-22.740361,-16.891091,-12.76767,-11.682163,-35.152105,-52.088174,-56.515095,-69.741132,-103.73541,-124.586934,-143.032733,-66.745848,-80.69543,-54.547776,-39.34769,-61.761926,-71.372522,-46.529887,-33.921861,-54.104646,-66.686768,-50.146272,-40.140445,49.256338,291.172004,-288.489629,-167.604163
70,0.16079,-0.021155,-0.108307,0.84493,-25.615883,-49.479355,-72.314163,-88.886799,-60.871925,-93.753033,-110.615833,-122.967705,-55.829041,-91.327675,-111.238243,-126.792538,-47.853401,-80.606449,-99.319496,-113.528927,-38.050392,-63.335403,-77.678719,-89.961697,-18.255238,-20.381181,-9.53251,0.60818,7.375852,19.792896,26.402648,31.812058,25.102765,35.257867,40.698301,45.285862,38.322281,48.796966,54.267768,58.574736,47.010181,57.813638,61.850793,64.504517,24.305351,46.993503,67.013008,85.903942,28.578277,27.935074,26.156845,23.625469,11.394275,9.189811,11.369934,14.301166,-4.985894,-6.674092,-1.594609,2.784084,-21.159851,-22.568619,-16.8158,-12.731026,-11.909206,-35.551756,-52.602844,-56.942339,-70.051198,-104.194474,-125.011682,-143.423723,-66.998249,-81.206991,-55.171319,-39.953936,-62.008785,-71.778351,-46.993091,-34.312879,-54.365606,-67.238541,-50.838833,-40.756093,49.425327,291.128647,-288.589737,-166.781435
71,0.149689,0.019426,-0.089264,0.946545,-25.672989,-49.58535,-72.365547,-89.160061,-60.734871,-93.558483,-110.494755,-122.970909,-55.728058,-91.103783,-111.042755,-126.729607,-47.770706,-80.373493,-99.115059,-113.457768,-37.951218,-63.069569,-77.418183,-89.770706,-18.275207,-20.34203,-9.381777,0.677971,7.391673,19.858933,26.476972,31.817122,25.127589,35.395522,40.83083,45.362014,38.29437,48.849763,54.384613,58.692038,46.89866,57.759125,61.906172,64.613174,24.31081,46.848862,66.71751,85.726387,28.610824,27.967415,26.177273,23.602169,11.413524,9.275677,11.419601,14.28701,-4.99609,-6.614502,-1.59898,2.738869,-21.218617,-22.614556,-16.880928,-12.792137,-12.066602,-35.866186,-53.038139,-57.39246,-70.429581,-104.700522,-125.545329,-143.972389,-67.354497,-81.705184,-55.846005,-40.588061,-62.310365,-72.129567,-47.46392,-34.719787,-54.614136,-67.512973,-51.191052,-41.045011,49.593848,291.128375,-288.660169,-165.854588
72,0.12149,0.053266,-0.209347,1.074593,-25.728584,-49.673172,-72.357319,-89.279674,-60.624229,-93.419964,-110.409164,-122.970337,-55.653374,-90.972565,-110.935604,-126.712337,-47.738754,-80.247379,-99.016971,-113.444927,-37.942703,-62.956112,-77.30143,-89.68642,-18.282111,-20.279119,-9.258301,0.636215,7.389833,19.817301,26.451555,31.78726,25.130924,35.419481,40.862335,45.417391,38.293086,48.893347,54.463864,58.795396,46.878962,57.782615,61.987917,64.715161,24.331684,46.824509,66.588112,85.757675,28.709232,28.101757,26.336517,23.741203,11.498634,9.41573,11.494274,14.246601,-4.921497,-6.502212,-1.583404,2.693264,-21.181744,-22.567303,-16.886181,-12.792492,-12.228178,-36.183658,-53.474776,-57.867562,-70.821918,-105.189369,-126.041117,-144.409336,-67.795108,-82.181966,-56.482312,-41.023649,-62.747975,-72.459817,-47.8682,-34.899465,-55.013452,-67.917528,-51.701752,-41.407477,49.745144,291.172721,-288.83971,-164.788915
73,0.210137,0.120512,-0.18988,1.082191,-25.643074,-49.687706,-72.502442,-89.732792,-60.577973,-93.41486,-110.512207,-123.191815,-55.59272,-90.991848,-111.00689,-126.833989,-47.652901,-80.24992,-99.068379,-113.495522,-37.831559,-62.972889,-77.388554,-89.75338,-18.451368,-20.329878,-9.17311,0.656728,7.437232,19.81856,26.443367,31.872994,25.17447,35.44654,40.904906,45.56006,38.34235,48.931644,54.47383,58.828828,46.944454,57.808488,61.990473,64.717779,24.350223,46.94022,66.710895,85.878559,28.831306,28.320053,26.549938,23.930053,11.571109,9.52153,11.486194,14.143753,-4.924164,-6.467137,-1.722668,2.478813,-21.268914,-22.698201,-17.130741,-13.014908,-12.348461,-36.397931,-53.737672,-58.127663,-71.243053,-105.582917,-126.363161,-144.642972,-68.29259,-82.403581,-56.879181,-41.313681,-63.253448,-72.600209,-48.149686,-35.0124,-55.464242,-68.234202,-52.158606,-41.730153,50.006979,291.28444,-288.977892,-163.715517
74,0.376579,0.111126,-0.12719,1.236602,-25.648041,-49.875366,-72.81427,-90.156464,-60.746521,-93.538387,-110.756745,-123.5816,-55.742684,-91.121063,-111.233437,-127.140816,-47.812615,-80.412197,-99.358212,-113.846203,-38.001,-63.193508,-77.729107,-90.166329,-18.596186,-20.369596,-9.159697,0.645243,7.397119,19.76711,26.369736,31.829189,25.140977,35.410206,40.818949,45.461765,38.344339,48.943266,54.499136,58.867409,47.01359,57.846724,62.016779,64.721484,24.38047,47.176163,67.038826,86.063519,28.81628,28.429024,26.696491,24.139423,11.477016,9.657543,11.600601,14.134804,-5.114376,-6.448345,-1.760136,2.339356,-21.532379,-22.892097,-17.298775,-13.135426,-12.417913,-36.520269,-53.829601,-58.27174,-71.509793,-105.852149,-126.604775,-144.80314,-68.628606,-82.459849,-56.979301,-41.236824,-63.598587,-72.687309,-48.339541,-35.047308,-55.782748,-68.39066,-52.35861,-41.808386,50.43774,291.383472,-289.0509,-162.491009
75,0.35646,0.117129,0.080257,1.336004,-25.618583,-49.969986,-73.011428,-90.540309,-60.966888,-93.685901,-110.929904,-123.811832,-55.985824,-91.346832,-111.453804,-127.34729,-48.102104,-80.672527,-99.602417,-114.062713,-38.33638,-63.544178,-78.081356,-90.475788,-18.770915,-20.458999,-9.118894,0.628792,7.373246,19.69622,26.265661,31.70376,25.141915,35.428805,40.815342,45.449871,38.391775,49.001718,54.5247,58.859788,47.143389,57.952811,62.099845,64.763795,24.284203,47.233441,67.225972,86.070763,28.764931,28.43303,26.787026,24.387909,11.354313,9.541764,11.457631,13.957512,-5.341003,-6.651271,-2.015155,2.05988,-21.844722,-23.217533,-17.647899,-13.423931,-12.42707,-36.465687,-53.688464,-58.182205,-71.656114,-105.893605,-126.580936,-144.733112,-68.869617,-82.38862,-56.889225,-41.068847,-63.866265,-72.656782,-48.405451,-35.083204,-56.051634,-68.571702,-52.593422,-42.011516,50.859048,291.472646,-288.905795,-161.18296
76,0.440644,0.154326,0.378617,1.523762,-25.56395,-50.063027,-73.228478,-90.793728,-61.238526,-93.983265,-111.252548,-124.157215,-56.259407,-91.640637,-111.746292,-127.597607,-48.381592,-81.011559,-99.946129,-114.369908,-38.605362,-63.883713,-78.444374,-90.789551,-18.899158,-20.538199,-9.121783,0.641661,7.301678,19.613166,26.115559,31.51152,25.089613,35.37197,40.745886,45.396791,38.383389,48.990665,54.503693,58.859678,47.211834,57.973041,62.122631,64.792015,24.256279,47.348545,67.364593,85.904377,28.511638,28.339783,26.870693,24.682251,11.074917,9.608677,11.495682,13.806713,-5.651699,-6.583924,-2.054135,1.804584,-22.204319,-23.29937,-17.739773,-13.584366,-12.31255,-36.218664,-53.268357,-57.871121,-71.610474,-105.691554,-126.341937,-144.40193,-68.947432,-82.131694,-56.606528,-40.604517,-64.001696,-72.444262,-48.267123,-34.826056,-56.202761,-68.628077,-52.754278,-42.10173,51.358006,291.600824,-288.468864,-159.685346
77,0.244995,0.229971,0.469951,2.283107,-25.565117,-50.131371,-73.415325,-91.103726,-61.526367,-94.346935,-111.565899,-124.396282,-56.470757,-91.970261,-112.004151,-127.71516,-48.552818,-81.271603,-100.140324,-114.443344,-38.752968,-64.10463,-78.649052,-90.886837,-19.153236,-20.744013,-9.244209,0.577984,7.183537,19.58649,26.014028,31.307768,25.046609,35.383628,40.723853,45.326581,38.397641,49.000459,54.490083,58.822578,47.276153,57.937361,62.050976,64.696426,24.521931,47.482212,67.189934,85.837029,28.552712,28.484036,27.23156,25.26241,11.088982,10.086194,11.991097,13.95171,-5.634704,-5.962852,-1.758419,1.406777,-22.277572,-22.98714,-17.455799,-13.654758,-12.858844,-36.21465,-52.735636,-57.223662,-71.260914,-104.724348,-125.4326,-143.639862,-68.849344,-81.650436,-56.184029,-40.067372,-63.873301,-72.133271,-48.29127,-34.98338,-55.908406,-68.247006,-52.594823,-41.958268,51.66956,291.805579,-287.932354,-157.427455
78,0.270676,0.12607,0.774708,3.841778,-25.744561,-50.351738,-73.627156,-91.271588,-61.781891,-94.601567,-111.786885,-124.561684,-56.730515,-92.154648,-112.128399,-127.801072,-48.862542,-81.500107,-100.331749,-114.610463,-39.118584,-64.35418,-78.828507,-91.021363,-19.224855,-20.711521,-9.097244,0.800013,7.020293,19.495296,25.846697,30.990568,24.956849,35.313591,40.563475,45.038021,38.354576,48.976055,54.466271,58.761432,47.252934,57.983773,62.171784,64.82594,24.851853,47.615158,67.008637,85.870709,28.863144,28.956333,27.68383,25.831101,11.259087,10.715527,12.78114,14.732334,-5.522117,-5.225429,-1.147144,1.641793,-22.229507,-22.672245,-17.025055,-13.278122,-13.52159,-36.374229,-52.33132,-56.912975,-70.907551,-104.043702,-124.988241,-143.307274,-68.827714,-81.221302,-56.018004,-39.770069,-63.936059,-71.892893,-48.43711,-35.278542,-55.904408,-67.905357,-52.24431,-41.529514,52.014891,291.876099,-287.082991,-153.641227
79,0.215995,0.106248,1.383831,5.521085,-25.827667,-50.474418,-73.693874,-91.303939,-61.932541,-94.771225,-111.935623,-124.639194,-56.857567,-92.23582,-112.134052,-127.751884,-48.998909,-81.574447,-100.301948,-114.508667,-39.247329,-64.391132,-78.757438,-90.828792,-19.202353,-20.551723,-8.78023,1.114459,7.131159,19.63479,25.916265,30.903265,25.087389,35.453838,40.739389,45.213108,38.454155,49.082055,54.59223,58.87199,47.294158,58.073212,62.379278,65.084847,25.219368,47.834313,66.967484,86.119492,29.257611,29.624062,28.398171,26.692086,11.578446,11.55431,13.756291,15.669033,-5.243969,-4.230022,-0.319599,2.053562,-22.055385,-22.102169,-16.357795,-12.714889,-13.928111,-36.128446,-51.484264,-56.168659,-70.238719,-103.087832,-124.223103,-142.647,-68.527899,-80.579384,-55.724121,-39.390909,-63.723158,-71.405533,-48.424432,-35.41241,-55.616067,-67.278058,-51.586698,-40.714155,52.334976,291.93788,-285.59507,-148.164609
80,0.159119,0.206283,2.381367,8.17088,-25.936272,-50.622803,-73.822403,-91.328808,-62.065544,-94.917389,-112.114849,-124.804081,-56.920372,-92.283737,-112.126877,-127.674305,-49.036766,-81.528557,-100.203701,-114.341755,-39.290497,-64.366756,-78.674492,-90.655586,-19.209046,-20.445142,-8.607155,1.367537,7.229714,19.804222,26.048287,30.956655,25.200269,35.607362,40.919886,45.423121,38.549411,49.205828,54.747965,59.032048,47.344325,58.121526,62.473052,65.186193,25.464729,48.040638,66.997925,86.362232,29.434181,30.289444,29.30682,27.818996,11.814571,12.600826,14.867924,16.490913,-4.973042,-3.033119,0.615692,2.34399,-21.872166,-21.456825,-15.807175,-12.575054,-13.927855,-35.547684,-50.336201,-55.098686,-69.375628,-101.978737,-123.335988,-141.926534,-68.013766,-79.697141,-55.154496,-38.765399,-63.324585,-70.854371,-48.188944,-35.125657,-55.186936,-66.994517,-51.443367,-40.456033,52.642084,292.126046,-283.065714,-140.011846
81,0.135269,0.16685,2.961834,11.636581,-26.089874,-50.84832,-74.007088,-91.418918,-62.052154,-94.930126,-112.208095,-124.957672,-56.822662,-92.205929,-112.017105,-127.552288,-48.95105,-81.42873,-100.119564,-114.269749,-39.29718,-64.33263,-78.628338,-90.619629,-19.154855,-20.235228,-8.293785,1.725504,7.504169,20.041046,26.199366,30.979218,25.462905,35.812966,41.048475,45.483933,38.753731,49.379124,54.879258,59.107531,47.45944,58.305764,62.665442,65.346113,26.019333,48.563347,67.168362,86.727699,30.633339,31.737579,30.766582,29.470219,12.836883,13.934795,16.259067,18.055229,-4.056702,-1.841698,1.595272,3.244114,-21.083439,-20.631683,-15.050022,-11.764984,-14.239571,-35.111791,-49.379711,-54.430358,-68.353856,-100.991904,-122.397508,-141.007265,-67.406846,-78.690563,-54.636098,-38.402307,-63.002513,-70.305376,-48.191911,-35.324076,-55.087101,-66.617194,-51.12496,-40.005517,52.966627,292.321335,-279.914606,-128.346826
82,0.169556,0.212273,4.722679,15.598006,-26.093353,-51.064339,-74.285671,-91.537319,-61.856758,-94.765984,-112.139443,-124.980675,-56.561943,-92.056538,-111.908409,-127.449967,-48.760277,-81.317253,-100.102421,-114.30708,-39.308647,-64.455506,-78.861695,-90.9165,-19.075567,-19.95535,-7.900978,2.335512,7.86925,20.265386,26.360485,31.044439,25.85486,36.073887,41.16343,45.467446,39.098595,49.670932,55.059582,59.174333,47.727165,58.624087,62.880247,65.418411,26.426674,49.239361,67.854767,87.041725,31.225479,32.80014,32.229034,31.368988,13.414192,15.076904,17.360138,19.040737,-3.550575,-0.896336,2.406715,3.964016,-20.699661,-19.955509,-14.576122,-11.462791,-13.995818,-34.640262,-49.014121,-54.474053,-67.852999,-100.386713,-121.806087,-140.362406,-67.115186,-78.282168,-54.700547,-38.295861,-62.996184,-70.175138,-48.448089,-35.407968,-55.449122,-66.997351,-51.58669,-40.19946,53.306986,292.560519,-275.021124,-112.721909
83,0.016891,0.340183,5.994427,20.195348,-26.090378,-51.16262,-74.406269,-91.625644,-61.532455,-94.46236,-111.90311,-124.888584,-56.182914,-91.889785,-111.78638,-127.318039,-48.468178,-81.190017,-100.091892,-114.386295,-39.23172,-64.57045,-79.104126,-91.279381,-18.923587,-19.668865,-7.617074,2.670495,8.167727,20.564023,26.656961,31.322291,26.133873,36.380774,41.348224,45.544584,39.338013,49.930234,55.247278,59.290436,47.928335,58.856269,63.043218,65.543913,26.754089,49.82452,68.239872,86.460686,31.675827,33.815082,33.954506,33.527664,14.028797,16.280021,18.549797,19.777199,-2.890618,-0.007828,3.294903,4.626594,-20.066849,-18.881516,-13.656155,-10.893597,-14.133983,-35.256413,-50.262337,-56.486859,-68.416628,-101.158713,-122.224177,-140.636206,-67.526153,-78.778396,-55.272772,-38.756114,-63.385433,-70.619846,-49.07278,-35.893056,-56.020511,-67.608439,-52.32921,-41.02484,53.521167,292.970909,-268.829407,-92.456354
84,-0.197456,0.370576,7.582134,23.964415,-26.074287,-51.217804,-74.516018,-91.708763,-61.241959,-94.208908,-111.584427,-124.558491,-55.765549,-91.689194,-111.568085,-127.04591,-48.036667,-80.906468,-99.862713,-114.200512,-38.897209,-64.351547,-78.986618,-91.266117,-18.763789,-19.435472,-7.441665,3.035848,8.528646,20.887275,26.95534,31.571245,26.500992,36.671594,41.47275,45.521181,39.676493,50.280286,55.503457,59.446924,48.184032,59.181682,63.259568,65.674132,27.064716,49.946182,67.111153,83.578674,31.6814,34.639435,35.575527,35.730892,14.295044,17.090378,19.336681,20.143101,-2.514267,0.705551,3.986836,5.065636,-19.567509,-17.805702,-12.757153,-10.387024,-14.488839,-36.517236,-52.835264,-60.549125,-68.869043,-101.150812,-121.447021,-139.322104,-67.962485,-78.75244,-55.409176,-39.08446,-63.748618,-70.436429,-49.031423,-35.941083,-56.511226,-67.384816,-52.109511,-41.11507,53.663715,293.395201,-260.907269,-68.438223
85,-0.696213,0.765533,8.790848,27.856618,-25.966003,-50.994964,-74.247745,-91.352531,-60.721069,-93.830314,-111.047653,-123.90358,-55.132301,-91.454212,-111.192867,-126.488514,-47.440796,-80.582577,-99.468475,-113.746822,-38.49836,-64.16946,-78.876709,-91.235939,-18.853463,-19.555109,-7.610689,3.060449,8.459065,20.793994,26.824934,31.372531,26.629013,36.643497,41.16543,44.936812,39.894928,50.342097,55.410188,59.156548,48.39712,59.352828,63.261691,65.546246,27.78416,49.982391,64.732967,78.812153,31.368095,34.955223,36.728073,37.70224,14.218918,17.843582,20.2947,20.809662,-2.346897,1.393947,4.883251,5.736156,-19.169964,-16.710743,-11.362301,-8.873577,-15.562185,-38.611261,-56.469406,-66.613748,-69.651455,-100.433989,-118.959205,-135.079122,-68.864819,-79.611247,-57.050585,-41.165987,-64.692344,-71.359731,-50.400693,-37.287097,-57.59323,-67.896786,-52.801919,-41.564444,53.703861,294.239238,-251.380062,-40.503101
86,-0.590332,0.592495,11.826736,26.313826,-25.868202,-50.733513,-74.013096,-91.044674,-60.395073,-93.405315,-110.47538,-123.294685,-54.779434,-91.099811,-110.715053,-125.910152,-47.106514,-80.204716,-98.974228,-113.163883,-38.250069,-63.946655,-78.647232,-90.954941,-18.778313,-19.61287,-7.889011,3.052051,8.578021,20.846025,26.833024,31.417016,26.836494,36.726403,41.07031,44.708336,40.171533,50.607352,55.580014,59.25015,48.724224,59.71991,63.521957,65.738575,26.833145,47.086052,58.633679,67.056931,28.223408,32.62254,35.616875,37.151242,11.740837,16.255921,19.620827,19.528645,-4.19791,0.295647,4.597355,4.906597,-20.241611,-17.119114,-11.252929,-9.112461,-15.88173,-40.123028,-59.331006,-70.602222,-68.835259,-97.294215,-108.888163,-118.588264,-67.281532,-77.665136,-55.34871,-39.533528,-62.327525,-68.512854,-47.697222,-34.244951,-54.911424,-64.7361,-50.010899,-38.727401,54.571844,294.585562,-238.095011,-14.435446
87,-0.687218,0.34868,12.5537,29.149992,-25.882782,-50.486595,-73.600868,-90.626232,-60.182304,-92.938407,-109.890152,-122.723316,-54.546592,-90.653194,-110.245411,-125.512847,-46.831443,-79.706691,-98.449241,-112.741458,-37.864906,-63.411438,-78.108444,-90.559078,-18.551738,-19.539621,-8.000445,3.002453,8.843869,21.166818,27.115458,31.689212,27.019226,36.92314,41.238987,44.846385,40.317017,50.804768,55.849567,59.521518,48.869708,59.987919,63.92347,66.262613,26.18284,44.80632,53.194164,55.916141,25.110626,30.545877,35.071598,37.207563,8.998558,14.572179,19.51173,19.580778,-6.344422,-0.858364,4.811971,5.266165,-21.347037,-17.310477,-10.494129,-8.12122,-16.576348,-41.957247,-61.720253,-73.382309,-68.942038,-95.043603,-99.135717,-102.165467,-66.466893,-76.04356,-54.016846,-38.603486,-60.491395,-65.667917,-45.28501,-31.764492,-52.285781,-60.93986,-46.57321,-35.406544,55.674207,294.659208,-223.75173,14.439512
88,-0.86618,0.380012,13.544643,30.737503,-25.78569,-50.213768,-73.190426,-90.041027,-60.154919,-92.645828,-109.358002,-122.054363,-54.43396,-90.304173,-109.69598,-124.86129,-46.597,-79.208794,-97.787189,-112.04274,-37.461182,-62.89975,-77.562778,-90.015083,-18.528063,-19.676077,-8.344395,2.826205,8.959256,21.232002,27.10354,31.587064,27.139676,37.013752,41.314335,44.892463,40.424895,50.945139,56.017429,59.658851,48.974536,60.160808,64.127531,66.45457,25.935179,43.315716,48.723049,46.065949,21.585766,28.236734,34.937233,38.056383,5.669312,12.740324,19.647022,20.141493,-9.067943,-1.844101,5.260706,5.844641,-22.913835,-17.404375,-9.582607,-7.077255,-17.239338,-43.118445,-62.555662,-73.26985,-69.128259,-91.751609,-88.100511,-84.546713,-65.789917,-74.374379,-52.854172,-37.835811,-58.714824,-62.808027,-43.257473,-29.762495,-49.364641,-56.851539,-43.032775,-31.825675,56.796347,294.622387,-208.218767,44.760182
89,-0.954391,0.008175,11.621721,30.612134,-25.792649,-50.011025,-72.811799,-89.49107,-59.988053,-92.223485,-108.777363,-121.400036,-54.275734,-89.888237,-109.093987,-124.128731,-46.410622,-78.803547,-97.292222,-111.549065,-37.225274,-62.530118,-77.178086,-89.650841,-18.500349,-19.670198,-8.36697,2.953868,9.117486,21.27056,27.096723,31.588436,27.327769,37.189952,41.477839,45.033353,40.617964,51.19455,56.259418,59.869507,49.195949,60.567299,64.587856,66.924924,25.597687,42.500508,47.277718,41.942494,19.662512,29.595349,38.056281,41.444899,4.53938,15.632738,23.529791,23.494229,-8.722269,2.384268,9.843956,9.581624,-20.48493,-11.936456,-4.05459,-2.373407,-18.390533,-43.915976,-61.463353,-69.720291,-69.403163,-87.893212,-77.348532,-68.225292,-64.294094,-71.207581,-50.795043,-36.760527,-55.503991,-57.927639,-40.014786,-27.487467,-44.531501,-50.610956,-38.023295,-27.347822,57.84549,294.35186,-194.593512,75.093614
90,-0.600792,-0.463807,9.530903,29.338497,-25.82943,-50.063805,-72.813904,-89.502514,-60.005677,-91.895245,-108.454743,-121.20686,-54.288254,-89.494046,-108.677628,-123.779904,-46.370224,-78.447236,-97.030209,-111.456059,-37.038323,-62.187722,-76.90448,-89.493164,-18.28484,-19.360569,-8.048227,3.328384,9.649885,21.774319,27.619885,32.197073,27.717278,37.728279,42.101629,45.765762,40.911464,51.726851,56.874143,60.603139,49.464365,61.117829,65.320142,67.811944,24.978813,42.275528,48.987454,43.681607,19.49853,35.192379,44.94385,47.789698,5.782574,23.009966,30.758555,29.342652,-5.247579,11.724032,18.314358,16.403092,-13.977373,-0.827402,5.867358,5.526335,-19.670161,-44.091971,-58.536315,-62.644718,-69.144545,-83.323212,-67.311953,-54.375822,-61.382697,-65.11211,-45.979171,-33.539458,-50.076709,-49.136986,-33.553741,-23.41575,-36.899434,-40.051635,-28.979274,-20.105579,58.984314,293.638356,-183.322993,104.182414
91,-0.784928,-0.388743,7.736206,30.365574,-25.893951,-50.182434,-72.858009,-89.501735,-59.899921,-91.691025,-108.165527,-120.889915,-54.101051,-89.300892,-108.43626,-123.517513,-46.110924,-78.196152,-96.859165,-111.460235,-36.667259,-61.873546,-76.698131,-89.515285,-18.231217,-19.153891,-7.797052,3.606965,9.975408,22.170806,28.012148,32.520508,27.965094,38.131756,42.547762,46.210673,41.072792,52.03002,57.250486,60.990573,49.560411,61.413242,65.792235,68.427212,23.557263,42.920449,54.194744,53.830502,21.075915,43.222676,54.140391,56.637675,9.86316,33.300265,39.353148,36.555474,1.599856,24.03118,28.315956,24.943818,-4.22299,13.343897,17.673323,15.626112,-21.647027,-44.114034,-53.917768,-53.677657,-66.679636,-76.421313,-60.787498,-49.248433,-56.306832,-58.038848,-41.593262,-32.118656,-42.806247,-40.573025,-28.285913,-21.183769,-27.794941,-29.456765,-20.895101,-14.516901,59.320896,293.307597,-174.465277,134.605972
92,-0.95993,-0.190896,7.200806,25.944812,-25.889397,-50.180489,-72.871456,-89.447846,-59.951672,-91.703362,-108.009499,-120.571976,-54.109314,-89.270851,-108.129021,-122.918919,-46.066292,-78.097229,-96.632973,-111.127957,-36.588959,-61.76706,-76.559441,-89.370838,-18.366758,-19.225435,-7.871819,3.647041,9.958045,22.216736,28.133426,32.717456,27.987794,38.363,42.773066,46.403187,41.111622,52.21174,57.414558,61.121373,49.596412,61.595789,66.062851,68.782055,22.938646,44.489983,59.878281,64.116428,23.768091,52.268389,64.121779,65.868599,14.414738,44.192837,47.654497,42.645956,8.047594,35.991457,37.510591,32.261461,4.116726,26.267189,28.293188,24.433039,-21.880715,-40.880465,-45.764101,-41.79672,-60.564381,-65.729568,-50.621713,-40.174015,-47.787094,-44.780574,-31.439067,-25.910423,-32.250193,-26.192851,-17.715545,-14.589998,-15.878337,-13.632638,-8.345293,-5.314731,59.190314,293.190366,-166.435123,160.624449
93,-0.8424,-0.357868,10.012505,21.852304,-25.999031,-50.316948,-73.005604,-89.532657,-60.002025,-91.737247,-108.002987,-120.459217,-54.10334,-89.140652,-107.839702,-122.434891,-46.01889,-77.989506,-96.440849,-110.78595,-36.52993,-61.548569,-76.244797,-88.966015,-18.415665,-19.209639,-7.852639,3.834417,10.124239,22.343399,28.343056,33.072693,28.227262,38.651016,43.074926,46.715916,41.367144,52.566878,57.712886,61.362002,49.779156,61.993005,66.598227,69.454826,21.891443,45.011844,64.194648,72.083839,26.035394,57.993227,65.438776,63.679653,18.282268,52.640258,52.126985,44.599245,13.68017,46.187708,44.04313,36.478517,11.572128,37.175686,36.442835,30.468103,-21.733465,-37.39374,-37.456114,-29.399998,-49.084195,-49.632428,-38.948582,-32.0445,-33.698503,-27.972687,-20.05596,-17.839151,-16.573351,-9.137832,-5.64765,-5.399499,0.313244,4.300916,5.556608,5.863063,58.986831,292.981956,-155.783701,182.626211
94,-0.942993,-0.06732,10.109544,19.448394,-25.895966,-50.223083,-72.995213,-89.670971,-59.979515,-91.817036,-108.057987,-120.408497,-54.008102,-89.169949,-107.778076,-122.196407,-45.885681,-77.960838,-96.383491,-110.616669,-36.376923,-61.498306,-76.175251,-88.868019,-18.564224,-19.393372,-8.053378,3.678336,10.04011,22.315722,28.393926,33.273295,28.16067,38.789917,43.195957,46.830821,41.288548,52.722674,57.84907,61.490257,49.648381,62.004848,66.715948,69.746917,20.926392,44.868897,65.931015,76.452187,27.517228,60.678212,68.084782,67.188149,20.953308,56.32845,56.333599,50.103505,17.293454,50.946213,49.433808,42.72559,15.953282,42.382027,41.505135,35.884529,-20.948864,-33.439651,-30.55955,-20.101846,-37.511251,-34.456643,-26.099145,-21.125347,-20.875233,-13.887668,-9.351717,-9.468327,-3.584451,4.345908,4.740196,2.77515,12.596677,17.13711,15.865225,13.952283,58.645821,292.989474,-145.072174,202.149443
95,-0.860596,-0.204752,13.81596,19.045223,-25.889763,-50.101318,-72.818355,-89.399128,-60.036987,-91.773639,-107.875168,-120.0569,-54.099266,-89.11718,-107.644912,-121.981899,-46.00193,-77.967189,-96.254287,-110.324752,-36.522125,-61.473827,-75.985679,-88.540912,-18.652774,-19.597766,-8.27027,3.573657,10.090066,22.284476,28.404288,33.364303,28.183073,38.854026,43.344047,47.035659,41.286473,52.842483,57.987687,61.602408,49.609676,62.086532,66.90683,69.9955,19.77491,43.553089,64.996651,75.258316,29.787438,62.201306,68.19175,65.856926,24.932808,60.248474,60.101429,52.885849,22.237335,55.595764,54.681908,47.850758,21.31667,47.671509,48.292259,43.636574,-21.157803,-31.399344,-25.452792,-12.068291,-25.122353,-19.163771,-12.03271,-7.769795,-6.12653,3.910715,8.437193,8.504439,12.271387,22.24072,23.389277,22.445533,28.264756,35.157893,34.383234,32.674699,58.283844,292.836512,-130.757595,221.246456
96,-0.922462,-0.44937,11.16338,16.674575,-25.859207,-49.743897,-71.516487,-86.826439,-60.26041,-91.44849,-107.200722,-118.674683,-54.459549,-88.911415,-107.408833,-121.611397,-46.412338,-77.698242,-95.806915,-109.710846,-36.9478,-61.33635,-75.606915,-87.930107,-18.693542,-19.744497,-8.874856,2.734197,10.799245,22.812701,28.356456,32.752505,28.733146,39.616903,44.172107,47.880355,41.632905,53.44634,58.646885,62.258,49.759667,62.374955,67.414789,70.639717,21.261646,45.597267,66.57114,75.618221,30.534553,64.008636,69.824089,67.86628,25.308437,62.890011,65.698643,60.050617,22.403263,57.97728,60.08099,54.469871,21.425571,49.107399,52.488865,48.776504,-20.058053,-28.470658,-20.97538,-6.085849,-15.538096,-7.198308,-2.95619,-0.323017,4.644507,16.913092,18.687107,18.111642,22.887543,34.536066,33.570092,32.219561,37.682892,46.602937,44.746077,42.390336,57.771681,292.47212,-119.183916,238.006009
97,-0.135933,-1.043311,9.521461,14.566687,-25.872231,-49.584526,-70.00494,-83.532658,-61.125183,-91.163498,-107.043903,-118.587547,-55.482525,-88.594952,-107.360252,-121.818478,-47.476318,-77.597878,-95.590965,-109.552437,-37.81295,-61.243298,-75.298748,-87.704395,-18.118806,-19.042555,-9.164489,0.950203,12.597455,25.011931,30.210179,33.993306,29.59906,41.295588,46.062782,49.74759,41.847538,54.45102,59.933962,63.764748,49.700227,62.580511,67.942361,71.571161,22.461331,47.065739,67.848038,76.147191,32.779015,66.08796,70.221131,67.414135,27.314965,65.30048,69.859738,64.927609,24.236733,60.276604,64.518677,59.699604,23.243111,50.723637,55.743325,52.697251,-19.52758,-26.790972,-18.689639,-2.917201,-6.268272,3.630702,3.048223,2.625393,14.381016,25.446147,23.704365,22.896744,31.583582,42.041261,39.038462,37.728193,44.620576,52.742768,49.829989,47.319081,58.057102,291.62838,-109.241101,252.772267
98,-0.158821,-0.639512,5.080685,11.977604,-26.745346,-50.477028,-69.783291,-83.188179,-61.018776,-90.009819,-106.33675,-118.341992,-55.84679,-88.114678,-107.296166,-122.200253,-48.345772,-77.666828,-95.836682,-110.071404,-39.251518,-61.540764,-75.391251,-87.7496,-14.808082,-13.187689,-3.190211,6.234927,16.031766,27.409378,31.456624,34.233243,30.487858,41.714985,45.475696,47.975205,40.760892,53.210355,57.78322,60.645846,47.175179,59.924477,65.205373,68.64387,23.593598,48.74754,69.783554,78.620075,36.582424,71.772732,79.883503,79.617394,31.298058,70.324791,78.995339,76.227711,28.067619,64.23872,72.486843,70.105179,26.888523,54.065231,62.310413,61.69915,-18.906408,-24.445099,-15.887665,-0.465314,-0.45168,9.853661,8.67928,8.026331,20.058646,31.32649,29.610644,28.368559,36.238019,47.583707,45.019644,42.900333,47.653447,57.167778,55.035969,51.916881,58.313564,291.322524,-103.745133,265.083527
99,0.645744,-1.033837,6.061604,9.652726,-27.575294,-51.556595,-69.689678,-82.087749,-59.342216,-88.117641,-105.173836,-117.888553,-54.728268,-86.734611,-106.7341,-122.399071,-47.978622,-77.233715,-96.230987,-111.431316,-39.599556,-61.436085,-75.708778,-88.835506,-13.784261,-11.816028,-2.438339,5.66686,18.32483,28.793747,31.285587,32.370936,31.850195,42.660062,45.084506,46.260605,41.294377,53.652808,57.459672,59.364796,47.061606,60.325546,66.063777,69.745756,24.56282,50.072136,71.53918,81.308132,39.845512,76.395069,85.503376,85.280193,34.421814,75.329132,86.10696,84.37445,30.947158,68.167305,78.716949,78.399536,29.602077,57.261852,67.794811,69.380619,-18.36356,-22.364518,-12.763601,2.441673,5.008835,15.908943,12.862153,10.842594,25.960354,38.227963,35.788921,33.933419,41.703684,54.486019,52.328472,50.25267,51.924414,63.759856,62.399668,59.515924,59.246132,290.620173,-97.396705,275.067739
100,0.751007,-0.757616,3.445587,5.059483,-29.225693,-53.855129,-71.101661,-82.580223,-55.932815,-84.26453,-102.808216,-116.808254,-51.042881,-82.894924,-104.267521,-120.997226,-44.95475,-74.123749,-94.312694,-110.488941,-37.842041,-59.066391,-73.756851,-87.361324,-11.080296,-7.940881,0.710327,8.300515,23.039943,33.510516,34.405971,33.688283,34.172888,45.097684,45.576275,44.777471,41.133085,53.538978,55.934437,56.072116,44.47445,58.015068,63.755472,67.09081,25.793186,51.958053,73.840771,85.505688,41.112362,78.889663,90.425365,92.944324,34.34119,75.896839,90.718872,93.843281,29.638298,67.190849,81.458965,85.671135,27.355316,54.636726,66.874248,71.393989,-16.362674,-18.492495,-9.003025,4.815457,9.379097,20.142712,14.23016,10.056523,28.805468,39.079736,33.336355,29.221332,42.424311,54.036637,49.341728,45.115307,50.336169,61.891808,59.111372,54.905909,60.201685,290.167205,-93.746572,280.43187
101,0.593605,-0.159353,5.201305,4.275512,-30.051017,-54.56567,-71.294014,-82.99562,-51.830978,-79.359329,-98.816482,-114.095363,-47.146442,-78.104358,-100.090633,-117.296665,-42.149437,-70.680885,-91.243561,-107.520046,-36.641327,-57.452167,-72.306118,-85.929474,-8.8311,-4.696292,3.152198,9.507217,26.072679,35.705076,36.475116,35.720872,35.021153,45.540731,45.262113,43.670867,39.942204,52.060525,53.547092,52.72465,41.474886,54.645138,59.801062,62.602493,26.379902,52.221966,73.82143,87.328537,44.601277,80.930924,94.033413,98.186005,36.979603,77.128773,93.637516,98.986176,31.161061,67.22311,83.463593,90.445118,27.736839,53.695439,67.093106,74.102589,-15.465601,-16.08229,-6.78316,5.391873,12.411487,23.243028,17.486432,12.937341,30.722719,40.710663,35.486615,31.003535,43.156461,55.49875,51.816648,47.129236,50.020822,62.525589,60.674843,56.519472,60.938455,290.271514,-88.402102,284.971044
102,-1.512016,0.423255,5.987171,3.258939,-29.640781,-54.000189,-71.158098,-84.449621,-48.931932,-73.535442,-89.663738,-102.367006,-44.822782,-72.046881,-90.071726,-103.718073,-40.748377,-65.790224,-82.537376,-95.411974,-36.587374,-55.888441,-68.615101,-79.659451,-2.739593,3.833337,11.904134,18.334118,29.479536,38.387391,38.858695,37.828241,34.6348,44.966385,44.335673,41.991547,35.839606,47.834012,48.815893,47.085307,33.881877,46.363223,51.211568,53.645257,25.793072,50.983647,72.432461,87.969487,46.230389,81.984181,97.570691,104.807019,38.339722,78.058228,97.648499,106.898861,31.950703,67.609818,86.676407,97.244053,27.78883,53.612023,69.050354,78.993714,-15.652148,-15.387017,-6.034793,4.671221,13.113182,24.23826,20.860302,17.509787,31.042328,41.212472,38.324702,34.595693,43.086708,55.965733,54.49569,50.454694,49.423857,62.729021,62.790067,59.338268,59.521614,290.877939,-82.319756,288.413153
103,-3.100342,0.109002,5.966092,2.245974,-27.068287,-51.052889,-68.874899,-82.930761,-48.918817,-67.711429,-76.298412,-82.839723,-45.514452,-64.838339,-74.370569,-80.500448,-41.726904,-59.432665,-67.87714,-73.855459,-37.637289,-53.998838,-62.313652,-68.718052,5.055655,13.287114,20.963166,26.669633,32.550977,43.034381,44.14169,42.940323,33.076467,45.569909,46.334793,44.308694,29.756894,43.335581,45.688111,44.481724,23.760108,35.721762,41.075745,44.167841,25.131774,49.66563,70.885162,88.215408,47.510662,82.70803,99.689106,109.397266,39.309001,78.648685,99.646785,111.559375,32.221344,67.949008,88.308551,101.109157,26.92163,53.383541,69.416759,80.871654,-15.865966,-15.260466,-6.032521,2.874383,13.091594,25.355658,24.121847,22.007439,30.941526,41.707834,40.529401,37.62828,42.89091,56.216982,56.253501,52.98767,49.156588,62.727192,63.779123,61.019423,56.483562,291.110248,-76.291374,290.782434
104,-5.177513,2.765258,4.945117,1.398425,-23.641537,-45.678583,-63.029303,-77.18569,-47.935186,-58.463127,-59.18993,-59.614031,-45.2637,-54.655523,-55.121034,-54.03705,-41.728987,-50.757482,-50.19928,-48.890871,-37.797586,-51.520552,-57.537723,-61.268944,10.47965,20.794433,29.217541,36.005677,32.95906,44.163845,46.232583,46.235979,30.163316,42.543669,44.622132,43.974846,24.209558,37.332897,40.176158,39.903586,16.484686,27.252692,32.847514,36.708638,24.739644,49.083893,70.396397,88.080597,49.340127,84.00689,101.168221,111.94265,40.731732,79.35315,100.154686,112.96843,32.650361,68.087059,88.167962,101.439904,25.860032,52.559807,68.352746,80.046193,-15.869585,-15.23132,-6.050738,1.724689,13.303014,26.215939,26.977482,26.542142,30.899177,41.89285,42.347246,40.839499,42.749674,55.919061,56.826471,54.340127,49.192687,62.455478,63.77501,61.345465,51.34203,293.940072,-71.310276,292.245425
105,-13.987163,1.724677,3.898373,1.032615,-16.843644,-33.921771,-48.610468,-62.062758,-40.391928,-39.853123,-32.398476,-27.697169,-39.599104,-35.419047,-27.35451,-20.089663,-37.679392,-34.622252,-25.35093,-17.934878,-35.02529,-42.070078,-42.53722,-41.702305,12.40052,24.612547,34.407033,41.454965,30.225258,42.667064,45.680842,46.468037,26.417289,40.267598,43.944088,44.27683,19.938812,34.354218,37.869323,38.566788,12.485136,23.600303,28.823684,32.763663,24.289307,48.694805,70.179176,88.252819,51.239056,85.195461,102.695995,114.537541,42.228447,79.880722,100.156048,113.29842,33.202778,68.14246,87.655598,100.919209,25.058865,51.952812,67.433785,79.160809,-15.950972,-15.31635,-6.164371,0.581133,13.115219,26.702199,29.691907,31.022913,30.660401,41.739672,43.737841,43.637349,42.58233,55.370939,57.043264,55.387414,49.316719,62.180454,63.494033,61.294953,37.381714,295.70075,-67.385056,293.314041
106,-5.86908,0.219547,2.729828,0.648564,-14.422188,-30.715216,-45.300516,-59.827429,-42.879713,-35.949841,-20.462677,-9.028295,-42.725481,-29.421541,-12.366606,2.641039,-40.232626,-28.636683,-10.614166,3.880709,-36.342196,-38.057619,-32.620171,-26.113552,20.700319,36.027827,46.675667,54.291543,32.006288,45.968489,49.916316,51.023859,23.930959,39.566546,44.99524,46.041385,13.87323,29.98571,35.249784,36.998377,3.796347,15.567588,22.282278,27.476963,23.943832,48.314713,69.831219,87.821285,52.637077,85.983204,103.366802,115.593304,43.461227,80.053814,99.919201,113.416225,33.739185,68.141098,87.202824,100.562176,24.541409,51.647701,67.078663,79.07056,-16.045548,-15.289451,-6.252562,-0.254078,13.197545,27.067515,31.415028,33.875683,30.709802,41.913389,45.279614,46.41135,42.70004,55.200645,57.744737,57.04098,49.597388,62.289456,63.848913,62.057781,31.516142,295.914933,-64.65172,293.957241
107,-7.638016,2.493797,1.322937,0.289289,-11.06139,-25.062046,-38.10981,-51.483593,-39.822258,-26.566177,-7.202007,7.083561,-39.892685,-19.526504,2.109066,20.377842,-37.151195,-19.363449,2.967533,20.415104,-32.657203,-31.585785,-25.129543,-18.060997,22.450066,38.690301,49.9598,58.482728,31.518324,45.193162,49.379112,51.233538,21.972809,36.198264,42.466326,44.689254,10.714733,25.373071,31.722211,34.715711,-0.161898,10.136046,16.968506,22.517411,23.982296,48.532093,70.095291,87.847927,53.511108,86.335041,103.650524,116.159489,44.244839,80.125385,99.76862,113.421581,34.140232,68.069321,86.856091,100.178318,24.293655,51.205833,66.475559,78.463429,-15.7818,-14.990629,-5.94491,-0.199146,13.350574,27.366535,32.468378,35.602088,30.857631,42.233539,46.460083,48.416867,42.889514,55.353921,58.410344,58.221907,49.989774,62.679805,64.394416,62.776493,23.829609,298.349268,-63.3773,294.187068
108,-8.978885,2.96334,0.279099,0.043991,-7.604439,-17.000737,-26.516602,-36.978596,-29.464371,-12.233059,6.789779,19.412475,-30.432335,-5.913975,14.488884,30.680145,-29.290661,-8.309659,12.807724,28.394325,-26.663407,-22.813111,-15.98457,-9.703206,11.858043,24.857913,36.512068,46.076885,23.625288,37.387676,41.390622,43.433153,20.276724,33.418014,38.975131,41.440825,14.650359,28.248949,33.218165,35.874754,8.873213,19.906517,25.490545,29.848865,24.139434,48.878265,70.412235,87.859897,53.776474,86.574039,103.785175,116.234928,44.432247,80.243968,99.790981,113.396221,34.180995,67.950496,86.660121,99.920024,24.218078,50.850162,66.038864,77.838855,-15.508098,-14.437,-5.340448,0.660939,13.442311,27.356124,32.720691,36.150877,30.841058,42.503734,47.156418,49.534426,42.774263,55.547546,58.909744,59.037728,49.82784,62.680879,64.551138,63.058989,14.722395,301.216929,-63.22653,294.13538
109,-1.421082,-1.700088,-0.060837,0.030825,-8.715889,-18.51265,-27.737755,-38.424019,-29.776337,-12.209461,6.334167,18.315468,-30.177017,-3.792011,15.676826,31.431633,-28.536095,-5.260254,15.406471,30.608299,-25.523849,-17.497032,-6.688957,2.881165,13.702553,27.952609,39.511039,48.538615,25.638623,40.426624,44.519639,45.991287,20.985878,36.14269,41.894839,43.614292,13.87354,29.516771,34.760308,36.865157,6.596785,19.099279,24.420979,27.93086,24.103077,48.977314,70.454944,87.741932,53.2061,86.523205,103.824268,116.343761,43.955955,80.41785,100.1376,113.85252,34.054962,68.349895,87.225025,100.527385,24.600792,51.434818,66.726791,78.441501,-15.504491,-14.280808,-5.023532,1.432919,13.250231,26.830493,31.952109,35.171355,30.855582,42.373059,46.758721,48.960383,42.908361,55.592414,58.748083,58.702103,49.92033,62.763008,64.487932,62.779779,13.138973,299.367661,-63.449707,294.017025
110,4.401798,1.848487,-0.30035,-0.171715,-9.39529,-20.218666,-29.696342,-39.925277,-35.299381,-18.194801,0.522,13.593899,-35.352344,-10.611488,9.896908,27.042767,-32.324638,-10.774143,10.248883,26.441197,-27.481292,-23.239792,-16.545639,-10.138984,15.979413,30.063558,40.505528,49.332626,26.466906,39.884245,44.34113,46.698588,20.395654,33.891232,40.110993,42.727629,12.312847,26.220101,32.494166,35.739866,4.302151,14.960408,21.177563,25.926367,24.08599,49.092487,70.48162,87.567489,52.606796,86.138282,103.409523,115.960807,43.373519,80.280189,100.103691,113.872352,33.754234,68.433254,87.455795,100.855453,24.696933,51.638946,66.919384,78.429977,-15.608924,-14.288082,-4.767144,2.05803,13.156061,26.612562,31.54584,34.598422,30.91422,42.475626,46.701355,48.738476,43.014571,55.725523,58.813377,58.708253,49.928802,62.752423,64.41903,62.583647,17.338726,301.023119,-63.952102,293.652281
111,0.366623,0.86868,-0.230004,-0.10589,-9.934032,-21.101143,-30.75428,-40.715034,-35.19556,-17.68547,0.323857,12.665142,-34.835552,-9.547565,10.065159,26.53957,-31.549667,-9.552921,10.638806,26.05386,-26.647556,-21.877144,-15.290932,-9.325813,14.705107,28.30792,38.775059,47.711023,25.575081,38.704392,42.684676,44.80642,19.885905,32.942288,38.688671,41.157069,12.081171,25.519037,31.374112,34.448961,4.218492,14.721286,20.56632,25.080362,24.070004,49.066841,70.391922,87.245545,52.116532,85.887795,103.145554,115.744034,42.889023,80.151741,100.085793,113.918907,33.453541,68.394242,87.606102,101.065819,24.639244,51.639439,66.890522,78.217507,-15.701314,-14.513323,-4.787534,2.533039,12.869231,26.229772,31.058605,34.105074,30.757411,42.286201,46.512596,48.629709,42.896109,55.562515,58.66798,58.582085,49.77744,62.456158,64.107895,62.238599,17.488037,301.65209,-64.399418,293.306682
112,0.257332,0.681724,0.005825,-0.06669,-10.065342,-21.240337,-30.831104,-40.979565,-35.386414,-17.745403,0.288586,12.610622,-35.063793,-9.432758,10.231487,26.75948,-31.742146,-9.43919,10.738461,26.214718,-26.757385,-22.648499,-17.070648,-11.810909,14.289305,27.506993,37.507435,46.354454,24.495401,37.367015,41.316682,43.362856,19.241058,32.531785,38.101104,40.54274,11.970725,25.54354,31.285155,34.658617,4.666146,15.957529,22.285638,27.355198,23.980488,48.885704,70.145977,86.85204,51.622479,85.680485,102.980633,115.613606,42.375996,79.965214,99.978253,113.808506,33.088772,68.330166,87.675419,101.155163,24.56527,51.694428,67.011006,78.385723,-15.758631,-14.710838,-4.921669,2.693491,12.691908,25.977435,30.691214,33.69468,30.650854,42.104815,46.260667,48.39502,42.823182,55.451573,58.468945,58.37648,49.677095,62.335324,63.970771,62.124261,17.535095,302.067358,-64.603867,292.973536
113,4.622669,-2.599494,0.139744,-0.052846,-13.138572,-27.393665,-38.6254,-50.218094,-42.229809,-26.643402,-8.336677,5.013863,-40.859138,-16.303528,4.107033,21.948487,-36.074581,-14.194885,6.958443,23.774094,-29.502685,-24.925483,-18.303646,-11.676086,21.072303,36.76864,47.044514,55.608469,30.039216,43.364276,47.705527,49.841128,20.855781,35.040061,41.257673,43.660443,10.065292,24.731348,31.319389,34.865184,-0.198886,11.81068,19.064772,24.755542,23.911915,48.771378,70.013992,86.650658,51.272072,85.542641,102.975746,115.700066,42.040066,79.847122,99.955879,113.796867,32.889977,68.30468,87.74398,101.231438,24.600746,51.819305,67.177128,78.673439,-15.805488,-14.959618,-5.160643,2.704631,12.603543,25.729741,30.272275,33.136271,30.65041,41.914512,45.938045,48.036991,42.86905,55.361405,58.237381,58.057663,49.729842,62.471582,64.079217,62.24586,21.968221,299.202433,-64.653666,292.655259
