takenoko1/special-research/HandMotion_SimilarSearch_自分用/NewProject/handData_new/key/d3_feature/55.csv
,vel_0x_L,vel_0y_L,vel_0x_R,vel_0y_R,posFromWrist_1x_L,posFromWrist_2x_L,posFromWrist_3x_L,posFromWrist_4x_L,posFromWrist_5x_L,posFromWrist_6x_L,posFromWrist_7x_L,posFromWrist_8x_L,posFromWrist_9x_L,posFromWrist_10x_L,posFromWrist_11x_L,posFromWrist_12x_L,posFromWrist_13x_L,posFromWrist_14x_L,posFromWrist_15x_L,posFromWrist_16x_L,posFromWrist_17x_L,posFromWrist_18x_L,posFromWrist_19x_L,posFromWrist_20x_L,posFromWrist_1y_L,posFromWrist_2y_L,posFromWrist_3y_L,posFromWrist_4y_L,posFromWrist_5y_L,posFromWrist_6y_L,posFromWrist_7y_L,posFromWrist_8y_L,posFromWrist_9y_L,posFromWrist_10y_L,posFromWrist_11y_L,posFromWrist_12y_L,posFromWrist_13y_L,posFromWrist_14y_L,posFromWrist_15y_L,posFromWrist_16y_L,posFromWrist_17y_L,posFromWrist_18y_L,posFromWrist_19y_L,posFromWrist_20y_L,posFromWrist_1x_R,posFromWrist_2x_R,posFromWrist_3x_R,posFromWrist_4x_R,posFromWrist_5x_R,posFromWrist_6x_R,posFromWrist_7x_R,posFromWrist_8x_R,posFromWrist_9x_R,posFromWrist_10x_R,posFromWrist_11x_R,posFromWrist_12x_R,posFromWrist_13x_R,posFromWrist_14x_R,posFromWrist_15x_R,posFromWrist_16x_R,posFromWrist_17x_R,posFromWrist_18x_R,posFromWrist_19x_R,posFromWrist_20x_R,posFromWrist_1y_R,posFromWrist_2y_R,posFromWrist_3y_R,posFromWrist_4y_R,posFromWrist_5y_R,posFromWrist_6y_R,posFromWrist_7y_R,posFromWrist_8y_R,posFromWrist_9y_R,posFromWrist_10y_R,posFromWrist_11y_R,posFromWrist_12y_R,posFromWrist_13y_R,posFromWrist_14y_R,posFromWrist_15y_R,posFromWrist_16y_R,posFromWrist_17y_R,posFromWrist_18y_R,posFromWrist_19y_R,posFromWrist_20y_R,posFromBody_0x_L,posFromBody_0y_L,posFromBody_0x_R,posFromBody_0y_R
6,1.276166,-2.652958,0.901234,0.502982,1.470439,5.474853,8.403774,6.030635,-12.609227,12.684448,34.925296,49.193309,-20.240983,10.409717,35.34692,54.446971,-24.352067,0.911235,24.55537,41.547649,-25.633622,-22.879223,-16.527306,-9.673451,-6.196049,4.956298,24.780008,41.152969,16.594793,35.515984,43.003086,46.411782,29.334817,46.326283,53.322135,53.705988,38.063818,53.082766,57.652408,58.328896,44.73085,58.513566,65.768548,70.740716,25.599197,49.784203,70.667564,88.686241,49.217903,81.179924,97.706818,108.996575,39.794529,76.089157,95.93058,109.285973,30.431088,64.393845,83.050736,95.655144,21.765885,47.046387,62.215508,75.35186,-13.828869,-12.215849,-1.271453,6.899831,14.56954,31.565798,38.414524,42.939853,31.821235,47.206646,53.317306,56.466392,43.60083,59.397511,64.146501,64.897337,50.628237,66.42251,70.904565,71.295013,-15.970441,291.165564,-69.676111,290.956514
7,-2.92796,-0.503859,0.830933,0.461696,0.925472,5.008072,8.563019,6.442154,-11.008301,15.932991,37.851952,52.410576,-17.315014,15.00412,39.914314,58.246765,-20.07304,7.036457,30.800766,47.265953,-20.065189,-12.647106,-3.934696,4.290093,0.08177,13.275993,32.462291,48.31125,22.813208,41.355992,48.392551,51.79469,31.45524,47.862349,54.478103,55.165373,36.381392,51.237207,56.037647,57.186822,39.644605,54.689327,61.532804,66.091861,24.986,48.941745,69.733726,87.799507,48.522766,80.429901,96.965034,108.252845,39.129616,75.337875,95.142242,108.448883,29.714653,63.729618,82.400596,94.984337,20.957554,46.379894,61.516926,74.623054,-14.267112,-12.676854,-1.636448,6.475024,13.991223,31.084922,37.893498,42.382234,31.199482,46.514103,52.65076,55.904278,42.982337,58.675772,63.387711,64.242609,50.002853,65.805067,70.289827,70.806529,-18.959467,290.606652,-68.906244,291.363157
8,3.592632,-1.071258,0.731014,0.345295,-0.060699,1.82111,1.797867,-3.269863,-13.663192,11.347058,32.891018,46.775814,-20.02454,10.97564,34.701222,53.108883,-23.318596,3.316098,26.267659,42.651364,-24.203968,-19.19379,-13.012298,-6.73629,0.781031,15.583457,36.40987,52.994907,23.26485,42.378147,48.811033,51.524259,31.805945,48.695053,54.971748,55.372125,36.537286,52.036294,56.483102,57.824456,39.80313,54.314501,62.175847,68.087795,24.457306,48.262573,69.075222,87.250042,47.862774,79.830814,96.456013,107.797245,38.479729,74.729679,94.528851,107.788868,29.037838,63.183037,81.84248,94.385365,20.262646,45.84605,60.951817,73.985973,-14.537566,-12.992163,-1.923735,6.123826,13.569604,30.726968,37.533198,41.995394,30.753249,45.978925,52.15199,55.506236,42.560459,58.16958,62.816052,63.73943,49.578653,65.375063,69.779374,70.321333,-15.413996,289.465959,-68.222391,291.639017
9,-1.457851,-0.119055,0.57082,0.160144,-1.434506,0.176319,0.734745,-4.450573,-13.226635,12.555748,33.951347,48.406609,-18.389237,13.423416,37.71888,55.812904,-20.402767,7.111141,30.549133,46.927574,-20.019711,-11.228508,-2.28265,5.988773,6.377088,23.064853,43.752056,60.304785,26.99397,46.231212,53.03423,56.185107,32.414705,49.217425,55.886593,56.93903,34.549726,50.334416,55.506741,57.368553,35.669471,51.700026,58.998196,64.031237,24.007358,47.717102,68.603576,86.821609,47.361866,79.298263,96.011215,107.460708,37.979965,74.194977,94.016258,107.276733,28.496544,62.675583,81.319931,93.840019,19.680519,45.339237,60.421005,73.434105,-14.632711,-13.139339,-2.053683,6.016256,13.424503,30.596341,37.424035,41.898815,30.554153,45.743174,51.963713,55.422131,42.343196,57.946537,62.570285,63.561477,49.342679,65.199333,69.559307,70.146974,-16.906975,289.289936,-67.686699,291.742193
10,0.957756,2.235105,0.49918,0.150399,1.575726,3.861786,4.141651,-0.3563,-11.275097,13.459488,34.416527,47.528137,-18.224281,12.350201,36.003159,54.001831,-22.30838,3.540539,26.247002,42.328651,-23.865234,-19.727016,-14.1805,-8.437134,-1.202292,12.348712,32.59272,49.240742,19.877384,39.166101,46.020236,49.0609,29.691747,46.5185,52.694986,53.359347,35.803445,51.260685,55.880542,57.581519,40.521115,55.318168,63.295297,69.472511,23.589672,47.21252,68.099544,86.322406,46.860683,78.888691,95.693355,107.19746,37.470131,73.78387,93.673679,106.940151,27.975929,62.295765,81.01839,93.589107,19.193275,44.975143,60.091655,73.120525,-14.833375,-13.348747,-2.209676,5.936648,13.275376,30.506914,37.359432,41.797792,30.399321,45.605656,51.815636,55.252194,42.186844,57.838363,62.413513,63.394863,49.155527,65.09027,69.412922,70.02146,-15.973646,291.467798,-67.211946,291.835349
11,-3.015118,1.533226,0.302307,-0.020735,3.38419,7.624684,9.293198,6.086529,-7.421653,18.193268,38.540852,50.826771,-14.683857,16.321679,39.382634,56.672619,-19.28405,6.770291,28.81136,44.015431,-21.294937,-16.97327,-11.842312,-6.635948,-3.949729,7.706143,26.70115,43.141234,17.553197,36.314504,42.952006,45.816361,28.536644,45.076307,50.993367,51.592642,35.597235,50.668041,55.020272,56.544408,40.967842,55.330259,62.823844,68.481145,23.363605,46.966301,67.862217,86.089725,46.469902,78.594417,95.509472,107.135937,37.048404,73.42519,93.387073,106.748874,27.571014,61.96019,80.779484,93.456219,18.867462,44.703518,59.836635,72.872074,-14.912342,-13.383908,-2.217692,6.000398,13.362579,30.625944,37.510991,41.956947,30.42796,45.688512,51.909508,55.350068,42.166404,57.94808,62.530924,63.520055,49.070705,65.100211,69.379638,69.965254,-19.005827,292.950969,-66.926702,291.764559
12,2.209385,0.339232,0.098751,-0.007312,3.873791,7.717037,8.508007,5.056057,-8.251419,15.710724,36.023598,47.592888,-16.489723,12.734677,35.064469,52.404831,-22.406524,2.057808,23.322693,38.289368,-25.749824,-25.868179,-23.400066,-20.115875,-9.551702,0.410517,20.014914,36.787413,12.908183,31.630908,38.318342,41.116796,27.279924,43.895009,50.017216,50.460436,37.495295,52.409773,56.388229,57.549322,45.852658,58.653246,66.790394,73.178079,23.333542,46.95647,67.840576,86.050163,46.307854,78.504135,95.503944,107.255287,36.897926,73.30497,93.323456,106.815353,27.456688,61.830414,80.726463,93.564148,18.809189,44.607925,59.712238,72.786941,-14.922098,-13.426614,-2.249876,6.033435,13.328777,30.577619,37.528134,42.044707,30.342226,45.60678,51.906927,55.446263,42.05418,57.871869,62.5412,63.63112,48.968583,65.060148,69.315505,69.901553,-16.816212,293.249464,-66.847721,291.71651
13,-3.103489,1.808769,0.07196,0.03484,4.071087,9.971478,13.797238,12.426499,-5.080833,19.991284,40.371632,52.579022,-12.99773,17.167065,40.064495,56.983578,-18.30249,6.209816,27.47279,42.029492,-20.835811,-18.858307,-14.705223,-10.104744,-9.909669,-1.688849,15.786097,32.115006,11.210812,29.503951,37.048209,40.851392,25.710142,41.737832,48.541257,50.020983,36.022498,50.81187,55.402963,56.926618,44.45569,58.021317,65.354635,70.637852,23.350434,46.978684,67.812126,85.882279,46.327584,78.641785,95.644844,107.385842,36.833966,73.260407,93.276741,106.7398,27.34425,61.742134,80.66993,93.508988,18.674698,44.562962,59.681191,72.703286,-14.889173,-13.515152,-2.452702,5.860855,13.251725,30.543581,37.511078,42.089217,30.270286,45.53363,51.871062,55.484943,41.983981,57.79058,62.495109,63.657771,48.901658,64.979835,69.22094,69.838851,-19.950823,295.028772,-66.806883,291.721889
14,2.606793,-1.133244,0.08202,0.028084,4.812767,9.889103,12.070072,9.624389,-6.860275,16.784786,37.707527,49.880905,-15.896771,12.84494,35.622482,53.318161,-22.495297,0.972622,22.226005,37.449714,-26.316021,-27.702324,-25.617943,-22.373028,-12.427307,-4.405064,14.149885,30.429035,9.789873,28.190903,35.497657,39.083256,25.766496,42.142693,48.983724,50.25561,37.469335,52.444044,56.946119,58.633708,47.321416,59.968777,68.397733,75.186462,23.445751,47.030708,67.795269,85.731503,46.457531,78.815838,95.733204,107.379902,36.893967,73.266529,93.208614,106.604153,27.347843,61.688427,80.584568,93.394238,18.627606,44.549755,59.636376,72.556332,-14.907599,-13.674024,-2.708694,5.670417,13.06966,30.426799,37.435434,42.069432,30.120764,45.405905,51.815203,55.477274,41.858196,57.665153,62.440806,63.680927,48.780071,64.839748,69.096068,69.711102,-17.386259,293.871276,-66.767092,291.725721
15,-0.963959,0.699953,0.099392,-0.0124,3.41613,8.328701,10.882347,7.983044,-6.866421,17.608978,39.00444,52.406616,-15.055252,14.762833,38.719254,56.979813,-20.399906,3.668907,25.584183,41.341164,-22.921886,-22.369514,-19.054825,-14.786167,-8.526373,0.700781,18.95545,35.337464,10.716167,29.666899,37.770097,42.14394,24.886034,41.414977,48.78306,50.632732,35.279764,50.693915,56.069399,58.318683,44.050892,58.196849,66.178658,72.23683,23.525986,47.072342,67.784088,85.666832,46.643807,78.975266,95.838432,107.464829,36.994537,73.23896,93.091278,106.39048,27.350967,61.570129,80.372475,93.070404,18.531132,44.455879,59.537098,72.371224,-14.898793,-13.749569,-2.875976,5.487253,12.923658,30.383352,37.431976,42.097714,30.006218,45.343624,51.837112,55.560996,41.774327,57.621274,62.432767,63.721831,48.729548,64.796931,69.051621,69.646561,-18.405802,294.55216,-66.723284,291.694252
16,3.797195,-2.452553,0.115162,0.057996,1.66602,4.381394,5.189209,0.370949,-11.57254,11.720822,33.936974,48.515763,-19.632671,9.339959,34.275513,53.820832,-24.559879,-0.931789,22.119164,39.31707,-26.584453,-25.692363,-21.221866,-15.68328,-2.991746,9.17106,28.88415,45.164918,14.83829,34.660988,43.089017,47.597934,26.405946,43.602867,51.682575,53.803653,34.730531,50.925466,57.2298,60.177098,41.975299,57.06053,65.868423,72.783852,23.537865,47.013988,67.713077,85.643635,46.8517,79.201092,96.028255,107.612011,37.117527,73.350689,93.13084,106.320179,27.366062,61.58987,80.298008,92.843319,18.440746,44.448624,59.534351,72.287991,-14.940042,-13.889754,-3.064104,5.240128,12.712681,30.264544,37.321431,41.965136,29.859264,45.204846,51.740856,55.531603,41.672155,57.480137,62.276526,63.599738,48.673355,64.683483,68.919932,69.527074,-14.691708,292.085155,-66.691223,291.737796
17,0.002472,-1.072457,0.05912,0.003755,1.788907,4.23127,4.722886,-0.664959,-11.562618,11.620354,34.192223,49.256333,-19.882427,9.016388,34.665848,55.04242,-25.050579,-1.309524,22.587822,40.655732,-27.267414,-25.326255,-19.612644,-13.027782,-0.303824,13.057644,33.073892,49.172669,16.257402,36.660022,45.497037,50.178533,26.519221,44.556195,53.156447,55.355046,33.802361,50.808079,57.857963,61.248913,40.163716,56.156875,65.290996,72.449721,23.467404,46.951859,67.695774,85.580418,47.019528,79.296673,96.094128,107.69093,37.254227,73.428372,93.193874,106.377239,27.429875,61.647274,80.303318,92.765843,18.387829,44.515698,59.630608,72.375446,-14.918159,-14.027705,-3.290482,5.060187,12.59265,30.209561,37.25905,41.835398,29.773974,45.095856,51.628766,55.397159,41.616702,57.37295,62.168339,63.472618,48.658015,64.618731,68.882313,69.499187,-14.793349,291.01363,-66.736216,291.742483
18,0.613163,-2.040814,0.13044,-0.090131,2.517952,3.53167,1.325776,-6.119865,-11.925453,10.02245,32.636685,47.306729,-20.586559,7.096631,32.480862,53.63316,-26.79166,-3.07846,21.141003,39.943394,-30.35234,-28.923946,-23.412139,-17.057808,2.056054,17.920946,40.175559,56.649384,18.50219,39.430874,47.674134,51.47486,27.51754,46.609594,54.960362,56.15874,33.878573,51.541735,58.617122,61.906554,39.445423,55.360492,65.365343,73.423587,23.518433,46.94545,67.685772,85.698154,47.091831,79.187107,95.98756,107.664974,37.383385,73.394245,93.171421,106.415119,27.566013,61.644859,80.251614,92.68816,18.485527,44.543953,59.644718,72.420788,-14.888877,-13.957248,-3.1901,5.100275,12.610644,30.220466,37.219023,41.705413,29.768145,45.087545,51.581984,55.290059,41.619605,57.394069,62.160459,63.414227,48.724941,64.710245,68.979693,69.557257,-14.312216,288.979411,-66.737806,291.658947
19,-2.845459,0.982783,0.151325,0.053056,3.843373,6.129227,4.94727,-1.014667,-8.430049,13.905236,36.496022,50.857144,-17.196327,10.756176,35.966275,56.799649,-23.796581,0.082627,24.111706,42.556584,-27.83971,-25.929977,-20.192001,-13.827404,-0.249262,14.409298,35.994377,52.559073,16.125391,37.122297,45.446982,49.145201,26.432153,45.683869,53.792266,54.630676,33.760012,51.278061,58.117178,61.113148,39.930904,55.587708,65.027951,72.369605,23.468582,46.925034,67.680702,85.697182,47.038548,79.142235,95.993042,107.760224,37.352039,73.419891,93.273033,106.581047,27.573704,61.721169,80.352585,92.790001,18.541638,44.592167,59.733238,72.565476,-14.930756,-14.011885,-3.195386,5.074587,12.589575,30.148132,37.083061,41.483408,29.762389,44.996908,51.423261,55.081824,41.630559,57.338802,62.053174,63.254812,48.78227,64.740416,68.958266,69.464076,-17.318219,289.975933,-66.747025,291.725742
20,0.888153,-1.326979,0.117806,0.001927,4.991261,7.213223,5.584065,0.08416,-8.612537,12.912026,35.533711,49.127942,-18.259437,8.924424,33.522801,54.28307,-26.117465,-2.518489,21.305111,39.778485,-31.471893,-30.727294,-25.489665,-19.506774,-3.481402,10.432707,32.683233,49.353016,15.187501,35.988646,43.836407,46.89551,27.322606,46.745358,54.630836,54.888224,35.915299,53.206217,59.589567,62.264335,43.046051,57.465155,67.241913,75.130478,23.407241,46.962295,67.813202,85.687912,47.043113,79.136741,96.029411,107.922706,37.350219,73.443718,93.35971,106.795189,27.556652,61.686573,80.341323,92.864776,18.509594,44.477302,59.601596,72.506698,-14.86803,-14.014133,-3.191064,5.197371,12.783817,30.192876,37.038057,41.344914,29.955483,45.055657,51.427731,55.035746,41.779254,57.408962,62.127287,63.306855,48.893618,64.833091,69.025647,69.479019,-16.607106,288.658421,-66.806259,291.737136
21,-5.186359,2.129006,0.164714,-0.013746,6.475594,12.005287,13.75676,10.766934,-2.674759,21.087456,43.367729,56.833923,-12.567696,16.661831,41.035332,60.180451,-20.60495,3.770245,27.225037,44.637589,-26.087551,-22.873627,-16.596496,-10.219105,-6.169694,5.195803,25.021933,41.324882,11.367695,32.296898,41.046313,45.083654,25.420186,44.42789,52.821203,54.148812,35.589677,52.846941,59.290028,61.762243,43.925155,58.48999,67.148855,73.643998,23.413628,47.039292,67.968144,85.568745,47.13834,79.22089,96.101933,108.020108,37.528302,73.501477,93.384282,106.877438,27.773919,61.754128,80.382946,93.001957,18.725579,44.555958,59.606163,72.583134,-14.815431,-14.074685,-3.289494,5.319501,12.939935,30.194568,37.074379,41.432797,30.07166,45.035267,51.398202,54.974428,41.853021,57.393327,62.19767,63.379919,48.947773,64.957914,69.170613,69.593616,-21.973452,290.799369,-66.821532,291.735332
22,0.988381,0.35073,0.176297,-0.025911,6.531452,12.077922,13.904583,11.328243,-3.2459,20.3852,42.774124,56.2928,-13.223877,15.875152,40.335639,59.28511,-21.194172,2.846488,26.262771,43.635772,-26.568375,-23.737256,-17.524315,-11.107991,-8.419484,2.015619,21.594057,37.968302,9.747636,30.769365,39.535417,43.558876,25.248607,44.051854,52.254322,53.529616,36.573015,53.273809,59.472204,61.805839,45.810098,59.833049,68.02124,74.080413,23.490955,47.13842,68.086509,85.69725,47.309063,79.356559,96.187843,108.096977,37.65897,73.572349,93.40979,106.89553,27.885555,61.787944,80.358169,92.977134,18.839733,44.573238,59.572322,72.511734,-14.809502,-14.065286,-3.285863,5.268163,13.08495,30.259826,37.065735,41.405825,30.240116,45.113839,51.440452,55.001129,42.024688,57.497933,62.304696,63.497591,49.114006,65.127975,69.261387,69.568669,-21.172233,291.161285,-66.832397,291.720607
23,-1.304112,2.069145,0.131538,0.066493,6.489567,14.278141,19.804424,20.587097,-1.833012,23.473263,45.873333,59.705349,-11.988888,18.702747,43.47472,61.797352,-19.29261,5.576843,28.888172,45.714512,-23.536068,-19.036217,-11.861423,-4.656738,-12.115666,-5.149244,11.960758,27.745065,6.027482,26.66878,36.197325,41.417347,23.899262,41.922441,50.451297,52.533397,37.310562,52.785326,58.721048,60.703409,48.026457,61.314763,68.057685,72.605998,23.467323,47.107349,68.11338,85.658226,47.376972,79.433144,96.236755,108.163628,37.764977,73.681137,93.508163,107.050186,28.03339,61.954102,80.554459,93.272644,19.014736,44.723373,59.696686,72.680809,-14.859878,-14.204435,-3.51077,5.073673,13.23872,30.323355,37.073293,41.392512,30.374941,45.114481,51.396523,54.92693,42.1143,57.45782,62.296274,63.504544,49.137075,65.119404,69.233574,69.508178,-22.645718,293.24639,-66.870232,291.80306
24,-7.042511,1.94147,0.077797,-0.176964,9.238895,21.029457,30.252754,33.208901,6.139744,33.036964,53.999966,66.208408,-3.829662,28.358219,51.992214,68.61581,-11.65488,14.910942,37.319058,52.317844,-16.644173,-10.703167,-4.235722,1.625462,-14.649174,-10.509328,2.765813,15.624595,3.442486,23.85942,32.92837,37.712606,22.594982,41.297897,48.96158,50.011485,36.62039,52.616031,57.815503,58.584567,47.535492,61.082816,67.154166,70.459912,23.51421,47.215496,68.280304,85.935265,47.366775,79.355576,96.28196,108.452225,37.734009,73.536827,93.483604,107.217819,28.012745,61.762882,80.456245,93.353325,19.005615,44.717514,59.677608,72.730522,-14.709924,-14.069547,-3.565666,4.935463,13.523624,30.749791,37.606915,42.041718,30.598157,45.524725,51.952141,55.577297,42.281705,57.837708,62.842604,64.154318,49.257921,65.379928,69.571744,69.947964,-29.843451,295.199917,-66.947657,291.638153
25,-8.380222,0.996157,-0.074982,-0.053254,13.699722,30.268192,43.844078,49.546966,15.875713,44.679725,64.533027,76.094719,5.318573,38.992801,61.881775,77.845733,-3.580708,24.584381,46.231636,60.084114,-9.710324,-2.222798,3.592426,8.621006,-16.085488,-14.740947,-5.142623,5.012961,2.152187,22.664303,31.774947,36.637125,21.914752,41.768238,49.399935,50.780896,36.06008,53.127313,58.422399,59.070963,46.845221,60.858996,66.204284,68.391854,23.61351,47.375508,68.527817,86.402138,47.507469,79.022599,95.889771,108.058777,38.06733,73.380135,93.418373,107.312691,28.495034,61.698086,80.377098,93.377541,19.514935,45.077671,59.905518,72.951348,-14.624337,-14.026816,-3.630504,4.610348,13.400371,31.066423,38.516029,43.484085,30.41009,45.816052,52.939036,57.150278,42.139173,57.979401,63.665601,65.522226,49.31956,65.538269,70.07401,70.864489,-38.401073,296.219357,-67.200039,291.608182
26,-4.431244,0.323782,-0.187191,-0.190611,17.543495,36.283287,51.499489,58.653992,21.795307,50.425323,69.596672,80.402664,10.625862,43.771992,66.075508,82.523758,0.553562,28.764038,49.432182,62.868233,-6.976971,-0.758595,3.37167,7.295231,-18.938308,-19.47524,-11.085248,-2.104071,0.864469,21.355244,30.299643,34.919957,21.591316,42.529856,49.845551,50.735769,36.111345,53.519033,58.724963,59.48994,46.893325,60.706793,65.761966,67.614219,23.686398,47.485085,68.625698,86.71938,47.760945,78.432896,95.181874,107.390248,38.439778,72.982624,93.076367,107.170292,28.866497,61.222206,79.710606,92.694592,19.753109,44.877674,59.511715,72.453312,-14.536467,-14.006031,-3.697874,4.163361,13.396554,31.627771,39.725843,45.333571,30.362085,46.460825,54.517204,59.662483,42.131479,58.348236,64.684088,67.251287,49.477691,65.700919,70.596109,71.89293,-43.024538,296.566539,-67.579451,291.440971
27,9.944309,-0.357695,0.051865,-1.905642,10.878616,23.627552,35.229641,41.080101,10.782051,31.290814,45.499935,53.985134,3.250912,27.805813,45.142181,58.693966,-3.470432,17.615582,34.549049,45.815117,-7.985584,-3.845249,-0.875313,2.198799,-11.090028,-10.06796,-2.83259,5.035042,7.211917,25.45841,34.284372,39.611358,22.274967,41.340765,49.133741,51.279703,31.965051,48.196456,53.818436,55.093779,38.305707,51.310764,56.391711,58.374566,24.450016,48.839664,69.308658,86.343807,47.654892,77.317028,91.916714,101.533825,37.831547,71.219479,88.401615,98.951923,27.77116,58.332573,73.636677,83.081955,18.27523,41.132824,52.772003,61.852398,-14.54652,-13.594971,-2.956252,5.404643,11.568791,32.12286,41.164912,46.606901,28.666171,48.168878,57.628942,62.940737,40.994233,59.875002,67.670387,71.065955,48.84155,65.992924,71.721313,73.520361,-33.336811,296.238243,-67.784168,289.564728
28,16.282665,-2.372797,2.175968,-5.752273,4.038575,9.167107,14.403454,16.553856,-2.832824,6.083611,13.022942,16.277722,-7.093906,4.442883,13.151345,20.522793,-10.955475,-0.653263,8.396908,13.742306,-12.930072,-14.802704,-16.826454,-18.575763,-9.957352,-8.915364,-3.86928,1.047893,12.155902,29.549783,37.527615,42.045806,25.48095,45.039516,52.579476,54.962943,33.421781,50.902211,57.177424,59.583492,38.330099,52.307181,58.540453,61.795503,24.0924,47.286884,65.217579,79.828972,49.323246,72.206806,81.654453,86.407448,39.198326,63.844631,74.366776,79.330902,28.318932,50.091637,58.95623,63.115379,17.558453,34.153519,40.920685,45.307663,-11.737741,-9.187325,1.981521,11.266918,17.880819,40.649592,51.710363,57.986008,32.268665,54.599109,65.366565,71.254529,42.144347,63.14791,72.332543,76.699025,47.916121,65.94608,72.829498,75.871162,-17.376131,293.918348,-65.930185,283.865357
29,21.851292,-3.927968,-3.151176,-12.815175,-5.816597,-10.564602,-13.266838,-15.950398,-22.457268,-25.632214,-24.950615,-24.769878,-23.302917,-25.242062,-23.749569,-21.148636,-22.862858,-24.804005,-22.827679,-21.483913,-20.6693,-28.608913,-33.28117,-36.619286,-7.134988,-4.202634,3.871528,11.07837,17.132207,34.947769,44.036862,50.114251,28.836775,48.226911,57.63098,62.978875,35.863009,53.664393,61.802887,66.588038,39.967744,54.68472,61.642089,66.024084,24.478489,47.323391,64.298801,76.454372,52.195392,73.248401,78.006752,78.204494,43.763935,65.330875,70.15036,69.673427,33.777454,52.361297,55.841583,54.575443,23.352733,38.190696,41.228702,41.074688,-9.705917,-6.982366,3.650833,12.856893,13.921359,36.377279,48.012465,54.108083,26.049054,49.264862,60.587825,66.305691,35.293658,56.955629,66.646479,71.074996,41.675848,59.591593,66.764225,69.924438,4.070503,290.06038,-69.486019,271.120182
30,22.314926,-2.483194,-3.905949,-19.926376,-16.902534,-31.864082,-42.953693,-50.668751,-42.732181,-58.470451,-64.199615,-68.022892,-39.44648,-55.351925,-61.386005,-64.571331,-34.414215,-48.941929,-54.036838,-57.363293,-27.903133,-42.023826,-49.233707,-54.714329,-5.745715,-0.970062,9.831752,18.901035,20.531407,38.079478,47.580347,54.53474,31.184946,49.640847,59.81587,66.572403,37.73333,55.062052,64.085998,70.114826,41.334849,56.457315,64.132064,69.545858,22.346306,43.872951,59.124527,69.123356,52.541542,71.352013,72.593445,69.469757,46.169964,64.544266,64.28841,59.461967,37.544151,52.885998,51.412193,46.008728,27.797436,40.148151,39.58683,35.849018,-11.350232,-11.717462,-5.362616,0.974397,7.146449,25.589655,34.961836,39.493415,18.842286,38.766304,47.751767,52.07327,28.568767,47.103832,54.73233,58.23916,36.023783,51.190746,56.551781,58.665386,25.969631,287.75031,-73.807766,251.36693
31,21.450405,-2.851424,-5.097393,-26.555715,-28.47377,-53.356441,-72.457603,-84.990932,-62.807773,-90.453323,-102.656273,-110.639396,-55.085644,-84.128689,-97.735954,-106.811474,-45.27903,-71.096752,-82.95496,-91.117904,-34.251972,-54.001899,-64.039398,-72.201038,-4.414722,2.023178,15.020578,25.235924,24.608935,41.702857,50.945967,58.111151,34.303799,52.053535,62.373943,70.011765,40.309829,57.435812,66.915019,73.71038,43.275911,58.71449,66.925751,73.106424,23.814766,44.744499,58.02943,63.870598,51.512787,65.483036,63.883198,58.311974,44.496998,57.182568,53.722755,46.099743,35.577816,46.062298,42.125999,34.71833,25.857799,34.805786,32.509598,26.871838,-9.193426,-11.581821,-9.141309,-5.217033,-5.012225,4.421119,9.035586,10.058932,2.669229,13.935567,18.21999,19.166334,10.289236,20.87761,24.404059,25.213311,17.254683,25.305473,27.34591,27.256459,46.783767,285.184098,-79.541428,225.096427
32,1.902008,-0.529411,-4.854355,-32.426278,-28.317375,-51.8894,-70.722564,-83.460777,-60.467411,-89.851124,-104.740722,-115.468403,-52.68774,-84.713081,-101.959911,-115.035438,-42.758033,-71.69989,-87.963249,-100.188915,-31.6921,-53.759205,-66.305854,-77.118839,-13.181292,-9.932183,2.971751,13.689819,19.714807,38.485117,48.137756,55.518252,34.979608,54.594391,64.883924,72.850864,45.627157,64.458797,74.158885,81.368394,52.414503,69.399287,77.372019,83.179694,23.561749,42.860619,54.142159,56.283222,48.2104,57.164875,54.293919,48.691441,40.976235,48.118332,44.014252,37.313622,32.015453,38.85125,35.678948,29.865109,22.472912,30.336491,29.467678,25.694252,-8.560756,-14.915379,-17.982424,-19.086292,-19.538219,-21.45024,-22.490796,-25.037377,-15.262497,-16.117796,-18.108543,-21.176383,-9.002253,-8.180651,-9.503919,-11.82358,-1.18599,0.481092,0.42267,-0.540872,48.116747,285.098503,-84.964811,193.113965
33,0.032067,-0.873744,-6.770954,-36.546802,-28.76944,-52.485638,-72.481041,-86.24762,-60.336903,-89.956456,-104.908894,-115.532158,-52.135655,-84.446434,-101.68974,-114.748021,-41.869011,-71.507481,-87.8886,-99.807827,-30.749886,-53.760659,-66.35978,-76.826729,-13.694784,-9.417913,6.804982,20.699566,18.70115,38.544941,48.657398,56.517584,34.813252,54.679298,65.31188,73.814047,46.227149,64.995755,74.810686,82.121182,53.395643,70.261027,78.044493,83.673957,23.801903,42.673611,52.720161,51.918365,41.357346,50.795391,49.592571,46.409843,33.158386,42.100834,41.26506,37.782875,24.221363,35.469601,36.881607,34.31282,15.72068,26.902599,29.52063,28.22501,-11.449718,-23.451676,-32.413946,-38.403273,-43.052572,-57.078437,-64.730073,-71.915203,-39.032472,-52.4487,-60.699377,-67.947288,-30.979027,-36.136353,-36.259231,-37.513295,-20.093553,-23.30484,-23.10233,-23.756569,47.772269,284.770466,-92.11231,157.11287
34,-0.174202,0.060713,-2.173885,-35.833764,-29.109627,-52.883149,-72.865368,-86.450878,-60.524288,-89.765179,-104.522393,-115.166931,-52.386933,-84.416153,-101.512036,-114.64476,-42.190476,-71.751549,-88.024979,-99.998417,-31.007263,-53.744362,-66.180348,-76.705628,-13.906032,-9.660098,6.698067,20.685721,18.792207,38.32301,48.296405,56.024371,34.940977,54.343821,64.817913,73.191998,46.33131,64.64064,74.30416,81.526192,53.417923,69.985546,77.629135,83.23669,23.176391,40.682991,47.839347,43.750316,33.43618,38.471546,38.352527,36.821411,22.285366,27.649967,28.962764,28.338741,11.535553,22.067218,27.436763,28.572315,2.259384,13.251434,19.303253,21.164062,-13.53992,-30.084856,-43.876459,-53.72447,-56.711998,-80.379029,-93.593123,-104.809135,-53.394686,-77.896033,-92.126286,-103.113975,-45.313879,-56.590992,-54.934562,-53.834559,-34.061089,-41.815638,-40.614907,-39.257392,47.407482,285.527029,-94.47678,121.974956
35,-0.118149,-0.089217,-2.860119,-31.672336,-29.231987,-53.127766,-73.200234,-86.87637,-60.372826,-89.564621,-104.364395,-115.039044,-52.304466,-84.308464,-101.417805,-114.598721,-42.204483,-71.731957,-88.04591,-100.027622,-31.098633,-53.799294,-66.223812,-76.74464,-14.03183,-9.893503,6.510075,20.549241,18.752946,38.287219,48.256552,55.939291,34.898431,54.263706,64.703403,73.053344,46.266855,64.516287,74.179486,81.411941,53.297337,69.729084,77.449701,83.165196,25.806392,42.934902,47.957794,40.672531,28.719486,30.56369,30.705265,29.746525,14.411751,16.844158,19.578346,20.573009,1.297508,11.41983,20.410812,24.140945,-9.234329,2.138122,11.659927,16.301445,-12.714509,-30.925131,-46.436643,-58.473923,-67.588296,-96.754176,-113.608074,-128.143522,-67.090359,-98.263165,-116.857196,-131.693794,-60.544402,-75.663125,-70.698602,-66.240822,-50.071878,-60.729653,-57.015872,-52.567977,47.079294,286.150581,-97.546938,91.015389
36,-0.197365,-0.188808,-1.698418,-27.846997,-29.090675,-53.055485,-73.164333,-86.843754,-60.288082,-89.314419,-104.146397,-114.849346,-52.331772,-84.158169,-101.260609,-114.450153,-42.344467,-71.691227,-88.004539,-99.958134,-31.31234,-53.871288,-66.247021,-76.760456,-14.112402,-10.082718,6.277819,20.339079,18.740608,38.227766,48.266222,56.0302,34.944435,54.256617,64.742677,73.115674,46.297668,64.494008,74.254377,81.530366,53.265955,69.621787,77.463447,83.246645,24.765427,40.724018,44.038525,35.758587,25.243733,26.664116,26.504425,25.385696,10.641403,12.897961,15.514309,16.835037,-3.009968,8.29176,18.495472,22.762333,-14.072182,-1.4366,9.829056,15.823563,-16.044689,-37.000995,-54.73249,-69.329163,-73.131605,-102.903023,-120.832564,-136.74583,-71.947448,-104.736349,-125.412845,-142.490619,-64.516663,-79.718695,-69.700153,-60.368925,-53.373536,-62.955267,-55.67577,-47.358379,46.66341,286.661887,-99.463875,63.868506
37,-0.312721,-0.079707,-1.711853,-22.857958,-28.943688,-52.883114,-72.986263,-86.977192,-60.153145,-89.268013,-104.124882,-114.721012,-52.237564,-84.138806,-101.173817,-114.192444,-42.264496,-71.678009,-88.026924,-99.90683,-31.237587,-53.845093,-66.213959,-76.690304,-14.304113,-10.356779,6.078241,19.954818,18.341441,37.93739,48.061074,55.8644,34.60419,54.004341,64.585608,73.002152,46.009997,64.209276,74.062357,81.413719,53.065389,69.413267,77.356556,83.204975,24.476532,39.861477,42.321854,33.336102,24.207047,25.857113,25.873867,24.565556,9.595985,12.056992,14.814056,16.229416,-4.281818,8.006619,19.071693,23.594318,-15.671116,-2.275246,10.347473,17.690266,-17.316748,-39.562711,-58.439324,-73.642875,-74.492523,-104.537223,-122.980818,-139.593562,-73.37849,-107.200092,-129.113387,-147.359498,-66.320418,-81.869172,-66.644589,-52.072708,-56.328769,-66.713404,-57.434379,-46.39545,46.016728,287.197659,-101.509689,41.626027
38,-0.168801,-0.068704,-1.359661,-16.955546,-28.898666,-52.867412,-73.025733,-87.315982,-59.935066,-89.09468,-104.008884,-114.606239,-52.037006,-83.971836,-100.992885,-113.990455,-42.128768,-71.527782,-87.914131,-99.758583,-31.231773,-53.830261,-66.231697,-76.682281,-14.480595,-10.556097,5.979416,19.853338,18.224782,37.875369,48.065212,55.889841,34.582948,54.037428,64.599181,72.96898,45.994128,64.260048,74.085885,81.373915,53.005097,69.428557,77.444835,83.299355,24.580948,39.897274,42.527035,33.340176,24.590378,26.547935,26.825191,25.282047,10.402828,12.682468,15.167828,16.365704,-3.350693,8.637886,20.25301,25.338764,-14.807613,-0.955536,12.882019,21.709454,-17.035197,-40.451466,-60.292867,-76.413881,-74.800626,-104.457157,-123.500292,-140.802857,-73.996043,-108.076015,-131.076432,-150.6449,-67.35733,-86.527752,-71.928553,-56.529945,-58.090681,-70.946308,-62.429123,-50.825022,45.233579,287.654618,-103.483698,25.196144
39,-0.399101,-0.182373,0.323902,-11.467502,-28.825744,-52.619179,-72.690937,-87.075771,-59.729862,-88.998928,-103.945839,-114.511127,-51.795639,-83.768051,-100.769565,-113.656368,-41.846008,-71.227661,-87.59975,-99.348655,-30.916443,-53.505649,-65.905964,-76.29713,-14.429009,-10.472426,6.008883,19.743397,18.002702,37.707469,47.938351,55.821717,34.331364,53.998919,64.636873,73.055516,45.74184,64.208226,74.142077,81.539023,52.78114,69.412292,77.524394,83.435773,24.608448,39.46431,42.07893,32.931896,24.378262,26.620594,27.15049,25.664028,10.726135,12.515637,14.84095,15.975781,-2.737232,8.505283,20.438644,25.904938,-14.036819,-0.83115,13.236729,22.836491,-16.593984,-40.926623,-61.604551,-78.273445,-74.522793,-103.870646,-123.076376,-140.516635,-74.045851,-108.007528,-131.402332,-151.662346,-67.713408,-89.052813,-74.99477,-59.522692,-58.914821,-73.66989,-66.226934,-55.079354,43.953872,287.881211,-104.040402,14.137608
40,-0.197067,-0.011721,2.029678,-8.133079,-28.762596,-52.440125,-72.452328,-86.85046,-59.649033,-88.848278,-103.775597,-114.302364,-51.690765,-83.524487,-100.44548,-113.235512,-41.709801,-70.841812,-87.118458,-98.772137,-30.767075,-53.21743,-65.574165,-75.893795,-14.407581,-10.516169,5.91422,19.684056,17.960577,37.655068,47.898338,55.824028,34.296784,54.017729,64.643123,73.069127,45.68093,64.250279,74.178782,81.552633,52.677412,69.438289,77.598063,83.493202,23.899762,38.265507,40.768032,31.467602,23.512619,25.644288,26.22646,24.748799,10.147225,11.600762,14.074185,15.321568,-2.988578,7.647847,19.966519,25.74947,-14.037048,-1.427467,12.795147,22.497757,-15.443308,-40.324661,-61.281504,-77.415898,-73.926024,-103.351121,-122.19797,-139.37603,-73.414861,-107.421121,-130.367297,-150.369879,-67.068999,-88.917295,-75.244513,-60.475012,-58.4119,-73.819314,-67.126279,-56.656052,42.900295,288.208966,-102.867234,6.344005
41,0.011673,0.002075,2.623959,-4.924682,-28.766556,-52.389359,-72.385391,-86.819687,-59.646813,-88.867996,-103.828835,-114.352821,-51.653664,-83.422337,-100.347828,-113.115864,-41.618202,-70.658856,-86.950001,-98.59433,-30.611961,-52.987907,-65.354187,-75.644978,-14.43758,-10.580414,5.875589,19.695134,17.725073,37.514191,47.770909,55.722584,34.080547,53.895142,64.491846,72.921679,45.51445,64.113983,74.0125,81.385191,52.574363,69.38012,77.588207,83.532092,23.18454,37.030209,39.310272,29.857395,22.520073,24.598103,25.119358,23.449631,9.235737,10.351467,12.622971,13.611362,-3.722752,6.594257,19.493168,25.74567,-14.474911,-2.176609,12.21056,22.008041,-13.655899,-38.917987,-59.88771,-75.390781,-73.081581,-102.678214,-121.536222,-138.70739,-72.439667,-106.439598,-129.189636,-148.983557,-65.838814,-87.356152,-73.627319,-59.27267,-57.075714,-72.732228,-66.389282,-56.322038,42.310661,288.466809,-100.844582,1.675091
42,0.232544,-0.104457,2.51144,-1.416566,-28.751129,-52.446373,-72.398449,-86.814057,-59.561955,-88.641083,-103.654587,-114.276867,-51.588455,-83.181336,-100.136284,-113.018864,-41.598587,-70.424492,-86.708885,-98.385739,-30.641419,-52.823319,-65.185501,-75.486179,-14.427761,-10.485763,6.04129,19.86428,17.969086,37.735418,47.977699,55.903241,34.364117,54.18842,64.742689,73.146698,45.754178,64.397825,74.304382,81.671935,52.68865,69.512575,77.823884,83.846612,22.596108,35.800816,38.033821,29.122467,21.504261,23.598908,24.26516,22.768616,8.479534,9.164578,11.449471,12.524872,-4.170364,5.79673,19.144192,25.898003,-14.676578,-2.629886,11.79443,21.439522,-12.211922,-37.541509,-58.264935,-73.215136,-71.736738,-101.131429,-119.656182,-136.317156,-71.153981,-105.020964,-127.203064,-146.367638,-64.537523,-85.990845,-72.208765,-58.348162,-55.722053,-71.580108,-65.463353,-55.81621,42.080452,288.536167,-98.795895,0.43234
43,0.521004,-0.118474,2.22036,1.27191,-28.719384,-52.471001,-72.367321,-86.761734,-59.570961,-88.665734,-103.731617,-114.404435,-51.626358,-83.211411,-100.217743,-113.185982,-41.639328,-70.48613,-86.796605,-98.497021,-30.634095,-52.814164,-65.201008,-75.538124,-14.38687,-10.400869,6.185119,19.916064,17.965887,37.646435,47.828386,55.775133,34.308269,54.124384,64.688398,73.165161,45.64341,64.284599,74.270456,81.766092,52.558814,69.376822,77.730134,83.864926,22.159756,34.960991,37.165421,28.601441,20.887573,23.059021,23.826038,22.415611,8.103458,8.751148,11.233921,12.411244,-4.451225,4.975868,18.605267,25.823776,-15.10413,-3.60648,10.859161,20.579521,-11.383627,-36.580141,-57.042771,-71.680786,-70.625515,-99.763367,-118.193203,-134.45627,-70.058306,-103.610843,-125.413562,-144.156507,-63.292344,-84.850821,-71.465419,-58.155013,-54.270578,-70.019274,-64.157622,-54.762692,42.327879,288.55786,-96.849112,1.844417
44,0.759384,-0.088785,1.346077,2.688996,-28.736183,-52.660675,-72.571633,-87.063114,-59.530804,-88.655834,-103.821705,-114.564629,-51.579254,-83.224732,-100.315121,-113.403889,-41.62397,-70.526768,-86.894406,-98.661324,-30.678292,-52.84124,-65.290135,-75.692883,-14.459019,-10.418826,6.327268,20.108812,18.125166,37.907664,48.119577,56.040129,34.522581,54.344302,64.951899,73.415979,45.801306,64.448386,74.477407,81.976228,52.609585,69.362546,77.749005,83.894666,21.775497,34.575382,37.057915,28.923443,20.654366,23.006378,23.956478,22.723824,8.047245,8.7029,11.220818,12.382404,-4.425888,4.773251,18.382381,25.804951,-15.165207,-3.991802,10.44342,20.266228,-11.109307,-36.218482,-56.610691,-71.462591,-69.814713,-98.835388,-117.426257,-133.632999,-69.165365,-102.58738,-124.488744,-143.36968,-62.346841,-83.85869,-70.693366,-57.632086,-53.341982,-69.005233,-63.229112,-53.86599,43.01203,288.555735,-95.578268,4.620073
45,0.682846,-0.133554,0.88979,2.359625,-28.768021,-52.751965,-72.656571,-87.216831,-59.514221,-88.724659,-104.034645,-114.932453,-51.53112,-83.324078,-100.555332,-113.803139,-41.572609,-70.722748,-87.189343,-99.053044,-30.649773,-52.912342,-65.404816,-75.858261,-14.441828,-10.305415,6.504443,20.154705,18.225165,38.084024,48.305915,56.205905,34.627791,54.454354,65.106177,73.572022,45.865724,64.475396,74.568378,82.122972,52.62364,69.326793,77.694467,83.840461,21.385402,34.299923,37.152259,29.074459,20.150322,22.70684,23.821506,22.80241,7.590225,8.0652,10.445011,11.55328,-4.82753,4.500045,18.119602,25.6352,-15.452637,-4.130425,10.38406,20.496666,-10.818468,-35.786581,-56.174239,-71.043318,-69.115242,-98.43753,-117.284768,-133.633393,-68.434344,-102.020079,-124.217536,-143.411503,-61.501323,-83.074601,-69.70988,-56.495656,-52.359273,-68.09095,-62.470595,-53.190669,43.701176,288.439539,-94.682178,6.997056
46,0.611755,-0.121907,0.307571,1.90492,-28.822792,-52.823227,-72.75,-87.425869,-59.36412,-88.756508,-104.19326,-115.204639,-51.342499,-83.404175,-100.748039,-114.107654,-41.384582,-70.869003,-87.457535,-99.431293,-30.504593,-53.049763,-65.645737,-76.16803,-14.381918,-10.166712,6.654558,20.234128,18.341033,38.251218,48.491882,56.396503,34.712895,54.539322,65.264294,73.77644,45.929511,64.51068,74.677268,82.325291,52.692096,69.32925,77.635458,83.781217,21.115494,34.226418,37.360073,29.126598,19.507725,22.255383,23.597477,22.890907,6.980793,7.318508,9.750732,10.938068,-5.305572,4.274712,17.952175,25.485706,-15.799564,-4.299042,10.256252,20.44043,-10.824131,-35.789186,-56.21597,-71.102178,-68.876978,-98.321038,-117.215138,-133.65198,-68.111594,-101.728833,-124.110529,-143.506315,-61.056325,-82.552273,-69.212437,-55.974828,-51.767692,-67.591773,-62.067599,-52.827286,44.383289,288.323048,-94.304249,8.907392
47,0.488526,-0.129195,-0.113342,0.72093,-28.933869,-52.920983,-72.797528,-87.459916,-59.303833,-88.76072,-104.307347,-115.426289,-51.228882,-83.42593,-100.888287,-114.358509,-41.260231,-70.938733,-87.614685,-99.676987,-30.412674,-53.114731,-65.76479,-76.34879,-14.377583,-10.13013,6.723089,20.285925,18.39467,38.329543,48.61689,56.571788,34.77083,54.511091,65.263505,73.831918,46.013542,64.479583,74.652951,82.366158,52.839877,69.367141,77.577154,83.708525,20.943866,34.217743,37.352474,28.557964,19.024658,21.68787,22.991615,22.387401,6.324074,6.476349,8.808883,9.947651,-6.014912,3.907482,17.755646,25.290138,-16.403549,-4.740875,9.944504,20.398681,-10.937591,-36.139139,-56.75376,-71.650238,-69.042376,-98.79391,-117.878542,-134.582343,-68.067442,-101.665107,-124.279867,-143.963058,-60.690602,-81.918961,-68.634404,-55.361344,-51.142414,-66.91773,-61.693361,-52.612006,44.992974,288.202007,-94.296432,9.636476
48,0.120094,-0.132232,-0.5411,-0.108088,-29.012718,-52.882553,-72.679115,-87.421921,-59.050106,-88.596966,-104.24992,-115.45427,-50.885582,-83.256924,-100.816017,-114.33522,-40.888825,-70.718937,-87.467571,-99.594326,-30.088417,-52.904343,-65.60075,-76.211495,-14.389365,-10.093796,6.825483,20.393951,18.516405,38.546559,48.943191,56.978847,34.942261,54.662836,65.481273,74.114178,46.217071,64.653608,74.86867,82.65142,53.052681,69.516539,77.687811,83.836176,20.861813,34.232369,37.44199,28.508743,18.808331,21.464939,22.739102,22.190815,5.945469,6.063366,8.24786,9.338951,-6.424015,4.100693,18.059098,25.535179,-16.671524,-4.804001,9.975735,20.594055,-11.093326,-36.325983,-57.063692,-71.987723,-69.19984,-99.107349,-118.222183,-135.005827,-68.09741,-101.594625,-124.30755,-144.107962,-60.58055,-81.235526,-67.661007,-54.183782,-50.954575,-66.688444,-61.602724,-52.592906,45.243158,288.068207,-94.707442,9.52682
49,-0.204575,-0.03957,-0.589668,-0.449061,-28.904251,-52.699608,-72.543068,-87.369941,-58.754356,-88.401855,-104.077114,-115.330089,-50.542968,-83.060577,-100.664783,-114.172062,-40.491325,-70.392826,-87.17197,-99.301723,-29.672081,-52.53527,-65.239597,-75.829628,-14.298283,-9.984671,6.850159,20.364064,18.506797,38.594897,49.031223,57.142844,34.864345,54.672543,65.52561,74.261021,46.167511,64.706207,74.964494,82.860705,53.073862,69.608511,77.809262,84.05555,20.877491,34.278351,37.46418,28.472202,18.917404,21.472973,22.694698,22.119587,5.915062,5.941658,8.042965,9.09177,-6.482597,4.113533,18.296974,25.909389,-16.731663,-4.945828,9.896908,20.594341,-10.946095,-36.13962,-56.929681,-71.749527,-69.150224,-99.136069,-118.2398,-135.030485,-68.021315,-101.542989,-124.35022,-144.198951,-60.50587,-81.237132,-67.651523,-54.062992,-50.927103,-66.890677,-61.818739,-52.723651,45.205507,288.027457,-95.130186,9.076579
50,-0.28466,-0.030591,-0.300545,-0.696255,-28.810776,-52.559349,-72.451538,-87.385826,-58.388924,-88.079487,-103.756405,-115.020401,-50.135147,-82.718399,-100.354054,-113.838467,-40.07634,-70.003063,-86.795139,-98.926369,-29.285591,-52.153061,-64.864952,-75.494385,-14.272521,-9.935999,6.944291,20.435361,18.485208,38.60453,49.096839,57.280078,34.846276,54.731601,65.579111,74.327082,46.23036,64.861015,75.087946,83.017044,53.237723,69.848929,78.086113,84.439403,20.892861,34.249958,37.339016,28.303963,19.032463,21.457363,22.660881,22.127655,5.87732,5.730435,7.816601,8.907658,-6.601284,3.85809,18.2207,26.002053,-16.951172,-5.365368,9.490368,20.214329,-10.734994,-35.837315,-56.562723,-71.244155,-69.206922,-99.212596,-118.306219,-135.088307,-68.000887,-101.54678,-124.360334,-144.178209,-60.376113,-81.27919,-67.688795,-53.992967,-50.706659,-66.910029,-61.768523,-52.549397,45.136311,288.010346,-95.215267,8.393804
51,-0.303749,-0.014845,-0.255707,-0.428665,-28.703545,-52.421883,-72.27673,-87.214646,-58.119072,-87.73724,-103.381451,-114.652233,-49.846184,-82.328888,-99.942192,-113.416672,-39.759682,-69.557224,-86.304417,-98.429592,-28.948242,-51.636566,-64.253872,-74.838387,-14.163197,-9.765259,7.115735,20.509881,18.490741,38.607408,49.154477,57.413002,34.797926,54.790919,65.700648,74.551211,46.19105,64.931423,75.222994,83.244903,53.244812,70.004244,78.351418,84.820799,20.841992,34.190049,37.250943,28.292473,19.358632,21.685582,22.831959,22.299786,6.087525,5.711049,7.682969,8.815957,-6.543674,3.635136,18.098557,26.051274,-17.090252,-5.753379,9.132992,19.97485,-10.443112,-35.409434,-56.207973,-71.012504,-69.08843,-99.198443,-118.362727,-135.135583,-67.920025,-101.576791,-124.442363,-144.272113,-60.304792,-81.386364,-67.607815,-53.807179,-50.678724,-67.084968,-61.899873,-52.629012,45.021904,288.003378,-95.281632,7.973016
52,-0.439018,-0.097145,-0.19448,-0.046974,-28.559166,-52.221703,-72.043557,-86.938637,-57.920357,-87.44038,-102.991803,-114.217827,-49.599747,-81.948452,-99.516129,-112.936444,-39.410752,-69.100331,-85.820092,-97.946309,-28.457772,-51.039757,-63.602864,-74.176323,-13.925076,-9.432746,7.36817,20.729761,18.543747,38.722621,49.308284,57.60686,34.748327,54.887039,65.890295,74.789024,46.128434,64.984738,75.364994,83.46056,53.216715,70.118321,78.580474,85.147532,20.905689,34.200084,37.055316,28.246124,19.592479,21.789608,22.926086,22.378108,6.227874,5.65195,7.540409,8.641021,-6.510441,3.294616,17.976436,26.226665,-17.254773,-6.255066,8.68151,19.655033,-10.143307,-35.134193,-56.039523,-70.899451,-68.989116,-99.221012,-118.533664,-135.388463,-67.844177,-101.68184,-124.62226,-144.474666,-60.261189,-81.554831,-67.70827,-53.844698,-50.664811,-67.232588,-62.011887,-52.680653,44.741547,287.908916,-95.317451,7.928725
53,-0.344857,0.111163,-0.147847,0.127929,-28.383407,-52.065193,-71.891224,-86.778259,-57.862941,-87.22816,-102.68589,-113.876632,-49.578827,-81.709362,-99.204288,-112.559829,-39.354377,-68.878578,-85.547115,-97.6333,-28.31266,-50.757911,-63.258167,-73.793678,-13.824028,-9.283026,7.43701,20.642533,18.555196,38.652683,49.220426,57.537737,34.667657,54.793722,65.805475,74.725643,46.034932,64.869969,75.253016,83.374912,53.155854,70.071613,78.578424,85.180445,20.981083,34.219872,36.873219,28.00771,19.615998,21.6171,22.7375,22.18554,6.188839,5.435646,7.345654,8.461167,-6.597233,2.895298,17.707901,26.12677,-17.424911,-6.691967,8.333382,19.472477,-10.092308,-35.117768,-56.117194,-70.946506,-69.032885,-99.369597,-118.761702,-135.733995,-67.853669,-101.812252,-124.844075,-144.769482,-60.274534,-81.891001,-68.081348,-54.171327,-50.639018,-67.518284,-62.445302,-53.172619,44.544691,288.017606,-95.317297,8.054181
54,-0.153877,0.104469,-0.136711,0.041033,-28.346603,-51.964004,-71.704525,-86.550842,-57.796657,-86.893478,-102.366749,-113.615421,-49.568527,-81.439911,-98.977741,-112.400494,-39.398941,-68.753048,-85.422409,-97.538647,-28.355667,-50.705727,-63.171524,-73.726627,-13.768872,-9.240307,7.462463,20.543992,18.695468,38.636331,49.228343,57.603749,34.814907,54.748508,65.73177,74.617667,46.181417,64.83524,75.207692,83.298799,53.299263,70.13103,78.628344,85.195327,21.032582,34.252293,36.748123,27.825234,19.493923,21.411186,22.458733,21.844563,6.001694,5.313263,7.205956,8.342629,-6.857094,2.819035,17.628834,25.991741,-17.704674,-6.914039,8.17963,19.350964,-10.064731,-35.074197,-56.035547,-70.84232,-69.211548,-99.579962,-118.983429,-136.04308,-68.00965,-101.890742,-124.947537,-144.928044,-60.404173,-81.826231,-67.805682,-53.752036,-50.688326,-67.437681,-62.32663,-53.048383,44.497627,288.115634,-95.347195,8.088773
55,-0.105995,0.270899,-0.081047,0.187524,-28.346695,-51.9039,-71.51889,-86.319305,-57.837753,-86.837231,-102.269096,-113.48283,-49.617622,-81.376396,-98.883339,-112.290699,-39.401093,-68.675881,-85.341156,-97.447964,-28.260063,-50.661507,-63.138359,-73.644413,-13.802415,-9.288003,7.375432,20.394642,18.587887,38.455724,49.043067,57.447236,34.66846,54.545881,65.577369,74.545765,45.999574,64.579075,75.019909,83.178744,53.096672,69.88246,78.41155,84.987487,21.004578,34.124004,36.477585,27.622421,19.319195,21.252915,22.25449,21.55418,5.834805,5.255997,7.078446,8.161286,-7.033058,2.874745,17.63736,25.870628,-17.865166,-6.985771,8.154877,19.301914,-10.094828,-35.175227,-56.175425,-71.034142,-69.242497,-99.624904,-119.002504,-136.107048,-68.057692,-101.951054,-125.077485,-145.165469,-60.523055,-81.754088,-67.494522,-53.35151,-50.891806,-67.616467,-62.52178,-53.282943,44.434296,288.373467,-95.385578,8.263231
56,-0.025017,0.197268,-0.135521,0.098831,-28.302818,-51.880806,-71.496563,-86.33963,-57.900112,-86.794109,-102.222565,-113.428219,-49.720436,-81.356689,-98.884151,-112.26939,-39.528282,-68.704834,-85.381336,-97.462658,-28.376655,-50.821655,-63.34845,-73.879909,-13.918135,-9.406243,7.29759,20.322209,18.537486,38.39364,48.967805,57.364885,34.606364,54.448315,65.474419,74.372777,45.921633,64.518609,74.946339,83.055848,52.996328,69.761577,78.321246,84.89396,21.034332,34.085083,36.314678,27.450085,19.261173,21.299812,22.325249,21.552464,5.784645,5.347962,7.192017,8.213894,-7.061382,3.010426,17.709664,25.742294,-17.856479,-6.846725,8.312702,19.300884,-10.165594,-35.363603,-56.387753,-71.2003,-69.29546,-99.61046,-118.919005,-136.057659,-68.132595,-101.913485,-125.041472,-145.195831,-60.630543,-81.732635,-67.372027,-53.232424,-51.017079,-67.689906,-62.502273,-53.218555,44.446094,288.558085,-95.484284,8.349412
57,0.044998,0.301848,-0.096908,-0.061756,-28.23191,-51.864692,-71.556873,-86.532062,-57.91634,-86.826622,-102.263065,-113.45565,-49.775413,-81.474037,-99.040329,-112.372043,-39.636245,-68.860439,-85.566375,-97.597011,-28.528312,-51.107895,-63.698261,-74.187126,-14.135015,-9.633632,7.142992,20.210873,18.619244,38.46059,48.97319,57.314485,34.682539,54.482117,65.467244,74.280102,45.926338,64.532725,74.97656,83.077449,52.884041,69.599779,78.184272,84.783847,21.00587,34.09354,36.404491,27.590835,19.349922,21.557613,22.613651,21.846897,5.845298,5.621452,7.561958,8.63174,-7.022324,3.274875,17.833774,25.605651,-17.751927,-6.504525,8.685264,19.523048,-10.065694,-35.256898,-56.265747,-71.09814,-69.312337,-99.533427,-118.783692,-135.946626,-68.187059,-101.864493,-125.057966,-145.284956,-60.706417,-81.711122,-67.144447,-52.881158,-51.076767,-67.666732,-62.313712,-52.893211,44.53704,288.841426,-95.535244,8.269149
58,0.155388,0.113263,0.049713,-0.054841,-28.243034,-51.995178,-71.709652,-86.763794,-58.030861,-86.942299,-102.360077,-113.529602,-49.863807,-81.606422,-99.151531,-112.466595,-39.72718,-69.0401,-85.745819,-97.761738,-28.62426,-51.352638,-63.980106,-74.454861,-14.219057,-9.705954,7.141176,20.254629,18.642684,38.524822,49.032544,57.341704,34.72422,54.582659,65.565933,74.366256,45.950408,64.615359,75.083672,83.216103,52.873012,69.622947,78.245479,84.888514,20.999279,34.073021,36.427471,27.657566,19.382389,21.737926,22.765857,21.912597,5.883877,5.885204,7.89212,8.983429,-7.025528,3.522663,18.048099,25.622062,-17.785618,-6.341606,8.796375,19.383087,-9.899641,-35.081527,-56.056209,-70.950452,-69.332183,-99.43504,-118.618694,-135.716247,-68.27911,-101.856335,-124.994727,-145.162578,-60.82678,-81.696592,-66.802077,-52.3669,-51.166577,-67.579688,-61.915804,-52.28981,44.738777,288.93216,-95.439182,8.191779
59,0.148728,0.110521,0.026252,0.047523,-28.263474,-52.115616,-71.902085,-87.002404,-58.161461,-87.123883,-102.476406,-113.583252,-49.964791,-81.820862,-99.326535,-112.587445,-39.828553,-69.280873,-85.983925,-97.990632,-28.755982,-51.668999,-64.339829,-74.821255,-14.311004,-9.783822,7.088194,20.266979,18.641153,38.544768,49.015686,57.256365,34.720651,54.632281,65.598537,74.346113,45.946221,64.681383,75.132467,83.267961,52.860934,69.621416,78.25174,84.95492,20.980214,34.073021,36.479874,27.627926,19.405232,21.808709,22.855969,21.977784,5.947701,6.039277,8.186749,9.347683,-6.976512,3.670533,18.15358,25.558732,-17.761287,-6.274864,8.830056,19.26923,-9.808324,-35.043748,-56.076234,-70.962993,-69.405518,-99.472065,-118.67359,-135.756027,-68.39341,-101.976668,-125.092484,-145.199764,-60.934578,-81.757138,-66.618036,-52.064143,-51.192277,-67.569042,-61.78916,-52.111321,44.937922,289.019197,-95.362513,8.215818
60,0.155571,0.06774,0.036931,0.128972,-28.249054,-52.225411,-72.132466,-87.244893,-58.263829,-87.272267,-102.625203,-113.692326,-50.06868,-82.014725,-99.519654,-112.723847,-39.981606,-69.541237,-86.250172,-98.215748,-28.976029,-51.981217,-64.692376,-75.183197,-14.316364,-9.81976,7.044709,20.297805,18.812424,38.676284,49.133197,57.35445,34.913547,54.769059,65.731029,74.442295,46.124569,64.828238,75.251337,83.359277,53.018323,69.723527,78.310107,84.996664,21.027649,34.151115,36.676929,27.852745,19.499542,21.930954,23.015396,22.129795,6.126663,6.253543,8.576053,9.822692,-6.7416,3.840969,18.244949,25.49184,-17.469796,-6.125576,8.927879,19.224552,-9.737027,-34.844214,-55.873156,-70.803634,-69.480637,-99.541127,-118.791114,-135.85182,-68.507994,-102.183254,-125.280261,-145.304086,-61.059128,-81.928563,-66.58994,-51.902456,-51.20987,-67.673876,-61.866342,-52.123307,45.154158,289.063926,-95.264917,8.321779
61,0.141059,0.131183,-0.007256,0.291647,-28.326484,-52.315635,-72.220367,-87.10382,-58.196147,-87.380962,-102.729366,-113.719837,-50.026725,-82.174541,-99.679435,-112.887542,-39.956932,-69.703479,-86.383094,-98.341655,-28.974403,-52.003555,-64.682075,-75.136928,-14.349363,-9.906261,6.958654,20.368694,18.796455,38.698884,49.107867,57.227923,34.979854,54.854978,65.767424,74.447568,46.210686,64.932386,75.325116,83.365057,53.067699,69.812607,78.333213,84.915634,21.005138,34.194901,36.944344,28.081272,19.498409,21.940315,23.067959,22.216301,6.276421,6.460854,8.959396,10.320774,-6.484039,4.112984,18.444832,25.619808,-17.120132,-5.760384,9.23465,19.430798,-9.810183,-34.796839,-55.729969,-70.619975,-69.603848,-99.759099,-119.074573,-136.133211,-68.600651,-102.452282,-125.500006,-145.443425,-61.087324,-82.0851,-66.659397,-51.925594,-51.123147,-67.740233,-61.864823,-52.042278,45.364992,289.163483,-95.202398,8.5818
62,-0.006065,-0.022144,-0.031254,0.395425,-28.41616,-52.305244,-72.116684,-86.79435,-58.146343,-87.472835,-102.792721,-113.706482,-49.959846,-82.198711,-99.631863,-112.829212,-39.845009,-69.637001,-86.24794,-98.216183,-28.815582,-51.770828,-64.392219,-74.851719,-14.239188,-9.804755,7.018774,20.510301,18.684427,38.642123,49.066952,57.190478,34.945978,54.866649,65.786864,74.506602,46.242722,65.005956,75.398056,83.4243,53.12672,69.970232,78.465248,84.975903,21.044724,34.295918,37.231716,28.355587,19.623207,22.097843,23.312096,22.522957,6.502098,6.646294,9.231446,10.653317,-6.154724,4.297989,18.741257,26.122147,-16.706314,-5.480621,9.531555,19.844216,-9.916072,-34.84543,-55.74193,-70.597128,-69.718747,-99.957812,-119.341316,-136.409451,-68.721144,-102.709263,-125.726939,-145.634277,-61.178504,-82.334368,-67.017833,-52.338593,-51.151404,-67.858905,-62.006454,-52.194418,45.416387,289.111387,-95.176192,8.947273
63,-0.019272,0.046251,0.088806,0.663836,-28.486358,-52.310783,-72.030407,-86.520618,-58.200153,-87.626713,-102.950512,-113.818233,-49.954971,-82.235859,-99.65887,-112.851482,-39.733017,-69.491398,-86.055507,-98.007683,-28.592308,-51.452453,-64.031204,-74.444046,-14.300086,-9.778746,7.102236,20.7328,18.642845,38.780062,49.211571,57.343977,34.961367,54.938638,65.894359,74.663461,46.252849,65.072374,75.515246,83.565919,53.055794,69.965267,78.447328,84.902605,21.032067,34.379986,37.506867,28.640923,19.859368,22.299145,23.55637,22.846596,6.827568,6.892857,9.534691,11.056126,-5.775684,4.392998,18.755047,26.232045,-16.293937,-5.207039,9.804463,20.181622,-9.991143,-34.791195,-55.603918,-70.449131,-69.807118,-100.137266,-119.617051,-136.724496,-68.77927,-102.938826,-126.048239,-146.020965,-61.185347,-82.468114,-67.429406,-52.893569,-51.096212,-67.821299,-62.046357,-52.264184,45.468675,289.129912,-95.015826,9.583383
64,-0.042412,0.023774,0.09161,0.604598,-28.602562,-52.335937,-71.955493,-86.333988,-58.182209,-87.78107,-103.082553,-113.874126,-49.871566,-82.251972,-99.64207,-112.814689,-39.546386,-69.32302,-85.843586,-97.777427,-28.318084,-51.157539,-63.718013,-74.068004,-14.262715,-9.687812,7.243274,21.022533,18.629321,38.880184,49.308828,57.449249,35.020412,55.021149,65.990763,74.814786,46.336348,65.173336,75.650998,83.730866,53.107157,70.095696,78.558627,84.939557,21.092766,34.517372,37.773617,28.928765,20.136166,22.517384,23.780411,23.132859,7.135083,7.074681,9.675385,11.220509,-5.427738,4.638119,18.984684,26.565548,-15.871685,-4.740371,10.2747,20.709675,-10.067911,-34.785563,-55.521741,-70.333238,-69.801894,-100.28843,-119.881231,-137.065235,-68.760344,-103.091183,-126.29868,-146.341573,-61.097124,-82.448236,-67.649979,-53.251511,-50.956724,-67.610267,-61.873505,-52.129469,45.521272,289.116784,-94.829207,10.151079
65,0.146531,0.089464,0.224922,1.173437,-28.750145,-52.449074,-72.01981,-86.291142,-58.386017,-87.966065,-103.249272,-114.076058,-50.084908,-82.289372,-99.636612,-112.890725,-39.694542,-69.260765,-85.724797,-97.718766,-28.359993,-51.023529,-63.490986,-73.814415,-14.307953,-9.711969,7.244484,21.114862,18.268044,38.592464,49.064593,57.281362,34.762814,54.890275,65.874759,74.789209,46.189839,65.121305,75.674228,83.811673,53.032983,70.124385,78.6319,85.000936,21.075772,34.582398,38.03603,29.366375,20.444447,22.912663,24.221032,23.571705,7.556443,7.607129,10.285378,11.883133,-4.981487,4.783768,19.079773,26.848801,-15.493503,-4.372318,10.634079,21.059773,-10.113736,-34.690789,-55.251756,-70.022226,-69.713381,-100.198886,-119.919924,-137.158478,-68.68218,-103.092498,-126.339176,-146.418508,-61.003911,-82.42952,-67.817044,-53.640292,-50.862814,-67.439651,-61.505424,-51.676827,45.805087,289.169099,-94.467001,11.287367
66,0.11222,0.05791,0.422299,1.608481,-28.84703,-52.571869,-72.229248,-86.713245,-58.815776,-88.251159,-103.532238,-114.502704,-50.509506,-82.400036,-99.736862,-113.054752,-40.06311,-69.272976,-85.730198,-97.762046,-28.609588,-51.185943,-63.655609,-74.009857,-14.358305,-9.732359,7.099852,20.854966,18.088128,38.258035,48.715307,56.999952,34.583787,54.580509,65.532439,74.40401,46.107031,64.957938,75.553493,83.719887,53.0655,70.09141,78.689957,85.146025,21.180611,34.825756,38.522015,30.180553,20.877525,23.586033,25.025597,24.423798,7.991215,8.280075,11.052269,12.701443,-4.573872,5.248341,19.443123,27.256187,-15.094654,-3.872635,11.145023,21.526852,-10.010576,-34.262006,-54.619222,-69.363077,-69.46252,-99.962926,-119.814572,-137.097351,-68.492934,-102.990585,-126.288337,-146.408523,-60.89759,-82.275132,-67.612416,-53.47532,-50.826789,-67.379481,-61.328385,-51.423422,46.116851,289.206184,-93.845158,12.875023
67,0.349709,0.216694,0.733772,2.472128,-28.923225,-52.815262,-72.663918,-87.453461,-59.269341,-88.687203,-104.005142,-115.152191,-50.978829,-82.752823,-100.157307,-113.5872,-40.524651,-69.639416,-86.180924,-98.298512,-29.024712,-51.682594,-64.258553,-74.706253,-14.607875,-9.992217,6.735229,20.236895,17.652751,37.597171,47.950813,56.186305,34.16633,54.028251,64.819667,73.558943,45.78493,64.562452,75.065777,83.166826,52.868764,69.781473,78.369115,84.863295,21.259758,35.040184,38.897907,30.776276,21.131424,24.069283,25.639389,25.061096,8.252106,8.96267,11.869549,13.64978,-4.393398,5.672047,19.794102,27.720406,-14.932205,-3.261806,11.804878,22.176407,-10.017535,-33.927696,-54.036094,-68.757985,-69.221699,-99.759229,-119.757211,-137.052829,-68.274757,-102.812577,-126.08871,-146.130572,-60.721452,-81.820932,-67.222999,-53.297219,-50.657945,-66.903311,-60.761288,-50.880505,46.727835,289.417141,-92.850111,15.341414
68,0.597565,0.112139,0.889218,3.429599,-28.914574,-52.966004,-73.171452,-88.38279,-59.489182,-89.087803,-104.511715,-115.868843,-51.337738,-83.235558,-100.807995,-114.416611,-41.038674,-70.25512,-87.028748,-99.40741,-29.68261,-52.569466,-65.386815,-76.163441,-14.635688,-10.232537,6.171114,19.326039,17.067233,36.442425,46.57489,54.736664,33.617603,52.989325,63.409361,71.846814,45.403966,63.883802,74.102853,81.969991,52.708287,69.375958,77.781535,84.169615,21.359882,35.205333,39.165332,31.464477,21.400039,24.687126,26.592968,26.261421,8.535896,9.729377,12.85984,14.798767,-4.105717,6.496593,20.556026,28.451545,-14.579773,-2.722619,12.316406,22.755111,-9.695265,-33.263199,-53.131808,-67.691406,-68.545736,-98.974943,-119.096432,-136.453973,-67.662056,-102.115341,-125.492645,-145.588396,-60.247345,-80.863535,-66.067908,-52.010155,-50.338973,-66.472534,-60.401986,-50.574853,47.720501,289.53142,-91.565792,18.773153
69,0.660621,0.012869,1.923236,5.044595,-28.777061,-52.958725,-73.495502,-88.947956,-59.606392,-89.410171,-105.020656,-116.685859,-51.656067,-83.840423,-101.779289,-115.714622,-41.562309,-71.063221,-88.20924,-100.9827,-30.437118,-53.717079,-66.945293,-78.194126,-14.836266,-10.657479,5.289812,18.149039,16.290981,35.02734,44.756217,52.619428,32.86431,51.619775,61.371956,69.169859,44.830786,62.883445,72.567701,79.928029,52.367177,68.724923,76.780635,82.87009,21.431866,35.191567,39.060872,31.798394,21.033623,24.732789,26.861378,26.518822,8.139943,10.479104,14.25927,16.630635,-4.556007,7.168408,20.958905,28.512989,-15.019477,-2.314704,12.52018,22.392815,-9.553221,-32.406591,-51.711709,-65.787493,-67.88529,-98.128783,-118.068072,-135.332598,-66.989737,-101.312968,-124.485829,-144.260367,-59.714692,-79.437737,-64.26726,-50.100208,-49.845476,-65.488362,-58.958694,-48.952207,48.786403,289.518959,-89.237275,23.792418
70,0.769203,0.073026,2.564118,6.656744,-28.345504,-52.678459,-73.618068,-89.347503,-59.677906,-89.863174,-105.718711,-117.671997,-51.98291,-84.797309,-103.133354,-117.282898,-42.142547,-72.230346,-89.748104,-102.790386,-31.326965,-55.174015,-68.848594,-80.489467,-15.340136,-11.544067,3.893585,16.438713,15.482853,33.494584,42.648502,50.043756,32.081031,49.7693,58.574996,65.485151,44.152248,61.390913,70.339808,77.010952,51.799777,67.563917,75.066937,80.712271,21.395599,35.180797,39.150329,31.898701,20.696228,24.823837,27.25787,27.093006,7.671272,10.930012,14.949074,17.592029,-5.115852,7.988514,21.511104,28.71151,-15.340611,-1.397793,13.255119,22.70272,-9.344319,-31.269081,-49.754406,-62.873028,-67.465987,-97.702095,-117.285867,-134.436877,-66.412401,-100.458584,-123.265931,-142.625495,-59.002414,-76.865332,-61.507856,-47.430775,-48.733419,-63.215669,-56.304884,-46.230304,50.024196,289.561968,-86.204567,30.419145
71,1.217972,0.042719,3.190498,8.930487,-27.925369,-52.543052,-74.017696,-90.10207,-59.676292,-90.506412,-106.717174,-118.958713,-52.210899,-85.911186,-104.659744,-119.06583,-42.643135,-73.59264,-91.522041,-104.875408,-32.206672,-56.782917,-70.894054,-82.890827,-15.851553,-12.593799,2.388357,14.679357,14.549805,31.79998,40.396193,47.3628,31.354648,47.988875,55.976217,62.239623,43.576463,59.966887,68.136293,74.200344,51.334624,66.466155,73.363219,78.582648,21.181824,35.098412,39.24868,32.081108,20.386723,25.123684,27.882889,28.157753,7.124989,11.419579,15.971581,19.222584,-5.694282,9.325356,22.039444,28.40118,-15.599212,0.011101,14.022469,22.646874,-9.459126,-30.325393,-47.609432,-59.391868,-66.78622,-97.004581,-115.827243,-132.674552,-65.458382,-99.071176,-121.079381,-139.803618,-57.841852,-72.079342,-56.631982,-43.324824,-46.895511,-59.196952,-51.943094,-42.193563,51.679544,289.540034,-82.576693,39.284979
72,0.942147,-0.16543,3.43206,10.383912,-27.509469,-52.305016,-74.241921,-90.609032,-59.635575,-90.97823,-107.477097,-119.909329,-52.42463,-86.849305,-105.940945,-120.533421,-43.137864,-74.765957,-93.03843,-106.715859,-33.058617,-58.174279,-72.65411,-85.023503,-16.19696,-13.438149,1.082028,13.164459,13.881147,30.478855,38.672208,45.333868,30.874922,46.552327,53.837344,59.509675,43.25236,58.827568,66.334899,71.865846,51.127217,65.672934,71.996868,76.762481,20.910634,34.999638,39.5071,32.75203,20.127846,25.42091,28.682213,29.415127,6.600506,11.852795,16.952477,20.652409,-6.24401,10.551556,22.434895,27.741578,-15.766387,1.25092,14.5807,22.106919,-9.392151,-29.31389,-45.435144,-55.694685,-66.116598,-96.304454,-114.643265,-131.374848,-64.560309,-97.764395,-119.433689,-137.940238,-56.717648,-67.953074,-52.147618,-39.061884,-45.205661,-55.519505,-47.653552,-37.860221,53.004965,289.25387,-78.761359,49.548157
73,0.969429,0.113547,2.582943,15.371129,-27.225541,-52.160363,-74.412209,-90.969933,-60.01228,-91.547894,-108.132637,-120.631188,-52.956253,-87.731644,-106.917321,-121.518036,-43.850579,-75.802838,-94.138379,-107.825192,-33.998497,-59.281723,-73.80692,-86.143959,-16.653148,-14.306484,-0.077546,11.928216,13.374633,29.512189,37.317206,43.554702,30.529762,45.568852,52.291336,57.441246,42.946695,58.002495,65.040326,70.133574,50.779303,64.98806,71.006379,75.484383,21.486786,36.536339,42.192719,35.855021,20.879317,27.66453,32.131028,33.73569,7.445109,15.589617,21.041445,24.375796,-4.67395,15.072567,25.275387,28.542658,-13.058715,6.574316,18.498608,23.854603,-10.334225,-29.016831,-43.589913,-52.08521,-65.64,-95.042708,-112.246926,-128.074072,-63.495985,-93.007628,-111.241731,-127.175937,-54.936764,-61.422555,-46.040524,-34.474635,-42.348714,-48.99839,-40.719513,-31.738727,54.049628,289.145857,-76.103182,64.697726
74,1.155075,0.227822,1.087864,19.997617,-27.115403,-52.231453,-74.706345,-91.522099,-60.482209,-92.241761,-108.911293,-121.389244,-53.585564,-88.518402,-107.634831,-122.15989,-44.633492,-76.70541,-94.923878,-108.419976,-34.854836,-59.988099,-74.306672,-86.377728,-17.043805,-14.983528,-0.806794,10.972122,12.969007,28.818917,36.487046,42.568536,30.300519,44.864033,51.438451,56.563501,42.741721,57.397391,64.328553,69.384813,50.463128,64.356217,70.276279,74.693064,22.887726,39.746063,47.485829,41.765402,23.264128,32.397074,39.002804,42.310862,10.347514,22.712672,28.037608,30.031352,-0.205181,23.05497,30.87085,31.297995,-6.694988,15.588244,25.431027,28.188114,-11.740843,-29.082989,-41.928289,-48.659556,-65.059749,-92.742134,-108.420907,-122.675992,-62.007256,-84.42981,-96.595354,-108.079035,-52.28194,-52.603422,-38.527573,-29.433917,-38.259224,-40.217919,-32.409499,-25.267197,55.125332,289.170223,-75.094689,84.491887
75,1.144409,0.108952,0.242352,19.389623,-27.28125,-52.456421,-75.005505,-91.943012,-60.880909,-92.759194,-109.43224,-121.844204,-54.018357,-88.922882,-107.953949,-122.456143,-45.124237,-77.1717,-95.275818,-108.673496,-35.325897,-60.259793,-74.370117,-86.191372,-17.026342,-15.125331,-0.958168,10.768778,12.906553,28.56726,36.221718,42.253028,30.327863,44.820858,51.500745,56.801944,42.769422,57.395749,64.346894,69.508166,50.426758,64.287119,70.25978,74.747417,22.908073,41.563019,52.022003,49.175543,26.355486,40.521383,49.520027,54.044741,14.33555,32.863134,40.351004,42.791765,5.587109,32.527942,39.168217,37.962919,0.933243,25.088076,33.424805,34.344703,-14.874522,-30.613276,-39.877434,-42.134322,-62.76356,-87.847303,-98.608192,-107.824876,-57.309223,-75.126906,-81.223762,-87.447475,-45.420055,-41.885489,-29.336228,-22.17268,-29.646523,-28.180331,-20.765094,-14.896098,55.955921,289.066865,-75.166157,103.6692
76,0.676803,0.265786,1.08474,21.820978,-27.262939,-52.371276,-74.878063,-91.727176,-61.203724,-93.053203,-109.568355,-121.74274,-54.423408,-89.205871,-108.080806,-122.424202,-45.591613,-77.485645,-95.40715,-108.65522,-35.735092,-60.290531,-74.179241,-85.7891,-17.020673,-15.159664,-1.007803,10.833369,12.86003,28.539559,36.250456,42.227933,30.304225,44.871901,51.64786,56.985343,42.706511,57.393402,64.525587,69.79496,50.256141,64.137041,70.208811,74.720111,22.575817,43.747638,58.383144,59.545354,30.385454,50.897592,60.882648,64.695825,20.924085,45.588884,51.835619,51.953893,14.361248,43.249214,47.071712,43.692255,11.01836,35.326761,40.504943,39.153854,-17.820276,-32.421945,-37.541564,-35.959818,-59.005627,-77.711281,-82.843639,-87.296921,-50.519667,-61.334242,-61.829248,-64.021913,-36.711833,-31.06891,-21.136125,-16.243714,-20.156467,-16.058454,-10.258954,-6.586864,56.125362,289.107697,-74.588779,125.265224
77,0.800721,0.467587,0.223629,23.812521,-27.27134,-52.220742,-74.66351,-91.301766,-61.447964,-93.316613,-109.727177,-121.706761,-54.733521,-89.499379,-108.244606,-122.431355,-45.946816,-77.836831,-95.555077,-108.485287,-36.097733,-60.438149,-74.042645,-85.221302,-17.0144,-15.280201,-1.181607,10.855512,12.757252,28.36583,36.081605,41.967062,30.23289,44.789167,51.62369,57.03541,42.630002,57.304456,64.460909,69.710225,50.132504,63.979873,70.068118,74.523201,23.393148,47.763828,66.183609,70.714673,36.213409,63.359647,74.355571,77.669797,28.573265,60.20181,65.47812,63.403387,23.516063,55.697502,56.746593,50.927427,20.797033,46.798776,49.129251,45.423631,-19.875731,-31.737158,-31.650476,-26.019613,-52.262742,-62.768657,-61.767871,-61.450206,-40.559658,-42.776662,-37.640797,-35.887178,-24.699463,-15.743532,-8.934806,-6.929992,-7.163137,-0.653319,2.777923,3.794282,56.337811,289.373851,-74.953422,148.876312
78,0.624023,0.0525,0.346435,21.934914,-27.300659,-52.006119,-74.372715,-91.079235,-61.153404,-93.23275,-109.721123,-121.701027,-54.55751,-89.474029,-108.278538,-122.541298,-45.882545,-77.913345,-95.623466,-108.488033,-36.133209,-60.472641,-73.98999,-85.034855,-16.751763,-14.914132,-0.915857,10.960488,12.782891,28.484897,36.2623,42.09102,30.239399,44.893809,51.88834,57.413483,42.700719,57.378038,64.640455,69.954263,50.26649,64.083059,70.188705,74.617815,24.514589,52.144615,73.397999,80.805988,42.878546,76.026203,87.458954,89.929573,35.892683,73.434608,78.171879,74.701046,30.821171,66.281044,65.610661,58.238159,27.351934,55.709129,56.388788,51.176554,-20.192947,-28.198264,-22.332444,-12.65177,-42.632664,-44.082804,-37.419527,-33.284707,-27.943346,-23.409081,-15.977098,-12.936853,-10.337457,0.764347,4.693822,4.552994,7.827161,15.094369,15.986138,15.011729,56.487299,289.330274,-75.081522,170.715149
79,0.05777,0.380469,0.010346,18.764159,-28.315796,-52.414353,-74.071793,-89.549206,-60.830429,-92.939987,-109.318943,-121.42289,-54.624458,-89.168839,-108.10025,-122.489731,-46.251915,-77.898869,-95.750805,-108.758801,-36.633522,-60.444145,-73.88934,-84.970905,-14.631525,-12.488539,0.123192,11.656699,12.688993,27.959772,35.825156,41.673303,29.507076,44.288174,51.500214,56.972276,41.952934,56.759929,64.067201,69.106257,49.927061,63.784063,69.960278,74.269888,25.735742,54.767234,77.198558,87.912345,48.786672,84.987636,97.176979,100.659679,42.045187,81.484645,89.465274,90.305522,36.276351,72.155616,75.285037,72.758457,31.297388,59.304416,62.177576,60.069746,-18.826669,-23.188076,-13.683261,-1.638146,-30.552621,-25.684102,-14.257731,-6.154879,-14.631926,-7.879797,0.36489,4.753695,3.179795,13.623253,17.326734,18.181687,20.82503,27.206287,27.213401,26.147477,56.174601,289.637646,-75.441644,189.406211
80,-0.949265,1.162624,7.318817,23.986701,-29.408683,-53.503921,-74.279972,-89.323311,-60.423248,-91.352176,-107.711929,-120.390747,-54.544784,-87.607063,-106.438133,-121.023353,-46.443031,-76.635967,-94.144157,-106.860843,-36.905731,-59.532509,-72.740604,-83.481994,-10.36262,-6.123627,6.958568,19.214185,13.762796,27.504079,34.887625,40.346349,28.940504,43.097737,50.457695,56.008242,40.55693,55.16299,62.360544,67.13495,48.389093,61.814077,68.147397,72.432579,28.771345,56.824813,76.988605,85.688552,54.088171,84.345749,91.588554,91.569339,46.326181,78.608081,80.245491,76.558067,38.286323,66.243198,64.64138,59.338142,30.315176,52.477855,51.479112,47.280081,-13.292715,-13.332136,-1.14447,10.79399,-16.462944,-1.549571,11.403813,18.835345,-2.489412,14.432541,24.101606,27.789927,12.965678,29.39059,34.554752,35.25565,28.015359,38.807658,40.149235,39.094031,54.94071,290.789244,-68.407453,213.381886
81,-0.994491,2.740385,1.070869,20.843197,-28.986855,-53.038857,-73.329426,-88.118843,-58.386292,-87.688305,-104.718315,-118.684376,-52.489861,-83.132401,-101.273598,-115.235459,-44.262245,-72.522343,-88.277973,-99.2719,-34.702881,-56.007843,-67.62616,-76.68623,-1.403649,5.851049,18.079545,29.665602,18.998996,29.173253,35.131909,39.701291,27.307168,37.710569,42.755182,46.553352,32.501909,43.453876,48.524845,51.822786,34.708313,44.707274,49.518619,52.927797,33.076464,62.194599,81.340634,88.768707,60.434973,90.062393,95.67968,94.467007,50.222506,83.031017,84.2902,79.340447,39.54039,68.120647,66.452866,60.055527,28.734163,51.341149,50.731447,46.066561,-9.572104,-5.581571,8.036532,19.832052,-5.541778,14.388828,26.866326,32.843006,8.168832,30.06404,39.191578,41.662577,23.243997,43.442909,48.710355,48.918633,37.706036,51.25638,52.971819,51.885604,53.770506,293.583213,-67.512297,234.278667
82,-2.648346,1.930824,-0.534965,18.462441,-27.261841,-51.145661,-70.824005,-85.8643,-59.240147,-81.67717,-91.840576,-100.310795,-54.30978,-76.743462,-87.020794,-93.950329,-46.60595,-67.136627,-75.287327,-80.115154,-37.288948,-53.770546,-60.229546,-64.732292,8.672858,19.013841,29.815248,40.811428,23.326255,32.111869,37.461023,41.51805,24.838498,34.460065,40.118366,43.84877,24.016823,34.260253,40.073399,43.599039,21.291011,30.563379,36.119372,40.130543,36.41399,65.853733,84.592403,92.218219,62.205665,90.837444,97.258106,97.249248,49.66769,82.238376,86.909294,84.801864,37.46521,66.690673,69.51868,66.756614,25.82389,49.033802,52.075195,50.461326,-6.862916,-0.869434,12.724067,24.254141,2.034231,25.521754,37.22027,42.118782,15.16395,40.588904,49.899569,52.073813,29.392652,52.48554,58.634486,58.781859,42.690011,58.897814,61.944518,61.067378,50.995217,295.600179,-68.174205,252.82725
83,-3.732147,1.653837,-1.705548,16.124897,-24.015107,-46.637192,-64.801415,-78.340519,-58.586518,-73.781296,-77.421502,-80.475026,-54.8867,-68.896363,-71.448452,-71.601414,-47.918404,-60.542084,-61.216702,-60.085991,-38.921792,-50.201844,-51.858204,-51.862267,18.407242,32.324204,42.374948,53.242119,28.592762,37.121606,42.272961,45.844555,23.568341,33.108471,39.261418,42.889378,16.845944,26.772508,33.171222,36.632283,9.004544,17.665298,23.864891,28.140169,37.048165,65.089703,83.70179,92.791375,61.206459,88.234497,95.954064,98.332169,48.654568,79.584114,87.866009,89.778294,36.708195,64.543076,72.010895,73.867688,25.440319,46.836205,53.331425,55.803006,-6.20599,-0.398167,11.711546,21.961089,7.415903,30.840688,41.299997,45.867514,20.363866,45.766009,55.568702,58.584765,33.466192,57.019058,64.655905,65.631919,45.049778,63.225679,68.188806,68.045978,47.194096,297.331152,-69.948727,269.029283
84,-6.603562,1.65861,-0.220195,14.005352,-18.10096,-38.205265,-54.391788,-66.79256,-55.582163,-61.665665,-58.351284,-55.887291,-54.069219,-58.365944,-52.35458,-45.249401,-48.665399,-52.458578,-44.63784,-36.879341,-40.947945,-46.439318,-42.300865,-37.056358,20.761452,35.897046,46.56099,57.772956,30.055667,39.65052,44.978605,48.173262,22.806582,32.932631,39.676183,43.164674,13.716007,23.605138,30.229599,33.600585,3.578461,11.901749,17.915801,21.867099,36.108558,63.400795,82.936489,93.596454,59.213493,86.786762,94.742145,96.870174,46.765193,78.037548,86.418594,87.345153,34.985824,62.709194,70.199604,71.412094,24.086826,45.389579,52.319595,55.390869,-6.331184,-0.672611,11.379143,21.230038,11.685981,36.465594,45.609027,48.7149,25.549887,51.502165,59.892354,61.181801,38.090494,62.708729,69.597642,69.196276,48.187354,68.415455,73.959283,73.738637,40.526899,299.065591,-70.232557,283.110464
85,-9.160194,1.124907,-7.181546,7.732559,-10.468987,-25.805683,-39.016651,-48.584931,-50.072634,-46.351891,-35.418297,-26.976563,-52.123804,-46.112549,-31.058739,-16.261425,-49.396025,-44.063284,-27.360443,-12.904873,-44.002648,-43.180235,-32.417908,-21.717991,15.39975,27.983978,37.564857,48.135681,26.407181,39.072511,45.57814,48.942438,21.653319,33.765026,41.401441,44.460321,14.510056,25.033475,31.745634,34.744734,5.7758,14.532428,19.5326,22.370019,34.572167,63.406632,86.091591,101.243798,56.762135,91.042053,104.486733,111.40741,45.256897,84.063332,99.914406,107.122147,34.989922,70.728848,85.566902,92.72081,25.90186,52.988983,65.666462,73.81144,-9.016462,-5.141055,5.651225,14.823755,12.354874,33.785923,41.30905,44.131797,28.675249,49.510171,55.733366,56.408545,41.929802,62.351318,67.113188,66.076078,51.768989,69.500459,73.313992,72.307361,31.363478,300.234038,-77.41733,290.886563
86,-13.600834,2.15525,-2.073074,6.148106,-3.939434,-12.975243,-20.916161,-26.365414,-43.291437,-29.311741,-10.1269,4.731079,-48.46768,-31.829407,-8.339195,13.073925,-47.967413,-32.502806,-8.991921,10.257877,-44.13311,-36.607882,-20.952988,-6.391823,6.27194,14.845701,25.124828,36.439264,17.066566,32.9403,41.502254,45.832613,19.958085,35.7021,46.168424,50.173321,20.364403,34.009601,42.247007,45.440387,18.545254,29.913431,35.110327,37.133073,31.95797,59.12471,81.84581,99.55323,52.214058,86.19294,103.045074,113.941154,41.512321,79.89331,100.245781,112.84893,32.541309,68.553612,88.220032,100.751701,25.334793,52.972881,69.249138,81.740456,-10.16476,-7.645504,2.247702,10.790119,14.54731,33.717738,40.32476,43.653021,30.971166,49.172186,54.907577,56.388586,43.071999,61.501916,66.384187,66.007102,51.138184,67.76936,71.848099,71.316588,17.834959,302.412574,-79.418089,297.057955
87,-12.685719,7.008956,-0.033909,4.353219,0.888371,-2.208446,-4.63179,-5.32006,-30.4424,-12.753284,5.543919,19.250508,-37.532507,-17.533275,5.535542,26.005509,-39.144338,-20.759542,1.822346,20.172043,-37.357406,-27.54083,-11.847976,2.636524,-5.166163,-1.7032,8.568789,19.071441,6.736192,22.084516,31.269704,36.13434,16.357295,31.971831,41.403392,44.478661,23.373945,36.595622,43.204324,44.955757,27.401251,38.139462,41.435002,41.477535,28.983318,54.52898,76.978352,96.072315,50.649948,84.410236,101.979687,114.23901,41.495545,79.214367,99.866329,113.675091,33.406242,68.27623,88.045155,101.465252,26.603039,53.2393,69.369278,82.679134,-11.742817,-10.13943,-0.687912,7.086884,16.819886,33.115745,38.937784,42.697445,33.557075,48.641046,53.666764,55.732192,44.906159,61.041776,65.763163,66.078819,51.737916,67.230514,71.121259,71.110613,5.266187,309.435322,-79.335051,301.424966
88,-14.111023,8.014759,1.617531,2.220013,5.668454,8.521717,10.493409,12.651146,-16.0618,4.761303,23.394711,37.017781,-24.446451,-1.2327,21.782559,41.882836,-27.962705,-6.314397,16.040257,33.921273,-28.276989,-16.720098,-0.964233,13.261677,-15.241101,-17.935284,-10.700859,-2.551935,-3.850398,10.534546,19.80579,24.526782,11.780058,26.794849,35.092598,37.260038,24.67841,37.491126,42.101017,42.350927,34.245827,44.624058,46.052055,44.425092,27.493847,52.264091,74.351589,93.833553,50.026451,83.7346,101.243259,113.356968,40.968098,78.353039,98.795162,112.605503,32.72232,67.045051,86.651104,100.26218,25.691746,52.068409,67.925972,81.269886,-12.415599,-11.011148,-1.578192,5.994101,18.409527,33.515074,38.671418,42.061479,34.904458,48.664216,52.886141,54.632257,45.56663,60.866505,65.104349,65.356476,51.594137,66.636438,70.269363,70.397397,-8.732483,317.467989,-77.605167,303.662887
89,-1.208976,-0.325765,1.087177,1.286867,6.234913,9.902069,12.950294,16.044754,-15.58049,6.52288,25.96479,39.870964,-24.781849,-0.776471,23.18264,43.854812,-29.061207,-6.664032,16.414032,34.619636,-30.1623,-17.895825,-1.07333,13.683517,-19.822821,-24.335133,-16.478789,-8.067852,-7.07467,8.483012,18.07358,22.786347,11.856635,27.605349,36.004158,38.075119,28.000045,41.340629,45.355493,45.234647,40.76635,51.658295,52.003517,49.661201,26.6479,51.180393,72.852974,92.036751,50.065762,83.724976,101.127091,113.261742,41.030651,78.271065,98.370369,112.038117,32.605408,66.716618,86.120613,99.73288,25.38802,51.655277,67.215832,80.368263,-13.325789,-12.347946,-2.686156,5.099275,18.303612,32.540034,37.398507,40.79804,34.924859,47.869154,51.806866,53.667295,45.50578,60.122708,64.085022,64.381732,51.229364,65.841685,69.281986,69.35616,-9.810012,317.176678,-76.386543,304.984208
90,-2.296189,2.88041,0.724034,0.464424,5.924961,10.518975,15.521302,19.352417,-13.162971,7.606339,26.525368,40.338547,-21.267425,1.952179,25.77285,46.251984,-24.823448,-2.73603,19.567131,37.283181,-25.320339,-13.577865,2.513546,16.696312,-18.679574,-23.65373,-15.43538,-7.05286,-8.227823,4.914209,14.126148,19.09098,9.947411,23.621756,31.553695,33.5139,25.550628,37.518698,41.044597,40.490708,37.998239,47.714235,47.694919,45.167475,26.14056,50.532794,72.087902,91.134235,50.430793,84.070827,101.368343,113.360355,41.484615,78.586109,98.519039,112.00938,32.881198,66.925209,86.301441,99.819683,25.369743,51.803009,67.280239,80.185031,-14.394342,-13.676678,-3.89918,3.830564,17.844029,31.48246,36.104046,39.479879,34.662384,46.877999,50.482704,52.417048,45.33141,59.234108,62.946234,63.344265,50.959417,65.124838,68.347468,68.407774,-11.992047,320.087778,-75.548355,305.479322
91,-0.787788,-0.392831,0.597198,-0.306121,6.370136,11.392891,16.011635,19.628219,-9.808365,10.352028,28.994408,42.242065,-18.016525,4.123569,27.419678,47.22377,-22.776592,-1.89584,20.14167,37.265945,-25.188389,-13.489231,2.760235,16.525474,-19.942098,-25.505045,-18.798147,-11.036306,-9.085487,4.877936,13.790349,18.498323,9.169047,23.503478,31.362169,33.80462,24.856319,37.188864,40.490498,40.453398,37.508398,47.74611,47.403877,45.05536,25.744423,50.109192,71.642246,90.385563,50.701126,84.359631,101.633251,113.571934,41.820225,78.889629,98.701046,112.03529,33.10532,67.261265,86.640072,100.082027,25.417019,51.986984,67.427135,80.243488,-14.968213,-14.433134,-4.700256,3.203932,17.296327,30.573185,35.076247,38.351439,34.262587,46.042935,49.646034,51.70835,45.069934,58.525324,62.212923,62.674359,50.810166,64.785185,67.939816,67.937494,-12.687212,319.732133,-74.858534,305.210387
92,-1.58202,-4.385206,0.307022,-0.658272,6.546558,12.116055,17.830753,22.158222,-10.587788,10.961506,30.778118,44.286221,-18.779468,5.573937,30.359242,50.414761,-22.935276,0.049931,23.64378,41.065395,-24.628303,-10.710388,6.500942,20.472302,-19.755266,-24.503798,-16.684467,-7.598857,-8.26733,7.073621,16.503489,21.399432,11.353616,26.750526,35.554393,38.014159,27.925895,40.843896,44.251605,43.763554,41.329057,51.811412,51.105962,48.167532,25.597309,49.832508,71.244473,89.825581,50.644306,84.228939,101.517391,113.383633,41.788708,78.964954,98.824757,112.123455,33.01672,67.35276,86.849476,100.287129,25.206471,51.741829,67.303585,80.252918,-15.495241,-15.159244,-5.574531,2.165402,16.704722,30.075526,34.546787,37.646658,33.82574,45.594578,49.171248,51.169874,44.773223,58.107768,61.772297,62.184258,50.665139,64.710937,67.938532,67.878535,-14.182468,315.385348,-74.464748,304.590536
93,1.065228,-4.305399,0.024044,-0.691098,4.928867,9.585548,16.38105,21.663734,-13.702973,9.124031,28.864288,41.695198,-22.108349,3.360935,28.961265,48.775909,-25.889683,-2.321114,21.943611,39.416153,-27.145249,-11.706746,6.582962,21.192421,-20.622118,-24.185772,-13.525712,-2.140245,-7.503021,7.983859,17.857293,23.510728,13.293394,29.20834,38.846739,41.667745,30.627994,43.660122,47.711678,47.570875,44.564457,55.295122,54.624587,51.756021,25.45562,49.689491,71.18866,89.821427,50.690254,84.402214,101.723374,113.632301,41.796398,79.157318,99.084023,112.392586,32.933235,67.551888,87.165619,100.626389,25.028652,51.768036,67.468048,80.518135,-15.964754,-16.023763,-6.978476,0.495251,16.053057,29.558354,34.145693,37.349848,33.312729,45.165536,48.859865,50.92102,44.474116,57.858246,61.563642,61.968934,50.548949,64.757682,68.055722,67.944867,-13.030511,311.11301,-74.353975,303.932499
94,-10.311493,3.747249,-0.139881,-0.530683,6.741314,15.538273,26.048332,33.547187,-3.35566,21.090843,40.153198,52.739433,-11.312634,16.743427,41.513832,60.255638,-15.034069,10.777439,33.635582,50.096786,-16.248665,0.568519,16.983009,30.252937,-20.487712,-24.950266,-16.09275,-6.012822,-10.73747,2.54634,12.239377,18.885907,9.957069,24.830224,34.049462,36.869998,27.404068,39.952418,43.870346,43.470574,41.469441,52.059723,51.664137,48.862706,25.364502,49.551235,71.137562,89.775684,50.862133,84.434292,101.709011,113.697475,41.992344,79.349613,99.313923,112.767094,33.086174,67.739491,87.45805,101.066746,25.084007,51.899277,67.714771,80.957485,-16.427339,-16.940373,-8.405318,-1.168268,15.477284,29.216355,33.892788,37.048419,32.793767,44.829576,48.679307,50.730915,44.06502,57.646825,61.430742,61.792217,50.305269,64.588239,67.888415,67.714477,-23.244352,314.870954,-74.396204,303.412511
95,8.425781,-3.895673,-0.277473,-0.360277,3.266956,7.440433,13.019417,17.030296,-13.425911,10.694424,31.199249,44.481285,-21.02092,6.261383,31.755341,51.048958,-23.899578,0.9883,24.537666,41.51651,-24.167725,-7.866051,8.979195,22.405586,-16.247719,-18.672978,-9.642289,0.557508,-6.818863,9.225611,18.86448,24.744613,12.803047,29.594416,38.607358,40.809934,29.301781,43.152831,47.037982,46.353182,42.688851,54.30109,53.682239,50.843598,25.279518,49.422226,71.080112,89.958744,50.986438,84.330471,101.590862,113.647464,42.074066,79.416606,99.400692,112.906551,33.153579,67.81858,87.545391,101.214809,25.156139,51.943576,67.870479,81.280735,-16.540193,-17.197045,-9.05855,-2.260238,15.454424,29.314699,33.961356,36.893772,32.814898,44.998588,48.764671,50.449482,44.111061,57.898916,61.519676,61.610585,50.395821,64.762931,68.01325,67.705684,-14.704279,310.982617,-74.559385,303.05957
96,7.786823,-0.826059,-0.376522,-0.10253,1.006623,2.652558,6.766239,9.613232,-20.709503,0.494969,20.950047,35.205586,-27.739803,-3.045524,22.463688,42.428959,-29.301956,-6.755379,16.485157,33.856259,-27.72599,-13.246845,2.650406,15.94598,-13.397493,-13.928572,-3.456751,6.767499,-3.044395,12.255505,21.495046,27.403671,14.907413,30.715593,39.521412,41.696261,29.822336,43.177678,47.269853,46.610396,41.812229,52.907641,53.149678,51.21568,25.306159,49.518939,71.397171,90.640617,51.16864,84.420455,101.619026,113.692771,42.35836,79.68077,99.579208,112.969207,33.498424,68.156421,87.779273,101.27758,25.50967,52.32027,68.250549,81.572914,-16.771461,-17.672919,-9.962293,-3.543288,15.242459,29.239808,33.976398,36.85803,32.663523,44.919423,48.591251,49.91513,44.07075,57.88901,61.348701,61.139577,50.416297,64.804538,67.990143,67.538686,-6.788384,310.165564,-74.806835,302.966046
97,9.870529,-1.855897,-0.414414,0.004063,-0.949104,-2.544777,-2.74966,-2.550716,-29.317371,-9.770713,11.374592,26.370472,-36.480342,-14.38187,11.400502,32.127606,-38.197414,-18.151645,5.648289,23.802189,-36.707599,-24.474975,-8.281082,5.354794,-11.847187,-12.241154,-3.245046,5.985529,0.116807,16.698263,25.37154,30.259653,17.116757,33.079992,41.367676,43.403019,31.167829,44.718562,48.567082,48.232963,42.44238,54.333113,54.367928,52.71566,25.428452,49.839775,72.076698,91.640671,51.316097,84.558128,101.697372,113.753815,42.653732,79.925537,99.736862,112.94474,33.951576,68.578434,88.011337,101.202896,26.133934,52.931522,68.808724,81.969772,-16.553939,-17.635893,-10.324768,-4.041033,15.298479,29.262681,33.9907,36.827761,32.697646,44.946939,48.443248,49.312743,44.116915,57.939362,61.158238,60.55448,50.472181,64.796276,67.852563,67.178619,3.223222,308.347953,-75.080172,303.008395
98,3.46724,2.402264,-0.147869,0.097739,-0.682057,-3.278458,-4.436634,-4.449085,-31.783104,-13.662049,7.274311,22.326038,-39.038143,-17.866802,7.590626,28.840725,-40.64851,-21.541546,1.77174,20.05672,-38.861927,-27.461987,-11.811493,1.413608,-11.771728,-13.732155,-6.01801,2.553602,-0.644032,15.304655,23.457018,28.003429,15.848453,30.595193,38.565121,40.32523,29.575829,42.354299,46.117381,45.755919,40.602761,51.881017,51.759109,49.789382,25.702801,50.265324,72.644611,92.259602,51.338436,84.431408,101.453808,113.414028,42.826652,80.03429,99.677822,112.584263,34.284393,68.817123,87.934948,100.723789,26.627632,53.234413,68.971149,81.945202,-16.194342,-17.209902,-9.814623,-3.419627,15.215635,29.298668,34.040853,36.744298,32.67686,45.054348,48.455585,48.947118,44.147605,57.980388,61.011136,60.081236,50.538859,64.782468,67.706152,66.847711,6.839453,310.803899,-75.07905,303.159816
99,4.161197,4.319602,-0.175381,-0.133863,-0.977783,-5.380302,-8.004272,-8.483596,-34.448375,-17.842884,2.541253,16.994477,-41.743377,-22.087692,2.383439,23.181267,-43.206894,-25.378212,-2.848892,15.007988,-41.365642,-31.2919,-15.666618,-2.506874,-12.054051,-15.959456,-10.583588,-3.594788,-1.512786,13.561663,21.184911,24.638797,14.106264,27.561667,34.701224,35.843768,26.886623,38.462084,41.929666,41.367922,37.022521,47.05905,46.832624,44.404079,25.898186,50.664906,73.221977,93.004921,51.252754,84.358818,101.366181,113.26632,42.857105,80.076187,99.573853,112.247658,34.487114,69.067738,87.908936,100.345848,27.016194,53.554814,69.187065,81.972565,-15.786974,-16.640538,-9.249038,-2.794441,15.348806,29.398778,34.097417,36.636841,32.875808,45.209095,48.351054,48.32959,44.417158,58.124848,60.924389,59.609587,50.826949,65.020035,67.861307,66.777192,11.147014,315.198649,-75.108067,303.101101
100,-13.642124,6.911958,-0.138885,-0.018673,4.269642,6.614399,9.797299,13.619786,-17.235637,0.903889,19.572315,33.434017,-24.75563,-3.012256,18.857655,38.025433,-27.386867,-7.436554,12.686177,28.896893,-27.034378,-16.006084,-1.925709,10.210362,-16.403774,-23.505282,-21.753768,-18.222386,-6.146327,5.794079,12.63306,16.083945,9.981189,21.353466,27.552207,28.924758,23.066373,33.487113,36.17249,35.616156,33.267516,42.828752,42.622185,40.09085,26.140754,50.968757,73.62529,93.464287,51.201919,84.402214,101.413192,113.242424,42.871845,80.157097,99.548218,111.983505,34.596359,69.201004,87.809486,99.89534,27.246883,53.722183,69.271614,81.87307,-15.487078,-16.446963,-9.244469,-2.702248,15.321018,29.311673,34.06002,36.621934,32.871757,45.175428,48.256823,48.094185,44.469188,58.112053,60.854685,59.399944,50.919871,65.027185,67.806275,66.566104,-2.349581,322.231338,-75.101423,303.203159
101,-1.048691,-0.364154,-0.356209,-0.243272,4.761784,7.056988,9.590184,13.133526,-17.856697,2.369454,21.554158,35.215886,-25.983158,-2.180099,20.229802,39.264714,-29.053825,-7.33041,13.395756,29.60336,-29.156295,-16.972641,-2.277008,9.823025,-17.695766,-27.040765,-27.598038,-24.984192,-7.960925,4.618684,11.654748,14.646086,9.783019,21.61835,27.636952,28.333979,24.26454,34.694222,36.939603,35.85408,35.682451,45.504595,44.117273,40.319758,26.443039,51.348495,74.016357,93.804222,51.31826,84.476669,101.466225,113.254852,42.890179,80.110016,99.429657,111.747574,34.606911,69.065323,87.54966,99.477516,27.287888,53.590313,69.121399,81.696899,-15.268815,-16.174397,-8.955539,-2.363127,15.397008,29.317317,34.129539,36.793798,32.96274,45.262978,48.326934,48.116575,44.537892,58.185128,60.934714,59.479602,50.98734,65.057863,67.873719,66.649072,-3.222634,321.995612,-75.281994,303.088315
102,-7.116245,5.10992,0.008274,-0.204172,6.472824,10.7528,16.819039,23.240479,-11.00354,9.604042,27.980896,41.09523,-18.930038,6.679367,28.485855,47.044235,-21.757141,1.612999,21.28743,36.843498,-21.71672,-8.151375,5.764721,17.214752,-19.278157,-30.947787,-31.928285,-28.582647,-12.1725,-2.280813,4.454823,7.773797,5.607111,16.220376,21.858164,22.471309,20.268647,30.031968,32.38262,31.197902,31.822211,40.647333,39.534578,35.590357,26.464703,51.30946,73.914082,93.623028,51.105251,84.416805,101.461018,113.299839,42.593021,79.988537,99.294331,111.503002,34.308403,68.90958,87.310284,99.127544,27.107368,53.530918,69.064281,81.566517,-15.134643,-15.978549,-8.69552,-1.992327,15.338358,29.323974,34.235738,37.009727,33.045178,45.489726,48.577926,48.424772,44.697036,58.49314,61.183408,59.755479,51.103826,65.191454,67.896999,66.63634,-10.143603,327.212598,-75.078444,302.991209
103,-6.806797,-0.489853,-0.33712,-0.217176,7.850327,14.786751,22.509487,30.023335,-4.269138,17.417896,36.224522,49.914242,-11.710052,14.815373,36.012577,54.322621,-14.774414,9.384075,28.896526,44.442776,-15.220264,-1.084797,12.888794,24.537861,-19.502485,-30.994755,-32.381558,-29.012332,-12.059979,-1.888612,4.784348,8.094775,5.992445,17.166972,22.526624,23.503503,20.67636,30.972055,32.990491,31.844601,32.103125,41.556965,40.170001,36.106935,26.386883,51.271305,73.913349,93.645298,51.043419,84.535046,101.679966,113.572369,42.396481,79.976498,99.293804,111.352787,34.096859,68.851902,87.253612,98.938099,26.975738,53.558933,69.154472,81.593182,-15.140892,-15.986984,-8.723468,-1.991698,15.50228,29.446771,34.427646,37.36452,33.293859,45.7472,48.697943,48.480471,44.913792,58.768225,61.335079,59.878634,51.214754,65.297368,67.947906,66.695113,-16.715298,326.829055,-75.180462,302.880343
104,-5.452263,-4.188592,-0.337967,-0.138099,9.973011,18.863789,26.937229,33.60204,0.86047,25.19331,43.524273,56.008953,-6.628212,21.546467,42.201542,59.1759,-10.763122,15.062863,34.718502,49.526516,-12.978538,4.046688,18.628235,29.938557,-20.727872,-31.862768,-32.119168,-27.595136,-12.443277,-0.968284,5.294159,8.176186,7.10247,19.725403,24.626657,25.011658,23.186822,34.39225,35.623825,34.187671,35.865244,46.153332,43.615378,39.016948,26.384743,51.223961,73.793049,93.490917,51.095936,84.709888,101.853642,113.673809,42.286388,80.023464,99.3475,111.27174,33.867428,68.763153,87.167851,98.7094,26.701962,53.39637,69.066662,81.467686,-15.146227,-16.044486,-8.725716,-1.964539,15.556942,29.580313,34.660124,37.727143,33.365168,45.875728,48.765548,48.531983,44.961748,58.866409,61.379243,59.934259,51.222856,65.342792,67.990613,66.784664,-21.902584,322.745562,-75.253452,302.847343
105,0.425869,-3.573274,-0.133884,-0.106161,10.605252,18.885269,25.777474,31.700959,-0.765506,24.810128,43.174713,54.413613,-8.96418,19.494759,41.016678,57.731232,-14.097141,11.944828,32.840424,47.875054,-17.680584,1.023319,16.845772,28.386887,-21.91784,-33.307913,-32.798608,-26.589901,-13.144144,-0.222166,6.319907,9.239652,7.72258,21.760437,26.764283,26.647735,25.222326,37.028943,38.292702,36.882421,39.262505,49.825839,46.743209,41.634276,26.235912,51.034893,73.580886,93.292923,50.839256,84.673919,101.915863,113.753059,41.946247,79.994407,99.417274,111.267013,33.517044,68.716713,87.192489,98.664161,26.432853,53.368446,69.098659,81.464538,-15.322426,-16.225773,-8.77025,-1.877027,15.453436,29.671999,34.782599,37.879864,33.361624,46.086753,48.900559,48.615321,45.00149,59.074236,61.456097,59.950499,51.229463,65.426068,67.990439,66.771598,-21.218319,319.237953,-75.12894,302.806847
106,-8.778431,1.162179,-0.330666,-0.080955,13.261929,24.518109,34.086354,41.580654,8.455513,35.534787,53.187825,63.576886,0.427952,29.634522,50.172558,66.053845,-5.593265,21.474049,42.013813,56.708439,-10.642181,9.578122,25.496281,36.950741,-23.212918,-35.043062,-34.807781,-28.764935,-15.459351,-3.036798,3.337413,6.4225,5.433925,19.750314,24.50349,24.346335,23.312806,35.439945,36.673644,35.392619,37.884483,48.550076,45.522688,40.34126,26.134243,50.987446,73.535751,93.310616,50.722572,84.742722,102.051682,113.848892,41.738651,80.076714,99.58532,111.33831,33.275723,68.785824,87.350624,98.736626,26.24081,53.420231,69.278114,81.631393,-15.389709,-16.298996,-8.785762,-1.842422,15.346966,29.755548,34.891379,37.960436,33.35593,46.187999,48.83335,48.390896,45.061993,59.146422,61.328583,59.687504,51.300921,65.53055,67.973804,66.647862,-29.764332,320.45535,-75.227188,302.78111
107,-6.446857,-3.242872,-0.449684,-0.100789,15.816067,30.172439,40.358894,47.1446,15.658081,44.85498,62.173874,71.925957,7.408905,36.949047,56.664528,71.573501,-0.139046,27.406689,48.0615,62.453956,-7.446476,14.13961,30.678955,42.308052,-23.406049,-34.269737,-34.653751,-29.709309,-15.156762,-0.935173,5.567652,8.639932,6.246659,21.982134,26.816043,26.686355,24.756778,37.76113,38.803811,37.778581,40.091369,51.8041,48.398466,43.154522,26.210232,51.067291,73.626549,93.488274,50.946075,84.968674,102.249229,113.951317,41.880077,80.185638,99.685432,111.388504,33.327782,68.820396,87.372711,98.67675,26.170589,53.331367,69.221741,81.572616,-15.440468,-16.31147,-8.744426,-1.891489,15.459549,29.789325,34.890972,37.904194,33.453941,46.186517,48.690472,48.107746,45.124731,59.085413,61.156003,59.380271,51.369649,65.577024,68.029985,66.655248,-35.987079,317.262011,-75.452762,302.729854
108,-0.159531,-2.703705,-0.211922,-0.081695,16.923569,31.540409,40.51767,45.485573,15.763172,46.902901,63.744164,72.11483,6.602417,37.095715,56.891762,70.93039,-2.172889,26.438862,47.519097,61.48423,-11.17844,12.259381,29.525643,40.926796,-23.355562,-33.800928,-34.244629,-29.863512,-15.626719,0.388398,6.913712,9.635584,6.275547,23.60843,28.292903,27.438882,25.7188,39.701143,40.480495,39.319563,42.270837,54.499839,50.652912,45.196485,26.275944,51.082649,73.622521,93.513428,50.982205,85.000443,102.284546,113.951912,41.899761,80.211365,99.737412,111.479416,33.303017,68.805588,87.336296,98.603668,26.093262,53.283737,69.175026,81.510361,-15.438147,-16.237568,-8.604747,-1.777585,15.432317,29.745865,34.845547,37.791351,33.400612,46.146762,48.659608,48.070781,45.096894,59.051807,61.094412,59.256078,51.394361,65.604724,68.034121,66.589211,-35.956827,314.594646,-75.474901,302.684499
109,5.14476,-1.474661,0.01331,-0.016167,15.397969,27.911248,35.066803,39.348015,9.936413,39.642609,57.455841,66.841347,0.381832,29.193352,50.427292,66.24614,-8.453132,18.594853,40.912468,56.325165,-17.170772,4.508629,22.742043,35.277993,-22.658054,-32.389808,-32.309174,-27.66763,-14.199063,2.320654,9.550751,12.809135,7.555965,24.969063,30.411843,30.391515,26.833493,40.971695,42.26113,41.738227,43.344738,55.923384,52.362262,47.263963,26.207256,51.005928,73.482158,93.220516,50.870304,85.007892,102.380367,114.09367,41.73452,80.177318,99.791073,111.613712,33.122051,68.668098,87.249904,98.584957,25.913864,53.052795,68.961685,81.345028,-15.549309,-16.344198,-8.603401,-1.621664,15.375828,29.559305,34.596545,37.495283,33.406504,46.126298,48.59818,48.039487,45.102563,58.993899,60.982188,59.115794,51.372317,65.515644,67.906138,66.412815,-30.658219,313.130856,-75.307743,302.679203
110,1.258988,2.176245,-0.130864,-0.123068,13.379299,24.776047,33.256073,39.088371,6.11903,34.540329,52.618812,62.855072,-2.939999,26.216938,48.36969,65.096168,-10.287552,17.214443,39.57669,55.451248,-16.835129,4.268795,22.321369,35.217476,-22.725868,-33.241074,-31.738316,-25.439935,-16.028419,-0.49756,7.67544,11.783127,5.89914,22.702946,29.092027,29.07917,25.10952,38.680816,40.710404,39.631143,41.475985,53.071391,50.121895,44.908222,26.225808,51.056145,73.446167,92.971207,50.999611,85.111565,102.458611,114.147149,41.828579,80.124711,99.720726,111.657738,33.16935,68.492032,87.092171,98.506669,25.846138,52.780507,68.721131,81.188187,-15.555929,-16.323154,-8.430858,-1.364956,15.405208,29.310006,34.294301,37.213342,33.435934,45.946826,48.416497,47.928545,45.101574,58.778266,60.855969,59.044299,51.399363,65.497674,67.988969,66.539638,-29.249342,315.294689,-75.288718,302.543723
111,-5.852246,1.422346,0.137764,-0.013808,13.628357,27.220242,38.466237,46.015835,10.493821,39.087262,57.351918,68.581295,2.320233,32.906834,55.034192,71.735379,-3.91159,24.964165,46.803647,62.191945,-8.952117,12.85999,30.253933,42.747242,-22.56281,-33.301478,-31.479409,-24.119859,-15.247226,-0.61638,7.307013,11.506906,6.614309,22.78032,28.964451,29.459319,25.075138,38.44908,40.269976,39.1075,40.208979,52.035677,49.277669,44.189855,26.113678,50.869503,73.172425,92.440522,50.678536,84.845353,102.280243,114.103569,41.590165,79.902604,99.590699,111.750939,33.041668,68.282067,86.924447,98.495705,25.797146,52.579434,68.460915,80.98478,-15.545073,-16.313347,-8.326339,-1.06228,15.548989,29.172352,34.007731,36.843396,33.52462,45.95152,48.41525,48.026927,45.114135,58.712477,60.832221,59.067135,51.348531,65.373124,67.898086,66.478728,-34.965655,316.68503,-75.015021,302.49791
112,10.21074,-1.243962,0.180691,0.028702,10.591312,19.957271,27.694782,33.55466,-0.695069,26.299656,45.751796,57.928997,-9.264096,20.196933,43.635257,61.586917,-14.745129,13.000064,35.720935,51.89011,-18.429337,1.843895,19.511032,32.307964,-21.679581,-31.807069,-29.670764,-22.159641,-13.101424,2.243084,10.251223,14.324379,8.779378,24.735956,31.037412,31.644456,26.935345,40.065878,41.962814,40.881675,41.663633,53.578252,50.716651,45.697417,25.924095,50.691902,72.877224,91.867596,50.409371,84.550495,102.046086,113.968701,41.348374,79.67506,99.425709,111.763195,32.856011,68.024082,86.785778,98.597569,25.669373,52.334965,68.230122,80.87225,-15.662782,-16.437108,-8.279804,-0.708178,15.590867,29.061917,33.745452,36.47277,33.538563,45.914334,48.348436,48.030792,45.09808,58.664546,60.820056,59.123809,51.307923,65.300332,67.841114,66.471589,-24.649475,315.399951,-74.72889,302.485495
113,4.922573,3.055028,0.148041,0.147559,7.792328,14.622631,22.446556,29.650886,-7.49897,17.041752,36.97673,50.291542,-15.358795,13.363037,38.106193,57.559936,-19.140232,8.189609,31.363609,48.549064,-20.363125,-1.848736,15.634426,29.005188,-21.799896,-33.266503,-30.730327,-21.751311,-13.940588,-0.760024,7.473801,11.931081,7.402541,21.986778,28.678176,29.603493,24.978116,37.037452,39.420228,38.1549,39.083602,49.767337,47.591648,42.821589,25.796974,50.645107,72.765118,91.412006,50.205322,84.345394,101.87392,113.854282,41.173622,79.531094,99.416553,111.982418,32.727848,67.826775,86.766598,98.836063,25.5355,52.052662,67.981922,80.77026,-15.813564,-16.718455,-8.425375,-0.549591,15.496192,28.796242,33.368156,36.042406,33.451001,45.696194,48.049391,47.738416,45.00559,58.368848,60.526432,58.829061,51.231451,65.151106,67.761876,66.436873,-19.647611,318.411785,-74.501558,302.58986
114,-7.635624,1.889254,0.093452,-0.051463,8.797073,18.463417,29.856983,39.165058,-1.324436,23.602455,43.672176,57.762966,-8.006012,22.350219,46.859401,66.132122,-10.466435,18.524093,41.161068,57.856464,-9.991528,9.575271,26.323654,39.147754,-21.735454,-33.785762,-31.081811,-21.073502,-13.747976,-2.063267,5.957951,10.570732,7.431007,21.207858,27.731233,28.959091,24.364304,36.098809,38.152158,36.558491,37.509633,47.844108,45.769986,41.001026,25.716191,50.61628,72.706524,91.071019,49.882897,84.063572,101.651425,113.732426,40.922345,79.264241,99.245419,111.944493,32.592602,67.649403,86.741559,98.988842,25.49881,51.961567,67.924645,80.795781,-15.824124,-16.696435,-8.293698,-0.209754,15.547988,28.832441,33.331699,35.928341,33.491781,45.759278,48.044204,47.65199,45.02351,58.395611,60.530854,58.758012,51.213618,65.185081,67.830851,66.496302,-27.210943,320.268629,-74.335814,302.505987
