takenoko1/special-research/HandMotion_SimilarSearch_自分用/NewProject/handData_new/key/d3_feature/64.csv
,vel_0x_L,vel_0y_L,vel_0x_R,vel_0y_R,posFromWrist_1x_L,posFromWrist_2x_L,posFromWrist_3x_L,posFromWrist_4x_L,posFromWrist_5x_L,posFromWrist_6x_L,posFromWrist_7x_L,posFromWrist_8x_L,posFromWrist_9x_L,posFromWrist_10x_L,posFromWrist_11x_L,posFromWrist_12x_L,posFromWrist_13x_L,posFromWrist_14x_L,posFromWrist_15x_L,posFromWrist_16x_L,posFromWrist_17x_L,posFromWrist_18x_L,posFromWrist_19x_L,posFromWrist_20x_L,posFromWrist_1y_L,posFromWrist_2y_L,posFromWrist_3y_L,posFromWrist_4y_L,posFromWrist_5y_L,posFromWrist_6y_L,posFromWrist_7y_L,posFromWrist_8y_L,posFromWrist_9y_L,posFromWrist_10y_L,posFromWrist_11y_L,posFromWrist_12y_L,posFromWrist_13y_L,posFromWrist_14y_L,posFromWrist_15y_L,posFromWrist_16y_L,posFromWrist_17y_L,posFromWrist_18y_L,posFromWrist_19y_L,posFromWrist_20y_L,posFromWrist_1x_R,posFromWrist_2x_R,posFromWrist_3x_R,posFromWrist_4x_R,posFromWrist_5x_R,posFromWrist_6x_R,posFromWrist_7x_R,posFromWrist_8x_R,posFromWrist_9x_R,posFromWrist_10x_R,posFromWrist_11x_R,posFromWrist_12x_R,posFromWrist_13x_R,posFromWrist_14x_R,posFromWrist_15x_R,posFromWrist_16x_R,posFromWrist_17x_R,posFromWrist_18x_R,posFromWrist_19x_R,posFromWrist_20x_R,posFromWrist_1y_R,posFromWrist_2y_R,posFromWrist_3y_R,posFromWrist_4y_R,posFromWrist_5y_R,posFromWrist_6y_R,posFromWrist_7y_R,posFromWrist_8y_R,posFromWrist_9y_R,posFromWrist_10y_R,posFromWrist_11y_R,posFromWrist_12y_R,posFromWrist_13y_R,posFromWrist_14y_R,posFromWrist_15y_R,posFromWrist_16y_R,posFromWrist_17y_R,posFromWrist_18y_R,posFromWrist_19y_R,posFromWrist_20y_R,posFromBody_0x_L,posFromBody_0y_L,posFromBody_0x_R,posFromBody_0y_R
6,-8.778488,0.952809,0.214176,-0.111941,1.078755,-1.628494,-7.554153,-14.937458,-25.231853,-2.143135,18.925885,31.549176,-34.306629,-6.723873,17.29501,35.805737,-38.44202,-16.881683,5.961308,23.352322,-39.33173,-39.02584,-33.932853,-27.700733,-11.857562,-10.80794,0.028788,10.202032,2.381021,20.380797,27.560159,32.011512,17.923341,33.145694,39.791088,41.937125,29.74668,41.56188,45.55297,46.831043,39.461378,49.025319,52.177344,54.281687,24.972805,47.688629,68.242596,86.364155,47.772606,80.037724,96.77821,109.244076,38.210152,73.991444,94.1181,108.258145,28.677052,61.502747,80.881268,94.93594,19.979725,45.436512,61.07745,74.805004,-13.965708,-14.127951,-5.13672,2.61371,13.352786,29.754794,36.680646,41.372282,30.801921,45.860808,53.094968,57.254846,43.003543,59.622246,65.705513,67.661668,50.558026,66.855615,71.328617,71.420996,1.226,317.602265,-71.247671,303.172947
7,1.869988,-6.276238,0.171364,0.056316,-0.250363,-4.505677,-12.548916,-21.98029,-30.386708,-6.906681,16.126156,29.990421,-40.549221,-11.396805,14.512241,34.461261,-45.100559,-22.75573,2.612789,22.055477,-46.130036,-48.60204,-44.697396,-38.780022,-8.065567,-2.858587,12.197485,25.984993,5.835834,26.985844,34.905359,39.442446,21.265286,38.669528,45.935378,47.955172,32.792803,46.4731,50.929924,52.262115,42.411578,53.140675,57.664634,61.18458,24.827305,47.493153,67.973431,85.989956,47.224297,79.665127,96.538548,109.092716,37.641197,73.624798,93.865803,108.027317,28.180802,61.147808,80.631695,94.751255,19.60627,45.041119,60.756912,74.577564,-13.962496,-14.187836,-5.266729,2.595827,13.071155,29.558638,36.490937,41.192008,30.514386,45.596554,52.861021,57.062519,42.710105,59.380357,65.495291,67.489792,50.265688,66.678206,71.182331,71.266138,3.346276,311.290085,-70.826019,303.193321
8,-4.151882,2.203477,0.212013,0.258772,-1.047741,-4.795487,-11.06852,-19.885449,-27.447693,-2.395455,20.192207,33.972496,-36.606926,-6.512661,19.408058,39.066787,-40.500458,-16.866841,8.378791,27.649429,-41.037026,-41.361546,-36.272164,-29.602421,-8.416557,-3.707927,11.294237,25.256746,4.938118,25.30296,33.564757,38.908169,20.000069,36.97301,44.58896,47.195,31.194962,44.607114,49.345248,50.853885,40.319116,51.158549,54.924694,57.435528,24.614788,47.199028,67.623402,85.589573,46.860615,79.30267,96.201497,108.738385,37.292199,73.326954,93.595517,107.680905,27.895924,60.938176,80.439846,94.475659,19.391465,44.842827,60.545266,74.334103,-14.075649,-14.4318,-5.575495,2.31711,12.598331,29.181614,36.179801,40.95864,30.090333,45.224939,52.522405,56.761793,42.348654,59.022476,65.098124,67.05965,50.002791,66.433291,70.949556,71.075774,-0.548795,313.47028,-70.357195,303.428811
9,5.163379,-3.695985,0.022705,0.31631,-2.048893,-8.034153,-17.720455,-28.658764,-33.773082,-10.320854,13.661396,28.872975,-43.152511,-14.083236,13.082737,34.493351,-47.165119,-24.188724,2.755726,23.743344,-47.872455,-48.982773,-43.368015,-35.880272,-4.862017,1.754169,17.435871,31.445101,7.007079,29.795611,38.190543,42.83263,21.333199,40.174151,48.137522,50.356029,32.043759,47.286749,52.301426,53.684388,40.911044,53.135773,58.431093,62.357234,24.433342,47.003975,67.406674,85.38049,46.592801,79.099537,96.088337,108.639943,37.07856,73.153256,93.486775,107.536984,27.714158,60.899941,80.506176,94.540661,19.227917,44.821312,60.581704,74.406086,-14.308213,-14.689855,-5.892854,1.99271,12.043454,28.783744,35.812966,40.596512,29.542397,44.745571,52.037924,56.273756,41.886119,58.545109,64.548768,66.475529,49.695496,66.144065,70.616845,70.726217,4.855545,309.762136,-70.093529,303.732962
10,-4.408584,2.282555,-0.006145,0.417778,-2.847496,-8.508717,-16.909287,-27.241597,-29.995434,-4.808155,17.705738,31.79504,-37.936455,-7.488556,18.808605,39.15826,-41.233006,-16.278202,9.484508,29.389675,-41.483792,-38.62595,-30.567696,-21.634209,-5.308757,1.624604,17.305306,31.107017,8.036791,29.219937,37.116443,41.865606,20.909789,38.587289,46.385674,48.976623,30.405755,45.264176,50.046461,51.411701,38.127508,50.563744,54.6493,57.307939,24.453094,46.972836,67.305954,85.338524,46.328545,79.01754,96.098968,108.613335,36.876503,73.077667,93.45211,107.379089,27.601948,60.978081,80.620239,94.518036,19.21978,44.938076,60.719398,74.487534,-14.593919,-15.050872,-6.243991,1.584318,11.30471,28.203908,35.255176,40.075709,28.845804,44.109184,51.397166,55.682916,41.326278,57.896088,63.831105,65.786321,49.324525,65.714814,70.085248,70.142466,0.670515,312.02829,-69.87612,304.134339
11,5.3768,-2.334512,-0.046314,0.361895,-4.073124,-11.324249,-22.445137,-35.177341,-35.592727,-13.744732,10.022747,25.452679,-43.959892,-15.740913,11.21426,32.709171,-47.281814,-24.968513,1.829876,23.089634,-47.57896,-48.800056,-43.383613,-36.116237,-2.409241,5.685991,21.946035,35.88766,9.497127,31.852271,40.018121,44.792872,21.929918,39.912762,48.113328,50.651369,31.132224,46.394011,51.636794,53.53615,38.898376,51.032134,56.695166,61.420134,24.323787,46.788711,67.061771,85.142132,46.253769,78.9547,96.052013,108.569446,36.837192,73.026706,93.414036,107.268963,27.537346,61.007595,80.655132,94.436382,19.115192,44.963974,60.705757,74.377475,-14.866906,-15.395489,-6.609641,1.099021,10.841977,27.777991,34.77451,39.550398,28.403905,43.638102,50.866173,55.171671,40.9517,57.390771,63.25853,65.276892,49.075646,65.354203,69.622873,69.668013,6.259266,309.678368,-69.710483,304.480824
12,-6.117313,3.414761,-0.015782,0.14667,-3.280083,-8.594319,-16.429138,-26.94381,-28.896549,-5.03896,17.396942,31.769668,-36.621346,-7.381645,18.50885,38.751846,-39.919064,-16.319905,9.106727,28.957763,-40.344406,-39.546799,-33.531578,-26.241291,-5.536196,0.655987,16.018736,29.916704,7.546642,27.822044,36.157361,41.695657,20.307302,37.121347,45.401237,48.43685,29.72382,43.803841,49.030309,50.980103,37.436669,48.958864,53.480698,56.760312,24.229603,46.622132,66.862725,84.937775,46.349339,79.020653,96.10952,108.625946,36.926628,72.954529,93.334442,107.170716,27.510064,60.881459,80.558785,94.310761,18.914818,44.812249,60.500187,74.147461,-15.043117,-15.555732,-6.777763,0.826294,10.648302,27.554985,34.561458,39.39596,28.157459,43.326732,50.535438,54.904971,40.717171,57.063531,62.954458,65.089392,48.89915,65.169816,69.470522,69.60704,0.331679,313.078448,-69.536539,304.612813
13,3.989353,-2.559468,0.001408,0.038655,-4.102936,-10.985218,-21.268707,-33.484451,-33.386707,-11.214981,12.162289,27.434223,-41.523033,-13.315693,13.112354,34.414936,-44.957096,-22.657116,3.473797,24.128231,-45.43404,-46.393398,-40.63258,-33.144413,-2.478081,5.213723,21.038588,35.032318,9.220535,30.195248,38.448141,43.564385,21.377141,38.390145,46.889842,49.546406,30.482609,44.855956,50.393499,52.439623,38.268929,50.174173,55.686015,60.039024,24.015564,46.34729,66.578396,84.685696,46.427994,79.086285,96.219028,108.66869,37.055935,72.891827,93.264484,107.09634,27.505096,60.775818,80.441059,94.168751,18.687424,44.547821,60.213558,73.894535,-15.15008,-15.7035,-6.985404,0.527497,10.816758,27.598458,34.525335,39.290849,28.164511,43.183434,50.280928,54.638197,40.629178,56.819827,62.670777,64.88164,48.789211,65.098137,69.432546,69.686958,4.489717,310.5122,-69.366446,304.644688
14,-6.432426,3.557268,0.103855,-0.025194,-2.670743,-6.943154,-12.66544,-20.790001,-26.799065,-2.116093,20.140628,34.440364,-34.343297,-5.063588,20.423206,40.694606,-37.65326,-14.306431,10.493968,30.090717,-37.946927,-36.997834,-30.943371,-23.478127,-6.281387,-1.293856,12.781459,26.127958,7.246226,26.36424,35.047793,41.112894,19.680832,35.603213,44.290138,47.653324,28.969564,42.374739,48.112241,50.454768,36.609609,48.126456,53.224965,56.865831,23.80949,46.107056,66.314369,84.359482,46.436451,79.060478,96.207275,108.603356,37.111336,72.833862,93.201027,106.999283,27.490952,60.746121,80.357826,93.95343,18.540516,44.347653,59.951283,73.579537,-15.168865,-15.818022,-7.17525,0.306369,11.045901,27.584502,34.480553,39.283488,28.298843,43.138665,50.122982,54.49995,40.690199,56.683939,62.434718,64.659128,48.828546,65.127715,69.466842,69.819141,-1.793386,314.0702,-69.113268,304.620226
15,3.523178,-1.326596,0.153946,-0.043052,-2.119332,-6.479668,-13.197876,-21.646878,-29.555592,-6.598984,16.707721,31.69955,-38.44558,-10.370522,15.443676,36.360157,-42.573384,-21.162953,4.343593,24.648616,-43.570519,-47.0472,-44.147484,-38.671669,-7.561214,-3.508374,10.510278,24.211163,4.923669,25.157637,34.43986,40.586323,19.359421,35.904246,44.853696,47.985269,30.282526,43.587813,49.546555,52.055585,39.367567,50.366785,56.664043,61.686834,23.539478,45.821846,66.044861,84.060036,46.453686,79.011498,96.13694,108.484154,37.143482,72.758446,93.152893,106.961174,27.444019,60.678257,80.276505,93.830841,18.350464,44.102303,59.673271,73.321472,-15.20226,-15.93851,-7.330281,0.164392,11.29105,27.662665,34.514664,39.333419,28.494233,43.168515,50.041311,54.423231,40.8127,56.686964,62.347946,64.560685,48.909463,65.246362,69.623453,70.07186,1.857886,312.752465,-68.831228,304.586035
16,-5.8419,3.55344,0.078003,-0.052908,-1.825035,-5.218987,-9.326992,-14.994622,-24.662476,1.583416,23.874,38.184723,-32.406979,-1.962719,23.345489,43.450973,-36.064751,-11.805748,12.765678,32.161148,-36.390187,-36.590996,-32.126587,-25.521401,-9.743758,-7.198036,5.548509,19.538621,3.871528,22.901313,32.065766,38.494848,17.639215,33.830556,42.743981,46.204412,27.831874,40.762546,47.033226,49.560423,36.041319,47.3793,52.800678,56.198605,23.38187,45.689804,65.9244,83.866219,46.435261,78.978836,96.150352,108.478569,37.120628,72.729607,93.179947,107.001137,27.376099,60.647552,80.271973,93.814682,18.204517,43.931248,59.525242,73.215134,-15.220563,-16.030209,-7.432613,0.124859,11.318752,27.58838,34.478824,39.385969,28.510943,43.112915,49.96668,54.411116,40.803227,56.612901,62.236795,64.469406,48.882145,65.319314,69.746349,70.265893,-3.886362,316.314976,-68.655573,304.542198
17,3.988094,-2.664222,0.05143,0.061738,-1.924816,-5.904179,-12.070358,-19.021591,-28.39286,-4.036468,18.818493,33.359608,-36.901874,-7.450813,18.035877,38.577152,-40.922024,-18.063011,6.951794,26.70718,-41.576237,-44.338875,-41.713509,-36.478077,-9.727752,-6.679764,6.254885,20.062326,4.584079,24.977066,34.129799,39.974376,19.004295,35.804396,44.676497,47.758201,29.574199,42.866926,49.185784,51.850722,38.267237,49.552211,56.201977,61.185371,23.228588,45.559284,65.846512,83.733169,46.424766,78.978195,96.169876,108.436821,37.121555,72.78788,93.268135,107.041237,27.345565,60.728622,80.322143,93.788772,18.13734,43.86367,59.467334,73.16494,-15.333442,-16.266343,-7.684024,-0.066727,11.35285,27.595543,34.470587,39.371124,28.521552,43.064886,49.879624,54.358616,40.76157,56.516188,62.093053,64.361923,48.807019,65.227479,69.630123,70.206217,0.169544,313.658559,-68.536331,304.611741
18,-3.893028,2.75024,-0.130875,-0.040768,-2.193672,-5.012158,-8.815018,-14.019436,-24.820118,1.740532,24.09399,38.318424,-32.395031,-1.490753,23.814617,43.526882,-35.820191,-11.748551,12.918423,32.089199,-35.821758,-38.461338,-36.54443,-32.069344,-11.909431,-9.902629,2.531298,16.82022,4.550153,23.443334,32.390018,38.670492,18.615798,34.46992,42.974779,46.240129,28.622341,40.946044,47.281031,50.080016,36.597543,47.266482,53.366423,57.538145,23.271309,45.721115,66.101624,83.915726,46.39167,79.068443,96.283333,108.61512,37.044663,72.851395,93.370697,107.12954,27.302994,60.793522,80.412094,93.889526,18.180256,43.944328,59.569473,73.27652,-15.356166,-16.340851,-7.78643,-0.015832,11.228695,27.516713,34.428733,39.389057,28.486281,43.091513,49.965717,54.490145,40.756075,56.593339,62.203315,64.496885,48.758348,65.200247,69.569879,70.086533,-3.659769,316.411794,-68.603491,304.573968
19,5.50074,-1.900776,-0.060242,-0.068011,-2.659321,-6.602898,-13.856232,-22.570278,-29.534889,-5.437569,17.448383,32.027584,-38.19009,-8.157154,17.380199,37.503742,-42.064716,-19.314526,5.956386,25.419124,-42.551479,-48.355557,-48.74659,-46.277619,-11.671199,-8.905311,4.34193,19.082606,4.319601,24.598239,33.452977,39.207967,19.307723,35.479712,43.75586,46.601072,29.943219,42.402908,48.397885,51.063367,38.783816,48.713813,55.111143,60.179938,23.251511,45.774125,66.27182,84.068871,46.490296,79.200714,96.348633,108.653046,37.103222,72.94075,93.441307,107.154099,27.355877,60.847287,80.40786,93.884125,18.249184,43.984623,59.58704,73.330422,-15.374272,-16.432353,-7.914934,-0.077423,11.285962,27.655564,34.543439,39.502763,28.603729,43.207343,50.100097,54.620326,40.862742,56.76845,62.417402,64.721681,48.794335,65.198567,69.58045,70.099005,1.916308,314.509764,-68.588396,304.504703
20,-6.043591,3.455343,-0.079708,-0.202258,-0.483055,-2.236736,-5.138683,-9.548595,-23.525253,2.503144,24.811982,38.751709,-31.979049,-0.612682,24.576279,43.880036,-35.854282,-11.21981,13.689469,32.366387,-36.173664,-39.55141,-38.422714,-35.058414,-14.320365,-14.523586,-3.080222,11.510067,2.118953,20.697318,29.412536,35.486121,17.695136,33.385595,41.333083,44.256038,28.518971,40.374444,46.144354,48.491227,37.028659,46.747149,51.943495,55.101844,23.254223,45.94336,66.574574,84.28703,46.434071,79.343869,96.493023,108.799198,36.970619,73.028286,93.539372,107.207783,27.234135,60.889172,80.445225,93.921925,18.223812,44.040848,59.661404,73.402737,-15.351646,-16.384076,-7.896976,0.040336,11.23403,27.835345,34.800186,39.813924,28.589206,43.449307,50.451927,55.004995,40.865842,57.017972,62.764724,65.103447,48.756051,65.203545,69.601915,70.12446,-4.056685,317.963246,-68.597506,304.300584
21,6.780201,-3.251073,-0.150718,-0.142693,-2.191063,-6.025165,-12.23426,-20.010589,-29.877445,-7.275593,15.813114,30.446812,-38.742588,-9.988369,15.771504,35.92638,-42.470558,-20.883201,4.893597,24.37373,-43.046688,-49.99506,-50.859089,-49.148002,-12.089385,-10.262289,3.255198,18.440007,3.068193,22.537826,31.35718,37.403373,19.226435,34.97142,42.908595,45.638457,30.797191,42.802323,48.133335,50.33759,40.219093,49.479148,55.229667,59.743808,23.412139,46.2224,66.914646,84.611103,46.489883,79.621616,96.775966,109.030643,36.938427,73.203861,93.71973,107.311718,27.189113,61.006118,80.566097,94.021282,18.236835,44.154247,59.809398,73.526859,-15.317646,-16.321325,-7.853578,0.081462,11.165833,28.031353,35.060699,40.106881,28.548229,43.619837,50.699028,55.259691,40.878168,57.207669,62.997314,65.335431,48.790125,65.16647,69.542425,70.052768,2.788559,314.708443,-68.683181,304.154161
22,-2.681167,2.523282,-0.166638,-0.1956,-2.611874,-6.473671,-11.396199,-18.326477,-27.994206,-3.322575,19.309009,33.565143,-35.688801,-5.830799,19.751346,39.43523,-38.569073,-15.47786,9.893978,28.975971,-38.261799,-43.079361,-43.110203,-40.977127,-11.298287,-9.577661,3.637618,18.678426,3.74536,21.684707,29.848421,36.147345,18.549651,33.26202,40.718259,43.9009,28.98862,40.454066,45.512635,47.834661,37.324333,46.496245,51.271787,54.883013,23.588894,46.41655,67.077004,84.802963,46.588921,79.830895,97.016007,109.275742,37.01611,73.362076,93.878449,107.47776,27.275242,61.13102,80.687508,94.162102,18.363625,44.348786,60.036495,73.749046,-15.300604,-16.26023,-7.779465,0.134109,11.245911,28.130894,35.138714,40.149475,28.679102,43.787637,50.869149,55.399913,41.046277,57.429143,63.234743,65.570712,48.965421,65.287092,69.629134,70.065204,0.162695,317.224049,-68.794516,303.950885
23,5.923393,-2.49647,-0.000595,-0.200207,-3.256577,-8.763519,-16.472134,-25.866406,-33.391903,-11.899521,11.274685,25.980869,-41.777584,-14.153091,11.784428,32.313503,-44.776062,-23.942345,2.018383,21.987202,-44.884106,-51.701386,-52.98262,-51.850491,-9.604573,-6.888654,7.499254,22.689275,3.376969,22.826768,31.386685,37.637086,18.868863,34.232959,41.915179,45.048469,30.255257,42.365179,47.112156,49.309668,39.675245,48.727621,53.952335,58.696286,23.718235,46.461857,67.035141,84.749909,46.631104,79.866646,97.04274,109.287529,37.026672,73.401604,93.902046,107.499641,27.24995,61.13213,80.656632,94.116051,18.326729,44.365151,60.067223,73.759094,-15.260293,-16.164517,-7.652803,0.250299,11.468743,28.38759,35.369796,40.352054,28.881001,44.027463,51.09497,55.610395,41.221475,57.664276,63.486981,65.847786,49.104643,65.35855,69.698999,70.137217,6.128237,314.721343,-68.752962,303.744442
24,-5.305206,1.893675,0.035797,-0.141755,-2.007237,-6.196335,-10.347576,-16.195782,-28.664063,-4.603707,18.332554,32.641674,-36.414414,-7.240849,18.386043,38.206592,-39.097596,-16.479561,9.177738,28.691471,-38.728054,-43.340195,-43.443592,-41.613064,-10.265228,-8.644959,4.751274,19.629962,3.113234,21.350255,29.604469,36.041579,18.324114,33.331996,40.785159,43.989339,29.328334,40.935979,45.754721,47.94244,38.010059,47.253046,51.877349,55.519536,23.837769,46.530739,67.013512,84.679527,46.50618,79.797775,97.009598,109.262146,36.88551,73.399841,93.915482,107.520104,27.125542,61.114025,80.658119,94.130837,18.242169,44.399014,60.166924,73.843163,-15.269148,-16.109003,-7.501921,0.440552,11.509968,28.46699,35.500781,40.505356,28.899761,44.131686,51.252089,55.79256,41.245286,57.746306,63.633627,66.050785,49.125022,65.336876,69.665123,70.050915,0.845158,316.609145,-68.695038,303.596814
25,0.20708,-0.698372,0.03875,-0.03516,-3.773048,-8.209556,-13.484401,-21.811397,-28.415748,-3.67638,18.947114,33.024674,-35.421501,-6.148086,19.202111,38.681992,-37.682727,-15.783462,9.083336,28.261391,-36.953338,-41.78794,-42.952938,-42.111888,-7.534687,-3.126967,11.232622,25.476021,5.818976,24.162084,32.434688,38.935598,19.439474,33.804213,41.099839,44.05919,29.450932,41.107447,46.232508,48.788395,37.493924,46.870674,52.419579,57.410926,23.807476,46.379871,66.792343,84.531967,46.481987,79.813362,97.069473,109.295769,36.865253,73.497574,93.960617,107.546608,27.09066,61.148689,80.62841,94.035965,18.184536,44.375496,60.148464,73.802605,-15.342335,-16.157848,-7.542332,0.409689,11.793279,28.53526,35.479835,40.334887,29.156988,44.15,51.156153,55.606097,41.37984,57.664547,63.445423,65.794977,49.139483,65.261664,69.555343,69.898897,1.066217,315.902298,-68.642309,303.553179
26,0.352959,-0.073891,0.221054,-0.245582,-3.696533,-8.08374,-13.273029,-21.435734,-27.799621,-2.631409,19.647263,33.108994,-35.125854,-5.646812,19.302109,38.349198,-37.625553,-15.868172,8.52887,27.247833,-36.955593,-42.009933,-43.244362,-42.408771,-7.574602,-3.482624,10.613562,24.769782,5.817766,24.25219,32.335184,38.523242,19.54939,34.111101,41.270172,43.988413,29.681138,41.617049,46.671431,49.129147,37.722969,47.247167,52.600323,57.351214,23.598644,46.093323,66.465431,84.252777,46.423817,79.64035,96.869293,109.089844,36.818767,73.400917,93.747482,107.344871,27.034779,61.011532,80.378174,93.781082,18.096474,44.221149,59.900104,73.535614,-15.409,-16.19076,-7.478987,0.611478,12.278712,28.785436,35.625493,40.358291,29.582437,44.423642,51.316519,55.67122,41.624928,57.800893,63.543867,65.853937,49.189687,65.336469,69.661245,70.008752,1.427959,315.823458,-68.412472,303.302648
27,-0.444042,-0.416198,0.30019,-0.529991,-3.155216,-7.070572,-11.86195,-20.290478,-27.035305,-2.607502,19.30109,32.377178,-34.856655,-5.956936,18.689907,37.429905,-37.718388,-16.588875,7.343365,25.776157,-37.32423,-42.275448,-42.583694,-40.805031,-7.546764,-3.469768,10.756935,24.802782,4.722919,23.338062,31.781418,38.183553,18.845707,33.563165,41.19102,43.931195,29.575817,41.6406,47.091285,49.592497,38.180737,47.838736,53.274872,58.000693,23.378803,45.886734,66.28632,84.096096,46.284782,79.362316,96.522343,108.728474,36.607738,73.148266,93.353428,106.954525,26.793045,60.715748,80.001285,93.440952,17.827171,43.83958,59.440544,73.053623,-15.258095,-15.91875,-7.19275,0.996861,12.738875,29.12715,35.953708,40.666932,29.966672,44.800356,51.598212,55.86151,41.867323,57.995061,63.679482,65.906338,49.251881,65.45267,69.82413,70.215121,0.984043,315.387073,-68.112156,302.75247
28,-4.661247,1.583664,0.441353,-0.682108,0.100925,-0.83844,-2.637154,-8.23375,-20.0117,6.644783,26.731167,37.660137,-28.645157,1.965133,24.45425,41.198078,-32.618157,-9.915654,11.71558,27.503116,-33.143486,-36.268193,-36.181378,-34.465531,-11.67026,-10.875372,-0.335824,11.131981,2.715437,20.962906,28.294619,33.315916,18.314987,33.353139,39.533589,41.14099,29.673197,41.654185,45.905713,47.46543,38.3022,48.08265,52.729331,56.230827,23.25539,45.723152,66.050457,83.865955,45.967712,78.981548,96.094929,108.216671,36.303486,72.850673,92.960895,106.494289,26.551449,60.432289,79.698131,93.161052,17.659858,43.548511,59.079277,72.678829,-15.197764,-15.734486,-6.927581,1.355274,12.949729,29.355035,36.207182,40.906981,30.136684,45.043307,51.832172,55.999967,41.989354,58.096109,63.77506,65.913736,49.310076,65.601551,70.055077,70.432212,-3.702106,316.937923,-67.695705,302.037548
29,3.890419,-3.22252,0.121994,-1.163353,-5.309601,-10.05827,-15.809452,-25.858429,-26.805771,-2.113015,18.103077,29.78738,-32.738228,-3.135189,19.717884,36.899265,-34.23111,-11.419339,10.339977,26.155048,-32.603005,-34.048451,-32.062958,-28.873879,-3.789128,1.428794,13.330939,24.551557,10.032639,27.754909,34.34143,38.867056,20.534742,35.046027,41.579245,43.201651,27.49962,39.34104,44.316839,46.624192,32.427624,42.282644,46.982307,50.841128,23.206409,45.527778,65.786533,83.659824,46.093826,78.850261,95.916492,108.009395,36.417515,72.681988,92.692806,106.337917,26.55257,59.980133,79.267353,92.962177,17.518741,43.118431,58.537262,72.16888,-15.360328,-15.792828,-6.997544,1.193759,12.854929,29.349872,36.352246,41.124552,29.938502,45.144047,52.040741,56.21245,41.672673,58.023614,63.917037,66.191391,48.865448,65.43086,70.10423,70.636778,0.127178,313.67998,-67.634846,300.838772
30,0.473076,-0.991847,0.062828,-2.279479,-4.997509,-10.140267,-16.607575,-26.780743,-26.737587,-3.084618,16.718731,28.505848,-33.118527,-4.508503,18.157825,35.566577,-34.875996,-12.800034,8.932697,24.768116,-33.380551,-35.992115,-35.016655,-32.810543,-3.48728,1.893589,13.08795,23.239459,9.4139,27.173578,34.376417,39.336803,19.452034,34.33003,41.568982,44.087596,26.091525,38.261185,43.768939,46.871984,31.166878,40.965952,45.977924,50.978571,23.531936,45.651054,65.582691,83.254223,46.21067,78.397785,95.31023,107.400295,36.686062,72.170391,92.092518,106.01588,26.861961,59.432911,78.718517,92.657375,17.769573,42.785122,57.951771,71.43433,-15.689347,-15.910278,-6.912922,0.869853,11.764157,28.332991,35.793836,41.119822,28.878988,44.835776,52.356593,57.055615,40.847453,57.756926,64.405198,67.410591,48.358365,65.086231,70.28921,71.275154,0.519619,312.644871,-67.652653,298.516031
31,4.097442,-2.505782,0.718014,-5.478151,-10.930927,-19.599678,-27.423477,-37.585361,-30.45631,-11.569919,2.450672,10.473301,-32.75481,-10.283283,5.881439,18.437714,-31.555858,-14.300503,0.89645,11.968128,-27.452007,-29.546608,-29.017788,-27.501903,-3.337993,2.659047,12.864265,22.089579,12.951222,27.850658,32.999346,36.349404,21.52649,34.56068,39.865547,41.041695,26.793306,38.058693,42.342727,44.015693,30.314191,40.964766,46.04391,50.264193,23.832309,45.78804,65.170646,82.268852,45.689861,76.888778,93.384452,105.321189,35.838604,69.771103,89.125808,103.050247,25.503799,56.111091,74.791236,88.47528,15.853626,38.05973,51.77441,63.653434,-15.513148,-14.903474,-5.57269,1.833555,11.334906,28.45643,36.734703,42.814821,28.174811,45.619772,54.357752,60.012138,40.183266,58.517457,66.446642,70.545338,47.603084,65.066595,71.15789,72.668725,4.470405,310.110254,-67.081295,293.009045
32,11.300778,-4.233127,-2.661633,-10.223559,-15.766858,-28.539036,-39.704373,-50.907807,-38.147702,-29.746457,-22.155465,-18.478604,-37.793908,-26.649765,-17.50969,-10.482388,-34.200978,-26.378815,-17.497376,-11.347367,-28.068215,-33.921341,-36.283562,-37.655491,3.130832,12.23519,22.15921,30.645927,17.878572,30.976205,35.233488,37.988236,22.410237,33.347507,37.238426,38.028757,24.212102,33.898,37.19604,38.741962,24.634327,34.042817,39.270804,43.958933,26.702774,50.131886,69.421543,84.156475,51.629643,82.928661,96.727055,104.941074,41.602821,75.538158,91.279072,100.525326,30.642471,61.268589,76.457874,85.733975,19.919163,42.959118,54.735523,63.029572,-15.252376,-13.57258,-4.218714,3.575547,13.482919,33.660471,41.414396,46.120358,29.996943,51.507822,59.278259,63.390726,41.944091,63.343413,70.627701,73.961038,49.546938,68.537054,73.860718,74.812687,15.549677,305.844878,-69.964434,282.753237
33,11.088272,-4.479041,1.364456,-13.201534,-22.367901,-39.68684,-53.409645,-65.561554,-46.355038,-48.962403,-47.59932,-47.332112,-42.317459,-43.706646,-41.237183,-39.424473,-35.360779,-37.275238,-34.71547,-32.969605,-26.116654,-34.251274,-38.011734,-41.093514,5.768995,16.562028,26.934764,35.176641,19.528098,30.141438,34.902135,38.818643,22.398677,31.898953,36.99561,39.654768,23.643528,33.266984,38.418352,41.63172,23.95028,34.086993,40.185686,45.58697,23.530998,46.403309,64.712288,78.021504,52.45063,77.893124,86.454678,90.301014,45.645024,73.298344,80.865383,83.387776,36.676998,61.461983,68.332672,70.611386,26.74688,45.84985,52.67244,55.714817,-12.56054,-10.234859,-1.077927,7.510616,13.579027,35.247691,45.372017,51.737175,29.642026,54.706839,64.843453,70.254716,42.083437,66.749676,76.341479,80.959854,50.61853,72.124284,79.360296,82.127184,26.392336,301.41877,-68.845591,269.604636
34,8.962097,-5.006687,-6.715244,-25.87278,-22.425007,-40.046173,-53.65321,-64.067757,-45.680431,-58.307247,-64.836559,-70.073914,-41.633206,-54.890442,-61.368599,-66.376888,-34.934876,-47.450993,-53.305744,-57.745571,-26.15799,-39.432896,-47.511543,-54.214245,-0.144817,8.07583,17.252942,24.634549,12.455577,21.745371,26.532349,30.194235,19.883658,29.220505,33.578047,36.438128,25.770843,35.91609,40.36522,43.269885,30.410695,41.201345,47.774417,53.561628,26.100231,50.748505,68.818691,79.847122,57.634918,83.378128,88.756485,88.709907,49.96534,77.795231,81.823608,80.189232,39.866627,65.006756,68.326321,66.661983,28.70438,48.289272,52.710434,52.390869,-11.238266,-7.410865,2.887301,13.264248,10.745844,34.182101,45.658872,51.651305,26.163822,54.550042,65.85942,70.772777,39.30452,66.770659,76.690578,80.57663,49.330342,71.656376,78.359556,80.308115,35.011173,296.529754,-75.904095,243.849527
35,19.538956,-14.035288,-8.566258,-32.939473,-26.779725,-49.905213,-68.037014,-80.192345,-58.184658,-86.19801,-97.948506,-104.02462,-52.225777,-81.774674,-94.077919,-100.772965,-43.759301,-69.737297,-80.44907,-86.540223,-33.512581,-52.563446,-60.564663,-65.578686,-4.73759,0.324696,7.502626,14.69067,11.080395,20.197609,23.144894,24.795125,21.553524,31.305606,32.97598,33.617579,29.68409,40.364874,42.163527,42.931912,35.471944,47.504073,51.848487,54.510707,26.468079,52.813248,71.267819,81.653824,59.816975,86.447468,89.784817,86.41317,51.832112,80.027424,81.623726,76.454751,40.95226,66.166901,67.47559,63.454251,29.080376,48.23734,51.269681,49.183697,-11.469089,-7.931488,1.499911,11.720784,6.014293,27.85387,39.768142,45.422664,20.864773,49.424437,60.740212,65.051243,34.536697,62.903873,72.876947,76.27007,45.773567,68.417789,74.554817,75.883908,53.911652,282.840386,-85.10883,211.255974
36,9.374496,-11.995746,-11.175682,-37.46952,-22.57576,-43.110146,-60.25494,-70.908165,-59.704113,-95.977524,-106.182014,-109.042351,-57.096107,-95.207989,-104.702602,-107.368,-50.523788,-83.570744,-91.41671,-93.714809,-41.552879,-65.357334,-71.117718,-72.38427,-10.81409,-10.785092,-7.64049,-3.4177,1.380085,9.565089,12.911035,15.545123,15.498427,24.535847,25.622889,26.748735,26.716859,36.648277,37.194793,38.293728,34.778388,45.504286,47.332568,48.442136,27.261967,54.825623,73.792111,83.531525,60.993702,89.094498,91.419136,85.907811,53.446713,82.849995,82.974747,75.292546,43.373463,70.152695,70.37146,64.515965,32.639615,54.581166,58.017563,55.90828,-12.981703,-11.443852,-3.063704,7.994035,-2.474024,16.935791,28.834299,34.135134,11.869405,38.719342,49.646862,53.236599,26.528452,53.288148,62.853744,65.574325,40.117674,61.223175,66.606514,67.518592,62.628633,271.470598,-96.942027,174.412412
37,6.803055,-18.854723,-7.574638,-42.957946,-18.44941,-36.870918,-52.612599,-61.920021,-57.685295,-96.857861,-104.824848,-104.172558,-58.094147,-100.237187,-107.69767,-106.355427,-53.685997,-90.414036,-96.722809,-96.259243,-46.009049,-72.591053,-77.577438,-76.923168,-21.726623,-29.946677,-32.119229,-31.068904,-11.368028,-7.366725,-5.012404,-3.11101,8.36092,14.585361,14.593932,14.876786,24.695855,33.139026,32.832262,32.996345,37.187568,48.849627,50.201875,50.091873,24.368305,50.730858,69.204094,79.94537,53.490063,79.871315,84.404285,81.922039,46.440846,73.104366,76.042477,72.343334,37.506271,61.937874,64.647995,62.271561,28.543682,48.603699,53.400055,54.0275,-13.555883,-13.424614,-5.038229,6.323921,-13.596564,0.408534,13.424681,20.859511,-0.243229,21.011714,33.891151,40.074739,15.181586,37.977009,49.350589,53.969144,30.700866,49.071144,55.846461,58.060917,68.358112,253.775649,-105.590241,132.61424
38,7.665367,-20.868811,-14.750072,-46.197744,-20.278862,-39.955467,-56.739624,-67.108017,-59.907234,-100.235916,-106.138515,-103.192738,-58.736069,-100.94838,-107.204063,-103.546841,-52.11026,-88.436554,-93.750984,-92.107601,-41.905014,-65.391735,-68.206467,-65.554676,-19.115939,-28.5351,-33.232923,-34.586615,-13.216996,-10.670767,-11.511363,-12.085716,0.782526,1.378035,-3.555947,-6.57569,12.307648,12.780421,6.870005,3.296027,21.024361,25.320732,21.702899,18.280555,29.045265,56.771827,76.475257,88.319057,52.771133,83.82938,92.991554,93.675281,41.87107,73.484184,83.201408,84.554626,30.645572,59.70758,69.385448,72.40464,20.887092,44.569278,53.762111,58.282676,-16.155266,-17.761845,-10.40692,-0.54867,-25.617603,-16.710396,-5.019623,2.186329,-13.888377,2.952096,15.289267,21.754689,1.574018,21.772745,32.861192,37.783139,18.313691,33.908263,40.193869,41.981586,74.428122,233.992519,-121.93567,87.502177
39,6.371246,-26.276406,-6.188313,-39.12674,-12.42192,-27.509514,-41.315277,-49.021728,-54.074409,-91.715549,-95.528434,-90.512169,-57.721618,-98.787529,-102.943039,-96.50687,-55.169243,-91.60857,-95.706722,-92.356887,-48.063949,-73.512829,-76.798748,-73.803634,-22.061532,-37.214484,-47.240133,-52.910074,-23.905122,-28.12094,-31.437363,-33.162305,-10.660529,-17.193994,-25.271813,-29.805207,1.17905,-4.053013,-12.840843,-18.380905,10.928514,12.817274,7.882082,3.222433,28.820641,55.952042,76.002182,89.191956,48.527973,77.333874,88.763786,92.25832,37.031662,66.805939,78.344982,81.85667,26.032963,53.731178,64.352039,68.715179,16.964264,39.923069,50.332237,56.349426,-15.401189,-20.131721,-16.134432,-9.524408,-35.268662,-31.508321,-20.530055,-12.053996,-25.920248,-13.169832,0.312482,9.275758,-11.244398,7.194028,19.988164,27.070411,5.898078,20.557805,28.547975,32.367676,78.466839,209.344758,-130.456512,50.004082
40,0.912552,-19.929735,-3.438961,-35.439068,-4.703636,-13.056221,-21.166672,-23.889038,-42.381134,-70.891399,-73.560562,-70.551018,-50.075111,-83.085411,-87.684677,-84.880829,-51.241951,-81.972347,-88.036342,-88.58266,-47.52388,-71.099384,-76.964206,-78.198784,-21.787744,-40.10018,-53.871498,-64.01086,-35.642171,-47.761505,-54.927609,-59.711376,-26.352445,-41.091707,-51.86879,-58.694736,-16.090811,-28.027524,-38.751539,-46.460102,-5.77945,-8.058132,-12.961986,-17.662242,29.982937,56.098858,75.978355,88.83839,45.822704,71.918003,84.818127,90.552315,33.119408,61.686962,73.202168,76.709793,22.221931,49.533531,58.905876,61.974461,13.502712,37.186615,47.191853,52.210361,-13.622907,-20.350694,-18.198729,-12.830322,-43.676455,-42.690499,-31.729319,-22.248791,-36.646789,-24.17641,-8.611404,2.142931,-22.871025,-4.686794,9.794319,18.114033,-5.798882,8.262125,17.753015,22.999688,76.429767,191.345403,-136.845097,16.495394
41,0.506539,-19.972269,0.457535,-33.032006,2.605659,-0.826996,-3.940133,-2.556771,-29.958481,-49.327584,-52.608776,-52.36702,-40.163018,-65.753518,-73.270295,-75.532265,-44.553452,-70.267388,-80.585907,-86.837265,-43.965615,-65.11615,-74.860325,-81.92759,-21.193631,-41.971144,-58.666856,-71.890676,-44.163463,-62.075164,-72.994366,-81.438537,-38.726691,-59.847481,-73.64792,-83.459412,-30.468876,-47.839903,-59.967511,-69.831405,-20.013951,-25.59935,-30.208425,-34.959607,29.949486,55.164734,74.719551,87.873092,44.296932,67.789764,81.480938,88.721855,30.298839,57.076103,66.825199,69.006683,18.33435,44.464348,51.237533,52.456718,8.438347,31.296123,39.499763,42.724479,-10.346615,-17.1632,-16.212262,-13.052734,-48.083916,-47.490192,-35.997983,-25.46779,-43.417196,-28.96839,-11.674193,-0.417606,-30.964349,-10.752222,4.769948,12.999573,-14.936239,0.256277,10.638707,16.080944,73.501128,173.510961,-139.82274,-14.398785
42,1.512313,-16.24084,-0.345783,-24.929889,6.776001,7.144135,7.590294,12.149323,-21.996963,-34.045486,-37.242645,-38.520561,-33.797355,-52.624763,-61.367134,-66.949424,-40.457382,-61.844123,-74.25856,-83.780571,-42.563621,-62.396484,-74.851123,-85.878204,-19.444662,-40.649259,-58.74079,-73.906808,-48.461631,-69.034935,-83.752121,-95.818979,-46.653215,-71.426486,-89.027953,-102.391322,-40.747078,-61.739964,-76.643729,-88.931381,-30.892675,-40.271624,-46.470044,-52.010748,32.103298,57.547451,77.476879,92.086521,46.850063,70.023799,84.212894,92.373447,31.728813,59.221824,64.358436,63.046451,18.236824,45.068355,47.955963,46.146961,6.66711,29.64426,35.568821,36.228881,-8.440126,-16.105569,-16.373794,-14.713758,-52.496804,-49.732583,-37.968796,-26.473692,-50.06129,-30.359485,-12.809869,-3.048926,-38.721867,-15.062228,0.386391,7.110956,-23.436405,-6.91536,3.885448,8.724105,71.826753,159.680091,-143.355211,-36.918704
43,-0.643318,-13.944664,3.444397,-20.451254,17.350685,24.407936,30.146691,40.262947,-10.412246,-15.996368,-18.395141,-20.142471,-28.68338,-43.396614,-51.549545,-58.283363,-42.168754,-62.739395,-75.742721,-86.177192,-50.993065,-75.383194,-91.075458,-104.979606,-25.667225,-51.786007,-72.759133,-88.992044,-61.278731,-88.006835,-104.82632,-118.926341,-55.409385,-83.175075,-101.982207,-117.24894,-45.247546,-65.716511,-80.056587,-92.554395,-30.84186,-38.043768,-42.285515,-46.912146,33.301277,58.062583,77.234699,91.590797,48.495071,71.006114,85.976005,95.640312,33.157905,59.915359,61.981006,58.960063,18.773952,45.109828,45.455005,42.034835,6.036369,28.334404,32.917568,32.388427,-6.702433,-13.830333,-14.141962,-12.856942,-53.380589,-45.973355,-34.071167,-22.508452,-52.295013,-28.456887,-11.611251,-3.44634,-41.989255,-16.865298,-2.326336,3.108157,-27.560321,-11.11907,-0.908244,3.299386,68.349123,148.261609,-142.745126,-54.843776
44,-0.477356,-8.005385,3.993358,-16.202228,17.655487,25.57029,32.463661,44.205162,-8.451301,-11.34732,-12.505485,-14.137413,-26.471283,-38.269729,-45.963615,-53.663475,-40.132576,-58.947189,-71.952209,-83.26062,-49.549621,-72.959587,-89.10942,-104.495372,-25.674821,-52.184316,-73.719723,-89.390211,-62.968395,-90.264912,-109.506933,-126.400055,-58.485556,-87.735911,-108.883933,-127.150335,-49.56474,-71.701237,-87.650758,-101.796523,-35.843051,-45.632529,-51.253867,-56.994957,33.559696,57.613014,76.638966,91.652367,50.338314,72.894505,88.440296,98.952324,35.534981,61.802307,60.791725,56.192322,20.818062,46.696781,45.364815,41.013657,7.509304,29.301121,33.083233,31.973522,-6.390519,-12.180985,-10.881781,-8.396734,-52.107325,-39.67488,-26.82018,-14.416547,-51.301251,-23.173645,-8.212391,-2.610616,-41.323761,-14.774897,-1.926897,1.742875,-27.616896,-10.727541,-1.091846,2.285821,65.780548,142.376758,-140.842987,-68.92547
45,-2.709503,-7.83914,4.985218,-12.555977,18.46621,27.296929,35.320313,47.66684,-6.269256,-8.426857,-9.166031,-10.416984,-24.425056,-35.643631,-42.745308,-49.661453,-38.402481,-57.468384,-70.15979,-81.097664,-48.066101,-71.50827,-87.545357,-102.886139,-24.678806,-51.421934,-73.374057,-88.02717,-63.110527,-91.559707,-111.336296,-128.262893,-58.779063,-89.681643,-111.88086,-130.493305,-50.142928,-73.681543,-90.22052,-104.188716,-36.761929,-48.175782,-54.665337,-60.887716,34.541039,58.355187,77.233566,93.104691,54.182133,76.247051,91.655995,102.579094,39.753067,64.222023,60.426762,55.419388,24.144985,48.409332,45.490048,41.118118,9.670292,30.235142,33.343655,32.402127,-4.840942,-8.319515,-4.853391,-0.650386,-48.152925,-29.267744,-14.889963,-1.128106,-47.990231,-15.983983,-3.155199,0.084574,-38.48658,-9.81038,0.916259,2.593203,-25.320917,-7.421498,1.44346,3.775643,61.845137,136.219937,-137.083677,-79.799128
46,-3.750297,-5.086314,4.695797,-7.449007,19.137382,28.427764,37.263908,50.208755,-4.722954,-6.320092,-6.867623,-7.783997,-23.382477,-33.787972,-40.473702,-46.580841,-37.743554,-56.738572,-69.045067,-79.32708,-47.603783,-71.251877,-87.0653,-101.984196,-23.459074,-50.381679,-72.746783,-86.218414,-62.897716,-92.531319,-112.445271,-129.23635,-59.04943,-91.31323,-114.053684,-132.704673,-50.616393,-75.199627,-92.429431,-106.351691,-37.367385,-49.544264,-56.715327,-63.49751,35.874424,59.665215,78.44355,94.586563,58.395973,79.346512,94.585522,105.377495,44.219547,67.079533,62.597798,58.241627,27.804108,50.541973,47.555466,43.782383,12.274773,31.866955,35.473995,35.478848,-3.579962,-5.333069,-0.131313,6.21077,-43.716544,-21.234084,-5.5308,9.871013,-43.960588,-9.679032,1.949942,4.690759,-34.828492,-5.228272,4.319626,5.576593,-22.034455,-3.791476,4.730347,7.059912,57.0754,132.137301,-133.40732,-86.244457
47,-3.751969,-2.330053,8.451073,-6.050553,19.432732,28.754814,38.091912,51.371315,-4.094787,-4.943229,-5.137253,-5.721016,-22.797821,-32.522918,-38.689567,-44.176552,-37.272262,-56.251991,-68.451095,-78.528271,-47.103447,-71.049293,-86.646286,-101.205105,-22.70265,-49.631912,-72.048003,-84.501592,-63.163885,-93.694832,-113.380771,-129.72295,-59.627427,-93.116305,-115.836073,-134.179403,-51.154961,-76.567331,-94.135805,-108.138087,-37.883989,-50.505977,-57.998537,-65.331195,35.774351,59.288498,78.040827,93.35717,60.054388,80.003666,94.501442,104.037918,45.696676,65.969026,63.281937,60.460516,28.748543,49.028194,46.397438,43.211002,12.796263,30.477167,34.215099,34.798593,-2.582288,-3.147708,2.484565,9.043638,-37.943244,-16.288378,-0.429721,14.663867,-37.789475,-1.894438,10.748966,15.011343,-28.566741,2.332412,11.163203,12.576506,-16.308994,3.526736,10.718912,12.580693,52.333088,129.885622,-125.94659,-92.216636
48,-3.42572,-0.677359,10.861507,-5.225789,19.765778,29.250549,39.053764,52.107697,-3.492302,-3.996437,-3.97744,-4.221771,-22.389336,-32.029106,-37.861107,-42.806946,-37.044205,-56.300583,-68.498268,-78.419128,-46.785782,-71.124458,-86.7048,-101.10957,-21.973785,-48.678831,-71.137469,-83.205846,-62.496665,-93.700865,-113.355367,-129.468995,-59.189412,-93.433023,-116.168926,-134.228371,-50.738035,-76.848437,-94.902701,-109.183867,-37.615022,-50.493299,-58.299891,-66.093016,34.774172,58.544918,77.878516,93.005116,60.405768,79.428612,93.083908,101.285259,45.754492,62.488112,61.448765,60.002352,28.410244,45.200798,41.72834,38.448292,12.423701,27.096766,29.615834,29.560175,-2.187783,-2.559079,2.903585,8.926973,-31.15132,-14.059108,-0.027868,13.316189,-30.36137,8.863509,23.444677,29.632099,-20.688012,12.981715,20.662577,21.451991,-9.031584,13.878038,18.938713,19.123038,47.858505,129.04008,-116.133946,-97.610608
49,-2.942665,1.210315,9.176113,-2.116847,19.943275,29.37719,39.422882,52.353264,-3.26857,-3.513542,-3.351471,-3.339317,-22.375145,-31.925583,-37.646668,-42.30613,-37.175743,-56.773522,-69.207001,-79.145851,-46.891022,-71.44828,-87.045364,-101.295685,-21.713131,-48.347609,-71.102661,-83.175521,-62.497049,-94.408878,-114.070351,-130.016475,-59.433994,-94.407105,-117.321868,-135.366475,-51.075545,-77.666816,-96.111794,-110.662994,-38.094688,-51.202954,-59.283391,-67.43736,32.434863,55.817505,74.192591,88.163098,59.576861,78.185818,92.089348,100.762024,45.07683,59.941195,60.704659,60.466902,27.806397,41.807808,37.62196,34.275536,11.686095,23.86714,25.2197,24.663832,0.147278,2.35805,9.195865,15.775686,-22.793309,-9.424302,2.09077,12.983101,-22.692438,16.683599,33.449003,42.10638,-13.958455,21.100326,28.975319,29.797053,-3.364891,21.715252,26.585556,26.439553,43.593996,129.691001,-108.279677,-100.286849
50,-2.399849,1.814344,6.51051,-1.620776,19.909492,29.219833,39.260239,52.115158,-3.237396,-3.397522,-3.17569,-3.000137,-22.419823,-31.993813,-37.717644,-42.196175,-37.338776,-57.012108,-69.681679,-79.663353,-47.104431,-71.780708,-87.498093,-101.739201,-21.835557,-48.395471,-71.149374,-83.065716,-62.44201,-94.628023,-114.321039,-130.192259,-59.546453,-94.781942,-117.889947,-135.986597,-51.337564,-78.200327,-97.043477,-111.943938,-38.523581,-51.785625,-60.128328,-68.495774,31.409643,54.877956,72.097601,84.442451,59.333776,76.150269,88.357086,95.482441,44.370008,57.046182,58.743587,59.091082,26.688892,38.72002,35.183327,32.251453,10.144163,20.998907,22.582832,22.486845,2.478825,7.826668,16.786603,24.958041,-15.162647,-0.931242,11.459568,22.678367,-15.95038,24.132509,41.605233,51.20171,-8.383977,28.285227,36.57706,37.770964,1.571857,28.631947,33.983348,34.535391,39.661966,130.836847,-103.301348,-102.576123
51,-2.213265,1.723596,9.36351,-3.281254,19.927346,29.270096,39.197937,51.87101,-3.330001,-3.376876,-2.994003,-2.612274,-22.501327,-32.134826,-37.933502,-42.398551,-37.425384,-57.004257,-69.708629,-79.670459,-47.209922,-71.809101,-87.56298,-101.769126,-21.816272,-48.245714,-71.015184,-83.158662,-61.889888,-94.150334,-113.987024,-129.990403,-59.069617,-94.339884,-117.565405,-135.833795,-51.018839,-78.04127,-97.12019,-112.317553,-38.402402,-51.959538,-60.588399,-69.166352,31.487787,55.031124,69.953173,79.254814,58.261248,72.358757,82.763382,88.735142,41.590117,50.698004,53.295258,54.400091,22.631066,31.483475,29.029904,27.126175,5.02675,13.489664,15.610249,16.210806,3.351023,10.117819,20.308265,29.107101,-15.236438,-1.538459,10.856865,21.433875,-17.047655,22.385807,40.877939,51.248159,-10.132549,27.40715,36.753673,38.610813,-0.099158,27.74404,34.067671,35.485641,36.331197,132.093968,-95.055342,-106.323852
52,-2.06781,2.33277,10.723698,-4.258446,19.953415,29.333542,39.190178,52.042969,-3.083587,-3.084846,-2.786407,-2.363456,-22.271392,-31.781684,-37.537353,-41.896476,-37.265487,-56.642234,-69.358875,-79.225158,-47.139404,-71.636318,-87.375709,-101.504596,-21.980102,-48.545,-71.373121,-83.568142,-61.798318,-94.128246,-114.120344,-130.319947,-59.030448,-94.217717,-117.466407,-135.794022,-51.16946,-78.323803,-97.607339,-113.123575,-38.76605,-52.510266,-61.288556,-69.963427,32.515251,55.953048,66.992614,71.584854,57.033806,66.792228,75.243232,80.329147,37.560402,42.210193,45.617328,47.604812,16.387665,21.473865,21.170723,21.064979,-3.252114,2.483116,6.142925,8.335533,3.699171,10.777642,22.163732,32.191129,-22.890054,-9.59967,3.801868,14.941126,-26.307899,9.306926,29.022042,40.023316,-19.948502,16.113699,27.929983,31.2896,-9.177609,17.045611,25.840037,29.008318,33.450725,133.851005,-85.144306,-111.158031
53,-1.86232,2.099162,12.083885,-5.235639,20.061493,29.594101,39.456734,52.259766,-2.689086,-2.471443,-2.157348,-1.666168,-21.81015,-31.10305,-36.694953,-40.842178,-36.86293,-56.042747,-68.655395,-78.349468,-46.886306,-71.204292,-86.879676,-100.889053,-21.923156,-48.363806,-71.076885,-83.212793,-61.872882,-94.119873,-114.073172,-130.172252,-59.213032,-94.260324,-117.439255,-135.662611,-51.431245,-78.57052,-97.961496,-113.659321,-39.023895,-52.919572,-61.821301,-70.640693,34.492035,57.64373,63.215927,61.432571,55.651451,59.450683,65.796638,70.264458,32.280865,31.582752,35.709801,38.705246,7.958691,8.691192,11.605785,14.067867,-14.692429,-12.020737,-5.819138,-1.138973,3.523269,9.806139,22.353007,34.210124,-38.123494,-25.114874,-9.705423,3.200123,-43.73111,-15.104132,6.037542,17.527182,-37.831834,-5.595124,10.105993,15.807328,-25.663496,-3.463339,9.300446,15.103423,30.970298,135.185786,-73.678528,-117.158051
54,-1.554176,2.497329,10.446041,-4.946059,20.122765,29.712319,39.657669,52.670197,-2.315872,-1.808029,-1.558754,-1.138138,-21.360329,-30.250511,-35.567116,-39.44799,-36.452522,-55.334564,-67.744366,-77.225784,-46.615356,-70.769222,-86.300491,-100.136444,-21.733231,-48.081693,-70.636655,-82.649734,-62.011919,-94.075876,-113.924694,-129.984019,-59.519574,-94.457401,-117.488372,-135.570887,-51.885525,-79.145349,-98.632248,-114.534652,-39.487135,-53.464199,-62.471682,-71.414549,33.941471,56.956799,60.389591,55.526996,50.182057,50.502056,53.317509,54.441273,25.966747,22.644138,25.590877,27.702656,1.011429,0.217609,4.146378,6.929089,-22.798977,-21.436741,-14.759857,-9.928928,-0.578521,-0.889645,5.365104,14.494489,-54.450628,-46.577459,-27.917216,-12.442437,-61.28981,-44.370972,-22.132336,-9.935364,-57.071362,-36.440737,-18.096141,-9.245482,-46.138377,-32.85142,-19.384378,-11.835103,29.083803,136.959567,-63.564806,-122.827658
55,-1.540054,2.563846,0.065826,-18.706889,20.224319,29.906135,40.042442,53.110588,-1.811394,-1.000374,-0.779205,-0.296768,-20.843033,-29.171013,-34.168808,-37.701805,-36.058479,-54.557968,-66.690033,-75.8214,-46.413208,-70.438992,-85.806141,-99.358383,-21.380203,-47.470018,-69.968212,-81.93769,-61.469318,-93.845843,-113.682546,-129.676711,-59.19639,-94.624942,-117.836959,-135.963107,-51.780598,-79.605037,-99.483353,-115.671286,-39.547977,-53.953959,-63.130342,-72.135318,34.776032,57.933518,61.983433,57.0462,47.885342,49.550091,52.989109,54.740216,23.825753,23.259373,27.288231,29.80584,-0.75991,0.191872,4.761429,7.806313,-24.39909,-21.952148,-14.39574,-9.135074,-5.792631,-12.786031,-12.444505,-8.078921,-68.668885,-70.515681,-54.24291,-39.776346,-75.254894,-66.379915,-42.956817,-28.802538,-71.29866,-57.195791,-36.61851,-24.696905,-61.077809,-53.409168,-38.695303,-29.29769,27.488634,138.792844,-63.554095,-142.265116
56,-1.601097,3.001601,-3.858398,-17.018793,20.226333,29.952759,40.268234,53.682266,-1.263428,-0.194641,-0.006409,0.580169,-20.272522,-28.010788,-32.529763,-35.559243,-35.597328,-53.8583,-65.81012,-74.703163,-46.10289,-70.064266,-85.313061,-98.680607,-21.19581,-47.132836,-69.555967,-81.300975,-61.554706,-94.221131,-113.957878,-129.848976,-59.45899,-95.208489,-118.475557,-136.551205,-52.204897,-80.378918,-100.544188,-116.960264,-40.065785,-54.75774,-64.086924,-73.223101,34.176151,56.632153,61.673939,59.389866,44.728878,49.612362,54.51247,57.291378,22.375382,26.147087,30.38044,32.55011,-0.394817,4.230938,8.645752,11.131756,-22.536617,-17.046642,-9.096558,-4.096371,-10.607023,-23.092611,-28.226686,-28.457999,-77.394517,-85.479269,-70.977669,-56.939014,-83.672503,-80.336746,-56.705331,-41.252533,-80.481159,-71.425876,-49.648004,-35.617014,-71.414209,-67.804038,-52.613361,-41.787066,25.743239,141.004537,-67.556791,-160.073817
57,-1.738381,2.452776,-7.862297,-15.696465,20.231575,30.108055,40.655846,54.133255,-0.81443,0.491272,0.780487,1.519821,-19.847122,-27.127327,-31.373451,-34.10495,-35.291038,-53.221298,-64.941181,-73.609222,-45.945213,-69.720268,-84.849563,-98.026245,-20.736406,-46.24857,-68.562742,-80.287855,-60.995069,-93.991148,-113.75275,-129.59714,-59.183182,-95.421547,-118.907316,-137.086786,-52.162092,-80.77133,-101.270386,-117.891935,-40.232654,-55.362703,-64.952733,-74.253389,32.33361,54.19939,61.821155,64.017002,41.291668,51.204437,58.134441,61.924015,21.925838,32.423126,35.908676,36.500049,2.160255,12.548916,15.931812,16.837715,-17.4119,-7.326737,0.455143,4.503021,-13.936067,-30.447263,-40.288969,-44.702285,-79.681689,-91.876037,-78.550122,-64.291481,-85.192808,-84.829806,-61.853101,-45.716519,-82.889764,-77.426249,-55.668765,-40.452361,-75.369818,-74.58377,-59.76148,-47.925853,23.629829,142.875241,-75.794117,-176.352354
58,-1.778343,2.313244,-12.370972,-13.777452,20.141007,30.089562,40.861015,54.515419,-0.497818,0.80365,1.053955,1.824944,-19.576057,-26.405479,-30.43586,-32.971229,-35.164513,-52.835747,-64.471939,-73.069164,-45.969269,-69.685352,-84.7504,-97.812206,-20.38667,-45.577874,-67.860084,-79.64867,-60.276917,-93.754878,-113.580904,-129.418841,-58.689969,-95.506991,-119.231548,-137.543689,-51.928422,-81.006524,-101.805971,-118.639201,-40.328502,-55.932936,-65.72402,-75.124415,29.78841,51.196553,62.66605,70.548695,38.657971,54.939263,63.574757,67.834179,23.442696,42.457478,44.394127,42.744324,7.573677,25.320385,26.664162,25.267834,-8.734566,7.205944,14.300629,17.057064,-16.058275,-34.926394,-48.765554,-57.191093,-75.598193,-89.481492,-76.435223,-61.498605,-80.159801,-80.631341,-59.318241,-43.221293,-79.164627,-75.857343,-55.096305,-39.384444,-73.742876,-74.418901,-60.545303,-47.987749,21.474804,144.787444,-88.541771,-190.530847
59,-1.773628,1.925465,-10.114563,-15.213826,20.101799,30.141426,41.141235,54.848053,-0.290154,1.108383,1.439346,2.355331,-19.366104,-25.934464,-29.798103,-32.170326,-35.037644,-52.498421,-64.066361,-72.608231,-45.897171,-69.587311,-84.635399,-97.615002,-20.305271,-45.184691,-67.347105,-79.135654,-59.723202,-93.680513,-113.64833,-129.463765,-58.261601,-95.572323,-119.561605,-137.92204,-51.672196,-81.130446,-102.248222,-119.247184,-40.33377,-56.366863,-66.348996,-75.821398,31.062012,52.405895,65.468113,76.671765,40.056782,59.997311,71.074871,77.161389,25.594151,48.759384,51.023461,49.285446,10.783722,32.311489,33.885727,32.545727,-3.967975,15.398506,23.798001,27.276203,-16.204583,-34.309291,-46.880066,-56.408631,-73.215597,-85.093245,-73.228027,-58.051875,-76.573201,-70.370325,-50.123042,-34.31881,-74.295099,-64.4051,-44.225268,-28.973262,-67.667719,-64.710402,-50.3339,-37.20851,19.326067,146.39277,-99.031443,-206.064812
60,-1.717003,1.594148,0.908306,-1.274352,20.123772,30.374245,41.561188,55.304466,-0.142342,1.382149,1.85804,2.945778,-19.201927,-25.553307,-29.253044,-31.518654,-34.880035,-51.979683,-63.372906,-71.797749,-45.746956,-69.284237,-84.305374,-97.239258,-20.330594,-45.011765,-67.070759,-78.944413,-59.642889,-93.863905,-113.929522,-129.785108,-58.341579,-95.786807,-119.75894,-138.044738,-51.936215,-81.571454,-102.825588,-119.9239,-40.799016,-56.994031,-67.068913,-76.565429,29.451954,49.957398,62.132058,73.958016,37.069897,57.745446,69.581589,75.984192,23.000691,46.164757,48.037262,45.811123,8.884243,30.860916,32.508019,31.041275,-5.016872,14.631523,23.320198,26.761025,-15.625781,-33.826657,-46.373831,-56.273157,-73.049083,-83.463728,-71.271822,-55.674446,-76.296915,-68.612028,-48.001931,-32.050644,-73.732746,-63.419852,-43.358707,-28.496867,-66.6038,-63.642885,-49.94537,-37.156637,17.133883,147.717612,-98.598318,-207.60847
61,-1.18499,0.949215,-0.002437,-0.750731,20.116768,30.444145,41.711495,55.347588,-0.048889,1.444382,1.928902,3.004578,-19.132278,-25.322845,-29.028831,-31.360542,-34.879486,-51.694817,-63.025909,-71.410915,-45.85833,-69.342018,-84.407982,-97.345631,-20.169277,-44.740736,-66.772863,-78.779094,-59.30596,-93.667106,-113.896498,-129.861246,-58.158458,-95.790283,-119.892729,-138.270911,-51.908693,-81.760429,-103.148746,-120.385911,-40.951521,-57.373339,-67.456625,-76.909496,28.560997,49.157856,61.555904,72.821857,35.336025,56.503395,68.33543,74.517139,21.243576,44.682461,46.214905,43.597137,7.325363,29.471386,31.118763,29.615284,-6.218296,13.227916,22.202579,25.90979,-14.445601,-32.331021,-44.545954,-54.629728,-72.436952,-82.351905,-69.656261,-53.890367,-75.417509,-66.723509,-45.863105,-29.981764,-72.407289,-61.804095,-41.958157,-27.297387,-64.849313,-62.208223,-49.038608,-36.404526,15.511591,148.443195,-99.038057,-208.582833
62,-0.859039,0.43481,-0.821972,-0.132294,20.126861,30.52549,41.823395,55.348846,-0.025727,1.442436,1.985389,3.153854,-19.069542,-25.092865,-28.759621,-31.109619,-34.830689,-51.47992,-62.836727,-71.275337,-45.909828,-69.414585,-84.559124,-97.574078,-20.101748,-44.524659,-66.47677,-78.532402,-58.93946,-93.426781,-113.819897,-129.905028,-57.846212,-95.561647,-119.792416,-138.297149,-51.695865,-81.57306,-103.000355,-120.343433,-40.874031,-57.35143,-67.329198,-76.715514,28.258118,48.968502,61.312981,71.844108,34.722942,56.01107,67.368461,73.127472,20.466122,43.726375,45.225963,42.745354,6.470341,28.394714,30.114075,28.809482,-7.062721,12.056934,21.269554,25.366367,-13.5521,-31.195224,-43.178349,-53.393868,-71.971777,-81.278984,-68.107828,-52.383057,-74.89745,-66.010182,-44.957576,-29.16245,-71.664368,-61.13598,-41.177271,-26.508103,-63.782978,-61.488479,-48.526283,-35.95439,14.358702,148.706098,-100.153879,-208.887034
63,-0.611847,0.229859,-1.07254,0.225253,20.233017,30.697082,41.971252,55.45729,-0.047974,1.616066,2.254509,3.504776,-19.046608,-24.913353,-28.511925,-30.822144,-34.765915,-51.105034,-62.350491,-70.7066,-45.899735,-69.33308,-84.544945,-97.586048,-20.027838,-44.387171,-66.2869,-78.393296,-58.531548,-93.066818,-113.698285,-130.102918,-57.548636,-95.240192,-119.574096,-138.250095,-51.599626,-81.476488,-102.979383,-120.501489,-40.98825,-57.385281,-67.313679,-76.689454,27.884502,48.632835,60.997387,71.391151,34.071521,55.395618,66.758972,72.496513,19.695648,42.746978,44.336025,41.945263,5.684269,27.300956,29.288074,28.117492,-7.795567,11.102954,20.384353,24.523613,-12.712881,-30.318337,-42.151022,-52.237594,-71.522013,-80.625381,-67.32859,-51.685195,-74.36553,-65.872156,-44.71686,-29.081387,-70.943179,-60.910983,-40.928364,-26.409055,-62.849402,-60.969936,-48.122942,-35.725787,13.521567,148.91248,-101.451707,-208.685258
64,-0.347054,-0.205419,-1.067608,0.362926,20.395523,31.025803,42.179764,55.473931,0.075096,1.776306,2.42862,3.710747,-18.897995,-24.690674,-28.280822,-30.64595,-34.613754,-50.798584,-62.069458,-70.483326,-45.900146,-69.204197,-84.484634,-97.593658,-19.774056,-44.008857,-65.798497,-78.065692,-58.066394,-92.45678,-113.211056,-129.884853,-57.15171,-94.645387,-119.017707,-137.923237,-51.355304,-81.036757,-102.461946,-120.12186,-40.898681,-57.195775,-67.019303,-76.40058,27.61132,48.287784,60.634323,70.624866,33.461643,54.886173,66.139927,71.66518,18.917404,41.915554,43.668537,41.270645,4.896869,26.357242,28.651256,27.514572,-8.449219,10.373874,19.764484,23.855404,-12.230858,-29.78256,-41.479663,-51.524613,-71.049529,-80.219851,-66.728233,-51.026676,-73.783422,-65.648098,-44.449141,-29.033077,-70.213195,-60.73273,-40.76849,-26.466529,-61.996088,-60.542941,-47.807357,-35.616903,13.036068,148.754534,-102.65776,-208.274859
65,0.157265,-0.167059,-0.900891,0.581615,20.426422,31.103851,42.174934,55.298149,-0.055,1.548821,2.231735,3.547623,-19.004585,-24.712395,-28.196388,-30.485115,-34.724327,-50.906845,-62.296806,-70.807583,-46.031822,-69.369713,-84.71426,-97.838985,-19.667191,-43.81419,-65.542326,-77.809971,-57.374698,-91.779187,-112.663528,-129.48773,-56.492865,-94.067941,-118.649372,-137.767127,-50.805022,-80.407669,-101.878078,-119.661863,-40.564865,-56.900553,-66.729089,-76.163743,27.369484,48.018483,60.362606,70.072403,32.966595,54.535847,65.664986,71.025055,18.3494,41.328438,43.074269,40.656762,4.382779,25.765778,28.136387,26.99675,-8.864238,9.857529,19.236111,23.269913,-11.947214,-29.537655,-41.167722,-51.171772,-71.057928,-79.858541,-66.137208,-50.42062,-73.800896,-65.285836,-44.098038,-28.842167,-70.048789,-60.536243,-40.626214,-26.452651,-61.623892,-60.322202,-47.641379,-35.493757,13.101151,148.601462,-103.650833,-207.679257
66,0.19931,0.272369,-0.445964,0.399661,20.376664,31.09433,42.158341,55.232552,-0.149688,1.500252,2.213517,3.613655,-19.030014,-24.640526,-28.04647,-30.281021,-34.724258,-50.793091,-62.229469,-70.781707,-46.048576,-69.221431,-84.498699,-97.51926,-19.690336,-43.874428,-65.655317,-78.021232,-57.175627,-91.705173,-112.689315,-129.603513,-56.366332,-94.050546,-118.736484,-137.923312,-50.834168,-80.433061,-101.982955,-119.850906,-40.770895,-57.188168,-67.025343,-76.455439,27.090374,47.627368,59.782173,69.239971,32.770328,54.196552,65.154384,70.265293,18.070804,40.882919,42.806842,40.457473,4.067424,25.254238,27.798877,26.729621,-9.226902,9.321155,18.667499,22.619716,-11.695957,-29.394802,-41.004173,-50.868966,-70.716845,-79.536101,-65.673235,-49.734625,-73.391986,-65.019521,-43.776741,-28.362579,-69.551123,-60.404273,-40.41721,-26.19228,-61.051109,-60.041993,-47.341562,-35.211011,13.164035,148.858489,-104.233223,-207.294938
67,0.342545,0.21578,-0.267941,0.628415,20.282295,31.088791,42.092903,54.942192,-0.244583,1.408607,2.097175,3.507362,-19.116852,-24.776917,-28.227654,-30.391686,-34.78711,-50.738205,-62.10117,-70.476368,-46.094902,-69.110413,-84.280506,-97.126591,-19.640039,-43.812775,-65.633148,-78.157879,-57.096215,-91.678651,-112.640939,-129.52533,-56.321828,-94.07632,-118.77722,-137.856695,-50.830154,-80.574759,-102.270538,-120.151728,-40.763268,-57.296262,-67.205875,-76.612921,26.79673,47.182892,59.256386,68.813278,32.53252,53.679863,64.551613,69.548653,17.759525,40.331291,42.26231,39.897709,3.747597,24.721195,27.354458,26.329548,-9.59745,8.894508,18.278503,22.237839,-11.517282,-29.080869,-40.501141,-49.983581,-70.326798,-79.319438,-65.434796,-49.367525,-73.019646,-64.625333,-43.460668,-28.079311,-69.220373,-60.046931,-40.105534,-25.885495,-60.84667,-59.770578,-47.033658,-34.913152,13.339371,149.042489,-104.668373,-206.698303
68,0.433685,0.343839,-0.15374,0.41827,20.186119,30.985726,41.944702,54.628624,-0.420341,1.159699,1.833939,3.260651,-19.296158,-24.944023,-28.39769,-30.510155,-34.966736,-50.898651,-62.27013,-70.562656,-46.207764,-69.15786,-84.219589,-96.896553,-19.751153,-43.91241,-65.790248,-78.411297,-57.123435,-91.862463,-112.795328,-129.579615,-56.323601,-94.240435,-118.992105,-137.976671,-50.781081,-80.679087,-102.505808,-120.350812,-40.666209,-57.420726,-67.420526,-76.800673,26.602902,46.859413,58.8662,68.894028,32.643997,53.63475,64.458252,69.412308,17.730469,40.174542,42.090855,39.718334,3.637985,24.559536,27.151508,26.094544,-9.815002,8.698311,18.047413,21.963867,-11.461781,-28.827445,-40.044676,-49.226018,-69.995789,-78.780189,-64.906848,-48.711909,-72.789055,-64.056299,-42.937563,-27.385295,-69.009874,-59.474954,-39.55707,-25.264156,-60.714389,-59.367617,-46.644974,-34.514177,13.618017,149.327885,-104.977152,-206.338476
69,0.494705,0.55437,0.177029,0.160285,20.00148,30.653641,41.549721,54.219063,-0.716056,0.776871,1.449028,2.851891,-19.620666,-25.246009,-28.710891,-30.770279,-35.297767,-51.204368,-62.554149,-70.714439,-46.435569,-69.363727,-84.297889,-96.761581,-19.926018,-44.142627,-66.191575,-78.919367,-57.080104,-92.204647,-113.18036,-129.894115,-56.29559,-94.567081,-119.428211,-138.291579,-50.779506,-80.94575,-103.035996,-120.889226,-40.72502,-57.762731,-67.90702,-77.25176,26.295879,46.378155,58.395675,69.043384,32.616508,53.349346,64.366894,69.51765,17.579258,39.955593,42.067669,39.731872,3.395244,24.237396,27.020874,26.025707,-10.206139,8.184425,17.636799,21.602932,-11.232746,-28.494175,-39.54999,-48.4979,-69.498154,-78.137914,-64.570511,-48.392683,-72.369297,-63.667399,-42.53184,-26.731182,-68.589156,-58.978345,-39.056401,-24.726875,-60.325117,-58.881119,-46.257808,-34.19564,13.981413,149.788042,-104.931432,-206.272404
70,0.366394,0.604364,0.416588,0.238579,19.820389,30.298119,41.073441,53.715065,-0.815116,0.581429,1.116188,2.364441,-19.724372,-25.439506,-29.06195,-31.234497,-35.409095,-51.389236,-62.733993,-70.84481,-46.563331,-69.386982,-84.182819,-96.488296,-20.070168,-44.378582,-66.581826,-79.59864,-57.342686,-92.768496,-113.808763,-130.523569,-56.476031,-94.908975,-119.775706,-138.519302,-50.944121,-81.29062,-103.546981,-121.417896,-40.847706,-58.129263,-68.370118,-77.729301,25.847305,45.774593,57.827339,69.111591,32.367359,52.879062,64.088321,69.402042,17.225509,39.377208,41.633503,39.201175,3.014225,23.662136,26.717617,25.702995,-10.66174,7.636493,17.18922,21.029846,-10.740539,-27.729859,-38.451849,-47.159206,-68.712132,-77.551132,-64.140539,-47.957852,-71.609463,-63.479016,-42.18472,-26.332281,-67.854096,-58.771529,-38.773967,-24.536844,-59.668662,-58.402359,-45.827658,-34.001425,14.264179,150.289894,-104.598472,-206.136337
71,0.275597,-0.040916,0.184684,0.533888,19.774178,30.303886,41.003655,53.546333,-0.858673,0.490814,0.95295,2.041466,-19.769577,-25.572647,-29.351074,-31.669075,-35.455856,-51.454422,-62.742016,-70.754127,-46.656303,-69.3876,-84.097275,-96.322769,-20.056027,-44.253161,-66.408986,-79.61848,-57.156502,-92.682033,-113.745988,-130.475057,-56.202224,-94.657114,-119.481527,-138.100079,-50.650936,-81.051565,-103.355456,-121.15939,-40.560097,-57.941541,-68.202323,-77.531322,25.553421,45.474633,57.633305,69.628636,32.387684,52.818982,64.265568,69.736531,17.212029,39.353325,41.747166,39.182339,3.042469,23.690403,26.944153,25.821408,-10.623184,7.641289,17.159191,20.744831,-10.106344,-26.934449,-37.431043,-46.031372,-68.000783,-76.918434,-63.678888,-47.575231,-70.973997,-63.131971,-41.809728,-26.04457,-67.186602,-58.32505,-38.319237,-24.282318,-59.01249,-57.625647,-45.099383,-33.554887,14.482269,150.168304,-104.471295,-205.683123
72,0.265549,0.321559,0.332589,0.747446,19.832016,30.259895,40.933365,53.744865,-0.912712,0.471222,0.84272,1.788093,-19.87571,-25.668892,-29.512459,-31.888161,-35.57238,-51.533547,-62.749604,-70.647469,-46.75866,-69.374462,-83.958447,-96.013218,-20.172735,-44.485126,-66.642798,-79.895993,-57.308606,-92.937951,-113.991526,-130.712864,-56.276929,-94.792007,-119.531575,-138.041971,-50.710784,-81.195061,-103.573046,-121.387113,-40.638508,-58.180509,-68.557715,-77.964613,25.357555,45.251026,57.472103,70.012882,32.6483,53.105598,64.632167,70.143413,17.437042,39.555999,42.143646,39.621803,3.222679,23.931015,27.364379,26.176483,-10.49413,7.790039,17.28091,20.61161,-9.784539,-26.551449,-36.989936,-45.671112,-67.368513,-76.133782,-62.866794,-46.751734,-70.375048,-62.983185,-41.757633,-25.879827,-66.575877,-58.140136,-38.195866,-24.202775,-58.413212,-57.138563,-44.666522,-33.226656,14.697619,150.417726,-104.188905,-205.007814
73,0.191757,0.046622,0.5583,0.734959,19.857696,30.339706,41.041443,53.917511,-0.715096,0.585777,0.865013,1.707504,-19.720413,-25.597984,-29.622803,-32.137047,-35.429169,-51.342774,-62.56707,-70.446076,-46.628449,-69.177773,-83.780274,-95.818325,-20.158015,-44.510525,-66.676947,-79.997041,-57.105207,-92.795389,-113.934382,-130.724035,-56.082959,-94.673237,-119.504671,-138.098659,-50.55518,-81.066188,-103.50798,-121.354479,-40.551829,-58.051334,-68.432072,-77.818172,25.227985,45.129615,57.325904,69.609558,32.55875,53.081737,64.712654,70.227767,17.32711,39.403106,42.09756,39.520076,3.110515,23.770385,27.464504,26.292045,-10.60888,7.624729,17.365402,20.784221,-9.277796,-25.684417,-35.871629,-44.620934,-66.662395,-75.589121,-62.271215,-46.024709,-69.574032,-62.528927,-41.234656,-25.346608,-65.699051,-57.932762,-37.953847,-23.991113,-57.492105,-56.718868,-44.327499,-32.924915,14.780479,150.425754,-103.739502,-204.311449
74,0.188782,-0.067234,0.635639,1.065065,20.012191,30.663711,41.384193,54.139526,-0.501252,0.734138,0.895271,1.606041,-19.57988,-25.422501,-29.519577,-32.083672,-35.305939,-51.071549,-62.254269,-70.078469,-46.519272,-68.970623,-83.549446,-95.529728,-20.075158,-44.477019,-66.640001,-80.015999,-57.120459,-92.657765,-113.734694,-130.437742,-56.109574,-94.620558,-119.378632,-137.936483,-50.549184,-81.058889,-103.483835,-121.322906,-40.50212,-57.959295,-68.298438,-77.653138,25.079338,44.977215,57.14907,69.158832,32.379913,52.874897,64.585453,70.158703,17.186805,39.185005,41.939129,39.382736,2.995685,23.548336,27.445461,26.345501,-10.712025,7.396717,17.294426,20.817272,-8.930863,-25.099264,-35.117215,-43.920647,-66.123794,-75.201415,-61.889886,-45.614819,-69.018094,-62.233566,-40.954667,-25.112976,-65.128143,-57.964354,-37.989573,-24.094115,-56.924941,-56.588383,-44.202276,-32.819841,14.832281,150.402975,-103.240843,-203.201929
75,0.241951,-0.258932,0.497692,1.297228,20.23796,31.045601,41.86837,54.562362,-0.249939,1.004699,1.077873,1.731651,-19.36203,-25.210533,-29.411316,-32.040253,-35.110588,-50.803231,-62.014092,-69.85484,-46.369721,-68.770512,-83.338417,-95.278988,-19.978247,-44.346416,-66.449643,-79.77448,-57.028815,-92.299372,-113.274227,-129.903273,-56.018368,-94.429508,-119.168057,-137.800033,-50.409393,-80.850765,-103.223211,-121.052828,-40.339617,-57.781843,-68.165242,-77.559067,25.055099,45.092148,57.355316,68.723694,32.388141,52.944465,64.591896,70.158829,17.233726,39.373489,42.075062,39.516529,3.010334,23.695576,27.607704,26.551998,-10.712139,7.463058,17.480083,21.174808,-8.903647,-24.92853,-34.974467,-44.048885,-65.933942,-74.797819,-61.593239,-45.419543,-68.819131,-61.875325,-40.707832,-24.800278,-64.891294,-57.69554,-37.779149,-23.800613,-56.651576,-56.317592,-43.953557,-32.414675,14.907795,150.240256,-102.909588,-201.808488
76,0.469299,0.052278,0.438068,1.24725,20.379593,31.175674,42.033188,54.655449,-0.150673,1.080208,1.075241,1.676903,-19.329094,-25.270912,-29.551598,-32.20356,-35.106491,-50.85759,-62.063828,-69.910584,-46.365212,-68.859364,-83.430691,-95.329823,-19.971084,-44.417207,-66.507997,-79.70632,-57.11676,-92.205178,-113.072451,-129.629349,-56.114069,-94.446242,-119.169798,-137.864248,-50.431636,-80.859972,-103.248591,-121.0994,-40.275638,-57.754067,-68.272237,-77.768,25.122174,45.266854,57.519871,68.327946,32.401634,53.102383,64.731137,70.345997,17.269112,39.623429,42.129181,39.431019,2.991635,23.868439,27.654373,26.522747,-10.753715,7.60595,17.67239,21.442589,-8.953874,-24.900838,-35.045903,-44.320388,-65.793316,-74.408726,-61.228914,-45.087072,-68.676338,-61.342098,-40.175846,-24.226341,-64.742483,-57.282018,-37.464975,-23.548121,-56.512865,-55.9928,-43.651159,-32.083674,15.189577,150.355695,-102.659037,-200.498077
77,0.415855,-0.093033,0.297718,1.275072,20.49511,31.369057,42.251404,54.759247,-0.048088,1.174347,1.160386,1.739113,-19.233444,-25.161804,-29.430404,-32.164146,-35.009765,-50.776611,-62.027961,-70.042774,-46.269058,-68.816024,-83.400249,-95.358867,-19.978593,-44.317468,-66.421324,-79.612892,-56.941364,-91.947222,-112.773203,-129.289363,-55.964312,-94.289508,-119.044315,-137.878833,-50.285016,-80.62253,-102.943068,-120.818065,-40.143943,-57.62349,-68.173881,-77.733426,25.222138,45.386673,57.635674,67.959137,32.251408,53.161766,64.838105,70.512612,17.189804,39.879822,42.18385,39.306519,2.958824,24.118458,27.744736,26.537098,-10.709736,7.794594,17.900116,21.829605,-8.883349,-24.801191,-34.971765,-44.424416,-65.921465,-74.17158,-61.035169,-45.00625,-68.820144,-60.735417,-39.610561,-23.782461,-64.786937,-56.715036,-37.080653,-23.324424,-56.457975,-55.421029,-43.17883,-31.658587,15.392429,150.315014,-102.574322,-199.170653
78,0.445908,0.266008,0.149391,1.682106,20.563339,31.453217,42.33316,54.859085,-0.076515,1.227585,1.205292,1.791664,-19.298309,-25.164253,-29.362701,-32.077766,-35.084084,-50.786339,-61.944523,-69.931572,-46.372215,-68.81892,-83.299175,-95.198113,-20.000365,-44.438745,-66.574292,-79.777518,-57.233826,-92.132312,-112.806542,-129.23078,-56.236044,-94.479205,-119.057165,-137.819009,-50.519753,-80.889279,-103.161498,-121.035926,-40.293595,-57.909598,-68.553232,-78.197887,25.170685,45.33553,57.654088,67.755387,32.10402,53.222203,64.833344,70.521172,17.170487,40.164299,42.31897,39.402089,3.028267,24.542897,28.005307,26.739453,-10.52552,8.170819,18.230278,22.223065,-9.180505,-25.275861,-35.56644,-45.130514,-66.389745,-73.939733,-60.726226,-44.935836,-69.299469,-60.602489,-39.617845,-23.889536,-65.2086,-56.430756,-36.965053,-23.275286,-56.783271,-55.107618,-42.914977,-31.37652,15.636063,150.609696,-102.627205,-197.459873
79,0.590904,0.229922,0.059716,1.853043,20.528984,31.312432,42.141152,54.738259,-0.123916,1.131409,1.062126,1.663491,-19.363838,-25.345619,-29.590347,-32.309898,-35.148628,-50.899772,-62.020878,-69.98267,-46.424217,-68.835811,-83.237114,-95.075214,-20.127535,-44.603058,-66.76315,-79.906404,-57.353659,-92.277828,-112.851354,-129.168746,-56.30176,-94.54148,-119.007728,-137.687432,-50.52273,-80.931152,-103.148018,-120.979592,-40.226862,-57.893728,-68.584905,-78.313528,25.190403,45.312,57.69786,67.965751,31.951194,53.280452,64.879669,70.546692,17.101421,40.490753,42.593742,39.628715,3.047092,25.028927,28.398193,27.059543,-10.364651,8.656975,18.758674,22.837555,-9.34187,-25.624519,-35.953791,-45.366311,-66.714098,-73.825366,-60.488434,-44.882342,-69.566353,-60.422188,-39.48656,-23.897455,-65.360069,-56.010303,-36.627031,-22.99618,-56.795836,-54.561654,-42.466258,-30.959955,15.985651,150.789563,-102.808805,-195.656885
80,0.656548,0.346321,-0.117657,2.275546,20.401611,31.068443,41.743721,54.256027,-0.389603,0.810379,0.688362,1.249168,-19.682923,-25.65802,-29.872948,-32.585655,-35.448487,-51.149941,-62.232765,-70.210831,-46.653832,-68.985512,-83.345845,-95.205689,-20.250171,-44.809959,-66.981314,-80.133325,-57.429477,-92.215731,-112.653969,-128.863236,-56.275602,-94.336401,-118.619899,-137.20521,-50.397161,-80.678772,-102.747789,-120.469237,-40.008438,-57.66724,-68.391107,-78.195486,25.301903,45.21714,57.096222,67.313267,31.904949,53.474247,65.165577,70.995014,17.139679,40.93222,43.181271,40.421436,3.113079,25.602642,28.902111,27.54356,-10.195702,9.169189,19.217377,23.256168,-9.511826,-26.400036,-37.280462,-46.822101,-66.936512,-73.616324,-60.00097,-44.444396,-69.721797,-60.447821,-39.542706,-23.820172,-65.460003,-55.769934,-36.468734,-22.833622,-56.880018,-54.211881,-42.15909,-30.714395,16.403441,151.058252,-103.16522,-193.458971
81,0.840385,0.44301,-0.12783,3.082603,20.146294,30.634232,40.97667,53.193901,-0.876686,-0.146255,-0.532493,-0.094482,-20.160942,-26.325096,-30.727478,-33.562294,-35.859764,-51.334076,-62.323368,-70.198242,-46.988731,-69.142158,-83.349666,-95.098938,-20.629541,-45.152877,-67.427017,-80.832185,-57.231462,-92.203894,-112.464976,-128.484799,-55.838446,-94.045507,-118.187535,-136.678949,-49.803449,-80.32711,-102.384616,-120.083853,-39.355563,-57.166624,-67.989186,-77.949701,25.315441,45.535079,57.681461,67.529056,31.643165,53.486869,64.939327,70.731639,16.87334,40.990905,43.143939,40.492618,2.873096,25.894786,28.988479,27.563243,-10.373063,9.322322,19.280548,23.360275,-9.685065,-26.946148,-37.971249,-47.71224,-67.362291,-73.47439,-59.535561,-44.172942,-69.948024,-60.16385,-39.066158,-23.260399,-65.437352,-55.359504,-36.103577,-22.424422,-56.643721,-53.738951,-41.64659,-30.223496,17.004106,151.396406,-103.53277,-190.481224
82,1.549668,0.798334,-0.662419,3.718242,19.515426,29.209648,38.335235,49.722816,-1.859002,-2.562058,-3.741417,-3.86126,-21.060082,-28.173798,-33.353234,-36.675522,-36.66124,-52.099892,-63.071011,-70.907868,-47.69664,-69.844288,-84.112874,-95.853711,-21.634084,-46.438348,-69.063822,-83.085414,-56.780894,-91.832428,-111.951552,-127.939283,-54.81749,-92.877776,-116.864353,-135.283871,-48.448972,-79.189735,-101.20921,-118.739269,-37.977078,-55.780469,-66.779848,-76.972192,25.284886,46.207089,58.753407,67.009873,31.736893,53.892735,65.080353,70.848404,16.926876,41.288326,43.828629,41.389092,2.861378,26.290341,29.511406,27.938336,-10.419994,9.529667,19.370442,23.215691,-9.755589,-26.991114,-38.13049,-48.10543,-67.18332,-72.471452,-57.807688,-42.529945,-69.331269,-59.727394,-38.031424,-21.839364,-64.414119,-54.736692,-35.236909,-21.431833,-55.264365,-52.363695,-40.077357,-28.82475,18.314215,151.875528,-104.434748,-187.082194
83,2.24604,0.97578,-0.897823,4.822488,18.164062,26.290901,32.94928,42.499351,-4.201401,-7.653259,-10.135002,-11.305023,-23.122078,-32.290993,-38.768417,-43.126442,-38.387306,-54.575157,-65.733811,-73.791206,-49.033745,-71.397606,-85.639984,-97.306778,-23.145907,-48.398139,-71.519741,-86.797726,-56.519115,-91.187723,-111.044513,-126.949708,-53.392371,-90.627727,-114.288478,-132.652087,-46.302219,-76.769453,-98.49426,-115.674133,-35.62934,-53.255847,-64.41443,-74.800028,25.121589,46.725986,59.814789,67.021099,31.744572,54.512604,65.257976,70.683552,16.915077,41.425724,44.290787,41.970383,2.809353,26.674026,30.04969,28.32922,-10.476803,9.854976,19.47599,23.089359,-8.840445,-25.738304,-36.842726,-46.673499,-65.685531,-70.496047,-55.154996,-40.049011,-67.400451,-58.075262,-35.97165,-19.677933,-62.119392,-52.707669,-32.965495,-19.152094,-52.900303,-49.851914,-37.214852,-26.052703,20.368836,152.303134,-105.52399,-182.80788
84,2.84745,0.767211,-0.441559,5.860028,16.158463,21.744461,24.763642,31.516869,-7.663719,-15.249847,-19.902077,-22.92128,-26.089577,-38.669311,-47.386185,-53.614837,-40.776031,-58.755569,-70.913441,-79.843551,-50.727379,-73.678184,-88.14299,-99.962631,-24.848989,-50.461065,-73.843402,-90.448366,-55.160377,-88.878541,-108.236159,-123.830287,-50.24907,-86.249579,-109.163854,-127.024086,-42.057495,-71.800544,-92.823589,-109.205078,-30.996582,-48.322247,-59.574586,-69.909228,24.593548,46.327744,59.759891,66.29884,31.030334,53.708668,63.602989,68.495407,16.231682,40.026604,43.396889,41.442924,2.015316,25.547642,29.397823,27.875988,-11.563202,8.429707,18.1451,21.961521,-8.25441,-24.178337,-35.210548,-44.325626,-62.425051,-66.986866,-50.760889,-35.667273,-63.477034,-55.426803,-33.148304,-16.560013,-57.799853,-49.50404,-29.578411,-15.459874,-48.518306,-46.273657,-33.549595,-22.442363,23.194937,152.387055,-105.986898,-177.631142
85,2.489891,0.730644,-1.940666,5.814224,13.580864,15.895523,13.909149,16.428154,-12.218582,-25.166588,-32.793342,-38.273506,-29.552765,-46.764404,-58.178226,-66.63961,-42.999092,-63.556869,-76.897339,-86.89294,-51.683235,-75.389923,-90.151508,-102.175518,-26.950961,-52.63678,-75.675637,-93.427602,-53.460562,-85.590172,-103.809019,-118.463578,-46.041626,-80.064683,-101.402001,-117.979115,-36.196443,-64.47636,-84.163786,-99.375618,-24.472065,-40.711312,-51.620813,-61.692892,23.802612,45.057369,58.809334,65.490509,31.988571,53.179252,62.810371,67.84148,17.465961,40.227745,44.091179,42.451938,3.43808,25.820057,29.748253,28.382824,-10.125904,8.652408,17.564403,20.952953,-6.369503,-19.988908,-30.228852,-38.281313,-56.098801,-63.262464,-50.279029,-38.119626,-56.965008,-48.411684,-26.215767,-9.926981,-51.053308,-41.736465,-22.019799,-7.922248,-42.005743,-38.114818,-25.034957,-14.013574,25.892275,152.393391,-107.720117,-172.541226
86,2.451874,0.679254,-2.894812,13.881543,9.75293,7.586838,-0.036392,-2.235329,-18.747871,-37.642891,-48.681999,-57.150009,-34.021545,-56.474144,-71.00869,-82.188789,-45.211555,-69.179466,-84.353725,-95.995159,-51.774513,-76.592194,-92.163586,-104.895321,-28.814866,-54.297927,-75.998035,-94.062358,-51.263722,-79.553525,-95.730361,-108.936298,-40.942061,-70.689012,-89.360287,-104.108694,-28.981426,-53.616802,-70.588199,-83.828092,-16.07207,-30.113811,-39.764029,-48.978611,24.065706,45.210875,59.065653,66.383869,34.288845,53.417965,62.913569,68.285877,19.81778,41.966521,46.946062,45.83396,5.776766,27.358349,31.455128,30.103912,-7.974672,9.993605,18.247044,21.049936,-5.352551,-17.880179,-28.086523,-35.305217,-52.444192,-63.54218,-54.425314,-45.096833,-53.341484,-46.020581,-24.241583,-7.982943,-47.439604,-37.715527,-17.974685,-3.539418,-38.606569,-33.371707,-19.876971,-8.683204,28.89834,152.479057,-110.060738,-159.253271
87,1.67141,1.260079,-3.358257,21.984478,5.355697,-1.956253,-15.238564,-22.45784,-26.081063,-50.283417,-64.705056,-76.282631,-38.727425,-66.161065,-83.705624,-97.584057,-47.11464,-74.615593,-91.821442,-105.408394,-51.095261,-76.712094,-92.918141,-106.485295,-30.010811,-54.265626,-73.229585,-90.47742,-47.819994,-70.783478,-84.039482,-94.97992,-34.669182,-58.482555,-73.273625,-85.259282,-20.790746,-40.536083,-53.76207,-64.384802,-6.755266,-17.929868,-25.475398,-33.112819,25.360559,47.012529,61.280817,70.450722,37.45182,54.033726,63.242277,68.962806,22.736172,44.722338,50.690511,50.024031,8.521608,29.752693,33.596867,32.054237,-5.55855,12.087084,19.646084,21.821211,-5.210755,-18.157797,-28.935051,-35.740222,-52.098128,-68.726795,-64.311182,-57.797884,-53.302057,-47.967986,-26.946971,-10.737157,-47.625584,-37.407557,-17.598616,-2.640959,-38.967701,-32.730825,-18.788401,-7.142059,31.393702,153.420955,-112.595043,-137.586974
88,0.579666,1.717094,-3.438412,22.234214,0.335998,-12.212792,-29.956627,-41.337673,-33.332566,-61.376164,-78.968548,-93.402626,-42.663712,-73.868683,-94.081993,-110.441265,-47.713715,-78.023232,-97.240723,-112.736893,-48.791451,-74.797943,-91.714348,-106.390629,-30.432345,-52.135052,-67.017759,-81.857631,-42.579021,-58.967852,-68.42678,-76.14649,-27.060099,-43.908298,-53.908073,-62.140465,-11.62948,-25.320497,-34.124334,-41.511227,3.123644,-4.330063,-8.913351,-14.142469,26.553927,47.714499,61.615145,72.22094,41.020134,54.568566,63.179426,69.083073,26.232044,47.741392,54.411032,54.387022,12.058085,32.306935,35.4818,33.841164,-1.965769,14.933905,21.104862,22.162897,-5.886646,-18.67332,-28.819865,-33.585379,-51.576207,-72.720379,-72.937207,-69.716979,-52.048069,-46.005332,-25.445691,-9.422012,-45.020624,-32.834886,-13.47488,1.200204,-35.102008,-26.347273,-12.927425,-1.599697,32.793331,155.043086,-115.213492,-115.447723
89,-1.255692,4.222394,-6.326351,29.51763,-4.699447,-21.875244,-42.668335,-57.322346,-40.285217,-70.186626,-90.042789,-106.599483,-45.98172,-78.800777,-100.566765,-118.784111,-47.362449,-78.81197,-99.224956,-116.039829,-45.344444,-70.646644,-87.747539,-103.175434,-30.221917,-48.744787,-58.951167,-70.714738,-37.336022,-46.444016,-51.781141,-55.970221,-20.404411,-29.394264,-34.447554,-38.638153,-4.128744,-11.261503,-15.512253,-19.558936,10.818746,7.534662,6.104041,3.395816,29.112082,51.244188,65.857172,76.773331,46.766556,60.943737,70.416098,76.876614,32.151192,54.97962,62.430021,63.165007,18.248938,39.142033,42.34932,40.933491,4.818426,22.596296,28.184692,28.806536,-5.944186,-18.071319,-26.955543,-30.77647,-51.270296,-71.248453,-72.804238,-70.461609,-51.358815,-43.178883,-23.25031,-7.698562,-43.420835,-28.062543,-9.389448,4.718946,-32.187012,-20.073766,-6.745089,4.033919,32.333896,159.22684,-120.743586,-85.968733
90,-1.535156,6.261998,-4.308752,35.700985,-9.929123,-31.126099,-53.250675,-69.672695,-46.153473,-76.883183,-98.04776,-115.724865,-48.560921,-81.854359,-104.569634,-123.903957,-46.932289,-78.874043,-100.123169,-117.628029,-42.464195,-66.811878,-83.634705,-99.162724,-28.42461,-43.03477,-48.762114,-57.052959,-30.718273,-32.57927,-33.679922,-34.374355,-13.661618,-14.994593,-15.365274,-15.531686,2.20943,1.166391,1.254287,0.742358,16.367379,16.396118,17.892824,18.009261,30.593742,54.40357,70.401529,81.78713,49.674013,66.272581,76.233147,82.500612,35.664591,60.175764,69.001882,70.889431,22.380106,44.716318,48.785465,47.907892,9.794019,29.16453,35.009846,35.925424,-8.811442,-20.898465,-27.542166,-29.080788,-52.919433,-68.513524,-67.08245,-62.571132,-51.057152,-42.653844,-23.445361,-8.238535,-41.34335,-25.487294,-7.437335,5.930752,-28.07629,-15.455267,-2.92627,6.869301,32.304274,165.37267,-123.546804,-50.383916
91,-2.479202,8.908572,-2.8822,33.482776,-14.185364,-38.201866,-60.57248,-77.86179,-50.017662,-80.200161,-101.863003,-119.892872,-49.682076,-82.191136,-105.0019,-124.642456,-45.703354,-76.921063,-97.890072,-115.120755,-39.309975,-61.650284,-77.031144,-91.473622,-26.199366,-36.525987,-38.28801,-43.461323,-23.46549,-19.536738,-17.090736,-14.59752,-7.00041,-2.294201,1.262536,5.002932,7.594522,10.949002,14.190491,16.768312,19.942036,22.201669,25.656147,28.15904,29.751932,54.367378,71.474578,83.496866,50.230711,70.190431,81.080011,87.234152,37.863996,63.788967,74.306568,77.7703,26.029804,49.501985,54.902767,55.092687,15.057083,35.518821,41.456417,42.843338,-12.532298,-23.122738,-25.846191,-23.545873,-50.679668,-60.105316,-54.944751,-48.160662,-45.674118,-36.062395,-17.829379,-3.386263,-33.460807,-17.19732,-0.305862,11.666629,-17.987882,-4.869304,6.33822,14.540956,32.195349,174.071797,-124.058727,-17.110585
92,-2.936348,10.395459,-2.656506,32.327391,-18.267609,-43.398491,-64.463814,-81.579953,-53.067261,-81.901028,-103.456559,-121.10257,-50.196579,-81.091851,-103.401993,-122.824997,-44.125077,-73.91589,-94.510414,-111.323845,-35.927605,-55.896447,-69.698445,-82.871201,-22.766389,-28.998209,-27.756489,-30.35996,-16.220845,-7.493462,-1.843114,3.718054,-1.464831,7.813255,14.446645,21.775727,11.138404,18.272046,24.28892,29.907219,21.129089,24.954021,30.000796,34.67981,27.808851,52.785313,71.189449,83.959883,51.948526,76.295397,87.472921,92.130907,42.238192,70.303288,80.159294,82.878782,32.333027,57.146158,62.511749,62.386809,23.048618,43.796047,48.656387,49.320969,-15.53482,-23.924222,-22.608673,-16.575068,-44.283549,-45.698337,-36.863644,-28.833346,-35.520495,-22.110168,-5.559331,6.439295,-20.79539,-2.826166,11.72024,20.719714,-3.804771,10.58536,19.291467,24.534908,31.82206,183.807403,-124.152174,14.556953
93,-2.764023,12.35669,-2.33955,34.587233,-21.302284,-46.711327,-66.316074,-83.056069,-55.024658,-82.268726,-103.239773,-120.189079,-50.649857,-79.457096,-100.788048,-119.470951,-43.401398,-71.364372,-91.257362,-107.466877,-34.164757,-51.970505,-64.245712,-76.119003,-19.263078,-22.169917,-19.025487,-19.860242,-9.704275,2.392223,10.782882,18.876879,3.002935,15.195566,24.10473,34.387792,13.439631,22.831313,31.041524,39.406346,21.113059,25.485,31.449201,37.804269,27.456591,53.936943,73.993092,87.451315,52.292914,81.030985,93.653441,99.424627,43.403669,73.720951,85.782463,90.858061,34.10059,61.201933,69.777489,72.835035,25.444977,47.415894,54.400234,57.663735,-17.223261,-24.023739,-20.645306,-13.721266,-37.214917,-31.135756,-18.748262,-8.563912,-26.365663,-11.491425,4.372599,15.757569,-11.456641,6.536074,20.084513,28.164962,5.369439,19.431403,27.869081,32.370751,31.851288,195.168559,-123.698473,48.148652
94,-1.622383,13.141599,0.391846,34.417821,-23.614746,-48.907219,-67.355782,-83.654595,-56.006584,-82.319905,-102.654476,-118.709095,-50.579178,-78.181206,-98.827057,-116.576203,-42.731415,-69.5621,-88.653843,-103.987061,-33.055001,-49.572533,-60.604225,-71.239609,-16.227576,-16.508812,-12.115777,-11.487639,-4.112194,10.303563,20.831428,30.749211,7.068866,21.273474,32.070484,44.448095,15.761336,26.904667,36.977283,47.410806,21.481104,26.223399,33.013709,40.665339,25.874273,53.46508,75.045753,89.954675,53.757952,84.909044,96.589079,100.611334,45.805212,78.613403,90.337463,94.378538,36.992237,67.070967,75.798511,78.256822,28.634582,52.659359,60.06942,63.118675,-19.192995,-24.192583,-18.985998,-12.273398,-28.376501,-17.291666,-5.81809,2.327546,-14.868576,2.255458,15.10726,23.33125,0.96359,19.018284,29.499765,34.627704,17.521753,31.120497,37.081669,39.136194,33.224224,207.267564,-120.311308,81.523879
95,-1.148667,14.755335,-1.84675,31.766703,-24.954048,-50.57286,-68.787368,-83.591606,-56.755783,-81.793247,-101.171367,-117.000286,-49.8815,-76.112388,-96.108169,-113.631031,-40.788162,-66.385917,-85.326862,-100.650295,-30.447006,-46.341705,-56.797805,-66.989811,-14.119281,-13.989976,-9.641153,-8.473379,-0.948276,14.385808,25.521112,36.127103,9.412245,23.268012,33.73567,45.5948,17.147349,27.470918,36.513315,45.915779,22.128656,26.759381,33.515604,41.060863,27.060688,56.369819,79.646896,95.848068,57.141609,88.576091,100.450366,105.385677,49.015869,82.28786,94.963211,100.623092,39.82505,70.666019,81.269176,86.034759,30.611858,54.877681,63.434177,67.918853,-18.618484,-21.770652,-16.089607,-10.735452,-19.673175,-6.123412,5.171405,13.341053,-5.429041,12.949036,24.78228,32.31002,9.919907,28.350694,37.983783,42.721201,25.414876,39.256719,44.70484,46.684818,34.472803,221.031987,-119.760812,112.29967
96,-1.618572,13.809202,0.467342,31.285963,-26.547912,-52.190918,-70.268852,-83.998661,-56.078121,-79.457434,-97.417745,-112.309318,-48.473602,-73.11355,-92.459209,-109.324831,-39.181618,-63.738298,-83.026451,-98.561199,-29.143616,-45.17894,-56.035738,-66.574344,-12.152012,-11.22449,-6.416597,-3.821801,0.722695,15.947945,27.114068,37.776746,10.936442,24.366595,34.492989,45.248299,18.935016,29.315297,37.848426,46.053667,24.290487,30.139641,37.356825,44.767356,28.540947,59.15348,83.309395,99.909416,61.697937,94.040222,104.823738,108.190979,52.558891,87.701294,99.239891,103.282185,42.035477,75.342991,86.014435,90.249298,31.334232,57.696831,67.283077,71.690151,-16.118679,-17.304126,-12.741512,-10.761633,-10.842378,7.21419,17.754756,24.175379,4.040527,26.038315,36.45564,41.900656,18.886413,39.344973,47.260073,50.554507,33.026226,47.53945,51.645167,52.596191,34.408682,233.796187,-117.739019,142.540631
97,-2.169067,13.193963,-0.020702,26.675505,-28.049149,-54.00998,-72.467663,-85.578907,-53.703175,-75.173945,-91.262919,-104.614895,-46.051506,-68.919543,-87.613552,-103.421786,-37.553353,-61.216982,-80.644627,-95.86948,-28.876259,-45.607773,-57.241316,-68.114674,-11.07527,-8.927127,-2.902084,2.150378,0.602987,14.767376,25.195619,35.017949,12.014778,25.011924,34.791874,43.768501,21.901939,32.738383,40.679053,47.098176,28.921707,37.05964,44.71393,51.621504,31.603763,63.204254,87.58049,104.597362,63.629894,95.466865,107.398418,113.209522,52.635669,87.129306,101.324787,108.843669,40.945484,74.449562,88.376976,96.157722,29.376583,56.814777,68.957004,75.891208,-13.306318,-12.745946,-8.994176,-9.892521,-3.310705,16.648189,26.946262,33.733089,11.203927,33.89427,44.258614,50.38733,25.32737,46.059317,54.202122,58.454379,38.604697,53.559868,58.271289,60.239559,33.657915,246.17171,-116.341421,168.397696
98,-0.685501,13.258233,2.906066,27.746998,-25.636483,-51.284134,-70.631573,-83.87875,-49.28825,-71.745696,-88.337271,-102.407925,-42.255364,-67.227454,-86.754399,-103.182581,-34.726525,-60.140528,-79.736504,-94.79155,-27.573441,-46.779396,-59.075758,-69.907334,-2.335845,2.594043,9.272652,16.141638,8.927646,21.204153,30.185411,38.829481,15.190614,24.520181,31.222651,36.932187,19.792483,26.511138,31.223683,34.460769,22.248662,27.641578,32.909253,37.284183,32.207016,63.913273,88.50079,105.309872,67.339634,100.971943,111.62891,114.741108,56.559323,93.081677,104.838627,108.334225,44.53933,79.650479,91.312912,95.246762,32.342549,61.225045,72.376477,76.5527,-13.174561,-11.088237,-7.479012,-9.147718,3.276736,26.746932,36.371709,42.016487,19.010865,44.386826,53.580709,58.097752,33.600116,56.827188,64.513064,68.234922,46.166201,62.978529,67.605277,69.300388,34.448033,258.802451,-111.959736,195.517202
99,0.228927,11.009537,0.954678,21.418513,-24.755035,-50.610512,-71.144474,-84.511591,-48.416851,-71.971475,-88.163984,-101.588447,-42.013933,-68.792209,-87.402757,-102.165075,-35.222133,-61.919048,-80.277963,-93.697614,-29.18779,-50.389732,-62.665163,-72.587602,6.259578,14.115897,21.843492,30.153442,18.279357,27.708602,34.140049,40.827248,19.80006,24.366608,27.021585,29.038539,19.266388,20.788542,21.264891,21.207636,17.027584,19.220927,21.948319,24.163856,33.372986,65.276768,89.632862,106.046127,68.23399,102.135796,113.849854,118.165627,57.366257,94.131134,107.352516,111.889366,45.55901,80.63269,93.559948,98.415092,33.625626,62.033775,73.429768,77.737953,-12.679199,-10.380553,-6.938288,-8.117931,7.255612,30.425861,40.050712,46.095053,24.057368,49.445,58.372072,62.598048,38.494812,62.268461,69.936405,73.638602,49.831126,67.263613,71.966734,73.708688,36.163879,269.239503,-109.518139,216.36323
100,1.191353,8.10999,2.278828,18.379356,-25.467613,-51.45472,-73.01746,-87.564749,-50.997173,-76.084482,-91.361486,-102.362411,-45.841513,-74.454666,-90.642042,-101.060457,-40.217388,-67.836616,-82.902243,-92.437494,-35.117477,-57.447121,-68.663309,-76.400431,14.376818,26.589036,36.780448,46.838503,29.47257,35.867696,39.382808,43.863282,26.629433,27.365541,26.885031,26.719749,21.102302,18.905142,16.763434,15.718852,13.584134,13.111453,14.089888,15.474203,33.820575,64.89981,88.592273,104.930317,68.040619,103.32867,115.745693,120.325092,57.364093,95.991851,110.012134,114.68938,46.042179,82.636562,96.274566,101.15823,35.025924,64.248596,76.243538,80.813312,-12.601333,-10.320853,-6.671626,-7.786888,10.571769,34.998713,44.148766,49.210101,28.752708,54.835008,63.068067,66.150314,43.667051,68.031059,74.989799,77.506672,54.353355,72.306744,76.606487,77.497916,38.688091,276.794764,-105.906452,234.187857
101,3.38554,6.401153,-0.080109,13.514683,-25.929794,-51.61068,-73.269848,-88.654272,-51.542496,-79.650501,-96.112186,-107.208607,-47.118192,-79.764261,-96.26378,-106.003441,-42.492931,-73.251005,-88.318594,-97.506586,-38.313721,-62.614036,-74.333565,-82.452742,14.559697,27.148723,36.730751,45.98308,36.895013,39.018573,38.482949,39.867369,33.867989,30.582978,25.994219,22.689232,26.839415,21.993928,17.371064,14.685236,17.051814,16.322641,16.490361,17.156321,34.84536,65.245251,88.795406,105.52747,67.653603,102.614697,116.745884,124.121693,57.236092,95.492661,111.618061,119.191784,46.642582,81.945156,97.38945,104.830387,36.456184,63.856133,76.376621,82.642147,-12.462049,-10.743189,-6.402604,-6.434418,13.450252,35.809138,44.750153,50.685454,31.756915,56.10819,64.477261,68.373329,46.14523,69.667766,77.148359,80.132645,55.801612,74.020577,79.142959,80.692178,43.228918,282.745673,-104.831274,247.252296
102,4.142121,4.8758,2.205803,11.625429,-24.907174,-50.740311,-72.229855,-87.913588,-55.786194,-83.921311,-97.684903,-106.046277,-51.725722,-83.145213,-94.598883,-99.792561,-46.707471,-75.424605,-84.93088,-89.052321,-41.727631,-64.138596,-72.564755,-77.197192,19.316517,32.674755,41.169222,49.453948,43.979922,45.649851,44.588052,44.990937,36.839876,33.22166,27.910248,23.851177,25.112825,19.25799,14.197414,11.05861,11.028062,8.835231,8.353312,8.418551,33.967678,63.307205,86.773487,103.747616,66.990772,102.380413,116.778019,124.244305,56.998363,96.232143,112.865055,120.724262,46.728252,82.379791,98.082973,105.847309,36.88726,63.906692,76.644424,83.534649,-12.3281,-10.739669,-5.647668,-4.687017,16.34458,38.448486,47.008798,52.680622,35.095995,59.267563,67.369637,71.049678,49.168913,72.674134,80.053135,82.775106,57.954564,76.367685,81.735278,83.386879,48.392087,287.427978,-101.604423,258.68423
103,1.734352,2.68492,0.08844,7.85301,-26.536171,-52.454545,-72.882134,-88.138041,-62.845311,-86.14983,-91.928765,-92.901913,-58.446825,-83.201735,-85.653918,-82.312683,-52.620335,-74.398356,-76.052336,-73.133852,-46.24498,-63.38292,-66.860813,-66.886431,17.949227,30.762876,39.519153,48.083373,41.191063,45.302184,45.290167,45.678762,35.947534,36.521615,34.567103,32.472226,26.72377,25.404182,23.828861,22.976909,15.130945,16.963067,18.960427,21.136975,34.207775,63.312538,87.089916,105.155353,65.150997,99.101978,115.470142,125.996326,55.23674,93.317036,113.120693,125.614963,45.678577,80.311901,99.105205,111.090809,36.669468,62.593677,76.829384,87.077454,-11.117903,-9.864221,-4.057212,-3.29105,17.996873,37.584734,46.055359,52.463915,36.111208,57.267554,64.819209,68.924402,49.275161,70.344957,77.384727,80.178377,57.41389,74.632363,79.660686,81.355389,51.086203,290.120018,-100.556219,266.54436
104,-0.753365,3.422746,2.679119,6.53018,-25.750214,-51.121857,-70.362339,-85.478531,-66.250614,-82.74369,-81.323868,-76.662964,-62.120155,-77.928909,-72.891025,-63.254116,-55.863945,-69.055344,-63.709179,-55.274288,-48.398277,-60.020279,-59.277031,-55.710686,18.06202,30.610778,39.217513,48.218673,37.757894,44.633284,46.273856,47.177747,33.141248,38.032473,39.608443,39.584866,25.352496,29.047344,31.252982,32.625286,15.567167,21.116306,25.630854,29.768589,33.817165,61.80328,85.43161,104.279457,63.560314,96.628922,113.933556,126.160194,53.649548,91.111015,112.235664,127.037796,44.173187,77.822548,98.014664,112.412613,35.083511,60.148041,75.231628,87.704842,-10.395238,-9.246989,-3.102971,-2.795009,18.669446,36.621748,45.290444,52.506807,35.787513,55.448535,64.192529,69.914051,48.354673,68.533855,76.99155,81.2629,56.479755,73.816714,80.297506,83.68112,51.188724,293.697261,-97.021214,273.229037
105,-3.634026,2.884584,3.856545,5.906933,-22.284164,-45.7359,-63.207572,-78.301059,-64.495136,-73.236053,-65.417392,-56.590255,-60.799449,-66.637561,-55.624111,-42.23307,-54.267047,-58.099731,-47.436962,-35.634441,-46.086753,-51.813423,-47.644592,-41.854122,18.382751,30.722843,38.734279,48.346768,33.803262,44.3457,48.318314,50.266873,29.010763,38.989605,44.451923,46.61767,22.154294,31.552015,38.136251,41.75401,13.948961,23.181685,30.017307,35.619206,32.568294,59.682083,83.062866,102.040603,61.860912,94.562393,111.838005,124.03347,52.112457,89.085731,110.297172,125.195915,42.678943,75.708515,95.717765,110.13256,33.479839,58.101402,73.13301,85.981201,-10.261066,-9.245753,-2.717734,-2.220631,19.263103,36.025956,44.26025,51.324633,35.916967,54.489971,63.111749,69.00075,47.891792,67.151054,75.706227,80.318477,55.673863,72.736168,79.358085,82.972794,48.449546,296.770717,-92.269821,279.324842
106,-6.871055,2.434769,3.687927,4.741456,-16.985596,-38.014847,-54.278195,-68.933533,-63.259976,-62.783993,-47.157829,-33.040901,-60.42477,-54.201691,-34.917091,-15.442406,-53.583573,-45.872978,-26.86702,-8.701126,-44.525803,-43.575073,-35.228531,-25.670586,25.274814,40.528747,50.417025,61.863823,33.990094,50.093725,57.335653,61.273909,24.841536,39.546915,49.281991,54.619561,14.898855,27.759478,38.060644,44.592072,4.933487,14.110821,21.597985,28.277872,31.578277,58.045452,81.164177,100.322479,60.211704,93.121307,110.321251,122.309349,50.573936,87.639358,108.881584,123.746727,41.161434,74.392135,94.359512,108.657623,31.984314,56.87289,71.998878,85.102661,-10.562235,-9.69894,-2.819079,-2.075703,18.89738,35.321779,43.311727,50.066962,35.35405,53.279033,61.769567,67.454878,47.065756,65.732041,74.307383,78.892684,54.743012,71.757523,78.436584,81.929397,42.47778,299.34399,-87.682605,284.204802
107,-6.926308,3.088533,2.922752,3.417008,-12.250877,-29.638458,-45.020988,-60.182556,-59.493645,-52.592914,-32.844749,-16.869186,-59.615787,-46.696781,-24.236892,-2.85189,-54.780258,-42.310535,-20.353454,-1.131523,-47.450065,-47.832195,-41.330601,-34.118122,19.563568,32.354845,42.762346,54.883803,28.565691,47.111427,54.885891,59.527768,23.438851,38.569233,48.578741,54.191248,16.918613,30.619066,40.420214,46.866575,10.604991,20.19646,27.726343,35.03012,30.802529,56.787369,79.517555,98.637497,58.962925,91.972321,109.064896,120.78685,49.478348,86.461853,107.478562,121.983284,40.070755,73.417935,93.146828,107.036751,30.887741,55.974804,71.176426,84.353233,-11.112591,-10.071208,-2.640262,-1.24742,18.466103,34.715008,42.584023,48.945143,34.889823,52.047916,60.192808,65.312003,46.399062,64.343423,72.426935,76.400747,53.828823,70.479092,76.786218,79.666652,36.422836,302.466118,-83.888489,287.655405
108,-10.186455,3.509288,2.159386,2.145185,-6.929832,-19.728126,-33.059532,-47.059055,-50.671978,-37.554748,-16.914482,-1.871841,-53.935295,-34.790359,-11.873451,8.699295,-51.343677,-34.890369,-12.112838,6.359528,-45.85532,-48.229625,-44.975349,-41.267715,10.72932,20.309723,29.903613,40.943969,22.544656,40.739427,48.078661,52.713771,22.431529,36.904887,45.536928,50.057231,19.776397,32.913859,40.92726,46.032685,16.740821,25.742735,32.474172,38.98779,30.070999,55.41869,77.610763,96.416221,58.052845,91.023857,108.098785,119.662147,48.578499,85.309776,106.073318,120.193909,38.983692,72.163788,91.51355,104.931061,29.691101,54.849598,69.977691,82.883354,-11.432817,-10.287273,-2.389951,-0.321831,18.010224,34.38363,42.319126,48.427118,34.57119,51.525606,59.555123,64.304631,46.112046,63.633269,71.220196,74.533217,53.443425,69.776792,75.536871,77.548119,26.984819,305.939029,-80.980665,289.764213
109,-11.922271,3.68939,1.207546,1.112347,-2.235489,-9.686829,-18.612603,-28.991318,-38.931885,-20.856629,0.351906,14.487121,-44.292103,-21.315628,1.771774,21.115654,-43.897934,-25.384781,-2.835022,14.611496,-40.298584,-44.755131,-44.928772,-44.91053,0.93195,6.577839,14.872117,24.529746,15.262195,32.918441,40.596672,45.689513,20.39789,34.708919,42.583232,46.330927,22.319415,34.877584,41.683072,45.708668,23.38309,32.001768,38.025373,43.711869,29.582371,54.711536,76.44064,94.828548,57.076767,90.0042,107.038387,118.60976,47.580654,84.066364,104.692577,118.705753,37.830872,70.80328,89.866184,102.906521,28.502438,53.624073,68.587761,81.131847,-11.686327,-10.391989,-1.928712,1.272874,17.555556,34.301144,42.321164,48.275546,34.264019,51.355175,59.380493,63.99052,45.797835,63.239449,70.48854,73.294232,52.997415,69.296448,74.611455,75.809734,15.683041,309.52473,-79.152626,290.772871
110,-10.570999,3.638174,0.731506,0.550839,0.126834,-3.34948,-8.268792,-15.666596,-28.084168,-5.528046,15.340095,27.963821,-35.267807,-9.528557,13.50634,31.550857,-37.062138,-17.435921,4.886146,21.715095,-35.419156,-41.817708,-44.827309,-47.276608,-6.924605,-3.923856,4.076935,12.825276,8.464055,24.368355,32.105348,37.991249,17.94525,31.24477,38.68189,42.383852,24.146844,35.891019,41.840498,45.259878,29.305745,37.719214,43.300117,48.353203,29.19278,54.139447,75.523327,93.583958,56.18208,89.043011,106.071453,117.687092,46.635819,82.970158,103.514706,117.497761,36.792115,69.788601,88.747136,101.623295,27.456139,52.714795,67.58091,79.931843,-11.778422,-10.420321,-1.632842,2.444106,16.808091,33.933197,42.122216,48.057184,33.624124,50.994688,59.130626,63.694611,45.287443,62.792722,69.827118,72.26889,52.571583,68.883585,73.995135,74.793889,5.58058,313.052032,-77.952582,291.212838
111,2.285087,-0.135357,0.710667,0.344913,-2.55328,-7.824829,-14.285213,-22.950302,-31.847179,-10.549118,11.285912,25.038918,-39.129799,-15.17482,8.848343,28.093437,-41.084701,-23.678066,-0.399353,17.14888,-39.86681,-50.446312,-55.855018,-59.699901,-5.97145,-3.256606,4.781421,13.218219,8.154129,22.941476,31.050231,37.598208,17.222116,30.003129,37.717485,41.680083,23.011229,34.502314,40.202531,43.603695,27.91604,36.368584,42.701941,48.856827,28.642124,53.435669,74.657341,92.539238,55.298618,88.10289,105.184685,116.876724,45.786827,82.041641,102.647141,116.674782,35.924332,69.066101,88.131775,101.061882,26.59108,52.091869,67.068821,79.458229,-11.971071,-10.507228,-1.403402,3.375055,16.152635,33.362908,41.490558,47.331505,33.077695,50.44632,58.616566,63.20209,44.882805,62.312032,69.192683,71.491564,52.277812,68.466448,73.412644,74.040831,8.226322,312.802943,-76.88126,291.444019
112,0.316498,-0.396932,0.572399,0.243729,-3.597416,-10.309044,-17.134026,-25.429482,-33.069511,-12.739311,8.430016,22.385719,-38.537636,-15.039436,8.85482,28.429298,-38.914959,-20.397537,3.076172,21.219864,-36.137215,-43.181374,-45.73962,-46.783974,2.073357,8.435255,17.346555,25.824949,13.640123,27.70084,35.495681,41.975127,17.76179,30.654226,38.410732,42.945621,19.384196,30.927422,37.675359,42.423916,20.375882,28.768183,35.313332,41.892394,28.208828,52.860844,73.956356,91.749584,54.408886,87.337383,104.545132,116.441311,44.806824,81.10928,101.854763,115.97588,34.887291,68.162373,87.410214,100.46719,25.573757,51.239102,66.28933,78.587025,-12.20366,-10.748586,-1.579823,3.548141,15.547098,32.839931,40.978919,46.855237,32.608774,50.067616,58.297761,62.958348,44.550081,62.040132,68.886388,71.203782,51.987511,68.176752,72.986591,73.49655,8.816969,312.285607,-76.034712,291.567344
113,6.777626,-1.136109,0.505657,0.253399,-7.990528,-18.72924,-28.788094,-39.715313,-40.147739,-24.114693,-2.679543,12.199333,-43.471046,-24.134193,-0.02948,20.35128,-42.626987,-27.802734,-4.456169,14.512184,-39.346962,-48.072681,-51.651192,-52.929371,8.137618,17.302663,28.560789,38.87701,17.018488,30.34172,37.655587,44.032626,18.547564,30.477608,38.410881,43.346283,18.377022,29.688067,36.675805,41.763323,18.015708,26.836729,34.223968,42.144978,27.810746,52.341294,73.34388,91.124703,53.776303,86.606118,103.865914,115.898026,44.116036,80.345238,101.109398,115.278992,34.135254,67.366105,86.679154,99.789391,24.794003,50.412369,65.461785,77.703965,-12.417613,-10.947632,-1.720219,3.713904,15.105731,32.392883,40.556929,46.507779,32.168691,49.708772,58.015216,62.839812,44.134452,61.723402,68.594123,71.031437,51.545082,67.754009,72.516472,73.054874,15.815992,311.032215,-75.307658,291.70346
