takenoko1/special-research/HandMotion_SimilarSearch_自分用/NewProject/handData_new/key/d3_feature/70.csv
,vel_0x_L,vel_0y_L,vel_0x_R,vel_0y_R,posFromWrist_1x_L,posFromWrist_2x_L,posFromWrist_3x_L,posFromWrist_4x_L,posFromWrist_5x_L,posFromWrist_6x_L,posFromWrist_7x_L,posFromWrist_8x_L,posFromWrist_9x_L,posFromWrist_10x_L,posFromWrist_11x_L,posFromWrist_12x_L,posFromWrist_13x_L,posFromWrist_14x_L,posFromWrist_15x_L,posFromWrist_16x_L,posFromWrist_17x_L,posFromWrist_18x_L,posFromWrist_19x_L,posFromWrist_20x_L,posFromWrist_1y_L,posFromWrist_2y_L,posFromWrist_3y_L,posFromWrist_4y_L,posFromWrist_5y_L,posFromWrist_6y_L,posFromWrist_7y_L,posFromWrist_8y_L,posFromWrist_9y_L,posFromWrist_10y_L,posFromWrist_11y_L,posFromWrist_12y_L,posFromWrist_13y_L,posFromWrist_14y_L,posFromWrist_15y_L,posFromWrist_16y_L,posFromWrist_17y_L,posFromWrist_18y_L,posFromWrist_19y_L,posFromWrist_20y_L,posFromWrist_1x_R,posFromWrist_2x_R,posFromWrist_3x_R,posFromWrist_4x_R,posFromWrist_5x_R,posFromWrist_6x_R,posFromWrist_7x_R,posFromWrist_8x_R,posFromWrist_9x_R,posFromWrist_10x_R,posFromWrist_11x_R,posFromWrist_12x_R,posFromWrist_13x_R,posFromWrist_14x_R,posFromWrist_15x_R,posFromWrist_16x_R,posFromWrist_17x_R,posFromWrist_18x_R,posFromWrist_19x_R,posFromWrist_20x_R,posFromWrist_1y_R,posFromWrist_2y_R,posFromWrist_3y_R,posFromWrist_4y_R,posFromWrist_5y_R,posFromWrist_6y_R,posFromWrist_7y_R,posFromWrist_8y_R,posFromWrist_9y_R,posFromWrist_10y_R,posFromWrist_11y_R,posFromWrist_12y_R,posFromWrist_13y_R,posFromWrist_14y_R,posFromWrist_15y_R,posFromWrist_16y_R,posFromWrist_17y_R,posFromWrist_18y_R,posFromWrist_19y_R,posFromWrist_20y_R,posFromBody_0x_L,posFromBody_0y_L,posFromBody_0x_R,posFromBody_0y_R
6,-6.886265,3.52606,0.163971,-0.546245,10.886616,18.567512,23.884277,29.762947,0.749817,20.028603,35.120109,43.812607,-11.116631,9.243336,27.118263,41.037002,-19.349957,-2.772434,13.914825,26.215027,-24.950363,-18.679218,-9.663929,-1.604427,-22.179389,-34.775708,-35.17753,-30.452006,-16.403626,-2.233796,3.072886,5.102968,2.689292,16.839288,19.876988,20.508374,18.532571,29.076071,29.620808,28.667938,31.05222,38.609309,37.122705,33.786207,31.193001,58.581367,82.075607,102.568313,54.259598,88.551887,105.402557,114.638992,43.64328,81.490013,100.177986,110.355034,34.550102,68.981849,86.931564,97.239532,27.608002,52.802101,68.276504,78.67186,-11.035761,-9.17658,-1.421198,6.07939,27.034084,45.014754,46.878172,45.024498,44.163376,61.172997,60.87778,57.210707,53.873481,72.283044,72.606073,68.913337,58.117327,74.458919,75.196935,71.658834,-5.343847,325.892785,-68.545446,292.786104
7,7.892109,-2.962908,0.793384,0.393264,9.446342,14.400913,16.87231,19.937908,-9.213856,10.669201,26.875889,35.786625,-21.707256,-0.636704,17.984928,32.440716,-29.262108,-12.534279,5.111744,18.034252,-33.825611,-27.891083,-18.168389,-9.437416,-21.875182,-33.96758,-33.628595,-28.581672,-14.714592,0.888008,5.794881,7.291748,5.49097,19.865219,22.37646,22.263148,21.716582,31.863669,32.072201,31.066113,34.513676,41.933778,39.610666,35.851326,30.51978,57.587941,81.052632,101.562939,52.940003,86.493245,103.401387,113.191212,42.531006,80.000759,98.772229,109.46101,33.633557,67.956791,85.783894,96.369564,26.956055,52.09013,67.30473,77.846775,-11.010901,-9.47791,-1.641795,5.989555,26.185707,44.219816,46.77984,45.450168,43.382937,60.190152,60.440871,57.03257,53.408747,71.623204,72.264297,68.75491,57.981624,74.173533,75.000877,71.518685,2.195486,323.309581,-68.104838,293.559072
8,-10.725403,3.338659,0.794346,0.525113,11.912018,21.04414,29.031956,37.094547,2.831703,23.741581,38.726681,46.665493,-8.94706,12.554249,30.227222,43.86224,-16.94062,0.746899,16.81834,28.226406,-22.309971,-14.241829,-5.190262,2.192516,-23.187267,-36.845779,-37.375968,-32.617605,-17.323695,-2.984718,1.813067,3.490677,2.32557,16.870769,19.334474,19.509685,18.416406,29.137809,29.033624,27.844422,31.14061,38.594255,36.511204,32.760409,30.081986,56.8442,80.109352,100.318978,52.207203,85.1651,101.815293,111.832237,41.808472,78.805756,97.443077,108.397728,32.950802,66.914955,84.612351,95.420815,26.2752,51.297947,66.35685,76.924416,-11.198301,-9.962144,-2.213122,5.431406,25.234862,43.163724,46.163793,45.366423,42.500734,59.251484,59.853378,56.68016,52.745189,70.816447,71.670851,68.293511,57.573133,73.63334,74.469935,71.00097,-8.757448,326.940421,-67.538023,294.376366
9,8.080101,-3.124632,0.804909,0.51411,10.396259,16.973866,21.640903,26.463238,-5.758804,14.671886,30.604054,39.229099,-18.131687,2.748734,21.089298,35.420528,-25.927551,-9.275803,7.500584,19.692478,-30.832203,-24.885876,-15.937534,-7.95615,-22.300692,-35.021092,-35.45411,-31.317561,-15.492895,0.066653,4.763822,6.112599,4.894794,19.342896,21.762018,21.523489,21.136981,31.203236,31.32633,30.379177,33.950722,41.224303,38.860337,35.167477,29.678009,56.185387,79.415497,99.527183,51.270321,83.985809,100.531174,110.778625,40.871487,77.851936,96.587357,107.83992,32.116791,66.150558,83.932068,94.966301,25.510357,50.678627,65.74688,76.342369,-11.39105,-10.367512,-2.704323,4.99441,24.308346,42.009472,45.368632,45.061758,41.69331,58.339973,59.222992,56.218723,52.194017,70.060152,71.033684,67.663458,57.268369,73.118848,73.879761,70.265769,-0.817543,323.997521,-66.87331,295.072208
10,-5.684029,1.952227,0.642059,0.411443,10.912949,19.39404,27.437313,35.668957,-0.155193,20.213917,35.944622,44.839817,-11.904705,8.991555,27.571438,42.134068,-19.533508,-2.324867,14.463696,26.662274,-24.399868,-17.277019,-7.79552,0.244275,-22.783753,-36.272785,-36.428581,-31.578037,-17.285015,-2.878607,2.228486,4.097844,2.627443,17.079843,20.007454,20.224878,18.958957,29.487983,29.880468,28.828599,31.984218,39.352426,37.451859,33.887008,29.427246,55.759003,78.971649,99.107277,50.489559,83.03302,99.550324,110.010544,40.034787,77.117478,96.005219,107.484192,31.366562,65.531845,83.444527,94.689972,24.866833,50.149258,65.216812,75.834297,-11.553157,-10.670286,-3.243354,4.391108,23.41436,40.918589,44.533507,44.662319,40.883811,57.502539,58.531523,55.600614,51.625987,69.399139,70.403941,66.978337,56.915712,72.668737,73.441642,69.771111,-6.614417,326.050626,-66.344096,295.584529
11,-1.730506,-5.054321,0.481705,0.336725,13.178936,22.511249,30.012371,36.386936,1.389026,22.316905,38.669185,48.40726,-10.643372,11.301109,29.51382,43.233798,-18.361863,-0.447602,16.619625,28.334415,-23.103802,-15.242077,-5.229596,2.976322,-20.470928,-31.171521,-30.78531,-26.695691,-12.026325,4.339893,9.654739,11.699863,7.221884,23.14671,26.168108,26.439723,22.503703,34.773608,35.490185,34.617553,34.410985,44.043951,42.489149,39.080045,29.233578,55.405895,78.592255,98.647087,49.861198,82.191811,98.681969,109.258827,39.328732,76.412544,95.429443,107.126358,30.667168,64.901711,82.938538,94.347954,24.169807,49.521835,64.647743,75.349663,-11.626133,-10.861145,-3.662652,4.02688,22.625178,40.079055,43.922981,44.34859,40.120107,56.857951,58.070371,55.163409,51.025761,68.859761,69.851584,66.250041,56.489894,72.199792,72.940722,69.090671,-8.450019,321.056892,-65.967487,295.981841
12,1.618881,-0.701324,0.371475,0.338602,12.602085,21.491718,28.126659,33.809589,0.281776,20.067157,36.383342,46.507267,-11.759823,9.361713,27.618633,41.660419,-19.535786,-2.576557,14.559437,26.59132,-24.363728,-18.603676,-9.872601,-2.317681,-20.047284,-30.308152,-29.738381,-25.713489,-11.573151,5.268829,10.860045,13.0561,7.466699,23.680209,27.105763,27.601199,22.648841,35.160425,36.323889,35.70063,34.496411,44.198796,43.177654,40.220044,29.074379,55.165364,78.364723,98.474739,49.461708,81.658333,98.092392,108.747322,38.845951,75.920403,95.0495,106.9655,30.12529,64.391167,82.529068,94.082382,23.52023,48.980049,64.15947,74.928955,-11.630221,-10.884708,-3.958078,3.467261,21.97276,39.240398,43.264747,43.946027,39.420944,56.135163,57.540738,54.735071,50.428573,68.253903,69.293163,65.62467,56.048021,71.704615,72.407323,68.435746,-6.920597,320.396767,-65.685471,296.361642
13,1.296135,-1.47954,0.394455,0.478738,12.227234,20.399448,26.642177,31.850269,-2.685459,17.328586,33.901279,43.956653,-14.720135,7.163852,25.870227,39.96548,-22.054139,-4.094536,14.130695,26.744648,-26.411671,-19.650822,-9.683499,-1.351994,-19.804629,-29.673444,-28.54708,-23.978105,-10.012496,7.038238,12.626119,14.77365,9.020895,25.257364,28.616018,28.958597,24.00877,36.563765,37.642224,36.957795,35.59127,45.568531,44.232178,41.03946,28.714874,54.739277,78.055275,98.328255,48.766926,81.254585,97.966622,108.686165,38.132183,75.83693,95.202049,106.976967,29.545876,64.452896,82.806359,94.232872,23.192677,49.161862,64.476906,75.102699,-11.903417,-11.219852,-4.452217,2.856834,21.366841,38.695958,42.815192,43.525704,38.892769,55.775677,57.058987,53.964365,50.073175,67.952661,68.716291,64.673343,55.8016,71.348736,71.893868,67.668535,-5.712873,318.942523,-65.379427,296.865676
14,-3.688706,-0.634782,0.133736,0.014672,11.428757,20.132733,27.910801,33.389775,-0.95581,21.870381,38.235111,48.083782,-12.303234,13.227356,31.655766,44.594593,-18.667156,2.578984,20.486767,32.150952,-21.841873,-11.673111,-1.208027,6.73581,-19.601902,-28.478462,-26.315975,-21.321343,-8.169209,7.615543,12.911505,15.199506,10.724429,26.382728,29.28701,29.141946,25.362549,37.731429,38.173722,36.977086,36.553922,46.162311,44.459519,41.017514,28.423633,54.444809,77.770386,98.082687,48.36454,80.966377,97.842727,108.609283,37.726719,75.768333,95.175476,106.851997,29.250526,64.571663,82.991775,94.374985,23.078533,49.338501,64.70327,75.311645,-12.088606,-11.442845,-4.765872,2.372846,21.490848,38.936179,42.924305,43.455976,39.052319,55.849753,56.928273,53.655687,50.216905,67.91461,68.405328,64.186676,55.895288,71.293506,71.779976,67.550653,-9.475851,318.321117,-65.319963,296.893724
15,0.340531,-0.138543,-0.100594,0.090526,10.912582,19.395549,26.411647,29.913173,-1.030369,22.418026,38.674953,48.465717,-12.398129,13.925834,31.93626,44.69411,-18.577595,2.859329,20.036739,31.502689,-21.513291,-11.637486,-1.954674,5.745094,-18.495533,-25.757653,-22.715791,-17.83426,-7.45593,6.918059,12.269967,15.003708,11.112431,25.94204,29.334867,29.242994,25.484654,37.30398,37.826438,36.736209,36.428482,45.416922,43.389409,40.16106,28.158943,54.292614,77.793206,98.116608,48.20731,80.896935,97.877518,108.682846,37.659142,75.963135,95.358811,106.955658,29.297138,64.962456,83.387215,94.690636,23.261536,49.745053,65.144326,75.714707,-12.286232,-11.683215,-5.008217,2.016028,21.689598,38.970043,42.769138,43.067887,39.307559,55.926743,56.813751,53.376093,50.464462,67.900049,68.010928,63.521254,56.128,71.291777,71.573903,67.199787,-9.190103,318.181564,-65.47534,296.98324
16,13.042888,2.064242,-0.125198,0.021922,6.423661,9.980324,11.865967,12.393814,-13.315647,7.747856,23.810692,33.41835,-24.71616,-1.295139,17.262451,31.33889,-30.484668,-12.020588,5.274056,17.857132,-33.14455,-26.153881,-16.879783,-8.799236,-19.847434,-28.894376,-26.691714,-21.385427,-9.800074,2.928316,7.686914,10.151459,9.894182,22.407187,25.407541,25.097393,25.288918,34.178915,34.293178,33.278075,37.04611,43.568942,40.807958,37.361395,27.940544,54.229168,77.850769,98.207886,48.226581,81.15834,98.253639,108.981193,37.735279,76.516205,95.879631,107.19873,29.492615,65.649216,84.044403,95.129974,23.686855,50.524406,65.92337,76.313003,-12.551784,-11.931563,-5.219738,1.682217,21.943182,39.174832,42.707548,42.736064,39.653916,55.977168,56.576332,53.038874,50.849031,67.91666,67.754948,63.237646,56.506666,71.458972,71.595453,67.255622,3.809171,320.243774,-65.644152,297.00313
17,-7.349773,4.007701,-0.262528,-0.104988,8.027973,14.007236,18.767177,21.681805,-5.31863,16.832004,31.963886,40.800075,-16.003533,8.464016,26.124813,39.126858,-21.661148,-1.412327,14.606335,25.785267,-24.463486,-14.322636,-4.944512,2.4398,-20.576176,-30.83203,-29.955965,-25.737288,-12.254394,-1.763901,2.239156,4.381488,6.826273,18.692356,20.864772,20.193027,22.070017,31.016231,30.238114,28.533185,33.506687,40.267098,37.229447,33.168468,27.759716,54.24487,77.975281,98.302941,48.435334,81.53991,98.731614,109.33841,37.999661,77.163758,96.456002,107.47062,29.858448,66.397728,84.726883,95.591973,24.26072,51.32951,66.700745,76.911553,-12.833206,-12.248627,-5.462071,1.446762,22.284797,39.65793,42.890144,42.556766,40.093357,56.225664,56.55651,52.891908,51.291176,68.103405,67.739214,63.196051,56.890802,71.712223,71.777283,67.477145,-3.576633,324.250957,-65.942711,296.897624
18,10.598327,-1.746203,-0.32365,-0.407726,5.345879,7.518185,7.310795,6.340817,-14.480335,5.664998,20.91853,30.550496,-25.078491,-3.012554,14.651562,28.311665,-30.417881,-13.168338,2.671292,14.367428,-32.786533,-25.709232,-17.198421,-9.860275,-20.120989,-29.726439,-29.090656,-25.273122,-10.633668,-0.222672,3.414452,5.454463,8.797062,19.834146,21.746939,20.957633,24.198035,32.082389,31.358057,29.863178,35.669891,42.03479,39.011341,35.139294,27.789024,54.413921,78.134617,98.235615,48.865654,81.797962,98.858654,109.394268,38.44273,77.402836,96.519047,107.544994,30.212792,66.598309,84.74857,95.598461,24.472904,51.359608,66.652279,76.921909,-12.701109,-12.09961,-5.344115,1.575587,22.944304,40.331183,43.410392,42.890379,40.710589,56.611975,56.955777,53.462062,51.78681,68.401709,68.111199,63.775159,57.29675,72.044576,72.082886,67.867544,7.001987,322.50852,-66.286068,296.493664
19,-0.478786,3.940071,-0.353874,0.07683,6.597347,9.4132,9.038933,9.115768,-11.602089,6.085648,20.846993,30.425972,-21.991745,-2.879974,14.376892,28.620598,-27.787582,-12.763481,2.240891,13.892807,-31.016945,-26.171642,-19.312031,-12.854073,-20.932303,-32.329243,-33.86195,-31.826248,-14.617323,-4.796105,-1.27275,0.630188,4.264558,15.393168,17.370811,17.00163,19.844088,28.157472,27.673979,26.254114,31.36385,38.355095,35.851474,31.933942,27.949676,54.678188,78.473957,98.550442,49.335823,82.266277,99.255352,109.715504,38.933784,77.907429,96.954265,107.89722,30.662578,67.047008,85.104252,95.836635,24.888027,51.780807,67.024143,77.182056,-12.801663,-12.295458,-5.611482,1.393497,22.862164,40.219291,43.288113,42.7651,40.627658,56.440025,56.780739,53.380489,51.725072,68.256991,67.98918,63.72913,57.296355,71.978194,71.982813,67.769682,6.505846,326.456579,-66.657297,296.578482
20,3.687195,-0.578638,-0.06031,-0.206703,7.127952,8.467987,5.461784,3.579277,-15.984856,1.557381,17.44915,27.792229,-26.307827,-6.666779,10.93618,24.737366,-31.70089,-15.652519,-0.01593,10.855545,-34.198437,-29.346668,-22.335617,-16.513756,-20.812495,-32.746478,-35.804828,-35.739768,-13.37346,-0.807671,2.61329,3.273822,5.173536,17.988093,19.259348,18.008322,20.138143,29.967895,29.424059,27.485676,31.030335,39.700711,37.689413,33.585777,27.985198,54.673027,78.377506,98.374774,49.638576,82.437526,99.335002,109.759014,39.232944,78.008663,96.963558,107.884357,30.851806,67.009906,84.935131,95.585689,24.938838,51.633201,66.804096,76.911174,-12.682794,-12.131252,-5.434049,1.635694,23.069052,40.581098,43.76553,43.33508,40.784405,56.541283,57.058751,53.897044,51.826861,68.323558,68.383591,64.481534,57.351436,72.092753,72.169769,68.05277,10.178341,325.886157,-66.732307,296.379995
21,-12.097241,4.945356,-0.129982,-0.030641,9.677479,15.258694,15.700619,15.991482,-3.512203,16.360142,31.909985,41.868657,-13.331726,8.55502,25.311757,38.211377,-19.133537,-0.778118,13.532216,23.128773,-22.45388,-15.673976,-9.936023,-5.471534,-20.316466,-33.310124,-38.479078,-41.407628,-16.733028,-5.330802,-2.147445,-1.760937,0.6106,13.895016,15.271556,14.088653,15.17667,26.041507,25.291264,23.14235,26.038691,35.002616,32.985798,28.571903,28.02087,54.733955,78.495517,98.53165,49.904926,82.619647,99.43349,109.911701,39.46384,78.049037,96.918674,107.906101,30.975013,66.943531,84.774822,95.476215,24.907562,51.441352,66.556652,76.689502,-12.607273,-12.029091,-5.318575,1.752736,23.168298,40.671069,44.012223,43.742695,40.805105,56.594179,57.337209,54.375499,51.757713,68.326782,68.587689,64.848986,57.210003,71.978404,72.109599,68.044483,-1.93348,330.84072,-66.876869,296.358561
22,10.308529,-3.000823,-0.006192,-0.099789,7.43882,8.945275,4.371346,0.788933,-12.771583,4.836045,20.567459,31.038781,-22.897121,-3.300293,13.694527,27.338631,-28.727153,-13.486702,1.049446,11.498429,-31.958152,-28.282962,-23.070442,-18.561607,-19.630975,-31.947058,-36.133303,-38.193013,-13.611755,-1.473167,1.684971,2.222027,4.039848,16.624557,18.216853,17.497745,18.505635,28.365508,28.142713,26.700569,29.293432,37.473657,35.31306,31.335913,28.06287,54.707875,78.475891,98.511887,49.97794,82.646279,99.412812,109.983582,39.507214,77.885926,96.692963,107.784714,30.938084,66.700699,84.470124,95.248833,24.737892,51.096497,66.185715,76.405037,-12.455305,-11.826229,-5.076995,2.039641,23.334592,40.773489,44.27659,44.180061,40.877723,56.678802,57.633525,54.851002,51.729506,68.342639,68.790713,65.19427,57.105472,71.923398,72.124321,68.117053,8.365585,327.849548,-66.892525,296.268423
23,-7.246673,2.067613,-0.166397,0.046375,9.425216,13.558891,12.174751,10.884018,-6.026665,13.367592,29.144096,39.032821,-15.934845,5.414406,22.243194,35.224022,-21.876881,-4.637284,9.503792,19.005844,-25.505024,-19.477822,-14.310185,-10.511135,-20.192285,-32.980524,-37.845049,-40.946377,-15.14251,-3.109997,-0.136246,0.24636,2.183705,15.149118,16.374061,15.485843,16.376877,26.856848,26.225092,24.632833,26.900876,35.3592,33.041683,28.954225,28.123581,54.812073,78.684563,98.862076,50.133545,82.821098,99.55053,110.175156,39.628052,77.914513,96.703034,107.838822,31.02023,66.681564,84.447167,95.276642,24.773094,51.113354,66.17926,76.397026,-12.490194,-11.862365,-5.062793,2.062118,23.196468,40.626498,44.224225,44.247134,40.711343,56.531329,57.629399,54.958188,51.545736,68.18788,68.754539,65.226812,56.900707,71.756733,72.039031,68.096366,1.108424,329.9245,-67.06941,296.322137
24,-4.280537,1.480516,-0.067245,-0.162181,10.300736,16.090405,16.07999,16.158794,-1.064804,18.519482,33.892376,43.633495,-11.048,10.094502,26.71114,39.63525,-17.733627,-0.494373,13.470577,22.896114,-22.308826,-16.083984,-10.77824,-6.920025,-19.762417,-33.082512,-38.716891,-41.771758,-16.027011,-3.995425,-0.79101,-0.269713,0.872533,14.190121,15.780664,15.29927,14.918801,25.757875,25.17426,23.605095,25.592187,33.997319,31.688422,27.650649,28.159916,54.839492,78.728164,98.964729,50.230362,82.8433,99.534324,110.237091,39.683944,77.707237,96.472503,107.71392,30.989467,66.350692,84.079834,95.008506,24.590881,50.666691,65.67881,75.986824,-12.303893,-11.573744,-4.706814,2.374068,23.273952,40.709095,44.494074,44.70799,40.714949,56.665944,57.986181,55.451104,51.477848,68.297462,69.103922,65.730868,56.751197,71.764155,72.157283,68.275059,-3.183146,331.406125,-67.147688,296.161065
25,6.817909,-1.770866,0.030636,-0.033284,8.155953,11.827732,9.16444,8.094006,-6.358268,10.001553,24.867245,34.582478,-16.656692,0.852402,17.834118,31.926716,-23.736522,-10.932529,3.209278,14.180798,-28.902843,-26.266868,-22.335422,-18.617534,-19.253556,-32.716591,-37.807579,-39.293096,-14.862027,-3.56106,-0.644415,0.325067,2.73684,14.350697,15.88081,16.086513,17.34884,26.228969,25.83988,25.056489,28.445241,35.356433,32.943758,29.296125,28.418529,55.119506,78.975345,99.335231,50.030605,82.840656,99.544017,110.229961,39.385391,77.606792,96.469585,107.772571,30.711605,66.250316,84.033702,95.009113,24.353256,50.54948,65.596721,75.932956,-12.26751,-11.457838,-4.463245,2.719822,22.805934,40.3514,44.275626,44.657281,40.29801,56.501368,57.837437,55.219936,51.152226,68.216594,69.045532,65.611579,56.509247,71.663675,72.138104,68.264154,3.623766,329.630785,-67.128049,296.123307
26,4.856198,-3.396161,0.06237,-0.033938,7.210041,9.039688,6.595619,6.009452,-12.956829,3.380081,18.831642,28.286911,-23.49963,-5.823109,12.039528,26.439926,-30.036942,-17.09681,-1.762757,9.648697,-34.334965,-30.96912,-25.499554,-21.068882,-19.880237,-32.606256,-35.880596,-34.649997,-12.361297,0.096355,3.080579,4.130793,5.818062,17.595866,18.70394,18.694801,20.525219,29.327814,28.74389,27.975653,31.419622,38.683804,36.163424,32.547493,28.612495,55.276645,79.062527,99.450496,49.862022,82.825435,99.53326,110.166584,39.124111,77.465114,96.384624,107.684841,30.415592,66.076732,83.918072,94.896503,24.034355,50.32418,65.43156,75.822452,-12.164893,-11.331534,-4.280205,3.025388,22.38471,40.062568,44.108097,44.631308,39.922024,56.350376,57.649851,54.933908,50.85633,68.123709,68.971752,65.508406,56.295134,71.59081,72.16,68.307861,8.470219,326.226772,-67.075424,296.081517
27,-9.265869,3.292149,0.095867,0.071853,8.848949,13.862686,16.140838,19.649574,-5.783226,13.432342,28.880859,37.627006,-15.928895,4.535579,22.537353,36.268524,-22.292061,-5.735573,9.947456,20.662719,-26.426033,-19.640259,-12.841725,-8.246796,-19.935923,-33.206284,-37.648189,-37.335213,-14.864127,-2.382393,1.059736,2.391865,2.498718,15.416027,16.760272,16.897321,16.907497,27.067033,26.089783,24.93016,27.764603,35.553861,33.241827,29.640543,28.807491,55.449635,79.191627,99.576302,49.622314,82.806679,99.543137,110.072296,38.781406,77.347458,96.348221,107.580734,30.064774,65.988899,83.914535,94.854561,23.721851,50.249199,65.429947,75.801887,-12.150209,-11.320419,-4.269152,3.15142,21.843875,39.714913,43.859971,44.473462,39.462194,56.151267,57.377347,54.492997,50.519988,67.992082,68.790082,65.193343,56.064224,71.455897,72.076242,68.166119,-0.806213,329.509196,-66.99012,296.143645
28,-3.763207,-1.791824,0.19083,0.024614,10.337334,17.052635,20.575699,24.958511,-2.74427,17.155815,32.868393,42.39196,-13.239326,8.572094,26.266686,39.872292,-19.757584,-1.796722,13.969185,24.478249,-23.505821,-16.902191,-10.210556,-5.619999,-18.824688,-30.785236,-34.532436,-34.507884,-13.08227,0.881684,4.960064,6.198494,3.852447,18.173615,20.060695,20.101142,17.826257,29.547325,28.964166,27.564247,28.276267,37.366014,35.418616,32.105076,28.98745,55.513344,79.127781,99.532757,49.351902,82.714131,99.447819,109.902432,38.465447,77.213185,96.247044,107.444676,29.804386,65.900311,83.896397,94.878445,23.562538,50.173931,65.40778,75.827213,-12.113962,-11.317221,-4.308895,3.155816,21.323627,39.372556,43.55138,44.249913,39.016726,55.886148,57.031297,54.050839,50.191673,67.773819,68.572227,65.005288,55.82835,71.261642,71.967548,68.131761,-4.577471,327.707421,-66.807341,296.158308
29,12.294228,-5.074205,0.211739,-0.028566,7.991947,10.180778,8.472931,8.50431,-15.499215,2.253845,19.127311,29.599502,-26.631489,-6.406414,12.545196,27.234604,-32.755394,-16.935276,0.15287,12.018951,-35.627037,-30.444146,-22.406834,-16.370968,-18.028514,-28.65497,-30.254083,-28.441227,-9.213853,5.954593,10.223868,11.574757,8.593768,22.276091,24.425573,24.566895,22.891496,33.53634,33.503761,32.591213,33.427339,42.261661,40.36748,37.493677,29.25,55.688404,79.161426,99.604603,48.943199,82.416309,99.269474,109.766819,37.960899,76.949169,96.138462,107.40176,29.359268,65.744373,83.955311,95.033626,23.253868,50.139416,65.506084,75.969738,-12.135759,-11.328755,-4.340301,3.149469,20.732886,38.946565,43.202614,44.007938,38.573556,55.605184,56.690188,53.58639,49.938744,67.61864,68.328152,64.631489,55.716767,71.147306,71.858386,67.975113,7.711367,322.624722,-66.600992,296.121248
30,-6.040261,1.887538,0.147114,0.210495,8.866597,12.883118,14.63926,17.309624,-10.922905,9.322609,25.849182,35.372818,-21.437072,1.063065,19.729729,33.496399,-27.247478,-8.698677,8.158333,19.000489,-29.971767,-21.020301,-11.195079,-4.587124,-19.168576,-29.837318,-31.15275,-29.292877,-10.899899,3.77973,7.868546,9.214149,6.466416,20.787349,22.676146,22.880219,20.587513,32.202506,31.256378,29.844035,30.849283,40.24772,37.844283,34.64949,29.214752,55.610424,79.05075,99.413498,48.926525,82.323394,99.174316,109.641014,37.950862,76.938675,96.147628,107.342422,29.392135,65.823097,84.12149,95.214775,23.349689,50.35073,65.763221,76.203323,-12.371819,-11.684561,-4.824535,2.502361,20.309809,38.504395,42.695704,43.438129,38.209315,55.202077,56.17551,52.968169,49.663435,67.238937,67.729568,63.808145,55.512348,70.700319,71.318354,67.368168,1.661224,324.509744,-66.46376,296.329227
31,-4.06739,2.768382,0.142776,-0.784774,8.969581,14.174606,15.83741,18.375252,-5.103836,14.467964,30.06205,39.48278,-15.087444,6.486008,23.911629,37.201149,-21.399674,-4.214138,10.914459,21.130119,-24.822704,-19.413574,-13.480408,-9.33878,-18.772126,-30.060039,-33.367688,-34.705016,-12.014593,1.825379,6.116711,7.728694,4.693797,18.377132,20.432655,21.054803,18.151509,29.010677,27.880027,26.614872,28.099982,35.892217,33.72169,31.23379,29.316113,55.557438,78.652405,98.935936,48.43745,81.812279,98.931473,109.725288,37.373303,76.419022,95.835274,107.216881,28.91058,65.420197,83.97377,95.108048,23.021347,50.084026,65.567597,75.889275,-12.679545,-11.831391,-5.049455,1.750167,19.942012,38.557229,42.993366,44.015397,37.809197,55.074328,56.24908,53.327656,49.340333,66.957948,67.419779,63.51556,55.292616,70.235351,70.78677,66.850379,-2.420734,327.287098,-66.335552,295.553425
32,12.668266,-9.458953,0.352924,-2.257274,1.862732,0.502281,-3.282635,-5.972202,-20.318516,-5.665935,11.606919,23.664116,-27.588238,-9.680488,9.023163,24.545746,-30.965927,-17.125397,-0.896553,11.941887,-31.425934,-28.28001,-21.818504,-15.494419,-7.949341,-13.051394,-12.652734,-11.431965,-0.663286,14.630513,19.809557,21.700181,11.229954,26.06864,30.117331,31.069473,20.198745,32.188995,33.703968,33.380074,26.300649,35.630506,35.172565,33.978436,29.142964,54.833359,77.367772,97.494633,48.261315,80.894223,98.00845,109.445446,37.101014,74.928074,94.378064,106.6386,28.33247,63.07029,81.597897,93.479702,21.997857,47.315793,62.476708,73.247761,-12.955965,-11.918286,-5.201175,0.735028,19.252247,38.309128,43.509019,45.413056,36.879656,54.971761,57.430131,55.803934,48.532242,66.907226,68.638498,66.051304,54.842122,70.673161,72.190221,69.02944,10.234279,317.909041,-65.995881,293.377047
33,14.577049,-5.242808,-0.43729,-3.465309,-4.958553,-13.510711,-22.630256,-29.56311,-37.099914,-27.806911,-10.315006,2.893113,-41.608532,-29.006332,-9.453163,8.169274,-41.722984,-32.225933,-15.64302,-0.406471,-38.764148,-38.059753,-31.135929,-22.937301,3.01431,2.992623,5.268298,8.75737,8.07252,22.798796,28.994869,31.598761,13.934858,28.269734,34.860825,37.258692,17.733792,29.116678,33.530758,34.90121,19.728639,28.319925,30.342868,31.127827,28.428784,53.504437,75.567627,95.441643,48.065449,79.649071,96.458748,108.238541,37.172459,73.297074,92.58371,105.313065,28.102547,60.933117,79.267891,91.52163,21.040318,45.188713,59.641491,70.400975,-13.912726,-12.847495,-5.87843,-0.577935,17.380295,36.871442,43.611228,47.285649,34.870667,54.230446,59.207937,59.909656,46.777283,66.301022,70.382502,70.006306,53.658304,70.632887,73.984984,72.580557,24.784475,312.841036,-66.460024,290.086541
34,0.108696,-3.849236,-0.686107,-5.428961,-10.699642,-20.306945,-27.352535,-31.830711,-37.626033,-32.931266,-18.48825,-6.613025,-36.680511,-28.196846,-12.514434,2.272019,-32.106548,-24.789138,-12.424484,-0.530044,-25.314262,-24.296779,-20.096626,-14.831611,8.016043,12.66123,17.94688,22.412089,12.145836,25.930541,33.331242,37.063326,14.289551,29.027374,37.444264,40.641009,15.049662,28.244712,34.612847,37.220567,14.688335,24.724692,29.034315,31.779009,27.413074,52.056713,72.969303,92.089817,46.474639,76.911129,93.072017,104.569301,35.478538,69.712852,88.309925,100.582271,25.830173,56.717342,74.653633,86.775638,17.770683,41.095893,55.141868,65.864513,-15.045055,-14.125728,-6.986565,-2.190781,13.195693,33.544899,42.31799,48.32239,30.352761,51.301366,59.29009,63.0952,42.711945,63.65908,70.248615,72.595649,50.673179,68.302378,73.335913,73.899546,24.866958,309.290277,-67.172344,284.956057
35,19.460816,-21.002909,-0.103901,-6.902029,-19.015103,-32.907486,-41.893055,-47.35421,-46.995243,-50.041855,-40.401375,-31.19624,-41.520344,-41.592316,-31.892487,-21.336731,-32.979069,-32.891499,-25.905029,-17.630425,-22.723789,-26.567379,-25.946022,-23.349106,12.735195,23.392044,32.927975,39.527847,21.595614,40.020949,50.569735,56.629994,22.459663,42.165602,54.624365,60.483664,22.283711,40.350251,51.226092,56.716902,21.313032,35.130637,43.065577,48.777157,26.631282,49.900898,68.696342,86.129493,42.164051,70.783779,86.060074,96.902801,30.725338,62.141716,79.638874,90.7481,20.492202,48.136184,65.355331,77.139656,11.744259,32.323391,45.65934,55.96408,-14.059161,-13.153467,-6.451522,-1.78303,8.5633,28.96103,39.409546,47.238312,23.839513,45.66853,56.247067,62.079394,35.619342,56.988159,65.707107,69.965119,44.12146,61.428001,67.629694,69.47944,44.236433,288.950367,-67.367586,278.717027
36,29.404312,-30.594649,-11.587395,-22.488895,-28.315201,-48.571472,-60.239765,-67.26107,-64.761875,-75.420525,-69.097206,-62.044819,-54.936642,-62.923599,-57.24733,-49.916267,-41.455112,-47.82534,-44.273735,-38.649811,-26.403191,-32.29248,-31.654884,-29.449059,18.013435,36.131451,52.486764,64.841551,32.456943,56.60501,70.331546,78.406264,32.188724,58.316818,75.148115,83.48142,31.193974,55.909663,71.701207,80.060632,29.635517,49.509467,61.123374,69.551749,28.454281,52.681629,71.467873,88.003944,44.864788,72.803719,86.887413,96.450073,32.382591,62.881645,79.547756,89.77343,20.775021,47.991222,64.801781,76.051483,10.640865,31.721146,45.113068,55.233719,-11.847594,-8.859912,-0.782019,4.936822,9.514245,32.963087,45.380872,54.255135,24.042165,49.847675,62.849632,70.057547,35.79869,60.427793,71.149702,76.540056,44.780596,64.23168,71.899685,74.816923,73.436171,259.70007,-79.159555,257.572484
37,15.633797,-26.50955,-14.928406,-30.256899,-29.93953,-49.312409,-58.783242,-63.317128,-61.543476,-75.114819,-73.588875,-70.366505,-49.505024,-61.957558,-61.707367,-59.321892,-34.490021,-45.383915,-47.26339,-46.930619,-18.529656,-27.494477,-30.36351,-32.486092,12.095263,30.858484,49.393784,63.440533,30.315191,57.984106,73.922072,83.728495,33.080906,63.63743,82.505688,92.722133,35.374279,64.61731,82.258971,92.254769,37.079998,60.352345,73.806994,83.544404,30.696808,55.967411,74.538014,90.460568,46.745407,73.245438,86.451016,94.997406,32.91108,62.122524,78.03067,87.307766,20.012478,47.248673,63.748707,74.371239,8.670307,30.938153,44.421444,54.051865,-8.798433,-3.405621,6.534133,13.791794,11.228535,37.551809,51.859639,62.012691,24.40464,53.382626,68.385025,77.020178,35.543439,62.8502,75.288054,81.876786,44.507351,65.563574,74.45535,78.743693,88.760926,235.276199,-94.397003,229.401264
38,18.145797,-34.68244,-16.242611,-37.265163,-32.988555,-52.994728,-61.594333,-65.798309,-58.720424,-74.501781,-76.362865,-76.097316,-43.899948,-59.231712,-62.778099,-64.557083,-27.335105,-41.662628,-47.19667,-50.813713,-10.953987,-22.112182,-27.547988,-32.669128,5.407026,24.757642,46.308647,62.154963,26.855118,58.771115,76.306503,86.971787,33.696779,69.812718,88.979725,98.832411,40.152081,74.79468,92.75743,102.510932,45.754955,73.161307,87.117666,96.490242,33.337406,59.426125,77.34343,92.604172,48.219292,72.739712,85.076763,92.640301,32.48378,60.033222,75.006226,83.495076,17.91774,44.685288,60.625042,70.634651,5.205162,27.708859,41.487614,50.778397,-4.57489,4.023428,16.072694,24.82022,14.226554,43.846238,59.491088,69.923079,25.552592,57.702672,73.548359,82.288797,35.71009,65.626856,78.580956,85.027897,44.339587,66.71764,75.878598,80.19132,106.463613,203.363139,-111.082724,194.905481
39,23.58181,-41.323345,-17.042061,-42.285472,-34.007766,-56.602249,-67.163612,-73.49073,-61.947326,-77.467781,-79.19918,-79.198242,-46.682785,-62.837768,-65.430954,-66.557212,-30.0783,-46.30957,-50.681671,-53.07312,-13.706131,-27.492874,-32.50756,-36.387336,4.659433,25.230761,47.966232,65.367102,25.440058,62.52278,81.356063,91.721252,32.434459,74.698985,93.714605,102.327552,39.836864,79.386471,97.322373,105.482813,46.899586,77.600415,91.486329,99.454281,35.884392,62.265461,80.04403,95.073121,51.034092,72.544693,83.526982,89.808941,33.593148,58.556832,72.671723,80.50684,17.410172,42.836026,58.033116,67.319069,3.501366,25.22065,38.679154,47.214329,0.154734,12.827561,27.192751,37.556002,21.105346,53.876778,69.282196,78.082976,30.734119,65.869918,80.815074,87.723339,39.424847,71.858399,83.996517,88.832883,46.63096,71.123705,79.746248,82.864459,129.50802,165.354269,-128.662188,155.934484
40,9.868081,-27.954418,-17.094989,-43.949009,-33.107895,-56.677208,-68.966835,-76.102181,-59.975213,-74.45263,-73.189682,-71.067009,-43.914689,-58.80304,-57.550026,-55.579537,-26.956032,-42.416703,-43.754883,-43.528473,-10.722794,-24.379464,-28.006737,-30.02987,4.838491,24.271975,46.815643,64.598798,19.005153,55.816864,73.05159,80.741986,24.182672,66.973731,83.059022,87.813878,30.804341,71.105723,85.965107,90.40758,37.980579,69.233685,81.023951,86.165031,37.468414,64.664829,82.737636,97.824279,54.680305,74.167133,83.702762,88.543979,36.022899,59.15879,72.492759,79.765869,18.369037,43.120296,57.684482,66.021492,3.075439,25.290012,38.820739,46.824211,3.270314,20.182511,37.725012,49.386985,28.726464,66.48807,81.297103,87.556483,37.780409,78.096901,91.935575,96.777709,45.630732,83.050235,94.619767,97.979286,51.835235,80.776263,89.396016,91.664973,138.804869,140.819088,-146.328409,115.404712
41,11.775764,-28.124237,-5.29469,-29.857405,-34.399338,-59.803139,-73.72673,-81.630684,-62.339561,-76.023926,-73.534149,-70.307968,-45.557831,-58.919495,-54.070152,-50.36412,-28.215042,-42.556755,-40.412888,-38.134232,-11.846489,-25.529823,-26.795036,-26.32608,4.470927,21.642327,43.42326,60.909692,8.756597,45.42732,62.49351,69.026271,11.873449,55.858045,67.498189,67.01209,17.977551,59.053265,69.361588,68.879398,25.262315,57.214813,65.755599,66.585975,36.215893,61.445309,77.560307,91.786618,49.497471,66.413624,73.075219,75.621998,30.431809,50.039063,60.663678,65.285225,12.415867,33.126,44.967053,50.74775,-3.318019,15.415307,26.783833,32.485566,3.773302,21.457422,39.940741,52.305884,28.524534,66.146208,76.438828,79.180769,36.246473,76.50114,86.098599,87.710582,42.827727,80.557562,88.319484,89.063391,48.318864,77.515632,83.662509,84.061602,150.059017,116.418305,-152.144715,89.270761
42,8.160187,-22.897374,-0.167472,-23.015435,-35.329491,-61.186775,-76.131386,-83.449791,-63.905709,-76.683884,-73.43866,-70.317467,-46.858841,-58.601097,-50.860451,-46.074692,-29.08342,-41.467484,-36.760803,-33.422699,-12.40876,-24.482163,-23.826256,-21.762131,4.024008,18.584311,38.829974,54.383921,-1.535017,34.266248,50.07904,54.582763,-0.033531,42.839823,50.233416,45.17163,5.312845,45.828766,51.499726,46.473304,12.337701,43.781215,49.086816,46.411041,33.763733,56.682003,70.683128,83.35897,43.081112,57.401493,61.640888,62.273037,23.998592,40.182346,48.22998,50.321594,6.036174,23.082916,32.369327,35.412609,-9.389397,5.903171,15.228527,18.671562,4.112726,22.041841,40.826971,53.470621,26.798327,64.844034,70.085662,68.451302,33.483822,73.865034,78.31233,75.880599,39.115367,77.047076,79.912592,76.83103,43.893978,72.963614,75.670771,72.86193,157.793673,96.607069,-152.737718,69.341464
43,4.580566,-18.564626,1.929107,-17.701583,-35.70932,-61.090233,-75.663597,-79.849754,-63.862381,-76.009964,-71.703483,-68.753311,-46.528656,-56.804214,-47.971298,-43.187073,-28.404121,-39.217872,-33.353897,-29.719116,-11.39051,-22.28865,-21.12117,-18.8031,4.284682,16.195695,34.414116,48.236433,-9.412473,24.589039,38.487482,40.669272,-9.372755,31.422408,35.995359,28.048729,-4.58716,34.255584,36.566624,28.38149,2.310077,32.61424,35.064095,29.678811,31.742318,52.39428,64.271233,75.487461,37.726422,49.011406,51.323719,50.473801,18.274121,31.216713,37.381874,37.364914,0.289341,14.052246,21.268147,21.777386,-14.822319,-2.390957,5.199028,6.563542,5.152084,24.094604,43.165521,56.360731,26.461454,65.120701,64.496046,58.105582,31.414467,72.205615,70.953768,64.585182,35.651823,74.046809,71.752639,65.116075,39.591061,69.100792,67.993293,62.178577,162.040758,80.50696,-151.142092,54.104398
44,0.168503,-14.908488,2.638916,-12.17397,-35.229881,-59.589684,-72.679939,-73.672623,-61.112801,-73.072952,-67.570267,-64.760696,-43.376541,-52.567337,-43.815079,-39.991425,-24.952126,-34.552345,-28.696518,-25.74971,-7.724854,-18.002335,-16.880013,-15.005402,3.960276,13.93227,31.239811,43.92145,-13.574568,19.710207,31.056203,30.487333,-13.99331,26.05282,28.081111,18.090975,-9.334977,28.691687,27.987689,17.996738,-2.393996,27.153416,26.810806,19.569064,30.177349,49.554142,59.413422,68.052018,33.267369,42.772637,43.631848,42.140374,13.518105,24.298668,28.728184,27.303921,-4.481277,7.084168,12.35471,10.855477,-19.33184,-8.629909,-2.727985,-3.28347,5.746555,25.459115,45.185611,59.44522,25.125841,64.054598,58.738128,49.08305,28.580468,69.527852,63.677575,54.75012,31.885258,70.309359,63.787632,54.67852,35.62724,64.841267,60.623819,53.065927,161.84602,67.391068,-148.866417,43.723024
45,4.153107,-13.567183,-2.842014,-3.057361,-36.739975,-61.666764,-73.670105,-72.385277,-63.36985,-74.16877,-68.138878,-65.85466,-45.024262,-52.927391,-44.386391,-42.118927,-26.263733,-34.557724,-28.741127,-26.631523,-8.791352,-18.452362,-17.107842,-15.145272,4.163614,12.562423,28.506985,40.655662,-18.610568,14.360281,25.152196,23.568422,-19.66109,21.192686,22.134583,10.868789,-15.131475,23.335839,21.684342,10.914323,-8.058651,21.921779,20.895648,12.684967,30.574619,50.790733,60.702999,66.956417,37.336464,45.384029,43.506947,41.548119,18.153843,26.289242,27.559055,25.294167,0.357124,8.653038,11.142162,8.720444,-14.71637,-7.079807,-3.737892,-5.609791,8.01918,24.727458,40.836202,51.846214,16.096825,48.64924,44.162727,35.667674,16.46474,52.953571,48.453776,39.982916,18.447151,53.67116,47.791064,38.034616,22.006284,48.572812,45.061825,37.454298,164.967676,55.490992,-152.739882,42.33277
46,-2.739373,-7.027957,0.073334,5.437204,-35.112625,-59.118553,-69.871284,-65.950424,-59.387878,-69.171478,-61.401146,-58.771545,-40.339828,-47.497032,-39.634368,-37.867103,-21.298667,-28.808715,-23.859306,-22.341178,-3.851028,-12.717956,-12.237327,-11.291244,4.039669,11.854369,27.334055,39.740528,-19.225682,13.35872,22.082164,17.94606,-20.36418,19.779312,20.707674,9.411683,-15.751931,22.244209,20.289272,9.291276,-8.461294,20.786819,19.421499,11.077351,28.38406,49.596725,60.005287,63.894161,40.936306,47.059959,44.509632,42.419563,22.682281,28.25893,27.879352,25.694298,4.793621,10.864517,12.126823,9.735271,-10.879818,-4.810433,-2.277478,-4.018078,9.879034,22.688435,33.61998,39.846701,4.725437,30.088042,30.018616,25.389126,1.689176,31.246406,31.984984,27.716691,1.90077,31.295979,30.582725,24.936934,4.643192,27.318579,27.482514,23.171514,161.176483,49.675915,-153.718368,48.982854
47,-2.360847,-6.015379,-6.604649,9.994693,-33.160698,-56.739876,-66.486122,-61.83522,-55.708923,-65.101273,-56.152062,-52.724258,-35.683846,-42.937111,-36.355454,-34.949707,-16.394051,-24.342728,-20.502251,-19.071533,0.951302,-8.254623,-8.78627,-8.310471,4.532104,12.41899,27.754161,41.37574,-17.308504,14.879441,23.12958,18.238867,-18.39533,22.715099,24.664127,14.238268,-13.252676,24.898557,23.873463,13.786261,-5.368235,23.338395,22.492958,14.775577,29.074368,52.815537,64.170147,64.490101,50.175659,57.16753,51.760826,48.227566,32.703129,38.271069,35.054936,32.075981,14.708782,19.294258,18.596226,16.19838,-1.954731,2.574852,4.085575,2.5406,12.246558,22.382289,27.780991,28.605427,-3.123324,15.075968,20.097894,18.871062,-9.93151,12.993447,19.639039,18.720705,-11.875345,13.288688,18.0523,15.024344,-9.871538,10.703631,15.065235,13.13325,157.471567,44.760002,-161.667086,60.077013
48,-0.102516,-2.775841,-4.914036,12.900908,-31.908829,-55.525063,-65.250664,-61.375008,-54.266808,-63.540344,-54.111328,-50.165955,-33.918526,-41.48822,-35.100014,-33.632103,-14.441414,-22.820526,-19.39634,-18.038704,2.928909,-6.628487,-7.410736,-7.073616,4.419971,12.167054,27.74714,42.416129,-15.93044,17.146588,25.727382,21.127039,-17.069593,25.627964,27.895359,18.068139,-11.661041,27.629839,27.115711,17.869871,-3.360692,25.55542,25.407157,18.598125,28.31931,53.565033,65.476525,62.343922,54.899746,60.940659,53.470265,49.278477,38.249234,41.356007,36.624218,33.789666,20.210575,21.964909,20.571843,18.790799,2.982663,5.111309,5.791535,4.704106,12.208001,18.612081,19.819931,16.44348,-15.40666,-3.015124,7.648363,10.138868,-24.119563,-5.779344,6.637144,8.436341,-26.59342,-5.130113,4.971748,4.546881,-24.39886,-6.960062,1.396918,1.723775,155.811138,42.889626,-168.139035,73.883386
49,2.25959,-0.17765,-5.846901,5.711444,-31.900108,-55.816773,-65.91877,-63.013001,-55.2705,-64.334839,-55.003418,-50.818176,-34.619133,-42.479393,-36.096611,-34.476791,-14.865234,-23.796982,-20.51754,-19.130241,2.602203,-7.303345,-8.195801,-7.981728,4.532221,12.113553,27.721822,42.914931,-16.003768,17.626414,27.446656,24.025949,-17.505711,26.153448,29.426294,20.360426,-11.979487,28.213633,28.690476,20.094152,-3.41704,25.771121,26.8458,20.907485,29.589741,55.225102,66.784069,59.789795,58.667267,65.168209,55.833985,51.280209,41.914113,45.164669,38.572655,35.568181,23.941052,25.202855,22.445057,21.126183,6.7053,8.078225,7.548741,6.486397,12.955057,17.464838,16.587365,10.104726,-22.565725,-11.07351,2.95254,5.972747,-32.720642,-13.652034,1.734254,2.8081,-35.188411,-12.726303,-0.127681,-1.229475,-32.242298,-14.012064,-3.912092,-4.048394,156.266922,43.595016,-175.789742,80.47787
50,-1.803429,0.096979,-2.322097,-0.998418,-29.802864,-52.091171,-61.781547,-59.159179,-51.317436,-60.930038,-51.790786,-47.248352,-30.787971,-38.814125,-32.883613,-30.831207,-10.937805,-19.857147,-17.253502,-15.890785,6.761696,-2.958687,-4.597137,-5.238601,4.466685,12.692204,28.722173,43.987072,-14.413256,19.601038,29.558946,26.329635,-15.919701,27.392674,31.4642,23.380632,-10.171158,29.552493,30.639109,22.879077,-1.276097,26.825805,28.161498,23.008426,29.31039,54.162288,65.424579,56.815715,57.530182,63.831665,54.282474,49.45943,39.575615,43.044685,36.118881,32.902977,20.547832,23.299163,20.096202,18.368728,2.8969,5.817844,5.48418,4.431221,10.555072,15.964402,17.535166,13.147867,-23.835504,-6.74572,5.762326,6.581748,-32.898915,-9.358571,2.966552,1.477626,-34.188758,-8.639142,1.325109,-1.306503,-30.393213,-10.335117,-2.573726,-4.399976,152.997333,44.188234,-179.577999,79.975691
51,0.34433,0.344129,-4.449005,-9.366315,-29.09079,-50.796455,-60.364952,-57.702804,-49.637672,-59.42688,-50.457687,-45.929031,-29.164261,-37.144157,-31.602013,-29.54322,-9.287819,-18.020233,-15.851349,-14.529968,8.457321,-1.140701,-3.169029,-3.944069,4.384971,12.855657,28.981469,44.215635,-13.64184,20.341851,30.088771,26.854982,-15.009062,28.236876,32.5135,24.971304,-9.121851,30.338446,31.791069,24.66669,0.038334,27.513865,29.016438,24.541244,31.27042,55.389587,65.990295,56.176494,58.615024,63.920001,53.249279,49.18048,38.875041,41.928543,35.079116,32.63348,18.740112,22.196662,18.930805,17.833877,0.639415,4.236167,4.006816,3.411815,10.015115,18.536344,24.972058,24.577288,-19.960845,6.219632,16.483112,13.08884,-27.850047,5.419809,13.377962,6.838575,-27.52067,6.083657,11.82463,4.536741,-22.283296,2.914817,7.315405,1.524106,151.599655,44.613796,-185.769012,70.690809
52,2.116722,-0.032469,2.31895,-23.023665,-29.557548,-51.279556,-60.56401,-56.083946,-49.78244,-59.582817,-50.05323,-45.404754,-29.374626,-37.217788,-31.244453,-29.085892,-9.447258,-17.892929,-15.478821,-13.984382,8.506188,-1.096916,-2.896797,-3.425812,4.027529,12.463203,28.842846,43.806095,-14.659603,20.24349,29.189365,24.770135,-15.700511,28.106695,31.477779,23.064724,-9.686762,30.176352,30.833222,23.025759,-0.455884,27.276084,27.856717,22.687423,31.549484,53.540222,61.984749,53.570927,54.106671,56.869698,47.481697,44.186199,33.206818,34.505528,29.312771,27.759213,12.247307,16.314068,13.960121,12.8638,-6.193485,-0.792057,-0.496239,-1.177643,8.803163,22.84483,37.913098,43.914546,-10.162056,24.485137,31.855901,26.184978,-15.568033,26.0961,29.168492,19.064013,-13.526335,25.653807,26.458829,16.486964,-7.525739,20.653987,21.056019,13.16696,152.341221,44.548948,-184.825218,47.634765
53,2.190079,-0.725635,1.444405,-24.56831,-30.11451,-51.908135,-61.061028,-54.783394,-49.821922,-59.855484,-50.07518,-45.367127,-29.270851,-37.600433,-31.54953,-29.152153,-9.342407,-18.039482,-15.701546,-14.015488,8.465469,-1.584618,-3.399651,-3.712669,3.936928,12.172828,28.347861,43.098608,-16.150555,18.670997,27.397441,22.399042,-17.12329,26.840558,30.101585,21.366013,-10.953331,29.029313,29.574378,21.521322,-1.517949,26.345412,26.503123,20.942307,32.723671,53.959453,62.312702,55.39603,52.277252,56.201671,47.815933,44.828773,30.190899,33.96318,29.464691,27.704441,8.69783,15.986469,13.709942,12.011478,-9.755768,-1.277195,-0.350281,-1.394257,9.609445,28.379366,49.511456,61.078574,3.260194,44.922999,47.827102,38.632127,-0.067283,47.368149,45.113573,31.702576,2.722428,46.717855,42.567511,29.51624,8.674908,40.888814,37.631838,27.350277,153.418877,43.860475,-184.493236,23.103617
54,1.333969,-1.457655,1.822414,-13.138628,-30.333687,-51.890396,-60.844917,-53.228348,-49.120994,-59.299919,-49.436668,-44.888214,-28.304787,-37.114174,-31.298469,-28.987335,-8.414085,-17.333267,-15.318603,-13.747993,9.175736,-1.016922,-3.095169,-3.540665,3.786331,11.769023,27.549816,42.406613,-17.121296,17.649972,25.718361,19.947235,-17.95933,26.01233,28.910851,19.908042,-11.524665,28.35808,28.623644,20.452545,-1.755281,26.072438,25.878881,20.184665,32.228989,53.694958,62.714962,59.132389,52.293709,56.740482,49.133583,45.418019,30.775109,34.715664,30.728874,28.643131,9.148522,17.047074,15.017029,12.703961,-9.879146,-0.622158,1.021145,0.229981,8.454304,29.455885,54.144792,68.663741,9.408434,52.342199,55.771094,48.639181,7.201215,54.79537,51.638948,39.003239,10.177079,53.887256,48.979025,37.011449,15.746552,47.712437,44.113284,34.843787,153.892794,42.426594,-183.530874,9.988763
55,1.689674,-1.01049,2.294014,-1.034511,-30.716125,-52.592102,-61.519065,-53.374763,-49.462875,-59.569221,-49.727439,-45.186676,-28.382263,-37.396957,-31.318908,-28.861175,-8.516899,-17.860267,-15.647872,-14.062522,8.89032,-1.662483,-3.60894,-4.112686,3.368028,11.014803,26.3639,41.388102,-18.070882,16.659909,24.818571,19.048464,-18.706917,25.575458,27.840667,18.012762,-12.093479,28.2009,27.632636,18.413732,-2.275441,26.198223,25.385563,18.698259,31.664807,52.781445,61.069691,57.645596,51.551525,54.808422,48.15588,44.896259,30.603115,33.565727,30.784744,29.180843,9.802288,15.949242,14.947312,13.055809,-8.812878,-1.015079,1.078537,0.46732,9.43437,28.622964,50.104204,62.057379,7.281991,43.446583,49.267202,45.06705,4.206364,46.169789,46.98335,37.810104,6.390704,45.820899,44.599686,35.53286,11.614752,40.396211,39.444687,32.668166,155.016128,41.422464,-181.8032,8.960612
56,1.402543,-0.722999,3.449604,7.73971,-30.700608,-52.690545,-62.050164,-55.082154,-49.752411,-60.009224,-50.497101,-45.898797,-28.725426,-38.031464,-31.662003,-28.926842,-9.029458,-18.80333,-16.386475,-14.762215,8.210197,-2.536812,-4.395768,-4.994957,3.145949,10.418344,25.420243,40.784264,-18.28773,16.206939,24.931426,19.795083,-18.872383,25.517969,27.842514,17.756807,-12.205352,28.415175,27.707811,18.088659,-2.393903,26.488976,25.792258,18.789656,29.296829,50.184952,58.162571,55.94577,49.263268,53.633572,48.169853,44.208504,29.725846,32.578377,29.679245,27.467491,9.865265,15.081551,13.985779,11.71629,-8.329765,-1.285446,0.593983,-0.188804,8.782619,24.459091,41.181133,48.691663,1.19027,28.417694,36.654834,37.13051,-2.871771,30.158586,35.588689,31.468961,-1.876138,29.752824,33.190785,28.974967,2.170762,25.444078,28.268418,25.722295,156.228825,40.528926,-178.543442,16.529783
57,0.238494,0.154555,1.868317,21.419075,-30.485595,-52.512908,-62.469039,-57.300064,-49.639389,-59.889587,-50.749214,-46.205406,-28.599105,-38.171402,-31.847877,-29.198707,-8.971824,-19.178901,-16.843574,-15.43396,8.056984,-2.739852,-4.882392,-5.905151,2.837697,9.954099,25.008361,40.647604,-18.178975,16.104853,25.406244,21.066277,-18.95976,25.402588,28.199141,18.438735,-12.319874,28.37734,28.22951,19.030637,-2.418232,26.484134,26.689232,20.379526,26.873977,48.23394,57.89233,55.288215,48.893406,54.644142,50.122238,46.099377,30.165356,33.19305,29.424007,26.582691,10.884647,15.335838,13.78323,11.574817,-6.981262,-1.084431,0.466392,-0.171307,7.634802,16.197788,24.548481,26.113768,-13.895609,4.162978,14.021586,17.44987,-19.427334,7.16579,17.151992,16.348792,-18.986486,7.342908,15.595511,14.504678,-15.20628,3.843821,10.474364,10.513792,156.256662,40.386387,-176.885782,37.651764
58,-0.704132,0.785614,3.265457,23.43664,-30.194824,-52.241638,-62.462768,-58.923889,-49.712196,-59.477554,-50.553085,-46.090255,-28.60215,-37.873008,-31.418678,-29.013542,-9.076927,-19.375328,-16.895027,-15.834343,7.804459,-2.688491,-4.855499,-6.410453,2.589386,9.691004,25.185232,41.615906,-17.128113,17.465974,26.826991,22.909693,-17.687955,27.110833,29.630293,19.57714,-10.984929,30.259412,29.723486,20.082574,-1.090062,28.384194,28.671661,22.165131,25.349636,46.905327,56.950275,55.159412,50.088558,56.649799,52.432194,47.869148,32.645542,35.788181,30.652199,27.029022,13.901642,17.498428,14.994907,12.722202,-4.012974,0.80508,1.737419,1.3396,5.957797,6.880219,7.183395,2.135249,-30.874928,-21.639055,-7.885435,0.031616,-38.028738,-17.808862,-1.796906,1.063015,-38.011034,-17.061132,-3.069545,-0.859374,-34.082639,-19.401213,-8.435217,-5.565002,155.305893,40.781458,-173.866962,60.697861
59,-0.2406,2.036837,4.92802,20.266862,-30.347603,-52.600273,-63.166741,-61.306252,-50.722298,-60.285004,-51.719147,-47.111664,-29.701882,-38.751755,-32.611725,-30.347054,-9.99765,-20.281357,-18.091416,-17.165703,7.233696,-3.216431,-5.724747,-7.388443,2.359638,9.560687,25.332125,41.678749,-16.908047,17.625216,28.011617,25.150511,-17.502883,27.048508,30.655825,21.55182,-10.901554,30.257091,30.856292,22.201027,-1.147946,27.93391,29.292098,23.841599,23.68895,45.736691,56.576169,53.371434,49.253621,55.850956,51.795399,47.182137,32.311055,35.550362,29.912419,25.943711,13.830563,17.113678,14.459267,12.245396,-3.913501,0.406426,1.237862,0.975071,4.91566,-1.441322,-9.530423,-20.712916,-46.99055,-45.326297,-30.34582,-20.517575,-55.433246,-41.230528,-20.743167,-14.77825,-56.020387,-39.755366,-21.16843,-16.219925,-52.187021,-40.840234,-26.242159,-21.21147,154.979988,42.444019,-169.024247,80.590447
60,-0.864281,1.511218,4.530625,6.886752,-30.292282,-52.575691,-63.165916,-61.585762,-51.195236,-60.274223,-51.683075,-47.180466,-30.143394,-38.769516,-32.94191,-30.936676,-10.237793,-20.183327,-18.384773,-17.667229,7.219002,-3.063972,-5.866836,-7.676742,2.829607,10.249271,26.257609,42.76384,-15.642392,18.800802,29.298051,26.572023,-16.421664,27.988633,32.055503,23.484879,-10.022963,30.917993,32.215468,24.362717,-0.476139,28.069063,30.244598,25.86634,23.385189,46.075962,57.449226,54.804771,47.951694,55.624523,52.773594,48.480514,31.985756,36.498356,30.710461,26.272739,13.959308,18.584736,15.53318,13.067001,-3.730671,1.223327,1.739147,1.639675,1.268662,-7.719209,-18.381171,-31.489721,-53.129715,-53.351881,-41.077924,-31.188966,-61.448885,-49.694885,-29.143113,-21.962738,-62.518748,-48.455518,-29.310506,-23.054794,-59.193593,-48.971634,-33.465679,-27.454276,154.273184,43.498905,-164.336145,87.020867
61,-0.596786,1.693104,2.01804,-1.558704,-30.402123,-52.749024,-63.231217,-61.195015,-51.685708,-60.800698,-52.079522,-47.533013,-30.74936,-39.460167,-33.909417,-31.995552,-10.728035,-20.659447,-19.033997,-18.189171,6.841392,-3.394318,-6.252938,-7.858086,2.97674,10.771544,26.991599,42.81009,-15.831658,18.64608,29.174179,26.433857,-16.838239,27.134366,31.688959,23.820869,-10.664877,29.675012,31.597185,24.523151,-1.275356,26.674158,29.29739,25.682978,25.433704,48.983047,60.641727,56.387729,48.650768,55.57941,54.520305,51.913948,32.924251,38.325862,33.548641,29.26831,15.255409,20.863712,18.446056,16.101139,-2.395752,3.047401,3.992683,4.003223,-0.722875,-11.062518,-23.669013,-37.542948,-55.988957,-57.417596,-48.081088,-39.585182,-63.906946,-53.214646,-32.664054,-25.277809,-65.087435,-51.804662,-32.501249,-26.116126,-61.719247,-52.078414,-36.482582,-30.294036,153.831402,44.754254,-162.163101,85.024408
62,-0.639725,0.973649,1.757984,-5.368396,-30.455727,-52.779694,-63.104347,-60.424668,-51.825165,-61.030998,-52.310784,-47.7407,-31.055649,-39.615509,-34.103714,-32.109306,-11.084404,-20.737427,-19.007401,-17.976814,6.505646,-3.587288,-6.206131,-7.539139,3.245182,11.186168,27.096933,42.70049,-16.197343,18.104146,28.524918,25.674753,-17.235201,26.581434,31.190504,23.462829,-11.06697,29.158032,30.94055,23.744997,-1.685891,26.264871,28.465711,24.458153,26.988109,51.22277,62.727665,57.224819,48.584324,55.422294,54.600769,52.258701,32.892414,39.298988,35.556564,31.510013,15.3647,22.040451,20.279354,18.019764,-2.251648,3.929523,5.454426,5.662742,-2.403282,-13.812566,-27.765881,-41.979171,-59.281377,-60.839809,-51.213649,-42.5251,-66.65408,-57.22917,-36.293063,-28.125639,-67.832574,-55.819099,-36.004386,-28.531975,-64.217396,-55.269138,-39.277782,-32.199097,153.327948,45.1077,-160.268846,79.035809
63,-0.868469,0.133017,-0.122978,-6.835906,-30.660141,-52.924942,-62.954613,-59.477898,-51.562294,-61.042694,-51.801316,-47.001549,-30.839264,-39.336502,-33.552086,-31.404282,-10.874978,-20.110566,-18.1932,-16.9861,6.813697,-3.165528,-5.524132,-6.53254,3.19357,11.211065,26.853914,41.966531,-17.0458,17.400383,27.112753,23.409822,-18.233767,25.534178,29.770929,21.786058,-12.083549,27.994141,29.515283,22.140264,-2.708182,25.193445,26.843984,22.391712,27.40599,52.579765,64.041332,55.54644,47.486675,54.484794,53.955047,51.809211,31.759929,38.314304,35.328002,31.538669,14.338325,21.401996,20.287193,18.246265,-3.228047,3.270893,5.262943,5.626613,-3.715405,-15.337654,-30.268996,-44.771148,-61.527067,-63.869723,-54.318157,-45.313558,-68.79417,-59.878362,-38.770811,-29.762964,-69.874537,-58.210928,-38.188357,-29.665639,-66.01137,-57.119712,-40.854739,-33.051735,152.660523,44.489798,-160.19078,71.448984
64,-0.531235,-0.686541,-0.914246,-6.393798,-30.834435,-53.282295,-63.269257,-58.986649,-51.411484,-61.228638,-51.446777,-46.623001,-30.703446,-39.517548,-33.037331,-30.674698,-11.02668,-20.403122,-17.783753,-16.342529,6.300567,-3.896645,-5.565537,-6.355934,3.258137,11.05672,26.519276,41.813457,-17.527805,17.017894,25.844109,21.078182,-18.563323,25.528497,28.576151,19.292854,-12.341524,27.988689,28.253561,19.479538,-2.983651,25.579157,26.130353,20.236888,27.301186,52.484791,63.645069,54.059143,46.226669,53.431892,53.26878,51.502682,30.522159,37.091366,34.642765,31.162113,13.258289,20.237812,19.550892,17.870407,-4.282436,2.076691,4.507233,5.234447,-4.436811,-16.524701,-32.127647,-46.374313,-62.68711,-65.813213,-56.187558,-46.697236,-69.771192,-61.405462,-40.278744,-30.249366,-70.545141,-59.416753,-39.296005,-29.665195,-66.370572,-57.968731,-41.611244,-33.072687,152.345009,43.062734,-160.889305,64.314663
65,-0.337624,-0.472119,0.606274,-4.287844,-30.854805,-53.413879,-63.768196,-60.137466,-51.528076,-62.076278,-52.273178,-47.240295,-31.046631,-40.617897,-33.85627,-31.125274,-11.55574,-21.407615,-18.333595,-16.490204,5.63292,-4.778,-6.069603,-6.545036,2.666444,10.140393,25.458231,40.551934,-18.659888,15.960974,24.7003,19.806599,-19.451028,24.571001,27.595153,18.353,-13.022662,27.17296,27.327978,18.517713,-3.452318,24.932537,25.252405,19.11773,25.960292,50.952884,61.71619,50.597065,43.817298,51.799266,51.217838,48.995304,27.659488,34.601932,32.072284,28.460231,10.074211,17.337204,16.819335,15.088542,-7.646622,-0.672226,2.161285,2.901935,-3.263793,-15.464211,-31.114526,-44.514804,-63.423051,-65.861946,-54.396963,-43.857304,-70.414056,-60.653947,-39.176357,-28.905843,-70.389844,-58.155747,-37.838849,-27.847447,-65.541998,-56.443748,-39.942025,-31.321427,152.195108,41.981994,-160.095308,59.418198
66,-1.330353,-0.587722,0.509754,-1.414189,-30.768562,-53.162178,-63.588134,-60.332748,-51.211051,-61.37075,-51.486625,-46.605079,-30.606079,-39.895729,-33.151771,-30.633064,-11.072456,-20.641502,-17.693229,-16.167823,6.117486,-4.022163,-5.529579,-6.392028,2.611733,9.714013,24.632974,39.881584,-18.57227,16.111652,24.533513,19.353406,-19.169063,24.757055,27.760527,18.532367,-12.555594,27.579389,27.847867,19.284931,-2.860718,25.194131,25.73725,20.021768,24.679722,49.422455,59.928016,48.184444,41.46381,50.566532,49.033115,45.869785,24.920688,32.250457,29.38472,25.785656,7.096355,14.571064,14.054214,12.539268,-10.621788,-3.428604,-0.445519,0.459697,-2.218717,-14.389828,-29.610681,-41.987638,-64.271107,-65.539813,-51.614854,-39.740114,-71.304541,-59.343678,-37.649727,-27.509673,-70.511937,-55.884277,-35.688805,-26.005069,-64.879219,-53.78133,-37.259878,-29.322048,151.163572,40.923591,-159.286737,57.533328
67,-0.926742,-0.432827,0.112026,0.710327,-30.806259,-53.273735,-63.67495,-60.837044,-51.43325,-61.514008,-51.466347,-46.503822,-30.601868,-40.119209,-33.154793,-30.549889,-10.992897,-20.879311,-17.890732,-16.468803,6.189674,-4.210671,-5.687073,-6.615669,2.611739,9.694042,24.83533,40.394439,-17.511664,17.340824,25.745654,20.603833,-18.069412,25.950635,28.801954,19.4651,-11.540739,28.706926,28.956429,20.436934,-2.02642,26.075822,26.797733,21.226938,23.566532,48.1562,58.504589,46.293091,39.799622,49.108944,47.862751,45.030888,23.115189,30.522949,27.669205,24.064728,5.223907,12.785007,12.403427,10.978146,-12.495976,-5.246075,-2.112568,-1.216576,-1.331123,-13.637054,-28.589051,-40.264053,-63.85741,-64.64248,-50.872256,-39.002295,-71.082857,-57.949699,-36.254544,-25.997738,-69.772822,-53.783621,-33.694989,-24.204297,-63.624994,-51.510397,-34.977409,-27.473456,150.515682,40.420848,-158.895859,58.173739
68,-0.451767,0.761691,-0.258385,2.121324,-30.801567,-53.075043,-63.677124,-62.076187,-51.700012,-61.84227,-52.888138,-48.066444,-30.950386,-40.704186,-34.700249,-32.062294,-11.201248,-21.384293,-19.288948,-17.935799,6.136803,-4.261642,-6.528809,-7.583794,2.616822,9.659246,24.770678,40.151711,-17.429233,16.516346,26.715359,23.583371,-18.270169,24.574774,29.529319,22.227549,-11.914989,27.357909,29.619017,23.110536,-2.38314,24.546264,26.956685,23.376421,23.071873,47.342114,57.304459,45.116215,38.414784,47.768006,46.825653,44.40905,21.674813,29.110062,26.429695,22.896446,3.819683,11.347996,11.052109,9.706032,-13.899353,-6.594566,-3.339111,-2.439342,-1.172374,-13.526952,-28.096906,-39.114057,-63.29558,-63.873323,-50.390139,-38.507328,-70.348496,-57.181449,-35.718698,-24.980777,-68.718618,-52.594993,-32.785201,-22.913175,-62.387262,-50.269083,-33.900266,-26.305391,150.32733,41.327643,-158.890829,60.440167
69,-0.912323,0.846543,-0.323742,2.478032,-30.473579,-52.410782,-62.848846,-61.503983,-51.511414,-61.273155,-52.998207,-48.371521,-30.815941,-40.312042,-34.989304,-32.46991,-10.893562,-20.84903,-19.415566,-18.311691,6.597336,-3.428947,-6.249687,-7.532867,2.936133,10.00075,24.799181,40.264084,-17.027843,15.760094,27.25397,25.637122,-18.068826,23.57848,30.087863,24.31838,-11.790013,26.533787,30.307423,25.36282,-2.248265,23.781639,27.403221,25.280735,22.69542,46.806874,56.52871,44.386986,37.860066,46.819737,46.577671,44.713131,21.047047,28.120983,25.735817,22.271817,3.125267,10.358036,10.291317,9.057701,-14.674289,-7.604713,-4.144695,-3.138817,-1.002536,-13.309159,-27.569805,-38.179378,-62.958435,-63.771528,-51.192271,-39.582953,-70.015983,-56.860866,-35.49967,-24.714028,-68.310677,-52.161481,-32.424487,-22.511069,-61.89287,-49.913161,-33.584715,-25.946208,149.703215,42.398599,-158.926363,63.142612
70,-0.5923,1.045848,-0.567695,2.318061,-30.461678,-52.183159,-62.346886,-60.898407,-51.318284,-60.775704,-53.049065,-48.689736,-30.664811,-39.677056,-34.885598,-32.656815,-10.666123,-20.317772,-19.454705,-18.651787,6.917381,-2.821267,-6.111054,-7.63527,3.025183,10.074901,24.809648,40.46954,-17.099968,15.029519,27.5918,27.15273,-18.255003,22.768099,30.215322,25.27566,-12.024646,25.833754,30.454803,26.282056,-2.487844,23.19695,27.419535,26.011052,22.54882,46.42765,55.985573,44.107498,37.692112,46.556762,46.456066,44.674816,20.859352,27.719799,25.433967,22.088916,2.946842,9.82917,9.912964,8.845058,-14.794739,-8.133911,-4.509201,-3.226616,-1.080113,-13.566967,-27.63875,-38.09478,-63.180996,-64.048688,-51.729049,-40.113105,-70.266059,-56.490123,-35.224022,-24.611991,-68.519554,-51.938605,-32.340895,-22.624165,-62.063789,-49.902731,-33.579337,-25.962078,149.437758,43.699402,-159.167215,65.715628
71,-0.241425,0.440447,-0.360352,1.477447,-30.41629,-52.160316,-62.067123,-60.183861,-51.265389,-60.848099,-53.117912,-48.595551,-30.646294,-39.631165,-34.595512,-32.116676,-10.700958,-20.308868,-19.193298,-18.255112,6.840042,-2.916595,-5.955322,-7.36512,3.036854,10.317259,25.299965,41.309105,-16.837084,15.339537,28.087496,27.83427,-18.045749,23.189787,30.283236,24.926776,-11.863607,26.205739,30.311956,25.512232,-2.371506,23.664419,27.370993,25.228038,22.336659,46.09409,55.478932,43.475109,37.365795,46.16185,46.137703,44.429272,20.424362,27.218846,25.037476,21.756718,2.440659,9.195076,9.410099,8.422497,-15.258716,-8.748424,-4.9659,-3.490459,-1.126958,-13.792097,-27.689212,-37.914037,-63.422447,-64.014664,-51.811066,-40.242849,-70.513061,-55.762673,-34.673869,-24.45651,-68.650218,-51.333198,-31.922728,-22.604572,-62.090163,-49.594146,-33.293618,-25.855552,149.521482,44.321349,-159.202418,67.374575
72,-0.475021,0.397771,-0.480366,1.135015,-30.452706,-51.97799,-61.62941,-58.992371,-50.807145,-60.305878,-52.585373,-48.098259,-30.186173,-38.926346,-34.097672,-31.722359,-10.205292,-19.466057,-18.468521,-17.566132,7.344635,-2.047623,-5.186303,-6.710358,3.009802,10.525587,25.668974,41.516155,-17.340225,15.160819,27.741459,27.207658,-18.64763,22.859848,29.877937,24.437232,-12.379938,25.790424,29.76205,24.852948,-2.678473,23.341298,26.782117,24.531358,22.348664,45.901028,55.055569,43.058957,37.121487,45.963684,45.502831,43.562085,20.002785,26.885285,24.667649,21.477356,1.883515,8.692074,9.01315,8.138707,-15.862907,-9.385826,-5.454425,-3.786987,-1.38043,-14.155726,-27.91649,-38.002352,-64.021258,-63.834451,-50.982634,-39.448843,-70.965642,-55.42499,-34.364184,-24.480469,-68.927051,-51.033078,-31.760558,-22.750247,-62.231849,-49.373499,-33.090366,-25.813179,149.474047,44.854505,-159.255198,68.644975
73,-0.414482,-0.024403,-0.945201,0.69142,-30.358132,-51.831231,-61.335526,-57.401917,-50.529557,-59.622735,-51.370789,-47.045357,-29.732323,-38.048882,-32.864892,-30.782227,-9.688797,-18.529267,-17.120888,-16.303116,7.848701,-1.282929,-4.133263,-5.762604,3.486249,11.115716,26.07035,41.959565,-17.372528,15.537292,27.159467,25.361289,-18.700199,23.632358,29.475972,22.765098,-12.40275,26.310856,29.255591,23.266264,-2.751803,23.897057,26.601243,23.47892,22.345001,45.975334,55.240253,43.125926,37.786548,46.454418,45.550952,43.368839,20.487545,27.036094,24.753364,21.676391,2.226356,8.666645,9.162723,8.492649,-15.467904,-9.499478,-5.531914,-3.732445,-1.34167,-13.976761,-27.700173,-37.911203,-64.351593,-63.285219,-50.255802,-39.216816,-71.50728,-54.666059,-33.726315,-24.778489,-69.363553,-50.186258,-31.168996,-23.282413,-62.565542,-48.540492,-32.279917,-25.850557,149.571551,44.929313,-159.688413,69.435606
74,-0.152024,-0.008059,-1.112744,0.515208,-30.369621,-51.905273,-61.545708,-57.257309,-50.471237,-59.399345,-50.703369,-46.297828,-29.410103,-37.446281,-31.879074,-29.876495,-9.288894,-17.946716,-16.234451,-15.435951,8.298546,-0.803467,-3.430389,-5.078705,3.471775,11.148957,26.10763,41.827605,-17.607228,16.093331,26.648335,23.622027,-18.930002,24.553792,29.299354,21.450796,-12.601567,27.056727,28.875116,21.70477,-2.957622,24.45885,26.27351,22.126556,22.422878,46.14196,55.640648,43.584137,38.380028,47.279148,45.671917,43.015423,21.04866,27.620854,24.996861,21.848923,2.740036,9.124626,9.512856,8.815979,-14.888695,-9.081676,-5.277946,-3.556183,-1.136059,-13.562088,-27.333122,-37.842326,-64.43997,-62.435607,-48.630246,-37.918211,-71.824479,-53.66882,-32.604755,-24.524645,-69.674527,-49.21748,-30.318489,-23.446248,-62.939873,-47.556277,-31.265796,-25.678705,149.911714,44.842911,-160.30897,69.872471
75,0.1325,-0.228736,-0.954128,0.90972,-30.363373,-52.105293,-61.909813,-57.549934,-50.779221,-59.554321,-50.311958,-45.636955,-29.579796,-37.542023,-31.469376,-29.331894,-9.552773,-18.228127,-16.016258,-15.09684,7.918762,-1.376839,-3.563095,-5.033661,3.680751,11.44471,26.445133,42.091292,-17.360893,16.851354,26.365679,22.16423,-18.652928,25.740629,29.381884,20.272827,-12.308722,28.195615,28.851837,20.340617,-2.733252,25.424571,26.401364,21.10271,22.731457,46.749721,56.630447,44.250526,38.955929,48.09914,45.854336,42.695091,21.475159,28.456066,25.547321,22.133983,3.133392,9.849666,10.23539,9.375561,-14.376892,-8.285866,-4.6329,-3.25494,-1.104518,-13.275295,-26.890897,-37.466501,-64.61599,-61.377026,-46.489866,-36.211294,-71.925083,-53.323531,-31.993908,-24.559955,-69.641399,-48.644684,-29.604019,-23.451881,-62.779162,-46.788596,-30.497146,-25.472101,150.474278,44.375748,-160.833034,70.543764
76,-0.440643,0.385008,-0.789105,1.304026,-30.37246,-52.088723,-61.964402,-57.508141,-50.127205,-59.146614,-50.043549,-45.438927,-28.824051,-37.196801,-31.449028,-29.336747,-8.789338,-17.890641,-15.933014,-14.954178,8.637611,-1.012047,-3.397339,-4.776535,3.523577,11.170106,26.194778,41.666282,-17.908009,16.14417,25.623772,21.302064,-19.149149,25.222561,29.054662,20.140749,-12.64352,27.822951,28.709644,20.473991,-2.852604,25.111385,26.255404,21.27879,23.221562,47.426159,57.780281,45.734173,39.676621,49.020768,46.526745,43.080986,22.19014,29.422245,26.319844,22.70794,3.904072,10.737191,11.015831,9.972542,-13.45721,-7.268085,-3.846233,-2.761596,-1.218743,-13.202769,-26.638177,-37.282083,-64.720631,-60.937591,-45.448624,-35.296498,-71.931536,-53.193453,-31.783066,-24.700362,-69.570947,-48.221637,-29.227427,-23.570546,-62.687295,-46.186807,-30.011756,-25.454069,150.394284,44.29998,-161.26149,71.387014
77,0.878151,1.570671,0.343827,2.034448,-30.253945,-52.407853,-63.020073,-59.952118,-51.131058,-60.854828,-51.875199,-47.183579,-30.156647,-39.498253,-33.502854,-31.10019,-10.408127,-20.31054,-18.08574,-16.839043,6.813903,-3.354447,-5.580575,-6.700264,3.377118,10.310466,24.55972,39.741855,-18.977427,14.200538,24.278681,20.530499,-20.059041,23.36115,27.795417,19.312497,-13.458928,26.13291,27.706934,20.033377,-3.687722,23.638471,25.481017,21.016703,23.737335,47.948913,58.711143,47.228313,39.704303,49.467121,47.147701,43.519718,22.108486,29.995273,26.997928,23.143203,3.965984,11.24715,11.57579,10.263862,-13.01968,-6.390805,-3.095799,-2.403946,-1.448924,-13.413301,-26.611569,-37.397859,-65.032422,-61.034268,-45.14267,-34.887581,-72.038006,-52.829892,-31.301327,-24.501372,-69.361262,-47.380091,-28.516859,-23.439407,-62.163072,-45.119501,-29.231373,-25.145361,151.767809,45.186759,-160.422289,72.73757
78,-0.420754,1.137727,1.037224,3.057961,-29.919022,-52.289841,-63.580215,-62.238144,-51.093636,-61.575668,-53.099464,-48.394569,-30.398369,-40.710182,-34.911003,-32.340202,-10.874245,-21.840019,-19.56237,-18.100616,6.156372,-4.720734,-6.825394,-7.723366,2.767931,9.18843,23.400417,38.520092,-19.305322,13.265588,23.593325,20.433989,-19.831787,22.67012,27.408186,19.524646,-12.808975,26.180686,27.890561,20.566252,-2.632427,24.116339,26.048102,21.745148,24.132305,48.102184,59.284366,48.772499,38.81258,49.357166,47.383186,43.720653,21.090602,30.268775,27.626976,23.63134,3.231113,11.650909,12.149219,10.551246,-13.338604,-5.722573,-2.299027,-1.877953,-1.966461,-14.097947,-26.892521,-37.463772,-65.456166,-61.576505,-45.06768,-34.530522,-71.995374,-52.724046,-31.128902,-24.14209,-68.880887,-46.88925,-28.258601,-23.135435,-61.232839,-44.194783,-28.674551,-24.520188,152.013508,45.516186,-158.718612,74.987231
79,-0.160927,1.8324,1.457851,3.583197,-29.683296,-52.537102,-64.724853,-64.930824,-51.549751,-63.060379,-54.648834,-49.756233,-31.295334,-42.850502,-36.937706,-34.022667,-12.055252,-24.326385,-21.735237,-19.849891,4.760491,-7.106186,-8.929962,-9.434578,2.054609,8.02073,22.22096,36.879322,-19.719012,12.584592,22.923815,19.987379,-19.776792,22.03322,26.93146,19.546358,-12.446129,26.038957,27.930755,21.003927,-1.998719,24.316417,26.348506,22.199304,24.62788,48.407101,59.886761,49.809082,37.486301,48.912151,47.231953,43.505779,19.414776,30.195911,28.159481,24.058971,1.719841,11.637016,12.602772,10.725506,-14.347973,-5.605728,-1.842716,-1.768913,-2.832782,-15.28587,-27.474191,-37.327995,-66.738752,-61.6701,-44.379385,-33.946795,-72.445015,-52.428014,-30.956741,-24.146072,-68.426718,-45.747305,-27.577308,-22.867598,-59.879171,-42.699428,-27.768358,-23.932842,152.573192,46.42437,-156.54015,77.646212
80,1.596863,6.109845,1.710892,4.877628,-31.042282,-55.473106,-69.313042,-71.350021,-54.827225,-68.440475,-59.334663,-54.009911,-35.152107,-48.788017,-41.58831,-38.231804,-16.511719,-30.428421,-26.303467,-23.566246,-0.121948,-13.591644,-13.78727,-12.821091,0.615732,5.178025,18.671843,32.292187,-22.992093,9.610445,19.916002,16.628021,-22.484986,19.412601,23.981804,16.125978,-14.680179,23.834554,25.603629,18.423118,-3.844858,22.958445,25.035519,20.606261,25.337207,48.535228,60.098819,51.855755,35.87273,48.204414,47.004593,43.364708,17.391128,30.173881,28.528324,24.124179,0.005161,12.090969,13.25782,10.815456,-15.423191,-5.285271,-1.119049,-1.31535,-3.668814,-16.46681,-28.100235,-37.279903,-67.154296,-61.542634,-43.753798,-33.607261,-71.548338,-51.154826,-30.00983,-23.206669,-66.416718,-43.7145,-26.200379,-21.70556,-56.833511,-40.121466,-25.931894,-22.14082,155.025364,51.716625,-153.973949,81.70625
81,1.542046,5.75801,1.078045,5.784074,-31.904549,-57.995888,-74.033959,-79.174118,-58.617852,-74.204018,-64.23816,-58.151734,-39.478249,-55.273568,-46.906151,-42.728051,-21.247078,-37.02562,-31.595444,-27.986412,-4.945084,-20.346909,-19.342072,-17.454598,-0.922446,2.599093,15.683289,28.674421,-24.426685,8.616566,18.169731,14.352877,-23.316462,18.422686,22.651206,14.67538,-15.076332,23.215209,24.871009,17.548343,-4.048722,22.996965,25.108557,20.544504,26.285305,49.26971,61.241821,54.70792,34.530441,48.40496,47.185466,43.005672,15.702896,31.083652,29.799156,24.915618,-1.258805,13.54058,14.85411,11.599296,-15.832009,-3.861718,0.489223,-0.467171,-4.475206,-17.646501,-28.729403,-37.313717,-67.768434,-60.988158,-41.92827,-32.211682,-70.844135,-50.211415,-28.872695,-22.349561,-64.617681,-41.913302,-24.813124,-20.926436,-54.000123,-37.52817,-23.892315,-20.457294,157.585408,56.818765,-151.877906,86.834454
82,-0.447075,6.716666,1.586872,6.413182,-31.712906,-59.577553,-77.792702,-86.15696,-60.36612,-78.024628,-69.001923,-62.428849,-42.471314,-60.427529,-52.326508,-47.69973,-25.108338,-43.101471,-37.46814,-33.075737,-9.42041,-26.660042,-25.759232,-23.608315,-3.394062,-0.170789,12.970508,25.239678,-23.199475,8.874399,17.843998,14.88377,-20.54091,19.131673,23.564569,16.628034,-11.552279,25.157489,26.884271,20.100019,-0.073557,25.84319,28.034459,23.878619,27.053821,49.082988,61.191764,57.778152,32.321983,48.489406,47.807453,43.71619,13.454887,31.878067,30.861946,25.606418,-2.821839,15.590686,16.924816,12.904083,-16.356091,-1.913189,2.574382,1.102844,-5.41004,-18.564193,-28.421035,-36.232647,-66.624823,-57.448112,-37.688691,-28.865218,-67.480949,-45.878037,-25.092113,-19.217901,-59.597336,-36.688309,-20.403312,-17.353947,-47.533763,-31.550317,-19.127085,-16.439929,157.840376,63.193574,-149.588991,92.905779
83,-0.763893,10.314666,0.703159,6.227245,-31.867402,-61.389611,-81.266922,-92.583664,-63.102631,-82.889809,-76.916565,-71.866196,-46.876076,-67.404992,-60.679642,-56.007569,-30.755288,-50.897301,-46.193734,-41.630654,-15.975655,-34.874382,-34.555962,-32.472817,-6.082645,-3.324075,8.876448,20.043418,-22.901407,7.846198,17.653924,16.900989,-18.195198,19.376334,25.457132,20.884495,-8.301158,26.335291,29.609192,24.825968,3.601876,28.074602,31.236921,28.430655,27.898521,49.465153,61.94014,62.23193,31.757343,51.069008,51.303909,47.372601,13.351559,35.087814,34.849159,29.771667,-2.361351,19.420898,20.910564,16.72736,-15.248177,1.433052,5.769985,3.95684,-5.866808,-18.430911,-26.885073,-33.815662,-63.446547,-50.907182,-30.294116,-21.852995,-61.662689,-39.101651,-18.528001,-12.516253,-51.871902,-29.055131,-13.382321,-10.495637,-38.158951,-23.488498,-12.559564,-10.298468,157.408368,73.027436,-148.553947,98.65222
84,-2.354416,12.095466,0.573956,6.249778,-31.87088,-62.693665,-84.121811,-98.431275,-64.853142,-87.126366,-84.606903,-80.927376,-50.306191,-73.772873,-69.496056,-65.177719,-35.486229,-57.803696,-55.021546,-50.78936,-21.633591,-41.975098,-42.878151,-41.267533,-8.779889,-6.521868,4.82096,15.372481,-22.590554,6.12545,17.762056,20.187877,-15.585594,19.257533,27.778967,26.421859,-4.573914,27.463681,33.203185,31.323169,7.86499,30.622938,35.447361,34.794715,27.934535,49.364307,62.404563,67.814003,31.590683,53.385097,54.952949,51.89693,13.818237,38.316925,39.201736,34.952671,-1.057721,23.261169,25.488555,21.979557,-13.090909,5.931083,10.307373,8.557262,-6.15651,-18.235496,-25.076132,-30.593705,-58.159329,-43.228765,-22.298457,-13.593316,-53.895661,-31.279715,-10.907605,-3.978499,-42.505415,-20.482556,-5.213631,-1.847177,-27.61387,-14.514021,-5.022637,-2.678029,155.179659,84.312975,-147.854284,104.092071
85,-5.660225,12.631572,-0.922875,9.779765,-30.238907,-60.821755,-82.574227,-98.224297,-64.227745,-87.325287,-90.2715,-90.544785,-51.31469,-75.871308,-77.386437,-76.612038,-37.213738,-60.53714,-62.818611,-62.239403,-23.74775,-43.225067,-47.63633,-49.854813,-10.828879,-8.772733,1.591012,11.44852,-17.424342,6.937968,19.30124,24.899341,-8.743179,20.164276,31.431831,35.103776,2.337229,28.988496,37.643891,40.157423,14.217471,32.919355,39.770483,42.526157,28.586735,50.863987,65.631146,74.559437,33.64167,57.800102,61.982746,60.617271,16.982151,43.672268,47.990204,46.077141,3.083233,29.512196,34.491715,33.219223,-7.757183,13.464523,18.730866,18.264427,-8.26604,-19.270464,-24.082902,-28.144869,-52.967083,-36.214585,-15.454795,-6.181278,-46.513875,-23.997668,-4.024812,3.943189,-33.697645,-12.382224,2.641324,6.886554,-17.630391,-4.963505,3.548648,5.724948,149.68269,95.597909,-148.613903,112.525198
86,-7.117516,18.114907,0.996391,9.163816,-29.357105,-59.690105,-81.627468,-97.907272,-64.466755,-88.939144,-97.064438,-100.884063,-53.547764,-79.766807,-86.588356,-89.29977,-40.726581,-65.514541,-72.464206,-75.189045,-28.210281,-47.615375,-55.036102,-60.089859,-12.578041,-10.789107,-1.497081,7.47723,-13.152943,7.431924,21.148926,29.882688,-2.251547,22.110485,35.779889,43.275377,9.461635,32.119671,43.10271,48.846771,21.229732,37.227659,45.619144,50.600593,27.475823,50.335568,66.688969,79.386544,34.600983,59.165314,66.475949,68.702454,19.16716,45.984387,53.670021,55.349522,6.092926,32.412987,40.613594,43.038609,-3.881195,17.311787,24.558415,27.096199,-9.901499,-18.975457,-21.866228,-24.912574,-44.129703,-26.688077,-7.850614,1.948078,-35.8014,-13.370273,4.906892,14.237614,-22.319211,-1.871439,12.367342,18.214945,-6.051935,6.637873,14.346017,17.675049,142.703287,111.707502,-147.479399,119.6837
87,-8.540451,21.666472,1.005181,9.749526,-29.723018,-59.191715,-80.970211,-96.832077,-65.730938,-91.770344,-103.066109,-109.644081,-56.093708,-84.409035,-95.371673,-100.925182,-44.225361,-70.672371,-81.642322,-87.367206,-32.270302,-52.776615,-62.3153,-69.267952,-13.54625,-12.105372,-3.505939,5.13182,-10.409397,8.754803,23.450314,33.595104,2.272029,25.430372,40.524093,50.033546,14.928862,36.371366,48.833846,56.272968,26.883137,42.588533,51.754412,57.610303,26.790081,50.788021,68.969822,83.61383,36.667614,60.826137,70.615299,76.018833,22.495525,48.441364,59.588356,65.014,10.025734,34.44928,45.313797,50.896831,0.448986,19.804538,28.255783,32.828418,-10.94355,-17.95216,-19.098915,-20.750868,-34.57295,-18.768019,-1.879862,8.509923,-25.618418,-5.507118,11.879032,22.785575,-13.033178,5.013448,19.199296,26.904167,1.703181,13.962342,21.734972,26.020734,134.465944,130.992851,-146.17111,127.052103
88,-7.841446,22.323941,1.547813,15.74018,-30.602039,-59.741192,-82.063076,-97.871795,-67.143253,-94.340595,-106.688965,-114.725841,-58.567394,-88.066017,-102.052025,-110.69775,-47.689647,-75.014282,-88.813305,-97.55849,-36.400703,-57.339489,-68.321411,-77.427429,-14.836667,-13.889996,-5.334708,2.613756,-7.027376,10.719189,24.49431,34.284325,7.115836,28.247716,42.624422,52.321602,20.352265,40.048868,52.219615,59.565667,32.020228,46.818714,56.022619,61.742387,27.146702,53.003883,72.796211,88.036904,41.272694,67.423645,76.983158,81.66703,27.769638,56.737782,68.414612,73.390698,15.925667,43.305267,54.7859,60.02734,6.963009,29.26767,37.778572,41.90609,-13.111762,-18.697895,-18.347289,-19.537232,-26.09775,-9.013121,4.209476,12.085889,-15.446106,5.09326,18.297388,26.717273,-2.476216,15.452386,26.1008,32.031204,11.735993,23.938591,29.177378,32.095468,127.184841,150.783293,-144.062954,140.258784
89,-7.615791,22.541642,0.595574,16.894382,-31.09528,-59.848744,-82.576847,-98.245239,-68.689922,-96.41882,-110.133476,-120.288975,-61.261997,-91.296982,-107.747543,-119.35857,-51.475285,-79.299133,-95.388348,-106.874966,-41.00148,-62.523182,-74.75766,-85.889855,-15.885207,-15.687631,-7.62881,-0.840161,-3.856709,12.546797,24.652916,33.502158,11.531756,30.620865,43.547628,52.569123,25.292477,43.177218,54.084737,60.456972,36.822805,50.382405,59.025406,64.176872,28.430133,55.764312,77.162864,92.458168,44.557674,72.250968,84.208454,90.978939,31.974266,62.955928,77.743434,85.02626,21.056911,51.025589,65.276195,72.481658,12.918766,37.225753,47.918357,53.801319,-15.014243,-19.448657,-18.436654,-19.143616,-19.860619,-3.467453,7.567204,14.371062,-7.475283,12.039237,23.064025,30.079663,6.168637,23.095185,31.824507,36.64898,20.23745,32.669043,36.879816,38.756929,120.313437,170.971731,-142.722993,154.799962
90,-7.546028,22.417208,5.848171,18.446416,-32.220898,-61.096905,-84.601834,-101.164879,-69.973171,-97.892155,-111.742493,-121.965592,-63.800457,-94.406708,-111.167336,-123.085636,-55.358334,-83.738869,-100.296307,-111.924992,-46.027359,-68.953411,-81.756661,-93.03225,-17.256362,-17.097503,-8.90574,-2.649762,-2.590022,13.823309,25.177876,33.392694,14.383015,33.12842,44.720918,52.367922,29.409014,47.053113,56.769294,61.711562,41.374731,55.07117,63.08549,67.18946,29.118633,56.779426,77.875969,92.792576,50.795814,80.907429,93.590378,99.812588,39.554764,72.941105,87.75523,94.087612,28.961105,61.091652,75.56971,81.967541,19.968235,46.083286,57.800342,63.494076,-15.189014,-17.788521,-15.971923,-15.874049,-8.233392,7.963024,14.276609,17.190364,4.98114,23.406531,29.273129,32.265862,17.407132,33.348471,37.673309,39.389192,28.972355,40.394427,42.154734,42.249545,113.510462,191.230003,-136.131769,171.087442
91,-6.792732,18.320783,2.594925,18.834925,-32.810601,-61.702767,-85.693566,-102.772889,-70.60286,-97.893311,-111.678006,-121.814953,-65.191361,-95.439698,-112.4301,-124.542435,-57.690033,-85.94822,-102.988106,-115.017163,-49.14029,-72.471039,-85.956482,-97.930481,-17.939582,-18.137047,-10.327164,-4.358913,-0.413098,15.677577,25.937692,32.990701,17.449913,35.181581,45.554971,52.013014,32.812156,49.654593,58.411579,62.398149,44.526085,57.74197,65.240903,68.84236,31.408481,59.871963,81.429085,96.285461,54.713527,89.584339,104.136795,110.316948,44.450557,82.882908,99.463188,105.518383,35.011699,72.096966,87.465042,92.96022,26.811023,57.088405,69.618004,74.36317,-16.033482,-18.556789,-15.8641,-13.745691,-3.089941,14.848146,19.169144,19.585206,12.556391,31.13851,34.45904,34.289424,25.905694,41.984328,43.412096,41.985662,37.090583,47.659005,47.250897,44.663678,107.374764,207.97775,-132.87981,188.349331
92,-5.394425,15.778107,1.173031,19.309935,-33.619125,-62.516281,-86.568512,-104.35722,-71.060806,-97.287414,-111.875851,-123.21682,-66.314278,-94.890655,-112.265407,-125.138443,-59.586365,-86.337204,-103.363563,-115.777393,-51.746429,-73.924118,-87.441444,-99.842068,-18.034418,-19.025697,-12.020731,-6.83745,1.508254,16.629497,25.331785,30.763845,19.360681,34.909867,43.402969,48.195986,34.151744,48.896199,56.227331,59.033752,44.869887,56.597031,63.210056,66.117203,33.78646,63.521072,85.696506,101.180706,59.786499,97.209789,112.980594,119.53403,49.837989,91.501728,109.305095,115.894992,40.995586,81.497852,98.366947,104.81393,33.196048,66.871719,80.694145,86.377544,-16.629201,-19.081569,-15.948131,-12.727439,0.005434,20.269931,24.086477,23.787654,17.556865,37.537458,39.600341,37.97328,32.366997,50.043201,50.517715,47.935844,44.200401,55.658326,54.598183,51.253966,102.633499,222.396462,-131.053619,206.299871
93,-5.789177,14.242251,4.320476,16.163219,-34.19989,-63.190796,-86.874275,-104.585575,-70.842293,-97.149341,-112.631161,-125.162968,-66.631096,-94.869987,-112.531917,-125.847885,-60.568107,-87.24559,-104.051903,-116.212326,-53.198341,-75.358864,-88.645798,-100.567417,-16.862618,-18.183854,-12.382761,-8.743365,4.670813,17.346975,23.464823,26.37423,21.468802,33.81991,39.633859,41.932803,34.903457,46.844702,52.068663,53.169278,44.138725,54.290283,59.177741,60.74472,35.055943,65.302128,88.314308,105.493137,61.424996,100.959469,120.022522,128.881657,51.755161,95.270714,116.386974,125.243328,43.439633,85.197464,105.015541,113.547707,36.182797,70.737991,87.652233,95.558922,-16.947425,-17.964405,-13.4154,-8.265613,5.537518,25.706265,28.355086,27.488122,23.896496,43.285804,44.462372,42.307801,37.957732,55.810529,55.887408,52.754983,48.06168,60.454024,59.815068,56.35434,97.440513,235.696238,-126.136952,221.520615
94,-6.453049,13.765791,4.464775,15.797435,-34.669864,-64.160739,-87.623462,-105.534089,-71.403785,-98.353374,-114.175701,-126.536172,-67.651737,-96.321819,-113.810806,-126.469745,-62.068737,-89.413461,-105.876794,-117.270566,-55.002021,-77.404976,-90.509439,-101.622436,-15.917843,-17.186073,-12.004768,-9.605036,9.040612,20.156464,23.766924,24.062696,24.970335,35.018454,37.653758,37.03844,36.933514,46.971716,49.506046,48.304266,44.380194,53.737974,56.442019,56.063019,36.883747,67.820046,91.400379,109.744126,65.87772,105.276341,124.182083,133.082989,55.865112,98.923302,119.795632,129.11015,47.094052,87.327004,106.861656,115.853325,39.384384,72.282303,89.16473,97.786263,-15.347793,-14.491154,-8.196539,-2.547834,13.805157,34.745969,36.884003,35.6445,31.82121,52.309787,52.992166,50.336899,44.343107,63.760401,64.197816,60.967627,52.334969,66.403775,66.642836,63.707345,91.60814,248.864106,-121.051501,236.720127
95,-7.270362,11.147221,0.978378,10.389816,-33.851567,-63.879994,-87.233242,-105.430167,-71.608818,-100.720436,-116.492375,-127.393038,-68.006092,-98.881016,-115.981385,-126.645253,-62.769391,-92.234282,-108.505515,-118.574072,-55.94426,-79.841263,-92.987738,-102.906487,-14.666087,-15.802665,-10.981156,-9.869846,14.201317,24.760822,25.904378,23.538065,29.52843,38.584875,37.467791,33.252918,40.152032,49.523836,48.505603,44.064137,46.137821,55.266631,55.06811,52.060482,37.662404,69.144654,94.076443,114.076149,64.815091,102.909771,122.054856,133.042775,54.183095,96.029812,117.800423,129.898648,45.492852,84.079136,104.149338,115.478325,38.468045,69.330941,86.288167,96.553002,-13.774985,-12.394481,-5.346783,0.133801,15.872993,37.182183,41.641045,42.994675,34.268589,55.957581,59.544811,59.264007,47.150824,68.020709,71.145268,69.816967,55.334235,71.479301,73.514434,71.895474,84.777661,259.739032,-119.63324,246.837648
96,-6.006501,11.156336,3.835534,11.978444,-32.856845,-62.944072,-85.936454,-103.719137,-74.172935,-101.13977,-111.067085,-116.278204,-71.531524,-99.349948,-108.831871,-112.513858,-66.897903,-93.289472,-102.364568,-105.774416,-60.477275,-82.264011,-90.38138,-94.694343,-13.234095,-14.603831,-9.921729,-9.561169,16.342141,27.518842,28.757136,26.332049,31.089492,40.189002,38.878565,34.240616,41.298083,49.971613,48.368739,43.506345,47.046058,55.818087,54.166837,49.988224,38.138591,69.567615,95.049739,116.21307,67.052444,102.809898,121.058509,132.575191,56.099441,95.437442,116.875442,130.250003,46.803062,82.633197,102.511928,115.372764,39.007198,67.61388,84.167987,95.608989,-12.000699,-9.036284,-1.35021,2.957746,20.832872,40.936176,46.377634,49.064061,38.331012,59.574685,64.184613,64.918937,50.228353,71.149331,75.680774,75.664422,57.462191,74.575268,77.570139,76.848227,79.16435,270.707159,-115.404516,258.627883
97,-6.066902,9.318223,5.731247,10.873222,-30.679653,-59.896946,-81.788017,-97.770555,-75.036804,-98.556793,-102.030624,-101.292726,-73.282619,-97.332767,-98.70647,-95.485416,-69.303852,-91.707659,-93.167135,-90.35293,-63.403438,-82.102821,-84.875467,-84.257709,-11.276977,-11.946438,-6.794848,-6.126721,17.436347,29.543639,31.534979,29.702696,31.097261,40.705396,40.596907,36.938294,40.680283,49.299782,48.31461,43.920296,46.254999,55.235126,53.290995,49.074973,37.816738,68.829826,94.642685,116.454723,68.025787,103.826683,121.731205,132.937877,57.268844,96.457317,117.680339,131.051868,47.853469,83.401851,102.823242,115.620243,39.833839,68.080558,84.519722,96.098899,-11.093918,-7.331206,0.73851,4.349106,25.867581,44.920671,49.947093,52.058228,43.104332,63.41198,67.222796,67.003631,54.085556,74.458622,77.787748,76.584158,60.214741,76.852748,79.079924,77.664049,73.446127,279.862679,-109.32459,269.338402
98,-5.884346,8.159626,4.280994,8.715824,-26.703724,-54.418407,-75.297889,-89.351869,-74.171448,-93.019661,-89.027916,-81.455354,-73.567119,-92.715889,-85.267559,-74.486835,-70.276302,-87.716268,-81.288511,-72.323782,-64.888927,-79.737076,-77.470041,-72.492725,-10.971857,-11.910352,-6.120423,-3.597462,15.575102,30.379776,34.797709,34.864437,29.258345,41.631454,44.182901,42.605487,39.434196,49.911975,50.477306,47.455741,45.992904,56.246289,54.978596,51.619262,36.964588,67.125103,92.681477,114.175415,68.428917,101.478001,118.952339,131.352951,57.992741,94.144707,114.920723,129.698341,48.38348,80.984859,100.12991,114.296608,39.959644,65.611107,81.372906,94.031513,-10.073394,-7.085749,0.237924,3.484156,26.847708,43.642906,50.312494,54.096769,43.3386,62.036699,67.588407,68.551232,53.879124,73.094185,78.150852,77.993191,59.88266,76.302218,79.796488,79.17297,67.824983,287.830125,-104.780394,277.862046
99,-5.013473,5.93306,6.220997,8.015574,-22.921234,-48.770714,-67.83601,-79.168911,-71.466179,-84.36977,-73.997452,-61.191044,-71.729599,-84.673909,-69.580605,-52.631584,-68.911812,-80.476925,-66.520993,-51.813172,-63.758389,-73.845864,-66.502007,-57.209496,-6.571059,-5.099374,2.181889,7.369108,15.542158,32.116623,38.815753,40.739389,26.525334,41.11335,46.983776,47.873624,34.929873,47.06604,50.441589,49.727335,40.397354,51.982534,52.799998,51.34543,34.851253,63.788933,89.122158,110.33987,66.704029,100.140266,117.843052,130.277378,56.915405,93.557831,114.393322,128.90102,47.580814,80.930214,100.093769,113.925922,39.337051,65.594971,81.388801,93.978035,-11.156818,-8.925219,-2.198512,1.232699,26.075198,41.34053,47.461329,50.901396,42.735435,59.562175,64.285563,64.831362,53.201549,70.501433,74.63839,74.189094,59.095638,74.204074,76.99775,75.929702,62.950053,293.563071,-98.420854,285.677506
100,-6.767899,4.627594,5.42102,6.68363,-18.311588,-40.45721,-56.738697,-64.922413,-66.655643,-71.156839,-54.134033,-37.291008,-68.563379,-72.133043,-49.141022,-27.040523,-66.919298,-69.692945,-47.718979,-27.748363,-62.686764,-66.044838,-52.626772,-39.058765,-4.685319,-2.679338,5.139647,12.56695,12.376542,30.21368,39.136689,42.978404,22.398282,38.546021,48.037905,51.728981,30.658375,43.614538,49.866619,51.781815,36.61495,48.812552,51.267755,51.478138,33.038601,61.388604,86.552674,107.886509,65.40778,99.531304,117.313282,129.642071,55.830094,93.205479,113.905552,127.886753,46.615734,80.771222,99.885212,113.114239,38.598027,65.583001,81.568566,93.991093,-12.120914,-10.630778,-4.026658,-0.109051,25.195502,39.695647,45.200153,48.214252,42.080349,57.281078,60.884325,60.719069,52.438178,68.423211,71.63112,70.5237,58.02102,72.195741,74.376457,72.871624,56.268682,298.003431,-92.913306,292.173902
101,-9.933472,4.061905,4.909699,3.989188,-12.79636,-30.427013,-43.544632,-49.41196,-58.06216,-56.712381,-38.663269,-22.893905,-61.831438,-58.928403,-34.811668,-13.069667,-61.920724,-58.755724,-35.201866,-15.464275,-59.313629,-57.973308,-42.553773,-28.819004,-6.301697,-5.115083,2.562185,10.85918,8.553167,26.391774,35.009019,38.488939,19.655576,36.21414,45.258149,48.378255,28.80343,42.232268,47.613927,48.880694,35.745974,48.450275,50.237017,49.885052,31.096676,58.870273,83.605156,104.819492,63.712303,98.175648,115.697536,127.585567,54.104175,92.074367,112.087177,125.328174,44.727779,79.440216,98.087231,110.470356,36.66061,63.982406,79.939728,92.164753,-12.949976,-12.066846,-5.26032,-0.671067,24.589458,38.884876,43.845806,46.422564,41.517963,55.786186,58.641044,58.123551,51.680031,66.861444,69.453627,67.909237,56.97876,70.409079,72.250933,70.594046,46.344114,301.866744,-87.994703,295.964498
102,-14.558544,8.347458,3.447761,2.364102,-7.584102,-20.092003,-28.247944,-30.440872,-45.629677,-40.272611,-22.168934,-7.425647,-50.129007,-41.459009,-17.515011,3.650574,-50.713331,-42.020639,-19.113453,-0.470901,-48.417068,-42.877785,-27.452322,-14.35968,-10.349017,-12.885644,-6.660931,2.151051,2.086762,15.934737,23.971331,27.921999,14.976784,29.198515,37.209798,39.691343,25.288201,36.984013,41.271999,41.977479,33.074119,43.762183,44.703611,43.568145,29.498818,56.86559,81.234364,102.244114,62.032505,96.488102,113.855336,125.653576,52.363392,90.528431,110.071141,122.869893,42.838463,77.75251,96.143589,108.088726,34.69241,62.109364,77.992424,90.055012,-13.510002,-12.740074,-5.424947,0.037013,23.706687,38.069265,42.762654,45.270956,40.780923,54.699676,57.176855,56.746455,50.925231,65.645047,67.930356,66.450705,56.092654,69.000429,70.586822,69.028056,31.736252,310.041495,-84.59626,298.155893
103,-17.957279,5.612384,2.046902,0.862764,-2.628479,-8.633755,-10.967331,-9.329235,-30.205067,-20.197935,-2.144714,12.029846,-34.86767,-20.628153,2.587578,23.18906,-36.186144,-22.519289,-0.569572,17.471249,-34.894146,-26.005177,-10.447351,2.658634,-12.089465,-16.31767,-11.798985,-3.676669,-1.085147,11.095703,18.267618,21.583837,12.569284,25.952407,32.757284,34.600145,23.085552,34.418222,37.51519,37.486001,30.735273,41.000643,41.079652,39.144913,28.449097,55.415955,79.489632,100.469902,60.344879,94.504097,111.768425,123.689758,50.629578,88.665367,108.027191,120.78701,41.129631,75.997856,94.268349,106.127358,33.040844,60.411026,76.274105,88.245598,-13.693734,-12.719263,-4.84695,0.854453,23.544963,37.976923,42.671116,45.340771,40.747393,54.282503,56.575629,56.381794,50.923799,65.172632,67.33649,66.184289,55.982417,68.360127,69.718722,68.292226,13.705233,315.484399,-82.623098,298.849177
104,-6.458359,1.643944,0.977806,0.519049,-0.198806,-3.196071,-3.909988,-1.600078,-26.942344,-13.200708,5.795815,19.303528,-32.828527,-13.856077,9.971649,29.996304,-35.299924,-17.385915,4.801278,22.190312,-35.262336,-23.738537,-7.159578,5.839382,-16.75771,-24.176942,-21.115566,-13.863968,-4.718677,7.649338,14.0276,16.648201,12.337695,25.579052,31.263393,32.230189,25.709265,36.687883,38.065979,36.779663,35.811021,45.798428,43.900955,40.429174,27.634094,54.384281,78.296997,99.356552,58.824177,92.849693,110.158425,122.417908,49.204743,87.20192,106.516136,119.467941,39.886986,74.725422,92.942848,105.015793,31.963337,59.350765,75.137558,87.149323,-13.963805,-13.096064,-4.768996,1.308887,22.747568,37.359753,42.082338,44.893192,40.092937,53.463841,55.75919,55.830894,50.472515,64.629155,66.7395,65.773415,55.648718,67.850452,69.013311,67.658297,7.110792,316.963828,-81.781374,299.203711
105,0.23703,0.414277,1.237816,0.508651,-1.153392,-4.117355,-4.863556,-2.765625,-29.269947,-15.244869,4.297875,17.943009,-34.982963,-15.209427,8.855736,28.917504,-36.98608,-18.502372,3.744805,21.212929,-36.379257,-24.967254,-8.117397,5.127663,-17.245729,-25.175556,-22.494428,-15.862162,-4.660254,7.58489,13.569826,16.02932,12.904638,25.847154,31.300382,32.023541,26.613995,37.463395,38.297643,36.454566,37.013777,46.778247,44.421307,40.659435,27.118126,53.639591,77.372269,98.280235,57.622227,91.281395,108.649544,121.071442,48.037022,85.748611,105.109657,118.19165,38.735321,73.290802,91.420235,103.56118,30.782135,58.020767,73.658134,85.641609,-14.145365,-13.245636,-4.691055,1.648304,22.382622,37.002057,41.859616,44.726811,39.630105,53.130857,55.609099,55.836501,50.011547,64.269767,66.403194,65.484484,55.23688,67.441947,68.614464,67.319805,7.154709,317.2083,-80.736671,299.542557
106,-0.049163,4.85977,0.934158,0.42346,-1.080929,-3.665772,-3.998772,-1.644585,-27.542828,-14.911664,3.989112,17.690757,-32.603096,-14.766644,8.208847,27.736816,-33.748032,-16.934212,4.065673,20.838363,-32.146203,-21.985566,-6.704453,5.675972,-17.890502,-26.78061,-24.932038,-18.859823,-7.666882,1.636806,7.271827,10.32378,9.349432,19.922338,25.450123,26.859317,22.607554,31.580927,32.963457,31.845342,32.652037,40.331627,38.622882,35.53362,26.751206,53.089749,76.648407,97.26194,56.280419,89.784005,107.294197,119.948616,46.730393,84.417595,103.901711,117.100708,37.624089,72.271397,90.539063,102.869774,29.923542,57.185292,72.784642,84.771996,-14.237731,-13.366223,-4.729958,1.903888,21.98143,36.674224,41.532561,44.370351,39.233593,52.867948,55.41871,55.756645,49.674044,63.992631,66.055947,65.129468,54.89719,67.146879,68.299253,67.009188,6.891901,321.902181,-80.016158,299.800128
107,10.232402,-6.479434,0.621071,0.722776,-5.109958,-11.596401,-16.033367,-17.465,-38.60662,-26.754409,-6.678234,7.837956,-43.432102,-27.207012,-3.599476,16.433865,-44.162166,-29.663177,-7.504383,10.358769,-41.998626,-34.103256,-18.203281,-5.014881,-11.794526,-16.072064,-12.451674,-6.734734,-0.860146,12.526145,18.391533,20.642138,13.738355,27.229746,33.341221,34.666743,25.041867,36.825377,38.598009,37.36531,33.59173,43.971629,42.827196,40.210115,26.326893,52.50483,75.967552,96.442681,55.239979,88.740189,106.439759,119.268929,45.754315,83.627243,103.294167,116.523789,36.852276,71.698265,90.080406,102.365959,29.442112,56.807373,72.385346,84.247009,-14.411805,-13.800637,-5.318958,1.355335,21.527515,36.209145,40.955874,43.634508,38.793276,52.331177,54.859782,55.19936,49.306617,63.500036,65.475184,64.501084,54.552067,66.89595,68.054981,66.742451,16.876756,315.230898,-79.642634,300.331055
108,10.388913,0.009769,0.483879,0.800606,-6.91745,-16.67315,-24.880394,-29.164673,-46.706727,-37.160443,-17.580803,-3.212449,-52.158211,-38.988877,-15.636544,4.342277,-52.896504,-41.461499,-19.210305,-1.197373,-50.529408,-44.627038,-29.165932,-16.117035,-12.89009,-17.145977,-12.680855,-6.405259,-1.707065,11.107825,16.757456,19.293163,13.095793,25.942682,32.114611,33.439096,24.675082,35.501658,37.724908,36.959437,33.614294,43.032911,42.12255,39.912935,25.949009,52.028286,75.381523,95.672264,54.530503,88.008477,105.789597,118.657082,45.120552,83.162018,102.971237,116.204773,36.348061,71.400891,89.821518,101.949646,29.126862,56.61834,72.127179,83.757271,-14.688163,-14.305224,-5.861497,0.90699,20.748472,35.453184,40.146907,42.673734,38.155308,51.554579,54.077874,54.392777,48.844379,62.856782,64.697624,63.592859,54.209822,66.528536,67.598695,66.148042,26.974366,315.015917,-79.450058,300.906911
109,-3.226227,0.332637,0.190647,0.39025,-6.304734,-15.155823,-22.384621,-26.728386,-44.680287,-35.741902,-15.891106,-0.88321,-49.874188,-37.481404,-13.716568,7.001793,-50.495476,-39.645722,-16.66919,2.573318,-48.004372,-42.340061,-26.370095,-12.094986,-10.116644,-13.307868,-9.242999,-3.876678,0.962627,13.178217,18.775336,21.542842,13.314377,25.795099,32.206261,33.921379,22.442076,33.159613,35.93054,35.910137,29.308327,38.394344,38.22348,36.807494,25.807858,51.790925,74.918827,94.985402,54.187294,87.563908,105.248875,117.96587,44.748711,82.588017,102.433033,115.519192,35.941933,70.804654,89.286839,101.281758,28.656739,56.025536,71.509644,83.006024,-15.033742,-14.535392,-6.047798,0.458917,20.455417,35.113681,39.833302,42.358659,37.93334,51.27259,53.788376,54.075516,48.597883,62.563999,64.43248,63.31933,53.864391,66.27526,67.432624,66.005251,23.467278,315.092289,-79.540272,301.040896
110,-2.677712,-0.58942,0.007233,0.294822,-5.998375,-14.240295,-20.64283,-25.115318,-43.894775,-34.07991,-13.648979,1.708008,-49.067196,-35.651928,-11.448715,9.555565,-49.5928,-37.618046,-14.055427,5.676956,-46.943779,-40.364525,-24.024696,-9.207367,-7.547938,-9.53703,-5.486388,-0.391102,3.632715,15.851652,21.399284,24.011537,14.266667,26.825318,33.290623,35.055511,21.538816,32.368875,35.442007,35.844571,26.74808,35.786352,35.949373,34.856082,25.865925,51.753639,74.733616,94.727429,53.760407,87.127705,104.832905,117.496365,44.388908,82.143849,102.083714,115.166874,35.693241,70.477982,89.054798,101.056103,28.510506,55.812676,71.292595,82.753292,-15.278287,-14.720805,-6.225813,0.023811,20.230929,34.803742,39.517373,42.006113,37.715793,50.904186,53.41066,53.696948,48.36128,62.164016,64.038833,62.937045,53.545424,65.997901,67.215904,65.79804,20.510456,314.234851,-79.812149,301.0677
111,0.85746,-5.612421,-0.019878,0.414641,-6.989341,-16.05558,-23.169388,-28.29174,-47.790733,-37.036388,-15.264106,0.490265,-53.229091,-38.432007,-12.810356,8.943604,-54.068092,-40.853863,-15.678703,5.167946,-51.737068,-44.501507,-26.378093,-10.208015,-5.034721,-5.337446,-0.628471,4.829611,8.367527,23.871438,29.976651,32.089787,18.663926,33.806857,40.616235,41.966297,25.544898,38.681298,41.53019,41.368503,30.456304,41.87414,41.826654,40.366665,25.668274,51.495918,74.432464,94.503364,53.385189,86.809707,104.524841,117.106842,44.164821,82.01271,101.988395,114.924682,35.617332,70.506008,89.054649,100.858726,28.581402,56.058311,71.49599,82.792923,-15.619643,-15.193256,-6.775625,-0.690369,19.782646,34.396882,39.108364,41.511468,37.408289,50.429499,52.838556,52.99492,48.172361,61.793823,63.486389,62.186975,53.406252,65.815257,66.941844,65.392143,21.061958,308.334506,-80.137985,301.194417
112,-10.534767,6.382683,-0.048786,0.142953,-1.889717,-6.512375,-10.6222,-13.576149,-35.552856,-22.813305,-2.453934,12.239983,-41.797268,-25.32597,-0.636612,20.307083,-43.597469,-28.718628,-4.873375,14.81218,-42.475754,-33.952492,-16.703556,-1.249466,-10.655601,-14.816319,-12.26783,-7.424338,2.402684,14.666687,20.163856,22.642654,14.459143,27.083163,33.121723,34.574933,22.854063,33.798002,36.230671,36.297522,29.077689,38.496455,38.004378,36.178184,25.673263,51.431407,74.265552,94.3614,53.243797,86.647167,104.24493,116.684291,44.107795,81.724582,101.621646,114.462993,35.605121,70.244247,88.729511,100.439861,28.582305,55.905178,71.263332,82.487651,-15.926432,-15.41136,-6.891643,-0.930135,19.685092,34.341207,39.070041,41.494066,37.311784,50.194007,52.585638,52.761552,48.027247,61.508004,63.260802,62.057595,53.189927,65.66419,66.86132,65.383534,10.183542,314.426012,-80.53042,301.046193
113,2.263344,-4.837292,-0.033886,-0.043028,-4.004952,-10.12159,-15.007919,-18.757702,-42.509411,-29.001171,-6.771217,8.93969,-48.486363,-30.762302,-4.379997,17.554001,-49.521286,-33.284088,-7.759049,13.077415,-47.356419,-38.121723,-19.424618,-2.841202,-6.431256,-8.519087,-5.743492,-1.239652,8.732261,22.910588,28.362532,30.303014,19.401893,33.156352,39.275016,40.281708,26.359645,38.632651,40.68458,40.192491,31.375112,42.276123,41.56519,39.504604,25.64978,51.360523,74.196327,94.504829,52.859172,86.33535,103.987678,116.444526,43.737213,81.393837,101.33757,114.115333,35.273952,69.952468,88.52893,100.267089,28.288536,55.627624,71.022274,82.331176,-16.021503,-15.372321,-6.800697,-0.940039,19.79218,34.500029,39.243832,41.655247,37.336547,50.25745,52.631494,52.71976,47.999954,61.526542,63.244315,61.976369,53.098586,65.711849,67.01209,65.608812,12.134274,309.326518,-80.876918,300.740963
114,-0.431053,4.237782,0.225677,0.002136,-3.512123,-9.350418,-14.839028,-18.88773,-39.669548,-26.297024,-5.124733,10.009048,-45.728222,-28.269299,-2.944107,18.203659,-46.772335,-30.906349,-6.958351,12.273651,-44.740643,-36.13987,-18.971386,-3.941872,-10.856154,-15.344532,-13.262111,-8.697199,4.099301,16.558756,21.722424,23.980551,16.935199,29.180182,34.839447,35.926773,25.891195,36.725749,38.381722,37.763329,32.631005,42.151832,40.825038,38.187048,25.519226,51.198464,74.032631,94.401054,52.38105,85.87001,103.585556,116.106857,43.248379,81.105217,101.091454,113.879379,34.846333,69.756432,88.348,100.099411,28.013443,55.550995,70.958656,82.275421,-15.952972,-15.326365,-6.748542,-0.75496,19.916101,34.59904,39.296295,41.59388,37.434928,50.327315,52.69774,52.742398,48.118997,61.56563,63.136771,61.73679,53.230609,65.721816,66.931173,65.449262,11.420523,313.334693,-80.933939,300.513492
