takenoko1/special-research/HandMotion_SimilarSearch_自分用/NewProject/handData_new/key/d3_feature/71.csv
,vel_0x_L,vel_0y_L,vel_0x_R,vel_0y_R,posFromWrist_1x_L,posFromWrist_2x_L,posFromWrist_3x_L,posFromWrist_4x_L,posFromWrist_5x_L,posFromWrist_6x_L,posFromWrist_7x_L,posFromWrist_8x_L,posFromWrist_9x_L,posFromWrist_10x_L,posFromWrist_11x_L,posFromWrist_12x_L,posFromWrist_13x_L,posFromWrist_14x_L,posFromWrist_15x_L,posFromWrist_16x_L,posFromWrist_17x_L,posFromWrist_18x_L,posFromWrist_19x_L,posFromWrist_20x_L,posFromWrist_1y_L,posFromWrist_2y_L,posFromWrist_3y_L,posFromWrist_4y_L,posFromWrist_5y_L,posFromWrist_6y_L,posFromWrist_7y_L,posFromWrist_8y_L,posFromWrist_9y_L,posFromWrist_10y_L,posFromWrist_11y_L,posFromWrist_12y_L,posFromWrist_13y_L,posFromWrist_14y_L,posFromWrist_15y_L,posFromWrist_16y_L,posFromWrist_17y_L,posFromWrist_18y_L,posFromWrist_19y_L,posFromWrist_20y_L,posFromWrist_1x_R,posFromWrist_2x_R,posFromWrist_3x_R,posFromWrist_4x_R,posFromWrist_5x_R,posFromWrist_6x_R,posFromWrist_7x_R,posFromWrist_8x_R,posFromWrist_9x_R,posFromWrist_10x_R,posFromWrist_11x_R,posFromWrist_12x_R,posFromWrist_13x_R,posFromWrist_14x_R,posFromWrist_15x_R,posFromWrist_16x_R,posFromWrist_17x_R,posFromWrist_18x_R,posFromWrist_19x_R,posFromWrist_20x_R,posFromWrist_1y_R,posFromWrist_2y_R,posFromWrist_3y_R,posFromWrist_4y_R,posFromWrist_5y_R,posFromWrist_6y_R,posFromWrist_7y_R,posFromWrist_8y_R,posFromWrist_9y_R,posFromWrist_10y_R,posFromWrist_11y_R,posFromWrist_12y_R,posFromWrist_13y_R,posFromWrist_14y_R,posFromWrist_15y_R,posFromWrist_16y_R,posFromWrist_17y_R,posFromWrist_18y_R,posFromWrist_19y_R,posFromWrist_20y_R,posFromBody_0x_L,posFromBody_0y_L,posFromBody_0x_R,posFromBody_0y_R
6,9.082523,-5.866264,0.093567,-0.0649,-1.340904,-7.488006,-15.769981,-21.731266,-38.494915,-26.025661,-4.848541,9.912781,-46.535957,-29.844658,-4.738884,15.687653,-49.290848,-34.747799,-10.884796,7.55967,-48.986526,-41.874779,-25.271564,-11.30175,-15.001485,-24.018564,-23.849874,-19.545784,-1.16465,12.282404,17.82869,19.581797,16.135395,28.452009,33.408023,33.316496,29.341276,39.763449,40.520299,38.619115,39.491957,49.241433,46.60579,42.226562,25.727772,51.623051,74.71257,95.035881,50.364006,84.783852,103.249351,116.247688,41.005474,80.617081,101.120659,113.798675,32.831577,69.655632,88.951355,100.943252,26.528778,55.494987,71.434479,82.904388,-15.923394,-16.543541,-9.206579,-2.911161,17.512503,32.549717,37.351182,39.867375,35.556184,49.130283,51.422544,51.195933,47.160321,61.345477,62.359913,60.287989,53.070132,66.149697,67.163169,65.324464,18.646511,311.491401,-75.866535,298.491556
7,-8.631866,4.803046,0.150284,-0.087957,1.536392,-1.392449,-6.365685,-10.311493,-29.410206,-14.633423,5.274238,18.776436,-37.226361,-17.938065,6.028267,25.434654,-39.985234,-23.119263,-0.818344,16.233124,-40.096195,-30.779732,-15.140591,-2.390442,-18.270317,-29.522638,-30.325924,-26.243999,-5.876367,5.222146,10.409094,12.725537,12.277674,23.214166,27.520602,27.584637,26.389359,35.708707,36.011568,34.260623,37.082295,45.675186,42.745809,37.940182,25.711956,51.445781,74.390945,94.614967,50.28107,84.709465,103.216438,116.272659,41.000313,80.604721,101.110931,113.849807,32.917499,69.756592,89.027618,100.995277,26.712902,55.753143,71.689407,83.099762,-15.921974,-16.599277,-9.321657,-3.063599,17.622913,32.565994,37.373399,39.924852,35.688663,49.110189,51.411145,51.220386,47.310522,61.320666,62.318392,60.269674,53.266461,66.251313,67.139037,65.193528,9.989743,316.249875,-75.741153,298.359027
8,1.44017,-4.8079,0.211223,-0.146435,1.558479,-1.663193,-7.374229,-11.930237,-31.738804,-16.845543,3.891747,17.614243,-40.506088,-21.02845,3.973091,23.768349,-44.242332,-27.012669,-3.013596,14.927353,-45.215904,-35.560375,-18.196609,-4.376129,-17.101196,-27.131698,-26.804828,-21.613051,-3.693613,9.874435,15.752432,17.763902,14.964583,27.733988,32.624027,32.579122,29.649028,40.718024,41.135099,39.218317,40.954566,51.382543,48.328997,43.311715,25.652321,51.254574,74.104763,94.223225,50.222111,84.642094,103.035794,116.000874,40.95242,80.530506,100.965947,113.744717,32.869538,69.716297,88.942486,100.924038,26.641983,55.670918,71.599102,83.008313,-15.95023,-16.856949,-9.661778,-3.266461,17.362709,32.431946,37.292259,39.888654,35.507549,48.966384,51.367105,51.244567,47.255491,61.236093,62.356517,60.373489,53.342451,66.304295,67.198045,65.209695,11.406641,311.388305,-75.553202,298.158922
9,-7.542103,4.662737,0.013825,-0.169308,2.842449,1.805798,-0.015758,-0.825016,-24.430973,-8.563808,10.955601,23.885685,-32.233784,-11.539238,12.265034,31.401959,-35.178371,-16.383556,6.00269,22.914654,-35.648712,-23.809925,-7.42876,5.358753,-19.212085,-30.833364,-30.473149,-24.104175,-7.77828,2.884349,8.760877,11.524084,10.949966,22.082688,27.121769,27.589738,25.828234,35.491136,36.193337,34.637399,37.133462,45.977294,43.076173,38.21339,25.734775,51.26976,73.984714,94.078777,50.295078,84.680729,102.951565,115.866291,41.060703,80.396862,100.765034,113.560993,32.976459,69.518726,88.661121,100.583347,26.708153,55.396339,71.249027,82.639515,-15.78154,-16.723962,-9.628741,-3.315589,17.592656,32.369418,37.109824,39.668119,35.698457,48.847886,51.32283,51.354484,47.37625,61.229325,62.562974,60.833444,53.42085,66.426709,67.518988,65.718025,3.853935,316.008493,-75.54998,297.947065
10,-2.678673,1.221176,0.264576,-0.062442,3.157677,2.981518,1.849308,1.770482,-21.370971,-5.119388,14.206913,26.907406,-28.758213,-7.510093,15.621609,34.339199,-31.701324,-12.157642,9.688809,26.207623,-32.238761,-20.372119,-4.254558,8.358159,-19.21579,-30.834525,-31.178561,-25.697199,-7.968001,2.888079,8.573378,10.833678,10.471993,21.649102,26.709474,27.653946,24.967927,34.759949,35.483911,34.115547,35.97432,45.021089,42.288794,37.698466,25.707882,51.19067,73.874061,93.923607,50.031463,84.447693,102.738762,115.59922,40.784569,80.16156,100.539116,113.240295,32.718979,69.314712,88.400894,100.167389,26.481342,55.211963,71.054626,82.359443,-15.762076,-16.755097,-9.774275,-3.399903,17.650874,32.388351,37.122286,39.698068,35.784117,49.166469,51.630409,51.592494,47.463034,61.566717,62.795217,60.922327,53.454664,66.539194,67.593693,65.701722,1.165083,317.182205,-75.295583,297.837159
11,-6.531303,0.253708,0.3185,-0.070667,5.218712,7.395138,8.340672,9.782055,-15.029858,3.694576,22.21336,33.815563,-22.213428,1.072186,23.517643,41.560329,-25.576298,-3.994331,17.379604,33.228138,-26.930637,-12.835316,3.422813,15.620693,-20.292198,-31.823532,-31.951504,-26.337588,-8.814143,2.121324,7.674909,9.85539,9.544687,21.328061,26.149607,26.898158,24.129405,34.608586,35.076691,33.662928,35.330856,44.97753,42.140346,37.362395,25.689068,51.003079,73.669224,93.712086,49.921269,84.318089,102.637036,115.519535,40.638726,80.051136,100.418759,113.141865,32.559014,69.188061,88.231808,99.930622,26.331997,55.054081,70.883778,82.132588,-15.699622,-16.809363,-9.979262,-3.590638,17.606809,32.368393,37.066401,39.576914,35.774336,49.141435,51.592778,51.530608,47.53879,61.578993,62.756005,60.78124,53.617661,66.700091,67.644205,65.573825,-5.380915,317.389124,-74.991778,297.719703
12,-1.598808,1.037592,0.152596,-0.016178,5.420425,7.831272,9.201771,11.150127,-14.053036,5.11092,23.53371,34.903553,-21.285542,2.43108,25.253345,43.276165,-24.605313,-2.629257,19.241146,35.346691,-25.88451,-11.879689,4.850692,17.537006,-20.746829,-31.880071,-30.70659,-24.010042,-11.578696,-1.818809,4.217454,7.001076,7.402528,18.768519,24.295341,25.324449,22.864152,32.795261,33.648874,32.100038,34.905087,43.73284,40.995802,36.226941,25.676307,50.956547,73.629055,93.751362,50.000072,84.415706,102.719456,115.524158,40.692798,80.086521,100.411297,113.053722,32.556553,69.147068,88.16756,99.777111,26.273998,54.864715,70.686046,81.939937,-15.748603,-16.983871,-10.197747,-3.768146,17.449641,32.233653,36.894302,39.34588,35.627826,48.95333,51.31989,51.172307,47.383141,61.335659,62.468989,60.396867,53.439658,66.592743,67.578329,65.464193,-6.996139,318.38522,-74.855598,297.662029
13,-12.518658,2.201834,0.303692,0.077719,8.161686,15.324211,21.669685,26.770638,-1.940586,20.434639,38.074448,49.425636,-8.05656,18.81102,40.30117,56.944176,-10.835346,14.520699,34.932427,49.47583,-11.456806,5.210175,20.867523,32.361076,-20.859474,-32.170655,-31.150724,-25.07704,-11.982716,-2.785227,2.913681,6.28387,6.784222,17.847549,23.251056,25.0093,21.763711,31.571492,32.420103,30.986357,33.050006,41.574367,38.966968,34.427189,25.551738,50.794201,73.533806,93.744163,49.897464,84.294822,102.657325,115.422569,40.681286,80.162773,100.523025,113.087791,32.620926,69.330459,88.279335,99.751465,26.396724,55.117664,70.858085,82.019943,-15.750517,-16.973089,-10.086831,-3.733986,17.222585,31.917479,36.622477,39.101484,35.4673,48.764461,51.130218,50.947992,47.283056,61.105602,62.125768,59.941248,53.398335,66.446012,67.289856,65.071843,-19.5336,320.550896,-74.570709,297.70359
14,-2.641079,-3.62854,0.194366,0.085326,10.170559,18.968617,24.527927,27.556263,1.052147,24.939938,43.013867,54.367939,-5.770775,21.752529,43.741802,60.452396,-10.016189,15.865448,37.300175,52.284313,-12.584324,4.570141,21.326763,33.48666,-20.294483,-30.21171,-29.519896,-24.827173,-10.477366,1.590579,7.330156,10.124622,8.376381,21.532418,26.812572,28.149345,23.548952,35.233649,35.963921,34.518554,35.423951,45.70353,43.000393,38.316736,25.488442,50.720535,73.446236,93.732742,49.955418,84.366783,102.713196,115.394577,40.769302,80.347389,100.658913,113.096512,32.743881,69.596993,88.423004,99.725876,26.530666,55.428463,71.069618,82.085884,-15.881897,-17.089105,-10.085793,-3.834984,16.768955,31.627376,36.411785,38.929646,35.117991,48.480212,50.755159,50.445518,47.056272,60.758602,61.640731,59.327339,53.288457,66.178781,66.851478,64.497429,-22.196526,316.888421,-74.39819,297.754981
15,-0.662945,-4.643607,0.085865,0.031617,11.826004,21.464928,26.077515,27.32705,1.945736,26.773568,45.178894,56.332146,-5.734359,21.906441,44.667137,61.450447,-11.464142,14.514462,37.244385,52.774041,-15.922485,2.115521,20.227913,33.083176,-20.134364,-28.858536,-27.216617,-22.153639,-9.305762,4.944788,10.893959,13.595021,9.922686,24.96337,30.355046,31.109302,25.720307,38.92499,39.63391,38.050864,38.520784,50.106557,47.179526,42.321905,25.469765,50.66819,73.376255,93.833782,50.230534,84.613575,102.888188,115.553158,41.128967,80.572483,100.784763,113.157864,33.112736,69.847378,88.581677,99.861935,26.85014,55.678425,71.240971,82.24989,-15.961481,-17.1596,-9.959638,-3.797268,16.483692,31.31808,36.058264,38.517338,34.864566,47.918554,50.182707,49.872473,46.845282,60.191942,61.148395,58.911128,53.139996,65.827026,66.520322,64.231803,-22.885586,312.220333,-74.33844,297.762117
16,-4.664177,0.543429,0.12727,-0.009362,13.312718,24.728463,30.541603,32.098206,6.344754,32.593392,50.807694,61.662827,-1.112285,27.889801,50.303994,66.628556,-7.000431,20.599423,42.814087,57.858765,-11.910427,7.748669,25.689103,38.203514,-20.433199,-29.435915,-28.40803,-23.999286,-10.366079,4.063449,9.7341,12.239203,9.01882,24.290945,29.423688,29.913381,24.945227,38.281785,38.917518,37.211181,37.925843,49.487027,46.436396,41.482012,25.382698,50.646263,73.328087,93.861442,50.440258,84.697288,102.871055,115.486336,41.39938,80.624588,100.745933,112.985229,33.361324,69.940407,88.588989,99.818733,26.99358,55.752834,71.270531,82.333946,-16.114721,-17.230118,-9.759689,-3.534902,16.142657,31.072561,35.855797,38.338596,34.552851,47.655004,49.956096,49.616827,46.561651,59.889514,60.939864,58.761421,52.881942,65.47684,66.240408,64.064682,-27.579134,312.733866,-74.240541,297.722859
17,-1.414329,-4.467618,0.275047,0.030344,15.125164,28.118934,33.772934,34.546898,9.160343,36.092308,54.529564,65.421387,1.110843,29.991577,52.191673,68.332878,-6.267666,21.478031,43.962707,58.952659,-12.985394,7.521194,25.880997,38.344253,-19.659157,-27.955844,-27.776076,-24.6293,-7.07945,10.920091,16.439763,17.883549,11.987015,29.691451,34.308665,34.258919,27.523863,43.213914,43.642944,42.024255,40.502824,54.444721,51.381604,46.467926,25.324322,50.657753,73.362442,93.99987,50.395901,84.659477,102.798958,115.301651,41.440075,80.714516,100.825058,112.895531,33.465306,70.197075,88.720001,99.74588,27.125691,56.11219,71.571373,82.516663,-16.259599,-17.285397,-9.687676,-3.486317,15.648197,30.743036,35.592864,38.086963,34.186609,47.503345,49.8147,49.405307,46.365878,59.797593,60.756453,58.486125,52.844842,65.326935,65.953479,63.678421,-29.030136,308.237663,-74.002167,297.724618
18,3.339317,-1.289089,-0.079227,-0.082696,15.45068,27.360787,31.030495,30.217735,6.582344,32.855232,51.108811,60.894516,-2.05093,25.6241,48.000618,64.344841,-10.378589,16.132702,38.923531,54.367607,-18.710037,1.544769,20.441689,33.208809,-20.654278,-29.22584,-29.372782,-26.288299,-8.501587,9.810634,15.357698,16.24,10.736309,29.093422,33.362056,32.425289,26.901666,43.13086,43.353136,41.599943,40.939387,55.31219,52.006679,46.89146,25.421539,50.814171,73.497196,94.242817,50.703541,84.948269,103.058338,115.558536,41.758781,80.870785,100.931911,112.921245,33.734447,70.309765,88.810695,99.756489,27.340942,56.170944,71.649959,82.570575,-16.396253,-17.38815,-9.802841,-3.633653,15.613481,30.789089,35.538993,37.884014,34.133627,47.380425,49.609763,49.117352,46.277896,59.662631,60.622936,58.330267,52.69879,65.172954,65.855777,63.569604,-25.73358,306.923797,-74.124155,297.617145
19,0.313156,0.601819,-0.014168,-0.209889,15.46962,27.395645,31.121727,30.691773,7.277996,33.30922,50.961548,60.409493,-1.241924,25.999375,47.824654,63.75998,-9.603126,16.552941,38.665192,53.606186,-17.957874,2.014881,20.254532,32.36364,-21.185689,-29.822065,-29.999128,-27.126387,-8.591112,9.273912,14.581916,15.424648,10.605695,28.565012,32.550791,31.807391,26.718848,42.580738,42.585764,40.898509,40.660572,54.757055,51.358855,46.396666,25.516136,51.002815,73.751507,94.608822,50.877422,85.124531,103.22517,115.747318,41.991966,80.991589,101.013599,112.989727,33.95541,70.41592,88.926281,99.927875,27.509582,56.213825,71.713772,82.736263,-16.352164,-17.31836,-9.726542,-3.557664,15.69483,30.829041,35.474549,37.709198,34.135998,47.278276,49.577998,49.15618,46.220516,59.590469,60.688638,58.500809,52.585317,65.153353,65.975733,63.807034,-25.463219,307.503451,-74.181118,297.385091
20,0.33236,0.304788,0.136494,-0.171469,15.393917,27.25399,31.229667,31.228431,7.15892,33.020233,50.624977,60.110687,-1.238125,25.982139,47.560363,63.293769,-9.347351,16.736389,38.405548,52.995643,-17.418332,2.567733,20.293212,31.840644,-21.342004,-29.566431,-29.438126,-26.711425,-7.917885,9.704942,14.931867,15.877896,11.020547,28.525838,32.508492,32.114006,26.782525,42.257375,42.195909,40.67964,40.301456,54.101438,50.703794,45.907492,25.598453,51.178974,73.974792,94.810913,50.691833,85.052604,103.248413,115.817207,41.803127,81.00309,101.11766,113.129448,33.825485,70.489837,89.087402,100.17881,27.467685,56.277443,71.857704,83.009376,-16.280249,-17.280791,-9.798728,-3.593405,15.651371,30.907378,35.610104,37.91216,34.115386,47.486907,49.802881,49.357179,46.239993,59.845486,60.933553,58.701239,52.611092,65.303136,66.124231,63.932289,-25.175863,307.786608,-74.089628,297.191991
21,2.584362,0.164627,0.108593,-0.173148,14.199703,25.323383,29.14484,29.55463,5.434627,29.530895,46.889728,56.480541,-2.433175,22.913761,44.239391,59.971035,-10.070046,14.038227,35.621944,50.251888,-17.603703,0.751201,18.234798,29.717113,-21.101413,-28.856462,-28.27649,-25.233096,-6.717087,10.161339,15.299899,16.39834,11.463371,28.085767,32.122268,32.110016,26.478786,41.22066,41.152487,39.730215,39.239608,52.609387,49.509813,45.042726,25.541381,51.086311,73.924472,94.796459,50.506965,85.106334,103.412304,116.049648,41.676258,81.095592,101.255481,113.291164,33.828895,70.704883,89.37157,100.547458,27.670807,56.613647,72.247158,83.446689,-16.178089,-17.240085,-9.898986,-3.772098,15.754432,30.954839,35.594358,37.865847,34.268725,47.493329,49.728039,49.241964,46.428245,59.918413,60.909112,58.634202,52.806618,65.464143,66.199035,63.959792,-22.637598,307.935782,-74.027132,297.00339
22,3.422493,1.129291,0.254871,-0.07988,12.817806,22.703029,25.697353,26.309955,3.327301,25.693073,42.624012,52.252407,-4.193482,19.283786,40.316379,56.175281,-11.607296,10.608673,31.890689,46.5722,-18.946267,-2.265461,14.767902,26.055233,-21.690647,-29.713631,-29.229002,-26.006643,-7.020651,8.725062,13.517067,14.481744,11.077604,26.751761,30.532405,30.632033,25.999678,39.787149,39.482003,38.097152,38.503519,51.269033,48.108968,43.721774,25.427456,50.776794,73.550446,94.413391,50.4314,85.024063,103.338158,116.012306,41.647991,80.995491,101.101044,113.145561,33.838428,70.64978,89.319489,100.577774,27.743111,56.637955,72.274498,83.561096,-16.075843,-17.232293,-9.950894,-3.827921,15.958603,31.05501,35.613154,37.843962,34.419148,47.407915,49.621494,49.204889,46.536814,59.825738,60.807742,58.595299,52.888709,65.522843,66.203086,63.967264,-19.255582,309.050432,-73.812738,296.908869
23,3.022064,3.105107,0.34259,0.029084,10.401707,18.489063,22.605915,25.36195,-0.246849,21.011867,38.210232,48.729893,-7.418324,15.466106,37.091961,53.888248,-13.516514,7.509727,28.464466,43.541439,-19.001061,-4.236271,11.983852,23.411808,-22.081688,-31.154812,-30.055704,-25.539266,-8.87861,4.416316,9.571438,11.515378,9.490063,23.310052,27.782585,28.327125,24.557361,36.352851,36.492283,35.012113,36.985496,47.633292,44.64435,40.079537,25.314766,50.444035,73.137131,93.922806,50.396942,84.954918,103.224266,115.873261,41.642498,80.853905,100.846299,112.868134,33.83479,70.521241,89.126267,100.395653,27.714901,56.551289,72.170632,83.522736,-16.033902,-17.328536,-10.188139,-4.135524,15.876229,30.872193,35.413553,37.6668,34.281186,47.124074,49.382941,49.047303,46.408831,59.563089,60.604176,58.476109,52.824711,65.453226,66.158737,63.969722,-16.267496,312.143435,-73.504126,296.925849
24,-1.883732,2.411539,0.368019,0.201158,9.711216,18.140099,23.719162,28.106232,1.519718,23.22345,40.009048,50.613052,-4.924427,19.081467,39.673645,55.918076,-10.016853,12.121708,31.951904,46.337837,-14.171825,0.709213,16.144661,27.2276,-21.674592,-31.363121,-30.643654,-25.650578,-8.793901,3.109689,8.012968,9.939878,9.324041,21.838762,26.147224,26.95224,23.848256,34.591791,34.666805,33.073607,35.400943,45.318628,42.476058,37.855423,25.190094,50.155335,72.807427,93.603058,50.383656,84.809189,103.070893,115.688576,41.693642,80.734223,100.663216,112.618813,33.885121,70.442528,88.965569,100.128022,27.731839,56.526673,72.115448,83.443291,-16.08366,-17.465474,-10.452788,-4.494059,15.807476,30.623437,35.175752,37.444511,34.148892,46.84884,49.063074,48.701933,46.249132,59.249595,60.216408,58.04377,52.689564,65.281437,65.920813,63.658562,-18.181057,314.542618,-73.165936,297.114651
25,1.704929,0.975064,0.124489,-0.032839,8.884735,16.676709,21.868458,25.952534,1.353276,21.932476,38.124562,48.395497,-4.658523,17.634991,37.568173,53.439778,-9.719684,10.97287,30.206623,44.207623,-13.894695,-0.179203,14.616452,25.289646,-22.754817,-33.240914,-33.097085,-28.141985,-10.542673,0.713378,5.286366,6.818579,8.050586,20.559022,24.354856,24.680862,23.104658,33.620246,33.461387,31.591684,35.023006,44.647548,41.617987,36.681153,25.146412,50.094487,72.769913,93.566483,50.261719,84.514572,102.816696,115.488396,41.621464,80.558167,100.55809,112.549141,33.836026,70.277962,88.849411,99.96817,27.687355,56.37331,72.019341,83.388451,-16.054637,-17.325325,-10.360126,-4.418847,15.984527,30.727796,35.295622,37.516587,34.222363,46.999832,49.08108,48.548322,46.225321,59.234799,60.098799,57.796039,52.605534,65.222045,65.895421,63.589438,-16.504584,315.499268,-73.069903,297.063398
26,-1.842464,0.459769,0.161408,-0.001025,9.765964,18.107391,23.980385,28.221107,4.003063,25.15876,41.072433,51.126388,-2.142643,20.56382,40.007812,55.439621,-7.564259,13.939854,32.648277,46.220329,-12.206268,2.323162,16.676124,26.857635,-24.200308,-35.554307,-36.421369,-32.009117,-13.263643,-1.644772,3.198523,4.729995,6.277139,19.842778,23.597302,23.750246,22.368728,33.514036,33.482024,31.709009,35.270217,45.00843,41.792493,36.527653,25.028354,49.947189,72.730636,93.434715,49.824943,83.98027,102.51606,115.374435,41.30286,80.396896,100.681801,112.882347,33.70372,70.278328,89.050392,100.230697,27.753021,56.495029,72.226867,83.641868,-16.109089,-17.451802,-10.659467,-4.655079,16.111584,30.875503,35.562532,37.823832,34.343616,47.477224,49.405455,48.551941,46.330075,59.611872,60.229376,57.539281,52.676609,65.428934,66.046882,63.529368,-18.387932,315.9315,-72.949379,297.034836
27,-3.198372,-0.824146,-0.101933,-0.499573,11.445019,20.996338,27.770737,31.874084,6.783978,28.928444,45.478203,56.053528,0.157574,23.919548,43.743713,59.525024,-5.72493,16.926338,36.100433,50.262245,-10.724339,4.639595,19.124977,29.887894,-23.858729,-35.075098,-36.27008,-32.297145,-13.73013,-0.978448,4.455712,6.594104,5.938784,20.70931,25.077089,25.657197,22.095915,34.182052,34.868741,33.654926,35.190856,45.26861,42.612798,37.777124,25.400791,50.444996,73.235378,93.762623,49.937611,83.970165,102.628773,115.62743,41.203377,80.256626,100.808361,113.401829,33.492336,69.836529,88.901173,100.391087,27.452191,55.724671,71.624989,83.295262,-15.927815,-17.185794,-10.605226,-4.598146,16.59178,31.448904,36.306958,38.62576,34.664088,48.343842,50.527151,49.678367,46.426479,60.316419,61.372561,58.827407,52.578154,65.781071,67.00368,64.805477,-21.635096,315.077503,-73.100104,296.505412
28,-1.549358,-4.583647,-0.02092,-1.500164,14.109398,24.874317,29.523067,30.185314,9.854255,33.113674,49.366413,58.53638,2.221058,27.319187,45.939205,59.870166,-5.290364,19.083377,38.2775,51.338115,-12.184594,5.282501,20.480037,30.904918,-22.827892,-32.189514,-33.553259,-30.335717,-10.159869,6.082404,10.666384,11.389654,8.947042,26.529138,29.740345,29.540051,24.412359,39.320909,39.239053,37.873442,36.874247,49.838746,47.040699,42.175223,26.002934,51.466221,74.412404,94.904972,49.818993,83.727848,102.409184,115.53986,41.001503,80.039235,100.842831,113.968861,33.308442,69.312573,88.646336,100.688199,27.27364,54.947674,70.903347,82.913304,-15.730881,-16.544183,-9.789553,-3.660775,16.889281,32.036558,37.199498,39.78353,34.82002,49.268579,52.022807,51.580156,46.427479,61.238958,63.049369,61.012321,52.449898,66.472305,68.421395,66.68049,-23.232084,310.459452,-73.168654,294.970844
29,4.765422,-6.86667,0.288781,-3.47829,12.809761,19.588509,19.951539,16.480237,3.765622,26.321366,40.548729,47.691033,-3.29829,21.225449,37.668114,49.484734,-10.365051,12.920701,30.504433,42.246781,-16.844272,-1.118305,12.546067,21.878518,-13.678815,-16.738795,-14.730647,-11.395125,-1.622505,15.543974,19.291792,19.10144,11.43604,30.558179,33.436576,32.440986,21.6019,38.049665,38.530293,37.563134,29.748681,43.186386,41.716331,38.547522,26.635002,52.306274,74.907451,94.784397,49.736206,83.564724,102.160297,115.258335,40.80487,79.613124,100.380283,113.677379,32.982524,68.481891,87.626392,99.523761,26.727058,53.144611,68.184974,78.950237,-15.994728,-16.382668,-9.532633,-3.170377,15.629313,31.324403,36.916669,39.803476,33.601598,49.469095,52.701395,52.3705,45.582808,61.692935,63.918691,62.009109,52.0842,67.262217,69.442377,67.334502,-18.520398,303.555991,-72.933609,291.455763
30,10.322754,-5.16704,3.16761,-4.999795,4.39,5.299748,3.000813,-0.780475,-10.101276,5.262108,16.713284,23.058907,-14.272831,1.64217,12.539338,21.613381,-17.685951,-3.068618,8.563488,16.761063,-20.271801,-10.552402,-2.101066,3.590287,-13.098806,-15.410754,-13.033808,-9.02213,2.900368,18.81992,21.441102,20.856091,15.925283,33.938545,36.698171,35.610351,25.394524,42.03621,43.332339,42.553148,32.476975,46.795117,47.25328,45.553847,25.474708,49.729969,71.228931,90.649944,47.742439,79.878948,97.368313,109.128742,39.356518,75.634105,93.872646,104.362415,31.708431,63.131813,78.441913,86.959533,25.302532,47.0667,58.402233,65.294872,-17.185807,-18.186435,-11.065007,-4.348242,12.157767,27.892958,33.976213,37.416193,30.945663,48.66876,53.270129,53.925462,43.825354,61.544092,65.536243,65.119897,51.054722,67.385038,70.530493,69.028427,-8.241949,298.374218,-69.810304,286.441235
31,15.487152,-2.264301,2.114822,-14.602416,-3.031448,-9.567661,-17.695083,-24.397018,-23.980476,-19.610012,-14.408226,-11.821517,-25.81818,-21.625705,-18.42992,-14.801559,-26.193592,-22.778961,-18.656467,-15.774284,-25.302051,-24.053546,-21.478969,-19.976131,-12.101031,-13.326048,-8.286584,-1.817451,6.710652,20.514944,22.575716,22.367123,19.414675,34.48411,36.72334,36.105639,28.177355,43.223535,45.224668,45.289815,34.28431,48.201038,50.226723,50.245372,25.991512,51.952778,74.359738,91.809277,46.733746,80.561428,92.698345,99.395107,38.029587,74.428127,86.674771,92.292195,30.293965,62.218208,71.823361,75.358715,23.881828,46.202431,53.290352,55.360211,-18.187917,-19.680005,-12.075689,-4.318898,4.865228,20.404411,25.069802,27.309441,23.923097,41.182461,44.378366,44.693281,38.210154,54.824078,57.432724,57.418163,47.505925,61.980914,63.87738,62.713212,7.341602,296.121072,-67.599083,271.849974
32,15.104874,-2.630358,2.13715,-17.391016,-10.85923,-24.340176,-37.758167,-47.708473,-37.247314,-43.5046,-45.406025,-47.863277,-36.271042,-43.443844,-48.460327,-51.433239,-33.260021,-40.496155,-44.771484,-48.622764,-28.658363,-35.196728,-38.864777,-42.770519,-11.653216,-11.445414,-3.848532,4.586376,10.650538,22.309844,23.637317,23.36438,23.190973,35.462509,36.897848,36.303092,31.525241,44.937801,47.262271,47.711024,36.72402,50.403589,53.599704,54.833218,25.621479,52.790977,76.074234,92.235214,44.12709,78.184044,84.673943,86.473045,35.91251,71.981712,77.969925,78.697472,28.864975,60.93639,64.405952,63.085453,23.261627,45.454948,48.068504,45.902229,-19.11116,-21.664045,-14.787223,-6.829262,-1.402809,13.276104,16.313434,17.325573,17.625853,34.236849,35.948978,35.822711,33.1957,48.694201,49.666807,49.510196,44.467522,58.133876,58.792419,57.364453,22.598265,293.555583,-65.310144,254.523827
33,14.708176,-0.82853,0.594944,-24.728175,-18.832443,-39.099095,-56.976219,-68.694512,-50.023327,-68.10252,-76.806759,-83.043446,-45.948555,-66.352467,-78.812302,-86.932823,-39.675831,-59.073303,-71.131108,-80.164936,-31.652996,-47.134278,-57.064202,-65.543782,-12.004255,-11.346984,-2.182482,7.638613,12.369769,20.876678,22.142685,22.519598,24.899977,33.643304,35.020005,35.2181,33.147276,44.111333,47.454439,48.906253,37.9614,50.530325,55.472656,58.631041,23.639557,50.653908,74.722195,90.123241,40.203449,75.344158,78.330288,76.589138,33.658459,69.689289,69.870197,65.896397,28.341717,60.296494,57.875816,51.989353,24.446548,46.529034,44.370792,38.084003,-21.370014,-27.015731,-22.348289,-15.426623,-12.539421,0.990304,3.748349,3.688958,6.627055,23.110141,24.045833,22.576494,23.831078,38.434507,38.499419,37.639458,37.399706,49.723927,49.302172,47.137326,37.407412,292.933506,-64.614229,230.002105
34,12.868561,1.579551,1.051849,-29.254554,-24.513085,-48.389592,-68.937916,-81.591454,-59.084141,-88.281441,-101.19159,-109.741002,-53.709572,-86.904957,-104.182549,-115.719132,-45.826722,-76.544655,-93.887455,-106.875424,-36.142731,-58.475602,-72.36232,-84.148499,-21.228186,-24.90257,-16.450149,-5.152022,7.184241,14.322107,16.15455,17.687986,25.92738,32.286055,33.584876,34.589037,39.536257,48.813157,52.313257,54.1849,48.581915,61.315578,66.50507,69.713795,21.187695,46.977368,70.744801,84.936436,36.149929,69.871273,71.174137,67.042546,31.580395,65.797818,61.199616,53.145882,28.280743,58.809609,51.331169,41.728718,26.364327,48.48666,43.03553,34.327652,-24.156606,-34.44044,-33.299521,-28.607132,-24.727829,-16.958639,-14.889512,-14.622769,-5.936678,6.555807,8.192681,7.126362,12.156792,23.145611,24.041967,23.818122,27.639756,36.562728,36.270994,34.721812,50.196402,294.870036,-63.641951,201.10453
35,4.102752,1.406341,-2.831176,-32.627676,-23.267601,-47.968849,-71.069446,-86.707912,-58.535156,-90.941459,-107.134163,-118.756805,-54.035499,-89.532085,-108.516929,-122.785618,-46.968704,-79.220134,-97.919094,-112.681068,-37.844627,-61.610115,-75.856006,-88.104332,-20.365347,-23.11849,-12.548178,0.115881,7.090034,14.309028,17.154672,19.728676,25.433179,30.87738,32.153588,33.84771,39.006142,47.321786,50.905953,53.471744,48.156726,60.309726,65.41893,68.981459,19.218687,45.051017,69.307926,82.40641,33.699743,68.042409,68.187378,62.784502,31.529686,65.90685,59.147123,50.255155,30.756334,62.789749,53.484935,43.29459,31.31381,55.901447,49.341018,40.704322,-26.945589,-41.528671,-44.678396,-42.622259,-35.295242,-34.569323,-35.010647,-36.011087,-17.480347,-12.939882,-13.45187,-15.50225,0.754577,4.33511,3.931315,3.610099,17.435896,19.776088,18.351589,17.127011,54.226461,296.721897,-66.54582,168.922374
36,0.522698,-1.2872,-2.963574,-28.147246,-23.919205,-48.433548,-71.468056,-87.703617,-59.385659,-91.7948,-108.033291,-119.924744,-54.784722,-90.340496,-109.009232,-123.388081,-47.67405,-79.955715,-98.695095,-113.634018,-38.543473,-62.218071,-76.555252,-89.036042,-20.058954,-22.119516,-11.190249,1.300415,8.380976,15.740465,18.539784,21.058496,26.648255,32.171348,33.343099,34.932196,40.099532,48.499169,51.845091,54.199016,48.966966,61.374155,66.544974,70.153791,14.509615,37.089077,59.828842,73.640774,30.101652,61.960562,64.580944,61.415033,32.182915,63.659323,58.315035,50.920801,34.870874,63.061718,53.398293,44.150951,38.153601,58.836846,51.180199,43.593224,-30.651781,-50.041879,-58.157634,-59.710913,-42.391222,-50.239718,-53.029935,-54.886693,-24.967732,-29.582773,-31.420061,-33.610379,-7.431761,-12.0477,-11.211713,-9.73259,8.574699,4.16488,3.535153,3.793597,54.676529,296.060256,-69.582024,141.400687
37,0.767601,-0.770855,-3.167484,-26.799086,-24.562683,-49.620461,-72.945053,-89.155495,-60.286331,-92.911515,-109.170731,-121.045544,-55.529938,-91.258404,-109.865994,-124.275753,-48.412697,-80.825444,-99.610817,-114.584748,-39.334877,-63.071091,-77.476811,-90.016297,-19.924005,-21.749483,-10.601854,2.21847,9.01871,16.333614,19.06854,21.595367,27.133551,32.597314,33.551753,35.108592,40.412965,48.791594,51.903482,54.085247,49.143041,61.669346,66.942362,70.647473,9.924482,28.764232,49.638164,63.638557,27.440511,56.360006,62.584625,62.822622,33.47184,61.319383,59.693945,55.172235,39.088846,63.600036,56.788639,49.858486,44.352568,62.394047,55.602493,49.329471,-33.813859,-57.047204,-69.155284,-73.710818,-51.290692,-67.1686,-73.025299,-76.642382,-34.648715,-48.508576,-53.683696,-57.891493,-18.343367,-31.27345,-32.797132,-32.56567,-3.573996,-15.047118,-17.224694,-17.164864,55.485964,295.991417,-72.707674,115.303617
38,0.487426,-1.160253,-1.149536,-23.455128,-25.185676,-50.442398,-73.864872,-90.056625,-61.223533,-93.863227,-109.968532,-121.848438,-56.163574,-91.843013,-110.217578,-124.512851,-48.865951,-81.322803,-100.052375,-115.122047,-39.657966,-63.496765,-77.992366,-90.708801,-19.528135,-20.90785,-9.370044,3.682078,9.80851,17.207531,19.933799,22.485956,27.837246,33.370861,34.267181,35.791478,41.038077,49.488472,52.488567,54.59433,49.711478,62.365175,67.694606,71.368335,5.389841,21.707485,41.07193,54.592071,24.488439,51.63418,59.100311,60.673296,33.892547,58.823541,57.407941,53.20416,42.059915,63.313774,56.351795,49.577533,48.970808,64.180938,57.116226,51.198669,-36.493765,-62.737252,-77.966876,-84.135295,-56.289857,-81.285177,-90.273375,-93.813529,-40.047313,-64.860777,-70.547123,-72.560408,-24.791691,-47.893036,-49.481692,-47.116939,-11.00845,-31.224831,-33.685773,-31.887045,56.172454,295.517109,-73.658146,92.534434
39,0.568268,-1.018598,-2.247918,-18.661345,-25.766464,-51.219131,-74.650486,-90.626667,-61.888115,-94.508491,-110.539089,-122.558487,-56.742347,-92.235889,-110.488918,-124.844959,-49.408561,-81.815895,-100.487915,-115.636905,-40.156585,-63.922348,-78.390964,-91.217823,-19.10186,-20.278736,-8.646502,4.597343,10.370587,17.840929,20.575596,23.136151,28.292631,33.78039,34.613428,36.053571,41.432897,49.81344,52.711758,54.649103,50.069112,62.793253,68.201626,71.823127,1.929732,16.295323,35.092038,48.715302,21.987162,48.21012,55.390137,57.88864,34.410142,57.383303,56.943301,53.834056,44.977164,64.021855,57.263844,50.785241,53.506777,66.153844,58.719647,53.04031,-37.832366,-65.135736,-81.930864,-89.850116,-59.249888,-87.937462,-100.809027,-107.832503,-43.883897,-75.053103,-84.522173,-87.955527,-29.854583,-59.14753,-62.304906,-59.398521,-17.583313,-43.272441,-46.367251,-43.241254,57.199716,295.232884,-75.44707,74.607462
40,0.133072,-0.838904,-0.594978,-15.149704,-25.940712,-51.421509,-74.791706,-90.642643,-61.96257,-94.880493,-110.923153,-122.947231,-56.65068,-92.410137,-110.537098,-124.846607,-49.249077,-81.938576,-100.592239,-115.81945,-40.006119,-64.010536,-78.54586,-91.545204,-18.877249,-19.772062,-7.941448,5.412375,10.843768,18.328832,21.023126,23.476877,28.817843,34.269799,35.085522,36.502781,41.955206,50.18351,53.012853,54.905293,50.553062,63.243661,68.737311,72.407681,-0.83733,11.639935,29.931633,43.493855,18.943314,43.609211,50.986096,54.667866,33.380299,54.422573,53.7346,50.574738,45.531235,62.512196,56.223313,50.105187,55.176693,65.898834,58.705879,53.356396,-38.09055,-65.767863,-83.743457,-93.335143,-61.896291,-92.639938,-107.652742,-116.715646,-47.733804,-81.865819,-91.574311,-94.27357,-34.775257,-66.912104,-70.540201,-67.299656,-23.575597,-51.696667,-54.789869,-50.724963,57.79965,295.229,-75.575186,60.292778
41,0.246323,-0.365797,1.110066,-10.949559,-26.033798,-51.644943,-75.041588,-90.569229,-62.187195,-95.182343,-111.165459,-123.204106,-56.854958,-92.624096,-110.64719,-124.91565,-49.440582,-82.200726,-100.836365,-116.138455,-40.169907,-64.256676,-78.785271,-91.82127,-18.819944,-19.66989,-7.846785,5.62755,10.831442,18.292461,20.890819,23.244239,28.735209,34.135406,34.903964,36.300758,41.868842,49.97309,52.749326,54.617857,50.536266,63.210241,68.729864,72.428812,-2.714676,7.928306,25.378521,38.662594,16.091869,38.596229,46.499382,51.368007,31.654655,50.485645,48.690971,44.890251,44.497341,59.488792,53.826931,48.137146,54.544132,63.87585,57.374736,52.572624,-37.19993,-64.458846,-82.549877,-92.805046,-64.086201,-95.169253,-110.258435,-119.682586,-51.342318,-84.674208,-91.629695,-92.374874,-39.168866,-70.193397,-73.170354,-70.079431,-28.308735,-55.070308,-57.585785,-53.439967,58.36738,295.581537,-74.143713,50.061553
42,0.34124,-0.27117,1.773044,-9.463398,-26.119377,-51.69912,-75.05135,-90.376866,-62.312485,-95.263985,-111.231148,-123.270527,-57.080796,-92.758518,-110.804604,-125.129139,-49.707642,-82.374012,-100.920079,-116.1656,-40.465805,-64.45237,-78.916615,-91.931889,-18.762258,-19.753649,-8.051489,5.393033,10.723539,18.084966,20.585512,22.791953,28.606285,33.926256,34.692616,36.087459,41.778772,49.834274,52.560765,54.403928,50.524125,63.127569,68.622553,72.341533,-4.287792,5.430634,22.642605,35.64909,13.095658,35.573685,43.446499,48.365696,29.53109,47.765248,42.822247,36.842285,43.18729,56.775433,48.842629,41.851181,54.028576,61.781857,54.089756,48.782101,-36.996216,-64.620047,-82.857068,-93.595125,-65.313047,-96.603666,-110.869098,-119.850461,-53.109473,-85.435975,-87.569519,-84.455477,-40.845477,-70.712281,-69.671601,-63.519895,-29.537192,-56.022463,-56.165125,-50.003212,58.87298,295.92864,-72.206309,41.216428
43,0.173378,-0.336034,1.317604,-4.39768,-26.09491,-51.51194,-74.809365,-90.133862,-62.160622,-95.1568,-111.075886,-122.989643,-57.013779,-92.788891,-110.844864,-125.23082,-49.677155,-82.422409,-100.894547,-116.087128,-40.455872,-64.427307,-78.810768,-91.721512,-18.673954,-19.847126,-8.332069,5.017221,10.595445,17.934358,20.432137,22.594649,28.512018,33.751133,34.559199,36.021485,41.737252,49.718517,52.457753,54.343623,50.544256,63.108674,68.573586,72.312166,-4.665802,4.181294,20.750439,33.38094,11.633835,32.006813,40.021145,45.619126,28.166165,44.877766,39.829777,33.981549,41.873463,54.149037,46.667462,40.173088,52.910145,59.455101,52.114758,47.189312,-36.046142,-63.205412,-81.492191,-93.368821,-64.890167,-95.080672,-110.012749,-120.747768,-53.802349,-84.210765,-85.38377,-81.887684,-42.110668,-69.640589,-67.904513,-61.65392,-31.101545,-55.524167,-54.760407,-47.989709,59.035389,296.055638,-70.899674,37.28178
44,0.284797,-0.175396,1.632019,-2.471751,-26.005508,-51.281204,-74.524154,-90.018299,-61.897522,-94.996936,-111.029182,-122.92749,-56.854889,-92.78207,-110.938945,-125.413261,-49.587547,-82.411411,-100.939487,-116.142505,-40.387527,-64.375007,-78.784767,-91.6711,-18.650291,-19.835603,-8.231713,4.930981,10.431226,17.763482,20.21748,22.338854,28.341414,33.608872,34.443479,35.973468,41.590829,49.543467,52.349974,54.388343,50.453915,62.903181,68.354434,72.178921,-5.773109,2.794693,19.21312,31.74289,9.74762,29.574784,37.519066,43.201023,26.366375,42.604031,35.968357,29.25253,40.107388,51.533581,43.815342,37.607575,51.350739,56.949463,49.611866,45.169281,-35.132193,-62.207056,-80.780061,-92.610996,-63.512621,-93.574092,-108.270134,-118.842521,-52.762924,-82.617914,-81.018443,-75.078522,-41.263984,-68.096385,-65.613925,-58.668208,-30.237837,-54.15316,-52.916596,-45.720104,59.159471,296.078473,-69.42837,35.00826
45,0.264977,-0.103395,1.077244,-0.839633,-25.925194,-51.06974,-74.303993,-89.934448,-61.793518,-94.772324,-110.819481,-122.72208,-56.810921,-92.665306,-110.852371,-125.385063,-49.584892,-82.366093,-100.924152,-116.172535,-40.372719,-64.367638,-78.790981,-91.684994,-18.592715,-19.897316,-8.487618,4.455218,10.254348,17.627421,20.149419,22.302174,28.104367,33.466711,34.368847,35.937172,41.350336,49.327168,52.20801,54.321504,50.253474,62.674186,68.11236,71.947567,-6.557739,1.733746,17.734314,29.959614,8.645886,28.183354,36.081207,41.82106,25.421574,41.235684,33.882992,27.032765,39.224487,49.947716,41.997219,36.059452,50.526798,55.261402,47.868805,43.918511,-34.115287,-60.939042,-79.342308,-90.613394,-61.895488,-91.878852,-106.373563,-116.814366,-51.38965,-80.940192,-78.060956,-71.086728,-40.033694,-66.288425,-63.316094,-56.009087,-28.987125,-52.321883,-50.786571,-43.464423,59.181055,295.964019,-68.594519,34.157568
46,0.353485,-0.187177,0.236344,0.12841,-25.885757,-50.836212,-74.003254,-89.7075,-61.540283,-94.360485,-110.459576,-122.443794,-56.602707,-92.387547,-110.623524,-125.284138,-49.40229,-82.067585,-100.603878,-115.861794,-40.201859,-64.108154,-78.589565,-91.623596,-18.413788,-19.766073,-8.414,4.482721,10.30991,17.734125,20.279131,22.449028,28.206353,33.574625,34.534066,36.143133,41.478937,49.447692,52.395508,54.572519,50.405601,62.746026,68.21053,72.062607,-6.96967,1.478462,17.540359,29.525756,7.830036,27.204528,35.059124,40.911895,24.484268,40.334564,32.820694,26.026931,38.362815,48.896369,40.763156,35.033512,49.812549,54.145591,46.734317,43.078182,-33.504532,-60.404043,-79.296983,-91.172581,-60.389803,-90.1825,-104.781946,-115.39573,-50.074508,-79.805732,-76.572116,-69.065075,-38.911442,-65.326977,-62.161663,-54.545744,-28.107824,-51.663958,-49.939837,-42.260364,59.298414,295.741122,-68.594301,34.250258
47,0.206795,0.194106,-0.288826,0.555976,-25.626343,-50.455719,-73.576081,-89.341999,-61.19014,-94.126694,-110.2687,-122.237366,-56.280831,-92.214855,-110.483437,-125.115589,-49.140564,-81.970803,-100.582237,-115.89394,-39.999893,-64.005524,-78.507511,-91.54937,-18.453777,-19.9656,-8.714898,4.113936,10.066033,17.533498,20.162954,22.398208,28.010555,33.343419,34.339379,35.989325,41.339356,49.195935,52.191152,54.397568,50.326314,62.608434,68.016597,71.785928,-7.44714,1.088081,17.13842,28.928398,7.103874,26.162086,33.902778,39.806259,23.742805,39.42889,31.89394,25.245437,37.697891,47.936668,39.70903,34.215133,49.142417,53.155666,45.822898,42.446159,-33.00985,-59.612532,-78.559881,-90.671051,-59.339991,-89.089882,-103.884064,-114.63139,-49.207045,-79.004082,-75.839923,-68.168774,-38.228717,-64.755928,-61.584149,-53.831298,-27.634155,-51.199162,-49.357635,-41.491695,59.270405,295.957998,-69.117931,34.829004
48,0.349067,0.308653,-0.594029,0.48366,-25.533966,-50.321159,-73.342426,-88.889957,-61.248939,-93.990943,-110.189197,-122.216892,-56.397422,-92.081577,-110.382431,-125.005725,-49.265121,-81.812873,-100.381507,-115.621604,-40.107399,-63.917587,-78.41122,-91.472145,-18.490617,-20.117037,-8.845932,4.08479,9.942298,17.392139,20.051791,22.321391,27.900973,33.243124,34.257708,35.902789,41.257142,49.120724,52.136589,54.325617,50.280248,62.467359,67.89506,71.644952,-7.873089,0.544773,16.467945,28.098129,6.526463,25.276428,33.148213,39.24828,23.224331,38.671646,31.216221,24.635422,37.229084,47.139416,38.9599,33.547062,48.646362,52.327961,45.125633,41.926621,-32.3786,-58.456015,-77.114717,-88.870921,-58.684596,-88.463084,-103.408987,-114.38495,-48.755884,-78.408326,-75.285991,-67.779302,-37.953402,-64.241819,-61.093579,-53.508282,-27.557023,-50.863771,-48.995568,-41.217622,59.467844,296.372538,-69.863588,35.418551
49,0.197915,0.193106,-0.839607,0.187796,-25.606247,-50.452263,-73.434987,-88.841046,-61.52884,-94.224953,-110.27369,-122.092198,-56.533905,-92.183213,-110.421868,-124.911896,-49.253998,-81.698456,-100.223179,-115.386349,-39.984032,-63.75087,-78.27451,-91.268738,-18.590666,-20.170661,-8.799323,4.387046,10.071072,17.5591,20.162337,22.393293,28.095215,33.445851,34.354632,35.970047,41.432526,49.394562,52.339995,54.500061,50.359622,62.636629,68.028021,71.72624,-8.118782,0.155926,16.122185,27.797848,5.861286,24.639438,32.682083,38.872021,22.584846,38.09983,30.921215,24.343677,36.660049,46.56427,38.617321,33.136047,48.069191,51.818298,44.763977,41.470939,-31.716086,-57.414163,-75.658063,-86.830762,-58.293526,-88.113151,-103.192966,-114.276986,-48.423377,-77.761325,-74.878772,-67.731946,-37.732948,-63.645656,-60.685811,-53.376223,-27.486177,-50.519464,-48.734617,-41.107503,59.614598,296.728616,-70.754356,35.769319
50,0.385185,0.114547,-0.986973,0.180984,-25.817093,-50.873772,-73.886433,-89.185124,-62.166435,-94.713284,-110.615513,-122.349232,-57.078896,-92.544342,-110.694443,-125.075649,-49.621948,-81.916191,-100.355404,-115.392277,-40.144043,-63.790306,-78.3078,-91.241455,-18.685366,-20.113604,-8.548826,4.897956,10.096983,17.775103,20.38901,22.730685,28.16298,33.674253,34.493212,36.07359,41.530585,49.680417,52.48948,54.549943,50.447765,62.7914,68.099046,71.689524,-8.191498,0.116798,16.208393,28.027885,5.411923,24.096428,32.16394,38.222111,22.052868,37.654495,30.896324,24.387806,36.121033,46.138882,38.412918,32.83144,47.482475,51.539406,44.548119,41.032471,-31.474123,-57.240668,-75.455638,-86.638527,-58.228156,-87.956682,-103.111943,-114.357305,-48.307205,-77.182705,-74.81512,-68.39278,-37.642496,-63.017314,-60.305323,-53.36202,-27.426804,-50.087525,-48.443433,-41.016668,60.002335,296.958803,-71.738777,36.065943
51,0.202194,-0.094577,-0.671688,0.115979,-26.018257,-51.224831,-74.282707,-89.550362,-62.851089,-95.310402,-111.054577,-122.637863,-57.631897,-92.932011,-110.968746,-125.197117,-49.959709,-82.096733,-100.425167,-115.317764,-40.259056,-63.755493,-78.231709,-91.068066,-18.570411,-19.82292,-8.180028,5.36185,10.36661,18.308096,20.950186,23.342508,28.42327,34.201083,34.943731,36.447044,41.755839,50.241086,52.995574,55.018654,50.544132,63.100054,68.413998,71.985728,-8.461784,-0.594372,15.270767,27.272381,4.858406,23.400124,31.569843,37.644138,21.583019,37.022884,30.61805,24.245991,35.691673,45.502773,38.025238,32.424385,47.035801,51.181824,44.281437,40.641609,-31.023746,-56.561988,-74.293063,-84.748253,-58.131782,-87.985593,-103.242638,-114.64169,-48.270537,-76.844021,-75.012387,-69.302308,-37.684498,-62.615745,-60.130445,-53.485601,-27.498915,-49.761266,-48.285172,-41.137809,60.238077,296.87284,-72.376917,36.190536
52,0.349457,-0.180916,-0.515762,0.058873,-26.405045,-51.77536,-74.930912,-90.218914,-63.534188,-95.775135,-111.382942,-122.899109,-58.203003,-93.379212,-111.31707,-125.488129,-50.336838,-82.360508,-100.569763,-115.324963,-40.434906,-63.885636,-78.373329,-91.195667,-18.432523,-19.34659,-7.493401,6.099767,10.600853,18.778695,21.41734,23.816479,28.631356,34.762641,35.485467,36.949359,41.939731,50.82522,53.538286,55.509717,50.679156,63.38434,68.688564,72.230716,-8.726029,-1.342713,14.351612,26.672996,4.323795,22.759414,30.973812,36.988575,21.134903,36.430355,30.333423,24.048191,35.325554,45.080486,37.873397,32.255745,46.768959,51.064659,44.258731,40.547149,-30.687867,-56.319284,-73.868918,-83.72445,-57.958782,-87.847352,-103.190909,-114.709782,-48.195974,-76.691152,-75.289745,-70.046598,-37.716188,-62.52696,-60.276275,-53.838066,-27.574442,-49.836195,-48.518885,-41.525787,60.622553,296.563529,-72.85766,36.121014
53,0.235931,-0.186104,-0.290291,-0.110996,-26.69648,-52.237976,-75.576072,-91.058819,-64.077209,-96.366314,-111.84565,-123.241756,-58.563949,-93.85841,-111.703605,-125.762512,-50.484146,-82.613731,-100.758133,-115.433384,-40.379104,-63.929718,-78.444385,-91.244304,-18.358237,-18.983966,-6.962235,6.702402,10.742386,19.283925,21.95505,24.401157,28.805036,35.303662,35.99413,37.421503,42.125366,51.392892,54.092213,56.084837,50.818502,63.70075,68.969282,72.486561,-8.971791,-1.990837,13.728744,26.524029,3.751877,22.197887,30.412582,36.381111,20.6418,35.949165,30.129364,23.910805,34.994762,44.782516,37.771786,32.148319,46.67213,51.249847,44.479694,40.685417,-30.405958,-56.326132,-73.923956,-83.337356,-57.578381,-87.54149,-103.007178,-114.576605,-47.837081,-76.460015,-75.529072,-70.570884,-37.39571,-62.404157,-60.426891,-54.046974,-27.21295,-49.837862,-48.680375,-41.70642,60.902258,296.183359,-73.104177,35.815952
54,0.388687,-0.162527,-0.049633,-0.271671,-26.917808,-52.606773,-76.117756,-91.663822,-64.51181,-96.599418,-112.061931,-123.616195,-58.991409,-94.129554,-111.983242,-126.093017,-50.812385,-82.885025,-100.992393,-115.646736,-40.560493,-64.081283,-78.616905,-91.513504,-18.185842,-18.780128,-6.844971,6.738637,10.750129,19.54813,22.380041,24.974584,28.792118,35.531249,36.322358,37.747891,42.183337,51.672436,54.412944,56.330677,50.98303,63.872342,69.104615,72.480608,-9.274807,-2.507183,13.179909,26.185901,3.334018,21.613563,29.762764,35.734886,20.359073,35.636249,29.759056,23.507538,34.820812,44.515331,37.475704,31.873077,46.58456,51.170894,44.408626,40.678676,-30.302397,-56.357267,-74.082259,-83.456429,-57.336659,-87.336763,-102.819889,-114.381492,-47.644018,-76.333772,-75.415358,-70.388387,-37.161558,-62.215096,-60.220675,-53.787888,-26.89801,-49.578436,-48.39712,-41.384805,61.301078,295.815873,-73.143677,35.339322
55,0.195099,-0.135233,0.140064,-0.379827,-27.089676,-52.831306,-76.459682,-91.966015,-64.596611,-96.741817,-112.238308,-123.810047,-59.018692,-94.26868,-112.190071,-126.327392,-50.809845,-82.901356,-100.98753,-115.6073,-40.585739,-64.151092,-78.736049,-91.703567,-18.017931,-18.626506,-6.753285,6.88732,10.998427,19.841272,22.641221,25.143742,29.051358,35.794762,36.634049,38.086814,42.451741,51.986647,54.81873,56.769574,51.250668,64.138288,69.429446,72.832289,-9.488193,-2.815029,12.850903,25.930481,2.88089,21.133472,29.29739,35.33321,20.022045,35.502651,29.470631,23.044086,34.625439,44.466843,37.415451,31.773411,46.553066,51.2383,44.513077,40.900417,-30.182446,-56.113637,-73.760299,-83.003891,-57.193787,-87.256432,-102.743447,-114.252224,-47.557376,-76.04005,-74.661281,-69.237767,-37.017143,-61.94905,-59.757467,-53.157743,-26.701082,-49.269505,-47.912743,-40.820937,61.536764,295.53591,-72.963026,34.814765
56,0.177933,0.093897,0.077419,-0.429418,-27.139,-53.043663,-76.834168,-92.349243,-64.574226,-96.895592,-112.471962,-124.040943,-59.000198,-94.512955,-112.500629,-126.583099,-50.843124,-83.174492,-101.378254,-116.022045,-40.725426,-64.486473,-79.133148,-92.112351,-18.064206,-18.661505,-6.759644,6.989678,10.980088,19.788031,22.676493,25.259328,29.033957,35.766617,36.712843,38.246551,42.44506,51.941026,54.804479,56.738502,51.286002,64.134374,69.426458,72.794659,-9.560108,-2.669449,13.127003,26.175682,2.654251,20.95364,29.071152,34.977803,19.832405,35.693516,29.482029,22.784581,34.484413,44.701641,37.597996,31.813649,46.435112,51.222496,44.474442,40.86961,-30.307899,-56.332054,-74.128857,-83.540157,-57.282338,-87.202234,-102.637318,-114.088493,-47.569603,-75.442208,-73.621978,-67.848296,-36.871289,-61.24154,-58.856522,-52.136614,-26.455624,-48.551453,-47.031362,-39.873563,61.771088,295.535718,-72.829216,34.291258
57,-0.079697,0.020761,0.132958,-0.471317,-27.194618,-53.20182,-77.080764,-92.583332,-64.627189,-97.080436,-112.672474,-124.181614,-58.977447,-94.675632,-112.696232,-126.70618,-50.788696,-83.27211,-101.523147,-116.161823,-40.701988,-64.564407,-79.270157,-92.305778,-18.056574,-18.616206,-6.674664,7.143189,11.04516,19.914285,22.79409,25.351459,29.104081,35.853635,36.79996,38.315748,42.529164,52.000738,54.841912,56.75384,51.388347,64.211116,69.477031,72.796807,-9.541695,-2.47292,13.44334,26.29866,2.613167,20.95301,28.885059,34.659347,19.827026,35.833935,29.375976,22.563343,34.567554,44.946453,37.697021,31.917881,46.652664,51.526256,44.701629,41.182022,-30.508352,-56.579599,-74.600438,-84.379585,-57.081562,-87.121396,-102.536688,-113.931393,-47.351234,-75.286231,-73.017583,-66.736344,-36.612881,-61.059863,-58.485618,-51.503919,-26.172936,-48.317894,-46.604468,-39.219502,61.778263,295.517184,-72.609386,33.780646
58,-0.071342,-0.002643,0.201484,-0.385841,-27.353531,-53.468079,-77.408901,-92.866528,-64.727394,-97.262478,-112.865376,-124.347176,-59.040413,-94.869747,-112.920708,-126.916741,-50.82637,-83.398876,-101.709103,-116.38131,-40.764633,-64.698258,-79.456593,-92.565983,-18.039951,-18.553442,-6.572529,7.251166,11.06865,19.968021,22.868462,25.449308,29.085543,35.835073,36.817312,38.372151,42.50802,52.022339,54.881654,56.770562,51.395942,64.228827,69.478822,72.743986,-9.540161,-2.389549,13.435696,25.937634,2.59417,20.900013,28.768925,34.452862,19.777485,35.808381,29.270234,22.367089,34.463025,44.784005,37.57742,31.819382,46.445515,51.10429,44.387364,40.970822,-30.46372,-56.343978,-74.408091,-84.449561,-57.276286,-87.309043,-102.613037,-113.94509,-47.580273,-75.187919,-72.677011,-66.351089,-36.842611,-60.920486,-58.239833,-51.288052,-26.429936,-48.123115,-46.355491,-39.012657,61.816973,295.49843,-72.29785,33.378694
59,-0.298485,-0.018822,0.32127,-0.326326,-27.410843,-53.506622,-77.45113,-92.835628,-64.873444,-97.543465,-113.124435,-124.47583,-59.11187,-95.050335,-113.02898,-126.893497,-50.84642,-83.483139,-101.728043,-116.334068,-40.765549,-64.736343,-79.475578,-92.568787,-17.987438,-18.452369,-6.453066,7.415892,11.050904,20.032872,22.95805,25.551049,29.0459,35.90127,36.906801,38.470445,42.479109,52.117657,55.018716,56.953184,51.376887,64.303866,69.569818,72.84438,-9.672706,-2.674644,13.067322,25.492917,2.571888,20.784108,28.531357,34.220456,19.795659,35.44534,28.787018,22.024052,34.538498,44.531914,37.23705,31.645283,46.638691,50.939106,44.162888,40.965386,-30.591833,-56.503739,-74.668222,-84.647088,-57.237661,-87.422059,-102.69648,-113.988883,-47.670021,-75.607359,-72.846578,-66.180245,-37.043819,-61.487775,-58.664806,-51.4885,-26.734118,-48.729195,-46.819761,-39.256503,61.694235,295.491236,-71.800833,33.063996
60,-0.279877,0.005101,0.32388,-0.240228,-27.484314,-53.580002,-77.498851,-92.731327,-65.100151,-97.758979,-113.250663,-124.514259,-59.329445,-95.220554,-113.115554,-126.907573,-51.01609,-83.604423,-101.75996,-116.338485,-40.860077,-64.831924,-79.509006,-92.561931,-17.972778,-18.411256,-6.342088,7.554731,10.87773,19.978914,22.977217,25.658717,28.828847,35.80757,36.848188,38.428356,42.301366,52.105788,55.045392,57.016835,51.281618,64.308114,69.529395,72.733847,-9.818539,-3.022602,12.607898,25.030094,2.62706,20.734749,28.391189,34.076786,19.862835,35.028316,28.298114,21.707863,34.610561,44.163288,36.8138,31.375454,46.753338,50.596607,43.799148,40.758041,-30.590283,-56.49032,-74.621322,-84.374849,-57.17499,-87.35333,-102.634995,-113.982627,-47.770699,-75.909472,-73.122053,-66.325407,-37.296878,-61.955102,-59.091581,-51.792707,-27.089208,-49.298892,-47.316599,-39.615532,61.679964,295.502388,-71.211347,32.829819
61,-0.343437,-0.171753,0.243587,-0.266687,-27.703171,-53.523193,-77.169605,-92.322864,-65.356659,-97.762333,-113.130775,-124.379448,-59.502113,-95.015076,-112.745682,-126.49197,-51.087456,-83.339802,-101.320404,-115.863922,-40.773514,-64.542847,-79.16019,-92.277752,-17.820835,-18.364621,-6.348757,7.357809,10.88913,20.136378,23.196889,25.863914,28.814336,35.93427,37.029845,38.572222,42.282953,52.242257,55.351748,57.417127,51.286249,64.443558,69.726207,72.94223,-9.888668,-3.345463,12.052586,24.372105,2.69719,20.686157,28.351135,34.200051,19.893059,34.654736,27.917908,21.546776,34.639549,43.799526,36.393631,31.127049,46.846539,50.474911,43.639527,40.733917,-30.446424,-56.321835,-74.515704,-84.193353,-56.926168,-87.258093,-102.55832,-113.941848,-47.695839,-76.427201,-73.563087,-66.640736,-37.365928,-62.648529,-59.726975,-52.331906,-27.233056,-49.995554,-47.900845,-40.047328,61.62977,295.342853,-70.674517,32.57535
62,-0.344078,-0.024304,0.227657,-0.274771,-27.738625,-53.330154,-76.751701,-91.687889,-65.482933,-97.684822,-113.005829,-124.271496,-59.600075,-94.792854,-112.461594,-126.218811,-51.160721,-83.111481,-100.943642,-115.424881,-40.787338,-64.371414,-78.918217,-92.045803,-17.794184,-18.533263,-6.598822,7.128714,10.960018,20.174711,23.256699,25.904384,28.848112,35.94463,37.078318,38.623314,42.259425,52.213752,55.418771,57.545171,51.216322,64.387858,69.749646,73.042178,-10.045154,-3.702827,11.31419,23.428082,2.65067,20.523823,28.32304,34.385422,19.806736,34.389771,27.652943,21.38379,34.469124,43.406113,36.011696,30.812474,46.586552,49.988652,43.184899,40.35402,-30.116812,-55.763685,-73.716913,-83.29158,-57.123231,-87.328773,-102.545044,-113.883969,-48.021517,-76.643617,-73.69117,-66.853454,-37.714608,-62.925831,-59.826078,-52.424173,-27.589158,-50.224136,-48.031156,-40.206342,61.606447,295.332029,-70.126105,32.314059
63,-0.278343,0.000148,0.177453,-0.325629,-27.628899,-52.961952,-76.158508,-91.011143,-65.288544,-97.277424,-112.6493,-124.042271,-59.476845,-94.379494,-112.070652,-125.942768,-51.11261,-82.810833,-100.573963,-115.064564,-40.775871,-64.171303,-78.632355,-91.756165,-17.700151,-18.711277,-6.956184,6.769018,10.978581,20.080666,23.186575,25.826949,28.858882,35.861156,37.035686,38.538271,42.251657,52.113593,55.442113,57.60854,51.207628,64.372729,69.829749,73.1681,-10.113911,-3.836163,11.0671,23.148239,2.520046,20.444194,28.247028,34.420131,19.684902,34.224781,27.365409,21.191036,34.385547,43.279003,35.77296,30.656925,46.588874,49.980903,43.088893,40.319686,-30.045756,-55.644803,-73.526721,-83.170851,-57.0964,-87.300552,-102.484979,-113.819137,-48.079432,-76.942952,-73.791322,-66.766675,-37.771053,-63.199836,-59.93214,-52.441222,-27.611548,-50.399006,-48.086842,-40.227472,61.644648,295.34595,-69.632108,32.002203
64,-0.437508,0.073087,0.092285,-0.272078,-27.477035,-52.602813,-75.600116,-90.420055,-64.857307,-96.700092,-112.100097,-123.609627,-59.090469,-93.85366,-111.579998,-125.559356,-50.833351,-82.467819,-100.235916,-114.789997,-40.600822,-64.002937,-78.453781,-91.628654,-17.681575,-18.915485,-7.348508,6.304915,11.062192,19.974962,23.021851,25.55221,28.941603,35.732284,36.903343,38.378129,42.300564,51.873866,55.187196,57.31078,51.273097,64.33668,69.825477,73.207349,-10.096985,-3.783566,11.044464,23.063118,2.384422,20.354027,28.314377,34.613353,19.486461,34.204468,27.437713,21.271248,34.151275,43.196914,35.78389,30.646797,46.34975,49.867424,43.066143,40.264354,-29.870292,-55.308473,-73.025506,-82.696708,-57.212739,-87.345742,-102.468127,-113.832735,-48.285241,-77.039944,-73.819302,-66.893233,-38.000246,-63.271102,-59.886995,-52.464725,-27.835425,-50.398815,-48.043229,-40.301826,61.515209,295.427682,-69.231754,31.73877
65,-0.376693,0.093911,0.065483,-0.396487,-27.265801,-52.157364,-75.003708,-89.922204,-64.34919,-96.027157,-111.491158,-123.155972,-58.641907,-93.26056,-111.018952,-125.155747,-50.509369,-82.084397,-99.894024,-114.555485,-40.390229,-63.753823,-78.202481,-91.440915,-17.705721,-19.178542,-7.837634,5.753421,11.201314,19.84526,22.841008,25.294043,29.094015,35.610252,36.787054,38.241548,42.391633,51.632891,54.952123,57.054713,51.317222,64.290774,69.871752,73.317857,-10.051827,-3.746304,11.099933,23.218117,2.280178,20.286232,28.330593,34.768753,19.327663,34.186123,27.417938,21.275883,33.988506,43.228088,35.827194,30.694404,46.238651,50.023968,43.226864,40.394966,-29.856022,-55.3552,-73.132841,-82.879711,-57.304957,-87.428197,-102.460829,-113.757054,-48.397719,-77.296393,-73.910062,-66.862247,-38.048554,-63.461133,-59.943453,-52.485096,-27.806538,-50.498227,-48.097532,-40.340532,61.418456,295.527731,-68.886331,31.348421
66,-0.412926,0.200083,0.143944,-0.523656,-26.918083,-51.709557,-74.567574,-89.550637,-63.675591,-95.519943,-111.113217,-122.8885,-58.06501,-92.911423,-110.834713,-125.163208,-50.072045,-81.860916,-99.806763,-114.613175,-40.09124,-63.601296,-78.094517,-91.36425,-17.830382,-19.443167,-8.263638,5.352291,11.151198,19.524468,22.361232,24.66635,29.060522,35.339403,36.461766,37.916223,42.36145,51.31663,54.538075,56.588226,51.306627,64.153429,69.701457,73.118749,-10.119748,-3.862564,11.029873,23.251144,2.172294,20.239254,28.31076,34.771373,19.280216,34.19791,27.380825,21.217071,34.012962,43.410862,36.058261,30.921604,46.352634,50.326744,43.579776,40.771671,-29.83239,-55.345585,-73.02303,-82.692403,-57.453874,-87.523181,-102.489462,-113.729525,-48.548532,-77.392674,-73.893575,-66.778865,-38.145798,-63.528645,-59.876139,-52.319302,-27.841871,-50.55765,-48.122757,-40.332738,61.269322,295.731967,-68.478595,30.828918
67,-0.256279,0.087501,0.15018,-0.776635,-26.725342,-51.396355,-74.185662,-89.414829,-63.207894,-95.10418,-110.818417,-122.751686,-57.681702,-92.562916,-110.583412,-125.088673,-49.779282,-81.67733,-99.790901,-114.799118,-39.830086,-63.433159,-77.976277,-91.313805,-17.871607,-19.575177,-8.558632,4.883136,11.056534,19.235722,22.034115,24.290697,28.97885,35.101218,36.25931,37.722165,42.297908,51.080583,54.336694,56.396429,51.287483,64.093321,69.676163,73.093258,-10.035049,-3.827625,11.137253,23.482178,2.164788,20.234414,28.390389,34.847329,19.355175,34.289738,27.472928,21.213776,34.125767,43.556099,36.198452,30.959256,46.459797,50.501484,43.771878,40.912468,-29.838917,-55.402253,-73.104114,-82.724804,-57.585427,-87.519637,-102.44917,-113.699409,-48.654317,-77.293201,-73.851418,-66.897519,-38.197372,-63.323664,-59.628995,-52.118885,-27.832393,-50.296013,-47.893082,-40.178727,61.222756,295.83946,-68.118702,30.072275
68,-0.359162,0.121388,0.208443,-1.007439,-26.530563,-51.076377,-73.772232,-89.059135,-62.927902,-94.872036,-110.56422,-122.48719,-57.408966,-92.32426,-110.337913,-124.862651,-49.523758,-81.500427,-99.703937,-114.831138,-39.550071,-63.26889,-77.90142,-91.319801,-18.020202,-19.710398,-8.724085,4.553068,11.069935,19.088745,21.769343,23.866868,29.015432,35.051214,36.180382,37.636234,42.289622,50.936458,54.142712,56.204892,51.217682,63.999239,69.563803,72.964534,-9.955604,-3.929443,10.97295,23.421558,2.205654,20.195446,28.471607,34.963635,19.388466,34.405827,27.694862,21.370995,34.105408,43.68734,36.392372,31.030678,46.376221,50.581661,43.873169,40.920456,-29.7785,-55.395134,-73.072894,-82.446403,-57.654736,-87.51282,-102.457389,-113.708802,-48.684062,-77.18951,-73.926396,-67.207889,-38.173432,-63.186498,-59.563435,-52.139504,-27.747221,-50.105513,-47.789058,-40.126202,61.070211,296.034655,-67.703642,29.138643
69,-0.172302,0.067457,0.265526,-1.44772,-26.437431,-50.873703,-73.511101,-88.937061,-62.869446,-94.793918,-110.486252,-122.462906,-57.39196,-92.201294,-110.219524,-124.781158,-49.50119,-81.394489,-99.660896,-114.877682,-39.453163,-63.068092,-77.694065,-91.130825,-18.111507,-19.849324,-8.880389,4.262186,10.997427,19.001046,21.707616,23.843081,28.935959,35.001714,36.170316,37.628181,42.180706,50.851155,54.130337,56.231357,51.054759,63.894028,69.50015,72.885777,-9.820118,-4.080242,10.636402,23.087208,2.345135,20.154762,28.500126,35.012947,19.618183,34.471516,27.865311,21.48341,34.339291,43.865616,36.579563,31.031216,46.51054,50.716381,43.997646,40.85257,-29.655074,-55.34117,-73.057067,-82.379829,-57.720092,-87.331595,-102.258824,-113.429264,-48.72328,-77.227208,-74.518693,-68.223053,-38.19988,-63.233009,-59.86679,-52.637305,-27.754587,-50.096683,-48.038974,-40.507375,61.123815,296.256259,-67.21221,27.84507
70,-0.285072,0.074384,0.360592,-1.714216,-26.311043,-50.626923,-73.199284,-88.70565,-62.609162,-94.682751,-110.4646,-122.494057,-57.131333,-92.032768,-110.10688,-124.636791,-49.232758,-81.150913,-99.459515,-114.692551,-39.202469,-62.763245,-77.375908,-90.836746,-18.174072,-19.90007,-8.939076,4.028856,10.909038,19.015706,21.773121,23.928976,28.918953,35.109407,36.340933,37.824104,42.185943,50.967901,54.309809,56.436888,51.025996,63.895486,69.504881,72.912355,-9.671723,-3.97443,10.715492,23.037987,2.478172,20.192848,28.642422,35.209408,19.776913,34.581219,28.107158,21.686039,34.487057,43.982139,36.764465,31.110557,46.615425,50.898983,44.251488,41.0102,-29.423201,-55.067462,-72.81784,-82.315164,-57.822246,-87.123632,-102.029916,-113.212298,-48.825187,-77.09179,-74.572391,-68.530373,-38.240147,-63.057971,-59.744463,-52.617032,-27.678425,-49.884799,-47.976674,-40.563852,61.012116,296.620469,-66.678245,26.42068
71,-0.14772,0.2451,0.572021,-1.723899,-26.194085,-50.498131,-73.098759,-88.703682,-62.509118,-94.598271,-110.439148,-122.503029,-57.058754,-91.975789,-110.090378,-124.613423,-49.18657,-81.092789,-99.448758,-114.693272,-39.172532,-62.67817,-77.261673,-90.684174,-18.306404,-20.055287,-9.133244,3.737678,10.77893,18.943865,21.775542,23.998779,28.800281,35.052844,36.326545,37.854373,42.062787,50.877856,54.27897,56.469529,50.887242,63.748223,69.395619,72.870611,-9.55743,-3.802013,10.791664,22.894009,2.495579,20.003277,28.557541,35.147793,19.796437,34.417672,28.223259,21.832135,34.460278,43.780312,36.681519,30.934914,46.479492,50.713898,44.170899,40.780129,-29.243192,-54.753392,-72.407656,-82.18455,-58.043016,-86.92017,-101.732667,-112.897031,-49.114481,-77.019134,-74.98523,-69.492117,-38.55269,-62.97202,-59.85896,-53.06006,-27.922567,-49.808012,-48.119842,-40.959703,61.022158,297.253871,-65.948462,25.085083
72,-0.061043,0.398735,0.787342,-1.742473,-26.056732,-50.39415,-73.112274,-88.846882,-62.338234,-94.552655,-110.473995,-122.551941,-56.9133,-91.999787,-110.125626,-124.613571,-49.097809,-80.985775,-99.333882,-114.558117,-39.207985,-62.619255,-77.147827,-90.502499,-18.528347,-20.259977,-9.256523,3.57977,10.599754,18.808064,21.67127,23.961111,28.698096,35.028859,36.30093,37.867563,41.960047,50.910139,54.364037,56.653669,50.70635,63.631082,69.318764,72.899325,-9.614891,-3.780819,10.741093,22.612427,2.295765,19.725953,28.356606,35.024781,19.572213,34.161576,28.148518,21.810517,34.230503,43.499222,36.562352,30.780899,46.214356,50.520687,44.092129,40.608261,-28.874104,-54.105865,-71.414555,-81.182476,-58.237623,-86.897378,-101.654955,-112.825561,-49.404628,-76.971246,-74.97446,-69.711584,-38.855601,-62.93029,-59.796296,-53.156681,-28.198727,-49.869207,-48.197839,-41.161448,61.13011,298.191412,-64.992125,23.881416
73,0.066353,0.270738,0.954564,-1.675499,-26.012398,-50.56437,-73.493775,-89.541607,-62.256272,-94.568345,-110.612126,-122.761162,-56.810463,-92.089085,-110.28962,-124.797409,-49.040726,-81.014672,-99.435677,-114.643181,-39.292397,-62.739693,-77.258412,-90.529221,-18.619145,-20.222655,-9.276591,3.351529,10.491346,18.679389,21.593922,23.978821,28.63558,35.014941,36.296151,37.872923,41.898692,50.956304,54.41618,56.709627,50.576811,63.598479,69.308934,72.95185,-9.67677,-3.688866,10.816223,22.693576,2.322875,19.756233,28.375133,35.117465,19.656257,33.949756,27.769798,21.48619,34.409248,43.46989,36.429153,30.689907,46.463813,50.790893,44.267715,40.799125,-28.835176,-54.083783,-71.393158,-81.245035,-58.175606,-86.80017,-101.528267,-112.63067,-49.344044,-76.969282,-74.611331,-69.010327,-38.755651,-63.016005,-59.714988,-52.919745,-28.066007,-50.113497,-48.333091,-41.184493,61.352297,299.097627,-63.881727,22.841394
74,0.195076,0.402872,1.342838,-0.680323,-25.943001,-50.679406,-73.837006,-90.172921,-62.005852,-94.540078,-110.81202,-123.078267,-56.596756,-92.190171,-110.515034,-125.076966,-48.945992,-81.086987,-99.592083,-114.767533,-39.426178,-62.977021,-77.49083,-90.667592,-18.777893,-20.228261,-9.234552,3.192089,10.367684,18.417234,21.343721,23.750295,28.586637,34.965986,36.246245,37.839702,41.837732,50.980325,54.440473,56.77181,50.431166,63.491305,69.220236,72.956408,-9.892719,-3.542805,11.063164,22.869152,2.356785,19.966404,28.560013,35.338337,19.596863,33.746967,27.282818,21.06736,34.313164,43.151905,35.910106,30.367321,46.429653,50.652019,43.954239,40.641563,-28.913481,-54.120172,-71.333137,-81.282079,-58.107125,-86.842284,-101.643209,-112.853756,-49.14588,-76.757268,-73.957214,-67.95187,-38.433153,-62.764989,-59.286064,-52.268148,-27.567761,-49.883162,-47.95164,-40.706161,61.666169,300.094507,-62.420093,22.755079
75,0.312194,0.502846,1.188869,0.876887,-25.997062,-50.924125,-74.289104,-91.049457,-62.00798,-94.583633,-110.992664,-123.377243,-56.64402,-92.362827,-110.747108,-125.32188,-49.108863,-81.299251,-99.860801,-114.971008,-39.753158,-63.402214,-77.948879,-91.033447,-18.934689,-20.297434,-9.310776,2.83984,10.278369,18.092327,21.049703,23.541406,28.533038,34.826158,36.062228,37.629565,41.761779,50.91587,54.382946,56.75247,50.264798,63.300977,69.020646,72.787174,-10.091984,-3.670246,10.794102,22.575257,2.586022,20.358982,29.087506,36.010952,19.879967,33.907654,27.576565,21.657955,34.63488,43.380261,35.888798,30.463566,46.737637,50.879322,43.883904,40.554943,-28.774173,-54.089872,-70.986254,-80.439884,-57.601926,-86.657434,-101.736267,-113.125964,-48.439468,-76.858144,-75.120722,-69.745176,-37.722561,-62.995745,-59.781321,-52.68434,-26.880769,-49.943937,-48.20678,-41.11059,62.070121,301.026543,-61.139466,24.061156
76,0.181046,0.505106,1.0742,2.681073,-26.026932,-51.04319,-74.570812,-91.648396,-61.844627,-94.587582,-111.157951,-123.654739,-56.483208,-92.423744,-110.87162,-125.370243,-49.033287,-81.33775,-99.904507,-114.887192,-39.883621,-63.711479,-78.285713,-91.305302,-18.999354,-20.312156,-9.409725,2.460519,10.144308,17.945732,21.030758,23.700586,28.506646,34.84272,36.095055,37.683856,41.7879,51.060984,54.574557,56.997038,50.242482,63.255517,68.879361,72.598959,-9.831631,-3.107311,11.623867,23.775478,3.365787,21.701775,30.58144,37.642696,20.438873,35.219112,30.54641,26.279571,35.140469,44.637268,36.937569,31.767425,47.272488,51.920803,44.582119,41.233623,-28.878932,-54.676402,-71.694753,-81.067355,-57.097092,-86.051304,-101.119887,-112.244668,-47.430046,-76.688293,-77.983249,-75.112614,-36.334949,-62.849631,-60.274126,-53.535106,-25.278142,-49.371313,-48.145703,-41.619938,62.352739,301.824333,-59.963694,27.034913
77,0.240509,0.471539,1.141079,5.229427,-26.113197,-51.222656,-74.846752,-91.9846,-61.739388,-94.538715,-111.163582,-123.725418,-56.379318,-92.446976,-110.960415,-125.465653,-48.984879,-81.391434,-99.977703,-114.882111,-39.966843,-63.946335,-78.552818,-91.541256,-18.984238,-20.30503,-9.598287,2.078469,10.014076,17.787317,20.981357,23.787666,28.42716,34.745326,36.105256,37.81116,41.752393,51.02255,54.569691,57.051465,50.233775,63.103351,68.597742,72.241189,-9.476589,-2.130936,13.028515,25.577351,4.59922,23.884197,32.839874,39.842079,21.294239,37.116142,33.090637,29.620342,35.807487,46.426689,38.15657,33.098728,47.864479,53.267258,45.223514,41.616737,-29.305344,-55.714822,-72.685274,-81.63444,-56.159487,-84.72096,-99.60423,-110.217008,-45.567389,-75.645891,-78.634358,-76.884975,-33.892566,-61.859988,-59.594193,-52.762942,-22.482683,-47.777511,-46.787898,-40.476988,62.636885,302.256358,-58.778978,32.224826
78,0.231926,0.715391,1.121658,8.208037,-26.102371,-51.274269,-74.966023,-92.166195,-61.601898,-94.516445,-111.189011,-123.774777,-56.242973,-92.454346,-110.998615,-125.466316,-48.916695,-81.468636,-100.039169,-114.836701,-40.029945,-64.187531,-78.808056,-91.73996,-19.187014,-20.614153,-10.002517,1.521505,9.637436,17.602868,20.983074,23.926382,28.153371,34.550368,36.076295,37.917531,41.590545,50.799025,54.416809,56.98633,50.203541,62.752275,68.088128,71.667799,-8.661461,-0.370296,15.69706,28.437367,6.687813,26.775295,36.124924,43.408653,22.624157,39.980061,38.965096,38.192345,36.427449,48.874592,40.755284,36.17751,47.790207,54.700802,46.320751,42.259461,-29.118857,-55.804903,-72.100954,-80.38928,-55.125599,-83.002205,-98.062914,-108.842177,-43.527464,-73.981896,-81.397423,-83.550703,-31.091486,-60.018448,-59.496448,-54.077688,-19.114173,-44.711571,-44.713214,-39.514959,62.82934,302.605029,-57.696791,40.066143
79,0.175117,0.604931,0.611149,9.974575,-26.124504,-51.313453,-75.007221,-92.186782,-61.548019,-94.471469,-111.164966,-123.769912,-56.120292,-92.42942,-111.024479,-125.464485,-48.761146,-81.456207,-100.029087,-114.74366,-39.918502,-64.279289,-78.912883,-91.780929,-19.34034,-20.826956,-10.296412,1.096342,9.19376,17.525422,21.226062,24.416311,27.867035,34.484147,36.259484,38.27608,41.435749,50.704647,54.404275,57.059616,50.164133,62.454157,67.591384,71.065783,-6.568863,2.628742,18.895866,31.466194,10.072151,30.73114,39.379601,45.569241,24.844757,43.624031,43.887806,43.839306,37.454384,51.9921,43.968636,39.459572,47.629509,56.653141,48.220436,43.657974,-29.17019,-55.450382,-70.842709,-78.04616,-52.975419,-79.617708,-94.184272,-104.294229,-40.441203,-70.240013,-79.886156,-83.887897,-27.2834,-56.013842,-56.459945,-51.884122,-14.677375,-39.748604,-40.506627,-36.358105,62.75192,302.602234,-57.338179,49.432992
80,0.310799,0.52667,-0.297621,14.768439,-26.014275,-51.245064,-75.009132,-92.109386,-61.407005,-94.486656,-111.286446,-123.909977,-55.922378,-92.449287,-111.121742,-125.52903,-48.527389,-81.497395,-100.085758,-114.685833,-39.749977,-64.397255,-79.048771,-91.813717,-19.487232,-21.037501,-10.622973,0.735311,8.845536,17.608142,21.551536,24.887058,27.60998,34.553171,36.57362,38.750816,41.245953,50.66557,54.435297,57.195504,50.037421,62.128546,67.049548,70.432013,-2.994793,8.530077,26.160124,38.980374,14.888712,37.717701,46.147637,51.202269,27.747912,49.699694,50.235209,49.812813,38.745879,56.884295,48.767773,43.756668,47.630785,59.753821,51.167902,45.87287,-30.035441,-55.747676,-69.902532,-75.788729,-52.161058,-75.735226,-88.390188,-96.88087,-38.140408,-64.609438,-74.28929,-78.921785,-23.544488,-49.512453,-50.24372,-46.457154,-9.612755,-32.429751,-33.445823,-30.198567,62.633526,302.389292,-58.064993,63.461819
81,0.660713,0.248261,-1.360702,19.149031,-26.021255,-51.350853,-75.12941,-92.263927,-61.352737,-94.494541,-111.360054,-124.074692,-55.869873,-92.494137,-111.275482,-125.858528,-48.479896,-81.626713,-100.284611,-114.908317,-39.763069,-64.618263,-79.335193,-92.112419,-19.543462,-21.076996,-10.664197,0.516135,8.755863,17.757158,21.847123,25.208494,27.530631,34.613526,36.859377,39.14613,41.151969,50.543614,54.396951,57.262614,49.969298,61.772827,66.525349,69.851276,1.789169,16.719904,36.55842,49.803795,20.810823,47.255401,56.134861,60.205335,31.322324,57.672907,56.269369,53.1866,40.479555,63.252691,54.772259,48.514755,48.021704,64.020498,55.116102,48.761484,-31.20227,-56.064011,-68.243446,-71.7772,-52.260871,-71.529485,-81.401085,-87.94511,-36.357062,-57.386263,-63.678612,-66.325534,-19.893179,-40.966134,-40.999448,-37.372149,-4.153215,-23.2775,-23.869143,-21.012446,62.56644,301.782192,-60.153494,81.755489
82,0.465729,0.121438,-1.233456,20.579177,-25.941193,-51.27356,-75.067188,-92.397789,-60.995499,-94.415543,-111.41011,-124.189522,-55.522797,-92.41753,-111.322586,-125.945538,-48.192055,-81.662807,-100.446899,-115.075619,-39.621002,-64.799515,-79.611294,-92.430496,-19.457517,-21.017407,-10.684624,0.286485,8.743365,18.257214,22.609271,26.081102,27.555158,34.94241,37.356739,39.627846,41.231899,50.634869,54.49879,57.299257,50.091996,61.690885,66.278212,69.481724,7.681732,26.372126,48.277342,61.865913,26.978205,57.216637,63.867165,64.883864,33.71517,64.545256,62.630499,57.805012,40.034357,67.532633,59.69521,52.570198,45.431551,64.981608,56.8402,49.675959,-32.074785,-54.947755,-64.708211,-65.881876,-49.796048,-65.660868,-71.58498,-75.526923,-32.302974,-49.626985,-54.083166,-55.956145,-14.235607,-31.863759,-32.244339,-29.542623,2.971195,-13.432224,-14.805158,-13.018565,62.075043,301.116618,-62.344076,101.547654
83,0.587219,-0.046732,-3.056488,24.960677,-25.994499,-51.240097,-75.006912,-92.396988,-60.628143,-94.225765,-111.410785,-124.402485,-55.176841,-92.203251,-111.274692,-126.049907,-47.874687,-81.489921,-100.407692,-115.082565,-39.378914,-64.722633,-79.607757,-92.493541,-19.299054,-20.893598,-10.525086,0.426633,8.929319,18.7371,23.257798,26.828837,27.681215,35.345145,37.949357,40.283115,41.305505,50.872397,54.852199,57.718579,50.098442,61.680275,66.195836,69.333584,13.848084,36.07176,59.430628,73.441509,35.155867,69.131172,75.372162,74.382368,39.336519,73.883497,68.380743,59.567104,43.248911,74.558275,65.63316,56.50193,46.555052,69.612391,61.309805,53.004347,-32.239442,-53.106049,-61.11609,-59.841759,-45.249359,-56.515391,-60.368314,-62.277272,-26.542371,-39.466442,-41.504008,-40.498442,-7.391783,-20.878083,-21.556614,-18.330767,10.734272,-2.949326,-5.179177,-3.281685,61.666397,300.369269,-66.396429,125.807714
84,0.573349,0.118437,-3.276729,26.652083,-25.854469,-51.081917,-74.845482,-92.321777,-60.146141,-94.009346,-111.293953,-124.370041,-54.740272,-91.982185,-111.154884,-126.030441,-47.564346,-81.395118,-100.449222,-115.222847,-39.226547,-64.848724,-79.916084,-92.981449,-19.071479,-20.846668,-10.762319,0.044707,9.192475,19.11442,23.611184,27.076889,27.847262,35.607041,38.301051,40.594918,41.380421,50.923391,55.012738,57.882761,50.097899,61.637705,66.139261,69.194128,18.41621,43.581979,68.009267,82.594539,40.688386,76.796424,84.965309,85.762888,42.649366,80.071443,77.89084,71.619838,44.598501,78.713109,72.413692,64.516639,46.295797,71.296514,65.577089,58.601503,-30.730176,-48.980158,-54.867726,-52.454168,-42.184148,-49.577602,-50.273122,-49.752597,-23.136514,-31.198969,-31.107387,-29.114569,-3.539675,-11.900888,-12.240898,-9.722136,15.054553,5.346231,2.699182,3.228457,61.328676,299.806117,-70.584228,151.778208
85,0.531006,0.202899,-1.218567,26.506149,-25.521034,-50.501976,-74.163631,-91.807171,-59.813232,-93.689335,-111.017841,-124.263576,-54.603676,-91.724167,-110.970314,-126.029022,-47.610351,-81.316509,-100.497208,-115.418758,-39.35305,-65.058472,-80.260528,-93.454101,-18.719921,-20.603691,-10.687687,-0.146904,9.53813,19.268636,23.643467,27.002875,28.000095,35.757848,38.402964,40.608689,41.348249,50.783836,54.975701,57.861408,49.912834,61.38506,65.931002,68.904864,20.854007,47.034788,71.694849,86.604589,44.856462,81.053392,89.504819,90.56302,45.768619,82.747736,82.133211,76.571817,46.30323,79.680662,74.642538,66.552349,46.419914,71.226133,67.252355,60.407449,-28.915001,-44.303729,-47.908885,-44.448299,-35.415992,-38.332921,-36.661195,-34.372447,-15.571003,-18.305855,-16.926838,-14.127741,4.310351,1.471543,1.694616,4.093583,22.670694,17.705467,15.217753,15.105997,61.073976,299.380175,-72.588501,177.655516
86,-0.163788,0.398599,0.839595,26.360213,-25.69693,-49.765068,-72.231891,-88.761165,-59.677047,-92.977947,-110.140205,-123.454284,-55.002777,-91.288135,-110.531971,-125.722526,-48.21302,-81.209827,-100.308243,-115.346878,-39.909668,-65.011551,-80.007522,-93.328697,-17.876509,-20.032982,-12.111479,-3.388109,9.860701,19.230919,23.337445,26.416888,27.65034,35.475834,38.152665,40.18229,40.652705,50.18666,54.306116,56.735167,49.20368,60.774904,65.404456,68.23675,21.161477,46.430186,70.487372,85.471659,47.660094,81.902075,88.990694,88.782767,48.694279,81.912375,81.107855,74.423041,48.363099,77.460932,72.319697,62.609059,46.927403,69.401247,66.335604,58.422186,-26.793917,-39.07676,-40.239563,-35.824149,-24.944888,-22.781345,-19.532532,-16.136821,-3.845834,-0.787095,1.037642,4.462042,16.158298,19.239211,20.24993,23.11639,33.582696,34.128385,32.376538,32.350936,60.287498,299.230078,-72.371596,203.467033
87,0.425423,0.932444,-2.705497,24.805091,-26.25531,-50.735115,-73.330147,-89.738995,-57.698639,-91.579948,-108.793545,-121.799995,-53.449013,-90.708115,-110.077618,-124.775127,-47.493645,-81.273949,-100.36116,-114.888897,-40.294396,-65.945068,-80.753414,-93.433022,-14.604862,-14.646901,-6.513631,2.089226,9.453593,17.044546,19.770864,21.962621,25.666065,32.927073,35.112087,36.53573,37.603951,46.32422,49.731299,51.561347,45.30377,56.338099,60.756317,63.488797,21.392486,46.587358,70.239011,85.796648,50.05105,83.844617,94.978288,98.607382,50.468479,83.757093,87.865682,84.99809,48.805435,78.119196,77.140016,70.219791,45.88068,68.968374,69.206091,63.426538,-23.664258,-32.704525,-31.987707,-27.686118,-15.491641,-8.676754,-6.16991,-3.291025,5.579909,13.357096,14.447522,17.268139,24.313083,32.153977,32.45149,34.230748,39.636126,44.618594,42.992286,42.05962,60.27138,299.68308,-75.518634,227.792682
88,0.508278,0.685417,-2.826165,19.662776,-24.93187,-49.901985,-72.969349,-89.790093,-53.477234,-88.413552,-107.00449,-120.792561,-49.973511,-88.197773,-108.442475,-123.321305,-45.483399,-80.152645,-99.449524,-113.499722,-40.309227,-66.751167,-81.523796,-93.578488,-5.306423,-1.493495,6.690682,14.779751,16.267356,22.122592,23.785147,25.14751,25.184449,31.198161,32.038189,32.071287,30.423662,37.53526,39.451029,40.067817,32.552767,41.313866,44.583723,46.645051,22.220227,46.802325,69.870238,86.321085,49.889254,82.253889,95.542963,102.040312,48.509091,81.297255,91.749625,93.945197,45.574265,74.154322,79.605143,77.697522,41.728753,64.054728,69.188628,67.534819,-20.807301,-26.130255,-22.809571,-18.785908,-6.344083,3.547963,8.149085,12.272339,14.015349,26.200367,28.961277,31.765308,30.926008,43.583595,45.739821,47.133941,43.758621,53.648653,53.975832,52.481595,60.297489,299.9643,-78.826968,247.051261
89,-0.120575,-0.46361,-2.731521,17.582319,-25.028893,-50.379776,-72.664238,-89.372555,-51.058136,-83.524235,-102.352032,-116.906296,-48.170197,-83.927902,-104.681603,-120.431751,-44.36364,-77.143353,-96.836815,-111.669708,-39.896668,-65.039498,-79.967709,-92.426594,-4.222863,0.069395,6.978365,13.029807,18.866752,24.287104,24.235777,23.709713,26.669435,33.16112,32.546395,30.95542,30.783989,38.684213,39.308929,38.418266,31.685063,40.869498,43.766371,45.275896,23.39249,48.12533,71.698751,89.381899,51.130468,83.653547,97.8565,104.914015,47.660568,80.564901,92.198301,95.060949,43.268577,71.670622,79.915071,80.463032,38.425392,60.865614,67.596903,67.481466,-19.044809,-21.70842,-16.411821,-11.809841,4.069086,17.831833,23.201167,27.474536,24.617956,40.463649,43.682476,46.276382,40.219358,56.185965,58.971822,60.371068,50.637369,63.72921,65.510944,65.068514,59.700417,299.270049,-82.034986,264.402939
90,-0.452431,-0.537006,-3.117125,12.890694,-25.265831,-51.124489,-72.386307,-88.105282,-50.833076,-79.246616,-94.868843,-105.933678,-48.101074,-79.300964,-95.657284,-106.554668,-44.542946,-73.590855,-88.854503,-99.200992,-40.368942,-62.875969,-75.06134,-84.471886,-3.461469,1.526124,7.942536,12.721647,20.066056,26.491075,27.616452,27.675905,26.832913,34.734508,35.373328,34.048053,30.314352,39.204126,40.05869,38.799562,31.14739,40.171076,42.854885,44.092511,25.067894,50.379055,74.155735,92.919285,51.507969,84.6526,100.684834,109.743542,45.310501,79.869759,94.981716,101.197392,39.093819,69.458451,82.14584,87.19336,33.295658,57.021744,67.006165,70.662083,-16.660508,-16.895406,-10.334548,-5.655596,12.509473,28.033576,33.559423,37.525676,32.107115,49.252327,52.611845,54.526936,45.786498,63.2446,65.981934,66.545715,53.80411,68.39824,70.585328,70.069304,58.771957,298.596309,-85.62814,277.156899
91,-0.203361,-1.055648,-4.315189,8.096628,-24.965744,-51.293129,-71.896935,-87.159325,-49.295884,-74.155232,-87.091507,-94.99141,-46.004197,-73.51339,-86.057019,-92.565113,-42.276764,-67.980961,-79.53003,-85.849194,-38.248055,-58.28801,-68.119366,-74.640576,-3.238908,2.345849,10.326806,16.050464,21.522131,29.566184,31.385166,31.455623,27.78319,37.497172,38.923965,37.577929,30.710197,40.843538,42.090748,40.811057,30.99184,40.193936,43.080657,44.357001,27.145569,53.681511,77.400352,97.014015,52.045452,86.338142,105.136825,117.795776,42.872017,80.694408,101.505318,113.999908,34.789444,69.006431,87.517547,99.163994,28.176521,54.201107,68.286426,77.247894,-14.306817,-12.893004,-5.849197,-1.843324,17.587357,32.323154,37.621513,41.210669,35.237922,50.585629,53.956868,55.322898,46.6369,62.671568,64.798128,64.164409,52.583415,66.37311,68.096922,66.843351,58.152106,297.449061,-90.359819,285.161927
92,-0.879296,-1.15782,-0.521587,6.002646,-24.481544,-50.180076,-69.054268,-83.192127,-48.370079,-68.78001,-79.318325,-85.056816,-44.57856,-66.8615,-75.866455,-79.060329,-40.257751,-61.326496,-69.006054,-71.980396,-35.532554,-52.060066,-59.283004,-63.440689,-5.886494,-2.168069,5.565676,10.671657,21.912319,32.533353,36.262793,36.941739,29.098449,41.053847,43.747684,42.77556,32.557114,44.674435,46.85541,45.714941,33.419101,43.279567,46.363741,47.290145,28.074062,54.319896,77.779804,97.778171,52.336795,85.538417,104.308055,117.603206,42.545631,79.339096,100.451213,114.236057,34.128627,67.412235,86.834873,100.40768,27.413486,53.214534,68.334011,79.427707,-13.085739,-11.079172,-3.720178,-0.319224,20.910913,35.879447,41.94403,45.950088,37.820139,53.931822,58.294439,59.808115,48.38072,65.534848,68.974914,68.771138,53.596851,68.453617,71.09178,70.364533,56.941589,296.213083,-91.212627,291.086415
93,-2.607582,-0.013764,1.734832,4.342746,-24.510257,-49.019325,-65.894703,-78.076675,-51.647112,-65.320078,-69.419666,-69.864589,-48.334465,-63.263723,-64.951629,-61.906151,-43.496074,-57.799456,-58.843895,-56.727619,-37.586843,-49.18166,-51.698833,-52.052799,-14.412201,-14.575117,-7.081933,-1.856446,15.112629,28.490633,33.847623,35.195826,29.244384,43.804316,48.556022,48.650797,39.249006,53.410395,56.950966,56.341977,45.810389,57.656884,61.077943,61.764645,27.463028,53.746617,77.073429,96.992901,52.185208,85.346958,103.850407,117.292248,42.09803,78.820153,99.679631,113.741696,33.321682,66.850903,86.134884,100.132267,26.35223,52.611283,67.96003,79.770024,-13.034882,-11.050582,-3.318701,0.123773,21.722264,37.664565,44.056844,47.844343,38.771948,55.594106,60.397992,61.570706,49.316584,67.225476,70.793019,70.135575,54.455416,69.823525,72.435049,71.511621,54.154758,296.109821,-89.657044,295.339663
94,-3.44561,1.869012,1.947293,2.181223,-21.996929,-44.965622,-61.15868,-71.54211,-55.250753,-63.747351,-59.91394,-53.217968,-53.794716,-62.459764,-54.213798,-42.101852,-49.821865,-57.912168,-49.582558,-39.365696,-44.370821,-51.779377,-47.377716,-41.403168,-14.724398,-15.541585,-6.736056,0.686436,12.559052,27.623621,35.326188,38.597731,27.702562,42.936414,49.872825,51.283958,39.03414,52.285661,56.705113,56.80907,47.339465,58.148603,60.34935,60.252798,27.153877,53.186622,76.194397,95.859558,51.82077,85.122688,103.391418,116.947059,41.749855,78.758319,99.370285,113.491424,32.902038,66.941162,86.158676,100.068283,25.872654,52.688369,68.534511,81.028953,-13.087198,-11.152347,-2.964897,0.979769,21.725721,38.083232,44.407981,48.011179,38.82583,55.652793,60.434288,61.5341,49.47338,67.45715,71.15532,70.484279,54.778,70.308327,72.801957,71.622524,50.642921,297.887863,-87.775978,297.429916
95,-3.749977,3.514426,1.388694,0.955266,-18.930645,-39.698799,-55.060627,-64.485969,-53.504957,-59.509935,-52.072014,-43.026981,-54.104713,-60.144407,-48.292854,-33.651283,-51.752804,-57.586,-46.171417,-33.864567,-47.731253,-53.923336,-47.816734,-40.423416,-16.447964,-18.670342,-9.431857,-0.578262,8.787089,24.881458,32.429859,35.546025,25.263557,40.628393,47.144729,48.497557,37.797056,50.28759,54.271196,54.36027,46.992316,57.283294,58.635505,57.912766,26.882389,52.800351,75.43126,94.811692,51.967736,85.193047,103.228569,116.860245,42.029961,79.119416,99.491364,113.735688,33.252308,67.442276,86.496689,100.338181,26.156697,53.345009,69.030659,81.545288,-13.509718,-11.549797,-2.633285,2.03622,20.96671,37.612818,44.079593,47.86414,38.16399,54.789066,59.658777,60.998181,49.013117,66.530264,70.362334,69.921424,54.563739,69.85361,72.425724,71.431296,46.897528,301.368928,-86.3827,298.351821
96,-6.179718,5.61799,1.73481,-0.050993,-14.607708,-32.59568,-47.1152,-55.929222,-50.229658,-53.286386,-42.10833,-30.903568,-53.245537,-56.115938,-40.456055,-23.442604,-52.967754,-56.28911,-41.197723,-26.616543,-50.741598,-55.881363,-47.903195,-38.989403,-18.297943,-22.081706,-13.489859,-4.624012,3.570885,19.226059,26.842546,30.395523,21.095553,35.565552,41.948889,43.694289,34.630694,45.50633,49.120842,49.526659,44.749629,53.647764,53.925468,52.544173,26.655487,52.276921,74.439331,93.636681,51.628361,84.588753,102.394409,115.88189,41.56548,78.556298,98.827538,113.015511,32.656792,66.915058,86.00013,99.771286,25.365109,52.872551,68.54234,81.086449,-13.773837,-11.192287,-1.32798,4.323245,20.990138,38.062719,44.533816,48.323254,38.181527,54.946554,59.715958,60.936158,48.993122,66.51558,70.299102,69.852325,54.434272,69.630468,72.268112,71.459132,40.7862,307.026114,-84.5795,298.340024
97,-2.992218,2.557011,0.873013,-0.251078,-11.708416,-28.772942,-43.272938,-51.100925,-54.0926,-53.199228,-36.698273,-21.713779,-59.742657,-57.769895,-36.150261,-14.920212,-60.893108,-59.775267,-39.557121,-21.575924,-59.516573,-62.077251,-50.14793,-38.386208,-19.254618,-24.047,-15.504121,-5.972444,2.181018,18.099781,25.729136,29.537488,20.594435,34.750199,40.96623,42.496627,35.166242,45.091614,47.978903,47.95516,46.383272,54.496572,53.055515,50.727895,26.598896,52.084785,73.825458,92.792782,51.475216,84.302318,102.050228,115.539219,41.174503,78.006031,98.184185,112.396145,32.089382,66.168709,85.400837,99.25288,24.614342,52.029144,67.706062,80.347332,-14.086961,-11.049717,-0.198169,6.953109,20.912568,38.527157,45.00501,48.735599,38.048295,55.077194,59.791269,61.075406,48.780887,66.449619,70.317924,70.044123,54.089162,69.472845,72.253528,71.682583,37.885036,309.666608,-83.615433,298.172429
98,-3.012291,3.751566,0.301986,-0.594878,-9.476761,-25.144546,-38.627289,-45.360912,-51.946014,-50.50003,-32.544502,-16.736824,-58.680885,-56.162544,-33.011307,-10.69384,-60.900101,-59.713451,-38.105461,-19.181808,-60.434349,-63.543331,-51.482208,-39.431442,-21.230273,-27.415923,-19.281616,-9.789589,-1.72485,13.019457,20.71772,25.14273,17.454557,30.471136,36.884954,39.000189,32.776427,41.5489,44.51192,44.993919,44.728417,51.786057,50.009892,47.66371,26.689019,52.129429,73.601155,92.27686,51.111866,83.885754,101.63332,115.123341,40.634823,77.37782,97.585705,111.909062,31.417923,65.425026,84.785992,98.668705,23.879632,51.137696,66.79564,79.431256,-13.869526,-10.364017,1.042878,9.000283,21.234373,39.000572,45.362272,49.0248,38.282958,55.249872,59.929343,61.384059,48.967076,66.479357,70.418058,70.30976,54.234473,69.721155,72.539938,72.049121,34.966845,313.528942,-83.219347,297.688319
99,-6.149414,4.530887,0.072453,-0.400798,-6.376053,-18.888405,-30.212814,-35.910118,-44.324776,-42.51614,-25.372765,-10.538429,-51.106968,-48.218571,-26.427933,-5.635208,-53.69561,-52.59613,-32.236542,-14.334618,-53.654388,-57.043018,-46.830128,-36.020142,-22.3309,-29.680978,-23.199605,-15.530204,-6.080724,7.159602,14.715345,19.310527,12.681756,24.729632,31.306854,34.034703,27.684636,36.006986,39.579038,40.820814,39.371075,45.919409,45.181294,43.434486,26.567768,51.974556,73.318176,91.80439,50.71574,83.442513,101.153915,114.629814,40.183113,76.868706,97.042717,111.490837,30.910503,64.878433,84.300934,98.347664,23.305813,50.588539,66.257664,78.95636,-13.793831,-10.05945,1.762579,10.337489,21.285034,39.171683,45.490837,49.108572,38.290887,55.276042,60.057315,61.650982,49.004411,66.468169,70.520638,70.497408,54.311328,69.831923,72.74101,72.300828,28.904594,318.191608,-83.059731,297.4193
100,0.910309,-1.555394,0.005985,-0.12066,-7.03347,-20.699684,-32.312462,-37.385204,-48.317986,-45.507271,-27.372963,-11.882836,-55.047135,-50.817467,-27.551491,-6.076744,-57.128117,-54.261189,-32.357254,-13.81881,-56.389641,-58.07103,-45.715611,-33.767716,-21.166386,-28.366213,-21.839639,-14.264012,-4.370484,8.580565,15.881527,20.079208,14.110846,26.424113,32.700252,34.673276,29.015098,37.670876,40.763744,41.362328,40.682394,47.484498,46.07302,43.877891,26.298661,51.601467,72.937649,91.306195,50.301087,83.074551,100.76302,114.206692,39.789105,76.502186,96.653904,111.142422,30.506642,64.521847,83.99065,98.175373,22.895142,50.222683,65.938809,78.761868,-13.880369,-10.153941,1.876978,10.841298,21.356331,39.228283,45.377846,48.804302,38.372669,55.175364,59.883043,61.46163,49.080561,66.390289,70.426234,70.39316,54.342931,69.860452,72.810874,72.387699,29.898783,316.743517,-82.969866,297.405943
101,2.951752,-1.448405,-0.342098,-0.232836,-8.760201,-24.731873,-37.163865,-41.737347,-52.423554,-50.471272,-32.326607,-16.522362,-58.803887,-55.006875,-31.206803,-8.788697,-60.411438,-57.84113,-35.423241,-16.116326,-58.99878,-60.974991,-47.957955,-35.269547,-21.149146,-28.345959,-20.836356,-12.626243,-4.648003,8.089723,15.875178,20.54798,14.291317,26.717019,33.433043,35.47676,29.727871,38.635269,41.736399,42.124883,41.977287,49.027949,47.224195,44.705544,26.080639,51.405293,72.768654,90.956909,49.998768,82.698463,100.369606,113.810188,39.529244,76.129005,96.262871,110.788811,30.251106,64.237358,83.753792,98.034668,22.645535,49.912434,65.698265,78.648651,-13.842886,-10.151891,1.917474,11.204526,21.349847,39.294294,45.371893,48.66261,38.335421,55.120122,59.835223,61.419714,49.04424,66.272901,70.350219,70.322394,54.304288,69.883806,72.932312,72.554252,32.93549,315.358351,-83.227009,297.236346
102,-1.348916,2.252617,-0.289089,-0.081708,-7.876396,-23.037048,-35.173439,-40.225444,-48.581417,-48.51575,-31.473999,-16.556831,-54.314083,-53.135421,-30.954597,-9.874351,-55.626113,-55.740154,-34.895553,-16.641334,-54.071937,-57.844905,-47.126976,-36.043441,-21.476286,-29.494046,-22.746628,-15.219846,-7.703623,3.66301,11.444698,16.259909,10.707201,22.017937,29.124731,31.798079,25.899951,33.927109,37.952458,39.124839,38.064054,44.606263,44.119163,42.454841,25.822964,51.097057,72.510074,90.531406,49.416046,82.024052,99.70348,113.14864,39.029434,75.674457,95.828258,110.314075,29.88763,64.011268,83.478367,97.666752,22.457256,49.76881,65.555626,78.419918,-13.713433,-10.148384,1.808867,11.344563,21.342894,39.244029,45.276439,48.494352,38.316007,55.039254,59.757405,61.305587,49.061233,66.180967,70.172439,69.980791,54.385391,69.920065,72.918184,72.400419,31.692049,317.648173,-83.410623,297.191843
103,0.259621,-0.604635,-0.426647,0.067654,-7.694183,-22.819199,-35.449081,-41.496357,-49.111164,-48.927658,-31.801369,-16.918556,-54.312767,-52.908508,-31.283844,-11.119377,-54.797035,-54.483776,-34.335388,-16.814552,-52.301639,-55.520828,-45.436924,-35.30072,-18.836049,-25.806856,-19.648524,-12.910344,-6.290638,5.558179,13.003661,17.075064,10.185508,21.964264,28.929475,31.313251,24.087107,32.670118,37.079011,38.274523,35.319198,42.520469,42.997195,41.915365,25.701324,50.911823,72.322906,90.299995,49.177299,81.639312,99.274612,112.72808,38.810566,75.407821,95.461052,109.857582,29.739544,63.836597,83.198867,97.292427,22.405929,49.713352,65.441059,78.171569,-13.813975,-10.360052,1.592098,11.24701,21.053247,38.904896,44.884707,48.061395,38.074563,54.726339,59.457149,61.031056,48.886665,65.867608,69.814435,69.580067,54.298125,69.681375,72.652299,72.138202,32.086613,317.085111,-83.702327,297.30107
104,5.688858,-4.505594,-0.361313,-0.009671,-11.030434,-29.570389,-43.904182,-50.180431,-57.599636,-57.560875,-39.542541,-23.556908,-62.454426,-61.337219,-38.358078,-16.542503,-62.379467,-62.18153,-40.919449,-22.259308,-59.252083,-62.217819,-50.664574,-39.44442,-18.611722,-24.759334,-16.685591,-8.359561,-3.173465,10.41727,18.226066,22.294678,13.954766,27.143061,33.792901,35.432139,28.557824,38.095842,41.83956,42.296587,40.484719,48.32728,47.756188,46.156247,25.51664,50.720352,72.127624,90.13108,49.032783,81.368683,99.013641,112.497642,38.693813,75.138931,95.189941,109.532272,29.637989,63.5965,82.908325,96.906486,22.309685,49.498306,65.174892,77.815819,-13.914837,-10.458136,1.508773,11.01925,21.01616,38.777987,44.745374,47.885197,38.054297,54.579004,59.262859,60.760751,48.865683,65.716814,69.524691,69.138763,54.258099,69.574968,72.475903,71.856584,37.977693,312.606842,-83.861418,297.318724
105,-1.113373,0.599955,-0.551216,-0.346259,-11.146179,-29.732185,-43.643303,-49.634239,-55.203643,-56.319591,-39.549591,-24.280288,-59.577335,-60.164989,-38.683685,-17.263939,-59.496563,-61.004207,-40.807159,-22.379265,-56.43576,-60.794414,-50.616748,-39.94178,-19.121312,-24.699906,-15.790532,-7.420881,-4.490391,9.070456,17.302515,22.055382,12.456367,25.331587,32.619778,35.274861,26.916189,36.280652,40.597129,41.807017,38.825571,46.626402,46.760055,45.74883,25.520507,50.786968,72.108238,90.028129,48.915104,81.120804,98.825615,112.386543,38.528984,74.743721,94.868133,109.248481,29.444595,63.165561,82.482628,96.418808,22.072048,49.005123,64.619316,77.131302,-13.828634,-10.203379,1.755206,11.190225,21.094336,38.858028,44.920164,48.077191,38.045084,54.668183,59.400253,60.869975,48.816467,65.719618,69.517021,69.05188,54.208946,69.601681,72.510903,71.837564,37.117149,313.212598,-84.159805,296.978266
106,-0.516449,-1.743708,-0.512684,-0.091909,-11.555362,-30.258236,-44.072628,-49.951475,-56.714847,-56.966434,-39.81063,-24.121788,-61.006988,-61.075904,-39.238884,-17.544628,-60.699348,-61.442155,-40.957351,-22.41386,-57.409801,-60.803003,-50.010131,-39.039322,-17.994064,-22.520691,-13.258814,-4.7924,-1.599756,12.845203,20.880679,25.22403,14.578648,27.952509,34.912546,37.254542,28.42033,38.215743,42.238862,43.197297,39.816696,48.204162,48.253142,47.246055,25.649723,50.946304,72.24052,90.105411,48.823047,81.019283,98.78088,112.375248,38.374317,74.39835,94.518345,108.850216,29.262131,62.741821,81.99107,95.822445,21.894321,48.608928,64.142486,76.513286,-13.802008,-10.173516,1.807187,11.252864,21.201991,38.840317,44.907197,48.077944,38.09352,54.693143,59.414011,60.887524,48.816245,65.704933,69.432052,68.877447,54.187901,69.634062,72.429084,71.606939,36.905141,311.471345,-84.368048,296.888812
107,0.701455,-3.337487,-0.46756,0.015413,-13.114621,-32.971974,-46.844639,-51.639559,-61.855088,-60.139195,-42.083542,-25.482377,-66.269566,-64.088906,-40.907044,-17.823201,-65.834851,-64.21776,-42.474473,-22.875996,-62.190869,-63.841765,-51.205731,-38.841248,-16.689821,-19.817356,-9.721898,-0.713674,3.172341,19.185267,27.136404,31.192344,19.067311,33.734584,40.176004,41.911894,32.466601,43.368556,46.435347,46.697681,43.326936,52.730912,51.630977,49.876957,25.672714,50.990913,72.232315,90.192776,49.080448,81.236172,98.961971,112.465084,38.547878,74.313457,94.344601,108.587322,29.280258,62.491894,81.675922,95.42506,21.766514,48.263123,63.74192,76.056438,-13.949838,-10.290892,1.755119,11.117371,21.227383,38.820347,44.827625,47.940513,38.062398,54.550968,59.22172,60.740595,48.71716,65.519966,69.234858,68.758046,54.051939,69.508758,72.269607,71.48718,37.939196,308.127778,-84.503008,296.898145
108,0.506126,-1.533077,-0.477196,-0.120043,-14.405674,-35.381825,-49.147831,-53.139891,-63.207424,-61.983742,-44.259224,-27.459755,-67.512371,-66.336571,-42.943726,-18.77013,-67.351593,-66.934622,-45.011124,-24.601605,-64.101608,-66.79981,-54.433445,-41.58577,-18.261937,-20.929938,-9.087203,1.041581,3.704037,20.589952,29.031141,33.813463,20.77818,35.999168,42.478182,44.480007,34.956958,46.139827,48.763016,48.828786,46.460893,55.866388,53.965216,51.803742,25.551876,50.866413,72.104347,90.040661,49.089535,81.297581,99.059086,112.551144,38.531204,74.170475,94.221531,108.424977,29.204464,62.283291,81.482975,95.17503,21.638008,47.993019,63.474152,75.756855,-13.956964,-10.247518,1.779919,11.120805,21.479782,38.989148,45.015445,48.119428,38.253108,54.704949,59.357324,60.869481,48.799572,65.630005,69.286741,68.750179,54.020051,69.520676,72.264753,71.403385,38.783209,306.578967,-84.642317,296.762368
109,-0.133244,0.122222,-0.524654,0.042929,-14.519199,-35.598999,-49.405569,-53.717319,-61.975897,-61.783813,-44.896568,-28.627555,-65.915302,-66.192237,-43.803039,-20.141018,-65.634023,-66.50402,-45.352089,-25.31258,-62.320541,-65.910272,-54.686828,-42.568222,-17.976551,-19.982618,-8.00557,2.036702,4.264638,20.914544,29.158823,34.008688,20.770653,35.591363,42.169981,44.677634,34.341838,45.250042,48.007445,48.374069,45.28548,54.597677,52.975728,51.103054,25.621742,50.883282,72.097801,89.989082,49.079281,81.342293,99.067016,112.484527,38.46048,74.193363,94.230697,108.390198,29.107967,62.229172,81.41938,95.104362,21.568153,47.894348,63.402614,75.743248,-14.026285,-10.478823,1.515713,10.872914,21.33678,38.79561,44.831799,48.014156,38.182182,54.63201,59.290103,60.886067,48.750678,65.615024,69.286099,68.821081,53.963994,69.439907,72.222306,71.441497,38.969089,306.678928,-84.847847,296.783036
110,0.315239,-1.146063,-0.445873,0.235923,-14.955768,-36.126961,-50.354135,-55.051815,-64.967073,-63.601925,-45.613952,-28.485489,-69.031677,-67.905521,-44.296806,-19.929577,-68.400484,-67.607231,-45.644371,-25.111095,-64.667564,-66.616968,-54.197696,-41.469177,-17.197619,-19.175861,-8.011609,1.680674,6.941469,23.431108,31.106357,35.282611,23.227393,37.686258,43.782037,45.732047,36.441648,47.003963,49.354703,49.33372,46.881642,56.212895,53.992918,51.713408,25.685394,50.862201,72.077945,90.004657,49.095474,81.418087,99.095935,112.388843,38.455604,74.348659,94.344532,108.386936,29.106628,62.329067,81.478168,95.073429,21.626918,47.977501,63.485939,75.814876,-14.059123,-10.749338,1.174802,10.47397,21.280539,38.517326,44.474018,47.689794,38.201473,54.514796,59.152585,60.850474,48.753729,65.547359,69.182779,68.7897,53.907122,69.268365,72.028361,71.286529,39.60613,305.513223,-84.971918,296.999317
111,0.576485,-0.782507,-0.284203,0.233615,-15.455612,-36.868424,-51.525261,-56.668522,-66.721773,-65.25182,-46.607563,-28.87492,-70.743685,-69.426624,-45.19043,-20.382111,-69.851692,-68.583899,-46.205349,-25.318909,-65.872044,-67.039118,-54.023655,-40.949009,-16.50507,-18.308417,-7.640786,1.758386,8.68057,25.065628,32.5439,36.489411,24.731633,38.866599,44.861662,46.684022,37.648294,47.919901,50.244384,50.165411,47.678963,57.007715,54.640457,52.244325,25.550343,50.621658,71.848194,89.876415,48.963078,81.398266,99.077419,112.302235,38.380371,74.599651,94.620129,108.584965,29.13517,62.661942,81.775349,95.27306,21.816216,48.307732,63.793293,76.08411,-14.186997,-11.056449,0.790467,10.001627,21.065189,38.16972,44.066749,47.295356,38.120419,54.259729,58.883636,60.652576,48.746923,65.388585,68.960118,68.60446,53.926437,69.081816,71.821188,71.123815,40.522179,304.720437,-84.916557,297.222653
112,0.83773,-0.418952,-0.187466,0.182596,-16.01873,-37.823387,-52.918945,-58.56744,-67.239996,-66.733497,-47.877399,-29.795848,-71.051324,-70.755546,-46.483909,-21.498619,-69.987648,-69.434023,-47.035022,-25.93602,-65.933979,-67.176721,-54.164703,-41.007717,-15.898903,-17.380283,-6.893099,2.26984,9.481943,25.818107,33.471453,37.62909,25.283373,39.132385,45.408857,47.533559,37.961776,47.997855,50.676489,50.869144,47.677444,56.982138,54.918347,52.695807,25.480797,50.398716,71.596184,89.638665,48.720028,81.252915,98.934723,112.13134,38.218266,74.686318,94.734902,108.656639,29.131119,62.854763,81.92846,95.343796,22.007092,48.528889,63.980233,76.260384,-14.245499,-11.262843,0.527817,9.686898,20.805405,37.812667,43.744658,47.061816,38.006316,54.057545,58.722949,60.549737,48.736759,65.28277,68.790539,68.398807,53.978554,69.028303,71.75635,71.03918,41.721531,304.295255,-84.742401,297.399019
113,0.989914,-1.567337,-0.089618,0.188857,-16.848816,-39.28474,-55.120674,-60.882476,-71.277025,-69.801693,-49.435707,-30.159793,-75.262167,-73.540558,-47.716735,-21.750972,-73.857639,-71.342153,-47.4902,-25.527969,-69.347173,-68.387168,-53.05252,-38.448726,-14.34722,-15.787548,-6.220538,2.477242,12.738617,29.263126,36.749097,40.491283,28.021078,41.917798,48.06289,49.746231,40.18029,50.302454,52.789032,52.70289,49.184352,59.001013,56.609858,53.998673,25.471996,50.348968,71.524784,89.623272,48.565429,81.151645,98.837024,111.989124,38.095276,74.770122,94.816944,108.675899,29.106697,63.019844,82.033641,95.362575,22.125263,48.706192,64.101047,76.346546,-14.363319,-11.500977,0.248731,9.2903,20.484835,37.456306,43.436401,46.843801,37.789153,53.797157,58.537872,60.430139,48.621373,65.126048,68.606918,68.213358,53.929438,68.964317,71.666577,70.941121,43.122682,302.725435,-84.420782,297.585393
