takenoko1/special-research/HandMotion_SimilarSearch_自分用/NewProject/handData_new/key/d3_feature/97.csv
,vel_0x_L,vel_0y_L,vel_0x_R,vel_0y_R,posFromWrist_1x_L,posFromWrist_2x_L,posFromWrist_3x_L,posFromWrist_4x_L,posFromWrist_5x_L,posFromWrist_6x_L,posFromWrist_7x_L,posFromWrist_8x_L,posFromWrist_9x_L,posFromWrist_10x_L,posFromWrist_11x_L,posFromWrist_12x_L,posFromWrist_13x_L,posFromWrist_14x_L,posFromWrist_15x_L,posFromWrist_16x_L,posFromWrist_17x_L,posFromWrist_18x_L,posFromWrist_19x_L,posFromWrist_20x_L,posFromWrist_1y_L,posFromWrist_2y_L,posFromWrist_3y_L,posFromWrist_4y_L,posFromWrist_5y_L,posFromWrist_6y_L,posFromWrist_7y_L,posFromWrist_8y_L,posFromWrist_9y_L,posFromWrist_10y_L,posFromWrist_11y_L,posFromWrist_12y_L,posFromWrist_13y_L,posFromWrist_14y_L,posFromWrist_15y_L,posFromWrist_16y_L,posFromWrist_17y_L,posFromWrist_18y_L,posFromWrist_19y_L,posFromWrist_20y_L,posFromWrist_1x_R,posFromWrist_2x_R,posFromWrist_3x_R,posFromWrist_4x_R,posFromWrist_5x_R,posFromWrist_6x_R,posFromWrist_7x_R,posFromWrist_8x_R,posFromWrist_9x_R,posFromWrist_10x_R,posFromWrist_11x_R,posFromWrist_12x_R,posFromWrist_13x_R,posFromWrist_14x_R,posFromWrist_15x_R,posFromWrist_16x_R,posFromWrist_17x_R,posFromWrist_18x_R,posFromWrist_19x_R,posFromWrist_20x_R,posFromWrist_1y_R,posFromWrist_2y_R,posFromWrist_3y_R,posFromWrist_4y_R,posFromWrist_5y_R,posFromWrist_6y_R,posFromWrist_7y_R,posFromWrist_8y_R,posFromWrist_9y_R,posFromWrist_10y_R,posFromWrist_11y_R,posFromWrist_12y_R,posFromWrist_13y_R,posFromWrist_14y_R,posFromWrist_15y_R,posFromWrist_16y_R,posFromWrist_17y_R,posFromWrist_18y_R,posFromWrist_19y_R,posFromWrist_20y_R,posFromBody_0x_L,posFromBody_0y_L,posFromBody_0x_R,posFromBody_0y_R
6,-3.414357,-1.199008,-0.249447,-0.359042,12.234444,24.485756,32.26632,35.575882,13.728424,38.883774,53.691811,60.733773,6.086918,35.483414,51.704613,63.686783,-2.879631,22.898804,38.42537,48.661103,-10.473369,-4.59716,-1.310039,1.433396,-24.272259,-30.413078,-30.929954,-28.636099,-5.15942,12.751991,16.133716,14.861003,15.149587,33.218066,33.988378,31.197716,29.931302,45.496333,43.859712,40.427983,40.878946,53.724563,51.964392,47.793658,23.032757,47.719712,69.046818,84.616986,52.768776,85.256665,102.584095,114.914189,45.240647,81.125714,101.343739,115.019818,36.31556,70.20718,88.902775,101.140126,27.390553,54.144574,68.803334,79.618527,-16.497005,-16.006608,-6.049601,2.71151,11.798528,25.79227,31.962878,35.659752,29.373424,42.920538,48.056147,50.147349,41.766373,56.136991,59.439304,58.755554,49.584272,64.002067,66.038188,63.913838,-24.310341,295.284338,-68.819607,285.626018
7,0.62479,-0.279334,0.012051,-0.073038,12.007977,24.011754,31.915524,35.55637,13.085461,37.625439,52.507611,59.648221,5.648118,34.433659,50.705945,62.718396,-3.168468,22.199055,37.723584,48.012761,-10.676593,-4.785404,-1.438167,1.227494,-24.414124,-30.465751,-31.111648,-29.154247,-5.211204,12.880716,16.250214,14.976698,15.250648,33.312915,33.968445,31.167039,30.078947,45.625712,43.891613,40.42965,41.003496,53.755203,52.074246,48.085169,22.981785,47.601849,68.924973,84.557304,52.844318,85.250473,102.531303,114.826424,45.281158,81.082489,101.291611,114.954506,36.283974,70.214539,88.917046,101.170692,27.266785,54.025978,68.689796,79.505333,-16.445271,-16.054799,-6.135719,2.691527,11.803554,25.864753,31.9456,35.559308,29.395777,43.003073,48.089208,50.093589,41.820083,56.25728,59.526471,58.754356,49.659669,64.113155,66.167863,64.031373,-24.062863,294.842017,-69.184868,285.389993
8,-0.467971,-0.267441,-0.035797,0.194057,12.086025,24.219349,32.763942,36.937763,13.746677,38.579738,53.181759,60.059017,6.308063,35.605808,51.513347,63.025898,-2.509518,23.337192,38.615787,48.66196,-10.070572,-3.05634,0.975849,4.033573,-24.521508,-30.372792,-31.024111,-29.207377,-5.419624,12.911357,16.194873,14.975549,15.210423,33.362513,33.96553,31.258108,30.189171,45.753684,43.989277,40.52372,41.180238,54.052816,52.270057,48.205348,22.989178,47.522621,68.844246,84.57621,52.782017,85.173569,102.474747,114.826698,45.27729,81.095695,101.341713,115.049927,36.363304,70.343307,89.052956,101.314407,27.400062,54.184032,68.842232,79.647034,-16.49088,-16.186722,-6.341348,2.437214,11.688488,25.693074,31.719914,35.288841,29.304077,42.811634,47.807996,49.728891,41.782527,56.129062,59.33949,58.49677,49.681862,64.053776,66.046598,63.850506,-24.778867,294.445885,-69.468698,285.455359
9,0.1455,-0.039866,0.016914,0.171863,12.160034,24.135326,32.682964,36.960605,13.637432,38.564175,53.086544,59.844807,6.279167,35.767673,51.568783,62.844143,-2.461544,23.563946,38.803448,48.753239,-10.018822,-2.436962,1.987907,5.265278,-24.610614,-30.31287,-30.922828,-29.234621,-5.486512,12.870206,16.064728,14.811219,15.105497,33.190674,33.747082,31.084552,30.074439,45.611818,43.843089,40.438603,41.03473,53.984162,52.166291,48.12942,22.944329,47.434777,68.713349,84.49514,52.672016,85.088539,102.451264,114.882202,45.215092,81.098213,101.390328,115.12912,36.367882,70.41449,89.131119,101.388039,27.442349,54.271523,68.925362,79.698921,-16.600919,-16.318559,-6.521955,2.174294,11.534483,25.433809,31.456006,35.026477,29.218257,42.616751,47.584979,49.489497,41.771141,55.996731,59.145484,58.254227,49.730905,64.000387,65.920578,63.664576,-24.796663,294.308441,-69.61508,285.529644
10,-0.081402,0.177804,0.077557,0.157093,12.301266,24.111374,32.623421,36.733017,13.823135,38.828247,53.274513,60.000343,6.345131,35.953491,51.83773,63.052895,-2.442089,23.757752,39.215378,49.287804,-10.121773,-1.113705,5.007008,9.57328,-24.767127,-30.420081,-31.029001,-29.063016,-5.983195,12.29862,15.557411,14.478224,14.601194,32.638119,33.399057,30.906884,29.743333,45.241872,43.624851,40.33816,40.850726,54.06072,51.941236,47.525118,22.88863,47.270908,68.513958,84.381649,52.700088,85.151539,102.562145,115.035404,45.248646,81.133884,101.419887,115.155384,36.358246,70.371815,89.099659,101.363376,27.367275,54.177326,68.824276,79.596233,-16.67697,-16.366391,-6.616532,1.938272,11.473079,25.268565,31.273818,34.852921,29.116728,42.435266,47.453574,49.418818,41.651209,55.820212,58.974781,58.090614,49.636871,63.8933,65.823358,63.584795,-25.010885,294.407519,-69.670343,285.608011
11,0.812622,0.187005,-0.111958,0.142372,12.091473,23.496872,31.613869,35.358536,13.18586,37.872917,52.308769,59.132835,5.701241,34.992165,50.995628,62.420242,-3.031254,22.870422,38.561943,48.928162,-10.718193,-1.405254,5.590016,10.984348,-24.836633,-30.514201,-31.117885,-28.986384,-6.195765,11.921041,15.22838,14.182242,14.36958,32.264726,33.137037,30.734946,29.540928,44.886165,43.323027,40.106658,40.63376,53.979456,51.746463,47.173141,22.9147,47.2733,68.50882,84.408989,52.72554,85.159333,102.654053,115.216736,45.340577,81.244011,101.576752,115.344887,36.498162,70.500389,89.221184,101.451393,27.520535,54.371041,68.973954,79.654129,-16.696928,-16.408937,-6.721866,1.736903,11.439758,25.088501,31.097372,34.70362,29.06004,42.270331,47.339768,49.384052,41.588409,55.622894,58.766237,57.909549,49.631387,63.781013,65.647777,63.358232,-24.301134,294.529813,-69.885172,285.685672
12,0.557797,0.114127,-0.132614,0.078979,12.044151,23.279674,31.082622,34.26218,12.852504,37.418209,51.698742,58.617908,5.261432,34.39722,50.47958,62.090091,-3.409024,22.425235,38.375667,49.039226,-11.124836,-0.407799,8.401176,15.250522,-24.956787,-30.595007,-31.088393,-28.483785,-6.533811,11.461951,14.780616,13.882098,13.935784,31.72998,32.855184,30.734872,29.219529,44.543215,43.112557,40.095074,40.45088,54.06114,51.530262,46.637122,23.001526,47.37275,68.592247,84.445954,52.738838,85.287094,102.876343,115.521813,45.37159,81.359184,101.740448,115.523117,36.587151,70.583794,89.300171,101.482361,27.685387,54.561104,69.17363,79.813362,-16.713564,-16.405541,-6.749666,1.712858,11.529506,25.024997,31.021628,34.657332,29.148998,42.223487,47.266248,49.34904,41.654407,55.565923,58.688728,57.855035,49.694669,63.771355,65.562895,63.196434,-23.829408,294.604886,-70.103857,285.725597
13,1.393066,-0.214298,-0.08765,0.107631,11.658772,22.408527,29.195972,31.782909,11.39867,34.820194,49.859905,57.678234,3.886517,31.714176,48.662098,61.468197,-4.745819,19.687191,36.19495,47.691227,-12.448975,-4.269997,3.233448,9.422115,-24.840055,-30.537197,-31.070276,-28.64556,-6.081156,11.933106,15.438665,14.4235,14.158505,31.898706,33.141186,30.948899,29.123371,44.458394,43.24448,40.359859,40.085551,53.535013,51.57834,47.287576,23.079403,47.440063,68.678409,84.56821,52.759037,85.563366,103.255817,115.926784,45.304092,81.539097,101.921299,115.662861,36.498688,70.65572,89.318722,101.359096,27.653,54.732239,69.382702,79.95187,-16.755764,-16.462117,-6.796399,1.700174,11.520169,24.928431,30.990309,34.725381,29.21433,42.188561,47.237892,49.445358,41.736918,55.473001,58.559237,57.822641,49.79258,63.699551,65.348695,62.937761,-22.509121,294.354825,-70.264286,285.797465
14,2.228989,-0.0464,-0.108502,-0.010053,10.96043,20.854534,26.559963,28.60326,8.945903,30.924465,47.078853,56.10712,1.324344,27.671917,45.867954,60.268947,-7.280457,15.54626,32.783741,45.348735,-14.846009,-9.238804,-2.477555,3.733543,-24.728854,-30.66686,-31.334629,-29.091669,-5.947009,12.317207,16.231899,15.214054,14.269026,32.026444,33.51122,31.368148,29.004144,44.228548,43.348654,40.731288,39.68594,52.966046,51.482159,47.626488,23.242608,47.663521,68.951775,84.806008,52.635579,85.78402,103.631104,116.383049,45.097699,81.674607,102.100022,115.884774,36.332634,70.753579,89.462677,101.48124,27.599087,54.94257,69.688408,80.259202,-16.720221,-16.422905,-6.710331,1.89675,11.719339,25.051772,31.108091,34.903778,29.441559,42.27432,47.233619,49.511678,41.936952,55.522994,58.567783,57.917947,49.96027,63.683805,65.193837,62.724055,-20.337839,294.275426,-70.430495,285.754413
15,-1.584526,-0.371144,-0.131149,0.093342,11.178051,21.945087,28.215305,30.517879,10.152385,32.414783,49.015285,58.470623,2.396724,29.101009,47.795299,62.816791,-6.302411,16.728206,34.12389,46.95148,-13.878331,-8.955357,-2.972386,2.878818,-24.426561,-30.710629,-31.51683,-29.461641,-5.997768,12.867402,17.068023,16.112905,14.355007,32.54364,34.275369,32.122156,29.08059,44.496124,43.853277,41.329686,39.753445,53.015655,51.774435,48.102607,23.425324,47.962372,69.336617,85.097603,52.557896,86.02121,104.005531,116.888008,44.945515,81.814751,102.246735,116.076393,36.244114,70.912445,89.633629,101.676659,27.641522,55.204388,69.99987,80.598107,-16.731682,-16.536267,-6.77507,1.994625,11.722315,25.017043,31.090455,34.968455,29.516462,42.234947,47.117281,49.436293,42.054253,55.463084,58.480246,57.882625,50.096615,63.586289,64.936548,62.399223,-21.956651,293.873129,-70.59593,285.816602
16,-2.415116,-0.430487,0.01704,0.057576,11.979229,23.957852,31.107525,33.800205,12.556881,35.699902,52.322445,61.71928,4.450379,32.097187,50.847004,65.825169,-4.623665,19.131214,36.423832,49.103634,-12.49126,-7.338032,-1.667141,3.970917,-23.956727,-30.470272,-31.276584,-29.125619,-6.089221,13.421131,17.852476,17.086648,14.313931,33.074163,35.120189,33.119833,29.061497,44.779373,44.439375,42.159081,39.839476,53.102761,52.028946,48.590967,23.458031,48.075142,69.519871,85.348744,52.613537,86.366558,104.401486,117.291974,44.8629,81.989788,102.349995,116.101033,36.120793,71.025181,89.698941,101.664311,27.570534,55.352658,70.202671,80.790883,-16.794111,-16.628806,-6.82699,1.947756,11.66422,25.018661,31.140572,35.102726,29.537408,42.224573,47.067671,49.429933,42.122871,55.426342,58.403515,57.852429,50.163972,63.491996,64.725399,62.17171,-24.406798,293.416114,-70.613921,285.84765
17,-2.550659,-0.63183,-0.007461,0.047535,12.6591,25.699162,33.613117,36.820278,14.765888,38.865795,55.705708,65.05402,6.431763,35.306545,54.209461,69.297169,-2.927628,21.780499,39.042217,51.666309,-10.987163,-6.46891,-1.992405,2.878979,-23.472258,-30.12773,-30.924174,-28.934984,-5.773269,14.226467,18.910804,18.29619,14.72709,33.959552,36.232153,34.199959,29.380994,45.236474,45.196522,43.044273,40.111314,53.286542,52.650043,49.521224,23.522335,48.137123,69.64159,85.544346,52.526642,86.484295,104.611645,117.521839,44.752762,82.158748,102.516117,116.253536,36.069031,71.225201,89.853298,101.722744,27.618564,55.602745,70.461765,80.987308,-16.759148,-16.694125,-6.915774,1.888476,11.590577,24.92506,31.077871,35.101009,29.507027,42.152585,46.995831,49.433688,42.140309,55.311363,58.255339,57.778898,50.241148,63.385168,64.498553,61.926364,-26.984327,292.760948,-70.648252,285.871849
18,-2.981174,-0.397475,0.022167,-0.093119,13.648109,27.802345,36.92601,40.658454,17.961227,43.712402,59.802864,68.16069,9.305934,40.136055,58.385238,72.493858,-0.444226,26.189552,42.97776,54.860916,-8.90728,-2.081337,3.21627,8.483253,-23.228492,-29.963672,-30.761759,-28.743817,-5.981911,14.223639,18.973221,18.611141,14.649717,34.234786,36.881631,35.146704,29.530405,45.460925,45.802688,43.910063,40.580839,54.012764,53.302671,49.889911,23.541367,48.216511,69.781242,85.704323,52.46236,86.494492,104.631409,117.544945,44.689671,82.199982,102.531967,116.227387,36.068527,71.327637,89.969925,101.857224,27.690159,55.7085,70.57814,81.117783,-16.75453,-16.717393,-6.914132,1.913522,11.46489,24.880587,31.039474,35.084447,29.403323,42.123834,47.004512,49.483272,42.077743,55.284403,58.261044,57.83567,50.208865,63.329814,64.457587,61.927907,-29.990455,292.351043,-70.651039,285.7663
19,-4.813534,-0.587222,0.027031,-0.045831,15.341148,31.744663,42.763607,47.286678,23.740665,51.90398,66.734653,73.550113,14.670387,48.031963,64.873935,77.154453,4.198391,33.234798,49.03387,59.582599,-5.060761,4.396923,9.634552,14.315094,-22.844059,-29.410486,-29.978973,-27.573189,-5.926866,14.567428,19.047075,18.848461,14.731363,34.906322,37.715361,36.152174,29.76092,46.059237,46.538865,44.674459,41.125552,54.76912,54.033907,50.459818,23.519291,48.145283,69.732834,85.726318,52.489243,86.453522,104.531754,117.409493,44.776451,82.247246,102.51297,116.105164,36.210297,71.430313,89.975807,101.777435,27.879833,55.834545,70.628174,81.106361,-16.744427,-16.81365,-7.028988,1.801605,11.203636,24.652357,30.867339,34.961502,29.171314,41.9423,46.90581,49.43092,41.916068,55.110575,58.149375,57.788962,50.134591,63.250082,64.418313,61.955225,-34.82444,291.752666,-70.644459,285.709314
20,-0.877144,-0.259068,0.063149,-0.127466,15.858421,32.539638,43.849834,48.538273,25.184086,54.185177,68.498508,74.646503,15.880028,50.122433,66.442692,78.044666,5.05196,34.936809,50.606312,60.823437,-4.528828,5.62912,10.978191,15.576633,-22.650458,-29.145713,-29.470495,-26.501585,-5.690992,14.573653,18.965713,18.987844,14.880787,35.10091,38.001587,36.667407,29.872231,46.162867,46.679705,44.915261,41.320609,54.94543,54.267584,50.712674,23.480232,48.016891,69.617408,85.736846,52.697353,86.458419,104.408454,117.172416,45.071331,82.305839,102.469665,115.997634,36.500907,71.49591,89.907646,101.61145,28.14727,55.978637,70.706085,81.128448,-16.643798,-16.749033,-7.010388,1.772744,11.150334,24.530277,30.774553,34.906335,29.07612,41.766127,46.794907,49.415385,41.837559,54.933945,58.018946,57.749146,50.145052,63.239277,64.38923,61.913458,-35.720278,291.485024,-70.600004,285.573274
21,1.030884,0.030036,0.041576,-0.141013,15.504924,31.739536,42.51186,46.981579,24.525364,53.221447,67.379802,73.333866,15.36066,49.313678,65.47427,77.000393,4.572475,34.152569,49.77325,59.913883,-5.022251,4.439357,9.146862,13.195141,-22.672751,-29.120853,-29.158915,-25.901384,-5.34524,14.50611,18.809867,18.884264,15.150945,35.100774,37.870144,36.598394,29.999708,46.167843,46.527268,44.702975,41.322745,54.884717,54.313303,50.803793,23.569405,48.00087,69.601696,85.689571,52.680885,86.257107,104.170452,116.942974,45.21254,82.235424,102.395565,115.985355,36.736141,71.536091,89.890331,101.607044,28.419754,56.150082,70.815571,81.217747,-16.452063,-16.682071,-7.044252,1.82722,11.147728,24.387868,30.609111,34.74613,29.020335,41.571514,46.635356,49.327724,41.812093,54.763081,57.908993,57.707094,50.240358,63.281736,64.409644,61.891228,-34.699888,291.509443,-70.568922,285.426644
22,-1.10487,-0.032815,0.252743,-0.052043,15.85762,32.663338,43.797157,48.433983,26.385338,55.89402,69.431923,74.651985,17.243717,51.828438,67.115044,77.682678,6.243278,36.520866,51.445244,60.750366,-3.562431,6.668278,10.611763,13.688862,-22.820469,-29.190321,-29.061275,-25.449691,-5.139622,14.651953,18.589567,18.586825,15.417473,35.424421,37.98894,36.741755,30.253775,46.397494,46.632034,44.752858,41.5521,55.033598,54.425616,50.848278,23.487293,47.91671,69.525856,85.559097,52.87762,86.302368,104.096306,116.750656,45.375057,82.185928,102.241745,115.731788,36.784,71.450592,89.71408,101.386093,28.357006,56.102543,70.734008,81.117508,-16.523694,-16.767756,-7.139891,1.726875,11.07501,24.410703,30.665427,34.823836,28.925671,41.447074,46.524909,49.247226,41.751911,54.652832,57.821715,57.651629,50.251225,63.23956,64.364023,61.886226,-35.815939,291.471698,-70.32736,285.369671
23,-0.546364,-0.116053,0.189685,-0.09864,15.999207,33.164177,44.533447,49.318794,27.356873,57.404091,70.679741,75.557419,18.178345,53.126061,67.998161,78.087479,7.055763,37.744377,52.434746,61.430924,-2.813324,8.361946,12.447201,15.43103,-22.862917,-29.084074,-28.595739,-24.172137,-4.948246,14.773119,18.505746,18.572572,15.589978,35.61492,38.080318,36.923906,30.417438,46.567937,46.715903,44.814497,41.648862,55.17261,54.395826,50.635486,23.430794,47.91243,69.549901,85.495823,52.991456,86.256787,104.017697,116.659848,45.482255,82.190175,102.23647,115.678952,36.829663,71.490819,89.656277,101.209866,28.298069,56.153641,70.725346,80.989918,-16.57244,-16.826617,-7.157367,1.771446,10.928711,24.302615,30.60154,34.784377,28.830971,41.358845,46.478819,49.228639,41.760717,54.603654,57.769042,57.611652,50.390213,63.321355,64.42707,61.93034,-36.372454,291.352468,-70.147826,285.267854
24,0.057529,-0.080424,0.292489,-0.145163,15.963433,32.971905,44.173474,48.889721,27.643765,57.856625,70.938321,75.558804,18.45234,53.555043,68.200345,77.987011,7.274243,38.184414,52.8112,61.656086,-2.576328,8.876313,12.900811,15.722947,-22.970672,-29.266336,-28.594702,-23.682876,-4.877369,14.651619,18.382888,18.524173,15.627831,35.618342,38.083912,36.99424,30.449499,46.528762,46.73097,44.76606,41.615319,55.179538,54.403323,50.489706,23.337146,47.775592,69.395633,85.346958,53.010669,86.243351,103.99863,116.596538,45.468704,82.184772,102.239879,115.635326,36.746189,71.473011,89.574268,101.015636,28.143665,56.127204,70.668399,80.808666,-16.594312,-16.797903,-7.130184,1.717983,10.928872,24.294551,30.573185,34.720071,28.863834,41.366971,46.452229,49.206717,41.836312,54.615843,57.69835,57.524967,50.492805,63.357096,64.389291,61.860649,-36.324589,291.268555,-69.865001,285.119202
25,0.114144,-0.359301,0.222999,-0.409047,15.895752,32.74213,43.773708,48.492199,27.903499,58.114483,71.061252,75.595837,18.708675,53.942654,68.35326,77.991405,7.549232,38.296543,52.49255,61.150463,-2.234917,8.554607,11.51802,13.469238,-22.801809,-28.747904,-27.992413,-23.215895,-4.667664,14.92116,18.692047,18.721231,15.724878,35.731283,38.113145,36.950878,30.51614,46.634899,46.896387,44.921461,41.672772,55.232767,54.782199,51.080175,23.330567,47.780102,69.343609,85.359478,53.057465,86.306385,104.083935,116.731762,45.457249,82.170651,102.223995,115.685703,36.681828,71.399151,89.612423,101.210118,28.035027,56.082642,70.724384,81.0164,-16.716998,-16.795952,-7.039016,1.653441,10.943136,24.325809,30.518832,34.564842,28.92204,41.353226,46.346858,49.008696,41.929505,54.638407,57.719221,57.546543,50.585517,63.382018,64.439173,61.96949,-36.223846,290.908568,-69.655403,284.709469
26,3.438091,-1.677079,0.330139,-0.897468,13.96756,28.07103,36.677605,38.893925,23.17709,52.241364,65.730629,70.858956,14.671063,49.766991,64.907341,74.65828,4.483944,35.334892,50.667801,60.186585,-4.368656,7.712071,13.078285,16.917778,-17.487779,-20.402238,-18.220633,-13.825844,-0.385854,19.430767,23.458178,23.736611,15.998395,35.957437,39.099669,38.543545,27.271414,43.581119,45.133351,44.074554,35.82849,49.312767,50.032629,47.840538,23.047772,47.380658,68.797062,85.01746,53.177742,86.591069,104.441838,117.147984,45.552029,82.382252,102.476521,116.035481,36.718472,71.472073,89.903515,101.862545,27.993016,55.9716,70.755764,81.352719,-17.184597,-17.109125,-7.198357,1.304292,10.594913,24.120365,30.466554,34.584207,28.705605,41.206235,46.325554,48.96799,41.794222,54.654104,57.92427,57.848169,50.458768,63.364222,64.628154,62.314144,-32.785069,289.227059,-69.324578,283.807571
27,12.052345,-4.989533,-0.067806,-3.219309,9.095261,16.724579,20.598519,18.663517,8.674439,33.843247,48.737435,56.22432,1.366654,32.986725,50.005967,62.290535,-6.478797,21.74746,39.35392,51.565201,-12.998943,-1.36354,6.898156,13.902398,-5.402753,-2.604718,1.937975,6.485004,9.582639,28.241403,33.096431,34.155549,18.446466,37.602877,42.734855,43.682822,23.025087,39.241399,43.277777,44.37029,25.68401,38.92173,42.017525,42.493065,23.949589,48.428032,69.493218,85.655914,53.60574,86.393944,104.227547,117.167427,46.078503,82.007195,102.046578,115.95076,37.295197,71.083626,89.711083,102.220276,28.409638,55.476517,70.253655,81.112839,-17.51601,-16.947425,-6.613716,1.942137,9.611687,23.687607,30.712124,35.493199,27.659171,41.449162,47.710357,51.317199,40.821728,54.829797,59.199243,60.106085,49.821875,63.504705,65.543382,63.831908,-20.717932,284.233225,-69.377592,280.583961
28,23.890606,-9.381715,0.296917,-7.146313,0.763676,-0.782856,-4.115581,-10.314491,-10.926944,-0.883712,12.844517,21.960675,-16.104766,-0.561905,15.609993,28.976979,-21.339294,-7.529651,9.048523,22.398274,-25.171943,-23.325393,-14.699123,-5.848182,7.42629,16.116524,23.388574,27.177394,24.711021,37.801947,40.240335,41.018847,26.353149,38.36395,41.847044,42.971729,23.803499,34.005038,36.829737,38.272498,19.921338,28.108899,31.083478,33.035729,25.186375,49.795692,70.089558,86.161366,53.565765,85.672909,102.168423,113.268482,45.801647,80.503841,99.059452,110.845448,36.668655,68.76289,86.067593,96.950672,27.373467,53.133682,67.053829,76.420017,-16.408344,-14.57059,-3.447834,5.941427,9.750316,25.288498,33.431883,38.983986,27.129636,43.929712,52.154756,57.055219,39.994914,56.846552,62.900402,65.131617,49.170297,64.259047,67.279667,66.475763,3.195814,274.853751,-69.057535,273.439889
29,30.167267,-20.136698,-5.960747,-16.625304,-10.354671,-20.850208,-28.871166,-36.661903,-33.707599,-34.888275,-23.979664,-14.878841,-35.375782,-32.816871,-21.105491,-9.935428,-35.781521,-33.69437,-22.298149,-11.942493,-34.523208,-39.280186,-33.55759,-26.791088,10.492025,23.53691,34.628421,40.410742,30.254256,44.347726,48.155429,49.665412,30.793559,44.706113,50.335626,53.11537,27.960784,40.706711,46.279278,49.801917,23.731708,33.71591,39.447769,44.241811,26.485377,51.805493,71.838421,87.269022,55.391951,86.855215,100.285641,108.327942,47.393057,80.629721,96.137604,104.825358,37.796185,68.384577,83.204247,91.554303,27.814774,52.297863,64.763283,72.170775,-16.590168,-14.467745,-2.977247,7.332738,7.171081,23.984477,32.129869,37.320985,24.392876,43.366715,52.168162,57.175354,37.727655,56.451479,63.35604,66.17691,47.764511,63.842213,67.55361,67.314297,33.385019,254.803479,-74.996344,256.901011
30,29.016895,-23.272891,-12.059875,-25.936594,-19.899581,-38.167831,-50.823211,-60.648685,-54.457946,-66.649784,-57.678199,-48.391822,-52.657939,-62.297664,-52.335811,-41.261993,-48.231983,-56.615364,-46.855167,-36.636863,-42.036964,-51.267929,-45.22293,-37.39952,13.880332,29.954532,43.958032,51.590827,35.815635,50.278322,53.224521,53.916706,34.195279,49.14351,53.909024,55.686238,29.858523,43.690393,48.372223,50.916043,24.31714,34.762358,39.741207,43.90521,27.736959,54.223686,74.471844,88.699087,58.704672,89.696749,98.424579,102.141174,50.497724,82.311556,93.324669,97.812589,40.381897,69.955908,81.027168,85.659107,29.505855,52.911461,63.21112,67.863916,-17.96861,-16.585413,-5.243511,6.024729,1.943169,19.778472,26.829375,30.529861,19.547754,39.947719,47.902815,51.849679,34.097818,53.805623,60.556956,63.166047,45.606064,62.273185,66.282886,66.224711,62.457498,231.832856,-87.000635,231.266685
31,35.405549,-34.957266,-19.83696,-34.540099,-26.122559,-50.182091,-66.33252,-75.480355,-66.195317,-89.254246,-83.781006,-74.947747,-62.003289,-84.480412,-78.849278,-69.325814,-54.951451,-75.045731,-69.646992,-60.98465,-45.995156,-62.308239,-59.536835,-53.171219,6.80224,19.208522,34.164848,45.226255,25.317008,39.55046,43.419524,44.273909,26.910669,42.308709,47.752174,49.598363,26.595946,41.034878,45.652487,47.58635,24.779156,36.130759,40.547679,43.48159,26.3995,53.213871,74.461407,88.529554,54.064882,85.466887,93.970345,96.514171,46.600622,79.408041,89.281872,91.904989,38.026039,68.745478,77.021175,78.697472,29.026165,52.516868,60.182487,62.113272,-19.897119,-20.892399,-10.611499,0.932623,-9.300606,5.962663,13.641444,17.933864,8.331693,27.337371,36.030637,40.614771,24.587501,43.410497,50.401749,52.966317,38.619492,54.20923,57.763188,57.351097,98.005131,197.555564,-106.695511,197.40656
32,33.731323,-37.085445,-22.086662,-39.615507,-30.583351,-56.322533,-73.910042,-82.103211,-62.439102,-92.20071,-92.823143,-87.549843,-56.021965,-87.995968,-88.767758,-83.194496,-48.477699,-78.418419,-79.36076,-74.117867,-39.804588,-63.419438,-65.288498,-61.680153,-5.886049,-1.982281,9.785983,21.93571,-0.378586,9.040501,14.461131,16.550228,6.998971,19.270933,25.166868,27.131939,13.869013,25.953494,30.517684,31.817184,19.621224,28.952471,32.827482,34.823818,25.565603,51.325744,71.518581,84.979356,46.151968,75.643026,81.905056,81.50576,38.348207,69.155245,76.357715,75.371709,30.543892,59.747251,65.634006,63.862598,22.905143,45.040603,51.199504,50.489393,-20.236283,-25.396098,-19.084478,-9.59431,-23.359983,-13.788725,-5.498868,-0.739288,-7.812181,5.62469,14.6532,19.561703,8.077725,21.895535,29.2312,32.396569,22.860404,33.639531,37.704431,38.686318,131.855124,161.218272,-128.663503,158.539206
33,25.830688,-42.285015,-26.771233,-40.579827,-30.016433,-53.237869,-68.55352,-74.401931,-50.039131,-70.789032,-75.460647,-73.975364,-42.048271,-66.279487,-72.116478,-70.227012,-33.823723,-57.825645,-63.501709,-61.902809,-25.740165,-44.294494,-49.69329,-49.452552,-19.108282,-24.208366,-17.589444,-6.186632,-30.470722,-23.04844,-13.357571,-9.100454,-18.337242,-6.028495,3.418855,7.314361,-4.941465,7.935095,15.908882,18.970956,8.154846,18.163637,23.938381,26.983831,23.499659,47.084015,65.931564,78.228624,35.467238,59.018217,65.117169,65.248009,27.781889,52.429636,58.824829,58.0156,21.088646,45.262053,50.222603,48.354584,15.282818,32.969158,37.745064,36.93437,-22.738397,-34.330098,-34.689906,-30.4895,-42.162823,-42.01695,-33.51968,-27.548699,-27.868072,-24.574916,-15.985273,-10.440457,-12.209316,-7.156447,0.215768,4.490929,2.754359,7.3657,11.329175,13.276487,157.367443,119.820811,-155.753105,118.846933
34,19.020951,-32.93184,-23.642544,-37.71943,-25.951538,-44.911583,-58.420853,-63.770531,-34.81144,-47.835343,-51.195259,-50.521363,-26.063645,-41.944336,-46.197235,-44.385407,-18.380471,-35.614266,-40.239418,-38.739212,-11.794167,-26.35437,-31.598763,-31.931786,-24.648937,-37.752677,-38.268077,-32.785641,-49.09842,-51.253176,-45.918002,-43.042446,-39.126,-37.979628,-33.813637,-32.306606,-27.053399,-24.936317,-20.536749,-18.187757,-14.208332,-13.018698,-10.898226,-9.159859,20.806332,40.058087,55.37637,65.980339,21.330311,36.79184,45.792206,48.498768,13.13712,30.026367,39.498493,41.294369,7.098507,24.493538,32.195584,32.564518,2.783695,15.597473,22.091732,23.235386,-25.460177,-42.924231,-49.355135,-50.675766,-57.184321,-66.551118,-57.457283,-49.431199,-44.526234,-51.515102,-42.759172,-35.312739,-29.358042,-33.821843,-26.797641,-21.021057,-13.77535,-16.498031,-13.500369,-10.630148,175.951218,88.420851,-179.832825,82.659383
35,25.021888,-38.567863,-19.717987,-29.751472,-21.938507,-36.0764,-46.073639,-48.608871,-15.866546,-21.074432,-28.816154,-31.422363,-7.33477,-15.551811,-25.237999,-27.341972,-1.378395,-11.911308,-21.941757,-24.40052,2.489067,-7.714714,-16.635154,-20.53022,-29.225142,-50.032221,-57.215548,-55.316729,-68.099348,-79.655172,-73.636384,-68.19416,-58.255913,-67.528966,-62.294352,-57.524701,-45.519921,-52.876211,-47.145328,-41.37251,-31.120528,-37.727285,-35.406031,-31.083218,17.487763,31.348435,42.275299,51.31247,4.811588,12.104565,24.346447,31.214688,-3.689174,5.283016,18.342247,24.432553,-8.937801,1.033116,11.665993,15.966042,-11.63261,-3.908191,3.857895,7.809597,-28.942048,-51.434506,-63.65201,-71.13879,-70.256383,-87.974651,-79.331779,-68.950238,-60.227962,-76.533979,-68.368797,-58.563671,-46.995769,-60.038079,-54.09877,-46.455601,-32.170829,-42.045417,-40.90246,-37.370065,200.343624,51.76885,-200.180294,54.823773
36,15.007828,-27.611289,-13.244934,-26.361344,-18.769661,-26.787346,-31.249008,-30.741096,0.748261,4.961037,-5.095779,-11.125694,9.316818,10.584869,-2.50431,-8.017822,14.665947,12.571381,-1.369537,-7.883949,17.102165,12.522812,1.046791,-6.311577,-29.675772,-53.917891,-67.405971,-71.634374,-75.332866,-95.382848,-91.990787,-85.729208,-67.405156,-86.253556,-83.097258,-76.984164,-56.190454,-72.607869,-68.070542,-60.215988,-42.833939,-57.402676,-56.349949,-50.379926,16.24482,24.94138,30.591362,36.611893,-5.507549,-8.208687,3.923103,11.877262,-14.897575,-16.820904,-2.98344,4.646404,-21.210697,-21.405453,-8.125465,-0.707497,-24.87624,-24.050743,-13.991215,-7.061485,-29.685559,-55.123308,-72.251934,-85.517027,-75.192692,-97.942242,-91.426696,-81.29798,-67.152183,-90.007153,-83.875757,-73.871591,-55.891551,-75.930066,-71.894232,-63.448363,-42.501332,-58.346266,-59.333593,-55.7341,214.399944,26.195312,-214.376736,30.50018
37,9.346001,-23.99989,-9.188667,-20.351558,-15.211807,-18.163605,-17.832207,-13.495972,9.167862,20.858185,10.314377,2.629417,17.568168,27.419494,12.602691,4.502701,23.296531,29.600029,13.276085,3.312195,26.016838,27.980369,15.127052,4.651588,-30.29692,-55.778413,-72.104629,-80.093811,-72.636219,-95.492708,-95.837103,-90.394008,-65.660485,-89.983028,-90.084175,-83.729909,-55.953333,-78.080074,-76.462133,-68.188059,-44.17698,-63.560848,-65.380947,-59.554351,12.92633,17.245262,19.740211,22.058704,-14.181244,-24.275311,-10.510071,0.459972,-23.108265,-32.604675,-16.523552,-5.399964,-29.461968,-36.676529,-21.375069,-10.194706,-33.053536,-37.265614,-26.131714,-15.976525,-32.093085,-58.991447,-78.421258,-94.61321,-75.925281,-100.640482,-97.816512,-89.098466,-67.484469,-93.742424,-91.099475,-82.164277,-56.301488,-79.93975,-79.418354,-71.942478,-43.242752,-61.987787,-66.892468,-65.615698,222.609993,4.598381,-224.701355,12.551581
38,2.362884,-14.329245,-2.357701,-15.798467,-12.759041,-12.242729,-8.137939,-0.647758,14.118119,28.095955,16.991844,8.891671,22.178742,35.320381,19.8116,10.524491,27.926079,38.01503,20.756562,9.308991,30.879204,35.216927,21.675934,9.731118,-31.282104,-57.250104,-74.669395,-82.529858,-70.792309,-95.116099,-97.732766,-92.518351,-63.968339,-90.678646,-93.183638,-87.000236,-54.872429,-80.151516,-81.163642,-73.019127,-44.248227,-66.455114,-70.8481,-65.919578,10.963406,11.923508,11.417038,9.997834,-19.517177,-32.265644,-17.277351,-5.288005,-28.072963,-39.882167,-21.767234,-8.969924,-34.146377,-43.261264,-25.488967,-12.043579,-37.261619,-42.136104,-28.883079,-16.450103,-33.864623,-60.964008,-80.549966,-95.832551,-73.213344,-97.118102,-96.927812,-90.101965,-64.74824,-91.061541,-91.405071,-84.136825,-53.353164,-77.926574,-80.882949,-75.423787,-39.902109,-60.247734,-68.328967,-69.184951,224.064108,-7.462127,-227.967825,-0.978149
39,0.371933,-11.797392,3.977635,-9.787495,-12.138611,-10.905464,-5.391128,3.95929,17.493691,29.084313,13.896057,3.900261,24.411255,34.361321,15.269394,4.78244,28.551636,36.213318,16.431839,4.513962,29.677849,32.039704,17.298294,5.584053,-31.164704,-57.714189,-75.230959,-82.007789,-72.655559,-97.068689,-97.062539,-89.490728,-65.007394,-91.65826,-91.061696,-82.362625,-55.263673,-80.119097,-80.378837,-71.733804,-43.916121,-65.435281,-69.60042,-64.945261,9.415295,8.316364,6.039036,3.941505,-21.39616,-32.519726,-17.906674,-5.516647,-28.505962,-39.057358,-21.435837,-8.053722,-33.104176,-40.837143,-23.66708,-9.845799,-35.071953,-39.650585,-27.043064,-14.53521,-33.252159,-59.032555,-77.538986,-91.88638,-70.952156,-94.273434,-96.048814,-90.621916,-63.066011,-88.874392,-90.928902,-84.605345,-52.251439,-76.031634,-80.229353,-75.382477,-39.624301,-58.790178,-67.345957,-68.489865,223.551309,-17.714585,-224.874922,-9.22071
40,-8.270393,-0.567153,13.139934,-5.595224,-14.517048,-16.505962,-13.554909,-7.056587,9.713493,17.92313,4.111713,-5.515377,17.05941,23.57959,5.771038,-4.673481,21.582161,26.094395,7.52037,-4.190002,23.18351,22.74551,8.872753,-2.126221,-30.280851,-54.985719,-70.539999,-77.138108,-71.580747,-96.174506,-98.463162,-93.173347,-64.310102,-91.252622,-92.683274,-86.406307,-54.672039,-79.39407,-81.450775,-75.162212,-43.309966,-63.735838,-68.932065,-66.430793,12.975529,15.170517,16.170731,17.204487,-13.7215,-22.337024,-8.243877,3.827363,-21.081253,-29.837951,-13.866622,-1.720218,-25.523963,-32.098136,-16.736972,-4.447219,-26.672962,-31.705879,-21.179569,-10.743759,-29.273499,-53.212355,-69.391223,-81.734062,-67.993625,-92.233811,-97.054209,-95.587285,-59.79251,-85.997569,-90.513321,-88.065825,-48.477883,-71.966987,-78.35871,-77.473339,-35.345528,-52.964742,-61.883441,-65.017842,214.995621,-17.258432,-212.020283,-13.792628
41,-12.026962,3.522899,15.648045,1.309189,-18.918583,-27.161076,-29.609619,-29.040322,-5.472588,-1.846424,-14.548542,-23.311169,2.908355,5.186874,-10.755055,-20.462277,8.859878,9.959873,-6.705002,-17.678284,12.075027,9.534542,-2.858471,-12.568886,-25.914851,-47.42834,-59.522627,-64.067294,-67.905783,-93.451018,-98.575221,-97.384343,-60.956747,-88.710593,-93.082417,-91.095437,-51.146307,-76.158621,-80.68869,-78.403183,-39.225443,-58.628815,-65.140806,-65.840868,16.61895,23.713486,28.671032,32.919937,-1.044525,-4.94751,7.410141,18.571495,-9.480766,-14.717709,-1.258507,9.51955,-15.104336,-18.834057,-5.825397,4.789787,-17.276916,-19.765949,-10.422821,-1.43597,-26.02728,-47.507475,-60.725602,-69.512821,-62.936094,-87.912814,-95.795847,-98.082736,-55.219268,-78.176398,-82.334029,-81.08964,-43.82005,-64.18733,-69.812194,-69.440326,-30.666928,-44.512531,-51.51743,-53.870102,202.982478,-13.359639,-196.358419,-12.107545
42,-10.159424,5.18935,12.717442,1.908724,-23.63245,-37.703144,-45.695549,-50.894142,-20.980294,-22.668537,-34.287289,-42.27142,-12.244148,-14.718727,-28.213543,-36.594853,-5.144303,-7.799229,-22.039902,-31.572601,-0.205948,-5.154087,-16.101185,-24.315193,-22.486091,-40.303694,-48.861863,-51.736095,-64.478048,-90.047285,-97.522068,-100.406284,-57.928185,-85.894978,-93.066751,-95.602124,-48.08282,-73.294365,-80.336033,-81.743275,-35.960186,-54.378836,-62.091577,-65.623136,21.994182,34.746997,44.134597,53.138134,12.271762,12.933448,23.881233,33.710197,2.697074,1.807239,13.262123,22.152855,-3.640835,-2.846627,7.783573,15.613346,-6.172177,-5.209683,2.736545,9.444694,-22.791157,-41.457269,-51.480386,-58.483278,-59.980509,-85.661302,-95.917298,-101.410905,-52.427959,-73.085534,-78.305469,-80.090365,-40.26611,-58.247898,-64.549861,-66.495592,-26.091741,-37.250701,-43.174493,-45.887596,193.150011,-8.702137,-183.31402,-10.730669
43,-6.993279,4.802484,6.949218,-1.330789,-28.811863,-47.004032,-60.272918,-71.241485,-33.839035,-38.390247,-47.032161,-53.866848,-23.958046,-28.091926,-38.16457,-45.102573,-15.420524,-19.340503,-29.873543,-37.653625,-8.886566,-13.401203,-21.540424,-27.933242,-19.546519,-34.760409,-40.42362,-43.706158,-60.274371,-86.083384,-97.502277,-105.499069,-54.257531,-82.476796,-93.353168,-101.137814,-44.063282,-68.263034,-78.195763,-84.04935,-30.834432,-46.489659,-53.881156,-58.898003,26.529282,43.548512,56.727585,70.901127,23.298066,26.307759,34.918213,43.910477,12.418568,12.629643,21.477276,29.280442,5.08342,6.68565,15.020268,21.584244,1.653591,3.119351,9.489865,14.583504,-19.944204,-36.424883,-43.806298,-50.373121,-58.288795,-85.135942,-98.639596,-107.411467,-50.557848,-71.478066,-78.932532,-83.511159,-37.713206,-54.769343,-61.776014,-65.290749,-22.292727,-30.893898,-35.61389,-38.16801,186.704899,-4.852946,-175.816635,-13.014751
44,2.156708,0.628119,-2.142723,-2.814726,-30.913502,-53.303409,-70.880859,-87.456184,-41.951569,-47.190296,-52.445583,-57.189892,-30.345062,-33.014854,-39.150135,-44.349209,-20.084862,-21.721447,-28.086479,-34.141937,-11.861503,-13.332356,-18.030498,-22.5653,-16.589767,-29.526654,-33.440451,-36.269821,-57.144094,-84.385378,-99.605459,-112.657405,-50.810567,-79.307394,-93.446744,-105.089389,-39.546177,-63.063025,-74.980858,-83.805782,-25.092663,-38.365571,-44.826823,-50.174356,30.420937,52.152443,69.811981,86.703507,30.438618,33.034916,39.51289,47.527886,18.087696,16.570141,22.566021,28.634743,9.662133,9.057621,14.691948,19.582157,6.132843,5.875271,9.474449,12.412869,-18.661246,-34.811752,-41.329415,-47.981639,-58.316169,-85.522944,-102.487319,-115.040153,-49.984847,-70.936342,-81.474327,-89.901523,-36.517527,-53.019849,-62.67221,-70.14125,-20.363415,-27.806482,-33.122551,-37.63805,189.252067,-5.17172,-177.568898,-16.77637
45,10.27169,-2.749888,-11.375473,-6.418023,-30.974876,-54.043075,-73.198425,-92.164398,-41.393096,-45.240531,-48.385849,-51.926033,-29.722709,-29.50138,-32.6334,-36.088073,-19.513641,-18.012703,-21.077293,-25.200897,-11.31221,-9.2005,-10.941513,-13.385376,-16.222105,-29.709259,-34.079299,-37.688086,-58.454465,-86.85004,-103.77559,-119.198407,-51.869068,-80.507649,-96.589173,-110.434588,-39.987918,-63.138747,-76.771076,-87.898149,-24.785467,-37.210403,-44.029952,-50.324202,28.658249,49.227104,66.339752,82.270558,28.215832,27.98172,32.042862,38.122856,16.187531,12.417412,16.3335,20.470528,7.850212,5.762867,9.470364,12.668518,4.381153,3.331101,5.545967,7.402691,-19.028143,-35.050145,-42.178637,-49.637865,-57.007085,-83.046616,-100.698447,-114.527748,-48.8338,-67.373843,-78.948031,-88.398685,-35.121504,-49.764219,-60.103794,-67.912029,-18.926785,-25.742382,-31.643622,-36.689069,199.46422,-8.481533,-189.003908,-23.754318
46,14.132218,-5.608413,-19.721203,-4.621228,-28.003464,-47.333176,-65.594147,-82.779511,-30.728874,-30.961167,-31.948723,-34.155419,-19.770538,-15.641167,-16.584503,-18.649223,-10.767105,-5.519966,-6.311485,-8.740105,-4.60231,1.205612,1.771866,0.931274,-19.851121,-35.577513,-42.436051,-47.985208,-63.082492,-89.878515,-107.089062,-122.718493,-55.848771,-83.518563,-100.266531,-114.7032,-43.496256,-65.790896,-80.287874,-92.209522,-28.007795,-39.370315,-46.552975,-53.728355,27.502041,45.49141,61.474011,77.084164,19.455849,15.563324,19.63313,26.519074,8.604447,0.932248,6.085774,11.895653,2.159329,-3.038475,1.616913,6.044049,0.933792,-2.643058,-0.820667,1.080243,-22.643938,-41.040059,-50.429956,-59.984795,-65.087287,-90.842214,-108.345902,-121.287677,-56.285575,-78.822737,-93.217687,-103.897723,-42.227538,-60.136392,-73.105559,-82.645007,-25.298001,-35.017763,-43.068986,-50.009047,213.708704,-14.37397,-208.612845,-28.65957
47,14.908333,-6.087282,-20.277248,-3.533599,-23.345307,-38.488701,-54.24939,-68.915291,-17.646378,-13.238503,-11.139267,-11.453774,-7.092133,2.137138,3.172073,2.029197,0.485321,10.048988,11.194542,10.143699,4.29277,13.821144,16.680015,17.771415,-23.7504,-42.550362,-52.819351,-61.331898,-66.390554,-91.872022,-109.26401,-124.616336,-58.379062,-85.184563,-102.399285,-116.752424,-45.91923,-66.947993,-81.718235,-94.123908,-30.795109,-40.866027,-48.150643,-56.108826,24.357628,39.015232,53.255573,67.628803,9.720795,2.360744,6.398392,14.627151,-0.237305,-12.324852,-5.81464,2.53529,-5.797359,-15.701019,-8.973976,-1.565735,-6.053913,-12.488228,-9.626564,-5.775066,-26.717792,-48.463119,-60.749451,-72.355002,-71.535932,-97.05835,-114.088759,-125.865235,-62.650665,-88.080106,-103.050178,-111.739776,-49.043227,-70.212287,-83.331076,-91.432369,-32.44873,-44.46026,-53.355092,-60.258973,228.634695,-20.199653,-228.872435,-31.93157
48,16.771019,-5.8252,-17.566326,0.395011,-18.439087,-30.50132,-43.13665,-54.952217,-5.2332,2.299919,4.900222,4.191558,4.032783,16.196045,17.326355,15.236068,9.849174,22.042007,22.358871,20.052887,12.049072,22.544449,25.276039,26.127868,-27.260529,-48.834906,-62.211027,-73.363195,-69.483089,-93.084776,-109.735716,-124.012954,-60.740595,-86.361879,-103.170375,-116.060709,-48.490987,-69.272693,-84.020099,-95.555709,-34.379943,-45.692563,-55.200194,-65.107016,20.838924,32.471432,45.061935,57.934147,0.584965,-8.916115,-4.030953,5.566017,-8.3256,-22.07563,-13.84108,-3.393723,-12.954952,-24.463028,-16.076122,-6.78431,-12.338333,-19.458389,-15.615772,-10.198952,-30.375639,-54.944245,-69.806303,-83.915408,-75.340968,-100.039808,-116.529514,-127.200325,-66.868169,-93.011277,-107.718404,-114.720839,-54.012431,-77.465034,-90.819054,-97.968551,-38.181144,-53.322444,-63.770064,-71.358665,245.441323,-25.322643,-246.403152,-30.834349
49,9.253578,-3.464526,-10.784706,2.150767,-14.732163,-21.370445,-29.834107,-37.177941,6.851143,17.979309,18.862564,15.57241,14.322578,29.575996,27.866867,22.790542,18.597542,33.17823,30.490219,25.400207,19.228798,30.674858,31.124359,29.578377,-29.224333,-52.435992,-67.8201,-81.200013,-68.246129,-89.564952,-104.769284,-115.787008,-59.958872,-84.689652,-101.092318,-111.523806,-48.896236,-70.010517,-85.508222,-95.742639,-36.164141,-50.129731,-62.276303,-73.059092,17.098263,24.807129,34.529869,45.129432,-8.61026,-19.647457,-12.758721,-1.660755,-16.351513,-29.868851,-18.549053,-5.759136,-20.291176,-31.210339,-19.721009,-7.755375,-19.618881,-25.423485,-18.791703,-10.787018,-33.352034,-59.260592,-76.402649,-92.536883,-76.360035,-101.067885,-115.464808,-122.893651,-67.997288,-95.112385,-108.003925,-111.655808,-55.452401,-80.949245,-93.098114,-96.981458,-40.042351,-58.709841,-70.559541,-77.719038,254.986216,-28.023754,-256.896543,-27.920167
50,0.868881,-2.604237,-5.410778,2.985712,-10.060799,-10.953712,-14.182228,-15.999779,18.598549,32.812523,30.507797,25.312019,25.246147,42.317391,36.48159,29.005486,28.677521,44.530014,37.527695,29.834473,28.294922,39.603584,36.643845,32.230293,-30.54691,-53.884854,-69.908111,-83.002582,-64.26014,-83.16007,-95.281874,-102.168085,-55.815024,-78.957109,-92.494278,-99.034604,-45.13198,-65.856123,-78.957664,-85.386262,-33.105001,-48.474512,-60.042229,-68.497354,14.305355,18.484886,24.886436,31.942142,-17.760796,-29.522988,-18.034745,-4.159046,-24.81625,-38.436367,-22.020253,-5.900471,-28.190552,-39.047161,-22.348069,-6.610543,-27.312722,-32.170063,-21.012543,-9.172932,-35.729152,-63.141704,-82.073812,-99.274075,-77.958456,-103.111643,-114.017915,-116.7461,-69.251623,-98.231286,-107.514016,-106.823343,-56.964088,-84.824867,-94.508727,-95.040506,-42.014554,-63.51559,-75.353725,-81.048601,256.267891,-30.32564,-261.894527,-24.632104
51,-3.126366,-1.473204,4.618618,-0.169924,-6.83448,-4.054252,-2.431137,-0.269828,26.136727,41.877114,35.065064,27.128106,32.217659,49.768593,39.683098,29.692772,35.009491,50.843331,39.717751,29.281037,34.489289,44.915245,38.475129,31.331841,-29.77088,-52.850955,-68.433437,-79.930394,-60.071653,-78.499816,-86.56363,-89.156184,-51.105055,-73.039104,-82.754827,-84.850963,-40.435158,-60.256021,-70.038855,-72.512008,-28.791519,-44.612048,-54.391992,-59.779419,12.262253,13.74765,16.642742,18.995773,-21.998669,-33.865231,-20.414337,-6.878392,-28.860833,-41.862763,-23.751984,-8.187218,-32.323345,-42.049553,-23.476136,-7.758694,-31.887875,-35.706288,-22.270684,-9.325459,-34.85883,-62.435644,-81.429892,-97.513559,-73.983984,-98.212184,-105.076629,-104.711261,-64.973284,-92.450043,-98.441343,-95.191036,-52.761127,-79.378871,-86.571676,-84.771707,-38.393406,-59.617072,-69.822377,-73.536516,253.235836,-31.603694,-257.181598,-24.606878
52,-9.153991,3.154149,11.670639,1.648084,-6.84813,-3.696213,-0.260407,3.355339,26.662101,41.715751,30.472099,19.747284,33.064522,49.289512,34.910843,22.535667,36.108902,50.458587,35.40776,22.498634,36.09861,44.486221,34.622856,24.735992,-28.039946,-50.302801,-64.272202,-73.424759,-58.067214,-77.735852,-83.233563,-83.035338,-48.965608,-70.965008,-77.438071,-75.941377,-37.769205,-57.601173,-64.261688,-63.287565,-25.296519,-41.634925,-49.267836,-51.47975,12.839556,14.498205,16.603546,17.429512,-19.249827,-29.205414,-14.729925,-2.295313,-26.543141,-36.94114,-18.894911,-5.2351,-30.287745,-37.480196,-19.179526,-5.192076,-30.301935,-33.011725,-19.692358,-8.155449,-31.844786,-57.867663,-75.673209,-89.446654,-70.989505,-95.768729,-100.022953,-97.212966,-62.326315,-89.630735,-93.487438,-89.209761,-50.660581,-76.138647,-81.671632,-79.21764,-37.164229,-57.587218,-66.153293,-68.604424,244.022192,-28.196708,-245.570612,-22.705957
53,-15.503678,7.049427,17.391655,3.502107,-9.0298,-8.139244,-5.962692,-4.003235,20.438851,33.464997,19.4515,7.542138,27.760506,41.681237,24.264862,10.924805,31.469216,43.391167,26.277535,13.15345,31.718445,38.062706,26.286187,15.729927,-25.406429,-46.146274,-57.821992,-64.172677,-57.512697,-79.580707,-83.987402,-82.413637,-48.334838,-71.22416,-75.353737,-71.730723,-36.31341,-56.29953,-60.118478,-56.854642,-22.575104,-38.379443,-43.271644,-42.513257,16.081816,21.644834,26.483322,28.606476,-9.462668,-15.710026,-1.593985,9.325556,-17.901776,-24.388092,-7.779745,3.429325,-22.468958,-26.420878,-9.816153,1.533731,-23.160296,-24.61936,-12.92129,-4.074452,-27.125906,-50.094762,-65.502966,-76.367473,-69.747087,-96.181834,-99.586615,-95.093699,-62.001032,-90.193924,-93.358935,-88.782257,-51.401235,-76.36403,-80.873521,-78.39384,-39.331681,-58.513264,-64.976251,-66.078357,228.356615,-21.026009,-228.340856,-19.082578
54,-19.115822,11.441481,20.582245,5.218663,-14.028625,-19.10321,-21.547027,-24.275253,6.454239,15.667809,1.381325,-9.790786,15.533341,25.825196,8.369637,-3.871055,20.60225,28.637467,11.838868,0.448655,21.990601,25.090828,13.463723,4.535248,-22.773237,-41.73945,-50.73207,-54.161725,-59.055612,-84.134695,-89.38043,-89.717816,-49.841166,-74.354221,-77.436406,-74.403356,-36.830391,-56.893551,-58.395592,-54.788776,-21.70309,-35.839569,-38.03834,-36.024542,18.701151,28.460123,37.002765,42.075691,2.577627,0.442268,13.582609,23.304296,-7.453251,-10.952008,3.705774,13.02079,-13.985041,-15.886397,-0.619418,9.24056,-16.556563,-17.190817,-6.24483,1.519351,-23.410563,-43.698686,-55.668429,-61.927151,-64.92898,-90.392831,-93.99309,-91.33363,-57.357895,-78.658008,-78.577906,-74.049936,-45.575244,-62.835256,-64.025538,-61.435318,-32.543755,-44.93961,-47.485792,-46.242729,209.135267,-9.541356,-207.864137,-13.820743
55,-16.636894,13.437266,15.496902,6.70846,-20.261192,-33.137146,-42.103203,-51.205421,-12.75048,-8.729919,-21.672111,-32.593895,-2.772514,2.673409,-13.24855,-25.490753,3.89328,7.584961,-7.481552,-18.169784,7.171646,7.28151,-3.185417,-10.88958,-19.943222,-37.32327,-43.95742,-46.066993,-59.57873,-86.617679,-95.10686,-99.209996,-51.05022,-77.976635,-83.934692,-84.694228,-38.249279,-59.724529,-63.567016,-63.306386,-23.198777,-36.795953,-40.137984,-40.634235,20.495859,35.79962,48.800949,57.424713,16.522059,22.004482,33.830526,42.282732,6.157093,11.189472,25.485254,34.836193,-0.826567,4.551481,18.988089,27.990812,-4.078497,-0.187906,9.010489,14.739727,-21.03773,-38.30751,-45.483853,-47.076405,-60.480302,-85.83026,-92.067922,-93.489034,-52.261764,-69.713332,-69.223342,-66.023124,-39.364875,-51.827664,-51.314883,-48.942142,-25.301988,-32.695046,-32.054883,-28.971898,192.696916,3.927042,-192.168692,-7.081151
56,-15.121605,13.431468,12.518223,7.141466,-26.1446,-46.216415,-61.627464,-77.217796,-30.588318,-31.375923,-42.824638,-53.566383,-19.997222,-19.150703,-33.340553,-44.892082,-11.698471,-11.980751,-25.059974,-34.50119,-6.096908,-8.580391,-17.863586,-24.35218,-17.882647,-33.32122,-38.054142,-39.341552,-58.576249,-87.530573,-100.055335,-108.383767,-51.479978,-80.781574,-90.562314,-95.755258,-39.531459,-63.082035,-70.579677,-74.404473,-24.838214,-39.501819,-44.864058,-48.003362,23.870916,45.532911,63.841507,76.895336,29.672258,40.360279,50.922987,59.126444,18.58136,29.270622,42.154318,51.142616,10.864706,21.919103,35.800558,44.75231,6.924242,14.733461,21.933374,25.681743,-17.682558,-31.830911,-36.261151,-36.872879,-55.962839,-82.433827,-93.619296,-99.949023,-48.380102,-64.041822,-64.770211,-63.5233,-35.374224,-44.991005,-44.152409,-42.691808,-20.865177,-24.33443,-21.266302,-17.268762,178.048164,17.29993,-179.177616,0.001735
57,-11.050529,8.912227,7.232929,5.050248,-29.670654,-54.683785,-74.81945,-94.800522,-43.693153,-47.924149,-58.39177,-68.861893,-33.14827,-36.177742,-48.711525,-59.293152,-23.716667,-27.345871,-38.703636,-47.196518,-16.281174,-21.035378,-29.358551,-35.09697,-16.103361,-29.370779,-32.431042,-32.968199,-55.790493,-85.616946,-101.178904,-112.64456,-49.91874,-81.214467,-94.599101,-103.796208,-39.405021,-65.286883,-76.429259,-83.946659,-26.170825,-42.311543,-50.092023,-56.108054,23.537499,48.59951,69.334866,84.028748,37.018364,51.26255,61.507851,69.76252,26.168106,42.095409,55.621456,65.682003,18.422058,35.19952,49.706017,59.435772,14.153263,25.836228,32.109066,35.118336,-17.376776,-30.078613,-32.387356,-31.905814,-51.292072,-77.80232,-92.291357,-102.704372,-43.156838,-54.84511,-55.20443,-54.653536,-29.146417,-34.707035,-32.823469,-31.450695,-13.595298,-13.506859,-8.910893,-4.314063,167.714567,25.943747,-171.227755,4.783573
58,-6.849564,4.883247,1.734627,2.584644,-31.130058,-58.799377,-81.798385,-104.057121,-51.367515,-57.847412,-67.721283,-77.908355,-41.127205,-47.087127,-58.075081,-67.507324,-30.692413,-36.624664,-46.611877,-54.406769,-21.546249,-27.462501,-35.089302,-40.39991,-14.904215,-26.334543,-28.055719,-28.007671,-52.041752,-81.721452,-99.219512,-112.916852,-47.100237,-79.566387,-96.107124,-108.926467,-38.028873,-65.392457,-79.900463,-90.713318,-26.348826,-43.54124,-53.48799,-61.84153,22.094478,48.0172,68.675365,82.551269,38.981346,55.274975,66.197525,74.884071,28.798851,47.663006,63.211384,74.906376,21.444168,41.993385,59.116196,71.030788,17.12614,32.031292,39.340748,43.178272,-18.096471,-30.423483,-31.80936,-30.497102,-45.945493,-71.511423,-87.985952,-102.062532,-36.600352,-43.899548,-42.565813,-41.868607,-20.748429,-22.366037,-19.156738,-17.357596,-3.1804,0.380617,6.692349,12.325289,161.686912,30.634058,-168.671219,7.175281
59,-1.979141,0.607316,-2.517174,1.579322,-30.450554,-58.573196,-82.676033,-105.217117,-54.396858,-62.093422,-71.976906,-81.96682,-45.21611,-53.583961,-63.221832,-71.523125,-34.438774,-42.173996,-51.092445,-58.461777,-24.079628,-30.934708,-38.159271,-43.556534,-14.114008,-23.958746,-24.949915,-24.252931,-46.818113,-75.222364,-93.569813,-108.29544,-42.712291,-75.788911,-95.233474,-111.153823,-35.610339,-64.587288,-82.537503,-96.405676,-26.445127,-45.351084,-58.070328,-69.132279,21.792286,48.458691,69.046806,82.170616,40.591267,58.725117,69.991345,78.536934,31.120571,53.017376,69.873894,82.514465,24.862633,50.268757,68.97266,81.733074,21.551914,39.941174,47.163323,50.53426,-18.083596,-30.37194,-30.838662,-29.11543,-46.096306,-72.180532,-90.490338,-106.431719,-36.453306,-47.459681,-49.906992,-51.683409,-21.239233,-25.213897,-22.969282,-21.416173,-3.895389,-1.526841,4.800675,10.238811,160.548769,31.085679,-170.347395,8.598908
60,-1.235619,-1.439452,-0.853912,0.323399,-29.768257,-57.614936,-82.13919,-104.358764,-52.552986,-60.768173,-70.631034,-80.289779,-43.291008,-52.61206,-61.502746,-68.511611,-32.350135,-41.313766,-49.569625,-55.934875,-21.743568,-29.661941,-36.713104,-41.787414,-13.935265,-22.350975,-22.766018,-21.855842,-42.630311,-70.557169,-88.8598,-103.4594,-38.967974,-72.290287,-92.73307,-109.38316,-33.099332,-62.417384,-81.405932,-95.951594,-25.594977,-44.674484,-57.461858,-68.722824,23.58538,51.204723,72.302994,85.916095,40.932197,57.999195,69.159382,77.777458,30.884594,50.278152,65.786545,77.226619,24.402122,49.14505,68.219661,81.148704,20.98954,39.367904,47.200184,50.698379,-16.284083,-28.80372,-30.307923,-29.483938,-46.368125,-73.058993,-91.662348,-107.778786,-37.74024,-50.676012,-54.863382,-58.011257,-23.198555,-27.620014,-25.567041,-24.080598,-5.826046,-3.214701,3.635142,9.139691,159.737268,29.583047,-170.777189,8.859127
61,-0.606857,-2.533397,-0.654682,0.304337,-28.830002,-56.275108,-80.74855,-102.410728,-51.10421,-58.677406,-67.84964,-76.631744,-41.698036,-50.924171,-59.361648,-65.750038,-30.717018,-39.978905,-47.964409,-53.940445,-20.351829,-28.976555,-35.92321,-40.885185,-13.091791,-20.91458,-20.983296,-20.22434,-38.908175,-67.002402,-85.38532,-99.996005,-35.506728,-69.286636,-90.325285,-107.239396,-30.719848,-60.501399,-79.859819,-94.415497,-24.915896,-44.176881,-57.17575,-68.519288,23.994117,51.559604,72.768676,87.613758,40.96281,57.519699,68.68951,77.462207,30.362823,48.921398,64.503559,76.086101,23.371822,47.738216,67.027896,80.070385,19.558914,37.451694,46.331531,50.913162,-16.088273,-29.04409,-30.415134,-29.311346,-47.028669,-73.40729,-91.637185,-107.684011,-38.588783,-52.008092,-57.111449,-60.977982,-24.20211,-28.314515,-25.616078,-23.43254,-6.708188,-4.290073,2.359181,7.950465,159.355156,27.097529,-171.207126,9.211343
62,-0.884582,-1.924624,-0.684082,0.315489,-28.639298,-55.473404,-79.453766,-100.727944,-48.869454,-55.983124,-64.355736,-72.319519,-38.805199,-47.685929,-55.879052,-61.91977,-27.386742,-36.666939,-44.704651,-50.430703,-16.848977,-25.579743,-32.498703,-37.254776,-12.760964,-20.682356,-20.459721,-19.459963,-36.031341,-64.114125,-82.274946,-96.775993,-32.846292,-66.678274,-87.751498,-104.636685,-28.607886,-57.914538,-77.382869,-91.924344,-23.542197,-42.35241,-55.091804,-66.036064,25.730438,53.722194,75.560222,91.892944,41.047966,57.481452,68.906066,77.916,29.89809,47.083179,62.194118,73.255474,22.490844,45.961154,65.645782,78.788211,18.474014,35.803482,45.812587,51.20224,-14.841687,-27.649247,-28.815366,-27.651396,-47.186139,-73.213653,-91.25282,-107.416546,-39.119157,-53.851682,-60.298098,-65.460803,-24.896234,-29.215824,-26.322434,-23.911846,-7.16264,-4.545102,2.548119,8.677631,158.581885,25.389541,-171.779897,9.743468
63,-1.531334,-1.895096,-0.212998,1.042495,-28.354386,-54.167725,-77.428093,-98.631775,-46.757515,-53.335282,-61.092568,-68.606392,-36.405716,-44.596985,-52.58432,-58.614327,-24.731255,-33.420616,-41.338761,-47.090721,-13.937714,-21.923355,-28.579056,-33.370331,-12.243976,-20.163417,-19.827452,-18.937363,-34.332858,-61.91205,-79.577101,-93.809762,-31.04095,-64.242467,-84.916845,-101.402772,-26.714957,-55.25869,-74.745638,-89.282049,-21.502666,-39.633662,-52.180314,-62.926702,27.051773,55.230858,77.67453,95.138981,41.201306,57.219475,68.916641,78.304745,29.566853,45.580822,60.148636,70.845245,21.579392,44.375256,63.763664,76.573792,17.068531,34.105785,45.101132,51.284134,-14.277034,-27.106411,-27.931854,-26.841928,-47.294177,-72.847621,-90.643528,-106.969263,-39.486634,-55.164261,-63.021914,-69.414842,-25.559983,-29.976305,-27.235173,-24.796081,-7.903021,-5.317945,1.940853,8.468433,157.117899,23.761271,-171.925547,11.052789
64,-2.625138,-1.786958,0.020817,0.712927,-28.115753,-52.82682,-75.227005,-96.316269,-43.581756,-49.770446,-57.168892,-64.754127,-32.853653,-40.423347,-48.528305,-54.885727,-21.000206,-28.806472,-36.816948,-42.895958,-10.145736,-16.851242,-23.315208,-28.143264,-11.773086,-19.61161,-19.072695,-18.509254,-34.007792,-60.939678,-78.151976,-92.316119,-30.363826,-62.345606,-82.395798,-98.420499,-25.310296,-52.203953,-71.594144,-86.051008,-18.996347,-35.622837,-47.619892,-57.789975,28.870788,57.824135,80.935455,99.11198,41.786304,56.978931,68.729187,78.55925,29.722469,44.229252,58.358814,68.814102,21.295647,42.473797,61.618664,74.279034,16.341385,32.708073,44.441654,51.169762,-13.292066,-26.065836,-27.557047,-27.645758,-47.052177,-72.542871,-90.408401,-106.909309,-39.662604,-55.429411,-63.028176,-69.158522,-25.922693,-30.923507,-28.648801,-26.444292,-8.210977,-5.790719,1.653337,8.314669,154.481981,22.189958,-171.91551,11.981361
65,-3.991882,-1.74548,0.622982,0.541101,-27.437187,-50.574715,-71.93145,-92.979263,-40.533256,-45.736633,-52.560379,-60.454491,-29.595612,-36.029137,-43.935837,-50.833923,-17.734085,-23.642303,-31.335777,-37.968315,-6.91571,-11.224823,-16.939156,-21.706238,-10.654429,-18.518263,-17.988278,-17.645174,-35.27433,-61.457888,-78.257823,-92.736948,-31.17837,-61.477778,-80.242858,-95.636575,-24.834497,-49.478111,-67.933592,-81.922055,-16.445018,-31.004536,-41.741105,-50.720294,29.726349,58.519306,81.74176,99.99622,42.219578,56.419304,68.199692,78.446503,29.830639,43.337734,57.532185,68.30238,20.819286,40.85424,59.729496,72.330826,15.259643,31.125183,43.378647,50.631981,-12.912258,-25.73186,-27.518207,-28.300319,-46.851254,-71.688227,-89.605782,-106.301852,-39.539332,-54.730811,-61.961315,-67.497597,-25.958879,-30.880313,-28.954824,-26.746555,-8.376363,-5.895701,1.615638,8.550122,150.46023,20.556129,-171.322397,12.634113
66,-4.537514,-1.674035,0.49752,0.41374,-26.732139,-48.223686,-68.195915,-88.682052,-36.532447,-41.516372,-48.274749,-56.93383,-25.208107,-30.332885,-38.311088,-46.008133,-13.547424,-17.399025,-24.702209,-31.773536,-3.184066,-4.920021,-9.559227,-13.911438,-9.759097,-17.224753,-16.422535,-16.344235,-37.03452,-62.093436,-78.027821,-92.168844,-32.206891,-60.85337,-77.998131,-92.611712,-23.943815,-46.03605,-62.934316,-76.164453,-12.909146,-24.796545,-33.357801,-40.496526,29.231541,57.884903,81.118596,98.729542,41.839623,55.850006,67.895474,78.464058,29.581707,43.335743,57.810608,68.901249,20.608532,40.620999,59.394928,72.05864,15.019215,31.106095,43.418415,50.752911,-13.329901,-26.015103,-27.899867,-29.121803,-46.302102,-70.494202,-88.419915,-105.108476,-38.828801,-53.215424,-60.349987,-65.716011,-25.25645,-29.921811,-28.625126,-26.8098,-7.866644,-5.280759,2.186181,9.308239,145.867927,18.893607,-170.879666,13.059366
67,-4.706016,-1.575815,0.851738,0.475867,-25.256287,-45.18924,-64.128021,-84.162003,-32.685791,-37.693176,-44.780228,-54.57573,-21.592484,-25.573654,-34.137772,-43.126328,-10.52504,-12.29995,-19.453743,-27.21817,-0.903076,-0.210068,-3.918572,-8.192871,-8.241649,-15.310422,-14.74456,-15.256292,-38.974891,-63.045936,-78.161992,-91.778285,-33.742729,-60.821507,-76.577193,-90.284469,-23.818758,-44.042352,-59.430085,-71.882753,-10.390859,-20.159077,-26.963849,-32.730596,29.935273,58.414742,81.648342,98.96196,41.718922,55.261139,67.432663,78.471691,29.160187,42.183586,56.585518,67.825241,19.752457,38.649262,57.174225,69.874775,13.718914,29.610077,42.49046,50.454678,-12.924571,-25.374627,-27.758724,-29.691481,-45.475547,-69.096482,-87.174884,-104.055082,-38.212069,-52.542048,-59.804644,-64.997483,-24.841413,-29.790541,-29.273727,-27.713134,-7.640292,-5.244481,2.041598,9.27017,141.111723,17.125492,-170.078116,13.342933
68,-4.032807,-0.887169,0.802609,0.426269,-23.965324,-42.847938,-60.808799,-80.136749,-29.496986,-35.09848,-42.753158,-53.456794,-18.350853,-21.831573,-31.328247,-41.560386,-7.866691,-8.76828,-16.1846,-24.517387,0.766411,2.155587,-1.319847,-5.643585,-6.835307,-13.705411,-13.717069,-14.601162,-39.541993,-63.264007,-77.77854,-90.71698,-34.367259,-60.370265,-75.244525,-88.218886,-23.659219,-42.581003,-56.471239,-67.779376,-9.316414,-17.448641,-22.501794,-26.666859,30.074638,58.395092,81.61948,98.800735,41.286495,54.764419,67.298858,78.812473,28.74836,42.105881,56.694374,68.284653,19.261185,38.553692,56.80965,69.332233,13.228363,29.580437,42.426178,50.470367,-12.64938,-24.758648,-27.601903,-30.293492,-44.90233,-67.671449,-85.619169,-102.276522,-37.774622,-51.424823,-59.121789,-64.499954,-24.49427,-28.643089,-28.318393,-26.735575,-7.466174,-4.918049,1.625599,8.304048,137.017953,15.925977,-169.33647,13.456856
69,-3.117118,0.382958,1.208736,1.147613,-22.974724,-41.206719,-58.509568,-77.35714,-27.609353,-33.950112,-42.27269,-53.450455,-16.437653,-19.421448,-29.898697,-40.994454,-6.256279,-6.58191,-14.402962,-23.107796,1.798942,3.366394,-0.090569,-4.59874,-5.551529,-12.845957,-13.855082,-15.353653,-39.85944,-63.387261,-76.872804,-88.568023,-34.739541,-59.604301,-72.688571,-83.886119,-23.460711,-41.22079,-52.799239,-62.093207,-8.528016,-15.205378,-18.504042,-21.121957,30.55465,58.317627,81.362572,98.270554,40.04718,53.744488,66.733441,78.888348,27.494877,40.85083,55.672451,67.879544,18.020405,37.230034,55.548077,68.39399,12.27697,29.036557,42.249298,50.97258,-12.910578,-24.993522,-28.320746,-31.85403,-44.880533,-67.015252,-84.613848,-100.830105,-37.930172,-51.694913,-59.896232,-65.526375,-24.793667,-28.973941,-29.121722,-27.717092,-7.861,-5.771057,-0.183275,5.899017,133.847105,15.966026,-168.181464,14.26156
70,-1.303643,1.570708,1.714829,2.479218,-22.896034,-41.026039,-57.641006,-76.410598,-27.686073,-35.831909,-45.326706,-56.873726,-16.668571,-20.8507,-32.786957,-44.794235,-6.623817,-8.016998,-17.108024,-26.585998,1.205475,1.774018,-2.453155,-7.713134,-4.703584,-12.723796,-14.94339,-17.607796,-39.647957,-62.268541,-74.453984,-84.735842,-34.750767,-58.531468,-69.900274,-79.499771,-23.488128,-40.390932,-49.820701,-57.358241,-8.686924,-14.428638,-16.832718,-18.901011,30.441147,57.380836,79.974861,97.3041,37.308906,52.112938,65.8656,78.629299,25.316986,39.4636,54.845764,67.886764,16.555996,36.483021,55.266289,68.570389,11.777355,28.879097,41.955288,50.930511,-13.720528,-26.212754,-30.376356,-35.007458,-46.2183,-67.595262,-84.275777,-99.570545,-39.075822,-53.298788,-62.240087,-68.57558,-25.699268,-30.339522,-30.98067,-30.062639,-8.515932,-7.584976,-3.500637,1.225961,132.482322,16.991753,-166.527775,16.195797
71,-0.058342,3.613221,2.341369,3.924757,-23.407287,-42.215606,-58.622062,-77.102325,-28.078674,-39.079742,-50.222946,-62.283851,-17.79158,-25.186866,-38.578354,-50.991989,-8.306808,-13.335045,-23.501747,-32.758186,-0.867851,-3.706238,-9.268501,-15.102218,-4.622099,-13.987951,-17.578614,-21.468167,-40.148587,-60.737168,-71.216294,-79.680602,-35.103801,-56.362454,-65.878341,-73.674596,-23.683167,-38.311518,-45.541442,-51.199861,-8.782675,-13.392547,-15.200229,-16.873974,30.122384,55.978753,77.784634,95.016747,33.747643,49.704918,64.206391,77.408856,22.438683,37.765149,54.128437,68.327076,14.72572,34.988354,54.46114,68.522793,11.319832,28.184201,41.415905,51.074536,-15.027753,-28.288006,-33.228113,-38.60537,-48.378379,-68.75473,-83.771368,-97.288583,-40.781732,-55.397252,-64.654071,-71.25469,-27.003949,-32.61813,-33.997301,-33.710309,-9.398444,-10.203305,-8.028295,-5.057569,132.597931,19.637008,-164.012455,19.152588
72,1.332642,4.395499,2.811951,5.179192,-22.788803,-42.611641,-60.048775,-78.076058,-28.701485,-44.253983,-57.948647,-70.76857,-19.60849,-32.716095,-48.429085,-61.441658,-11.487763,-22.26281,-34.915787,-45.15477,-5.422417,-13.306709,-20.819389,-27.595482,-7.835954,-18.379207,-22.515398,-26.783105,-39.779646,-57.181468,-65.151057,-71.308999,-33.213108,-50.625174,-57.754605,-63.04785,-20.986798,-32.255698,-37.481802,-41.299645,-5.898387,-8.561652,-9.452228,-10.46073,27.805515,52.348538,73.60017,90.355579,28.972939,47.596962,63.246254,76.740681,18.912071,36.942902,54.78503,70.091961,13.008591,36.00412,55.915764,70.071579,11.700943,30.141586,43.156059,52.721775,-17.92565,-32.409296,-38.005211,-43.271916,-50.78959,-69.236624,-81.159295,-91.600277,-41.901872,-56.594617,-65.55278,-71.90996,-27.281653,-33.703288,-35.364152,-35.634051,-9.21066,-11.679022,-11.193522,-9.955,134.545933,22.788777,-160.585144,23.08805
73,0.584129,6.009068,3.5774,6.348869,-20.97924,-41.671715,-59.707145,-76.974861,-30.798843,-50.66906,-66.557098,-80.746856,-22.859482,-41.797394,-59.932365,-74.713394,-15.45639,-32.067032,-47.39859,-59.638138,-10.10495,-22.220581,-32.086921,-41.014068,-11.274279,-22.813541,-27.155614,-31.15173,-39.186947,-52.330053,-57.06316,-60.961019,-30.753582,-43.638306,-47.535245,-50.13666,-17.760999,-25.832846,-28.611324,-30.493854,-2.770778,-3.815564,-3.775062,-4.476349,24.713265,47.698139,68.455273,84.764603,24.593182,45.493756,62.190651,75.663311,15.660771,35.616303,54.85698,70.674008,11.303147,35.088375,56.24112,71.312634,11.774071,30.439041,43.883263,54.018769,-21.091162,-36.838061,-42.925583,-47.556827,-51.596452,-68.326281,-76.386069,-82.974628,-41.120365,-56.026056,-63.475984,-68.332024,-25.678748,-33.443146,-35.582014,-36.262812,-7.463927,-11.34791,-11.941807,-11.769579,135.540087,27.52858,-156.597719,28.167654
74,0.289444,10.211635,3.455681,6.148334,-20.40192,-42.767361,-61.727531,-78.516552,-35.369018,-61.1445,-78.457123,-92.53672,-28.631664,-55.065765,-74.895412,-89.995479,-21.963272,-45.807689,-63.313946,-76.464226,-17.071575,-34.275913,-46.215649,-56.47562,-15.061052,-26.925193,-30.467323,-32.934332,-38.417148,-46.091369,-47.191076,-48.88036,-28.095733,-35.735223,-36.543523,-37.188849,-14.229188,-18.635731,-18.98434,-19.365522,0.984391,1.742575,2.89063,2.637311,21.305306,43.047741,63.304058,78.853089,21.487381,44.77549,62.60614,76.632694,13.602299,37.165386,58.360336,74.956375,10.059815,35.525734,57.855389,73.58448,11.170452,30.648079,44.865887,55.525234,-23.50593,-39.448991,-45.664491,-49.68632,-49.868886,-63.183713,-67.170838,-70.163461,-37.531672,-49.70198,-54.56296,-57.16813,-21.39871,-28.491467,-30.187714,-30.644963,-3.620081,-6.640534,-7.490584,-7.94056,136.319137,36.362678,-152.652432,32.938451
75,-0.553665,14.343485,2.307982,10.98429,-20.480152,-45.391674,-66.002083,-82.505093,-41.550705,-74.341804,-92.381058,-104.760521,-36.164211,-70.625564,-91.357647,-104.854671,-30.367149,-61.997326,-80.776531,-93.1791,-25.764896,-48.892101,-62.530643,-73.100452,-19.306918,-30.858898,-32.768903,-32.381932,-37.617623,-39.579782,-36.840559,-36.226139,-25.05615,-26.4818,-23.932589,-22.503614,-9.979624,-10.098428,-7.823336,-6.564143,5.756629,8.507456,10.848312,11.26514,19.069679,40.721655,61.31187,76.020538,21.276706,48.002392,66.568565,79.922493,13.897115,42.048345,64.720871,80.941526,10.775367,39.065042,61.888429,77.300611,12.180027,33.647684,48.714912,59.59766,-25.940545,-42.315529,-48.234961,-51.057535,-48.708213,-58.585889,-58.464827,-57.911599,-34.549408,-43.517476,-45.310668,-45.598212,-17.605478,-23.591943,-24.405106,-24.523355,0.085126,-2.062087,-2.613145,-3.28711,136.484402,49.519101,-149.62552,42.735679
76,-0.098579,16.570926,1.127758,15.486497,-20.397686,-47.165715,-69.164704,-85.365429,-49.282425,-86.797669,-105.585343,-117.894287,-44.742634,-84.603104,-106.710423,-120.360844,-39.358796,-75.569607,-96.567684,-110.605431,-34.74091,-61.185253,-76.587285,-88.795201,-23.074779,-33.651047,-33.276102,-29.519633,-35.157331,-33.203391,-27.591878,-24.949043,-20.650257,-17.551541,-12.323295,-8.848256,-4.602137,-1.789329,2.298533,4.995152,11.370953,15.652714,19.222286,20.378569,18.199058,40.782709,62.506874,77.036144,23.707855,55.372661,74.446724,85.985103,16.572492,50.161131,73.522544,87.964811,13.537284,46.316202,69.066175,83.03425,14.816814,39.74267,55.112354,65.289264,-28.04503,-45.118677,-50.888116,-52.540397,-48.452924,-55.034592,-51.003173,-47.414331,-32.563601,-38.45837,-37.182474,-35.607396,-14.548734,-19.013674,-18.359308,-18.03724,3.607629,2.359773,2.601381,1.904376,137.133654,65.322256,-147.749931,57.454405
77,-0.855332,20.349917,2.143261,16.608668,-21.723667,-49.739902,-71.513466,-87.132854,-58.236603,-97.161506,-115.732269,-127.805717,-54.622158,-96.324989,-118.317981,-132.054233,-49.247955,-87.064716,-108.325618,-122.834083,-43.607769,-70.967342,-87.351665,-100.935779,-23.621716,-33.1216,-31.466352,-25.680153,-32.855289,-28.177149,-20.987845,-17.014023,-17.618918,-11.223613,-3.827328,0.961382,-1.264566,3.849718,9.945357,14.165711,14.72248,20.320748,25.191661,27.568798,18.850193,41.989866,64.061908,77.917797,27.206108,60.006958,79.402153,91.336647,19.703287,55.224706,79.566936,94.026643,15.512729,48.840642,72.752729,87.650568,15.409114,40.647646,57.550449,68.975566,-28.065105,-44.613872,-50.407025,-52.534419,-45.349663,-48.89182,-42.843633,-37.806405,-28.985782,-31.645273,-27.372432,-23.694025,-11.112323,-13.915072,-11.666483,-10.35119,6.637228,6.845954,8.090487,7.949668,136.83716,85.227762,-145.047832,73.618662
78,-5.202049,23.790118,3.36763,17.067049,-24.912884,-54.794941,-76.897522,-92.224491,-66.172371,-107.430267,-123.708447,-131.987537,-63.320469,-107.590736,-126.709236,-135.862942,-58.177162,-98.225727,-116.849682,-127.554588,-51.686909,-81.316166,-96.035053,-106.743107,-20.01028,-26.075884,-22.699226,-15.203912,-25.951123,-17.758008,-9.810755,-5.481807,-13.113089,-3.404906,5.068541,10.229088,0.862224,8.626711,15.779993,20.445024,14.801898,21.74788,27.054047,29.727395,20.093902,43.62327,65.510124,79.295974,30.157344,62.45597,82.103405,95.272888,22.261957,57.924837,82.756794,98.041826,16.57505,49.558073,73.452432,88.704591,14.361488,39.229505,56.612857,68.466007,-26.942996,-41.995921,-47.717634,-50.893489,-40.561901,-40.705526,-33.685387,-28.28674,-24.449147,-23.349285,-17.052531,-12.239225,-7.839268,-7.959746,-3.723695,-1.282069,8.378601,10.875692,13.390123,13.976866,132.50045,108.673683,-140.814863,90.341514
79,-4.222229,22.580489,0.720886,24.897161,-27.397041,-57.860664,-80.471603,-96.063904,-72.157906,-112.684158,-128.317108,-136.173294,-69.737297,-113.513306,-131.917694,-140.634007,-64.577683,-104.229149,-122.470345,-132.906693,-57.442864,-87.238609,-101.928932,-112.82515,-19.820209,-24.342,-20.111473,-12.363507,-21.147732,-11.177084,-2.925389,1.99318,-7.6829,3.867354,12.774264,18.188145,6.505344,16.062005,23.551638,28.23482,20.244675,28.168932,33.889707,36.723884,22.054607,47.955694,70.940586,85.023433,37.727428,72.862816,91.192852,101.373356,30.244028,69.297701,92.08358,104.173719,24.446995,61.111707,82.496263,94.64966,21.327163,48.942381,64.420692,73.723858,-26.600571,-41.301328,-47.396477,-52.086044,-39.279746,-37.211113,-29.524503,-23.76159,-22.825549,-19.747631,-12.831643,-7.989445,-5.598178,-4.028393,0.396095,2.626912,11.715927,13.951604,15.628248,15.499335,129.099306,131.037727,-139.272892,115.02223
80,-9.261337,21.798778,1.63175,22.075491,-29.710511,-60.405831,-82.572213,-96.61417,-74.503693,-113.0705,-129.295281,-138.437176,-71.159317,-113.447342,-132.826378,-143.585827,-65.119446,-103.365853,-122.259991,-133.821328,-57.185418,-86.093491,-100.814415,-112.000706,-17.697174,-18.495625,-10.919955,-0.710679,-14.56778,-4.35449,1.568782,4.937125,-0.780142,10.95432,17.248459,20.742254,13.252182,23.465589,28.878495,31.566478,25.9701,34.752058,40.191812,42.808152,24.306084,51.330917,74.429478,88.813225,44.327763,77.799969,95.708027,107.100437,36.315697,73.354671,95.6357,109.152386,29.373093,64.673286,85.936661,99.375023,24.357994,51.482815,67.018959,77.441345,-25.652066,-39.244147,-45.459202,-50.845036,-34.302521,-30.55261,-23.066255,-17.164058,-18.033164,-13.555512,-6.454252,-1.315525,-1.162705,2.026414,6.869462,9.540253,16.042893,19.00188,20.739919,20.956824,120.616087,152.608331,-136.863024,136.869547
81,-8.876679,21.666133,5.940914,21.229106,-31.644378,-62.420334,-84.411209,-97.327984,-75.133415,-112.965202,-130.338901,-140.453796,-71.45858,-112.879623,-133.438099,-145.498375,-64.802398,-102.610176,-121.918636,-133.753475,-56.136062,-84.986023,-100.138893,-111.825416,-15.670482,-14.444076,-5.448968,5.476829,-9.213088,0.688918,4.752225,6.21319,4.819965,16.007226,20.262397,21.696686,18.715846,28.988978,33.59767,35.148112,30.801093,40.136743,45.467619,47.998262,25.920399,52.892201,74.83469,88.429985,52.573563,86.411396,103.106495,113.353191,44.841442,82.04623,102.057118,113.245548,36.70237,72.159153,91.930184,103.772404,29.271343,57.064339,72.533604,82.182335,-24.356227,-35.576499,-41.189309,-46.837978,-24.504156,-16.950531,-10.137269,-5.414603,-8.051198,0.50899,7.551248,12.159329,7.744521,14.597106,19.713949,22.417246,23.243158,28.530475,30.470315,30.801334,112.387127,173.994229,-130.274391,157.818418
82,-9.397224,20.698886,2.723671,21.700447,-34.259445,-65.827561,-88.229004,-101.55669,-76.062744,-112.632878,-130.011475,-140.712742,-70.971817,-110.436104,-130.804058,-143.089657,-63.121102,-99.557488,-118.247566,-129.241001,-53.769928,-81.513863,-96.04271,-106.704689,-11.002182,-5.616842,6.60727,19.37912,-1.884412,7.19953,9.982806,9.902877,10.48012,20.572669,23.12674,22.674579,22.626994,32.64028,36.210442,36.451342,32.654334,42.234318,47.186775,49.133766,28.306011,56.401108,78.669079,92.926575,59.548313,95.830902,112.034111,120.76022,51.752049,91.418049,110.243465,119.474567,43.265614,80.955345,99.838863,110.035446,34.928158,65.377007,80.338635,88.779694,-23.680795,-33.318367,-37.963955,-42.990587,-17.380505,-6.716592,0.495998,5.304558,-0.027868,11.992795,19.00653,23.243448,15.851665,26.274615,31.288576,33.684776,30.645161,37.742037,39.36795,39.219539,103.463402,194.388836,-127.077221,179.214586
83,-5.221459,18.09954,0.738236,23.527982,-36.558334,-68.150367,-90.368293,-103.125,-76.001793,-110.216583,-130.114917,-145.157192,-70.120903,-106.553535,-129.811649,-146.962246,-61.763031,-95.900551,-117.234729,-131.759445,-52.261665,-77.991989,-94.281875,-107.639877,-12.245218,-6.902597,7.035459,20.670259,0.595867,6.877044,7.844007,6.422771,15.443889,23.315881,24.47359,22.738873,29.543212,38.919926,42.176001,41.94724,40.692892,50.904088,56.410866,58.923824,31.193321,60.684299,83.886737,99.296459,66.255912,104.963939,121.248985,129.664421,58.533794,100.593509,119.10712,128.06908,50.419338,89.989357,108.751705,118.895439,42.023014,74.231895,89.046615,97.587432,-22.901734,-32.040066,-36.342798,-40.762991,-12.068575,-0.018686,7.121922,12.2673,5.704379,19.296287,25.96427,30.112885,21.917802,34.605128,39.895434,42.475885,36.819251,45.505928,47.298666,47.200409,98.658571,212.110408,-125.922357,202.3646
84,-10.089637,19.728516,3.72956,18.549848,-35.472657,-67.251137,-90.1764,-102.624264,-74.160668,-111.702107,-129.427426,-141.311737,-69.327233,-108.874031,-128.706665,-141.32008,-62.416993,-99.272438,-117.276993,-127.504178,-54.67099,-82.699814,-96.648629,-105.972908,-2.663185,6.909648,22.819716,37.613448,13.358787,15.294058,10.540795,5.884246,22.684285,24.314187,19.687105,15.035015,30.251675,33.708327,31.643739,28.691995,34.671386,40.490498,42.117337,42.592704,33.197766,62.440121,85.252911,102.178769,68.087117,103.832554,120.965424,132.027317,59.649571,97.813935,117.481568,129.134434,51.029744,86.501885,106.735417,119.324067,42.101143,71.253949,87.33173,98.21354,-21.470989,-29.075539,-32.470515,-35.651328,-3.585686,9.403513,16.21036,21.428307,13.490847,28.523899,35.443514,40.20888,27.907494,42.500536,48.974906,52.713622,40.090492,51.026366,54.668727,56.06168,88.982369,231.440301,-121.779362,220.515825
85,-3.932557,15.967989,7.111176,20.488182,-34.681137,-66.11396,-89.81995,-104.162029,-72.59935,-111.18156,-128.033924,-138.480789,-68.986702,-109.794147,-127.530384,-136.965774,-63.684127,-102.422573,-118.46775,-126.139869,-58.000122,-87.803226,-100.887039,-108.756111,4.924349,16.67723,31.385339,44.194671,25.034148,25.586592,18.606251,12.693328,29.35212,28.111579,21.172166,15.178288,31.006994,31.247907,27.153867,23.430675,29.431469,32.284906,32.582383,32.479494,33.362812,62.355789,85.071144,102.642185,69.017509,108.494614,124.490375,132.049541,61.063225,103.358482,120.578281,127.43066,53.001938,91.877666,109.173717,117.035419,44.685802,76.04575,90.424862,97.608181,-21.56217,-27.541808,-29.632776,-32.098605,2.364151,18.660493,23.912637,26.947299,20.665677,38.207993,42.491743,44.703568,34.806188,51.308973,55.313042,56.911612,45.319343,58.107199,60.30707,60.099663,85.347107,247.009614,-114.370891,240.605331
86,-3.579917,14.423192,2.335968,14.938128,-36.02211,-67.224793,-91.078492,-107.100495,-72.765542,-111.586602,-125.2244,-131.603875,-69.48095,-111.052414,-124.68155,-129.224465,-65.013451,-105.110035,-118.471367,-122.638344,-60.656617,-91.464867,-103.345265,-108.969018,9.003297,22.391008,36.138836,47.952134,35.449528,34.129725,25.127725,18.653688,36.775495,32.567908,23.792977,16.764101,34.256745,31.552151,25.036309,19.61366,27.829293,29.406176,28.72418,28.166129,33.892261,63.459114,87.327415,106.380844,67.298996,104.602867,121.193424,131.117191,58.811829,98.860268,117.420582,127.221165,50.892689,87.154953,105.170139,114.871479,43.16518,72.088177,86.416019,94.824097,-19.437115,-24.141311,-25.197144,-27.744583,7.25334,23.093666,28.642101,32.452053,25.383866,42.143619,46.575471,49.135705,38.993323,55.589388,59.730569,61.121237,48.530464,62.476659,65.184155,65.290736,81.961241,261.100326,-111.840872,255.210979
87,-4.051323,11.09177,4.949959,13.5164,-34.593865,-64.664063,-87.443688,-103.385823,-73.328225,-110.430142,-118.211884,-118.336247,-70.979577,-110.396576,-116.501301,-113.705372,-67.346833,-105.253407,-111.671231,-109.363587,-63.640549,-92.716736,-100.229519,-101.207795,13.687917,27.311639,39.236211,49.687098,41.603006,42.904482,35.68576,30.409175,40.868769,39.262394,32.601179,26.700643,35.834628,34.583441,29.784286,25.12686,26.790823,29.397444,29.584313,29.570741,33.590023,62.741489,86.815933,106.740726,67.052055,101.748024,118.290516,129.097996,58.326816,96.023002,114.614376,125.956753,50.110462,83.794201,101.319088,111.983333,41.999611,68.15467,81.792686,90.799209,-17.055131,-20.823462,-21.248589,-24.052144,12.043899,27.414392,32.932334,36.975245,29.603135,46.125211,50.589013,53.369708,42.282767,59.010707,63.656993,65.451522,50.707931,65.728386,69.317283,70.196658,78.029,271.924399,-106.771831,268.459682
88,-3.731049,9.833333,6.2868,10.838543,-31.151001,-60.066559,-83.325279,-101.122066,-73.813236,-107.02026,-106.155098,-98.615204,-72.984581,-107.479259,-103.50943,-91.453388,-70.798908,-104.182892,-101.072456,-90.548939,-68.474133,-97.238468,-102.177555,-100.067928,19.809853,34.60067,45.989459,55.727499,45.604248,51.34858,46.01553,42.131602,41.896975,43.354828,38.341028,33.966197,34.180434,34.751045,30.854581,27.12866,23.224515,26.16791,26.699297,27.890574,33.018654,61.919655,86.102486,106.247292,67.211094,101.295044,117.185234,126.928642,58.267571,95.662308,113.810967,124.583016,49.591267,83.138981,99.966122,109.950966,41.086121,66.916626,80.233875,89.164581,-15.537638,-18.078026,-17.05145,-19.684154,15.626893,31.555066,37.285924,41.115425,33.384311,50.329612,54.878518,57.340568,45.890548,62.789128,67.147571,68.591691,53.838628,68.891687,72.28959,72.949665,74.385733,281.509257,-100.397249,279.04975
89,-1.474457,7.150932,6.517445,8.549864,-29.508796,-56.464577,-77.953033,-95.649524,-72.821583,-97.119587,-90.692425,-80.791397,-71.919193,-96.210525,-87.072716,-72.740776,-69.378559,-93.708812,-85.682728,-72.67543,-66.351093,-89.14912,-91.523426,-88.470554,13.301434,23.869301,32.913637,41.043325,37.491565,48.727621,49.244052,48.706428,38.171017,46.064276,46.88053,45.564999,35.561445,41.998629,43.569646,42.806176,30.143316,38.032981,42.097244,45.574731,32.531502,60.904815,85.354351,105.474643,66.485618,101.96989,117.842067,127.008533,57.526314,96.804966,115.132725,125.816791,48.675499,84.018905,100.973156,111.02853,40.053085,67.042133,80.502697,89.705417,-14.319464,-16.271395,-13.946936,-16.220796,17.215347,33.664719,39.655793,43.406562,35.473203,52.327212,56.64264,58.298946,48.263158,65.132963,68.945397,69.429186,56.468244,71.715619,74.575947,74.420386,72.94372,288.449444,-93.84736,287.388869
90,-3.853454,6.396701,3.382827,4.160038,-25.203987,-49.374825,-69.474026,-86.683033,-71.75298,-86.35698,-72.710965,-58.852444,-71.582714,-84.62138,-68.153561,-49.568768,-68.927742,-82.376793,-67.38707,-50.520985,-64.862767,-80.251442,-78.249035,-72.523476,6.62572,12.290444,19.011272,25.422373,29.469729,44.24044,48.745516,50.77519,34.233601,45.950136,51.305675,53.090522,36.247739,46.049011,51.499806,53.350787,35.840359,46.849568,52.765998,57.509258,32.506016,60.641442,85.449269,105.820508,65.807969,98.899647,115.845921,127.429333,56.548291,93.45551,113.949887,128.107098,47.251339,80.191865,99.347981,112.785679,38.227124,63.179661,77.956719,90.202813,-12.104031,-13.638826,-10.424062,-12.783681,19.127129,34.284891,42.079633,47.751977,36.317196,52.418752,59.387088,63.091446,48.341483,65.049724,71.256073,73.273533,56.148267,71.397543,76.008101,77.237934,69.062662,294.67049,-90.492137,291.373252
91,-6.569779,4.65792,4.52274,4.594478,-17.877868,-38.879173,-57.23687,-73.364158,-67.606212,-72.759315,-53.742851,-37.537514,-68.745369,-71.250503,-48.737423,-26.992332,-66.47168,-69.545288,-48.337784,-28.253517,-61.900486,-69.695606,-62.805061,-53.952083,3.784374,6.956048,12.910825,18.674917,21.94039,41.144707,49.437145,53.771061,28.390159,44.70216,54.019038,58.749292,32.927061,46.119802,55.133917,59.921587,35.763566,48.303728,55.160507,60.588368,31.834934,59.292286,83.831921,104.315117,64.710274,97.578667,114.67012,126.36335,55.515495,92.513924,113.170029,127.757744,46.06953,79.372215,98.612045,112.464249,36.96318,62.323643,77.20467,89.965645,-12.474114,-13.993199,-10.11925,-11.973232,18.463991,33.489657,41.1412,46.747001,35.478304,51.129292,57.834683,61.634,47.337372,63.483968,69.359668,71.532245,55.112959,69.931638,74.247991,75.435835,62.437677,299.200667,-86.024603,295.839987
92,-19.77119,6.0919,3.763584,2.811015,-8.595555,-21.968937,-36.566815,-50.775673,-47.49701,-41.940892,-22.919163,-9.647633,-50.967236,-41.725766,-20.601185,-2.229001,-51.580605,-43.777234,-23.370862,-6.521199,-49.968956,-50.796399,-43.531781,-36.36699,-5.199582,-6.236829,-2.138787,2.175628,13.010726,33.211224,40.111055,43.375219,23.883775,40.63844,47.922025,51.601794,32.083588,45.441548,51.715624,55.271448,38.340843,50.826221,54.76402,57.902732,30.928448,57.953213,82.099857,102.517376,63.389317,96.655987,113.640507,125.12241,54.502098,91.670231,112.12888,126.448414,45.146942,78.786736,97.968945,111.558117,36.061123,61.707047,76.755169,89.611942,-13.349229,-14.560426,-9.687948,-10.476279,17.684416,32.849119,40.27016,45.455281,34.781969,49.983265,56.285994,59.467449,46.564281,62.330668,67.635176,69.118891,54.205363,68.815758,72.707541,73.311077,42.604689,305.198747,-82.322817,298.557182
93,-12.301255,4.395419,2.531387,1.585577,-2.753116,-11.535221,-23.602878,-36.193119,-35.025055,-21.127304,-4.054538,5.868222,-40.167972,-21.938942,-4.286419,9.77583,-42.33855,-26.374008,-8.883556,3.793888,-41.993843,-36.43666,-27.764053,-20.6571,-13.562502,-17.83242,-15.701845,-12.406967,7.058109,26.855069,32.32665,34.383321,21.766489,38.539704,43.727023,45.546585,32.514383,45.328434,48.809848,50.411715,40.567366,53.079432,54.164782,53.99188,30.163205,56.903309,80.756619,100.985241,62.121094,95.664723,112.559544,123.971638,53.393807,90.69991,110.949955,125.006092,44.058907,77.924641,96.970814,110.228291,35.031281,60.838223,75.962529,88.687489,-14.053455,-15.112055,-9.497892,-9.389335,16.926653,32.397897,39.803945,44.752031,34.204616,49.282337,55.427084,58.172692,46.001217,61.596135,66.450952,67.217436,53.547697,68.0977,71.696452,71.772776,30.242334,309.570531,-79.85253,300.119124
94,-13.047249,4.670332,1.737236,0.629904,1.891812,-1.585384,-7.942462,-16.100051,-22.927253,-2.552753,13.072255,21.407673,-29.231792,-5.318492,11.232274,23.836682,-32.342845,-11.996624,4.164334,15.177189,-32.795127,-25.255245,-18.114978,-12.907814,-16.049957,-21.398815,-20.111455,-17.306504,2.736371,21.108749,26.131688,28.190928,18.496657,34.534387,39.207584,40.404332,29.934463,41.903879,44.826069,46.024385,38.60017,49.518483,49.893333,49.191008,29.382145,55.830391,79.41528,99.373547,61.053475,94.699849,111.598126,122.995938,52.272458,89.630642,109.703831,123.521908,42.804577,76.744458,95.627621,108.574528,33.783554,59.713429,74.89143,87.400624,-14.680914,-15.676281,-9.523112,-8.56892,16.461635,32.287586,39.713851,44.483478,34.02796,49.209249,55.35675,57.919392,45.852114,61.377415,66.054156,66.489842,53.239674,67.560311,70.930562,70.68929,17.143632,314.2303,-78.166747,300.738465
95,-15.568119,1.749686,1.281098,-0.073681,6.999104,9.140145,6.762703,1.2258,-7.227195,18.800606,32.624062,37.854012,-14.978668,15.135819,29.24849,38.461899,-20.692726,5.132103,19.474503,27.749062,-24.109691,-13.856586,-8.060966,-4.845234,-18.75875,-24.504194,-23.482484,-20.90212,-0.277013,17.588456,21.3341,22.532354,16.835545,33.271282,36.304462,36.21443,28.909727,41.70871,42.600757,42.41159,38.043428,49.47464,48.221316,45.957744,28.812195,55.111656,78.493892,98.209842,60.040432,93.760402,110.769092,122.364269,51.362457,88.835003,108.952503,122.805988,41.946705,76.105854,95.081211,108.096599,32.972328,59.17947,74.56937,87.042469,-14.980106,-15.95333,-9.551652,-7.856146,16.202765,31.942389,39.27425,43.967417,33.938879,49.037843,55.164941,57.715356,45.804171,61.312725,65.928482,66.335158,53.158052,67.3141,70.527739,70.07585,1.532272,315.972277,-76.92889,300.657075
96,-14.514862,1.698371,1.143436,-0.125995,11.205963,18.625099,19.39,15.363121,7.520188,38.763291,50.605774,52.524468,-1.596164,34.870217,45.639061,50.500557,-10.002536,21.353508,33.236687,37.86232,-16.502369,-4.441909,-1.111393,-1.017357,-21.732601,-28.4826,-28.337993,-26.808917,-2.882164,15.743514,18.037369,17.656665,15.97656,33.725086,34.580107,32.446074,28.871343,43.126129,41.293476,38.927496,38.495935,50.922946,48.071559,44.1109,28.475235,54.607384,77.908905,97.469513,59.108036,92.907761,109.987885,121.653031,50.411419,88.006462,108.186516,121.96978,41.001595,75.343849,94.416779,107.435303,32.037689,58.268978,73.768227,86.249199,-14.868054,-15.81554,-9.259536,-7.234271,16.003051,31.644851,38.873317,43.523135,33.814501,48.75405,54.92809,57.564475,45.739147,61.066835,65.660929,66.099876,53.060449,67.150139,70.314786,69.777138,-13.029871,317.666788,-75.832735,300.52722
97,2.113438,-0.860912,0.720749,-0.219128,10.713718,17.294666,17.53442,13.488682,5.381367,35.410961,47.885479,50.398624,-3.874283,30.785717,42.080051,47.946796,-12.606342,16.474834,28.650227,33.845386,-19.351227,-12.074375,-11.503304,-13.193756,-21.640445,-28.20581,-27.738397,-26.654393,-1.33355,17.304207,19.457159,18.951695,17.278914,35.008148,35.713585,33.475812,29.616461,43.935035,42.335638,40.249276,38.789904,50.865679,49.495647,47.01312,28.11351,54.238575,77.613281,97.195084,58.265019,92.006058,109.231201,121.06366,49.58717,87.220574,107.589661,121.460129,40.224507,74.65931,93.857918,106.934693,31.350037,57.700573,73.289108,85.839478,-14.762078,-15.650185,-9.035197,-6.910982,16.016452,31.538048,38.649126,43.231451,33.836101,48.680431,54.900439,57.625534,45.760612,60.969801,65.586817,66.088663,53.049026,67.16969,70.372894,69.87258,-10.98801,316.797281,-75.183563,300.299497
98,-3.483799,-0.963035,0.517662,-0.154289,11.899521,19.935608,21.365662,18.17411,9.254002,37.800247,50.467163,53.461716,-0.13718,32.179459,44.433334,51.891129,-9.800549,17.207726,30.24218,36.708069,-17.70536,-13.637135,-14.58371,-17.13826,-21.495973,-27.935578,-27.020943,-26.303329,-1.291769,17.482443,20.30624,20.468631,17.228575,35.046026,36.50546,34.97305,29.490898,44.055955,43.360892,42.00121,38.860547,50.507947,50.885847,50.10505,27.89011,54.043408,77.503372,97.149674,57.568554,91.244545,108.606034,120.578018,48.853489,86.531296,107.019814,120.910355,39.510349,74.108963,93.357811,106.376862,30.725647,57.22023,72.824135,85.315178,-14.617336,-15.530414,-8.975867,-6.95369,15.937373,31.35287,38.488649,43.089758,33.734472,48.543098,54.895535,57.740834,45.691328,60.777336,65.446112,66.005225,52.995315,67.084289,70.329582,69.88215,-14.565691,315.828494,-74.759783,300.139456
99,-1.825893,-3.914062,0.472218,-0.217399,13.251033,21.495151,20.686466,14.834163,11.493679,40.78973,52.854435,54.161304,1.735107,35.421924,46.425556,52.496212,-9.385746,19.408344,32.175808,37.42686,-19.053749,-15.606892,-17.77644,-21.788887,-21.831204,-27.737964,-25.950191,-25.319559,1.119189,22.071598,24.035483,22.780036,19.893043,39.6182,40.055318,37.553241,31.899559,48.407457,46.571012,44.387974,40.816071,54.207364,55.139215,54.644458,27.760666,53.956009,77.504574,97.18182,57.186836,90.708423,108.045078,120.017315,48.443664,86.038913,106.583095,120.471851,39.080257,73.706508,92.909076,105.818561,30.316761,56.891784,72.427013,84.836277,-14.568466,-15.510085,-8.968383,-7.130394,15.698733,31.067855,38.269966,42.94304,33.472527,48.240385,54.797946,57.806315,45.504212,60.435264,65.214684,65.856543,52.894551,66.973941,70.319035,69.949792,-16.5153,311.90842,-74.411281,299.916045
100,-0.057587,-0.705103,0.236629,-0.18388,13.508148,21.860447,21.184605,15.524311,11.984985,40.176327,52.526722,54.239605,2.116012,34.319652,45.899151,52.746403,-9.292133,17.930431,31.146824,37.042042,-19.339966,-18.457375,-22.058979,-26.928944,-21.507595,-27.232772,-25.199541,-24.682529,1.070566,22.633921,25.031455,23.976746,19.687809,40.049365,40.929655,38.637158,31.609331,48.604959,47.340854,45.475992,40.613492,53.868107,56.105411,56.960951,27.679425,53.917248,77.611794,97.493134,57.086392,90.470536,107.738594,119.60685,48.310364,85.787934,106.320923,120.117417,38.885754,73.495148,92.578285,105.253029,30.109772,56.742565,72.160858,84.439156,-14.580952,-15.575875,-8.946437,-7.07104,15.295206,30.683866,38.050542,42.849463,33.092688,47.872118,54.697749,57.912451,45.248442,60.015188,64.942093,65.676923,52.791748,66.911598,70.362174,70.070156,-16.732567,311.173834,-74.334332,299.702682
101,-0.605175,-0.867297,0.03154,-0.294154,13.842968,22.346832,22.084465,16.788597,12.676426,40.022049,52.987747,55.413162,2.799248,33.558037,46.277824,54.575111,-8.881542,16.921989,31.214744,38.610489,-19.23769,-20.431973,-24.734425,-29.637898,-21.122927,-26.86054,-24.791556,-24.390549,1.02439,22.606788,25.690851,25.358943,19.517477,40.089997,41.736337,40.005659,31.519584,48.537861,48.113648,46.983739,40.809118,53.688685,57.131851,59.386754,27.667729,53.944462,77.797051,97.851837,56.862168,90.058891,107.373093,119.314591,48.112816,85.458733,106.058602,119.88723,38.744145,73.280525,92.393807,105.064018,30.086884,56.805348,72.213158,84.437576,-14.463503,-15.340272,-8.713848,-6.909748,15.49382,31.017824,38.45513,43.310615,33.212594,48.063309,54.993731,58.307418,45.321998,60.096847,65.119897,65.949896,52.852844,66.984858,70.456182,70.206426,-17.506571,310.252265,-74.471621,299.354256
102,-2.092209,0.058588,0.146382,0.003742,14.280933,23.702408,24.322266,19.383522,14.645565,42.368843,55.325409,57.767715,4.93071,36.058388,48.805046,56.941956,-6.793659,19.348618,33.783279,41.29731,-17.25515,-18.224441,-22.715515,-27.823608,-21.499406,-27.583748,-26.091352,-25.878671,0.011894,21.856262,25.352632,25.3666,18.676264,39.794794,41.662571,39.971301,31.019579,48.345954,48.022024,46.915469,40.635341,53.578647,57.256637,59.760913,27.748123,53.975257,77.903675,98.054225,56.864021,90.059772,107.342044,119.224559,48.064441,85.378566,105.893955,119.643116,38.649284,73.214664,92.220073,104.774677,29.987594,56.749614,72.096416,84.217906,-14.378695,-15.357847,-8.803028,-7.044043,15.475505,30.982762,38.519042,43.521171,33.13101,48.015057,55.059075,58.496091,45.26336,60.042704,65.130061,66.014105,52.840568,66.941077,70.402175,70.152988,-19.796774,310.226832,-74.523233,299.273977
103,-2.488163,0.065839,0.269176,0.046201,14.529682,24.71767,26.189175,21.731014,16.767712,45.381626,58.473782,60.847744,7.294006,39.506138,52.170765,59.804981,-4.357555,22.663158,37.027462,44.258617,-14.88913,-14.756973,-19.007069,-24.057335,-21.679224,-27.983373,-26.890773,-26.737496,-0.646712,21.431728,25.198194,25.408516,18.178568,39.786544,41.786195,39.969411,30.777776,48.318758,47.937684,46.766909,40.530932,53.73401,57.212399,59.545589,27.712727,53.819252,77.778626,97.979095,56.918747,90.063377,107.269959,119.044441,48.13781,85.389221,105.797241,119.429878,38.66288,73.220833,92.104752,104.543587,29.931965,56.769791,72.102402,84.175163,-14.40642,-15.393846,-8.799001,-6.917701,15.466848,31.044118,38.637739,43.725047,33.095245,47.991692,55.090087,58.608625,45.271463,60.028057,65.123837,66.04687,52.917139,66.924368,70.310316,70.0285,-22.527609,310.173308,-74.496729,299.200815
104,-1.17841,0.292919,0.168354,0.010399,14.840493,25.366517,26.918404,22.594071,18.468579,47.489136,60.426568,62.578515,8.957383,41.914078,54.302445,61.372811,-2.87733,24.722283,38.795678,45.630433,-13.684295,-12.453575,-16.205955,-20.942733,-21.709481,-28.099402,-27.178839,-26.831863,-1.326362,20.586056,24.685147,25.244989,17.456409,39.072264,41.349471,39.807662,30.287009,47.722373,47.411991,46.440953,40.300641,53.660392,56.683148,58.628533,27.630203,53.684074,77.634419,97.765011,56.857201,90.065449,107.296681,119.096729,48.132259,85.408253,105.812084,119.438931,38.659172,73.248745,92.128613,104.560329,29.900677,56.788399,72.14716,84.222691,-14.452919,-15.465033,-8.872966,-6.798288,15.456919,31.047835,38.685065,43.85082,33.057626,48.011217,55.200373,58.816712,45.233622,60.047644,65.20967,66.208384,52.912137,66.929765,70.31328,70.010999,-23.970732,310.28481,-74.593088,299.029797
105,0.223538,0.283731,-0.007496,-0.03915,14.697567,25.12389,26.41856,21.803112,18.309837,47.642063,60.682468,62.910404,8.605614,42.179111,54.681736,61.703327,-3.308075,24.775555,38.851353,45.620945,-14.14856,-12.068916,-15.109634,-19.210224,-21.716249,-28.208354,-27.197278,-26.595137,-1.620813,19.82744,24.142694,25.039113,17.129243,38.284848,40.817281,39.6645,30.114836,47.157604,46.919716,46.28181,40.285746,53.724649,56.295862,57.862384,27.690685,53.650326,77.527222,97.596108,56.843422,90.034538,107.333908,119.261696,48.183895,85.366951,105.799072,119.510605,38.741078,73.23127,92.155998,104.633537,29.966858,56.726704,72.099381,84.221649,-14.340607,-15.389314,-8.84093,-6.670551,15.477642,31.049972,38.699329,43.939778,32.991418,48.010871,55.270472,58.968939,45.150666,60.03464,65.296281,66.369936,52.857735,66.919959,70.367929,70.071181,-24.013492,310.345202,-74.866882,298.767308
106,2.017559,-0.165232,0.090901,0.076756,14.315792,24.035431,24.599693,19.620071,15.710403,44.89547,58.680725,61.625542,5.637978,39.515213,52.987152,60.904633,-6.083313,22.225571,37.022118,44.438713,-16.616077,-13.713902,-15.471565,-18.315582,-21.23141,-27.430459,-26.058291,-25.215176,-1.31479,20.068427,24.634475,25.776215,17.287275,38.094978,40.982649,40.237384,30.269681,46.991285,47.018233,46.782656,40.453152,54.164818,56.412002,57.609405,27.64714,53.502948,77.377475,97.501545,56.887001,90.02425,107.335979,119.242343,48.248005,85.386028,105.826046,119.534076,38.750576,73.27177,92.179103,104.629886,29.900184,56.684417,72.027843,84.108409,-14.367678,-15.488918,-8.909325,-6.631982,15.234716,31.005462,38.793424,44.119978,32.721679,47.914676,55.322367,59.087598,44.945383,59.954414,65.29023,66.402268,52.748931,66.808672,70.288802,70.012481,-22.276743,309.927902,-75.056791,298.591996
107,3.522835,-0.443072,0.121307,-0.023292,13.718227,22.048279,21.374267,15.904564,11.271766,39.632675,54.489189,58.537124,0.650287,34.267753,49.057823,58.565941,-10.81025,17.156627,32.982948,41.675628,-20.843823,-18.074467,-18.910595,-20.467003,-20.176144,-25.923045,-23.968298,-22.733784,-0.969456,20.42716,25.533178,27.089511,17.472242,37.805258,41.346063,41.10373,30.458749,46.690389,47.278845,47.620152,40.777972,54.449352,56.62109,57.776304,27.726448,53.519382,77.328381,97.402714,56.760647,89.816563,107.100712,119.024998,48.139389,85.25378,105.721447,119.439411,38.660202,73.206196,92.152073,104.618031,29.805965,56.616749,71.949429,83.971333,-14.362232,-15.445001,-8.783675,-6.508889,15.006844,31.060926,38.94328,44.296028,32.554558,47.925878,55.432925,59.245976,44.874703,59.955969,65.365145,66.549691,52.797442,66.80146,70.274945,70.01274,-19.037979,309.227806,-75.219555,298.31168
108,6.837364,0.267244,0.146049,-0.009349,8.409668,12.593342,9.466484,1.70771,2.906387,29.168907,44.523537,50.416832,-6.582504,24.657967,40.985321,51.96064,-15.867348,9.561413,26.612595,36.878036,-23.53085,-21.701923,-20.171642,-19.050888,-16.068655,-19.255372,-14.876156,-11.319011,2.215049,20.472077,25.675611,28.147814,18.937431,35.820414,40.189268,41.003854,30.654708,44.230313,45.560886,46.623389,40.244695,52.442007,53.915668,54.389293,27.745388,53.476834,77.191853,97.163327,56.568547,89.588368,106.889729,118.882657,47.957577,85.055363,105.579564,119.355618,38.510697,73.057148,92.056195,104.59377,29.675995,56.42141,71.734669,83.744145,-14.31792,-15.454214,-8.745958,-6.32796,14.841143,31.039363,38.932474,44.264375,32.428019,47.897386,55.469493,59.292301,44.787734,59.921624,65.404344,66.616097,52.753327,66.806301,70.332163,70.057448,-12.444311,309.265336,-75.317202,298.072617
109,1.295368,-0.143323,0.116147,-0.056737,8.098057,11.870865,8.57983,1.162228,0.729057,25.90749,42.2692,49.44128,-8.793606,21.265331,39.041805,51.785191,-17.706665,6.742241,25.214687,37.157215,-24.982143,-23.57547,-20.892105,-18.342224,-16.057565,-18.873803,-14.059136,-9.941335,2.170045,20.095523,25.691061,28.59049,18.859379,35.167984,40.091344,41.57391,30.57363,43.541006,45.456516,47.144563,40.203186,52.23439,54.020841,54.79329,27.805217,53.472038,77.176208,97.109664,56.596561,89.421318,106.766784,118.913818,48.043178,84.840271,105.370376,119.261215,38.58942,72.944595,91.93634,104.57714,29.630882,56.361923,71.615707,83.6212,-14.208448,-15.313324,-8.524903,-6.051009,14.566602,30.845183,38.821126,44.175405,32.115204,47.665316,55.340979,59.221387,44.59022,59.770497,65.397663,66.695274,52.759651,66.89332,70.44655,70.153013,-11.386328,308.954613,-75.43844,297.84848
110,7.994064,-1.095082,0.302536,-0.1235,5.960896,6.79953,1.211804,-7.162708,-9.031116,14.175969,32.097874,41.004719,-18.923641,9.684369,29.260678,44.070157,-26.829586,-3.984123,16.201321,30.096966,-32.722114,-33.119831,-29.68198,-25.695774,-14.912959,-16.850711,-11.173107,-6.041425,3.025832,21.494146,27.657627,30.834056,19.641818,35.70394,41.408456,43.466782,31.282129,43.709054,46.365976,48.551163,40.943142,52.583675,54.687437,55.912899,27.817302,53.36705,77.09658,97.126602,56.382511,88.967491,106.303138,118.53099,47.861709,84.443641,104.974227,118.890037,38.399917,72.638099,91.616134,104.327705,29.367267,56.100711,71.279068,83.209281,-14.100867,-15.111858,-8.223649,-5.788286,14.582298,31.01985,39.073746,44.44392,32.085625,47.671762,55.42591,59.35047,44.617957,59.816092,65.513383,66.877894,52.876149,67.059144,70.626366,70.36042,-3.609507,307.763108,-75.353147,297.628557
111,1.43668,2.418529,0.318706,-0.172235,4.503342,4.444805,0.455887,-5.679954,-12.542564,10.776078,29.359978,39.244103,-22.121292,6.287247,26.945549,42.730591,-28.778846,-6.209827,14.906868,29.924973,-33.025623,-33.347728,-29.085846,-24.083782,-15.146882,-18.022747,-12.708988,-7.207372,1.817167,18.964429,25.911918,30.348833,18.472636,33.093232,39.27446,42.190006,30.103783,40.852171,43.950621,46.559749,39.679086,49.588298,51.041298,51.732198,27.817818,53.23431,76.897099,96.878025,56.120373,88.573116,106.006359,118.420979,47.621075,83.972317,104.525951,118.53867,38.162121,72.215916,91.206745,104.006962,29.05394,55.736664,70.872356,82.800922,-13.959063,-14.872117,-7.887948,-5.370853,14.618546,31.076229,39.144105,44.530445,32.028926,47.639122,55.470124,59.477973,44.580019,59.820008,65.634229,67.076682,52.918757,67.249694,70.847236,70.553724,-2.364687,310.143815,-75.226301,297.4185
112,-1.097442,3.852757,0.389145,0.044881,3.905067,4.414753,2.819435,-0.614319,-11.545636,12.281959,31.060592,41.564941,-20.569199,6.965057,28.626251,45.029113,-26.371914,-4.531334,16.597618,32.092506,-29.858414,-28.313782,-21.787686,-14.946156,-15.180104,-18.895305,-14.391514,-9.142272,-0.129874,14.82352,22.222417,27.768814,15.998482,28.938034,35.514823,39.2094,27.696887,37.04296,40.687853,43.485443,37.31812,46.06414,46.780976,46.560169,27.646328,52.922127,76.601269,96.58659,55.881065,88.176876,105.687,118.235012,47.470676,83.566486,104.102749,118.149845,38.008736,71.874355,90.784779,103.557987,28.801849,55.410347,70.462452,82.339336,-13.866241,-14.76151,-7.778403,-5.274758,14.738884,31.01959,39.054319,44.401547,32.012858,47.496774,55.380424,59.43855,44.532149,59.687787,65.526103,66.963554,52.913211,67.31137,70.894425,70.550142,-3.639003,314.007153,-75.01403,297.473962
113,-6.537896,4.666515,0.272232,-0.037804,8.406601,13.520623,16.850464,18.283265,-3.704944,21.884995,40.965363,51.346344,-13.603134,14.946557,36.984238,53.784966,-20.524978,2.667824,23.460572,39.204072,-25.112056,-21.028827,-14.277122,-7.455493,-19.249246,-26.297709,-24.990959,-22.384499,-6.648605,8.471465,16.422177,22.612174,10.588035,24.488621,30.994978,34.810684,23.803599,33.672858,37.677545,40.692954,34.608735,43.323484,44.249086,44.45611,27.517399,52.691689,76.399944,96.364712,55.764118,87.896198,105.480526,118.191799,47.41444,83.197094,103.719189,117.835133,37.918648,71.517872,90.379543,103.148769,28.580452,55.089775,70.040348,81.846417,-13.738713,-14.539221,-7.546567,-5.126618,14.778257,30.979638,39.069399,44.486812,31.888629,47.356366,55.332457,59.520827,44.363262,59.552826,65.478334,67.023625,52.778102,67.33712,70.951458,70.651289,-10.391076,318.709344,-74.955975,297.471834
