takenoko1/special-research/HandMotion_SimilarSearch_自分用/NewProject/handData/test_key/d4_feature_d2/1.csv
frame,vel_0x_L,vel_0y_L,vel_0x_R,vel_0y_R,posFromWrist_0x_L,posFromWrist_1x_L,posFromWrist_2x_L,posFromWrist_3x_L,posFromWrist_4x_L,posFromWrist_5x_L,posFromWrist_6x_L,posFromWrist_7x_L,posFromWrist_8x_L,posFromWrist_9x_L,posFromWrist_0y_L,posFromWrist_1y_L,posFromWrist_2y_L,posFromWrist_3y_L,posFromWrist_4y_L,posFromWrist_5y_L,posFromWrist_6y_L,posFromWrist_7y_L,posFromWrist_8y_L,posFromWrist_9y_L,posFromWrist_0x_R,posFromWrist_1x_R,posFromWrist_2x_R,posFromWrist_3x_R,posFromWrist_4x_R,posFromWrist_5x_R,posFromWrist_6x_R,posFromWrist_7x_R,posFromWrist_8x_R,posFromWrist_9x_R,posFromWrist_0y_R,posFromWrist_1y_R,posFromWrist_2y_R,posFromWrist_3y_R,posFromWrist_4y_R,posFromWrist_5y_R,posFromWrist_6y_R,posFromWrist_7y_R,posFromWrist_8y_R,posFromWrist_9y_R,posFromBody_0x_L,posFromBody_0y_L,posFromBody_0x_R,posFromBody_0y_R
2,5.806389,-2.757897,-0.505085,0.019143,0.0,-39.353428,-45.616264,-4.583817,-44.405594,6.17878,-38.463993,6.53286,-30.194206,-23.913231,0.0,28.314231,6.304964,26.6064,-5.12195,20.083025,-18.151781,9.272071,-31.779541,-15.794891,0.0,66.536121,21.136551,85.270786,10.051861,82.292576,0.759888,67.373028,-6.385117,45.149746,0.0,9.540933,33.99601,58.348829,51.470203,74.953391,62.273994,82.850343,67.605648,82.517755,22.860632,336.776821,-46.706114,287.394152
3,-0.611229,-10.47145,0.020256,-0.543774,0.0,-0.441513,-40.189533,5.180283,-43.56863,15.688133,-40.915031,9.818001,-34.838676,-22.115479,0.0,28.21858,10.696406,24.69294,6.569503,23.266505,0.538217,17.390275,-5.567973,-5.810158,0.0,67.933331,20.275326,85.456982,9.093533,82.923603,0.069065,68.546047,-6.652336,46.201458,0.0,10.556048,33.894184,58.902668,51.412652,74.913006,62.377734,83.339035,67.72038,83.763878,21.585302,326.768839,-47.349958,287.313845
4,-0.11776,17.022119,-0.556755,0.31925,0.0,-65.342102,-50.400925,-4.386292,-44.834061,11.194382,-35.032883,12.209015,-23.587303,-14.022217,0.0,27.113618,1.889871,24.044375,-12.90985,13.720695,-29.347316,-3.404485,-46.689919,-35.918918,0.0,68.368893,21.140728,86.4501,10.196686,84.247456,1.336956,69.957218,-5.154362,48.543148,0.0,10.060624,33.797359,58.240395,51.485209,73.854666,62.653265,82.422103,68.21531,83.32897,20.989494,344.067012,-48.384762,287.90915
5,0.209885,-1.669422,-0.317459,-0.044275,0.0,-62.71225,-53.35104,-5.122948,-47.72398,9.698639,-37.217216,12.926559,-24.318695,-10.320625,0.0,29.684658,1.661148,29.12557,-11.346823,19.101872,-25.42425,4.618746,-40.541121,-20.564554,0.0,68.74403,21.08757,86.52277,10.109367,84.122601,1.246662,70.046597,-5.35326,48.734837,0.0,9.852093,34.194785,59.557964,51.739373,74.293032,62.687351,83.015834,68.05093,84.068863,20.891247,342.557215,-49.010353,288.0245
6,2.635689,-20.452786,-0.222988,-0.301527,0.0,-35.82653,-50.294037,-2.830467,-51.464596,4.932747,-45.896759,1.726685,-37.052879,-37.216072,0.0,24.434762,9.981398,33.406479,13.53921,34.6116,14.72173,33.898259,13.514325,31.722854,0.0,68.28701,21.786289,86.929436,10.643578,84.070244,1.606922,70.005112,-5.153847,48.760757,0.0,10.396485,34.452716,59.534437,52.260547,74.658101,63.283613,83.468279,68.598347,84.319447,23.301258,322.276419,-49.459019,287.894963
7,-4.346809,22.913046,-0.084572,-0.343703,0.0,-68.180237,-44.980145,-6.949425,-37.277641,8.449402,-27.572594,8.485794,-16.956596,-22.712173,0.0,26.74503,1.161402,22.288688,-14.392107,10.863318,-31.868153,-6.555609,-50.361475,-41.773845,0.0,68.080101,21.570168,86.720123,10.389462,83.761139,1.257133,69.541397,-5.755463,47.993088,0.0,10.549564,34.780673,60.230364,52.278208,75.254918,63.121827,83.833718,68.438846,84.579786,18.811884,345.301233,-49.686155,287.663028
8,5.068359,0.330056,-0.313683,0.026429,0.0,-70.302715,-50.740929,-10.320511,-44.911423,2.263298,-35.132217,5.827332,-23.357391,-23.932343,0.0,26.781401,3.464816,27.530124,-12.423318,14.92316,-30.02021,-2.328423,-49.197788,-35.305551,0.0,68.044968,21.624069,87.318306,10.295448,84.07814,1.094112,69.409218,-5.840893,47.176208,0.0,10.809471,34.719972,59.668312,52.415602,75.494078,63.288182,84.036444,68.500597,84.466783,23.727665,345.706177,-50.152416,287.764345
9,1.749573,-11.098093,-0.281296,-0.043164,0.0,-51.110973,-50.949554,-9.58992,-49.210167,2.674141,-42.058353,2.822227,-32.153778,-39.572411,0.0,28.368016,5.684249,30.43789,-0.237307,26.165749,-7.066779,19.390062,-14.863262,7.803029,0.0,68.876953,21.851921,87.314301,10.258598,83.965416,0.79834,69.103432,-6.336765,46.428108,0.0,10.542216,34.174284,59.963787,51.998046,75.808696,63.013455,84.445109,68.25378,84.608315,25.324802,334.675176,-50.586147,287.788274
10,4.208679,-6.397219,-0.639381,-0.204517,0.0,-26.355972,-43.680725,-10.430374,-43.892441,-3.495827,-39.504547,-6.775818,-32.352562,-32.785263,0.0,27.383282,10.208208,25.775363,8.931024,28.902404,6.513989,25.625927,3.566704,17.67056,0.0,68.742599,22.406445,87.98069,10.928421,84.438057,1.499348,69.722099,-5.605087,47.402916,0.0,10.614587,34.810498,59.886291,52.521257,76.015622,63.342338,84.588864,68.454778,84.840805,29.463873,328.357692,-51.295137,287.663491
11,-14.26712,-4.368162,0.166397,0.032666,0.0,-53.046913,-45.184364,3.226547,-46.80891,14.707947,-43.545914,14.791603,-39.174099,-3.137512,0.0,32.672205,1.826392,32.316769,7.854776,36.666901,13.014023,35.281098,16.238815,30.527551,0.0,68.361969,22.333717,87.288895,11.082916,84.292603,1.772575,69.385185,-5.372486,47.636032,0.0,10.64855,34.797839,59.427917,52.388,75.88928,63.213526,84.42257,68.552529,84.79721,15.132008,324.064804,-51.193485,287.771431
12,6.008263,6.189676,0.060482,0.203159,0.0,-14.916573,-40.618458,-2.149773,-41.171494,8.474464,-36.646042,6.634369,-29.491997,-20.557365,0.0,25.855762,9.727604,24.749565,6.077352,24.167506,0.210569,18.08614,-6.375236,2.875099,0.0,68.960323,22.276497,87.198544,10.958691,83.957119,1.526012,69.215298,-5.675697,47.379055,0.0,10.451134,34.320632,59.503994,51.934505,75.833767,62.837651,84.078558,68.193759,84.564966,21.092634,330.312757,-51.180639,288.032867
13,-8.468056,-6.238274,-0.112495,0.033036,0.0,-51.738052,-45.625992,5.704422,-45.790901,17.579384,-40.29253,20.331573,-33.231697,4.438591,0.0,30.443756,9.439168,36.108121,11.438646,38.254504,11.40419,31.984552,9.989611,24.164603,0.0,70.460072,21.745548,86.225224,10.44611,83.538265,1.474857,68.544559,-5.23962,47.31142,0.0,9.675919,33.246854,60.564372,51.070369,76.4643,62.445722,84.064603,68.338625,84.41411,12.611532,324.183658,-51.306181,288.175078
14,-1.112137,-9.173209,0.676632,0.538217,0.0,0.652657,-27.052574,13.716888,-30.769901,16.26297,-29.912682,9.007187,-26.424522,-11.997414,0.0,0.151906,14.703638,26.557926,26.140246,37.72555,34.340145,43.643771,40.29023,46.271621,0.0,70.233879,20.962772,85.560608,9.828129,83.284492,1.001358,68.576317,-5.483322,47.701149,0.0,10.122622,32.684184,59.782118,50.745686,75.616776,62.341487,82.997555,68.490284,83.554729,11.485062,315.036677,-50.643883,288.739523
15,0.120049,-0.742981,-1.030197,-0.473626,0.0,-44.585838,-41.585827,12.0298,-45.627022,19.193573,-43.498363,18.817863,-39.326248,1.415863,0.0,25.120006,11.295015,40.693521,21.197743,49.49629,28.587353,48.287834,33.72227,45.999364,0.0,70.065765,21.258087,86.67572,10.278683,84.619789,1.760788,69.766045,-4.412956,48.96286,0.0,9.219522,33.20542,60.577154,51.341207,76.237676,62.957262,83.825752,68.980459,84.575587,11.593752,314.329033,-51.685438,288.301234
16,0.629883,-0.383779,0.587311,0.111274,0.0,-44.917946,-41.468868,10.165787,-45.843487,17.327614,-44.37252,16.150475,-41.031818,-1.902924,0.0,25.98976,9.838693,39.849393,20.970996,49.631894,29.694847,49.159318,35.956153,47.575975,0.0,69.347763,21.153717,85.818787,10.078239,83.951797,1.333694,68.8274,-5.002213,47.743835,0.0,9.751872,33.138235,60.254138,51.327807,76.003704,62.991534,83.551827,69.045112,83.941102,12.217855,314.022303,-51.103907,288.489558
17,5.196648,-2.146074,-0.434132,-0.270096,0.0,-46.408482,-43.776054,6.488342,-49.755535,11.149979,-49.512005,9.157906,-46.895485,-9.203453,0.0,20.633838,12.314514,41.128059,24.3338,51.321138,33.643292,51.285137,40.204088,50.548208,0.0,68.593998,22.147751,86.521511,11.055737,83.980694,2.019367,68.740597,-4.797535,47.840023,0.0,10.147692,33.977423,60.598335,51.973284,76.61386,63.274906,84.244852,69.01967,84.718045,17.410412,311.918822,-51.54213,288.262054
18,-4.318199,-1.305712,0.01585,0.294302,0.0,-13.313942,-28.917961,13.408356,-33.852482,14.045563,-34.814186,1.811028,-33.519287,-26.089096,0.0,-11.767529,16.132295,29.52491,31.583668,43.837544,43.01651,52.674707,51.394436,55.400061,0.0,68.5849,22.014999,86.531296,11.058197,84.129639,2.191257,69.025269,-4.412498,48.457832,0.0,9.83295,33.813044,60.485023,51.870408,76.125846,63.279661,83.79747,69.109209,84.43245,13.091097,310.634676,-51.527395,288.577922
19,3.526382,3.639631,-0.227337,-0.226995,0.0,-50.258503,-44.048595,4.866829,-48.543148,11.105919,-47.569027,9.801064,-44.510536,-9.402924,0.0,24.252907,9.977693,38.439323,21.46926,47.769069,30.559167,48.664512,36.89655,48.198049,0.0,68.910542,21.995144,86.727962,11.028042,84.188404,2.193832,68.961811,-4.425602,48.795376,0.0,9.986771,34.084992,60.744683,52.008667,75.832099,63.367408,83.754986,69.19109,85.062304,16.614132,314.293388,-51.75808,288.370009
20,-0.299263,-0.581071,-0.137157,0.110842,0.0,-15.098305,-37.612381,7.293091,-40.58939,12.900581,-38.536205,5.397949,-33.812141,-15.059052,0.0,6.042648,17.688467,34.721269,28.366719,44.310984,35.505375,48.644319,39.815184,50.583961,0.0,68.596458,22.058086,86.53244,11.117992,84.615211,2.339687,69.394798,-4.071465,48.854828,0.0,10.510291,33.830334,60.498114,51.92586,75.868409,63.404026,83.932518,69.230733,84.929973,16.339359,313.701711,-51.870747,288.470245
21,0.607338,-4.886804,0.376282,-0.095528,0.0,-41.186771,-42.59119,8.652077,-50.546379,12.285118,-51.950169,9.234924,-50.738354,-9.953728,0.0,16.895901,10.408279,40.355932,25.911152,53.53736,38.407336,55.886161,47.929435,56.942957,0.0,68.320656,22.044296,86.666679,10.759907,83.9645,1.644974,68.216972,-5.1301,47.485771,0.0,10.627802,34.299328,60.576969,52.336191,75.942386,63.657018,83.945301,69.302981,84.883166,17.020912,308.810198,-51.42025,288.370009
22,-10.064735,4.505742,-0.110493,-0.100777,0.0,-3.629265,-29.860325,19.540329,-36.021309,24.208832,-36.259632,11.850357,-33.640938,-22.541885,0.0,2.978963,16.127479,30.759177,29.254011,42.023687,38.570357,49.102754,44.880138,49.267628,0.0,68.64687,22.420807,86.57999,11.135902,83.952656,1.831055,68.372555,-5.22686,47.23177,0.0,10.010421,34.426102,59.941187,52.316369,76.07799,63.48918,84.473452,69.04542,85.240763,6.988134,313.309456,-51.498785,288.262748
23,7.77832,7.757519,-0.524883,-0.114424,0.0,-53.078327,-45.737343,5.096512,-48.423443,14.395294,-45.441055,14.854317,-40.579662,-2.826462,0.0,31.184205,6.892519,37.331891,12.976726,42.27532,17.530077,40.130605,20.927709,35.884091,0.0,68.909683,22.256927,87.695961,11.150951,85.207214,2.165337,69.915848,-4.425945,48.766022,0.0,10.099774,34.68817,60.749747,52.637471,76.773608,63.807009,84.480492,69.293472,84.952821,14.779243,321.053452,-52.01088,288.134802
24,1.056404,3.423752,0.071182,-0.956823,0.0,-2.421455,-35.855255,4.826317,-38.528824,11.417542,-35.999222,8.918381,-30.517387,-8.372154,0.0,21.664576,11.477364,26.819007,13.237559,31.374211,12.674334,28.748892,10.921054,22.12579,0.0,69.254494,23.507595,87.735214,12.061501,84.739265,2.289906,68.665695,-5.332832,45.782433,0.0,10.449899,34.878485,59.5416,52.797282,77.833924,63.894572,85.588603,69.310083,84.313272,15.862856,324.465409,-51.912489,287.166185
25,-36.038189,-25.978522,0.300407,-0.163577,0.0,21.331959,-1.196823,54.158878,-10.770836,54.141254,-19.883652,44.207096,-28.558044,17.073154,0.0,-0.769534,8.943065,36.640657,29.356022,55.950443,46.857818,65.054862,61.460864,68.362955,0.0,69.521599,22.823009,88.017197,12.012291,85.775642,2.584076,69.987488,-5.131702,46.485672,0.0,8.796902,33.06469,60.78513,50.28583,79.404546,61.135748,85.703026,66.801657,83.639636,-20.164433,298.488941,-51.601181,287.004661
26,2.25071,21.412079,0.230999,-3.608571,0.0,-4.30481,-12.080612,45.1478,-17.986107,50.22646,-23.207989,44.380016,-27.880154,23.480473,0.0,37.729563,0.96343,38.789633,3.93381,44.894773,6.879613,41.208088,9.979361,35.907803,0.0,69.255695,23.021564,84.615612,12.057438,81.825657,2.242584,66.419163,-6.129513,43.546658,0.0,8.1844,30.124444,63.349439,47.634638,84.97326,58.979733,91.867138,65.38146,90.588966,-17.833586,319.875084,-51.290045,283.370155
27,38.659458,-0.034642,0.442944,-7.272099,0.0,-58.819714,-51.39679,-17.961044,-51.144562,-2.436676,-45.346756,-0.419197,-37.478542,-12.872772,0.0,39.281907,0.560447,49.636895,-1.292436,50.383149,-3.113271,41.062418,-4.630725,30.97765,0.0,67.040977,22.806301,75.921822,11.689625,74.330864,0.325184,57.744484,-10.93317,31.467247,0.0,11.104453,25.860579,66.851984,42.09223,87.944875,54.424405,95.466013,63.509002,97.835562,20.966578,319.806603,-50.706396,276.064217
28,13.607254,-31.242189,2.029209,-9.547046,0.0,-56.841917,-41.433849,-48.396234,-35.343933,-40.372123,-26.170807,-32.154035,-16.360159,-27.145557,0.0,40.291187,12.90352,62.97097,18.932614,74.372536,23.661955,72.302507,26.294035,65.787963,0.0,61.539745,12.078037,63.704853,-1.206951,55.16573,-12.582951,40.31599,-21.103134,27.314587,0.0,19.254581,13.044219,62.303078,29.455502,88.655252,44.0759,96.191272,56.787161,86.174861,34.841737,288.569911,-48.409281,266.522667
29,13.607254,-31.242189,0.525513,-16.439009,0.0,-54.86412,-31.470909,-78.831425,-19.543304,-78.307571,-6.994858,-63.888874,4.758224,-41.418343,0.0,41.300466,25.246594,76.305046,39.157665,98.361923,50.437181,103.542597,57.218796,100.598275,0.0,48.024845,37.251835,53.18922,20.917168,41.147289,1.708488,25.404053,-20.176449,13.384495,0.0,39.295863,30.766711,97.06115,36.940578,100.649467,41.660101,94.0389,44.649809,77.513872,48.342018,257.218778,-47.990742,249.974714
30,4.21257,-11.396224,-25.819988,-29.527133,0.0,-52.792625,-28.501968,-70.924587,-15.247192,-64.531174,-2.496185,-49.846458,8.56041,-36.175232,0.0,52.182988,23.669056,74.893864,37.259272,83.750849,47.731772,85.730629,55.573951,85.330918,0.0,52.68362,47.030811,89.522552,41.431217,90.165939,32.976837,82.368622,21.541557,64.43058,0.0,12.262644,52.365831,91.324846,65.275002,100.067407,71.322652,100.490212,71.981035,100.301009,52.634125,245.435395,-73.731194,220.060422
31,16.320992,7.710156,-13.47971,-23.194937,0.0,-40.97168,-43.856735,-50.453682,-44.221802,-46.37249,-39.719582,-43.914642,-32.55764,-42.43103,0.0,36.857771,26.746944,36.238476,23.083045,33.177014,16.941967,25.070544,8.494695,19.346034,0.0,35.221138,15.900135,42.339993,4.974289,36.560612,-6.307869,28.444462,-16.340446,8.497295,0.0,-22.44856,-4.774357,-2.433831,5.406434,22.358095,16.062949,32.094962,26.833456,33.625014,69.096909,252.649125,-87.069111,196.369058
32,19.380112,-72.484671,-3.191814,-9.978311,0.0,-51.600952,-40.312843,-50.74791,-38.378563,-48.244972,-33.353462,-40.799103,-25.54985,-33.122292,0.0,13.856175,14.045069,23.661708,30.896325,41.752912,44.771395,52.082767,56.037202,58.865371,0.0,35.014057,16.997795,26.492615,7.100372,9.40464,-4.040279,2.13747,-15.119133,-4.940872,0.0,-16.725223,-18.279233,-21.247514,-27.724947,-18.401067,-34.911398,-39.966843,-41.091071,-82.279151,88.754225,180.203541,-89.983721,186.429835
33,9.094505,-25.257771,-9.209633,-35.683587,0.0,-27.077637,-22.117882,-47.646103,-13.587112,-38.458557,-5.206604,-30.834618,2.919731,-28.582764,0.0,-51.735421,-6.300395,16.826617,5.777677,29.90943,17.315248,37.75766,27.87957,45.805838,0.0,27.868824,-5.449276,-6.585903,-21.083164,18.599854,-30.21286,5.623169,-35.49202,-0.614147,0.0,-38.087469,-43.279783,-94.343576,-38.29563,-6.855345,-24.725482,0.310852,-8.579417,4.953495,97.895308,154.961856,-99.146776,150.762334
34,-3.839951,-5.166842,-3.377552,-19.687266,0.0,-31.285286,2.056618,-6.318741,15.820541,-22.163429,24.080086,-11.002464,28.852844,-5.165749,0.0,-24.875042,-45.461147,-97.36842,-40.551094,-6.375668,-27.490851,5.133188,-11.547821,12.038675,0.0,20.842209,-6.664925,-11.484661,-19.377079,16.865559,-29.699993,2.014675,-37.448158,-8.004742,0.0,-41.887188,-44.805975,-96.054618,-40.309187,-17.832994,-30.468116,-7.92653,-16.07956,-2.911038,94.935894,150.97863,-101.643791,132.258684
35,3.378868,-30.547373,1.886959,-22.53007,0.0,-24.438171,6.715965,3.289032,20.862579,-13.90789,29.579315,-4.478302,36.271362,3.942261,0.0,-35.287921,-48.253408,-106.611191,-44.152409,-12.801138,-32.191385,-0.227242,-17.241363,7.455559,0.0,11.323757,-12.578373,-13.26725,-29.249039,7.250004,-40.090313,-6.328297,-48.300247,-15.742378,0.0,-47.636059,-54.547659,-119.764523,-49.44655,-16.95197,-38.692654,-8.453384,-25.045905,-5.641796,98.7638,122.398301,-99.307795,111.695658
36,6.916924,-19.375921,-3.343334,-18.018091,0.0,-23.690643,10.389404,7.008705,23.488083,-20.79998,32.072868,-10.845337,36.81942,-2.999153,0.0,-44.587873,-48.685877,-101.122382,-45.683727,-23.883083,-35.630883,-10.112433,-20.709421,-3.393617,0.0,16.829796,-13.192863,-10.123215,-29.409256,13.88134,-40.4706,1.966267,-47.906628,-7.242565,0.0,-49.315207,-53.146789,-118.104702,-49.258427,-19.053861,-39.155689,-11.305729,-24.597906,-10.027989,106.928473,104.717537,-101.403379,95.372724
37,2.125511,-21.94128,-1.258736,-12.590292,0.0,-22.218246,7.725677,7.510071,23.16124,-16.011086,32.793961,-7.647972,38.77224,-0.748444,0.0,-47.494249,-52.59721,-113.813419,-48.295553,-23.665475,-37.19817,-8.835743,-22.61084,-4.412283,0.0,18.70245,-12.131767,-10.814838,-26.914043,16.14172,-36.848431,3.517342,-43.720608,-6.334476,0.0,-48.103756,-53.421702,-118.66694,-49.09661,-26.37076,-39.310992,-16.428141,-25.244865,-14.189041,110.989752,82.98167,-100.726347,82.987845
38,1.842842,-10.81966,1.342506,-10.914725,0.0,-26.104774,9.559479,7.557678,23.373871,-18.471794,32.524338,-9.554214,37.657814,-1.812515,0.0,-47.544236,-51.729926,-110.600021,-48.374593,-28.549068,-38.8248,-14.517244,-25.181787,-12.44524,0.0,17.957554,-11.28067,-8.175316,-26.992722,13.979244,-37.776546,1.261654,-45.614719,-7.308254,0.0,-48.61224,-54.542194,-120.591639,-50.683874,-22.150274,-41.308772,-14.758503,-27.701667,-13.801433,113.472748,72.907476,-98.743687,72.818587
39,0.967484,-8.937971,3.373604,-7.54377,0.0,-27.575798,8.915863,4.843025,22.446327,-20.799408,31.620369,-10.275421,37.030792,-1.958199,0.0,-47.188028,-52.473802,-113.356405,-50.030091,-32.585662,-41.058868,-16.942306,-27.73492,-13.532479,0.0,14.112339,-12.586384,-8.70512,-29.187183,9.689369,-40.418758,-1.49992,-48.546009,-9.863377,0.0,-48.601001,-56.546828,-123.618829,-52.358699,-22.060952,-42.322189,-14.478279,-28.172298,-12.24946,115.707178,64.589387,-94.103136,65.894698
40,-1.848564,-7.015557,-1.409283,-4.630447,0.0,-26.179047,8.89492,4.766693,23.549309,-20.6147,32.96402,-9.30027,38.024254,-1.880493,0.0,-48.539189,-54.397543,-118.215915,-51.756849,-28.35971,-42.564929,-14.803365,-29.153141,-13.377733,0.0,16.016693,-12.501011,-10.317078,-29.636879,10.753956,-40.78022,0.413475,-48.374634,-7.7845,0.0,-48.5064,-57.374685,-126.339799,-53.505713,-21.950697,-43.22217,-12.638642,-28.664912,-10.213765,114.553442,58.456568,-94.817591,62.146989
41,-1.648064,-3.801664,-0.193691,-3.529993,0.0,-26.497307,7.942772,3.279762,23.351555,-19.890862,33.228264,-9.233437,38.556747,-1.808739,0.0,-49.201401,-55.420223,-123.703427,-52.036393,-27.269939,-42.761141,-15.297399,-29.740851,-11.864446,0.0,14.614563,-12.947502,-11.694832,-30.393791,10.085049,-41.646824,-0.612087,-49.266415,-7.232952,0.0,-47.603794,-57.532674,-127.334444,-53.799769,-23.076901,-43.534349,-14.449566,-28.937879,-12.318003,113.013611,55.310647,-94.903049,59.272738
42,-1.718216,-1.985029,0.693913,-1.252298,0.0,-24.842262,8.079872,3.610725,24.12838,-17.39399,33.734322,-7.675896,38.490944,0.076332,0.0,-49.77006,-57.644689,-123.868918,-54.506255,-25.384761,-44.676979,-12.929764,-30.703447,-9.667181,0.0,14.367313,-14.400043,-14.173965,-31.979771,8.437157,-43.033276,-1.598625,-50.066242,-6.837788,0.0,-45.335022,-57.726045,-128.346441,-53.634833,-23.958357,-42.926571,-15.385547,-28.041788,-13.214588,110.978966,53.663671,-94.525566,58.358493
43,-1.844902,-1.801167,-0.400658,0.543311,0.0,-24.445038,9.774857,4.305153,24.285278,-19.827805,33.373146,-9.403152,39.032364,-1.81366,0.0,-47.537134,-52.57992,-115.251,-48.998396,-24.76102,-38.857774,-11.551495,-25.88849,-10.643085,0.0,15.075531,-13.584366,-11.900368,-30.998096,9.137306,-42.158604,-1.092052,-50.031967,-6.158695,0.0,-45.562078,-57.373728,-125.378685,-53.718536,-21.918309,-43.318377,-12.29568,-28.923708,-10.526809,108.534536,52.450368,-95.525751,59.489668
44,-3.552017,2.402554,0.287876,3.560251,0.0,-21.604614,12.939034,4.853897,26.930122,-17.106285,34.732819,-7.202454,39.151154,1.602287,0.0,-49.213751,-53.046599,-112.119235,-48.492969,-25.975403,-38.066196,-11.645448,-24.618778,-10.418066,0.0,14.661312,-13.441143,-6.516094,-30.637779,8.88485,-41.362896,0.183563,-49.040394,-6.024799,0.0,-45.654827,-58.886922,-120.866459,-54.574829,-24.950717,-43.639695,-13.789145,-28.84618,-11.223539,104.233246,54.863713,-95.987148,63.060709
45,-3.081665,4.067747,2.454071,3.453299,0.0,-20.953217,13.334198,2.422943,27.48024,-15.089951,34.891205,-5.544205,38.931313,3.485069,0.0,-47.821341,-52.330881,-105.09562,-47.563409,-26.290516,-36.667487,-12.737227,-22.835179,-8.444338,0.0,12.485905,-14.191818,-2.556782,-32.58831,6.446056,-43.567715,-2.707844,-51.145477,-8.274822,0.0,-45.573564,-59.068777,-107.982482,-54.764001,-26.252354,-43.117472,-15.075962,-28.088225,-10.651853,100.431061,58.901155,-94.253597,66.483705
46,-1.439209,5.528947,0.240154,2.353432,0.0,-22.842293,12.674789,-3.863754,26.584053,-16.816635,33.615532,-6.782227,36.97094,2.281265,0.0,-46.680594,-52.966786,-102.124993,-48.469473,-27.176356,-37.589143,-12.679922,-23.461143,-7.252833,0.0,12.866364,-14.300251,1.196995,-32.794247,5.943203,-43.66087,-2.855988,-51.087284,-8.668556,0.0,-44.857383,-58.911807,-102.487251,-54.065697,-24.661324,-41.951223,-13.45736,-26.542797,-8.883816,98.803425,64.02644,-94.20187,68.433474
47,-1.980743,4.039835,1.229439,2.082811,0.0,-25.301285,12.054749,-5.311089,26.145859,-16.013489,33.031998,-6.10508,36.199036,3.40004,0.0,-45.189754,-53.795847,-99.712003,-49.299769,-27.253483,-38.070179,-13.104642,-23.684926,-6.301166,0.0,11.961079,-15.486374,2.365437,-33.827133,5.852051,-44.432087,-3.318157,-51.890488,-8.930626,0.0,-44.27134,-58.924096,-98.552145,-53.928703,-24.285912,-41.566086,-13.028596,-25.7682,-8.049382,96.380682,67.609106,-93.414431,70.059115
48,-0.391731,2.15546,0.370903,1.338625,0.0,-25.035782,10.769463,-7.200851,25.092773,-17.014503,32.273369,-7.201881,35.279503,2.063484,0.0,-44.111407,-53.796403,-99.500044,-49.094727,-27.517805,-38.352749,-12.22334,-24.578825,-6.376008,0.0,12.759361,-14.201374,3.730602,-32.310333,6.799107,-43.058395,-3.313236,-50.919571,-8.237286,0.0,-44.375174,-59.664668,-97.068313,-54.781693,-22.389495,-42.72687,-11.542634,-27.200408,-6.993697,95.716982,69.249506,-93.315496,70.88268
49,0.017509,-0.037699,1.322479,0.792103,0.0,-24.012337,10.834465,-10.130539,25.535202,-17.206306,32.768326,-7.157364,35.661621,1.703682,0.0,-44.853369,-54.184288,-98.03903,-49.470663,-26.544495,-38.256264,-11.684969,-23.976265,-5.468122,0.0,11.511383,-14.593792,3.806477,-33.26437,4.825974,-44.050026,-5.13422,-51.219978,-9.428329,0.0,-44.436245,-59.93671,-95.845871,-54.999826,-22.846201,-42.682008,-12.65655,-26.978662,-6.923147,95.529127,68.880377,-92.198381,71.343354
50,0.46669,-0.120969,-0.530548,0.46813,0.0,-22.406502,10.893402,-10.543327,25.907707,-17.509232,33.34877,-7.896767,36.15509,0.654716,0.0,-44.598,-54.513325,-96.224525,-49.589872,-26.492594,-38.164564,-11.530654,-23.631512,-5.08246,0.0,12.403851,-13.564739,5.252895,-32.275486,5.779438,-43.070469,-4.983559,-50.240364,-9.083576,0.0,-44.475518,-60.091271,-95.161553,-55.577995,-21.709963,-43.501066,-13.069814,-28.081895,-6.863713,95.916309,68.397257,-92.808437,71.449333
51,0.963821,0.848759,0.639267,-0.225945,0.0,-23.462906,9.44458,-10.809174,24.572182,-16.332321,31.987953,-6.200752,34.624672,2.120705,0.0,-44.764356,-55.668923,-97.488309,-51.483017,-27.370036,-40.046254,-13.457206,-25.52691,-6.26285,0.0,13.754196,-14.886189,6.136093,-33.183632,6.544361,-43.589516,-3.848991,-50.516453,-8.982525,0.0,-45.009073,-60.185533,-95.707643,-55.249236,-23.411094,-42.977422,-13.137616,-27.177375,-7.514439,96.845827,68.905015,-92.203474,70.882387
52,1.156998,0.002563,0.386696,-0.811184,0.0,-25.705376,9.932213,-10.948334,24.748764,-16.475945,31.59771,-6.871262,33.685341,1.076088,0.0,-45.295317,-56.069714,-99.456047,-51.737521,-24.778588,-40.30224,-12.112436,-25.604191,-5.467042,0.0,14.103241,-14.818554,6.298485,-33.178768,6.818619,-43.576527,-3.65221,-50.42078,-8.278828,0.0,-45.233782,-60.152435,-94.611141,-55.287243,-21.746396,-43.080515,-11.721556,-27.28374,-6.205114,97.978992,68.715858,-91.840611,69.879483
53,0.435219,-0.701361,0.619526,0.737331,0.0,-26.027756,9.889069,-13.064003,24.808044,-17.581215,31.660881,-7.568779,33.511734,-1.044044,0.0,-45.125688,-55.612884,-99.357216,-51.206745,-24.169451,-39.717402,-11.499594,-25.016975,-6.149785,0.0,13.906746,-14.50882,6.676655,-33.199024,5.819664,-43.604679,-4.776363,-50.342903,-9.290943,0.0,-44.734468,-60.955128,-95.245287,-55.959458,-22.917369,-43.468647,-13.295759,-27.45343,-7.642231,98.392696,67.861696,-91.242599,70.464013
54,-0.200043,0.246693,0.787754,-0.250491,0.0,-25.15377,10.469742,-12.538605,25.339622,-15.720978,32.257462,-6.036301,34.272537,0.911293,0.0,-44.41031,-56.291583,-99.685851,-51.584565,-24.546375,-39.885641,-12.291142,-24.998975,-5.989419,0.0,13.006325,-15.172291,7.047901,-33.75309,6.048546,-43.754883,-5.189781,-50.148697,-10.205669,0.0,-44.451837,-60.670953,-95.275019,-55.218206,-22.106771,-42.469062,-12.944523,-26.527421,-6.576172,98.240175,67.981939,-90.407324,70.087073
55,0.763893,1.048985,0.186424,0.702812,0.0,-25.791664,10.12413,-12.725945,25.092545,-15.551147,32.040367,-5.752602,34.001999,0.610657,0.0,-45.065142,-56.835264,-98.796553,-51.964145,-26.267236,-40.041869,-13.921075,-25.075546,-7.069928,0.0,13.011417,-14.669609,8.216,-33.130531,6.29385,-42.876377,-5.348396,-48.738098,-9.165974,0.0,-43.704441,-60.771236,-95.096283,-55.31006,-22.299895,-42.335743,-14.046953,-26.156857,-7.476153,99.135361,68.996746,-90.089607,70.755706
56,0.910492,-0.271794,1.207523,0.617473,0.0,-26.203194,10.032578,-13.33374,24.901085,-15.862198,31.926384,-6.194572,34.028664,0.514984,0.0,-44.428186,-56.308657,-99.072237,-51.19421,-25.405416,-39.411398,-13.508397,-24.380637,-6.819129,0.0,12.622204,-15.032787,7.976933,-33.341732,6.771355,-42.953568,-4.976006,-48.870106,-8.667412,0.0,-43.965336,-60.452696,-94.830694,-55.128607,-20.426481,-42.14904,-12.928221,-25.92341,-6.42266,100.187817,68.713111,-88.74012,71.361339
57,0.954552,0.992823,-0.047379,0.968277,0.0,-26.649742,9.512329,-13.731194,24.33609,-17.70607,31.472855,-7.573929,33.603745,-1.194992,0.0,-44.334665,-56.854222,-99.405844,-51.701798,-26.990148,-40.010871,-14.817011,-24.95365,-8.551691,0.0,12.903442,-13.577385,9.29472,-31.8647,7.514133,-41.690712,-3.837662,-47.829952,-7.351913,0.0,-43.896237,-60.399436,-93.712363,-55.42399,-20.245243,-42.666787,-12.130313,-26.518097,-5.531633,101.228771,69.708342,-88.701096,72.332024
58,-0.147285,0.256141,0.971661,0.286121,0.0,-26.573982,9.586143,-13.772507,24.663849,-17.439423,32.022743,-7.447243,34.408493,-1.120491,0.0,-44.321296,-57.057319,-99.761959,-51.83663,-26.504543,-39.876039,-14.321619,-24.488114,-8.304473,0.0,12.085018,-14.036064,8.374386,-32.253113,8.099728,-41.897736,-3.607349,-47.96917,-7.532043,0.0,-44.042401,-60.655515,-93.691337,-55.685657,-21.706258,-42.961491,-12.34823,-26.752378,-5.465899,101.133013,70.024134,-87.677908,72.677796
59,0.069237,-0.163546,0.365524,0.456212,0.0,-25.61451,10.046082,-13.915787,25.140839,-16.93737,32.415619,-7.429733,34.715996,-1.409454,0.0,-44.348467,-57.1212,-100.01705,-51.78828,-26.006557,-39.801074,-14.071622,-24.404072,-8.642649,0.0,13.546715,-14.63562,8.012695,-32.885227,9.154129,-42.460613,-2.929287,-48.395061,-6.889801,0.0,-45.148567,-60.754254,-93.919999,-55.74503,-21.207747,-42.898783,-11.7792,-26.467739,-5.50403,101.219616,69.855941,-87.295017,73.129361
60,-0.219955,0.344506,-0.301266,0.109638,0.0,-25.961266,10.145988,-12.844963,25.491028,-15.43293,32.944908,-6.275368,35.47348,-0.268593,0.0,-44.962235,-57.263936,-99.251159,-51.991531,-26.218916,-39.994229,-14.21973,-24.551007,-8.5386,0.0,14.049625,-13.306561,8.592396,-31.676159,9.418831,-41.647511,-2.086487,-47.992172,-5.566978,0.0,-45.145479,-60.444607,-93.965695,-55.727092,-21.166436,-43.089067,-11.698338,-26.741572,-5.84585,100.989819,70.199891,-87.606125,73.238443
61,0.812531,0.118221,-0.556583,-0.613706,0.0,-25.842934,10.048027,-12.963638,25.384827,-17.839737,32.809181,-8.641777,35.08358,-3.021698,0.0,-45.384299,-57.528752,-99.576924,-52.617773,-26.248155,-41.017248,-14.611969,-26.013627,-9.533029,0.0,12.386112,-13.506546,9.383869,-31.482868,8.877068,-41.175499,-2.923508,-47.415848,-6.42334,0.0,-44.488393,-59.823583,-92.74106,-55.086524,-18.713709,-42.615565,-10.672015,-26.644284,-4.911381,101.738062,70.37574,-88.226995,72.682365
62,-0.031929,-0.361302,-0.53627,0.448246,0.0,-25.260086,10.369377,-12.492943,25.610046,-17.849121,32.945824,-8.428001,35.085983,-2.682037,0.0,-45.180646,-57.436003,-100.46931,-52.611135,-26.479132,-40.885071,-14.070264,-25.683417,-8.735213,0.0,13.606339,-13.394394,9.645538,-31.52504,10.320339,-41.398659,-2.543335,-47.931175,-6.632996,0.0,-45.626978,-59.803174,-93.379282,-54.935482,-18.098305,-42.432784,-10.711998,-26.278505,-5.096848,101.705103,70.061616,-88.764296,73.177789
63,0.664558,0.459577,-0.185852,-0.415241,0.0,-26.135559,9.890099,-13.493042,25.278053,-17.354279,32.808037,-7.985687,35.228119,-2.626076,0.0,-45.884076,-57.274989,-101.030961,-52.803951,-27.097254,-41.451662,-14.656615,-26.670991,-9.854748,0.0,14.957256,-12.655621,8.917122,-30.674915,9.273319,-40.613251,-2.336082,-47.172375,-6.090431,0.0,-44.70208,-59.620764,-92.871508,-54.92446,-18.503542,-42.403668,-10.47145,-26.151979,-4.256147,102.314587,70.519217,-89.005222,72.760572
64,-0.411072,-1.273726,-0.232544,0.461955,0.0,-23.206902,10.977173,-12.745857,26.25412,-15.171089,33.719444,-5.796318,36.081848,-0.53009,0.0,-46.101376,-57.168809,-101.394084,-52.232265,-24.892394,-40.77213,-13.262383,-25.915536,-8.683374,0.0,13.719006,-13.683014,9.302101,-31.681137,9.731827,-41.511097,-2.50248,-48.157024,-6.737995,0.0,-45.322363,-60.007198,-93.074451,-55.104864,-19.741514,-42.533993,-11.399311,-26.235898,-5.899295,101.917305,69.243192,-89.223976,73.220227
65,0.59967,0.262316,0.034733,0.544515,0.0,-24.222107,10.773697,-12.978058,25.949707,-15.783691,33.247032,-6.202354,35.504494,-1.127129,0.0,-47.382542,-57.11308,-101.178328,-52.587577,-25.386057,-41.312971,-12.796692,-26.455853,-8.285392,0.0,14.515743,-13.879509,8.420792,-31.965694,8.454437,-41.545773,-3.538399,-47.675285,-7.063293,0.0,-45.6581,-60.210635,-94.233352,-55.497473,-19.787456,-42.863431,-12.430451,-26.57537,-6.083867,102.535543,69.500089,-89.170675,73.759323
66,-0.256233,0.401933,-1.436348,1.202558,0.0,-24.042549,10.981636,-12.41478,25.898552,-17.439423,33.300819,-7.621422,35.794601,-1.454887,0.0,-46.976935,-57.201506,-100.132708,-52.366017,-25.745044,-40.947995,-13.017265,-25.90649,-7.987601,0.0,15.459995,-13.313484,9.615383,-31.453514,10.322857,-40.960064,-2.289791,-46.979713,-5.478859,0.0,-45.121088,-60.423488,-94.235976,-55.520938,-19.343502,-42.936667,-12.452403,-26.834197,-6.430534,102.320824,69.876288,-90.56551,74.936147
67,-0.577126,2.91181,0.940189,0.449018,0.0,-27.644119,10.61039,-11.843376,25.115662,-19.775047,32.627335,-10.003967,35.524406,-2.789497,0.0,-48.882769,-56.247617,-98.615531,-51.683458,-26.802982,-40.442722,-13.262476,-25.441509,-7.106454,0.0,14.888535,-16.317387,7.634068,-33.756924,11.617126,-42.603436,-0.62851,-47.95166,-6.021824,0.0,-46.146577,-59.831425,-95.410592,-53.985421,-22.101183,-40.734122,-10.541938,-23.867244,-5.202565,101.451931,72.733896,-89.917088,75.330964
68,-1.232872,4.975076,-4.454956,2.177906,0.0,-33.232384,10.233192,-15.210457,24.03019,-26.347389,31.072998,-18.101234,34.365578,-11.402092,0.0,-49.914155,-56.902295,-92.452717,-51.857409,-23.237421,-39.070659,-7.706297,-22.183527,-1.455766,0.0,22.743988,-12.988243,9.963856,-29.280682,23.221893,-38.228531,12.857037,-44.738159,3.71767,0.0,-48.891444,-57.686401,-99.653371,-52.286204,-19.278293,-39.850258,-8.010109,-23.445736,-6.883751,99.584198,77.54061,-95.006905,77.340508
69,-2.585449,6.756823,-0.388813,0.264601,0.0,-35.725365,4.979439,-27.912254,18.071365,-31.391716,25.773811,-23.439674,31.568642,-18.499832,0.0,-50.390899,-55.147718,-78.644892,-49.472331,-15.615413,-35.433004,-2.4698,-17.243679,5.787804,0.0,27.023163,-11.185398,7.603855,-26.658897,30.146141,-35.053825,18.821983,-41.058941,8.805828,0.0,-47.713771,-53.489967,-100.844598,-47.112168,-15.688186,-33.210637,-1.315994,-15.143517,1.140499,95.705366,84.655384,-96.6891,77.96306
70,5.055084,9.588882,0.966282,3.838159,0.0,-41.107407,-4.55658,-49.390068,6.958809,-46.45443,13.22422,-38.664207,17.404861,-28.466721,0.0,-41.36373,-50.860511,-54.873793,-44.031996,-11.237062,-29.170617,1.375398,-10.629284,7.742946,0.0,31.318817,-9.638786,11.295547,-25.836983,36.925392,-34.127312,25.029602,-38.792667,17.621155,0.0,-47.684841,-49.556342,-95.638297,-43.056401,-10.830991,-27.806241,2.051102,-8.660156,3.884101,99.246655,94.756486,-97.236614,82.313438
71,5.029335,8.823732,-1.024704,9.033221,0.0,-54.483376,-13.888893,-72.332039,-4.468803,-71.662788,1.445389,-60.95192,5.676155,-47.753334,0.0,-37.890948,-44.64246,-43.352556,-37.346248,-0.328914,-23.146586,16.18679,-6.354148,18.833999,0.0,35.59433,-7.375202,22.287083,-21.891804,43.036366,-28.537331,33.271408,-31.039524,23.286667,0.0,-48.038424,-48.195116,-84.380641,-41.37574,-13.371372,-25.816273,-0.520155,-7.058134,3.60502,103.051558,103.561122,-99.48575,91.327563
72,5.832939,9.493508,-4.474869,7.571897,0.0,-65.365334,-27.997856,-97.324791,-21.156807,-99.999504,-15.483513,-88.681641,-11.126289,-72.673759,0.0,-16.423294,-33.951735,-19.007363,-24.829655,10.219508,-11.255371,26.131354,4.646163,30.467468,0.0,45.439053,-2.305412,44.61359,-13.772621,50.160255,-18.515739,49.801769,-19.197865,39.051075,0.0,-38.933295,-44.489999,-58.776883,-35.530199,-18.398288,-18.916745,3.612862,0.322028,10.837444,108.192215,112.410481,-104.652901,98.25531
73,0.546112,8.983079,-3.849964,5.884845,0.0,-79.874039,-38.898468,-110.142975,-32.95887,-117.243347,-25.980949,-106.189041,-20.537338,-86.917419,0.0,-5.611939,-18.869938,10.823921,-6.461563,29.2755,8.362982,40.757063,23.798609,46.902402,0.0,50.310116,3.619366,59.607468,-5.864124,63.353806,-9.576874,57.55022,-9.436054,44.525757,0.0,-36.42169,-37.809345,-31.885165,-24.525843,-1.287712,-6.31435,16.133345,13.615626,23.932082,108.048935,120.526091,-109.192257,103.272686
74,-28.327446,15.411421,-5.929298,9.25367,0.0,-73.297234,-36.467285,-100.286808,-30.186424,-99.594727,-21.826286,-90.514069,-12.839584,-67.809906,0.0,7.030037,-3.423752,34.014226,11.116741,46.210056,26.024835,56.774626,40.564463,60.007754,0.0,62.585907,15.357571,76.82539,6.183872,86.36982,0.961533,76.236362,-0.349102,57.662773,0.0,-28.256649,-29.837552,-11.559461,-15.351924,11.233604,2.897021,25.231434,22.131502,34.722473,79.24078,134.951959,-115.602264,111.540803
75,1.021843,12.508472,5.240307,11.032977,0.0,-70.533371,-37.975616,-105.621243,-31.64875,-107.819939,-23.859215,-97.502861,-15.499535,-73.156929,0.0,14.48393,6.003684,39.518473,22.863955,58.554952,39.078131,67.142396,53.726625,74.903188,0.0,73.496361,18.590584,85.493145,9.479771,89.120922,2.261238,80.720501,-1.566982,60.034161,0.0,-26.549065,-19.543789,7.544233,-3.386887,27.135848,14.2938,34.921093,33.499413,43.010706,79.108315,146.430357,-111.516266,121.543706
76,-5.439148,17.109681,9.090614,17.681242,0.0,-63.683395,-38.411865,-102.350922,-31.639366,-105.719376,-24.428215,-96.707954,-16.534538,-75.007095,0.0,21.851371,8.627953,47.97161,25.916463,69.024364,42.233206,75.155809,56.410669,82.829162,0.0,74.357586,17.265472,82.545662,6.651649,84.966545,-2.998066,71.237698,-10.61348,46.626034,0.0,-22.572925,-12.723858,12.632158,1.75155,34.790367,17.400155,41.839424,34.418321,48.405716,73.469553,162.325932,-102.625265,138.010843
77,-24.138107,28.831761,6.979809,14.852209,0.0,-62.675972,-37.355461,-89.478951,-31.268005,-93.508472,-22.933159,-85.245094,-12.438354,-62.724152,0.0,21.499826,13.475175,33.694051,32.809785,59.494299,48.609616,72.957186,59.74093,81.732969,0.0,76.56641,19.427776,80.47308,6.86182,78.811054,-5.327053,63.243198,-16.268063,36.560612,0.0,-13.592686,-4.626958,25.547813,9.589962,50.472934,23.63602,58.008522,37.947728,62.081826,49.326067,190.598019,-95.650835,152.303377
78,-0.815392,15.265752,6.677055,21.581028,0.0,-58.62442,-33.755951,-95.5303,-27.885132,-106.27224,-19.747925,-90.660324,-9.994812,-67.090759,0.0,17.613194,20.221284,23.925691,36.780707,45.068168,50.839546,73.033694,60.320519,87.435434,0.0,73.290195,28.265362,84.652233,16.298103,80.197048,3.687229,64.200726,-9.425583,36.00832,0.0,-8.34458,1.165663,44.693281,12.757635,57.32266,24.81465,62.373103,36.890128,66.900952,48.229036,205.232095,-89.255419,173.25273
79,-5.789566,16.882933,12.603149,24.463105,0.0,-55.434952,-33.614044,-96.782169,-26.488609,-99.819946,-18.097458,-89.464073,-8.53878,-60.297089,0.0,23.187959,33.704054,50.561978,44.551564,48.764239,53.259792,66.164702,57.912562,88.137722,0.0,64.247189,39.735146,85.058613,30.955639,70.234165,20.22274,61.845303,8.011208,49.88205,0.0,-2.256298,23.030557,61.690699,41.279224,83.469205,56.68095,95.353072,69.554923,99.174002,42.167158,221.843002,-76.924582,197.443808
80,-3.712692,20.185901,-0.575294,15.580123,0.0,-63.89185,-28.08918,-99.383926,-20.517082,-99.262562,-12.843246,-93.263855,-5.711746,-68.065739,0.0,18.403414,42.496572,40.335307,50.01666,29.605,52.06733,39.400097,48.511988,64.000659,0.0,74.451771,31.924324,91.863842,19.50737,87.604122,7.636127,74.788914,-3.232384,48.987007,0.0,1.16733,22.473013,64.094025,38.862931,80.214156,52.842792,87.764317,63.088173,90.631388,38.263321,241.750825,-77.691021,212.745854
81,-3.795204,11.942468,0.063457,17.868531,0.0,-58.566628,-23.11821,-84.778633,-14.324799,-82.522373,-6.653137,-71.516991,-0.602646,-49.726524,0.0,18.7783,37.688932,38.787163,43.736767,40.361304,45.118,46.594761,41.373517,52.832479,0.0,76.334724,35.185146,94.193001,25.147762,92.726326,15.076275,80.751114,4.629478,56.297207,0.0,-0.929467,25.249188,67.852464,40.540133,83.830445,53.214344,92.597336,62.386132,94.060018,34.239178,253.576677,-77.856503,230.49777
82,-4.810638,54.446203,5.346909,13.319996,0.0,-72.749863,-43.185654,-90.597095,-43.130951,-73.977413,-40.501556,-62.481422,-35.481377,-52.870102,0.0,43.015893,32.522954,19.102428,22.203596,-10.270329,3.714411,-32.330848,-18.432189,-39.673219,0.0,76.882439,32.197895,97.208977,23.104935,91.274757,14.238453,78.47374,5.210094,52.28096,0.0,-1.287434,28.57982,67.07867,45.669246,86.627924,59.229884,96.102907,68.338193,99.888207,29.19405,308.031093,-72.744083,243.825979
83,-1.626434,7.298775,6.02211,12.934921,0.0,-71.273975,-62.973175,-30.99781,-58.109894,-14.484673,-49.042854,-5.549812,-37.173615,-20.349312,0.0,45.082,9.950832,25.077089,-2.150458,18.321224,-13.658944,6.60785,-24.446679,-1.056364,0.0,75.05928,31.037636,94.507141,21.451836,90.313683,12.886963,78.588753,4.674397,55.416527,0.0,0.064159,28.951495,68.544007,46.452921,86.082544,59.818612,91.693743,68.688874,93.070406,27.545872,315.27701,-66.743717,256.708041
84,4.434242,1.624653,12.381191,12.178849,0.0,-53.71891,-56.164455,-10.959091,-56.341095,-2.345581,-51.669273,-8.961525,-45.052872,-83.207359,0.0,35.157968,2.896588,38.666626,2.05141,35.480366,1.62453,33.96884,2.531582,39.503344,0.0,67.873821,39.792194,89.98003,31.261482,88.44492,20.939999,73.199329,10.215397,56.667194,0.0,3.586773,40.634426,62.883532,59.515047,74.991676,71.341424,83.298465,77.247048,90.723397,31.946611,316.853915,-54.396029,268.839141
85,-8.093834,11.939627,2.394962,7.366639,0.0,-53.16679,-44.065533,-5.616074,-41.991348,7.332344,-35.690117,10.648499,-26.876106,-19.63623,0.0,34.919117,4.681978,35.617514,0.51117,32.382163,-4.544892,25.167121,-9.04835,19.3406,0.0,72.988701,32.659607,90.064659,22.29332,89.239311,11.404037,72.760391,0.593834,46.965981,0.0,10.594703,34.841435,66.698534,51.436735,83.248941,63.043774,89.815789,70.187186,91.937286,23.736162,328.742691,-52.117682,276.154928
86,3.034172,6.279523,2.216892,7.709168,0.0,-26.894302,-39.800606,-5.347023,-38.326836,8.366432,-32.688332,12.102013,-24.557533,1.97113,0.0,35.01872,6.496884,29.898253,-2.391346,28.452799,-11.732887,18.040568,-21.125125,3.101723,0.0,73.816853,29.511108,89.286518,18.741932,87.56876,7.759094,69.542599,-2.563019,40.343342,0.0,10.264153,34.668843,66.33538,50.906422,82.255563,61.47976,89.177413,67.052982,88.011504,26.669626,334.948746,-50.001497,283.790629
87,-31.011543,-14.198828,1.154823,4.818199,0.0,-35.048504,-27.294159,20.996361,-31.407452,29.559746,-34.192257,22.889328,-35.592613,-43.946743,0.0,54.965771,23.876476,45.498198,15.922097,41.971879,6.338309,31.358465,-0.792999,33.168184,0.0,73.421345,27.049141,87.38966,16.414661,85.565472,6.235714,70.03664,-2.93684,43.544941,0.0,14.229456,33.950871,63.654424,50.285213,78.285443,60.808039,86.810335,66.55799,86.158806,-4.433184,320.656675,-48.937941,288.515585
88,8.324203,-23.046674,0.96714,0.684997,0.0,-28.149033,-33.137341,22.939224,-42.2719,22.057228,-46.019783,8.499298,-46.363277,-63.609238,0.0,28.899255,31.297147,56.564118,44.046198,65.253142,52.574239,69.970071,61.062389,85.913533,0.0,70.785885,25.891743,86.395855,14.592876,83.740025,3.655415,67.013912,-6.32412,39.119968,0.0,16.121736,34.699162,63.853755,51.243271,79.108947,61.738062,86.984903,67.169628,85.296894,3.796549,297.577103,-48.065271,289.167685
89,-15.537415,8.658952,1.305256,-0.039026,0.0,34.047546,-11.174526,49.574547,-19.0765,38.008347,-23.555031,12.522697,-23.986301,-39.088211,0.0,7.904176,19.454529,53.129252,36.66653,63.919766,49.91397,69.341328,61.915656,76.861788,0.0,69.682503,25.885735,85.602493,14.710293,82.535591,3.392887,66.538467,-7.319012,39.147835,0.0,15.271371,32.224761,62.827833,49.059714,79.070168,60.398325,87.017816,66.952267,85.79769,-11.765356,306.0856,-46.784506,288.978204
90,1.046906,-2.047829,0.974407,-0.313013,0.0,34.510231,-10.442619,49.392242,-18.631897,44.367714,-23.231907,23.338509,-24.107666,-37.883205,0.0,12.061708,18.634731,55.020111,35.996353,64.286995,49.514197,69.582525,61.394853,76.281889,0.0,69.309139,23.924847,84.505863,12.951622,82.229862,2.49258,66.872349,-6.888885,42.791119,0.0,16.888305,31.055517,60.811435,48.65846,77.905925,60.266858,86.320283,66.873597,85.777436,-10.636539,303.920322,-45.728188,288.547742
91,-2.258835,1.458545,0.486546,-0.055081,0.0,34.195175,-7.473392,48.484268,-15.482368,43.977585,-19.972744,22.448044,-20.897541,-37.143459,0.0,13.477089,16.888552,51.589196,34.338848,60.092105,48.182982,65.754864,60.143049,76.453864,0.0,68.073578,23.643379,83.854523,12.240372,81.4674,1.444874,65.759354,-8.091545,41.500053,0.0,17.473699,30.596341,60.798159,48.242509,77.924512,59.804101,86.500595,66.031383,85.981027,-12.646723,305.154589,-44.99299,288.268383
92,-4.483337,-2.554429,-0.618095,0.520185,0.0,29.258423,-1.556053,51.490288,-11.04332,45.615578,-16.19339,34.149055,-17.364292,-18.983116,0.0,19.388271,17.681366,47.1528,36.613178,60.982854,50.702399,65.972226,61.86959,78.076048,0.0,66.439819,23.724174,84.322014,12.72171,82.977448,2.254372,68.112144,-6.952229,44.937744,0.0,18.702533,30.614249,61.495753,48.272582,77.829046,59.899814,85.881979,66.292896,85.527038,-16.872654,302.403485,-45.35368,288.591893
93,25.441704,18.27806,-0.390644,0.608365,0.0,-58.446064,-38.662262,19.300919,-37.603397,23.344116,-34.155579,12.625694,-30.243416,-67.719154,0.0,48.065347,13.996781,35.167107,20.712014,36.242181,25.581652,37.949889,31.110043,54.605395,0.0,66.277714,23.822308,84.915447,12.79707,83.020535,2.267017,67.676525,-6.952114,45.172062,0.0,19.701098,30.163841,59.949708,47.923568,76.413603,59.700051,84.263192,66.199961,84.603004,9.013453,320.614947,-45.299921,289.133661
94,-1.906242,-11.449638,-0.450439,-0.846536,0.0,10.180664,-21.951027,31.600571,-31.425877,26.20388,-34.919701,-0.730247,-33.804646,-62.315598,0.0,8.227563,16.980746,43.881387,32.518199,48.090233,44.061945,55.467802,53.880939,73.298542,0.0,65.514622,24.549809,85.152111,13.832817,83.608646,3.398266,68.527279,-5.974274,45.891209,0.0,22.170683,30.904043,60.398201,48.46901,76.829245,59.972309,84.340997,66.122341,85.112013,7.693949,309.038582,-45.163622,288.160397
95,-12.46273,-0.296711,-0.367241,0.637264,0.0,25.097923,-12.269325,43.436623,-20.737438,42.114716,-24.590893,20.74482,-24.476967,-45.398827,0.0,23.565501,14.922852,45.963919,30.907872,53.026314,43.732753,60.478971,54.962621,72.124975,0.0,64.08926,23.917522,85.214825,13.434391,83.837528,3.29298,68.600407,-5.732117,46.167927,0.0,23.432305,29.539051,58.276581,46.983542,75.523347,58.467143,83.431846,64.73518,84.117029,-4.297628,308.689059,-45.05971,288.744849
96,-7.542572,9.617503,-0.67709,0.151103,0.0,7.362328,-9.266338,46.947441,-16.05257,53.834953,-18.00848,42.387543,-15.998268,-27.761707,0.0,42.501759,8.986661,39.301173,19.4775,44.401819,28.498247,50.956872,36.310045,61.110122,0.0,64.237747,24.137363,85.53463,13.864632,84.529037,3.883495,69.219818,-4.920502,47.008095,0.0,23.861347,30.05374,57.776526,47.572703,75.118265,58.966271,82.735425,65.01633,83.475812,-11.45751,318.368266,-45.354109,288.957657
97,12.347031,16.098826,-1.682339,-0.415827,0.0,-56.805325,-37.874966,17.444572,-36.059933,31.883011,-30.514183,36.37001,-23.564301,-15.97229,0.0,46.47441,18.649983,35.317778,1.297932,25.886205,-15.966619,12.872676,-31.546556,5.709073,0.0,65.031796,25.751839,86.779575,15.824833,86.311855,6.062164,71.814022,-2.695541,50.386219,0.0,23.971139,29.946603,57.702858,47.56202,74.594065,58.980783,82.487435,65.038004,83.891269,1.40708,334.45925,-46.518888,288.533987
98,-7.831192,-33.206778,1.049023,1.147693,0.0,14.190445,-16.225147,44.183006,-23.764744,47.148743,-27.633934,30.794907,-27.482586,-43.060398,0.0,43.227697,19.049693,57.994134,33.31163,62.88063,44.688835,68.34795,54.930264,80.868834,0.0,64.329643,25.057068,85.199432,14.632359,84.224739,4.407806,69.165344,-4.647503,47.668991,0.0,24.978783,29.870218,57.288018,47.185836,73.975759,58.363278,81.618731,64.364863,83.44364,-5.985861,301.317233,-45.031614,289.746441
99,-11.186085,15.347694,-0.874672,-0.208469,0.0,16.449223,-7.747707,58.357487,-14.763508,63.308315,-17.217007,50.326138,-15.368557,-5.18177,0.0,35.124561,7.748442,41.794531,17.496053,48.43622,25.413753,55.387526,32.354931,62.454737,0.0,63.736496,25.967102,86.217499,15.796795,85.444221,5.708084,70.808372,-3.233242,49.682465,0.0,24.941424,28.934699,56.352129,46.715483,74.127418,58.331477,81.944896,64.494415,83.653468,-16.680737,316.640752,-45.415077,289.513796
100,28.078251,21.444436,-0.294857,0.29634,0.0,-66.667099,-44.209785,9.502602,-41.441689,21.926994,-36.656685,21.483994,-31.440639,-53.046913,0.0,42.399068,9.959292,29.80927,-2.537448,21.965918,-14.587362,12.946838,-24.573082,14.003017,0.0,64.199123,24.997272,85.113087,14.779243,84.478626,4.741917,69.04398,-4.202099,47.442684,0.0,25.026022,30.272151,57.345199,47.42938,74.236531,58.419039,81.884504,64.261369,83.342617,11.856508,338.053047,-45.25094,289.777995
101,-3.237419,4.35538,0.077248,-0.678081,0.0,-42.04113,-37.660103,11.587372,-37.605801,26.565628,-32.476959,26.989174,-24.629402,-21.721687,0.0,41.227354,9.69889,29.170462,-5.390873,19.667259,-20.655389,7.659089,-35.092944,-5.380684,0.0,63.562717,25.512886,86.070728,14.862213,84.624882,4.56974,70.233479,-4.247475,48.713322,0.0,25.595237,29.812049,56.977105,47.444077,73.875661,58.811092,82.382645,64.684174,84.041817,8.984013,342.397899,-44.808769,289.089386
102,1.120262,-4.32364,0.218925,0.604598,0.0,-63.352146,-42.78986,13.53241,-41.118221,24.672089,-36.3307,24.457169,-29.675617,-35.928555,0.0,42.690036,10.439092,30.933745,-2.697505,21.991545,-15.945253,11.853794,-27.297511,7.587767,0.0,63.450565,24.755058,85.437069,14.079895,84.031734,3.807964,69.308338,-5.050106,47.91338,0.0,26.0215,29.480388,57.271655,47.199792,73.670526,58.637327,81.432553,64.655831,83.128343,10.430489,338.045205,-44.26363,289.66493
103,-7.750511,-21.944614,-0.69849,-0.083054,0.0,-5.867958,-24.25066,31.375351,-29.235191,38.898926,-30.433216,25.592537,-28.51902,-53.184185,0.0,36.633123,14.598724,41.342765,24.128912,47.001017,30.899165,50.032963,36.86833,66.249856,0.0,62.498703,25.327549,85.571709,14.894028,84.445381,4.729271,69.996529,-4.264812,48.036575,0.0,25.87299,29.133597,56.609443,46.868007,73.731474,58.464302,82.199246,64.635638,83.718121,2.926855,316.025502,-44.715242,289.506788
104,7.285423,22.263926,-0.45433,-0.391992,0.0,-66.813183,-42.630157,13.515129,-40.148964,24.235725,-35.209522,23.154488,-29.11171,-45.332279,0.0,40.495179,11.206465,27.800653,-0.179694,19.517761,-12.177799,11.573077,-22.710875,13.243611,0.0,62.544594,24.601364,85.684433,14.085674,84.11087,3.96246,69.821205,-4.864311,47.786293,0.0,25.747884,29.24765,58.02748,47.027014,74.532192,58.726124,82.4368,64.879367,83.771659,10.522957,338.157807,-44.858894,288.983175
105,-5.947266,-5.937858,-0.369644,0.024824,0.0,-26.161594,-30.819283,25.321083,-32.5811,32.465057,-30.463028,23.447685,-25.398273,-45.670223,0.0,41.902718,9.264353,31.104918,8.251522,28.650153,6.161086,26.245963,4.119987,36.843445,0.0,62.048492,23.969593,85.711899,13.67981,84.277954,4.129715,70.724487,-4.01207,49.121475,0.0,26.42825,29.819027,57.177856,47.469641,73.666698,58.986525,82.404011,64.980638,83.531758,4.761257,332.143209,-45.042973,288.931258
106,4.032898,-13.000808,-0.427608,0.513887,0.0,-49.128742,-37.043152,19.558067,-37.044411,23.159409,-34.960098,14.498978,-32.036819,-62.015991,0.0,47.272287,16.533858,34.310875,22.530317,37.358999,25.773202,38.823287,28.911481,56.755051,0.0,62.241383,24.237041,85.165501,13.94022,83.844967,4.178181,69.883404,-4.322033,48.459606,0.0,26.229414,28.66238,56.816245,46.575557,74.056158,58.412802,82.374309,64.726226,83.211829,9.051476,319.075123,-45.213261,289.377868
107,-6.868286,-0.646403,-0.528545,0.320299,0.0,0.879593,-24.413624,31.511993,-29.319248,38.758392,-29.485817,27.269096,-25.936089,-54.912815,0.0,33.026282,14.425884,39.161123,24.126874,43.413874,31.454363,48.245782,37.796377,63.741184,0.0,62.368698,24.630146,86.871758,14.469624,84.065094,4.564247,69.379234,-4.249077,47.963104,0.0,25.729359,28.832132,57.090232,46.376659,74.610862,57.883107,81.648371,64.175289,82.701462,2.36515,318.281214,-45.559845,289.550661
108,4.349098,13.705813,-0.065975,0.39335,0.0,-61.435947,-39.85342,21.184387,-39.080029,32.074585,-35.520287,27.882729,-30.504799,-52.08498,0.0,42.475391,14.893211,32.426376,7.073757,25.773696,-1.963231,19.941431,-9.370008,27.594407,0.0,62.388096,23.834038,86.196613,13.506546,83.551197,3.566952,69.089069,-5.083351,47.759113,0.0,25.748996,28.45496,56.706453,46.049876,74.21288,57.577134,81.217415,63.709938,82.228948,6.920013,331.920459,-45.420055,289.877444
109,-7.781982,-21.924175,0.185223,-0.453372,0.0,23.750267,-18.833313,36.822166,-25.586987,43.432045,-28.049698,24.346619,-26.333656,-52.265682,0.0,17.140556,14.029076,41.914265,29.922829,50.923774,41.772857,59.52857,51.820266,75.599918,0.0,61.276474,24.279957,85.471001,13.940849,83.528824,3.724823,68.895035,-5.328541,47.844086,0.0,25.718614,29.312921,57.356994,46.598775,75.039039,57.878661,82.233518,63.976144,83.268084,-0.731363,309.818752,-45.104227,289.24654
110,-7.449074,4.736133,-0.876217,-0.787256,0.0,24.4487,-11.277924,44.688606,-18.58223,44.530563,-22.007561,20.404015,-20.915451,-40.994968,0.0,13.495491,11.226966,39.147044,27.034639,48.233,39.526747,56.852863,49.660237,69.583884,0.0,62.180843,23.970451,84.882259,13.585968,83.239689,3.610039,69.327564,-4.942474,48.041668,0.0,27.008086,29.639951,58.801089,46.991693,75.610168,58.342592,83.266973,64.362393,84.361869,-8.014555,314.388638,-45.814562,288.293037
111,19.508171,26.606462,-0.849152,0.034765,0.0,-69.405098,-48.743019,-1.141319,-46.087532,20.033913,-38.247299,27.875175,-27.88662,2.013588,0.0,38.326196,13.481041,28.330966,-4.393974,18.234958,-22.858335,5.712284,-40.311163,-13.44961,0.0,62.019825,23.894978,84.97015,13.671169,83.591366,3.981571,70.186443,-4.33033,48.823643,0.0,26.762752,29.858856,57.993764,47.147922,74.757148,58.483692,83.280434,64.490772,84.10579,11.938763,340.818848,-46.218567,288.151551
112,-9.072418,-9.496225,-0.629539,-0.35525,0.0,-28.962822,-33.378525,24.709167,-32.619495,35.759125,-28.304443,31.86779,-21.244583,-33.49514,0.0,44.154262,13.385328,34.664273,7.900842,30.629316,1.117868,24.75784,-4.778,30.20861,0.0,62.127514,24.183083,85.094204,13.832645,83.688183,3.991528,69.815655,-4.516125,48.475513,0.0,26.900949,30.398802,57.843649,47.645939,74.95512,58.677588,83.429932,64.298543,84.37354,3.263512,331.190199,-46.450939,287.663877
113,10.245323,11.283962,-0.436306,0.245026,0.0,-68.192711,-51.111946,1.195679,-48.885441,17.55661,-41.366844,24.853363,-30.991173,-5.12249,0.0,40.731189,11.036034,28.215739,-7.652111,15.469528,-26.409107,1.675721,-44.088621,-18.63893,0.0,62.433357,23.894749,85.055923,13.603649,83.605499,3.755436,69.368591,-4.746151,48.504868,0.0,26.996045,29.501074,57.778255,46.809344,74.793952,58.056441,82.55462,64.128667,84.524828,14.075546,342.272391,-46.320534,287.707134
114,-5.62809,0.722109,-0.335484,-0.073359,0.0,-43.519192,-40.677452,7.359467,-38.284664,23.782196,-30.864887,29.06662,-20.733318,-1.028252,0.0,40.227182,9.301341,27.935763,-6.572714,19.757477,-23.670415,5.875366,-40.185933,-10.57976,0.0,61.980228,23.693676,84.919109,13.448009,83.409519,3.747997,69.087925,-4.607792,48.249493,0.0,27.562296,30.18391,58.319312,47.370964,75.264737,58.444665,82.713565,64.360849,84.326301,8.886137,342.893292,-46.217337,287.532565
115,6.031494,0.284299,-0.147858,0.051253,0.0,-71.836796,-54.618988,-2.326584,-53.077927,18.427505,-44.996624,26.953697,-34.23912,15.022545,0.0,37.684424,9.821033,27.869072,-9.544699,15.902645,-29.221345,2.818042,-47.361887,-17.713661,0.0,61.732578,23.958378,84.617443,13.614521,83.316021,3.571129,69.045925,-5.216446,47.708073,0.0,26.865443,29.676507,58.149931,46.916543,75.005508,58.232553,83.208618,64.31855,84.641845,15.399828,343.02235,-45.882998,287.428577
116,-7.942886,-1.67535,-0.142651,0.287139,0.0,-43.370533,-43.44017,13.397827,-40.435982,29.029884,-32.377625,33.794174,-21.463852,6.013298,0.0,42.103098,9.983745,31.585953,-6.080007,21.000698,-23.402542,7.661188,-39.3381,-5.541111,0.0,61.699219,23.543873,84.257011,13.189945,82.571068,3.21579,68.102875,-5.493507,46.778984,0.0,27.039764,29.899364,58.011363,46.842381,74.922763,57.895581,82.700289,63.803119,84.009027,7.891216,341.217663,-45.591373,287.586381
117,-5.920715,-4.714273,-0.62027,0.175556,0.0,-19.623642,-31.101494,18.622284,-31.990871,32.503281,-28.157673,30.205078,-21.802483,-34.691677,0.0,36.134921,11.841383,32.243719,5.439223,25.925416,-2.015595,22.220083,-8.992959,25.603326,0.0,61.273613,23.633423,84.235153,13.143768,82.712173,3.119144,68.304977,-5.593357,47.080078,0.0,26.947262,29.986371,57.767572,47.185342,74.409185,58.323449,82.773031,64.150218,83.840572,2.512321,336.44678,-45.669823,287.705327
118,8.799019,0.734953,-0.26556,0.004878,0.0,-66.8577,-46.596165,12.558289,-44.647865,23.874664,-39.496136,22.431107,-33.090191,-53.313847,0.0,41.715553,11.83107,29.400174,-0.736929,19.704309,-13.923112,10.423655,-25.043497,12.992163,0.0,60.739689,23.693562,84.410305,13.366871,83.191624,3.361702,69.098225,-5.403214,47.729588,0.0,27.441821,29.777716,57.509579,47.202756,74.070916,58.582122,82.766485,64.575493,84.121289,11.913872,337.087857,-45.332851,287.61633
119,-4.814301,6.816937,-0.305672,-0.028158,0.0,-45.478821,-41.253948,12.390862,-39.427528,28.54351,-32.455673,29.505043,-22.753487,-6.743889,0.0,39.289935,9.508267,28.16356,-6.473419,17.032184,-23.664857,4.00791,-40.52167,-11.40808,0.0,60.925655,23.55978,84.309597,13.283215,83.144588,3.308315,69.191265,-5.375576,47.71368,0.0,27.278986,30.042872,57.539528,47.540716,74.428019,58.904644,82.713874,64.852876,84.001,7.541599,343.838196,-45.196495,287.521574
120,-11.39122,-10.73216,-0.340691,-0.019266,0.0,-48.605804,-35.443039,20.147324,-34.714851,36.831894,-29.026051,44.186783,-20.54575,28.63369,0.0,47.968708,18.822452,37.430197,-0.237863,26.846362,-20.437843,11.943703,-39.895521,-9.630409,0.0,60.854588,23.981323,84.087238,13.974895,83.298054,4.027805,69.757977,-4.82523,48.491192,0.0,27.231252,29.841875,57.390709,47.297358,73.902893,58.649306,82.616494,64.604022,84.084857,-3.291407,332.991057,-44.978971,287.387328
