takenoko1/special-research/HandMotion_SimilarSearch_自分用/NewProject/handData/test_key/d4_feature_d2/100.csv
frame,vel_0x_L,vel_0y_L,vel_0x_R,vel_0y_R,posFromWrist_0x_L,posFromWrist_1x_L,posFromWrist_2x_L,posFromWrist_3x_L,posFromWrist_4x_L,posFromWrist_5x_L,posFromWrist_6x_L,posFromWrist_7x_L,posFromWrist_8x_L,posFromWrist_9x_L,posFromWrist_0y_L,posFromWrist_1y_L,posFromWrist_2y_L,posFromWrist_3y_L,posFromWrist_4y_L,posFromWrist_5y_L,posFromWrist_6y_L,posFromWrist_7y_L,posFromWrist_8y_L,posFromWrist_9y_L,posFromWrist_0x_R,posFromWrist_1x_R,posFromWrist_2x_R,posFromWrist_3x_R,posFromWrist_4x_R,posFromWrist_5x_R,posFromWrist_6x_R,posFromWrist_7x_R,posFromWrist_8x_R,posFromWrist_9x_R,posFromWrist_0y_R,posFromWrist_1y_R,posFromWrist_2y_R,posFromWrist_3y_R,posFromWrist_4y_R,posFromWrist_5y_R,posFromWrist_6y_R,posFromWrist_7y_R,posFromWrist_8y_R,posFromWrist_9y_R,posFromBody_0x_L,posFromBody_0y_L,posFromBody_0x_R,posFromBody_0y_R
2,24.382496,0.254288,1.704998,0.592001,0.0,10.797157,-4.331017,45.469093,-10.069199,52.562027,-16.507473,47.733536,-22.936077,26.02272,0.0,-12.036205,9.463683,28.211108,28.015791,46.155839,44.018719,55.065992,57.776711,60.371958,0.0,71.912556,29.329605,93.93259,21.184044,94.852581,13.56966,81.39616,7.636471,62.413616,0.0,5.306645,36.771815,54.822263,54.203771,64.574444,64.502937,69.593888,69.376403,69.582772,-5.053453,275.579939,-49.339399,270.840286
3,7.0998,0.258178,-0.736713,-1.025304,0.0,2.509003,-8.025341,37.453651,-14.847679,42.569389,-22.020206,36.753845,-28.795166,15.783463,0.0,-10.661456,9.13443,27.987201,27.540992,46.11953,43.568312,55.194432,57.246707,60.795504,0.0,71.317635,30.946312,94.057159,22.247829,94.827232,14.070568,80.268173,7.156563,60.284271,0.0,4.672962,37.334978,55.573457,54.735256,64.608345,64.895978,70.779989,69.438956,71.363963,0.716915,276.01088,-51.405544,269.987745
4,-13.755341,19.652192,0.784779,0.592186,0.0,32.330818,1.969185,45.534897,-1.985607,51.964417,-4.088917,41.704788,-5.635815,30.506973,0.0,-13.168893,-4.438805,4.792326,14.831955,24.290019,31.672033,32.199135,45.461147,40.871486,0.0,70.398159,30.469666,93.79343,21.709728,94.844799,13.262501,79.200268,6.028576,58.548717,0.0,5.005056,37.365792,54.469359,54.629725,64.456933,64.645086,69.9337,69.159906,69.910544,-14.139776,295.834677,-51.722116,270.751536
5,19.649048,-20.449019,-0.246563,-0.004446,0.0,-4.227676,-12.500553,27.090111,-18.178139,34.784775,-24.215813,31.491737,-30.393963,12.894859,0.0,-7.678293,10.761862,28.574818,28.873381,46.600566,44.081334,54.917667,56.688175,60.262351,0.0,71.015854,30.344009,94.238091,21.466827,95.098228,13.123569,80.27607,6.130714,59.699249,0.0,3.969193,37.090447,54.978368,54.479054,64.443656,64.662253,70.439745,69.314467,70.937638,4.830437,275.525676,-52.647514,270.887109
6,-19.608593,19.363385,-0.000229,-0.062059,0.0,26.30064,4.909172,47.814846,-1.262112,56.264591,-5.983772,44.638882,-9.533672,24.025326,0.0,-17.803879,-2.179851,6.16337,15.438715,27.594962,30.927447,35.076704,43.456791,41.18734,0.0,70.929565,30.312424,94.135094,21.546879,95.493622,13.254032,80.853767,6.332245,60.207596,0.0,3.928685,36.963673,55.349303,54.430024,64.525167,64.802488,70.415786,69.713683,70.973824,-15.131407,295.014091,-53.000994,270.950079
7,23.12376,-18.887722,0.566483,0.055637,0.0,-7.098198,-13.69606,25.433578,-20.271435,32.068748,-27.110023,27.390404,-33.964462,8.969994,0.0,-10.747597,11.603582,29.495825,29.308783,48.20762,43.602954,56.565724,55.072722,60.784697,0.0,70.085678,29.851913,93.465271,20.853996,94.524078,12.394867,79.782372,5.338497,58.990402,0.0,3.966476,36.804666,55.362085,54.404521,64.611247,64.904314,70.439992,69.948952,70.836738,7.860661,276.301354,-52.566204,271.180701
8,-4.464569,1.018944,0.122166,-0.0381,0.0,-2.127113,-11.534214,28.69194,-18.002529,35.386505,-25.054264,32.326584,-31.737785,13.842201,0.0,-12.238561,8.783811,28.167512,26.607882,47.011206,41.52672,55.16047,53.911074,60.009174,0.0,70.61285,28.745384,93.395061,19.882393,94.315968,11.968174,80.492649,5.613441,59.772778,0.0,4.013098,36.814669,54.962683,54.329433,64.08044,64.762103,69.638718,69.656379,70.658403,3.311205,277.486576,-52.528925,271.308879
9,-18.121204,19.671273,0.608025,0.127329,0.0,20.943203,3.905582,44.179058,-0.402946,53.799877,-4.447174,41.994953,-8.148537,18.694553,0.0,-23.540677,-0.048289,9.152646,16.664892,29.354849,31.119861,35.033108,42.78896,39.651545,0.0,70.11343,28.72324,93.009167,19.82666,93.860035,11.887035,79.782429,5.502777,59.109707,0.0,3.768195,36.789105,55.051851,54.056619,64.493921,64.3556,69.679844,69.123411,70.737876,-14.834919,297.293746,-51.94582,271.572106
10,20.291805,-19.157263,0.488434,-0.074965,0.0,-6.643753,-16.157341,25.569649,-21.114292,34.02832,-26.092472,30.852127,-31.178169,12.650871,0.0,-7.660941,13.241882,29.034797,30.68662,46.693253,44.34964,53.771641,55.027089,58.264292,0.0,70.004139,28.383579,93.16515,19.562073,93.593388,11.795483,79.5825,5.699902,59.448566,0.0,4.47073,37.037156,55.222591,54.32616,64.449275,64.475705,69.25247,69.12267,70.345081,5.43786,278.223444,-51.476412,271.584101
11,0.94677,-0.561435,0.195522,0.086759,0.0,-6.448402,-16.506844,26.595726,-22.173958,34.2873,-28.088322,29.908562,-33.858891,11.173439,0.0,-7.344471,12.53379,31.078118,29.504779,48.258873,42.912276,55.136325,53.559714,59.009867,0.0,70.232391,28.116474,92.5597,19.282436,93.430595,11.596298,79.784088,5.645084,59.415321,0.0,4.361493,37.295767,55.397159,54.533024,64.232902,64.666081,68.943594,69.238452,70.182184,6.351786,277.751655,-51.313734,271.760507
12,9.339066,-1.111693,-0.287418,0.111521,0.0,-16.34697,-25.1437,14.945068,-31.338615,23.457069,-36.225357,19.381142,-39.957275,1.678047,0.0,-5.302755,14.525796,33.269702,31.39076,50.447802,44.398484,56.87849,54.515548,60.798097,0.0,70.672588,28.292942,92.767925,19.476986,93.789425,11.814423,79.995632,5.946407,59.721737,0.0,4.356245,37.371041,55.212958,54.631824,64.368506,64.815085,68.431992,69.443711,69.642176,15.629997,276.700694,-51.662006,271.932759
13,-23.54908,18.699692,0.612316,-0.247743,0.0,21.408348,0.474072,41.253319,-6.79882,44.711609,-12.110538,31.637077,-16.353951,7.437744,0.0,-13.518709,-0.538278,15.197456,15.54968,30.363419,29.789757,36.711114,41.289845,42.061231,0.0,69.068756,27.321625,92.415619,18.451767,93.249664,10.831375,80.629692,5.037746,60.612946,0.0,4.773554,35.350073,56.260986,53.049161,63.378338,64.129717,69.567891,69.504473,70.6844,-7.945662,295.51342,-51.076269,271.798051
14,16.753235,-16.938076,-0.093956,-0.190932,0.0,-7.890129,-15.847034,22.682877,-22.411823,31.158485,-28.37019,24.327507,-34.321175,4.174805,0.0,-8.546442,10.922783,25.688665,29.852187,45.365496,45.259038,54.427492,57.68143,59.680353,0.0,69.153099,27.689724,92.619324,18.893738,93.722878,11.146545,80.659676,5.153046,60.450325,0.0,4.790288,35.693529,56.052084,53.259792,63.781692,64.22438,69.732332,69.454826,71.127212,8.751211,278.659309,-51.226587,271.691084
15,-25.725346,15.945747,-0.031757,0.057984,0.0,27.705975,1.926842,48.778324,-4.248276,60.548115,-8.180981,50.400753,-11.194038,31.655788,0.0,-18.55038,1.631075,17.492595,19.100452,33.290018,33.58043,39.704465,45.401126,44.875753,0.0,69.009304,27.748089,92.945309,19.017563,93.87743,11.303558,80.949726,5.28614,60.854015,0.0,4.766391,35.818388,55.802921,53.362421,63.90581,64.161889,69.699481,69.246356,71.118814,-17.089062,294.659643,-51.373272,271.803655
16,24.432964,-13.926076,0.808468,0.18309,0.0,-4.536781,-13.79837,25.70755,-19.97263,33.689919,-26.319351,27.788086,-32.628365,7.471161,0.0,-11.400114,8.395586,25.229551,26.302464,44.680499,41.452743,52.122658,54.326963,58.080585,0.0,68.727036,27.329407,92.441368,18.416348,93.303452,10.589447,80.191498,4.531517,59.854317,0.0,4.545448,35.742744,55.773837,53.25337,63.632873,64.053023,69.678671,69.209244,71.010133,7.22208,280.762358,-50.686626,272.015536
17,-23.908024,9.603177,0.093269,0.293994,0.0,30.872784,0.538502,46.733265,-5.31395,58.013477,-8.438931,49.800053,-10.233936,33.463268,0.0,-11.97359,3.415662,17.730952,21.206326,37.168993,35.964737,43.491433,47.616792,48.336802,0.0,69.547691,27.871113,92.016335,18.836689,92.562447,10.818844,79.505768,4.651222,59.48616,0.0,4.359888,35.584725,55.826818,53.08405,63.160977,63.988,68.899442,69.259818,70.051952,-16.773119,290.380633,-50.680532,272.324627
18,18.983288,-10.063773,-0.139618,0.116091,0.0,4.131088,-9.374886,31.291809,-14.103413,38.863335,-20.155277,34.077988,-26.538563,14.675446,0.0,-14.928965,7.481927,23.42366,25.427214,43.583256,40.589657,51.219497,53.53631,57.691557,0.0,69.484062,27.60046,92.098961,18.73558,93.084984,10.896435,79.761429,4.86454,59.800873,0.0,4.463196,35.845064,55.015295,53.33309,63.004069,63.972871,68.757046,68.883017,70.278329,2.1803,280.328175,-50.850019,272.452034
19,-14.1152,13.914097,0.074558,0.028282,0.0,23.888569,-1.525154,42.200146,-7.49239,50.540485,-10.777817,40.476208,-12.650928,22.747822,0.0,-17.196687,-1.641388,11.609942,16.874597,31.824433,32.587113,38.663044,45.043529,44.140429,0.0,69.436626,27.45615,92.02898,18.578281,92.725925,10.846138,79.499187,4.96851,59.661884,0.0,4.328642,35.862787,55.327319,53.277823,63.543953,63.913899,69.013989,68.88172,70.02188,-11.951609,294.254653,-50.79217,272.492697
20,16.126499,-14.500602,0.040684,-0.000371,0.0,3.555222,-9.089699,31.110191,-15.165768,35.807648,-22.416229,29.85981,-29.959373,9.790306,0.0,-14.158196,7.915909,24.384558,25.735843,43.993217,40.926568,52.083941,53.892302,58.58453,0.0,69.606628,27.167473,92.41333,18.243656,92.979126,10.599861,79.595833,4.914093,59.701309,0.0,4.297582,35.181618,55.180662,52.788204,63.661525,63.668874,69.306316,68.891909,70.120248,4.173574,279.764147,-50.752802,272.502422
21,-15.151005,14.202039,-0.216751,-0.403971,0.0,23.047199,-1.192646,42.071972,-7.030163,50.507984,-10.515232,39.845524,-12.956944,19.698086,0.0,-16.03121,-1.25446,12.812593,16.505823,32.296206,31.895817,39.058926,44.228177,44.265104,0.0,69.887009,28.182964,92.659492,19.110203,92.8759,11.037197,79.238663,4.799881,59.128532,0.0,4.416945,35.768926,55.650151,53.285913,64.006402,63.992446,69.951237,69.049372,70.838282,-11.03385,293.975896,-51.025972,272.108161
22,14.54504,-13.240338,-0.090523,0.130602,0.0,1.525269,-9.828186,30.269051,-15.667248,36.473351,-22.332344,31.68148,-29.308834,11.806984,0.0,-14.869129,6.019615,21.883111,24.436676,42.829962,40.430712,51.755367,54.356109,58.742858,0.0,69.64222,28.511868,92.567139,19.531345,92.914238,11.431503,79.371071,4.971313,59.367256,0.0,3.962092,35.332351,55.510348,52.954375,64.185045,63.704504,69.918756,68.837136,70.91652,3.459892,280.747461,-51.167793,272.250666
23,-24.793224,0.928232,0.227966,-0.58842,0.0,29.835377,1.509762,58.893986,-3.844986,66.12711,-6.32515,60.404034,-7.751141,45.979328,0.0,-4.177168,11.642237,30.63086,30.27598,50.078411,44.590096,57.271778,55.446559,60.160154,0.0,69.157333,28.904114,92.599869,20.055599,93.305168,11.900082,79.352531,5.195847,59.167786,0.0,4.681607,35.088869,55.562094,52.795305,65.490079,63.474113,71.006119,68.466449,71.608927,-21.395245,281.720261,-51.00174,271.706815
24,18.684711,-2.566224,0.247192,-1.437858,0.0,7.422867,-4.759998,38.206215,-10.554829,42.269325,-18.338013,38.410378,-26.134415,17.824745,0.0,-11.927524,7.572144,23.412545,26.20212,44.47666,42.253831,53.995981,56.036832,62.135858,0.0,68.546562,28.713169,93.054428,19.478645,92.797508,11.074963,78.580627,4.217892,58.005295,0.0,4.593798,34.578749,58.066012,52.072764,68.525914,62.804306,75.013351,68.131267,74.313719,-2.754822,279.20526,-50.798836,270.320178
25,1.653328,-1.915251,0.698891,-3.910221,0.0,8.762283,-10.412865,37.677841,-16.343594,42.692986,-22.098026,38.508682,-28.080711,20.767937,0.0,-6.953096,12.651857,36.854992,29.655574,58.663015,43.551516,65.744676,55.353687,68.005729,0.0,67.728882,29.394321,87.359848,19.512806,88.05645,9.669456,72.384682,1.032887,51.924591,0.0,5.569146,33.709735,67.94546,50.449963,82.785134,61.217876,84.716378,67.30338,81.04334,-1.142235,277.338637,-50.140686,266.458585
26,13.089638,-7.217944,1.539631,-8.962578,0.0,-13.945312,-29.983521,12.951279,-45.257435,12.152023,-54.569206,1.455116,-60.844517,-18.374748,0.0,-4.520871,13.328147,61.087213,30.115491,80.314315,43.440489,83.354967,54.348884,79.493899,0.0,66.934605,24.925175,72.721653,12.802219,67.881603,0.550003,53.395329,-10.983124,33.245029,0.0,7.817417,28.290457,71.263495,42.666818,93.358472,53.355505,96.5803,60.854537,90.080698,11.914787,270.161804,-48.633671,257.537117
27,-4.304008,58.007411,3.803329,-7.035286,0.0,-61.83157,-23.971138,-69.518795,-17.857018,-61.003418,-9.632721,-44.108963,-0.999641,-25.107765,0.0,1.051301,1.486826,-26.435598,-11.991313,-48.157973,-28.608781,-60.816869,-45.748534,-70.221025,0.0,53.26704,16.361332,47.464542,6.704693,37.962284,-2.874413,23.016586,-11.636925,11.64711,0.0,16.822479,10.536473,51.606734,26.733606,66.622087,41.307568,75.245656,53.624428,78.051656,7.490158,328.144576,-44.950962,250.477193
28,14.889221,-57.043116,-2.189884,39.353044,0.0,-53.005486,-29.872627,-86.066494,-26.220589,-88.422546,-20.03231,-79.141216,-12.688293,-59.839382,0.0,12.290617,19.924388,35.983632,36.53494,49.810908,48.94208,59.95965,57.626102,68.821575,0.0,20.880375,28.890667,-8.82185,28.51902,-14.610043,24.02235,-16.297874,16.181087,-8.186932,0.0,28.022584,7.277039,29.300509,3.546882,22.865684,0.405638,16.318287,-2.575733,14.47442,22.180424,270.893747,-47.339802,289.622523
29,5.016747,-2.555973,-63.631325,-99.777736,0.0,-56.972923,-30.921135,-89.73793,-28.165512,-93.633728,-22.603226,-83.150826,-15.339546,-63.408966,0.0,15.430008,21.729414,38.944503,39.265481,51.432165,52.369166,63.475286,61.144887,72.260888,0.0,71.858368,25.728893,42.48785,23.57008,34.153519,21.531944,34.35688,20.287514,33.12521,0.0,-0.222054,-47.439816,-26.478453,-58.666349,-35.953189,-63.976453,-44.230462,-65.852368,-55.186837,26.621675,269.351252,-111.546621,190.858266
30,1.419067,-2.429446,-19.392357,-54.799539,0.0,-57.894573,-31.234932,-89.59259,-27.874718,-93.643227,-21.984329,-83.620319,-14.648666,-64.840508,0.0,17.750218,24.442542,40.445841,41.806202,52.399856,54.578966,65.096111,63.189567,74.013982,0.0,56.90443,10.787373,18.965263,-7.815971,-3.332005,-24.299297,-22.533703,-39.367962,-45.632973,0.0,1.4993,-54.249219,-92.613021,-56.783394,-93.648236,-51.847715,-83.223531,-40.541585,-60.934072,27.284174,266.76848,-131.695547,135.905401
31,2.303696,-0.379703,-37.350883,-46.389997,0.0,-59.828625,-32.952347,-91.242256,-29.296875,-95.567665,-23.334274,-86.087036,-15.893326,-67.287254,0.0,16.7837,24.825395,40.746318,42.238579,53.029401,54.992817,65.186575,63.6832,73.974647,0.0,60.119648,12.595024,25.9021,-4.346638,5.549183,-19.754906,-12.414837,-34.466915,-33.867245,0.0,-1.306546,-58.083302,-116.571532,-62.694977,-119.109845,-61.595449,-105.939717,-56.070331,-83.066438,29.971647,266.680516,-168.662653,89.807144
32,1.770287,-0.879264,-27.933998,-46.534122,0.0,-59.804306,-33.05397,-92.456532,-29.266891,-97.28611,-23.062706,-87.453518,-15.478249,-67.702045,0.0,19.094277,25.844091,41.17678,43.374416,52.834764,56.039487,65.190466,64.416177,74.485261,0.0,50.434742,10.732155,26.341839,-4.280891,1.307087,-18.869476,-16.460667,-33.397465,-43.625336,0.0,-6.90629,-63.021946,-127.997458,-68.289997,-141.8821,-67.005588,-131.827497,-59.79527,-110.243134,28.816938,265.593755,-199.521646,43.065525
33,1.915627,-0.220202,-28.703957,-40.077129,0.0,-60.812645,-33.704453,-93.746109,-29.953651,-98.302517,-23.847084,-88.588772,-16.373749,-68.107681,0.0,19.770815,26.148212,41.45336,43.841249,52.846373,56.499713,65.650445,64.748518,74.857431,0.0,44.605293,15.198727,32.917557,-0.978069,7.418346,-16.784534,-14.555225,-33.267689,-39.280243,0.0,-15.125115,-67.313136,-132.247152,-75.146546,-150.138809,-75.440447,-145.937049,-68.71768,-124.410593,30.637865,265.293602,-228.320303,2.908444
34,1.627808,-0.27306,-20.966549,-35.135923,0.0,-61.514339,-33.865929,-94.405117,-30.134697,-98.163586,-24.02916,-88.689137,-16.556282,-67.228432,0.0,19.811261,26.384778,41.951686,43.893737,53.724093,56.430243,65.98507,64.742034,74.301924,0.0,20.836201,14.710579,32.605877,-1.426048,8.690643,-17.425404,-13.774109,-33.949413,-37.769623,0.0,-34.673875,-65.234679,-133.496286,-72.839644,-154.340585,-72.61762,-148.810635,-65.747578,-126.848561,32.169056,265.400492,-249.383469,-31.847528
35,2.09095,-0.403477,-26.110268,-26.896442,0.0,-62.667904,-34.44088,-95.87883,-30.381546,-99.318924,-24.103546,-89.438095,-16.810913,-68.680458,0.0,20.575176,26.615848,42.691333,44.199772,53.849323,56.721767,66.907868,64.816382,74.892752,0.0,31.062698,21.885281,43.731651,6.611252,19.354877,-8.978405,-2.388325,-24.924088,-26.100883,0.0,-22.718718,-63.394764,-132.999041,-71.518432,-152.482361,-72.169837,-146.681527,-67.4258,-125.704526,33.84799,266.635608,-275.905752,-57.105376
36,2.222099,-0.104914,-11.456337,-15.271896,0.0,-64.42749,-35.451508,-97.883034,-31.373405,-101.583023,-25.216827,-91.843243,-18.286171,-71.979103,0.0,20.150271,26.406082,42.519481,44.320432,54.144922,56.994828,66.587816,65.174287,74.736215,0.0,24.699211,21.825657,42.630444,6.832352,21.173859,-7.923031,-0.638752,-23.982067,-25.42923,0.0,-22.300389,-66.410144,-134.267363,-73.659566,-152.925636,-73.605657,-149.551069,-68.284439,-128.155724,35.662365,268.524492,-287.769814,-70.383475
37,0.248795,-0.867038,-11.477222,-10.199779,0.0,-63.672123,-34.947281,-97.325134,-30.949402,-101.573753,-24.838142,-90.78392,-17.905998,-70.204811,0.0,21.452587,27.325298,42.430746,45.223161,55.195544,57.69483,67.392856,65.5141,74.697683,0.0,21.331844,23.262577,41.978016,8.510799,23.754387,-5.96529,4.112663,-21.505222,-20.014,0.0,-24.54196,-66.316932,-136.46117,-73.885155,-153.682557,-74.48997,-148.214389,-69.939011,-128.319425,35.632982,268.86452,-299.525213,-79.376187
38,0.183334,-0.355312,0.810471,-3.142972,0.0,-64.758797,-35.104294,-97.717266,-31.138687,-101.442089,-25.212135,-90.898533,-18.562775,-70.96035,0.0,21.235287,27.612993,42.046041,45.506287,54.222358,57.982525,66.634129,65.834152,75.105976,0.0,10.348892,20.836258,38.271046,5.553017,19.80423,-9.642105,1.027966,-25.226898,-23.462563,0.0,-23.136089,-64.637167,-135.340339,-72.775331,-154.502433,-73.602817,-147.800568,-68.811433,-127.320473,35.121861,269.003351,-299.409199,-82.025017
39,0.730705,-0.614478,4.617863,1.758899,0.0,-65.814629,-35.650749,-98.916378,-31.772232,-103.081341,-25.931854,-92.829323,-19.283867,-72.584209,0.0,21.457527,27.410205,42.565115,45.275711,54.6606,57.791099,66.914969,65.770858,75.418619,0.0,14.104614,20.752258,38.17915,5.587006,21.406345,-9.587231,4.733391,-25.148163,-21.070919,0.0,-25.92554,-62.615535,-133.724284,-70.777473,-152.227424,-72.007804,-146.622309,-67.984193,-125.201616,35.03643,268.650293,-295.607471,-80.004698
40,0.325699,-0.013647,9.142227,10.995031,0.0,-66.770782,-36.06205,-99.787388,-31.750031,-103.740635,-25.587158,-93.182201,-18.862724,-72.890511,0.0,20.262904,27.474179,42.682626,45.56779,55.198076,57.960727,67.416692,65.428267,75.544898,0.0,21.063824,24.276581,41.203709,11.062889,25.841045,-2.607479,10.588474,-17.792473,-11.759262,0.0,-21.747384,-62.215238,-133.119192,-71.009284,-150.936933,-73.096217,-144.020702,-70.598304,-123.685025,34.154606,269.373035,-287.672768,-68.273278
41,-0.450668,0.281026,9.165802,9.076847,0.0,-67.245941,-36.500473,-99.802608,-32.144852,-103.468838,-26.058311,-93.428364,-19.397392,-73.453445,0.0,19.848805,27.107443,42.170777,45.158879,54.156223,57.648888,67.050141,65.398441,76.171727,0.0,37.093105,23.941383,54.343872,18.018379,42.895374,10.475407,31.988468,0.622444,9.01823,0.0,-9.899703,-57.467681,-116.845889,-65.795126,-134.227828,-67.610958,-129.387645,-65.832516,-113.683898,32.239065,269.49669,-279.971838,-59.353801
42,-0.862999,0.10794,47.89115,39.39014,0.0,-66.793671,-36.488342,-99.61195,-31.935883,-103.256321,-25.732269,-92.8228,-19.003029,-73.084145,0.0,19.951311,27.192597,42.194983,45.441202,54.688203,58.061381,67.215817,65.832423,75.906015,0.0,43.027811,25.752582,53.373985,15.381202,40.532941,4.316196,28.400716,-7.846098,7.463235,0.0,-7.496361,-59.077005,-116.435789,-67.453973,-131.567635,-69.731452,-128.078536,-67.772883,-114.71973,29.494143,268.420288,-233.962612,-21.148004
43,0.071526,0.391621,47.891149,39.390141,0.0,-66.771469,-37.220192,-100.439415,-32.845459,-104.570503,-26.521912,-94.399967,-19.48288,-74.226665,0.0,19.387962,26.816784,41.535921,45.02945,54.209266,57.699647,66.973571,65.586224,75.663027,0.0,48.962517,27.563782,52.404099,12.744026,38.170509,-1.843014,24.812965,-16.31464,5.908241,0.0,-5.09302,-60.686329,-116.02569,-69.112821,-128.907443,-71.851946,-126.769428,-69.713251,-115.755562,29.007797,269.853654,-186.629333,19.283882
44,-0.17086,0.590581,34.732018,37.514919,0.0,-68.02002,-37.934875,-101.583023,-33.504753,-105.804863,-27.258797,-95.558281,-20.2882,-74.800301,0.0,18.878027,26.207863,42.274641,44.525937,54.629046,57.463884,67.013955,65.60055,75.726691,0.0,59.735126,29.856319,68.807144,15.94677,57.092342,0.712852,39.213238,-15.771503,17.635403,0.0,6.038202,-52.720587,-83.160607,-62.364304,-96.515678,-66.46907,-97.131052,-65.562852,-96.735108,25.332098,271.78868,-155.402155,58.143246
45,-0.543137,0.501166,34.605389,41.427394,0.0,-67.899055,-37.764702,-100.059814,-33.52581,-104.760647,-27.283859,-93.290291,-20.503922,-74.086189,0.0,18.672892,25.073261,41.641699,43.650193,54.964844,56.948144,66.971409,65.364787,74.434379,0.0,63.594761,25.723171,81.623325,16.437092,78.477974,5.672035,66.710758,-6.053181,43.046894,0.0,-6.352913,-49.868737,-72.473772,-54.736059,-77.527241,-54.760481,-77.711288,-48.811632,-71.693525,24.746876,272.464816,-120.838852,99.74561
46,-0.617752,0.001914,3.779583,21.684182,0.0,-67.545319,-37.855797,-100.797672,-33.652267,-105.640526,-27.39521,-94.36409,-20.183601,-74.046249,0.0,18.399894,25.851563,41.638241,44.12493,54.740814,57.089491,67.683021,65.243756,75.774178,0.0,78.78685,23.998547,100.651131,23.500271,97.29744,23.572426,85.551395,24.49276,68.762798,0.0,-18.385074,-53.876895,-29.257469,-57.083655,-26.678432,-52.715123,-26.118942,-44.197456,-29.23354,24.284992,272.192204,-116.9034,121.155265
47,-0.902481,0.819366,25.318394,21.813024,0.0,-66.701832,-38.003082,-100.07349,-33.690147,-104.450226,-27.278023,-93.357525,-20.01091,-72.692699,0.0,17.950968,24.713379,41.134358,43.226709,54.651585,56.50632,67.272875,64.97718,75.297032,0.0,67.107525,17.544193,80.497799,11.154613,82.066441,7.804642,78.150272,6.451778,61.47028,0.0,-25.557508,-58.443461,-32.342458,-59.907255,-24.9187,-54.307233,-24.852349,-43.93619,-31.944322,23.497295,272.27955,-91.470222,142.236269
48,-0.824318,0.049153,19.438362,4.183714,0.0,-66.462021,-37.699814,-99.18457,-33.430481,-103.65366,-26.96125,-92.263927,-19.437103,-71.988602,0.0,18.526976,25.335391,41.412852,43.576525,54.41928,56.693918,67.059342,65.053195,75.180509,0.0,60.246105,10.066338,68.260517,1.242485,69.417629,-4.343948,60.735226,-7.439289,46.173534,0.0,-28.158157,-58.257809,-33.112269,-59.451506,-31.260035,-52.976512,-29.84524,-41.398372,-31.957722,22.758093,271.207099,-71.946745,145.29838
49,-0.943909,-0.47449,4.699688,-3.697429,0.0,-65.317726,-37.765961,-99.282303,-33.771629,-103.157158,-27.348633,-92.519932,-19.668846,-72.395096,0.0,18.878398,25.752824,41.899754,43.978829,54.731613,57.02101,67.075953,65.377384,75.140371,0.0,56.553841,0.817966,61.929703,-7.159424,63.062668,-10.111084,58.418655,-9.126091,45.974693,0.0,-30.394294,-58.457016,-36.648098,-58.035692,-35.915954,-50.037223,-35.36903,-37.893295,-38.137425,21.890402,270.145023,-67.170839,141.013364
50,-0.03582,0.44275,-0.974178,-6.461625,0.0,-65.964317,-38.020592,-99.691601,-33.882408,-103.534927,-27.342453,-92.804546,-19.595146,-72.0294,0.0,18.713092,25.966295,41.875795,44.098007,55.152133,56.961976,67.204949,65.150513,74.974201,0.0,55.180035,-0.975151,58.549519,-8.779049,58.619556,-12.211819,55.622578,-12.34726,40.276451,0.0,-29.545349,-56.624202,-35.223886,-55.645149,-34.695611,-47.799852,-36.425889,-35.717272,-36.256847,21.918411,270.382407,-68.081188,134.346373
51,-0.487976,-0.079658,-0.951004,-1.837939,0.0,-66.152859,-37.925949,-99.506893,-33.77964,-103.268681,-27.239685,-92.470436,-19.449577,-71.814022,0.0,19.254087,26.323707,42.255745,44.309132,56.198679,57.006498,68.094464,65.208003,75.61165,0.0,56.979046,-0.725098,59.668293,-8.759308,56.230373,-13.033848,52.229862,-14.2733,35.188293,0.0,-29.71047,-55.07723,-36.132513,-53.361804,-37.592354,-45.45843,-38.753293,-33.556656,-36.268086,21.482077,270.158608,-68.980551,132.364293
52,-0.50972,0.17815,-1.767368,-0.407367,0.0,-65.856228,-37.838974,-99.775944,-33.623314,-103.760891,-27.053146,-92.498703,-19.321861,-71.823807,0.0,19.853004,26.386322,42.660581,44.498644,56.631612,57.171619,68.337637,65.206583,75.64728,0.0,57.556229,-1.359558,58.804092,-9.555931,56.568375,-14.017181,52.86953,-15.010529,36.110172,0.0,-29.737578,-56.198957,-35.145957,-54.123742,-35.170102,-45.521786,-35.833332,-33.235862,-33.405738,21.02809,270.225854,-70.692186,131.846022
53,-0.185623,0.294488,-2.270966,2.161264,0.0,-66.595974,-37.957535,-99.490643,-33.620453,-103.451385,-27.008286,-91.988354,-19.553604,-71.955471,0.0,19.679424,25.844153,42.264143,44.181741,55.914998,57.220834,67.804916,65.582951,75.240839,0.0,56.99913,0.359344,60.595093,-8.132801,57.19162,-12.98996,52.895622,-14.763565,35.270863,0.0,-28.322537,-54.586006,-34.121209,-54.554575,-34.246933,-47.578075,-36.040875,-36.685302,-35.727708,20.882177,270.251774,-72.923441,133.738718
54,0.400543,0.097195,-0.127716,1.910743,0.0,-66.78606,-38.524818,-100.435581,-34.14814,-103.65303,-27.336731,-92.427063,-19.578209,-71.935329,0.0,19.152076,26.288818,42.587901,44.265536,56.005339,57.088318,67.781883,65.390599,75.032987,0.0,58.3358,0.360203,57.473488,-8.213081,55.200806,-13.488636,52.858772,-15.325699,37.497253,0.0,-28.899656,-53.103193,-34.231835,-52.64482,-33.33278,-45.431785,-33.92827,-34.402451,-35.079267,21.353874,269.930363,-72.980003,135.230855
55,-0.264359,-0.130911,0.33989,0.262501,0.0,-66.478214,-37.656784,-100.156975,-33.19725,-103.677635,-26.397972,-92.305927,-18.806877,-71.738777,0.0,19.976814,26.558976,42.266304,44.722489,56.13063,57.515692,68.021475,65.581531,75.190698,0.0,56.114159,-1.277905,58.25386,-9.939938,52.973785,-15.178299,49.910946,-16.993675,34.198666,0.0,-26.457242,-52.58452,-32.578869,-50.852483,-32.976696,-43.209604,-34.12337,-32.210404,-34.615799,21.177034,269.450439,-72.552595,135.144343
56,0.222244,0.477392,-1.100178,2.044309,0.0,-66.727695,-37.680244,-100.066967,-33.186035,-103.749504,-26.517105,-92.536469,-19.124908,-72.644577,0.0,20.100562,26.580218,42.556346,44.80789,56.015836,57.521559,67.45967,65.600365,74.815502,0.0,56.566143,-0.499249,57.55434,-9.409218,53.874378,-14.759789,49.698086,-16.941204,32.654171,0.0,-26.391323,-52.644634,-32.918805,-51.718625,-33.925954,-44.28298,-34.610149,-33.033661,-33.414136,21.525993,269.833662,-73.526058,137.094482
57,-0.269852,0.471464,0.38023,-0.26034,0.0,-66.299171,-37.355919,-99.347763,-32.815018,-103.056679,-26.172867,-91.626091,-18.810196,-71.67778,0.0,19.946371,26.622826,41.930382,44.90527,55.707702,57.482841,67.086018,65.298097,74.203988,0.0,56.197701,-0.599041,56.996155,-9.630375,51.981125,-15.25938,48.843155,-17.981472,32.205791,0.0,-25.830012,-53.42445,-31.261084,-52.077303,-31.795071,-44.170039,-31.923975,-32.482816,-30.829634,21.355419,270.209012,-73.046551,136.738028
58,0.338287,0.040755,-0.212002,0.979732,0.0,-66.530113,-37.42321,-99.626141,-32.970314,-103.361778,-26.317177,-91.648521,-18.925323,-71.345959,0.0,19.431867,26.283445,41.815465,44.670125,55.663489,57.374284,67.583788,65.312299,74.353918,0.0,56.753368,-1.257591,57.235851,-10.158062,53.715878,-15.325012,51.634541,-17.095585,34.663239,0.0,-25.528022,-55.069728,-32.803177,-53.294619,-33.229749,-44.897397,-33.386163,-32.817658,-31.130482,21.842022,270.099513,-73.110237,137.567506
59,-0.225334,-0.190315,0.035419,1.027403,0.0,-66.429005,-37.656784,-99.727077,-32.97718,-102.826996,-26.095047,-91.200485,-18.507729,-70.916519,0.0,19.903702,26.471167,41.973793,44.862662,55.743332,57.608627,67.924959,65.484212,74.781354,0.0,56.92852,-0.887203,55.525475,-9.579506,52.250977,-14.541664,50.409851,-16.032944,34.947681,0.0,-26.38839,-54.957064,-31.635878,-54.516876,-32.525578,-46.561972,-33.154939,-34.602492,-33.473725,21.717882,269.803945,-72.973623,138.489656
60,-0.244102,0.504995,-0.880795,1.193821,0.0,-66.440964,-37.18483,-99.397488,-32.585335,-102.837982,-25.859184,-90.909405,-18.661766,-70.896378,0.0,19.426433,26.081954,41.889009,44.503769,55.549621,57.476172,67.601264,65.644084,74.429377,0.0,57.301769,-0.433044,60.354939,-8.926105,55.939922,-13.689308,54.01022,-15.505257,35.856056,0.0,-26.622054,-55.19295,-32.322574,-54.046647,-33.929536,-45.96148,-34.942026,-34.01611,-33.797976,21.65637,270.105549,-73.671827,139.480086
61,-0.244102,0.181237,-0.37817,0.380383,0.0,-66.538925,-37.06604,-99.415169,-32.538986,-103.23246,-25.889053,-91.283855,-18.612213,-71.269112,0.0,18.646957,26.572746,41.252486,45.162522,55.020235,58.152339,67.092625,66.262823,74.331688,0.0,58.648911,3.910847,61.735382,-5.076828,56.974182,-11.046638,53.973999,-14.466305,37.301102,0.0,-27.722786,-54.227792,-29.334842,-53.754351,-30.219355,-46.377647,-30.560495,-35.181834,-31.365504,21.546879,270.132781,-73.915386,139.706463
62,0.125542,0.280656,0.248566,0.596632,0.0,-66.778507,-37.16732,-99.18251,-32.661896,-103.015137,-25.955315,-90.84795,-18.569984,-70.612507,0.0,18.622627,26.604795,41.520421,45.024757,54.983802,57.88533,67.247434,65.855085,74.116241,0.0,58.247452,1.345768,60.063515,-7.642479,58.121223,-12.917519,54.032822,-14.880867,38.303661,0.0,-27.201149,-54.366082,-34.323967,-53.272173,-32.796045,-45.235233,-33.027455,-33.438774,-32.170791,21.797018,270.253611,-73.542223,140.14327
63,-0.134926,0.027664,0.396481,0.20248,0.0,-66.428776,-37.462692,-98.911057,-32.961159,-102.947273,-26.212578,-90.940475,-18.685455,-70.908394,0.0,18.741003,26.615045,41.946314,45.014383,55.11144,57.81901,67.273369,65.705773,74.568316,0.0,58.556042,0.330162,57.433605,-8.316936,55.414524,-13.364868,52.035999,-15.44735,35.923748,0.0,-27.847182,-54.728557,-33.508429,-53.340932,-32.454102,-45.31872,-33.52152,-33.794395,-32.506559,21.761112,270.18195,-73.046722,140.246424
64,0.431099,-0.030999,0.223618,-0.23249,0.0,-67.302475,-37.58091,-99.837627,-33.028793,-103.627167,-26.291885,-92.100964,-18.852196,-71.244678,0.0,19.155163,26.614181,42.123044,45.161226,55.21691,58.053538,67.428733,66.005324,74.550964,0.0,58.832188,0.138588,54.67329,-8.643379,52.234097,-13.825951,48.780212,-16.154308,33.279648,0.0,-27.662857,-54.91566,-32.148932,-54.059429,-30.813239,-46.174303,-32.117779,-34.504741,-31.129896,22.419462,270.015888,-72.595854,139.87887
65,-0.000114,0.098801,0.567169,-0.390386,0.0,-66.93861,-37.631836,-99.727535,-33.097,-103.918362,-26.308937,-92.281437,-18.903923,-71.576271,0.0,19.379255,26.326794,42.594261,44.769419,55.559624,57.686,67.419038,65.738624,74.709662,0.0,58.009586,-0.40884,54.371624,-9.305992,51.421452,-14.798584,47.988224,-17.347641,32.833385,0.0,-27.847367,-54.467507,-32.02997,-53.085718,-30.848592,-44.921572,-32.240199,-33.329847,-31.456308,22.481117,269.993812,-71.966915,139.367608
66,0.216408,-0.290536,-0.101395,-0.415272,0.0,-66.920815,-37.775917,-100.130539,-33.045044,-104.028683,-26.141281,-92.571259,-18.627548,-71.483517,0.0,19.688254,26.806965,42.219251,45.092497,56.001634,57.953256,68.345665,66.0856,75.021502,0.0,57.971478,-0.850296,54.984226,-9.771309,52.475567,-15.114899,49.074783,-17.362003,33.350887,0.0,-27.337648,-53.765157,-32.546543,-52.122442,-31.41898,-43.93548,-32.355518,-32.421282,-30.325257,22.862577,269.553331,-71.903257,138.802391
67,-0.570946,0.505304,1.04353,-0.05996,0.0,-66.967449,-37.749481,-100.438557,-32.850151,-103.941994,-26.007957,-92.428608,-18.693695,-71.690998,0.0,19.717401,26.765901,42.442231,45.148567,56.191269,58.109608,67.927244,66.215646,74.504713,0.0,56.812706,-2.204361,54.387589,-11.314945,48.717327,-16.676445,44.206753,-19.001656,27.55909,0.0,-25.138593,-54.711946,-32.082859,-52.583409,-31.575579,-43.566676,-31.534978,-30.753249,-28.285795,22.566977,269.911962,-70.584383,138.595758
68,0.738945,0.680922,-0.319748,2.082718,0.0,-67.876968,-38.440361,-100.78886,-33.708916,-103.928719,-27.011833,-92.927685,-19.854813,-72.435722,0.0,19.430261,26.836297,42.433092,45.219024,55.353934,58.066012,67.510984,66.134444,74.712935,0.0,56.939507,-2.255974,53.657684,-10.966301,46.520233,-16.149902,42.415123,-18.125954,27.133713,0.0,-26.893663,-55.716594,-30.898332,-54.407022,-32.161344,-45.748287,-31.231845,-32.697862,-27.614969,23.584099,270.360764,-70.625954,140.446357
69,-0.452385,-0.315359,-1.064014,2.621799,0.0,-67.207546,-38.082619,-100.057583,-33.435287,-103.712597,-26.750565,-92.4119,-19.466858,-71.498852,0.0,19.35721,26.990426,42.4016,45.201981,55.952234,58.033778,68.103109,66.189464,75.029159,0.0,59.312496,-0.084915,56.085835,-9.110126,52.434254,-14.763908,47.782001,-17.321835,31.398182,0.0,-29.002131,-57.557559,-31.272446,-56.922827,-31.271211,-48.102182,-30.280426,-34.670139,-28.651203,23.522272,269.969482,-71.29941,142.992233
70,-0.482483,0.324745,-0.268593,2.128351,0.0,-67.148438,-37.667656,-100.211449,-32.994919,-103.538418,-26.270714,-92.106228,-18.960228,-71.665707,0.0,19.485466,26.53267,42.673548,44.929168,56.074129,57.943931,67.996157,66.260724,75.033605,0.0,59.50922,0.652714,54.623165,-8.316193,50.974674,-14.148617,47.724609,-16.665688,33.817635,0.0,-30.195303,-57.11663,-32.561424,-56.47952,-31.259355,-48.003937,-31.949138,-34.848382,-31.142863,23.312674,270.14845,-71.295118,144.974808
71,-0.128288,-0.128132,0.570145,2.378564,0.0,-66.987934,-37.593269,-99.672832,-33.16761,-103.599129,-26.63372,-92.083683,-19.459763,-71.519966,0.0,19.893204,27.140603,42.34201,45.220259,55.615756,57.981105,67.950956,66.180572,75.096035,0.0,59.277248,1.161003,52.647114,-8.075695,49.583187,-14.382877,48.7714,-17.326069,36.817303,0.0,-30.340417,-59.107957,-31.42145,-57.423869,-29.531054,-47.617256,-30.298982,-33.225334,-30.710271,23.575602,269.917998,-70.333757,147.251051
72,0.098076,0.061874,-0.30035,3.104193,0.0,-66.613541,-37.684135,-100.191765,-33.193932,-103.901711,-26.625824,-92.29929,-19.342003,-71.517735,0.0,19.911112,27.069405,42.354299,45.19383,55.992371,57.942264,67.784724,66.296107,74.857246,0.0,59.178314,1.594391,57.031288,-7.446671,54.116936,-13.222675,51.153088,-15.414162,37.226086,0.0,-30.64111,-59.569604,-32.892932,-57.60134,-29.353552,-47.411194,-28.44329,-32.481489,-25.394919,24.111757,269.781545,-70.196028,150.156918
73,-0.15049,0.110101,0.661125,2.599013,0.0,-66.841278,-37.65564,-99.916019,-33.19519,-103.792706,-26.571922,-91.992245,-19.224815,-71.247025,0.0,19.559381,27.282382,41.572539,45.126151,55.741541,57.691557,67.136345,65.900225,74.340271,0.0,59.95903,1.059837,57.677193,-8.398705,54.10778,-14.641571,53.115349,-17.016735,37.949295,0.0,-29.844468,-58.546183,-31.08806,-56.260368,-29.768947,-45.70889,-30.871007,-30.496614,-29.836194,24.524603,269.597791,-68.971567,152.462076
74,0.640984,-0.105593,-0.742893,3.400595,0.0,-68.062992,-37.726021,-100.414295,-33.26889,-104.08699,-26.718864,-92.305183,-19.381943,-71.749935,0.0,19.396484,27.707039,41.915006,45.780767,56.579,58.247373,68.03648,66.15618,74.792778,0.0,60.840626,1.208382,61.429653,-8.154659,59.808598,-13.819427,56.219501,-15.652599,38.185158,0.0,-29.479091,-58.915296,-33.643415,-55.901938,-30.924668,-44.753241,-31.174448,-29.22857,-28.90191,25.672646,269.097875,-69.207401,155.468348
75,-0.749588,0.114115,1.151962,3.163597,0.0,-67.789249,-37.227859,-100.256252,-32.731476,-103.879051,-26.189117,-92.033958,-19.045944,-71.933727,0.0,19.779954,27.607806,41.891047,45.794847,56.164284,58.358771,67.940273,66.251832,74.71874,0.0,59.804935,-1.467419,58.131237,-10.246925,54.438686,-15.596066,49.699059,-17.098846,33.715439,0.0,-30.625858,-56.677894,-30.891385,-52.790335,-27.257373,-41.257735,-26.314876,-25.170703,-26.574475,25.632048,268.563688,-67.346449,157.983643
76,-0.777626,0.081819,0.798626,4.324134,0.0,-67.260704,-36.799622,-99.321041,-32.306671,-103.204079,-25.890427,-91.670609,-18.917084,-71.050472,0.0,20.131622,27.90038,42.103345,45.757735,56.318599,58.097443,68.202713,65.878489,75.360141,0.0,58.792419,-0.452957,57.184982,-9.913387,40.751724,-15.891895,41.393337,-17.687302,36.796474,0.0,-32.02364,-56.080088,-29.494776,-51.866085,-25.090119,-39.670749,-24.155403,-22.548904,-26.916078,25.653534,268.357194,-65.748711,162.019465
77,0.602531,0.329747,-0.372791,4.358159,0.0,-67.661591,-36.83075,-99.4594,-32.218094,-102.995396,-25.744629,-91.595879,-18.778496,-71.136932,0.0,20.000217,28.14732,42.327808,46.065931,56.456981,58.437255,68.273602,66.284127,75.530325,0.0,57.122211,-1.508846,59.74371,-11.090012,53.726635,-16.155682,51.086941,-16.181087,39.41288,0.0,-30.488895,-56.195345,-27.119669,-50.879283,-22.322712,-37.764761,-20.918384,-19.99324,-18.63189,27.062931,268.155672,-65.314636,165.846354
78,-0.597725,0.71192,-0.820198,5.800463,0.0,-68.002338,-35.678902,-98.792267,-30.991631,-101.800404,-24.591064,-90.734539,-17.776566,-70.754871,0.0,19.256187,28.068279,42.805262,46.019371,56.445805,58.347594,67.969234,65.907388,75.230095,0.0,61.842213,2.752247,59.087505,-7.390938,53.890171,-12.351379,47.435875,-12.946529,36.403313,0.0,-25.169591,-55.077817,-23.828866,-48.282832,-16.775179,-33.948771,-13.685497,-15.555238,-10.898948,27.026424,268.352532,-65.573616,171.131757
79,-0.205307,-0.019019,-3.614502,-0.582306,0.0,-68.502846,-35.397148,-98.600006,-30.551376,-101.277809,-24.10984,-90.370045,-17.599754,-70.726948,0.0,18.496039,28.272364,42.914005,45.997944,56.039796,58.355127,67.814179,66.019527,75.070964,0.0,68.046856,10.127335,68.842907,-1.393661,65.761929,-7.706337,62.063885,-9.981537,50.146179,0.0,-9.468746,-43.952585,-9.559087,-34.828344,0.614355,-18.347715,6.439703,1.119164,11.224187,27.968903,267.6416,-68.040333,169.857538
80,0.726814,-1.204751,-7.435513,0.553345,0.0,-67.213612,-35.856628,-99.827042,-31.193848,-102.205753,-24.869957,-91.912823,-18.233757,-71.240616,0.0,17.333341,28.03444,42.154166,45.73995,55.496392,58.376493,67.857589,66.524089,76.281272,0.0,59.122066,18.960571,84.854279,9.282818,88.761406,3.489132,81.969337,1.717758,61.663284,0.0,-5.549757,-31.354204,3.959622,-19.155534,14.431133,-1.485838,22.425033,18.517343,29.589624,29.55019,265.704875,-74.621372,169.678909
81,-1.327858,-1.379936,-0.492496,5.172585,0.0,-66.670246,-36.135864,-99.063721,-31.428108,-101.826439,-24.990807,-91.476288,-18.099632,-71.660843,0.0,17.634991,28.471942,43.02849,46.276747,55.727092,58.812451,68.347826,66.643453,76.133009,0.0,70.062275,23.731327,87.103214,16.069908,94.462681,9.586143,83.796329,5.550556,66.8046,0.0,-1.313061,-15.192639,17.263933,0.981399,32.72389,18.236502,41.222414,36.918657,50.609526,29.368258,263.974984,-73.967943,174.501539
82,0.66925,4.556254,4.195404,15.571416,0.0,-65.068474,-33.775291,-100.025082,-30.27832,-102.410717,-25.308266,-92.173061,-20.196419,-73.414078,0.0,10.492321,24.38604,36.752363,41.496092,49.608614,53.56558,61.176195,60.86769,69.316937,0.0,73.100109,21.677799,85.962811,12.91769,89.10078,3.149071,74.617825,-5.977077,48.258247,0.0,-6.951553,-5.737725,14.620398,9.171912,41.141521,24.938213,50.21173,41.050501,59.198885,31.725626,268.006066,-68.084421,189.547783
83,-4.570656,18.737854,3.99931,16.617283,0.0,-61.655102,-30.155296,-92.528057,-26.987686,-94.971542,-21.521072,-83.973999,-14.427338,-59.201031,0.0,41.163936,7.675638,14.920443,15.975387,26.985671,24.288907,37.924201,31.568478,45.082926,0.0,72.840271,26.477566,83.918953,17.10743,86.527977,6.63002,69.478111,-4.962902,41.478653,0.0,-12.466482,3.756278,32.881847,17.960972,48.426093,32.178881,56.84817,45.881174,65.05869,29.131079,286.384224,-62.109003,205.80537
84,6.163101,24.485273,16.044445,24.778279,0.0,-64.28112,-25.740166,-97.466755,-19.199982,-96.149254,-11.675148,-78.038177,-4.082451,-53.109741,0.0,28.726353,7.171755,4.763797,-7.910228,-12.321554,-24.090997,-32.169371,-41.080573,-51.905976,0.0,59.038067,42.468739,80.074024,35.116024,72.227383,24.249229,59.266834,10.237885,41.649456,0.0,-7.669401,15.954763,45.672951,35.891254,57.569168,53.303944,73.247165,66.236085,81.675232,36.634455,310.917153,-44.724283,230.631305
85,-11.995926,-32.617926,-8.120041,4.9417,0.0,-61.076088,-10.112801,-83.894119,-1.940689,-75.840111,4.780083,-66.811638,9.494247,-46.615791,0.0,18.690553,23.876106,26.962823,27.689132,10.731481,27.823315,14.504925,25.045905,24.84639,0.0,67.093563,26.375885,87.799931,17.646275,85.673275,8.436012,74.148045,-0.312824,50.553532,0.0,-7.930111,16.92727,45.715374,36.429717,65.096729,53.023967,75.556693,65.083329,83.824085,25.739021,278.340769,-51.743832,235.614548
86,-18.038091,-6.457055,-3.847904,10.639966,0.0,-25.147849,-7.392168,-21.17549,-4.817191,-15.223704,-4.075928,-13.674002,-4.183073,-22.342101,0.0,2.868214,20.045697,27.398627,30.684583,28.447859,37.231608,33.552982,41.211144,44.947044,0.0,67.411194,23.307781,88.969002,15.819225,90.451012,9.148064,80.06813,2.734108,57.946243,0.0,-9.153264,17.914659,46.790572,36.407858,65.927642,50.81003,76.638498,60.585984,79.251343,8.395386,271.870206,-54.89728,246.241006
87,-18.038092,-6.457055,0.642414,7.425055,0.0,10.780392,-4.671535,41.54314,-7.693691,45.392704,-12.931938,39.463634,-17.860394,1.931591,0.0,-12.954125,16.215288,27.83443,33.680033,46.164237,46.639901,52.601039,57.376383,65.047699,0.0,66.962299,26.062717,91.869106,18.520889,93.468533,11.115131,83.259258,3.719273,60.295429,0.0,-7.97945,25.023243,48.894902,42.135826,67.151165,54.658995,77.641325,62.777815,80.17198,-9.095421,265.355954,-53.707581,253.608865
88,32.273197,2.999712,-0.539532,6.464342,0.0,-37.81683,-45.569057,-1.610298,-47.730846,12.185783,-45.606651,13.997498,-41.350079,-1.114426,0.0,-0.679008,23.673688,34.903,40.05354,50.33696,51.569622,54.460405,59.776128,58.842462,0.0,66.630707,29.116001,94.362488,21.212368,94.686813,13.21907,82.809448,5.606461,59.174538,0.0,-6.285327,29.073699,48.353784,46.445202,65.329281,58.009078,76.166787,64.754323,75.665559,23.857498,268.139401,-53.56739,259.856941
89,-4.797821,8.964307,1.583061,4.501235,0.0,-15.977097,-32.102108,17.374649,-37.903919,22.745132,-37.407417,20.195389,-34.101219,-0.110092,0.0,-9.920512,14.145599,25.887193,30.813147,41.441504,43.123524,50.63435,52.267957,55.089827,0.0,65.93502,29.839954,94.483795,22.30648,96.265755,14.39867,83.052177,6.752014,61.145897,0.0,-3.481365,31.467269,48.578061,48.639318,63.321528,59.765507,74.57023,66.229849,75.940286,20.134964,277.095449,-50.909042,264.349917
90,0.031586,-2.223509,-0.134296,3.984445,0.0,-29.009743,-39.258041,10.135803,-41.46904,23.558006,-40.840473,22.681961,-38.825397,6.771126,0.0,-7.213313,18.899393,32.265208,37.475584,47.871883,51.045052,53.640175,61.865762,59.359127,0.0,65.557537,30.880737,95.665112,24.623737,99.558506,17.935181,87.703114,11.739979,67.68362,0.0,-3.645559,32.133371,47.276486,50.319484,60.803902,62.280786,72.271941,69.46699,74.913562,20.758123,275.249513,-50.451765,268.711935
91,-6.1306,9.167898,0.522022,2.925796,0.0,-11.394424,-26.706448,25.643806,-31.576309,35.741615,-31.211643,32.986221,-28.070412,15.295486,0.0,-10.724997,17.662347,27.818252,34.59042,42.877263,46.185541,50.140902,54.984913,54.519377,0.0,66.202354,32.513351,96.851692,25.746231,99.406815,18.29916,86.458054,11.425953,66.133118,0.0,-5.667206,31.231012,48.578987,49.037608,62.033352,60.939691,73.128543,68.18499,76.258548,15.798626,284.693358,-48.75864,271.913678
92,2.049294,3.699714,-0.173721,1.418345,0.0,-11.262474,-26.502342,28.614006,-32.636433,33.631554,-33.140717,27.654762,-30.83971,5.856056,0.0,-15.03073,15.909067,29.42438,31.148637,41.936249,42.427597,50.437243,50.83084,55.847196,0.0,65.508385,33.000011,97.826958,24.983311,98.626671,16.583748,84.013367,8.992081,61.00914,0.0,-4.140303,32.935508,51.91104,50.785021,65.506937,62.019459,74.42876,68.251001,76.309492,18.595877,288.507265,-48.184404,273.446216
93,-13.425751,-6.069077,-0.570774,2.382331,0.0,-8.90173,-13.351765,31.527328,-17.331905,39.1325,-22.500572,32.663155,-28.006783,8.994827,0.0,-10.731913,20.973898,34.320447,38.31082,51.297179,50.283669,55.254145,59.095824,59.212655,0.0,66.086483,33.04287,97.393398,24.882088,98.88937,16.293354,83.59457,8.64418,61.278477,0.0,-3.396211,33.957972,51.73962,51.041409,66.841239,61.615179,74.886948,67.590951,76.453617,6.267271,282.603215,-47.658033,275.993574
94,-4.687157,12.492973,-0.406895,1.367833,0.0,4.546623,-9.820061,33.594818,-14.079494,42.704659,-15.787411,30.123711,-16.401329,11.149178,0.0,-12.211514,9.969234,26.070962,27.449355,42.711093,40.766696,49.021861,51.60062,52.513106,0.0,66.352501,33.116055,96.282349,24.632492,97.054825,15.83622,81.861992,8.265953,59.722023,0.0,-1.896849,34.783575,55.227222,52.20491,68.749389,62.947011,75.049289,68.941988,75.266836,2.627621,295.111919,-47.017422,277.377139
95,7.433853,-6.999471,-1.605206,0.161354,0.0,-11.638298,-16.651382,31.674728,-22.210579,38.009033,-28.904285,29.817352,-36.054497,5.067215,0.0,-14.766747,13.55366,31.930274,30.70212,49.221377,43.332549,54.246872,53.605409,57.475493,0.0,67.573986,33.967609,96.882076,25.505562,96.823483,16.626148,81.780796,8.679142,60.153065,0.0,0.215694,35.232994,54.190309,52.525888,66.619061,63.128311,74.008425,68.859305,74.139274,11.066036,288.08994,-47.618065,277.515985
96,-17.931862,16.540218,-0.831642,0.279174,0.0,19.841881,0.796452,46.531334,-4.971886,53.33828,-9.091816,38.402824,-12.289581,16.775322,0.0,-23.617865,1.04599,10.373513,16.619074,30.176438,30.269558,38.917147,41.883699,43.910965,0.0,67.419834,33.574104,96.629505,25.264778,95.978565,16.480579,81.148396,8.603153,60.222416,0.0,2.556529,34.26271,53.826599,51.838359,66.018477,62.616462,73.299221,68.391422,73.435936,-5.757008,304.542596,-47.340889,277.707596
97,15.820541,-18.032726,0.29623,-0.92885,0.0,-9.928036,-15.519676,31.237793,-24.365788,36.922302,-32.957954,24.648056,-40.773296,-4.754677,0.0,-11.149716,14.150416,33.995454,32.105583,49.856233,45.361976,55.315957,55.868747,58.710995,0.0,66.717339,33.040638,95.657501,24.410191,94.340172,15.302868,80.015259,7.003441,59.753838,0.0,4.55928,34.723615,54.494245,51.907026,66.266343,62.459183,74.658409,67.98177,75.295488,11.534157,286.427464,-45.574036,276.69634
98,-14.492054,8.759296,-0.842514,0.030134,0.0,15.406437,-7.327251,38.782597,-13.073101,49.032612,-15.567284,37.227001,-16.407681,18.532505,0.0,-8.280174,12.002119,24.90178,28.187396,40.648629,41.006967,46.60001,51.264883,49.860617,0.0,68.080902,32.027779,95.440063,23.343258,93.688202,14.485474,79.536324,6.608906,59.379387,0.0,5.223344,34.623271,54.198645,51.645266,66.4264,62.008096,74.707748,67.366427,75.911572,-1.818037,295.107087,-45.27669,276.646801
99,14.468822,-11.758699,0.009613,0.046683,0.0,-2.570457,-18.701763,32.159843,-27.866249,36.016159,-36.252995,23.67691,-43.709679,-7.464523,0.0,-11.87763,11.354604,37.126262,29.565974,52.312788,43.809941,58.88087,55.370298,62.335806,0.0,67.999649,32.019939,94.969139,23.585186,93.147812,14.773064,80.087128,6.770039,60.462799,0.0,7.13279,33.669289,53.796156,50.640957,65.639329,61.293521,74.529907,67.027232,76.084659,13.700838,283.318192,-44.217024,276.663289
100,-17.74292,12.119568,-0.948601,0.044769,0.0,19.525108,-4.656143,38.453407,-8.7327,49.941101,-10.902271,43.040771,-11.543083,26.087608,0.0,-8.496733,11.033996,22.863769,26.255905,39.692733,38.884049,46.588586,49.207977,51.931108,0.0,68.573914,30.885258,94.503708,22.783241,93.628807,14.474258,80.860405,7.117252,61.065445,0.0,8.205703,33.72542,53.388048,50.994293,65.483842,61.70873,73.993172,67.307085,75.621407,-3.034115,295.418124,-44.157658,276.688421
101,0.404606,1.466387,-0.035763,-0.1524,0.0,12.784367,-2.929516,39.910641,-6.667557,49.035473,-9.140911,41.891727,-10.636654,27.658138,0.0,-14.530119,9.167096,23.786382,23.910068,40.110659,35.267204,47.968276,43.721947,50.867952,0.0,68.852062,30.992374,93.621883,22.471733,92.103596,13.836594,79.196835,6.173115,59.88081,0.0,7.607836,33.080437,53.917681,50.424522,65.393378,61.460926,74.148351,67.374084,75.698348,-1.945524,296.80564,-43.509436,276.45715
102,-1.450882,-13.423181,-1.228237,0.665237,0.0,16.694927,-2.886086,53.173199,-11.705132,51.324863,-20.664024,37.331715,-29.638367,13.698063,0.0,-9.736434,11.168056,34.669645,30.026755,51.208814,44.577931,58.333391,56.696511,62.120976,0.0,69.765015,30.117302,93.618851,22.190495,92.972717,14.151077,80.79277,6.850319,60.91404,0.0,7.341753,31.591943,52.770852,49.112079,64.759757,60.488481,73.629524,66.903916,76.144495,-2.865944,283.354995,-44.207211,277.094924
103,0.428238,-0.22718,0.51075,0.417495,0.0,16.275272,-2.918015,51.172314,-12.05246,51.633053,-21.356621,37.384701,-30.973835,13.213406,0.0,-10.269588,10.429336,34.468154,29.638222,51.166391,44.801097,58.523212,57.438813,61.938689,0.0,70.118408,28.199501,92.231598,20.285683,92.198868,12.457581,79.853668,5.526009,59.981918,0.0,6.723385,32.339061,52.578932,49.828013,64.58315,61.097093,72.434221,67.355373,74.789382,-1.984835,283.12286,-43.243589,277.507463
104,12.681313,1.529002,-0.486145,-0.589161,0.0,2.245502,-13.92271,32.752018,-21.33482,35.912991,-28.367157,24.37048,-35.636387,0.716572,0.0,-12.086655,11.316442,29.271795,30.687423,47.231532,45.379452,56.121985,57.10394,59.467685,0.0,69.475021,29.473228,92.342033,20.8461,90.587769,12.291813,77.488632,4.698601,57.722397,0.0,6.438036,33.004422,53.465236,50.16764,65.038127,61.308526,73.511642,67.677711,75.518531,10.994024,284.643618,-43.432188,276.910059
105,-14.332352,16.213435,0.361519,0.922613,0.0,23.22607,-1.941147,39.747334,-9.351768,47.340488,-12.930107,39.065037,-15.02655,26.15118,0.0,-5.959409,-4.314193,4.573791,13.655239,31.325552,30.937697,39.279375,45.532716,44.879458,0.0,70.556259,27.758789,91.138916,19.267902,89.199486,11.226711,76.64566,4.258633,57.211075,0.0,5.831771,32.000175,52.704594,49.107015,64.349425,60.326571,72.740874,66.729286,74.79494,-2.977924,300.844364,-42.710266,277.819982
106,2.37711,-15.303481,0.184193,-0.451828,0.0,16.670265,-2.106571,48.643227,-8.713989,48.849564,-16.193848,37.632294,-24.783783,16.162834,0.0,-16.611725,7.222019,22.629056,26.606338,44.210022,42.537142,54.291209,55.949023,59.574636,0.0,70.851574,26.580048,90.59206,17.905884,89.167042,9.862347,76.6012,3.033485,56.975956,0.0,6.436801,32.239458,52.755229,49.600463,65.205409,60.896589,73.512507,67.068357,76.065454,-0.480967,285.493706,-42.406225,277.320977
107,2.951088,0.89322,-0.08606,-0.290968,0.0,8.680515,-5.677013,44.709091,-12.117348,46.383362,-19.238319,35.787048,-27.230301,13.42083,0.0,-17.601523,8.21546,23.19611,27.751438,44.398484,43.270984,53.536372,56.163852,58.905756,0.0,70.507679,26.796913,90.437908,17.80117,88.422146,9.495678,75.521908,2.55621,55.723286,0.0,6.680407,32.853689,53.711929,50.219264,65.447533,61.595789,73.11681,67.862591,75.074669,2.584105,286.350199,-42.378302,276.993283
108,3.811226,-0.744525,-0.07782,-0.333576,0.0,5.566864,-10.642147,39.055824,-17.367496,41.581764,-23.953972,30.114212,-31.070538,6.629791,0.0,-16.298527,9.255955,25.218992,28.745373,45.638556,43.905099,54.43694,55.926978,58.994862,0.0,69.988346,27.07077,90.571804,17.692165,88.564968,9.099712,75.35368,1.960773,55.064564,0.0,6.473975,33.197577,53.713596,50.647132,65.422709,62.010505,73.432046,68.101565,75.228489,6.600151,285.602016,-42.251301,276.656048
109,-6.882877,10.441501,-0.517159,-0.219646,0.0,26.369305,-6.400566,38.75845,-14.116516,43.097706,-17.921619,27.714901,-19.963932,9.337978,0.0,-2.143048,2.029057,17.008472,22.815542,35.676177,40.80529,43.121671,54.866785,49.316596,0.0,69.029217,26.296234,90.319004,17.156353,89.343052,8.944416,76.960659,2.246761,57.01086,0.0,6.837685,32.858444,53.709088,50.459781,65.280992,62.014889,73.872759,68.155967,76.348086,-0.171003,296.007269,-42.656736,276.400155
110,25.990963,-8.88397,0.366096,0.1411,0.0,-18.934536,-30.566025,16.090736,-38.035069,22.173843,-42.579403,11.826324,-46.128216,-9.904861,0.0,-14.56649,13.220269,29.010652,32.469108,48.086281,46.420316,54.496097,56.812355,58.752306,0.0,69.778576,26.033478,90.280666,16.848221,89.229069,8.638859,76.257191,2.099762,56.525288,0.0,6.922406,33.242964,53.721623,50.66399,65.445248,61.993709,73.696708,67.89853,76.129489,25.982924,287.11717,-42.127676,276.535126
111,-28.205051,11.876827,0.128975,0.018278,0.0,24.833851,-2.861652,41.251087,-11.163769,46.784763,-15.59206,39.16048,-18.715382,20.657215,0.0,-17.254485,1.386173,14.294479,19.808482,33.102976,35.263437,42.62526,47.234125,47.297049,0.0,68.894176,26.101971,90.612087,16.718388,89.05077,8.307095,76.092281,1.561604,56.177616,0.0,6.747591,33.178126,53.389406,50.780884,65.283894,62.186802,73.580618,68.174925,75.961775,-2.022228,298.981184,-41.798801,276.54059
112,23.884335,-12.045653,-0.489864,-0.045325,0.0,-11.040688,-25.405483,22.029877,-33.09185,26.431961,-38.329239,15.588684,-42.820415,-7.218933,0.0,-16.83415,11.056535,27.064835,30.414548,47.076538,44.76522,54.33956,55.596366,59.132256,0.0,69.458656,26.634235,91.178741,17.344894,89.185638,8.998604,76.16478,2.271366,56.349335,0.0,6.37221,33.098962,53.550513,50.504921,65.720469,61.762206,73.243522,67.739214,75.471909,21.974344,286.914552,-42.176428,276.474286
113,-23.686008,9.760579,0.122852,0.010868,0.0,26.688251,-5.024643,40.730953,-13.396912,47.455845,-17.789383,39.400921,-20.247746,19.86517,0.0,-13.080775,4.860128,19.813546,23.106387,37.630454,38.159346,45.96855,49.576998,50.347519,0.0,69.599361,26.233406,91.676731,17.026176,89.981976,8.80188,76.605663,2.221928,56.370449,0.0,6.828175,33.186092,52.949867,50.683997,65.464761,61.962092,73.323798,67.891923,75.715021,-1.680336,296.638265,-42.022247,276.448289
114,24.624081,-10.734321,0.580559,0.269047,0.0,-9.340324,-25.982265,22.118568,-34.057446,25.064621,-39.495564,13.495102,-43.92374,-9.307137,0.0,-13.115788,11.183741,30.096719,30.567133,50.07378,44.852659,57.150809,55.899128,61.984755,0.0,70.50436,26.839428,91.434116,17.508888,89.44067,8.975029,75.820713,2.038136,55.792866,0.0,6.897953,33.124465,52.854895,50.478801,65.598265,61.572941,73.14219,67.442503,74.997296,22.966633,285.900347,-41.4188,276.713739
115,-19.014816,12.082456,0.698719,-0.053476,0.0,20.486412,-10.814209,34.965019,-18.843842,42.557831,-22.075825,35.548553,-22.859516,14.566612,0.0,-15.671575,3.315812,17.861986,21.100301,34.671621,35.968318,44.501237,47.413263,50.085821,0.0,70.096207,26.080685,90.610542,16.922779,89.022675,8.644524,75.745468,1.937943,55.649185,0.0,6.838426,32.841216,52.63247,50.390744,65.099507,61.743187,72.736613,67.79763,74.852429,3.953047,297.977833,-40.718851,276.655292
116,-12.30732,-14.418968,0.135956,0.056069,0.0,32.63649,1.657734,62.545967,-5.334721,59.910049,-9.958305,50.306854,-12.427425,29.7155,0.0,-1.476452,14.163877,41.581616,31.53785,56.72856,44.570521,62.045517,53.465853,66.213423,0.0,70.52536,25.797043,90.486832,16.693439,88.916702,8.625641,75.70015,2.083683,55.956116,0.0,6.889246,32.730188,52.973888,50.227168,64.370544,61.504522,72.567417,67.504995,75.052377,-8.361626,283.552859,-40.590248,276.705356
117,9.128952,2.154595,0.0947,0.267873,0.0,15.129776,-1.363907,47.681122,-7.916908,48.144493,-14.727516,35.274582,-21.976318,13.440971,0.0,-9.363277,11.501693,26.89743,30.708542,47.101856,45.243909,55.596551,56.419561,59.509243,0.0,70.61285,25.810661,89.984493,16.885529,88.911953,9.018288,75.392818,2.697601,55.637226,0.0,6.020974,31.988257,52.687119,49.53581,64.316512,61.027315,72.413844,67.298934,75.004582,0.750132,285.697667,-40.512743,276.963442
118,20.540657,-0.951759,0.415764,-0.5355,0.0,-3.469849,-27.149162,22.386131,-35.242825,25.262833,-39.182739,14.743423,-41.096363,-11.667709,0.0,-8.014648,12.828895,28.818238,33.007633,48.502046,47.802908,56.517867,58.736313,61.990312,0.0,70.807171,25.151367,89.829655,16.274242,89.016209,8.400879,75.397167,2.008266,54.992466,0.0,7.304024,32.149734,52.659022,49.733905,64.242782,61.322358,73.225862,67.556309,76.543464,21.266012,284.738529,-40.121756,276.420563
119,-22.024956,17.323152,-0.265675,0.25719,0.0,25.006714,-3.553505,44.046249,-11.953125,47.286301,-16.732578,37.222252,-19.667015,15.105629,0.0,-21.605296,-0.300786,16.613516,17.018352,33.870718,31.71532,42.797482,43.213371,48.194159,0.0,70.410461,25.454006,90.115585,16.629238,89.007683,8.752785,75.25898,2.44503,55.577545,0.0,6.547211,32.307816,51.909743,49.793,63.640777,61.330015,72.489982,67.615837,75.55978,-0.861139,302.05955,-40.489626,276.675623
120,-7.110214,-18.091327,-0.06506,-0.054958,0.0,30.456505,2.171288,58.853989,-5.052624,56.716003,-12.234421,42.674217,-19.37542,20.377121,0.0,-9.350741,11.798157,27.030564,32.121268,46.255752,47.957346,57.583371,60.251606,61.378798,0.0,70.477467,24.872303,90.308247,16.496544,90.267162,8.98098,76.754436,2.900047,56.354542,0.0,6.840649,32.766312,51.716402,49.987947,63.620585,61.340636,72.575197,67.475725,76.130416,-8.099499,283.965645,-40.682831,276.618087
