takenoko1/special-research/HandMotion_SimilarSearch_自分用/NewProject/handData/test_key/d4_feature_d2/101.csv
frame,vel_0x_L,vel_0y_L,vel_0x_R,vel_0y_R,posFromWrist_0x_L,posFromWrist_1x_L,posFromWrist_2x_L,posFromWrist_3x_L,posFromWrist_4x_L,posFromWrist_5x_L,posFromWrist_6x_L,posFromWrist_7x_L,posFromWrist_8x_L,posFromWrist_9x_L,posFromWrist_0y_L,posFromWrist_1y_L,posFromWrist_2y_L,posFromWrist_3y_L,posFromWrist_4y_L,posFromWrist_5y_L,posFromWrist_6y_L,posFromWrist_7y_L,posFromWrist_8y_L,posFromWrist_9y_L,posFromWrist_0x_R,posFromWrist_1x_R,posFromWrist_2x_R,posFromWrist_3x_R,posFromWrist_4x_R,posFromWrist_5x_R,posFromWrist_6x_R,posFromWrist_7x_R,posFromWrist_8x_R,posFromWrist_9x_R,posFromWrist_0y_R,posFromWrist_1y_R,posFromWrist_2y_R,posFromWrist_3y_R,posFromWrist_4y_R,posFromWrist_5y_R,posFromWrist_6y_R,posFromWrist_7y_R,posFromWrist_8y_R,posFromWrist_9y_R,posFromBody_0x_L,posFromBody_0y_L,posFromBody_0x_R,posFromBody_0y_R
2,-9.72456,7.154588,1.832714,-0.823627,0.0,25.49509,-12.340679,33.407078,-18.34116,39.830303,-19.090862,30.252743,-17.769127,16.993847,0.0,-6.67417,5.221677,18.217607,27.169749,35.507722,44.143826,41.875301,57.100791,48.318833,0.0,70.906162,25.597744,89.322453,17.308216,88.073673,9.761467,75.920506,3.78067,57.190189,0.0,7.287969,32.593226,50.645403,50.077176,61.507115,61.522182,70.462407,67.491718,72.996644,9.775229,292.212027,-33.73086,275.104693
3,-9.844322,9.723158,0.629654,0.129182,0.0,23.098583,5.02985,48.767338,-1.683369,53.249073,-6.210995,43.311138,-10.46608,23.008862,0.0,-27.953115,1.536227,13.873033,18.153695,30.120245,31.899831,37.139415,42.67114,42.05765,0.0,69.589863,23.978119,88.486462,15.584049,87.724171,8.538837,75.741291,3.439064,57.351551,0.0,7.098951,32.410198,49.264602,50.161589,60.604386,61.907814,70.098018,68.069826,73.149723,-0.378742,301.784792,-33.410854,275.083481
4,7.984543,-20.787659,-0.63652,0.121772,0.0,14.887447,-1.207924,46.552219,-8.591938,44.154339,-16.665173,27.146244,-25.533829,-0.514126,0.0,-14.524006,12.454441,28.443166,32.672266,45.311341,47.624882,53.913111,58.704635,56.865769,0.0,69.668941,25.502758,89.841328,16.920948,88.34753,9.453621,76.195736,3.795204,56.957531,0.0,6.087541,32.892777,49.160553,50.37364,60.716093,61.789068,69.301808,67.822206,72.583534,7.39995,280.900355,-34.253225,275.108475
5,-1.233444,0.581565,0.185966,-0.265897,0.0,12.847424,-4.672794,47.321835,-10.995655,47.651882,-17.686787,32.269421,-24.941196,4.111061,0.0,-14.332641,12.949617,30.200768,33.194984,47.291985,47.905908,54.671901,58.589841,56.079995,0.0,69.520283,24.996872,89.665546,16.376381,88.425694,8.964729,76.618137,3.357582,57.318134,0.0,6.608961,32.648493,49.363279,50.222413,60.626246,61.764059,69.688736,67.780401,72.956939,6.021738,281.395655,-34.212027,274.756312
6,2.494068,0.662088,0.237064,0.036741,0.0,10.52639,-7.284794,44.982605,-14.695129,44.14238,-22.145805,27.258911,-29.540348,-2.547913,0.0,-15.332936,13.133078,29.047641,33.252288,45.512215,47.73912,53.440165,58.289301,56.496934,0.0,69.768677,24.49482,89.415665,15.934296,88.484802,8.662033,76.370087,3.240738,57.051086,0.0,6.634588,32.959653,49.283374,50.445085,60.757033,61.844705,69.470942,67.742054,72.671158,8.395271,281.958973,-34.095497,274.694284
7,1.305428,0.474305,0.441971,0.384705,0.0,12.796555,-4.810123,43.259239,-11.585369,43.446693,-18.439808,28.442802,-26.036968,0.118904,0.0,-14.674862,11.924005,23.53549,31.975784,42.342319,46.902711,51.954388,58.257006,55.495034,0.0,69.319839,24.711285,89.055634,16.049423,87.938232,8.609734,75.792961,2.942619,56.728821,0.0,6.580865,32.477506,49.335183,50.039076,60.317123,61.60851,69.015286,67.778919,72.275708,9.553328,282.317465,-33.800898,274.963176
8,2.86377,0.269973,-0.274086,0.027602,0.0,8.464508,-6.85667,38.918495,-13.469639,39.188576,-20.243397,24.523087,-27.73035,-3.470192,0.0,-14.537591,12.047691,21.50841,32.120527,40.980476,47.156134,50.339553,58.438984,53.140676,0.0,69.30748,25.615311,89.638138,16.912537,87.740936,9.245224,75.839996,3.268661,56.90712,0.0,6.07939,32.491276,49.79652,50.031542,60.220546,61.602149,69.27896,67.740943,72.746678,12.266521,282.501373,-34.225559,274.904714
9,11.041718,-1.571177,0.922279,0.172469,0.0,-4.148598,-18.802528,25.745087,-26.165771,26.803894,-32.072296,13.427353,-37.616215,-12.916203,0.0,-11.536891,14.759583,27.172096,34.50823,45.643435,48.673404,52.791909,58.934902,55.377955,0.0,69.069328,24.967403,88.858566,16.12278,87.359505,8.409176,75.277176,2.539558,56.641388,0.0,6.482311,32.394081,50.121513,50.005731,61.118582,61.54713,69.418516,67.580515,72.332457,23.244352,280.867334,-33.367167,275.014321
10,-24.47319,18.92681,0.213318,-0.097689,0.0,29.679451,2.785435,52.279472,-4.788494,53.420906,-9.407959,39.00547,-12.406769,18.741875,0.0,-19.902714,-7.678911,7.620433,9.594532,29.839281,26.004272,38.659648,39.604553,43.728863,0.0,68.699112,25.030575,88.78109,16.381989,87.403679,8.707237,75.306931,2.754364,56.703644,0.0,5.852457,32.502268,50.161156,50.021971,60.961921,61.523479,69.536954,67.577428,72.647754,-1.289263,299.765615,-33.214273,274.888103
11,15.973206,-18.515985,-0.16983,-0.574464,0.0,6.902733,-9.463749,36.079445,-16.597939,38.239861,-23.474007,25.359879,-30.793419,0.934067,0.0,-15.36023,10.470462,24.636932,30.720521,45.578782,46.094274,53.747373,58.059775,57.345879,0.0,68.977318,24.97839,88.775482,16.42107,87.30217,8.833466,75.615005,2.98439,56.934471,0.0,6.244449,32.233036,49.809673,49.933915,60.391285,61.673656,69.618896,67.782501,73.135459,14.558973,281.23762,-33.509073,274.301629
12,-9.272976,11.878927,-0.210342,-0.161416,0.0,23.812122,-4.939728,37.159939,-12.355728,44.56358,-15.736027,34.146023,-17.177467,19.466,0.0,-11.774569,-1.664235,14.751556,17.526496,36.746682,34.707375,46.035735,48.350017,50.407417,0.0,69.108925,25.360737,89.191017,16.789055,87.565384,9.167004,75.657692,3.378353,57.451973,0.0,6.655521,32.942795,50.017216,50.386731,60.771977,61.899292,69.472672,67.883339,72.866351,5.183258,293.053361,-33.822155,274.077027
13,2.507572,-11.342624,-0.634861,-0.214583,0.0,15.345268,-4.166508,44.727859,-10.929165,45.90168,-17.223473,34.268532,-24.434509,14.396324,0.0,-14.468739,8.76473,22.054715,28.82182,44.095846,44.648512,52.833961,56.950676,56.675701,0.0,69.185543,25.36377,88.994122,16.926384,88.13776,9.348392,76.107159,3.667774,57.685261,0.0,6.775193,33.043386,50.632991,50.655715,62.178836,62.168586,70.125373,68.064453,73.172324,7.619133,281.692705,-34.528713,273.844413
14,0.492496,-0.380197,-0.232601,-0.122328,0.0,15.213375,-3.724251,43.095303,-10.549622,44.639912,-17.172661,32.880878,-24.735775,12.143154,0.0,-13.071451,9.391126,23.230073,29.392579,44.575152,45.113307,53.128264,57.110054,56.917516,0.0,69.532242,25.215054,89.276505,16.762218,88.233261,9.226284,75.984879,3.546352,57.428856,0.0,7.010277,33.146386,51.029923,50.64318,62.594108,62.090966,70.339833,67.925453,73.209868,8.056583,281.268557,-34.81636,273.678135
15,16.293812,-0.828691,-0.296631,-0.01198,0.0,-4.783287,-23.481731,23.794899,-30.806122,27.519379,-35.479202,16.535568,-39.244194,-8.037643,0.0,-11.867009,13.032671,28.371474,33.011214,48.665067,47.587461,55.508989,58.11109,58.687839,0.0,70.064049,25.393467,89.228897,17.16156,88.295403,9.831333,75.992546,4.407005,57.93663,0.0,6.673367,33.526336,50.790825,51.163736,62.279304,62.57373,69.643103,68.373514,72.722534,24.239645,280.398185,-35.223742,273.624474
16,-27.746487,15.260009,-0.10128,-0.101826,0.0,33.248234,5.047417,47.732449,-1.830311,54.682789,-7.074337,44.415493,-11.117363,23.672619,0.0,-15.456437,-1.595569,11.334473,16.204234,32.622372,32.156033,41.72006,44.947013,47.230111,0.0,70.057755,25.771408,89.647865,17.421112,88.378258,9.919739,76.078033,4.278488,57.947617,0.0,6.708441,33.358437,50.62799,50.983981,62.324814,62.442572,69.714363,68.340478,72.881603,-3.634615,295.593603,-35.452795,273.458056
17,25.988331,-15.329046,-0.100536,-0.133751,0.0,-3.862953,-23.710613,24.137535,-30.495701,29.483986,-34.587879,19.223328,-37.74662,-0.92617,0.0,-7.563499,13.155555,28.837689,32.843439,48.506492,47.687867,55.762907,58.500982,59.843312,0.0,69.768047,25.408344,89.834576,16.940632,88.750591,9.413452,76.190014,3.757668,57.631016,0.0,6.674602,33.006336,50.730927,50.712835,62.216072,62.330866,69.660022,68.462435,72.819297,22.157507,280.2278,-35.74954,273.287548
18,-26.629086,17.278012,-0.030098,0.134554,0.0,33.273754,4.361515,50.162258,-3.520088,55.491085,-8.753815,44.030972,-12.358418,22.771397,0.0,-18.235082,-3.894969,14.151157,13.697476,34.831308,29.460566,41.788789,42.273776,45.849619,0.0,70.709095,25.762825,89.781017,17.209625,88.662357,9.464436,75.94614,3.536797,57.34766,0.0,6.782727,33.071545,50.497017,50.770818,62.178219,62.383601,69.210912,68.50918,72.427367,-4.575033,297.464965,-35.883093,273.381254
19,9.504948,-16.824764,0.249996,-0.078114,0.0,17.03476,-0.847034,45.022545,-7.849674,45.921135,-15.197811,33.309517,-23.070602,11.403694,0.0,-10.900491,11.281306,24.82064,30.738367,46.022767,45.872282,54.223963,57.447458,57.718048,0.0,70.553169,25.474148,90.079536,16.797867,88.512497,9.104004,76.36322,3.354721,57.936172,0.0,6.923086,32.978857,50.525854,50.623914,61.668222,62.200202,69.29236,68.33492,72.595143,4.873095,280.619066,-35.689917,273.282006
20,2.62104,-0.457632,-0.188713,0.100591,0.0,15.166397,-5.402355,42.801819,-12.236881,45.23838,-18.76997,32.707558,-25.507336,11.857796,0.0,-9.62479,10.84257,26.790416,30.051764,47.42444,45.2972,55.76124,56.968213,59.221486,0.0,70.77816,25.643978,90.025635,17.206535,88.397369,9.623108,76.391945,3.927956,58.270454,0.0,6.501763,33.13416,50.350113,50.740684,61.628887,62.28974,69.13397,68.409515,72.55482,7.391653,280.153638,-35.981112,273.374801
21,12.990875,-1.373823,0.172176,0.046745,0.0,1.964149,-23.796558,27.039413,-31.369457,30.733795,-36.118698,20.217133,-39.60165,-0.99369,0.0,-8.080535,12.398309,31.933238,31.4338,52.078074,46.111626,59.023082,57.028852,62.436027,0.0,70.021648,25.249729,89.755039,16.729832,88.484516,9.10429,76.122036,3.377151,57.588673,0.0,6.31151,32.965457,49.893777,50.508194,61.984446,62.027424,69.484034,68.112557,72.665353,20.241451,278.778472,-35.950012,273.420203
22,-26.600418,19.919201,0.205936,0.09596,0.0,30.27523,4.867458,54.131241,-2.4963,57.012978,-7.549839,43.37574,-11.22139,22.732086,0.0,-20.092596,-3.495073,15.767288,13.094298,33.307184,27.800468,39.603133,39.604121,43.626851,0.0,70.094147,25.421333,89.503441,16.664143,87.445679,8.862877,74.942322,3.032169,56.951637,0.0,6.448163,32.625274,50.199503,50.366291,62.137402,61.989942,69.506202,68.148002,72.489673,-6.497698,298.688132,-35.882807,273.506623
23,12.347603,-19.158806,0.590973,-0.433364,0.0,22.747993,-5.105038,46.891022,-12.758732,46.915398,-20.135651,35.195389,-27.55537,13.302956,0.0,-14.675973,7.921899,25.021576,27.188583,47.237768,42.994404,56.823841,55.603158,60.855278,0.0,70.708122,25.348892,89.338531,16.530476,87.503815,8.66684,74.752808,2.775192,56.93264,0.0,6.822247,32.714566,50.205555,50.438107,62.460356,62.087137,69.530717,68.283853,72.889754,5.660591,279.505984,-35.481148,273.049917
24,1.877975,1.553949,-0.132236,-0.646897,0.0,14.498634,-4.350243,45.2005,-12.239799,45.094414,-19.822884,32.075615,-27.627926,8.398247,0.0,-16.656186,8.880141,24.46082,28.499297,45.704629,43.868357,54.663935,55.996632,57.938497,0.0,69.49625,25.330696,90.000401,16.5588,88.260555,8.888111,75.941677,3.09391,57.682629,0.0,6.234692,32.601439,50.621938,50.166035,62.378043,61.836616,70.365335,68.190733,73.926914,7.457142,281.050594,-35.694809,272.39368
25,23.264465,1.429646,-0.097904,-0.44485,0.0,-13.517761,-24.649944,20.869789,-33.413315,21.144218,-39.715233,8.528595,-44.8106,-18.68763,0.0,-14.048466,11.516946,24.678429,31.207176,44.892179,45.901613,52.510945,57.076709,55.903636,0.0,70.264778,26.900883,91.256561,18.472309,89.679108,10.447197,76.272926,3.664513,56.159134,0.0,6.432911,32.496834,48.742441,49.530376,62.90144,60.668792,71.417995,66.796841,74.8888,30.618696,282.420912,-35.895624,271.889503
26,-12.59079,6.127185,0.83559,-1.75754,0.0,7.389908,-19.384346,28.705902,-29.843445,32.533722,-33.931904,21.572342,-34.457302,1.18721,0.0,-13.750952,5.897226,24.905855,24.179547,41.823554,38.388379,49.387177,48.403801,51.041717,0.0,71.118565,26.249371,92.184048,17.318001,89.178028,8.951569,74.579487,1.874256,54.649944,0.0,5.571801,30.095792,48.789186,47.505148,63.739578,59.232786,72.141216,65.96426,74.708057,17.925797,288.516465,-35.162144,270.100331
27,-20.307312,-4.398297,2.037792,-4.003279,0.0,21.557121,0.16571,52.819862,-7.433453,57.384224,-12.574482,52.507324,-14.662743,29.996109,0.0,-9.496781,10.147013,33.910362,26.055957,48.704155,38.151381,54.387169,46.984839,58.858084,0.0,69.811134,24.404068,89.284172,16.170502,88.265533,8.189735,75.303383,1.195908,55.178833,0.0,6.095877,28.25526,51.519542,45.397421,66.890825,57.340877,76.530003,64.49954,79.635987,-2.664614,284.133097,-33.40745,266.11198
28,29.496117,-15.081241,4.624043,-7.08586,0.0,-10.165443,-18.852196,20.725822,-29.824162,19.050865,-39.485493,6.830864,-46.782761,-40.977859,0.0,-5.251132,15.700413,44.929229,33.239259,58.256265,45.642014,65.422647,55.657252,72.860176,0.0,66.962299,22.276897,82.133846,13.186798,81.262722,3.460464,67.395573,-6.09272,47.471294,0.0,6.526648,20.421232,51.846449,36.909148,71.211316,50.251806,81.511347,60.635941,84.77146,26.762238,269.047996,-28.852673,259.022261
29,-5.644913,38.617287,4.260693,-8.834446,0.0,-48.738499,-35.357494,-34.512691,-36.096039,17.623787,-30.391045,21.676712,-21.040993,0.061798,0.0,25.310259,1.676709,20.741531,-9.9751,8.473392,-20.834466,0.634424,-29.638407,-5.727042,0.0,65.566292,20.231323,74.79847,9.253006,68.340454,-2.465744,48.912163,-14.026451,17.838078,0.0,9.233663,18.278492,51.174851,34.227018,71.418365,47.350957,82.634957,56.284451,79.985494,20.959768,307.624899,-24.749537,250.14743
30,-16.391544,-14.080885,2.147312,0.944596,0.0,-33.027821,-8.396873,-1.965351,-3.84161,10.493832,-0.83004,18.973789,2.529602,17.68507,0.0,34.378863,1.294103,16.436848,-16.727754,6.754322,-33.948956,-8.299564,-50.254091,-30.774121,0.0,56.580677,15.553207,63.079891,6.326523,54.703503,-3.262539,37.194042,-13.131638,17.041168,0.0,17.634127,6.234445,40.206002,13.641098,48.937201,20.895907,55.385921,27.980532,57.687482,4.441824,293.504972,-22.728624,251.052984
31,4.017963,-18.826774,-1.879663,-34.091785,0.0,-36.032925,-13.641357,-36.243382,-4.759483,-34.98127,4.663239,-24.84026,15.328217,-7.794456,0.0,-6.112426,4.740023,19.796318,15.361773,36.423913,25.158106,44.634556,32.677083,48.870388,0.0,57.273416,36.045398,51.76898,30.865402,44.240169,21.582956,31.947956,10.294532,19.457931,0.0,9.567392,7.005522,38.85552,19.985922,55.76655,32.078104,66.37737,42.365599,69.126437,8.510599,274.540325,-24.557476,216.823326
32,71.48243,-51.960502,-1.879664,-34.091785,0.0,-63.987808,-39.41082,-97.53891,-32.716599,-96.072121,-23.969879,-83.656254,-14.192848,-64.614372,0.0,16.33286,25.322856,62.23929,41.60292,75.613379,54.253356,86.2757,63.122259,88.406583,0.0,57.966156,56.53759,40.458069,55.404282,33.776836,46.428452,26.70187,33.720703,21.874695,0.0,1.500659,7.7766,37.505039,26.330746,62.595899,43.260301,77.36882,56.750666,80.565392,80.105782,222.366491,-26.324387,182.518209
33,9.781036,-13.09788,-3.774719,-22.504629,0.0,-60.023575,-38.960838,-88.865719,-33.702736,-87.476063,-26.709824,-78.132019,-19.106369,-65.150986,0.0,14.454351,28.086187,55.485586,44.934787,69.617414,56.538183,75.683466,63.826893,80.000314,0.0,58.899307,23.793125,51.582756,14.552078,43.789101,5.306511,30.184765,-2.977123,14.847679,0.0,-8.471539,-6.602478,12.464691,5.886605,22.757682,19.19598,31.687903,33.049685,38.952901,89.861212,209.282474,-30.124712,160.027443
34,-3.336296,19.648611,8.368664,8.980115,0.0,-44.483643,-41.04847,-47.886086,-37.670288,-44.601173,-30.589485,-39.366188,-21.012955,-32.580757,0.0,15.593152,16.568315,15.712207,13.544706,12.913617,8.321671,7.456053,1.647007,1.555925,0.0,48.087673,13.408813,51.952114,3.606434,45.82243,-6.475239,33.921375,-15.781689,17.285213,0.0,-15.017762,-20.768887,-36.394149,-16.452409,-27.180555,-9.123191,-15.680159,1.855229,-3.508226,86.82169,229.402842,-21.459274,169.479316
35,40.128136,-57.953132,-6.278687,-56.003486,0.0,-20.838661,-27.515717,-52.678986,-35.351486,-63.308372,-39.783096,-65.391769,-40.435295,-62.99572,0.0,-43.670385,1.278234,7.709848,17.888539,22.610716,32.255636,36.880804,44.513093,49.20736,0.0,53.587017,14.691925,53.578777,6.395359,49.28484,1.798439,41.540394,0.082569,32.876472,0.0,-2.529112,-20.716244,-2.826347,-6.296134,7.977721,9.342405,16.502057,26.206504,25.717256,127.386875,172.510273,-27.300911,114.536393
36,11.33503,-20.476745,4.113235,-24.570582,0.0,-1.746597,-31.077003,-31.517372,-42.31842,-41.373482,-49.582214,-48.982201,-52.800522,-57.415237,0.0,-48.073437,-9.118869,-6.556103,4.680002,6.442853,18.299735,21.551141,31.257194,32.827507,0.0,55.052204,8.626041,56.281986,-0.607853,57.805996,-4.441566,51.399937,-3.586693,39.79311,0.0,-7.458585,-25.584462,-4.744963,-8.538106,8.937724,11.491319,20.735325,32.385652,28.008289,138.859577,154.719316,-23.050003,92.651599
37,-18.332977,25.188364,9.166088,-18.959846,0.0,-39.292259,-21.033096,-34.610481,-7.68734,-20.472336,7.8899,-6.304321,24.65641,25.117035,0.0,-29.671258,-22.643814,-47.799512,-33.59031,-61.114074,-41.109719,-71.060151,-45.283059,-85.312455,0.0,51.253052,4.426117,51.788406,-7.967262,51.460533,-14.187584,48.9608,-14.79372,31.330147,0.0,-6.048391,-32.180054,-6.581143,-16.11164,10.367524,5.325603,24.306969,28.288512,31.79714,121.256161,182.308335,-13.154354,76.092408
38,29.880638,-60.639831,18.084011,12.017587,0.0,21.461105,-30.689964,-22.858315,-46.585922,-38.096581,-57.530479,-49.38652,-64.992256,-58.264847,0.0,-55.5524,-31.868091,-27.54726,-22.607567,-21.311302,-10.765042,-12.261254,2.420122,-1.572104,0.0,28.428326,-12.736015,29.493656,-24.084091,34.286213,-31.183262,22.334232,-33.831081,5.295925,0.0,-36.93851,-49.062123,-53.747898,-44.352944,-14.245141,-32.581432,-3.472534,-17.570184,-0.351885,152.422457,124.487981,6.215315,90.929473
39,3.511963,-9.339626,11.44598,-20.732022,0.0,22.187691,-16.93943,-29.943695,-31.90052,-46.98864,-43.61515,-57.791748,-51.921844,-68.770638,0.0,-58.957441,-25.285435,-49.899057,-14.856871,-42.801897,-3.067853,-31.942685,10.18184,-16.371424,0.0,16.647949,-12.654476,25.416641,-26.753082,20.090103,-36.700001,6.970482,-43.213921,-2.981873,0.0,-53.48055,-55.016437,-51.616521,-49.816311,-20.822239,-38.154098,-5.357682,-22.136102,-3.550587,156.607676,115.682573,18.334551,70.73167
40,-1.161575,-5.761036,4.851036,-14.203552,0.0,21.648331,-12.988815,-30.103683,-28.272743,-45.925484,-40.807343,-56.949692,-50.920029,-68.402252,0.0,-65.982662,-25.165886,-58.206895,-16.215751,-56.305045,-5.339898,-43.283334,7.387325,-24.238272,0.0,29.723053,-15.409126,31.325569,-27.768803,17.651024,-36.467857,3.226662,-41.055279,-4.725609,0.0,-57.159763,-54.493596,-59.321707,-48.992808,-26.744567,-38.070395,-14.129266,-22.825793,-9.512157,156.623497,110.348727,24.362984,56.955307
41,-0.57209,-4.130701,14.901581,-20.476961,0.0,20.902634,-15.626907,-33.363304,-30.077934,-46.247635,-42.55703,-57.094917,-53.20816,-70.348663,0.0,-68.737842,-28.963784,-63.550375,-20.495178,-61.196295,-9.8587,-48.364065,2.018621,-30.144699,0.0,17.278404,-17.373734,24.260445,-29.657364,9.920654,-37.423553,-4.786263,-41.55407,-13.813705,0.0,-55.38166,-52.75171,-54.150604,-44.957665,-21.543298,-33.30317,-9.039149,-19.487967,-3.461111,157.297039,106.426634,40.510197,36.686954
42,-6.287842,-19.662906,8.202667,-3.197683,0.0,28.414078,-18.906212,-28.939133,-34.025803,-44.305115,-46.236649,-59.391975,-56.295662,-69.409676,0.0,-56.660079,-30.377343,-53.442326,-20.357011,-45.597153,-7.514994,-37.735986,7.350182,-26.343312,0.0,30.039711,-15.215492,29.763451,-27.036209,11.323128,-35.785503,-3.400955,-40.713673,-12.372093,0.0,-58.165399,-55.148058,-63.012096,-49.752955,-28.464346,-40.174602,-15.883534,-27.535404,-14.032596,152.451668,85.944872,50.155334,32.670414
43,0.160332,2.111432,8.027115,-3.873696,0.0,25.485649,-16.822815,-34.378052,-31.538773,-50.046043,-43.514214,-61.95797,-52.976074,-70.924873,0.0,-59.325597,-30.017555,-64.786031,-20.164227,-61.004621,-7.760977,-50.380278,6.738236,-29.756659,0.0,31.709518,-17.495499,34.706268,-28.826294,5.937996,-36.066971,-5.083351,-39.391365,-10.792465,0.0,-61.037473,-57.808482,-61.195492,-52.867276,-27.10735,-43.830134,-18.02652,-31.650853,-16.176323,152.43187,89.725386,58.002319,30.465801
44,-3.575706,0.463035,12.355728,-5.038432,0.0,26.119995,-14.112396,-31.231728,-29.394951,-47.913208,-42.048225,-59.409027,-52.60746,-69.434738,0.0,-60.273435,-28.871436,-67.125631,-20.515061,-65.235142,-9.146595,-52.934367,4.443498,-33.435749,0.0,26.152039,-15.981903,30.160904,-27.82505,9.060745,-35.738411,-3.265572,-39.864693,-13.297005,0.0,-59.68026,-59.68026,-54.974786,-55.210241,-26.476138,-45.802812,-16.371763,-32.826735,-15.419479,149.00651,91.645979,70.508394,26.884925
45,-1.563606,-0.134523,5.046616,-0.997671,0.0,25.539894,-14.777069,-31.961632,-29.900551,-47.620811,-42.206612,-59.385796,-52.231178,-68.862648,0.0,-60.072653,-28.654229,-67.969389,-20.545968,-64.961156,-9.501783,-52.123492,3.587637,-33.184023,0.0,29.928818,-16.210098,32.523651,-28.770676,8.28495,-36.001511,-4.004173,-38.659401,-13.230286,0.0,-58.868088,-62.217893,-56.665821,-59.227599,-25.925725,-50.097553,-18.201891,-36.93746,-14.601996,147.299051,92.291625,75.411158,26.667425
46,0.088577,1.098262,4.979897,-0.903192,0.0,25.220718,-14.889565,-30.579758,-29.955711,-46.051712,-42.275391,-58.526459,-52.359238,-68.891945,0.0,-61.502855,-30.857823,-69.025259,-23.188299,-67.389799,-12.153129,-54.403657,1.630026,-36.060018,0.0,27.895546,-19.559555,30.188713,-32.769127,6.572685,-40.312843,-5.026016,-43.075218,-13.701782,0.0,-57.896785,-62.509788,-53.245373,-58.746316,-19.508561,-48.618446,-13.383074,-34.13359,-11.001237,146.211519,94.036044,79.214945,26.410389
47,-0.73597,-0.228168,1.213989,-0.533338,0.0,26.790848,-12.429085,-28.90274,-28.154526,-45.433502,-41.346245,-57.660599,-52.137794,-67.640648,0.0,-59.26187,-27.72612,-68.071586,-20.135173,-66.534494,-9.820508,-53.435503,2.426946,-36.099291,0.0,19.11438,-20.853539,27.959747,-33.711777,9.14257,-41.148834,-2.727814,-43.12912,-12.242661,0.0,-59.626105,-62.077998,-46.700015,-56.803772,-21.196724,-45.423263,-12.580288,-29.858918,-9.128563,144.457455,94.091542,79.410839,26.160716
48,-11.359863,-15.579567,0.372849,4.273962,0.0,39.394798,-25.208473,-36.783485,-40.800934,-44.777184,-52.206688,-47.48497,-59.838867,-50.35984,0.0,-47.277412,-53.315522,-68.369871,-49.516544,-66.8455,-40.97041,-54.042756,-28.896167,-45.053224,0.0,20.346565,-18.53405,30.804977,-31.495171,10.035553,-38.783226,-0.983276,-40.478325,-10.587616,0.0,-59.317631,-60.826811,-48.154299,-55.586733,-24.215517,-44.236822,-13.872755,-28.903392,-8.915833,132.894201,78.663248,79.580297,30.585952
49,6.361198,-0.470075,6.380882,1.587943,0.0,35.139084,-12.30732,-26.168976,-27.588272,-44.999199,-40.29705,-59.473457,-50.078659,-66.493263,0.0,-43.885246,-24.457331,-59.197372,-15.536218,-58.356856,-5.376423,-52.675757,6.242843,-26.52563,0.0,18.521919,-13.920364,32.169914,-25.628471,13.748703,-33.696442,2.40715,-37.771912,-5.606232,0.0,-54.820781,-56.720223,-41.993584,-51.266952,-23.702618,-39.974284,-11.358155,-24.570705,-7.503601,139.215374,78.170387,85.921154,32.151108
50,7.47757,11.40175,5.524635,5.560501,0.0,29.146843,-12.847366,-28.43502,-27.906876,-45.324783,-40.875893,-63.017006,-52.274208,-70.940437,0.0,-54.417674,-25.487297,-65.339933,-16.935606,-62.765743,-5.800741,-55.60532,7.757396,-33.628595,0.0,21.116753,-12.817612,32.735138,-24.509926,16.711006,-32.128258,4.623528,-36.165962,-4.306297,0.0,-47.441607,-53.792544,-37.974466,-47.572764,-20.52031,-35.919258,-7.81754,-20.859258,-4.654376,146.659784,89.583144,91.41263,37.722617
51,2.448578,4.691951,2.394447,9.172067,0.0,28.916245,-12.359734,-28.919334,-27.127304,-44.143639,-39.904518,-59.433746,-50.882378,-69.459343,0.0,-56.463527,-27.173855,-66.516895,-18.820815,-64.626283,-8.099709,-54.916401,4.993694,-34.700953,0.0,21.280403,-16.588326,28.653831,-29.353409,11.510582,-36.758537,1.525154,-40.058784,-2.839165,0.0,-47.574339,-53.315398,-42.435377,-45.197411,-23.189009,-31.876674,-12.372807,-15.59306,-7.202568,149.996967,94.175291,94.695683,46.794879
52,-6.543274,-8.010696,-2.942047,6.971282,0.0,33.943291,-40.350838,-24.336433,-59.024162,-36.244812,-71.195297,-43.282013,-78.00396,-52.628517,0.0,-44.171027,-67.342066,-71.562645,-61.462377,-58.58419,-49.462234,-49.700869,-33.062159,-43.633335,0.0,19.505882,-18.490562,26.76693,-32.168541,10.496864,-39.2799,-1.211128,-41.28273,-7.323647,0.0,-43.895033,-52.292565,-42.182664,-43.822477,-22.368099,-30.575346,-13.072439,-14.624072,-8.021811,143.330154,85.994905,91.630096,53.596471
53,-2.388153,5.281358,-4.863396,6.881836,0.0,37.565804,-26.73214,-39.273376,-45.80864,-45.712738,-62.198067,-53.998718,-75.317688,-62.338371,0.0,-52.762609,-68.239084,-66.292093,-64.615816,-57.073127,-54.871632,-48.031539,-40.087503,-41.717868,0.0,23.406372,-20.66288,23.203011,-35.128441,6.202126,-42.979431,-5.062523,-46.581001,-13.268051,0.0,-39.448726,-49.966272,-47.097965,-42.430931,-25.071871,-29.98177,-14.615767,-14.337643,-9.155487,140.623884,91.119448,86.448584,60.321492
54,6.268158,-0.910479,-7.690544,9.392516,0.0,33.222198,-14.013519,-30.86483,-29.39209,-41.353226,-41.75766,-51.801796,-50.769196,-62.266159,0.0,-50.301855,-33.478974,-59.54336,-24.833083,-58.098554,-13.807176,-55.6981,-0.585054,-43.031948,0.0,24.24614,-19.508514,21.32412,-34.46331,3.037605,-43.293915,-9.931183,-47.434731,-18.861122,0.0,-41.722623,-51.933486,-50.137105,-45.033773,-24.157379,-33.073891,-11.765152,-18.96034,-6.767166,146.016798,90.167936,77.882795,69.672974
55,4.92794,5.330481,-7.933846,8.379778,0.0,31.113625,-9.906578,-24.129181,-25.645981,-41.898766,-39.444809,-54.856682,-50.68325,-65.293808,0.0,-53.744101,-24.786986,-60.208257,-16.562973,-59.144637,-6.31364,-50.843468,5.360306,-34.411374,0.0,25.422478,-18.587265,25.589676,-33.779526,6.704292,-42.220345,-7.070503,-44.900894,-16.298447,0.0,-42.834408,-56.576221,-48.626875,-49.673174,-22.584349,-37.534247,-10.112711,-23.194381,-6.428434,150.047007,95.527656,69.051218,78.081991
56,1.055946,6.498521,-2.907372,6.988634,0.0,30.879936,-9.626198,-24.449501,-25.545731,-38.223381,-39.632263,-51.809578,-51.282349,-63.383217,0.0,-56.877687,-26.828794,-67.553716,-19.197678,-66.353936,-9.553437,-55.990828,1.713296,-37.159298,0.0,27.130051,-15.337143,30.268707,-29.998055,12.095375,-38.724518,-2.823257,-42.439842,-13.562851,0.0,-48.672323,-58.1545,-49.669685,-51.803501,-19.650463,-39.58115,-8.503896,-24.938583,-5.243413,149.972563,102.069849,65.013456,85.114298
57,1.353378,2.000343,-1.348572,8.812278,0.0,30.762062,-9.364586,-24.672089,-24.769707,-39.404984,-38.215942,-53.195114,-49.819908,-64.210396,0.0,-57.085384,-26.037154,-67.059527,-18.51793,-66.403707,-9.024607,-57.863285,2.253952,-37.777235,0.0,28.808441,-11.548347,35.337524,-25.277481,14.235649,-33.762245,-0.024948,-38.01487,-9.394226,0.0,-46.799711,-59.624469,-49.268863,-54.120655,-21.923002,-42.295296,-11.163363,-27.630747,-6.93664,150.135412,104.10346,62.474356,93.959844
58,0.748672,1.557839,0.671654,10.722866,0.0,30.205765,-9.902,-25.249901,-25.116234,-40.864105,-38.25428,-53.922729,-49.832611,-64.136581,0.0,-57.952237,-25.68777,-65.985564,-18.426014,-65.094259,-9.106395,-55.81947,2.173244,-37.378543,0.0,28.279381,-10.084305,32.595291,-23.701286,11.979561,-31.766167,-0.326843,-35.168266,-7.642365,0.0,-49.370659,-61.294107,-52.484083,-57.624558,-30.003475,-47.039457,-16.319183,-32.528203,-9.500085,150.450611,105.552372,62.712536,104.573782
59,0.191231,2.134187,-0.493355,6.354735,0.0,30.814133,-9.728394,-24.750023,-25.311584,-41.356087,-38.845482,-54.351768,-50.283852,-63.285484,0.0,-58.858949,-25.332829,-66.37842,-17.797488,-65.517094,-8.475584,-55.269058,2.276892,-38.515554,0.0,24.721527,-14.004707,32.294769,-26.84166,14.728889,-34.068604,0.719376,-36.165962,-8.11718,0.0,-56.157646,-59.317847,-56.691324,-55.50621,-32.74507,-45.6355,-18.437963,-32.683937,-11.255248,150.125685,107.275363,61.703024,110.517321
60,0.810242,1.471265,-5.333176,2.114859,0.0,29.439583,-10.616341,-25.930595,-25.872345,-42.38903,-38.857155,-54.997787,-49.573631,-62.804146,0.0,-59.251249,-25.347494,-66.444061,-17.243679,-63.651491,-7.099229,-51.694018,4.497066,-33.103377,0.0,28.316345,-16.837349,31.482124,-29.785881,11.2183,-36.14502,0.080338,-36.579208,-8.519669,0.0,-54.298897,-57.90827,-53.905115,-53.606428,-26.433838,-43.02074,-16.342277,-29.43531,-9.60435,150.367184,108.267707,55.801105,112.15326
61,-0.272827,2.346485,-3.995705,-1.658462,0.0,30.800858,-10.881958,-23.843765,-25.678482,-39.370995,-38.366318,-52.704163,-48.72036,-61.733551,0.0,-60.420555,-28.737098,-68.682204,-21.041731,-66.3837,-10.342083,-54.337954,2.533187,-36.009506,0.0,30.105858,-17.042542,29.536743,-31.414375,8.469543,-38.760452,-3.703079,-40.079613,-12.522583,0.0,-52.125499,-56.164902,-48.421863,-51.153763,-17.596614,-39.583558,-9.612934,-24.810328,-4.857411,148.461514,110.564746,50.172558,110.445351
62,-0.013046,0.441515,-2.93232,3.511561,0.0,30.119019,-10.462532,-25.197144,-25.26226,-40.040703,-37.882233,-52.91748,-48.32325,-62.260094,0.0,-59.845134,-27.265431,-67.885161,-19.609646,-65.428977,-9.314278,-53.68198,2.935275,-35.716006,0.0,35.185204,-18.011169,28.135185,-32.678604,6.913147,-40.513458,-6.0672,-42.97308,-14.475861,0.0,-52.52771,-56.8679,-48.127746,-51.267539,-17.570987,-39.550367,-9.275066,-24.678707,-5.470562,147.79458,111.005381,46.586351,113.956032
63,-0.321236,0.396098,-1.567841,2.999526,0.0,29.8526,-10.161552,-24.459114,-24.806099,-39.897995,-37.460175,-52.397346,-48.020668,-61.75621,0.0,-60.054715,-26.263593,-66.611374,-18.644456,-64.7948,-8.57846,-53.144813,3.311335,-35.286625,0.0,39.070702,-18.332062,27.676392,-33.340759,6.080818,-41.296005,-6.264839,-43.591347,-15.501137,0.0,-54.137914,-57.689334,-47.184694,-52.129543,-20.784139,-40.202791,-10.127253,-25.116023,-5.287009,146.688251,111.283922,44.233418,116.838001
64,0.431442,1.295184,-0.630798,3.517303,0.0,29.076576,-10.788002,-25.056725,-25.425568,-40.047798,-38.07003,-52.761841,-48.614502,-62.077789,0.0,-60.056814,-26.83889,-67.24941,-19.529432,-65.623861,-9.406656,-53.564623,2.758144,-36.17546,0.0,41.372108,-16.30188,28.551521,-31.213646,8.448257,-39.482174,-4.238892,-42.090111,-13.889236,0.0,-56.996618,-59.2682,-48.57908,-54.534321,-20.480728,-43.173789,-10.719748,-28.452706,-6.390921,146.63146,112.590638,43.114386,120.366836
65,-0.514526,0.669652,-0.086288,1.898702,0.0,29.518776,-9.638443,-24.583969,-24.489098,-39.884949,-37.43969,-52.28302,-48.271866,-62.191772,0.0,-60.902857,-25.498752,-66.932321,-18.403259,-64.962329,-8.649473,-53.170995,2.802419,-35.944297,0.0,30.700951,-15.18734,32.115555,-29.989014,9.565887,-37.97802,-2.920876,-40.524902,-12.492256,0.0,-57.686988,-60.417591,-50.761216,-55.816661,-17.798259,-44.028569,-10.326861,-28.579789,-5.012682,146.095562,113.201812,43.006725,122.20706
66,0.541992,1.470154,-0.370102,1.479416,0.0,28.407669,-10.548706,-25.751839,-25.213966,-40.221634,-38.047028,-52.449188,-48.806076,-62.746353,0.0,-61.449471,-27.673756,-67.879326,-20.450687,-65.50601,-10.517454,-54.097683,1.345758,-37.209563,0.0,32.480621,-13.163338,32.977982,-27.897491,9.78241,-35.844841,-1.883698,-38.60424,-10.605354,0.0,-57.47259,-61.245108,-50.35919,-56.603484,-18.375842,-44.503244,-11.573818,-28.781033,-6.163309,146.532154,114.657532,42.531223,123.672042
67,-0.587311,-0.486346,0.838852,-0.474243,0.0,29.634933,-9.58477,-24.759407,-24.448013,-40.144043,-37.337952,-52.067986,-47.913208,-62.101135,0.0,-61.218247,-25.335669,-66.073805,-17.835804,-63.991921,-8.07717,-52.500293,3.137014,-35.707392,0.0,30.587654,-13.226509,32.045174,-28.179588,9.176903,-36.380768,-2.442055,-39.579334,-10.390205,0.0,-57.012704,-61.137045,-48.846305,-56.741373,-14.614223,-44.815331,-9.741344,-29.136592,-5.707529,145.815983,114.128069,43.241215,123.154682
68,0.663185,0.356979,0.476074,0.1637,0.0,28.091125,-10.632133,-24.94503,-25.317421,-39.815712,-37.854996,-52.115479,-47.874641,-62.732964,0.0,-62.042708,-26.612668,-65.941135,-18.989548,-63.758906,-8.528998,-51.093186,3.853411,-32.945203,0.0,29.004936,-13.951836,32.348557,-28.956642,9.317322,-37.03125,-2.527084,-39.700127,-10.849342,0.0,-56.158048,-61.39615,-48.558455,-56.932799,-16.027011,-45.021948,-10.137843,-29.39897,-5.173233,146.305847,114.455716,43.543968,123.289051
69,0.375023,0.347747,-0.364838,-0.001606,0.0,27.988586,-10.082245,-24.803238,-25.072517,-39.465637,-38.057213,-52.394028,-48.568954,-63.115425,0.0,-62.466254,-25.360369,-65.15462,-17.905273,-63.158815,-8.109867,-50.781594,3.339771,-34.287812,0.0,31.683769,-14.219398,32.59243,-29.118004,9.666824,-37.028503,-1.858292,-39.644337,-9.75666,0.0,-55.192703,-61.560684,-48.731696,-56.72998,-15.377582,-44.507505,-9.964664,-28.561912,-5.092865,146.441002,115.016549,42.939262,123.500531
70,-0.279236,0.619974,-0.640411,1.038426,0.0,28.835793,-9.111786,-23.707695,-24.506035,-38.344231,-38.088913,-51.775475,-49.191856,-62.901421,0.0,-62.439979,-24.371251,-64.743084,-16.98513,-63.080053,-7.657792,-50.482783,3.173662,-34.558711,0.0,31.959686,-14.255562,34.077644,-28.959961,9.685249,-36.534576,-1.761932,-38.711014,-9.508896,0.0,-55.390428,-62.091737,-49.253611,-57.512481,-16.737851,-45.529165,-11.084322,-29.709019,-6.197271,146.03199,115.892,42.169075,124.794433
71,1.162491,1.71345,0.473213,0.07268,0.0,28.788071,-10.27668,-23.937263,-25.048256,-38.041992,-37.939224,-51.378937,-48.464584,-62.824631,0.0,-63.534968,-27.578104,-66.276316,-20.212731,-63.990995,-10.064082,-50.942237,2.406259,-33.292271,0.0,31.268463,-15.323296,34.126167,-30.144081,9.584198,-37.658615,-2.007866,-39.405098,-9.889412,0.0,-56.968275,-61.856592,-47.664896,-57.25631,-17.026657,-45.254716,-10.926921,-29.270591,-6.076858,147.150221,117.740653,42.598028,125.002316
72,0.02243,-0.165615,-0.254631,0.017197,0.0,28.373108,-8.868942,-23.329926,-24.071388,-38.430748,-37.3312,-51.16848,-48.151016,-62.62722,0.0,-62.126626,-24.299744,-64.544062,-16.803646,-62.659779,-7.185556,-50.003353,3.944863,-32.686593,0.0,34.041138,-14.213448,33.866844,-29.044189,10.270844,-36.619263,-1.351318,-38.659286,-8.330841,0.0,-53.271833,-61.541356,-47.597063,-56.970158,-16.071872,-44.80048,-10.445978,-28.575312,-5.858539,147.24987,117.456308,42.420616,124.900783
73,0.737,2.006456,-0.435677,1.332173,0.0,29.377441,-8.602066,-24.364014,-23.650932,-38.890686,-36.762199,-51.714363,-47.545853,-61.706657,0.0,-63.562046,-24.64462,-65.224181,-16.551735,-63.411189,-6.339606,-50.211112,5.412671,-32.19401,0.0,36.149139,-14.743881,34.803085,-29.59259,11.690369,-37.272606,-0.784149,-39.562626,-8.78849,0.0,-53.366929,-61.848286,-48.501274,-56.731925,-16.414772,-44.375266,-9.950369,-28.17486,-5.910472,148.07559,119.323764,42.07366,126.093955
74,1.357269,1.0555,-0.07473,-0.137302,0.0,28.006783,-9.486465,-25.55603,-24.325104,-41.201019,-37.24926,-52.60849,-47.973747,-61.678848,0.0,-62.457207,-24.295267,-63.079806,-15.852319,-61.774464,-5.360708,-48.873228,6.566786,-30.660623,0.0,30.593834,-14.601746,35.95871,-29.568901,11.104317,-37.328224,-1.347656,-39.314976,-9.517021,0.0,-53.11718,-61.979321,-47.69608,-56.670576,-17.336336,-44.081303,-9.902543,-27.550502,-4.740054,149.346743,120.307448,41.912813,125.884838
75,0.646362,2.59398,-1.115913,1.160506,0.0,27.658882,-9.119339,-26.133728,-23.985558,-42.6297,-37.085266,-53.843536,-48.009453,-62.22496,0.0,-61.568341,-23.188113,-62.157224,-14.645592,-60.566379,-4.437909,-49.139311,6.882794,-31.537973,0.0,35.93914,-12.65213,38.232193,-27.51709,12.62867,-35.561371,-1.580086,-37.950153,-10.781822,0.0,-56.061871,-62.740209,-46.731446,-57.984594,-18.084504,-45.583444,-10.671552,-29.29986,-5.786075,149.765797,122.900579,40.569592,127.044495
76,0.392418,2.737365,-1.481552,0.10053,0.0,27.021332,-8.048286,-28.856964,-22.475739,-44.746628,-35.419579,-55.945015,-46.736069,-63.619652,0.0,-61.122626,-21.670844,-61.130006,-12.24168,-59.275888,-1.780975,-47.997082,9.210877,-29.353923,0.0,33.010597,-13.726387,38.209877,-28.62751,11.045952,-36.242123,-2.076302,-37.823696,-10.001106,0.0,-53.491418,-63.350705,-46.820552,-57.984501,-19.308211,-45.144028,-11.119922,-28.568643,-5.370495,149.40794,125.74451,38.337765,127.25159
77,-1.246147,5.794659,-0.420341,-0.674809,0.0,23.763084,-8.633766,-31.017838,-22.63813,-47.674484,-35.060921,-56.157417,-46.320534,-64.847603,0.0,-62.425467,-20.917952,-61.507023,-11.469799,-58.626057,-1.295091,-47.312085,9.181978,-28.035058,0.0,27.351265,-16.703339,34.075127,-31.070366,9.258385,-38.029118,-2.848892,-38.763428,-10.238914,0.0,-53.506053,-62.037953,-43.613513,-55.890854,-17.581701,-43.088202,-9.970252,-26.795603,-4.268497,147.888365,131.537779,37.643995,126.575392
78,0.355339,4.658204,-0.264015,0.30375,0.0,14.807625,-9.717064,-40.258827,-22.76001,-55.70858,-34.703407,-62.819138,-45.719032,-69.470558,0.0,-62.310766,-19.330009,-59.494639,-7.843846,-53.921448,3.579301,-43.336532,14.776318,-23.184933,0.0,24.577217,-17.133293,30.766525,-31.910362,7.486267,-39.369049,-4.332619,-40.664062,-11.926231,0.0,-51.833821,-60.311597,-42.402989,-53.949081,-14.149706,-40.93759,-8.486668,-24.876833,-3.358451,147.515917,136.199487,36.652193,126.882647
79,-1.879807,5.596563,-3.152275,1.771681,0.0,2.168541,-10.595741,-51.256371,-21.477356,-65.92907,-31.341248,-71.367989,-40.6493,-75.834045,0.0,-63.943107,-15.934601,-55.445108,-2.595308,-46.994534,10.930255,-33.502902,23.798238,-10.201786,0.0,25.063934,-17.975006,31.068764,-32.613602,9.911499,-39.617844,-2.692337,-40.319595,-10.516777,0.0,-47.60858,-57.657039,-44.118199,-50.93492,-16.236345,-38.01729,-8.089366,-22.512718,-2.475698,145.134516,141.689639,32.998323,128.547917
80,-2.683067,4.430283,-6.893234,1.814783,0.0,-17.69268,-16.616478,-61.920204,-24.45694,-78.256302,-30.522423,-81.702232,-35.268631,-80.697784,0.0,-55.712765,-11.178245,-45.019138,3.053928,-31.521578,17.224104,-15.019182,30.772947,9.554024,0.0,30.267792,-16.859779,31.898232,-29.947529,10.365372,-35.702991,-1.317673,-35.448418,-8.554001,0.0,-43.615242,-55.982769,-42.571074,-48.584113,-17.388113,-35.314814,-7.330422,-19.717092,0.407614,141.849117,145.66405,25.502758,129.906827
81,-5.44899,9.305417,-3.100433,4.214219,0.0,-29.954224,-11.783295,-70.688782,-18.726997,-84.362755,-24.296837,-84.643135,-28.796539,-77.860794,0.0,-51.004605,-15.372765,-36.184568,-1.100886,-23.090332,14.040376,-8.943991,28.366163,10.566916,0.0,28.575783,-17.346954,28.469467,-30.747585,9.265823,-37.152214,-2.677002,-37.586689,-9.960365,0.0,-41.567537,-53.684481,-39.603472,-45.961264,-15.035978,-32.628794,-3.764243,-17.020822,3.338598,136.017523,153.942681,22.01972,133.09426
82,-7.105751,9.880992,-6.086197,4.362914,0.0,-39.064865,-13.084831,-50.11219,-18.480492,-75.775795,-22.89402,-80.73967,-25.643463,-62.85038,0.0,-32.362588,-13.744345,-36.124856,-1.542772,-19.592973,10.267735,-6.941734,19.058091,6.450016,0.0,30.536613,-15.243645,28.618584,-28.087463,7.486839,-34.418793,-3.39489,-36.189079,-9.375343,0.0,-35.809095,-49.853207,-35.95356,-40.265591,-8.754109,-25.84193,2.108838,-9.613613,8.911202,127.940483,163.074702,14.962234,136.708203
83,-15.10231,10.799777,-9.781265,5.428232,0.0,-59.425392,-27.627182,-95.879974,-28.87722,-100.327606,-29.689751,-98.460732,-29.658852,-86.161079,0.0,-18.516911,2.750116,7.354227,22.664748,23.138126,39.531008,35.348344,52.346689,45.47819,0.0,39.401207,-5.212212,36.233139,-18.166237,16.702995,-25.710983,4.945564,-29.069767,-1.938057,0.0,-28.152229,-46.176649,-28.377278,-36.351634,-9.793924,-21.693136,3.435052,-4.754473,9.770397,112.057829,173.287788,4.400625,141.549744
84,-4.630623,7.183611,-10.410404,-8.433686,0.0,-64.813271,-30.642815,-97.120171,-27.15065,-101.706734,-22.510414,-92.892723,-17.160988,-74.750404,0.0,-5.804971,7.552508,32.697337,26.703719,51.726221,43.542377,61.644881,57.684641,70.282528,0.0,44.421787,2.278748,37.76968,-7.605057,25.541897,-12.425766,17.507801,-13.72982,12.143726,0.0,-6.097544,-25.127972,-4.785719,-11.295787,7.295935,4.070155,19.512204,19.723205,26.487098,106.839037,179.902292,-6.597948,132.546951
85,-6.234398,17.631101,-8.092518,9.829431,0.0,-67.179909,-34.185333,-95.732117,-29.451599,-97.767334,-21.829948,-85.177002,-12.018013,-58.652458,0.0,3.882866,12.875517,48.401764,27.216247,63.478868,39.670935,67.762617,49.739092,69.90548,0.0,56.737061,3.962574,56.185684,-5.369396,46.282883,-10.214825,32.459908,-12.639656,19.316483,0.0,-3.722685,-19.445143,2.344601,-7.291365,18.56273,8.167048,28.247911,24.231603,32.987441,99.614925,196.416127,-15.68018,141.259116
86,-19.329185,17.168776,6.669216,11.315331,0.0,-67.932243,-37.494164,-91.289577,-29.073143,-91.164322,-18.185005,-80.764503,-6.80912,-57.173424,0.0,25.912819,27.236501,72.320107,43.359349,87.122298,55.356342,96.92005,63.317452,95.697763,0.0,40.820446,5.12352,48.030453,-6.827717,45.226192,-16.628323,30.60339,-24.400978,15.611515,0.0,-0.264477,-16.706759,10.711906,-10.897404,27.696665,-0.91829,37.256802,10.820895,39.836488,78.82679,212.863164,-10.469913,151.852707
87,-1.816177,10.14127,-16.675701,20.920175,0.0,-70.07309,-33.261566,-92.289791,-24.724045,-93.659821,-15.049896,-79.335251,-4.739113,-55.931511,0.0,30.345881,28.392345,77.353568,45.169685,96.491009,58.257562,106.347177,66.943251,105.628773,0.0,61.229782,20.961914,54.36367,11.785812,46.851883,3.325939,36.179924,-3.945923,22.625313,0.0,-12.948938,-3.807839,19.464965,10.014064,32.875178,25.572945,41.136334,41.088477,44.942197,76.402102,222.13573,-27.754126,171.904178
88,-6.095009,11.908629,-3.630695,18.573289,0.0,-69.982796,-32.156868,-94.404602,-23.035812,-93.38419,-13.399086,-80.804844,-3.117828,-55.462761,0.0,30.063929,26.946213,77.988362,43.860391,96.004662,57.318708,107.902855,66.037928,106.333345,0.0,60.41502,9.191265,69.897594,-3.610039,63.782673,-14.776096,50.602398,-23.547764,27.141438,0.0,-9.397919,-4.861795,29.675025,7.412458,46.747964,21.270732,52.995068,34.97284,54.614843,70.054493,233.284195,-31.637421,189.717304
89,-4.205704,8.94535,0.257149,10.43477,0.0,-51.379852,-36.115036,-96.327152,-28.624077,-94.753761,-18.858032,-80.813198,-7.089615,-55.856552,0.0,-0.179694,32.254957,76.826034,46.47441,93.331302,57.60029,104.510905,65.386647,103.348577,0.0,60.25938,10.079556,69.431591,-4.435787,62.226391,-18.037319,46.191273,-29.007397,18.293552,0.0,-1.795887,4.314193,46.348254,15.138793,62.294063,25.806732,63.211241,36.412551,63.988,65.765934,241.398817,-31.463127,199.321345
90,-6.147881,6.877823,-7.971954,20.237339,0.0,-57.398987,-29.380188,-95.088902,-21.895294,-93.342705,-12.887421,-78.450165,-2.586594,-52.737465,0.0,14.327207,35.93312,65.855888,47.840391,83.037261,55.933461,95.43273,59.674919,101.17663,0.0,62.505169,16.010056,71.004467,1.628838,64.10265,-11.87376,47.683926,-23.542385,15.919304,0.0,-7.416039,5.12868,43.01015,14.009069,55.903574,23.149303,61.031884,32.308124,61.718302,59.455433,247.882595,-39.597702,219.164639
91,-8.652878,6.955813,-2.01519,14.252921,0.0,-55.199661,-26.506805,-92.825375,-19.935379,-91.86327,-11.615067,-76.066589,-1.265831,-47.437935,0.0,16.798706,40.54742,65.149896,48.204409,66.908424,53.093807,82.503861,53.964426,91.7621,0.0,58.43668,33.710346,65.969067,26.055164,55.535488,15.711422,40.036411,3.950958,21.773243,0.0,-3.431532,18.503017,70.046889,36.616265,93.910891,53.703407,107.721679,67.63183,113.801069,50.626802,254.710724,-41.788645,233.289876
92,-1.564293,2.613957,-5.651264,10.922351,0.0,-62.92614,-26.057281,-89.1786,-21.746178,-91.451683,-15.686073,-83.037987,-7.311859,-57.230816,0.0,4.735577,37.176774,25.188858,48.950416,43.186077,56.717877,67.76305,59.633361,93.742065,0.0,65.012169,17.187023,78.118515,6.539154,77.236862,-1.698589,63.404274,-7.846127,42.175255,0.0,-4.234288,13.792078,54.305165,34.572203,70.847359,52.348912,75.039224,65.467169,78.843358,48.83337,257.308656,-47.669048,244.196203
93,-32.918587,50.751058,-6.21666,9.0833,0.0,-43.471413,-36.774101,-19.949226,-40.032749,-7.582626,-40.47924,-6.813469,-38.733215,-33.100662,0.0,46.157198,8.050586,20.540287,-3.595603,12.932759,-16.924182,2.569249,-29.020656,-7.786295,0.0,65.669746,19.633598,79.633598,9.321899,78.653641,-0.195522,63.477631,-9.232006,39.475708,0.0,-1.072296,18.023896,54.696909,33.633412,73.200482,46.87764,82.91234,57.065038,86.526777,15.415335,308.0624,-54.385157,253.28219
94,10.103302,-0.835545,-1.906185,6.786617,0.0,-65.792942,-55.627556,-19.324722,-56.732311,-10.617714,-52.463551,-8.627586,-44.811573,-40.814896,0.0,48.035645,0.360869,28.737962,-3.427765,27.855364,-7.500205,23.49844,-9.591197,24.261922,0.0,64.83839,18.521118,83.431492,9.016228,80.022755,0.621643,67.119656,-7.153015,47.649651,0.0,3.295064,24.610009,61.312416,40.055948,78.502249,52.036084,87.972045,60.306502,89.91459,25.226068,307.215555,-56.58391,260.057507
95,3.323364,8.191686,-0.738087,6.252538,0.0,-69.164829,-55.694389,-18.130646,-55.904503,-6.135292,-49.916382,-4.545364,-40.210476,-51.395702,0.0,39.024593,-2.906715,34.166873,-8.210397,29.002995,-13.861979,23.555991,-18.731617,9.188585,0.0,64.627991,22.268314,84.286766,12.742138,81.112747,3.983459,68.630791,-4.040279,47.583618,0.0,4.025139,26.512292,60.461866,42.595372,79.281416,54.370188,87.28112,62.30666,88.511065,28.210402,315.308888,-57.661028,266.211692
96,4.310188,-13.340065,-0.172634,5.885741,0.0,-62.271481,-52.540054,-19.858818,-53.234253,-7.522888,-48.875313,-8.50914,-41.436138,-70.147762,0.0,47.541704,6.997495,47.287663,7.79284,47.69114,8.443566,47.882998,9.488507,41.859678,0.0,64.407978,23.883877,87.596455,15.093842,86.960392,6.523933,72.652645,-1.452885,51.521702,0.0,2.144098,27.769963,59.036234,43.945236,77.68208,55.79088,86.963599,63.926126,90.063161,32.366352,301.765742,-57.9879,271.894351
97,0.124054,-24.389931,0.45742,4.336546,0.0,-52.349453,-42.050629,-15.18631,-40.750523,-5.2248,-36.000137,-9.167862,-28.550949,-29.403648,0.0,14.844614,30.288392,66.825555,42.238208,77.490901,51.865159,81.373705,58.803682,84.348037,0.0,63.152447,25.750465,87.544041,16.734295,86.232662,7.771568,72.036266,-0.838966,50.355549,0.0,0.534388,29.487612,58.135049,45.942801,77.436807,57.696436,87.310143,65.424314,90.42965,32.115183,277.058954,-57.905703,275.91404
98,-1.42971,-1.367648,1.233616,4.158705,0.0,-51.598778,-31.175308,-21.022568,-26.674004,-12.312584,-20.541687,-7.632294,-12.963982,-11.078568,0.0,11.869849,32.155045,65.109202,45.010122,77.659541,54.48245,82.509974,60.275812,84.149139,0.0,62.632942,26.700096,88.716316,17.700691,86.670113,8.788433,73.071785,0.135612,52.708282,0.0,0.359017,30.349339,57.909228,46.866834,74.334034,58.296094,85.4756,65.689533,88.737195,30.347042,275.594867,-57.010517,279.976306
99,-8.261261,6.978537,-0.543251,3.648461,0.0,-38.687038,-34.353475,-0.968742,-38.466596,3.208695,-39.352913,0.082112,-37.227716,-19.478416,0.0,9.469828,25.930851,58.712786,41.33338,71.301194,52.235909,75.984469,59.927695,78.942592,0.0,63.259621,29.354725,90.510063,21.593857,90.881653,13.132267,77.980843,4.5718,57.880211,0.0,1.68239,31.661227,55.260814,47.865338,69.475327,59.067727,81.739885,66.461166,86.954275,21.81776,282.429665,-57.821789,283.481028
100,-8.261261,6.978538,0.516529,4.728476,0.0,-25.775299,-37.531643,19.085083,-50.25919,18.729973,-58.164139,7.796516,-61.491451,-27.878265,0.0,7.069805,19.706656,52.316369,37.656636,64.942847,49.989367,69.458963,59.579576,73.736043,0.0,65.53751,28.099136,91.187725,21.039734,93.26952,13.386898,81.628819,6.041336,61.748028,0.0,3.795427,32.565315,54.892535,48.82531,67.31715,60.024179,78.475326,67.055019,85.35463,13.183651,289.22164,-57.678108,288.022941
101,-14.260826,14.268915,-0.008354,3.900712,0.0,-14.170818,-28.480225,30.572319,-37.225227,36.616631,-39.450016,23.128967,-38.150883,-11.905403,0.0,5.991951,15.04345,38.763327,33.360228,52.530211,46.915184,58.601388,57.373913,60.766172,0.0,65.822124,29.177113,94.213886,21.930771,94.812069,14.127331,80.587978,7.047901,61.607609,0.0,5.450832,32.646084,52.343416,49.324747,65.822049,60.409749,75.404107,67.109545,82.462303,-1.374006,303.021143,-57.983294,291.454241
102,15.342178,-1.129292,0.778656,0.058601,0.0,-34.792042,-40.013752,14.466476,-50.259762,17.016907,-55.114174,10.061989,-56.493473,-22.257271,0.0,16.912203,12.289258,46.063584,25.522495,55.15485,34.840138,55.566108,42.02733,54.263175,0.0,65.844898,28.021202,92.64822,20.369453,93.661709,12.579403,79.909916,5.415001,60.516872,0.0,8.509763,33.50917,51.822922,50.50455,66.235344,61.317603,76.105345,67.3161,81.809972,13.660297,301.709626,-57.512512,291.330617
103,-13.422203,4.238363,1.277676,0.018093,0.0,-0.315514,-28.355942,27.492943,-36.231823,37.159538,-37.633209,28.357544,-36.014442,5.595589,0.0,-1.45132,10.836271,29.546028,29.893868,46.484846,45.005676,54.981085,56.126308,57.754605,0.0,67.573013,27.581291,93.008423,19.611855,92.642899,11.787815,79.740028,4.990654,60.827293,0.0,8.349952,33.213818,51.171393,50.510355,65.887196,61.556886,76.272256,67.383902,81.371173,0.055275,305.84925,-56.417656,291.249971
104,23.941498,-8.697916,1.012516,-0.142643,0.0,-43.673573,-49.51601,6.818962,-62.292423,6.604729,-67.51133,-6.832008,-68.362999,-43.56514,0.0,13.414227,12.25159,47.613581,30.806231,59.032159,45.053471,63.758227,56.801981,66.132592,0.0,65.677471,27.401791,92.832241,18.969326,92.408352,10.81049,79.299374,3.660221,59.769344,0.0,8.144385,33.384063,51.380789,50.756616,65.370159,61.792217,76.058106,67.526484,82.13095,23.949966,297.004507,-55.451946,290.9605
105,-33.970642,8.579232,0.24107,0.404218,0.0,-8.820648,-22.369194,34.408607,-27.360363,46.367455,-26.987114,38.732986,-24.201508,23.921356,0.0,21.688227,12.165449,32.034076,29.058015,49.277261,41.930938,52.289199,51.202639,51.781178,0.0,67.738838,27.308464,93.175735,18.757153,92.343292,10.646667,79.604073,3.721161,59.964981,0.0,9.089846,33.46014,51.01677,51.092106,65.351943,62.085284,76.181545,67.556124,81.680666,-10.045881,305.489971,-55.236082,291.270951
106,36.960411,-3.148036,-0.26001,-0.376184,0.0,-52.500114,-53.551025,3.035774,-63.489819,6.54705,-66.101704,-4.279976,-65.30262,-53.153343,0.0,14.545001,8.192057,45.322579,25.249002,54.538396,38.520525,58.146534,49.920145,60.344849,0.0,67.236557,27.007885,93.368568,18.749828,92.907715,10.979347,80.302734,4.461479,60.934639,0.0,8.460115,34.056093,51.417222,51.4983,64.81669,62.433001,75.815983,67.986524,82.036287,26.907721,302.254388,-55.502901,290.80722
107,-19.661751,0.309123,0.542164,0.040385,0.0,-22.285709,-36.403255,22.081261,-42.857895,26.801949,-42.794895,17.534866,-39.360294,1.948128,0.0,13.923298,16.943078,38.094632,32.202716,52.796417,43.412948,55.710913,51.539117,57.119193,0.0,67.787762,27.799244,93.042583,19.419422,92.101765,11.252117,79.520588,4.215374,60.248394,0.0,7.756346,34.079867,50.941682,51.425126,65.045537,62.410709,76.142148,68.062601,82.529302,7.191896,302.408116,-55.014811,290.69221
108,15.910835,-3.123768,1.157398,-0.144434,0.0,-46.000042,-48.914337,6.983299,-60.096588,10.216255,-64.374962,-0.059853,-64.755592,-32.140617,0.0,14.434653,11.681387,46.963905,28.410438,57.149759,41.051921,60.294584,51.542081,61.092955,0.0,68.292732,26.808815,92.485542,18.621597,91.367455,10.740452,79.030495,4.033985,59.701424,0.0,8.584975,33.901717,51.392768,51.146755,64.977859,62.132215,76.087314,67.815476,82.074202,23.124704,299.178122,-53.83544,290.44155
109,-21.442909,4.534518,0.016766,0.574958,0.0,0.937157,-23.909683,26.10981,-30.024376,30.863113,-31.597195,19.989395,-30.529633,1.686287,0.0,1.618231,16.804757,33.973842,34.148287,50.037347,47.078082,54.702096,56.29711,57.160504,0.0,67.867298,27.783794,92.646847,19.728069,91.764393,11.761436,79.14957,4.890232,59.950504,0.0,9.167651,32.668747,51.470821,50.00394,64.167508,61.496124,74.508788,67.807078,81.812812,1.701851,303.582285,-53.798618,290.886153
110,24.871559,-9.570326,0.55727,-0.122389,0.0,-37.963486,-44.283028,3.073654,-55.787544,-1.572876,-61.751232,-12.821159,-63.927555,-45.156956,0.0,12.975676,16.793333,45.456454,34.743808,58.186487,48.620916,64.354797,59.501771,70.854769,0.0,67.875137,27.390862,91.945267,19.446545,91.361389,11.442947,78.858604,4.349613,59.661484,0.0,9.159871,32.241063,50.672388,49.615962,63.602369,61.003603,74.768387,67.274604,81.339804,26.575727,293.819853,-53.239031,290.571658
111,-24.044609,8.295365,-0.013332,-0.240518,0.0,-4.124107,-31.936626,22.743301,-37.16074,31.171417,-36.847458,22.210464,-33.629608,6.3311,0.0,14.514249,18.448924,38.998596,34.1657,53.880816,45.716177,56.982848,54.452069,57.750097,0.0,67.716122,27.359962,91.48653,19.341946,91.291981,11.303158,78.920918,4.218407,59.739475,0.0,9.744462,32.656458,51.437908,50.038026,64.325836,61.341316,75.225525,67.507279,81.799412,2.537355,301.960734,-53.246126,290.176656
112,25.803108,-8.412691,0.246277,-0.005187,0.0,-39.345474,-47.098446,2.571831,-59.245605,-0.398369,-64.914379,-9.931068,-66.931744,-35.19722,0.0,10.628975,16.013673,47.065053,34.728493,59.472748,49.19291,64.945193,60.395546,68.620516,0.0,67.134647,26.746616,91.559544,18.804531,91.020298,10.914402,79.112606,4.091663,59.732838,0.0,9.491532,32.539627,51.406847,50.030307,64.031225,61.439807,75.224784,67.55563,81.944032,28.345127,293.411035,-52.995186,290.03446
113,-26.822319,6.388142,0.623531,0.265836,0.0,7.335663,-28.55587,25.830917,-34.130917,32.542076,-34.292049,23.65345,-31.492996,9.962196,0.0,7.978153,19.861897,38.325146,36.434163,54.243167,48.855012,58.893838,57.680257,61.017126,0.0,67.269287,26.485405,90.79834,18.34631,90.790672,10.287437,78.595734,3.216476,58.964996,0.0,9.449666,31.62146,50.497387,49.150302,63.652633,60.617415,74.613208,66.886132,81.652755,1.549416,299.744203,-52.345047,290.245323
114,13.40023,-10.920622,0.067863,-0.191365,0.0,-17.388153,-31.24649,14.059982,-41.875706,10.94101,-48.85334,2.136383,-52.831764,-22.116623,0.0,4.380821,19.504423,45.625095,39.031509,59.251496,54.12473,67.279667,65.917577,73.009179,0.0,68.083763,26.713257,91.005592,18.574104,90.792732,10.415325,78.439636,3.168068,58.884773,0.0,9.620035,31.850307,51.015844,49.174632,64.422291,60.533744,75.315187,66.825493,81.57038,14.94647,288.816094,-52.280359,290.046471
115,-18.956451,15.600192,-0.82798,-0.10584,0.0,16.402016,-21.560497,32.879219,-28.607712,40.548019,-30.381203,30.182762,-29.28503,11.816254,0.0,2.174417,11.964328,31.542357,29.973773,46.761179,44.824254,54.209143,56.210165,58.30548,0.0,68.154373,26.827068,91.996765,18.744793,91.686745,10.641861,79.354019,3.499489,59.851112,0.0,9.896183,31.409471,50.132813,48.852542,64.365851,60.269946,75.078868,66.566018,81.56896,-4.014559,304.371656,-53.112917,289.896
116,21.011696,-13.013529,0.496616,-0.020563,0.0,-29.634933,-34.372902,6.466255,-42.310066,5.810165,-46.544952,0.758858,-48.58057,-19.807205,0.0,9.59515,21.319021,44.375266,38.151566,57.736265,50.755195,61.964315,60.006025,66.505688,0.0,67.243824,26.039486,91.668377,18.102207,91.215191,10.141296,78.872509,3.043041,59.260426,0.0,9.907607,31.910884,49.886182,48.992468,64.24624,60.104455,74.91912,66.316855,81.472938,17.000313,291.304249,-52.613125,289.82156
117,-12.678337,12.397383,-0.259838,0.047671,0.0,-2.370758,-25.599003,26.314774,-32.05204,33.131676,-33.351631,23.491287,-32.046032,2.910233,0.0,-0.806893,15.716097,33.079943,31.762004,46.973291,44.809495,55.202028,54.573347,61.574053,0.0,67.003784,26.025066,91.29261,18.311176,90.996208,10.553455,78.799667,3.689861,59.440613,0.0,9.655541,31.775651,49.666227,48.960975,64.207831,60.165341,75.121414,66.454867,81.493501,4.321489,303.677921,-52.873449,289.845519
118,1.770401,-13.972698,0.720749,-0.199639,0.0,-11.454163,-25.031147,23.910713,-33.52272,27.985382,-39.792881,21.391983,-44.896832,-0.654144,0.0,1.280086,18.791206,42.703374,37.623353,58.008461,52.424865,64.282302,64.218514,68.399511,0.0,67.29435,25.299969,90.521622,17.554493,90.568771,9.866295,78.68969,3.151817,59.194221,0.0,9.815104,31.818999,49.39045,49.223229,63.481523,60.472117,74.743625,66.599116,81.455648,6.114206,289.675829,-52.130384,289.616487
119,-14.379616,16.678354,-0.843143,-0.115535,0.0,16.212959,-17.907543,34.117584,-24.309254,44.842529,-25.666695,35.503006,-24.068871,17.412643,0.0,-2.646561,9.85938,26.29209,27.794601,43.658715,43.015399,51.113348,55.422662,54.409461,0.0,66.446514,26.162624,91.072826,18.28537,90.871639,10.479126,79.32375,3.65015,59.553738,0.0,9.022785,31.655052,49.489497,49.125293,63.190185,60.44754,74.871695,66.54212,81.933843,-8.257113,306.304629,-52.965231,289.451397
120,24.479942,-18.236873,-0.629082,-0.994552,0.0,-23.795929,-37.31678,10.759392,-46.497059,12.845421,-51.035271,6.513977,-52.559052,-16.023788,0.0,5.641456,23.214203,44.884213,42.361956,58.515308,56.767401,64.107116,67.442997,69.110135,0.0,67.141285,25.495262,91.156254,17.696171,90.1367,10.23222,79.390697,3.713379,60.440655,0.0,10.238465,33.136444,50.367588,50.43434,64.095322,61.418565,75.856429,67.083919,82.067409,16.217136,288.057243,-53.600006,288.446332
