takenoko1/special-research/HandMotion_SimilarSearch_自分用/NewProject/handData/test_key/d4_feature_d2/104.csv
frame,vel_0x_L,vel_0y_L,vel_0x_R,vel_0y_R,posFromWrist_0x_L,posFromWrist_1x_L,posFromWrist_2x_L,posFromWrist_3x_L,posFromWrist_4x_L,posFromWrist_5x_L,posFromWrist_6x_L,posFromWrist_7x_L,posFromWrist_8x_L,posFromWrist_9x_L,posFromWrist_0y_L,posFromWrist_1y_L,posFromWrist_2y_L,posFromWrist_3y_L,posFromWrist_4y_L,posFromWrist_5y_L,posFromWrist_6y_L,posFromWrist_7y_L,posFromWrist_8y_L,posFromWrist_9y_L,posFromWrist_0x_R,posFromWrist_1x_R,posFromWrist_2x_R,posFromWrist_3x_R,posFromWrist_4x_R,posFromWrist_5x_R,posFromWrist_6x_R,posFromWrist_7x_R,posFromWrist_8x_R,posFromWrist_9x_R,posFromWrist_0y_R,posFromWrist_1y_R,posFromWrist_2y_R,posFromWrist_3y_R,posFromWrist_4y_R,posFromWrist_5y_R,posFromWrist_6y_R,posFromWrist_7y_R,posFromWrist_8y_R,posFromWrist_9y_R,posFromBody_0x_L,posFromBody_0y_L,posFromBody_0x_R,posFromBody_0y_R
2,7.440376,-0.416383,0.378742,-0.274851,0.0,-14.748573,-19.199066,23.819046,-24.664764,17.745438,-30.664616,3.139114,-35.165176,-68.846455,0.0,-12.488095,25.357683,34.951104,42.419569,47.097595,51.88424,53.171057,58.862839,66.745959,0.0,69.974957,29.961834,93.071995,22.18935,94.739857,13.502998,82.176304,5.332832,63.062496,0.0,2.64724,29.593082,50.641142,48.001868,64.794275,60.592345,75.000877,68.362955,77.76569,15.950775,274.79432,-42.376499,263.462193
3,-18.266029,16.913561,0.339832,-0.012721,0.0,-1.492653,-5.823326,44.5998,-9.893761,51.5205,-11.644592,43.065376,-11.182079,15.869751,0.0,0.341048,7.057578,26.897677,18.090833,35.199217,27.594468,39.772946,36.930328,39.627339,0.0,69.165916,29.93248,92.670937,22.247028,94.017448,13.501854,81.750641,5.06258,62.486,0.0,2.922276,29.1972,50.38105,47.457044,64.78563,60.1872,75.153339,68.303551,78.193497,-1.737871,291.672745,-41.459284,263.414336
4,17.069778,-15.915983,0.710907,-0.018525,0.0,-13.891296,-15.455246,26.232033,-20.827675,18.006592,-26.869354,2.477875,-31.594505,-64.181442,0.0,-12.780792,24.763521,33.657,41.713268,46.115455,51.361276,52.092895,58.406504,65.669155,0.0,68.614883,28.938446,92.193604,21.041565,93.306999,12.190933,81.12751,3.820553,61.952248,0.0,3.142725,29.091113,50.434649,47.416412,64.949701,60.144037,75.319077,68.133799,78.05567,15.712509,275.639312,-40.367775,263.278362
5,-14.228554,10.11657,-0.051498,0.182472,0.0,21.097069,-6.179352,47.074127,-13.428669,47.182846,-17.505798,28.573036,-17.880936,-14.55574,0.0,-15.896532,11.138231,28.197399,27.494927,37.061671,39.774922,46.822188,50.410752,55.096496,0.0,68.406143,29.870682,92.538643,21.786575,93.296471,12.514458,80.993958,3.621082,61.555367,0.0,3.357987,29.342931,50.62095,47.714914,64.868684,60.508117,75.155871,68.493248,78.223569,1.788883,285.694842,-40.114346,263.399794
6,4.720573,-13.604419,0.660439,0.155982,0.0,-1.74614,-8.003082,35.90126,-13.812218,27.833176,-21.169281,12.057838,-26.936417,-58.483143,0.0,-7.939312,24.789703,37.096745,41.94866,50.395005,51.718255,56.668477,58.980783,68.723145,0.0,68.534775,29.162636,91.95179,20.987206,92.561302,11.771221,80.34359,2.973804,60.703926,0.0,2.890043,28.907961,50.835903,47.299889,64.819901,60.167872,75.072199,68.202589,77.941679,6.697826,272.018376,-39.265537,263.483728
7,7.600021,-0.339319,0.147915,0.339072,0.0,-10.661888,-16.806908,27.587471,-23.168449,20.211639,-29.518547,3.656845,-33.637047,-66.924076,0.0,-6.336025,26.191684,38.191889,42.677809,50.69715,51.865406,56.932213,58.866544,69.412897,0.0,68.186932,28.812046,91.587009,20.483437,92.234516,11.174297,79.673252,2.315254,59.556255,0.0,2.922647,28.94038,50.784959,47.247587,64.746295,59.980275,74.756284,67.858392,77.337945,14.364681,271.684924,-39.050789,263.828666
8,-11.349449,14.379139,0.594578,0.000124,0.0,12.133942,-5.627975,44.195023,-12.656994,43.953323,-16.784534,27.981148,-17.587624,-20.248432,0.0,-13.041934,12.249985,27.927056,28.122249,37.160904,39.698105,46.492194,49.325488,55.851457,0.0,67.854881,28.709564,91.442528,20.613842,91.670151,11.631031,79.314766,3.037491,59.196854,0.0,3.111048,29.3496,50.810524,47.707751,64.384252,60.369179,74.781787,68.068467,77.178691,3.034229,286.061315,-38.437214,263.826042
9,5.610008,-14.522585,0.04509,-0.263921,0.0,-4.960899,-10.175743,33.8554,-16.065044,24.766846,-23.076897,9.859886,-28.343124,-60.671997,0.0,-8.66982,25.637227,37.286257,42.877201,50.029752,52.834949,56.691015,60.390112,69.11915,0.0,67.965546,28.633404,91.504669,20.651608,91.638336,11.793423,79.506454,3.320332,59.697418,0.0,3.686808,29.299706,50.883636,47.573629,64.655275,60.24821,74.916711,67.992699,77.513563,8.625298,271.537804,-38.411064,263.561194
10,6.299858,0.930455,0.106258,0.493324,0.0,-13.960991,-15.618095,27.232246,-21.149712,20.222855,-27.248669,7.146149,-31.438465,-64.001026,0.0,-8.03873,25.395104,35.682784,42.57765,47.593451,52.552935,54.997634,59.84251,68.336402,0.0,68.820362,28.954697,91.695385,21.119385,92.049465,12.333355,79.909458,4.021511,60.758686,0.0,2.907086,28.965575,50.038397,47.377942,63.612743,60.176209,74.304826,68.049819,77.509364,14.908504,272.476719,-38.321457,264.062978
11,-11.562538,12.940478,-0.371933,0.128317,0.0,19.318085,-4.865227,47.907257,-12.764053,44.961777,-17.436905,24.842033,-18.173046,-25.94799,0.0,-14.82683,10.667507,27.484059,27.55501,37.294161,39.846553,47.781172,49.970718,57.376507,0.0,68.514462,29.207554,92.009296,21.364346,92.385006,12.664948,80.250721,4.293365,59.751148,0.0,2.671755,28.769826,49.5665,47.227209,63.799167,59.881165,74.025591,67.380197,76.945151,3.300962,285.418401,-38.738394,264.1925
12,-4.5401,0.785959,0.051327,-0.071322,0.0,29.333611,-3.422012,48.80928,-8.579578,54.229774,-11.044407,44.900894,-11.816769,25.466423,0.0,-23.968052,10.632618,27.903714,27.306156,40.473814,40.15265,46.493429,49.372171,49.694756,0.0,68.679085,29.078236,91.813202,21.244068,92.156067,12.559147,79.824142,4.268417,59.300995,0.0,2.770494,28.830032,49.52945,47.341386,64.160778,60.004604,74.324895,67.491224,77.228709,-1.309061,286.212372,-38.75699,264.12919
13,11.267395,-14.728523,-0.308075,0.134678,0.0,-6.489258,-15.990715,36.31382,-21.638432,34.086571,-27.535286,22.211609,-31.370487,-59.899178,0.0,-9.550504,24.977362,35.782696,42.303602,52.766283,52.089128,58.617381,59.606623,71.359517,0.0,69.343185,28.706818,92.924652,21.375217,92.795219,13.332081,80.811996,5.601997,61.604919,0.0,2.142986,28.011284,49.227058,46.333928,63.500789,59.084214,73.617544,66.847661,77.058401,9.914532,271.450658,-39.108868,264.230677
14,-11.370392,-0.505427,0.618954,0.09454,0.0,10.049629,-3.366623,51.447945,-9.070244,49.176521,-16.41901,37.129669,-22.253094,-47.506027,0.0,-11.258767,24.725544,34.865271,41.970891,54.043528,52.034911,60.193931,60.216347,73.992555,0.0,69.444523,29.247551,92.144566,21.836643,92.221928,13.52108,79.935322,5.705566,61.495113,0.0,1.322756,28.541596,48.896384,46.781865,62.831353,59.460336,72.988369,67.385755,76.672337,-1.489792,270.929392,-38.523846,264.309378
15,-6.840477,0.4685,-0.280781,-0.008522,0.0,17.191772,1.078835,59.75853,-4.545708,58.329849,-12.110825,45.814133,-18.017807,-38.374557,0.0,-12.023484,21.617893,33.9526,39.828769,53.368349,50.907781,59.711537,59.729939,73.682259,0.0,69.028816,29.13311,92.187424,21.804771,92.500992,13.645134,80.136337,5.87162,61.115112,0.0,1.43261,27.969108,48.59955,46.248527,62.976343,58.996652,73.110697,66.976782,76.890378,-8.379822,271.337501,-38.854179,264.240464
16,-0.09922,0.723962,0.122108,-0.121895,0.0,16.808052,2.675858,59.259796,-2.855072,58.175011,-10.691242,44.724998,-17.265587,-39.311943,0.0,-13.074909,21.439064,33.165961,39.801105,53.019706,51.024798,59.378146,60.059068,73.025914,0.0,69.278641,28.862572,92.501907,21.559238,92.617035,13.484688,80.343361,5.913048,61.298561,0.0,1.378887,28.292866,48.373667,46.637801,62.801528,59.292746,73.037585,67.069222,76.940149,-8.530054,271.985417,-38.783083,264.042523
17,11.022835,-1.071987,-0.271339,-0.170308,0.0,3.217278,-9.048157,47.654457,-14.095459,46.51989,-20.371284,35.234184,-25.033035,-50.727196,0.0,-10.550305,24.138792,36.653316,41.214448,54.544509,51.104888,60.434511,59.259277,74.207508,0.0,68.843536,29.178772,92.838478,21.868057,93.122406,13.593407,80.660591,5.687428,61.360359,0.0,1.583281,28.578276,48.159208,46.825029,63.216058,59.404267,73.363071,67.192044,77.379874,2.449923,270.883898,-39.097281,263.842683
18,6.448746,-0.449296,0.096817,0.160057,0.0,-3.177109,-16.704082,38.794212,-21.781712,36.909599,-26.896362,25.059242,-29.839211,-59.726543,0.0,-10.582847,25.335885,38.272844,42.268095,55.079824,51.758269,60.592098,59.5416,73.930681,0.0,68.821793,28.699951,92.736511,21.57114,92.988052,13.617096,80.794373,6.004028,61.59771,0.0,1.556975,28.618908,47.904488,46.709555,63.041304,59.089278,73.003251,66.699399,77.115149,8.837757,270.431669,-39.061375,263.999807
19,-10.334702,10.341218,0.514641,0.042546,0.0,22.295494,-7.15559,50.383301,-14.149933,50.689201,-17.326813,38.205299,-17.237377,-14.52879,0.0,-5.431875,15.184797,33.651011,31.027112,42.942472,42.834161,51.127427,52.407389,59.004309,0.0,69.115448,28.568745,92.137184,21.288643,92.29351,13.319721,79.957581,5.850391,61.017151,0.0,1.204318,28.417601,48.713665,46.607791,63.452253,59.089216,73.279029,66.750158,76.945336,-1.520805,280.766681,-38.570595,264.036147
20,-1.04702,2.382269,-0.113411,0.088612,0.0,30.140991,-3.266945,54.692688,-10.904217,55.447426,-14.167156,44.917259,-15.645447,24.30645,0.0,-10.999477,8.749786,30.943749,25.099752,44.461408,38.420983,49.965222,49.303258,50.797988,0.0,69.047241,28.252544,92.211456,20.998993,92.657204,13.099365,80.293922,5.607777,61.174507,0.0,1.249026,28.012519,48.396515,46.273227,63.032536,58.844561,73.01486,66.626101,76.807015,-2.593546,283.138329,-38.709726,264.114138
21,5.922546,-12.261471,-0.392303,0.238233,0.0,4.220695,-10.585785,46.174164,-15.01379,45.101624,-20.616703,32.55764,-24.968662,-52.714577,0.0,-10.444279,23.723459,36.033465,41.055749,54.327889,51.01288,60.200971,58.995109,72.785458,0.0,69.764328,28.638954,92.275658,21.390324,92.746353,13.474903,80.367737,5.97496,61.265373,0.0,0.808375,27.122078,47.863547,45.470657,62.720758,58.300787,72.324676,66.427141,76.226746,3.29361,270.848437,-39.137421,264.323951
22,1.856689,-0.99554,0.134697,-0.044028,0.0,1.979713,-13.338547,44.187927,-17.695255,43.463287,-22.533474,31.383018,-25.644379,-54.433079,0.0,-8.836854,24.291748,37.012394,41.675662,54.252862,51.594013,59.536721,59.443725,74.085674,0.0,69.02916,28.778744,92.154579,21.707897,92.52594,13.815079,80.561142,6.272793,61.697044,0.0,0.287386,27.096143,47.787779,45.385133,62.470298,58.265342,72.147946,66.499019,75.955909,5.103979,269.80484,-39.049044,264.231865
23,0.786896,0.787503,-0.204048,-0.246446,0.0,-1.031342,-13.643646,44.445534,-18.228264,43.422089,-23.05172,31.6436,-26.180935,-54.331398,0.0,-9.157463,23.441012,35.550824,40.348522,52.706076,50.244952,58.669066,58.433674,74.093764,0.0,69.391594,28.539047,92.136383,21.506824,93.004074,13.72736,81.062164,6.331329,62.44091,0.0,0.672894,27.496779,47.987542,45.804665,62.426394,58.630102,72.11139,66.826543,76.225635,5.81111,270.573139,-39.332857,263.966215
24,-1.139488,-0.427251,0.135727,-0.1524,0.0,0.214348,-12.084045,44.672813,-17.188225,45.508804,-22.867184,33.627434,-27.051487,-52.88332,0.0,-8.392313,22.531984,35.601644,39.882924,52.764677,50.251003,59.291819,58.774289,75.254054,0.0,68.844795,28.351479,91.923409,21.330528,92.754936,13.558846,80.916023,6.129913,61.822243,0.0,1.269712,27.37087,48.307409,45.69759,62.860746,58.570019,72.533084,66.768559,76.552727,4.621153,270.131901,-39.247599,263.799829
25,19.070663,2.106183,-0.465317,-1.011966,0.0,-19.840965,-27.112312,17.181358,-34.95306,15.701866,-41.01162,-1.938057,-44.255962,-78.862381,0.0,-9.641215,23.362589,38.663415,39.397072,51.578946,48.44116,55.971685,55.97928,69.91042,0.0,69.189262,29.205322,92.653656,21.997662,93.081436,13.939247,80.779495,6.198864,61.165695,0.0,1.803421,28.327322,48.924604,46.209562,63.363827,58.599844,73.708132,66.431031,77.252976,23.652821,272.240832,-39.751911,262.790611
26,-32.426605,12.514091,0.124626,0.297081,0.0,20.741158,4.651108,61.255875,-1.673412,63.154106,-7.708569,53.822823,-11.67778,19.828491,0.0,-17.665373,9.844127,27.208652,26.032615,39.563242,38.893559,44.166365,48.823272,50.54475,0.0,68.68309,29.270554,92.604561,21.915207,92.618294,13.761234,80.111732,6.047459,61.038551,0.0,1.288052,28.464161,49.055392,46.257666,63.445214,58.661162,73.746912,66.630671,77.311022,-8.823051,284.751388,-39.676552,263.084157
27,35.632896,-11.190842,-0.087662,-0.277198,0.0,-22.89711,-29.353409,14.659996,-37.993755,13.501625,-44.066448,-4.519615,-47.464428,-82.178364,0.0,-11.907579,22.95411,37.599455,39.275423,49.17105,48.550706,53.816287,55.712024,68.478799,0.0,69.509239,29.022503,92.26696,21.789436,92.691994,13.744297,80.313492,6.133232,61.055031,0.0,1.752477,28.872887,48.870943,46.688128,63.656277,59.081374,73.977241,66.966161,77.40692,26.789331,273.63599,-39.784727,262.882403
28,-37.106953,7.38677,-0.322037,0.192476,0.0,27.054348,3.267689,64.322491,-5.282993,63.982944,-12.378731,52.960796,-16.648922,6.472721,0.0,-19.909815,10.608536,32.995468,28.362643,44.125733,41.769522,48.908796,51.529793,54.548276,0.0,69.275093,29.090309,91.97525,22.052078,92.790298,14.123211,80.317841,6.492634,61.218796,0.0,1.419271,28.535112,48.510568,46.129657,63.101573,58.445468,73.225676,66.438009,76.917363,-10.344629,281.036468,-40.133772,263.088587
29,36.568279,-9.010867,-0.43396,-0.299922,0.0,-21.855698,-28.167,14.244461,-35.844498,14.525642,-41.831875,-3.259163,-45.908775,-84.068985,0.0,-11.260558,21.192556,38.619696,37.693563,49.762002,47.591722,54.387169,55.477064,67.808066,0.0,68.753357,29.492855,92.901878,22.456741,93.373489,14.448566,79.938126,6.550999,60.324669,0.0,1.578526,27.186175,47.199607,44.832466,62.104057,57.306852,71.911998,65.477358,76.153016,26.191378,272.069552,-40.600004,262.832617
30,-24.874191,4.405707,-1.116943,-3.406894,0.0,12.220573,-11.324272,50.475311,-17.908001,52.075195,-21.99131,42.505417,-22.350712,-45.187054,0.0,-16.66304,14.551855,34.867926,31.624177,44.369338,44.024092,50.1627,53.9769,65.980747,0.0,68.023911,29.114513,92.552147,23.507481,95.97496,16.428623,83.996315,8.817043,60.445862,0.0,2.215049,27.786759,45.864748,45.353146,61.383738,57.952453,72.215316,66.377679,75.314075,1.307201,276.511244,-41.726933,259.461708
31,10.801277,33.296934,-3.03669,-9.171171,0.0,-41.663246,-36.744404,-47.144852,-34.043598,19.758797,-26.880226,29.835091,-16.874199,-1.521835,0.0,26.007359,1.288731,14.512644,-7.939497,0.795407,-16.016451,-5.128063,-22.669935,-6.285574,0.0,63.594475,30.072498,94.288902,24.057941,96.049919,16.059437,82.15004,7.345905,50.299416,0.0,-3.343908,26.47833,45.309982,43.729295,61.291236,56.815937,73.09353,65.02164,76.340367,12.113543,309.889564,-44.758558,250.371924
32,-5.198135,-64.344053,-2.27314,-16.13106,0.0,-43.204021,-35.282307,-34.158382,-22.104607,-37.419834,-8.226013,-26.217899,4.049492,-19.207535,0.0,15.235741,37.944887,21.668467,54.964659,47.020407,64.388266,59.639968,68.19487,73.25896,0.0,52.742844,37.013626,94.169197,30.888176,79.501991,20.510445,45.936584,7.789879,11.763153,0.0,-12.974379,23.700796,48.71385,41.876227,73.893939,55.848369,90.419893,64.661326,87.903564,7.088985,245.496466,-46.85812,234.191818
33,4.823914,13.221319,22.862091,17.211384,0.0,-36.552486,-14.880524,-44.444675,-8.203812,-38.692131,-0.274086,-29.602947,8.764687,-14.008942,0.0,12.23887,4.165868,21.187801,12.200276,32.625398,20.187939,35.961896,27.378589,38.700156,0.0,25.460243,40.000305,24.804039,26.989288,9.261074,12.180805,-5.454998,-3.346825,-10.61451,0.0,46.01474,3.651734,51.918511,-1.160475,49.203284,-2.942469,42.199923,-2.939073,35.465917,11.754599,258.891335,-24.154329,251.576751
34,23.522301,-67.750885,-44.155712,-76.966022,0.0,-69.360752,-33.920403,-84.312687,-20.525665,-56.913013,-8.529968,-46.405277,2.028008,-35.800667,0.0,15.322685,-1.825342,-6.406729,19.001837,42.397586,40.70723,58.690864,56.662178,72.98028,0.0,12.176399,45.909348,66.849346,52.557335,72.913914,53.762798,62.742977,51.527882,56.392937,0.0,-50.440145,6.808786,42.929133,27.800529,73.993851,45.375499,90.3792,60.296066,103.609843,34.401512,192.023018,-69.185429,175.493297
35,39.659157,-46.500407,-20.401955,-40.736685,0.0,-66.35582,-39.1325,-91.927643,-36.221809,-95.374775,-31.413116,-86.070099,-24.494133,-70.067024,0.0,2.445069,13.044528,25.359042,31.890692,50.764952,48.064792,62.102266,60.751661,69.786178,0.0,4.239464,45.451355,57.686348,51.067314,64.794445,50.616188,55.963783,45.934868,52.12286,0.0,-57.111289,-14.788977,-7.729731,4.549276,9.540809,23.955517,24.149845,41.737968,33.444949,73.029556,146.45813,-90.618496,135.692131
36,14.080811,-43.119664,-15.930805,-37.049568,0.0,-30.545769,-51.220207,-76.358871,-53.710213,-75.373306,-50.84198,-67.070389,-42.992821,-59.663887,0.0,-42.815358,0.216682,13.114892,20.020749,29.97331,38.365438,43.85258,54.897567,56.61108,0.0,-14.495888,36.317024,39.773197,47.548485,53.278542,53.827114,56.953983,56.142712,56.550636,0.0,-65.818128,-33.117116,-29.761599,-18.155023,-16.033371,-0.594965,-1.864245,18.285841,13.039217,88.906803,105.088086,-104.752865,100.392183
37,21.872177,-31.094883,-14.431458,-30.107463,0.0,-16.443901,-48.232841,-55.136719,-55.903702,-60.412102,-58.21209,-60.217552,-55.075378,-59.611931,0.0,-53.480241,-20.530252,-24.69013,-5.422859,-8.453693,10.777361,4.933858,27.395817,18.27065,0.0,-24.834137,29.200459,33.877659,45.559902,48.895912,56.836052,57.524643,64.520416,59.654503,0.0,-64.575215,-50.625273,-47.809762,-39.768192,-34.933258,-25.085549,-23.282622,-8.257142,-7.126121,111.806202,76.378745,-118.157101,72.670262
38,-12.902298,14.355427,-1.803646,-6.401789,0.0,-35.156364,-24.394569,-45.12394,-15.49118,-38.979263,-2.788811,-24.60743,12.33181,2.774734,0.0,-52.519096,-24.911783,-86.779182,-22.203225,-94.29714,-20.28924,-91.954391,-18.640875,-73.843644,0.0,-6.222153,1.606007,34.103622,10.29562,43.649082,19.355907,46.262856,28.251972,36.66544,0.0,-71.886495,-26.079545,-86.145159,-18.146594,-84.411455,-9.689257,-70.914297,-0.377851,-52.587855,99.65744,90.97435,-119.207211,66.508652
39,40.568161,-61.529315,-19.21772,-34.336193,0.0,2.970657,-27.720566,-55.823479,-33.777237,-62.704468,-37.013855,-69.29306,-37.261047,-67.054367,0.0,-65.681443,-32.63676,-88.523909,-20.589779,-77.099311,-6.694702,-63.599435,8.815057,-38.353891,0.0,-33.06181,19.869862,31.293983,37.693977,43.387012,50.622997,53.223839,60.30241,55.708008,0.0,-65.19309,-54.432494,-69.116557,-47.901647,-67.625717,-37.53082,-56.035288,-25.442868,-46.949548,142.278471,31.156633,-136.372061,33.884057
40,8.893204,-4.484932,-4.80463,-4.686455,0.0,7.493477,-13.097191,-49.212227,-23.573914,-60.478363,-34.472694,-68.094521,-45.32547,-71.116104,0.0,-71.691086,-39.858872,-102.1944,-31.86417,-100.852286,-20.563319,-86.11839,-6.105232,-59.16696,0.0,-32.150288,0.081425,32.710705,14.358273,47.136154,29.218082,55.66555,43.666935,60.103455,0.0,-70.551667,-34.027873,-96.547665,-25.53361,-97.373885,-15.196097,-84.665527,-4.381099,-63.945855,153.732004,30.941109,-138.616362,33.46701
41,2.782402,-15.851794,-3.357067,-11.080957,0.0,11.98082,-13.797798,-44.979286,-23.566017,-57.570305,-33.789368,-65.128098,-44.777069,-66.825485,0.0,-72.745783,-44.616,-111.909068,-36.385103,-106.575283,-24.848211,-94.026303,-11.064593,-66.437886,0.0,-35.831165,0.53318,33.291206,16.862183,48.659534,32.936096,57.476635,47.409096,61.371517,0.0,-67.439169,-32.834547,-98.484157,-23.965273,-100.744624,-14.942334,-87.70306,-6.244974,-65.819054,157.824097,23.508212,-140.663738,30.804949
42,-4.998665,-3.967155,-1.86224,-4.627823,0.0,19.342461,-6.057358,-34.58622,-18.890076,-49.352074,-31.834946,-57.400475,-44.806709,-65.421638,0.0,-69.86877,-43.159895,-112.122014,-37.567036,-115.479878,-28.09054,-103.09858,-16.115252,-76.129489,0.0,-37.173615,0.584736,31.13245,16.837406,47.220039,32.911205,55.92556,47.489662,59.60083,0.0,-66.05985,-33.974737,-102.962791,-25.319645,-104.629528,-16.268733,-92.76258,-7.170921,-69.649031,150.516787,21.827736,-144.834623,28.463806
43,-4.291077,-2.233945,-0.152836,-2.244226,0.0,24.345245,-4.030838,-29.564209,-18.185692,-44.252014,-32.253342,-53.145905,-45.712967,-60.942078,0.0,-67.994243,-42.264298,-113.133393,-37.53082,-117.415197,-29.421787,-105.614014,-19.441901,-79.876134,0.0,-41.157875,-1.436462,25.624638,14.9786,42.6511,31.60778,51.156521,47.345352,57.283001,0.0,-61.838839,-31.780591,-103.408321,-23.811669,-105.210908,-15.678522,-93.598835,-7.898063,-70.956441,144.810963,22.370893,-146.402206,28.996681
44,-2.838364,4.164818,1.322994,6.665895,0.0,27.790146,-5.001526,-26.957474,-19.153862,-42.751694,-33.40519,-52.276382,-46.599655,-61.482811,0.0,-63.91569,-42.323609,-112.794599,-38.274264,-117.060071,-30.563984,-105.680705,-19.989658,-80.816377,0.0,-44.29224,-2.27869,23.362427,14.625835,38.657513,31.897602,48.426304,48.375835,57.474976,0.0,-58.77219,-33.458133,-104.511523,-26.434147,-107.07469,-18.726893,-95.903299,-11.015038,-74.322858,141.70661,30.66121,-145.345201,39.788075
45,-5.626717,10.120553,3.65839,8.383823,0.0,29.743538,-5.109673,-26.054878,-20.157852,-40.725746,-34.895439,-51.235542,-47.929001,-61.006622,0.0,-60.630599,-43.111297,-112.077245,-38.405082,-115.858933,-30.34758,-104.060405,-20.162096,-79.5257,0.0,-48.084469,-4.099331,19.076214,13.092556,34.71199,30.216808,45.220356,46.141605,53.445454,0.0,-53.709675,-29.381,-100.331853,-22.896435,-103.149555,-15.371901,-92.37346,-8.030178,-71.389929,135.969858,41.271428,-141.796846,48.661563
46,-6.718483,17.92528,4.124165,11.35374,0.0,32.935295,-4.175377,-25.081902,-20.950127,-37.562485,-36.850548,-46.422157,-50.267258,-58.712311,0.0,-60.483973,-41.092923,-110.64445,-36.199697,-112.200591,-29.615312,-103.984822,-22.347783,-80.772318,0.0,-49.457073,-6.485996,16.159859,11.610031,31.705685,29.704514,41.5028,46.669693,49.9189,0.0,-46.395771,-22.417684,-92.358856,-15.427599,-93.072197,-9.535869,-83.668628,-5.431813,-64.236082,128.358679,57.453896,-138.565378,58.27249
47,-7.83371,8.988853,2.059364,3.145659,0.0,35.526581,-4.20536,-22.887497,-19.324837,-38.00354,-33.533134,-47.972488,-45.467606,-56.39431,0.0,-45.1494,-25.577329,-91.550883,-20.039522,-89.146723,-14.70265,-83.018057,-10.148526,-62.106434,0.0,-47.893925,-3.637962,13.995495,15.437908,30.904427,32.982788,40.956459,47.880306,49.19775,0.0,-27.240885,-5.394732,-62.665152,-0.312704,-66.2225,2.223293,-59.835933,2.768487,-44.063241,118.584108,62.919826,-138.446875,57.895226
48,-4.296684,9.105407,2.56216,2.796182,0.0,37.479172,-5.138741,-21.755104,-17.792244,-35.995331,-28.812675,-46.223717,-37.430534,-54.443779,0.0,-19.964495,-23.206484,-71.502963,-18.00889,-66.009986,-11.227923,-57.453448,-4.542237,-33.429574,0.0,-38.815155,5.86441,12.524815,23.881359,35.134907,39.030418,48.206863,49.87318,58.939991,0.0,-4.024305,-2.9538,-20.706735,-1.217348,-19.837536,-0.096176,-17.056205,0.484494,-5.477262,114.589891,70.018036,-135.582247,58.684211
49,-1.306572,7.446143,4.282722,17.918395,0.0,37.356949,-3.762817,-15.764809,-17.451324,-33.17791,-28.964767,-44.734039,-37.374001,-53.380051,0.0,-2.866886,-15.785567,-51.8144,-13.815142,-49.240334,-10.521406,-41.477289,-6.517231,-25.481308,0.0,-10.573769,5.952244,11.030273,19.039364,20.180054,29.693642,30.329704,38.745289,38.501816,0.0,-11.259848,-19.996451,-18.6954,-19.241212,-12.79169,-13.429603,-7.509406,-4.180225,-2.138262,113.588219,77.036711,-130.994625,76.175138
50,-1.813202,16.678755,1.254101,38.275808,0.0,40.086823,-1.094513,-16.462212,-14.670868,-30.90786,-27.262573,-41.909981,-38.194885,-52.564659,0.0,-18.972351,-13.827801,-63.904019,-9.406903,-62.74694,-5.122722,-55.700662,-0.891089,-37.863624,0.0,-56.605225,-7.291946,14.537373,11.099167,27.590675,30.166683,37.386532,48.966579,45.228996,0.0,-35.050367,-20.18022,-61.64028,-12.356906,-62.349823,-5.489951,-55.00807,0.546584,-40.958029,112.234726,93.125549,-129.280815,113.861029
51,0.052986,18.072339,-1.194019,0.938205,0.0,44.174652,0.333023,-16.535683,-15.429153,-31.906471,-30.332336,-42.819557,-43.5466,-55.429115,0.0,-35.923364,-16.455806,-81.490506,-10.070165,-85.841255,-4.752497,-76.009354,-0.815816,-56.621021,0.0,-52.981968,-8.49123,13.915615,10.530338,29.700737,29.666176,39.970837,47.383804,48.830624,0.0,-41.127287,-8.344426,-70.913092,-0.705653,-75.812339,3.870423,-67.060052,5.70546,-50.227569,112.748365,110.730005,-130.014181,114.331351
52,1.937256,10.547835,-0.148602,-2.633068,0.0,44.009514,-0.291252,-17.885742,-17.056046,-32.913895,-33.191299,-44.109306,-48.939629,-55.026169,0.0,-47.438766,-25.449537,-94.587398,-19.413774,-98.731252,-12.761834,-87.882723,-6.752747,-69.107171,0.0,-54.823322,-7.456284,11.531239,10.578232,30.224361,28.272228,40.660286,44.835377,48.666344,0.0,-39.594241,-10.128858,-72.283489,-1.6831,-74.986983,4.379895,-66.449402,7.717196,-47.904364,114.530067,120.761514,-130.318336,111.181956
53,0.992889,-1.435357,-1.300106,-1.525081,0.0,43.865433,1.081352,-18.130875,-16.43177,-31.48098,-33.133278,-43.332939,-47.880135,-53.566246,0.0,-46.770935,-23.210745,-94.210782,-17.784921,-98.246511,-12.139143,-87.171945,-6.35526,-68.023544,0.0,-53.734131,-6.234169,12.941151,12.458725,33.306484,29.772434,43.027496,45.650482,49.587879,0.0,-40.639274,-11.51673,-75.105575,-2.736408,-76.832672,3.924609,-67.644767,8.199034,-47.752365,115.304375,119.006752,-131.837025,109.337472
54,0.428009,0.210291,-0.033531,-0.802014,0.0,44.07074,0.974693,-16.792374,-16.899033,-30.381088,-33.898201,-41.940193,-48.747139,-52.540283,0.0,-46.892614,-23.393125,-94.591535,-18.131496,-99.234518,-12.637778,-88.395097,-6.948496,-70.00073,0.0,-53.868027,-5.734005,14.061527,12.800789,32.979927,30.177383,43.69772,45.942822,50.4879,0.0,-39.359805,-12.593904,-75.905706,-3.923065,-75.886131,2.527753,-68.175419,6.924228,-49.079999,115.707092,118.971478,-131.895847,108.289891
55,0.071754,0.461368,-0.041599,-0.965375,0.0,43.479652,1.005478,-16.366425,-16.858292,-30.600586,-33.90152,-42.383652,-48.768311,-52.689972,0.0,-47.250057,-23.102743,-93.968381,-18.053227,-98.671292,-12.759364,-87.905478,-7.196918,-70.110615,0.0,-53.179092,-4.515038,15.786495,14.270096,34.257259,31.774921,45.270538,47.617264,51.351757,0.0,-38.632787,-11.900694,-74.057146,-3.490905,-73.988942,2.683796,-67.71578,7.041183,-48.664882,115.878496,118.753854,-131.837797,106.645524
56,-0.390244,0.395635,1.279678,0.056347,0.0,43.052559,0.02758,-16.133537,-17.84008,-30.015221,-34.833298,-41.906204,-49.438705,-52.924805,0.0,-46.715082,-23.546883,-93.318859,-18.81461,-98.365998,-13.509786,-88.236985,-7.749985,-70.185549,0.0,-53.683147,-5.27235,14.13929,13.368587,32.255802,31.454029,44.192905,47.791958,51.812382,0.0,-39.506648,-10.700389,-72.081287,-2.428397,-73.530538,3.115524,-67.588852,6.754569,-49.892604,115.443907,118.665581,-130.602465,106.217964
57,0.205879,0.447166,0.141449,0.792721,0.0,42.130051,-0.258751,-18.176079,-18.373604,-31.490021,-35.505066,-43.753624,-50.289688,-54.173584,0.0,-47.390199,-23.208028,-92.78796,-18.153664,-97.312196,-12.734232,-86.83485,-6.933892,-69.197419,0.0,-54.148979,-4.986935,14.671497,14.029655,32.836647,32.323952,44.084187,48.682594,53.405571,0.0,-39.360454,-10.498527,-71.114491,-2.310237,-73.807983,3.318622,-67.556618,6.760713,-49.121681,115.637455,118.574978,-130.473347,106.472916
58,-0.542793,1.263938,0.643044,1.063929,0.0,43.125,0.147057,-17.385979,-17.908401,-31.290207,-34.957123,-44.302025,-49.768524,-54.135132,0.0,-48.005851,-23.529531,-93.343096,-18.082126,-98.003276,-12.268541,-86.848064,-6.147501,-69.225145,0.0,-53.981209,-5.05228,14.463902,14.227295,33.733978,32.823315,44.877319,49.520187,53.001137,0.0,-39.800549,-9.519629,-71.174636,-1.319143,-74.156162,3.862828,-67.644427,6.783622,-49.946234,115.105276,119.621926,-129.819689,107.319854
59,-0.333481,0.298285,-0.852699,-0.216312,0.0,42.62146,0.305443,-16.424332,-17.594032,-30.728073,-34.557037,-43.723526,-49.299545,-53.607559,0.0,-47.217051,-22.859539,-91.858616,-17.628724,-96.810845,-12.001594,-86.251864,-5.984479,-68.738737,0.0,-53.178749,-5.098457,14.87606,14.67207,34.074669,33.544636,45.26104,50.349312,53.449974,0.0,-39.66652,-9.511879,-70.222476,-1.736391,-73.511365,3.236277,-66.986662,6.196469,-50.004557,114.773054,119.746507,-130.671129,106.929838
60,-0.855331,0.48471,-0.150547,0.469427,0.0,43.459396,0.599556,-16.319046,-17.434845,-30.53112,-34.390068,-42.496719,-49.010124,-53.519554,0.0,-47.912978,-22.696951,-92.230261,-17.583646,-97.092735,-12.133987,-86.903084,-6.286223,-69.186242,0.0,-52.752056,-5.396233,15.48111,14.155197,34.28587,32.999096,45.633945,49.845657,53.783112,0.0,-40.318326,-9.955679,-71.274857,-1.949893,-74.232517,3.182215,-67.709203,6.191436,-50.890645,113.899126,120.062391,-130.840273,107.230439
61,0.432587,-1.637065,-0.372505,0.022014,0.0,42.602463,-0.584335,-16.708717,-18.869362,-30.661011,-35.997963,-42.892456,-50.736465,-53.282661,0.0,-46.279155,-20.952532,-90.382936,-15.658237,-95.391851,-10.339026,-85.205812,-4.768614,-67.193711,0.0,-52.629089,-4.47464,16.159573,14.813232,34.573116,33.203087,46.035862,49.634857,54.163799,0.0,-41.373116,-10.530483,-71.657031,-2.076666,-74.517186,3.505478,-68.200397,6.711436,-50.291759,114.275093,118.328285,-131.269398,107.155413
62,0.387611,0.422496,-0.177326,-0.220017,0.0,42.430229,-0.437279,-17.507515,-18.716812,-31.347198,-35.961571,-43.667221,-50.868187,-54.037743,0.0,-46.300088,-21.090637,-90.68261,-15.736444,-95.514117,-10.416708,-84.911479,-4.956428,-67.229958,0.0,-52.597847,-4.416504,17.623615,14.957886,36.286068,33.435574,46.827736,49.973831,55.34626,0.0,-41.565252,-10.764733,-73.023783,-2.398077,-75.297279,2.99471,-68.411244,6.356217,-50.549073,114.55862,118.566256,-131.550808,106.75087
63,-0.238724,0.533307,0.484257,-0.307702,0.0,42.587814,-0.486145,-17.236404,-18.632584,-31.178284,-35.658646,-43.217697,-50.36293,-53.765144,0.0,-46.939576,-21.863474,-91.514543,-16.53003,-96.211341,-11.059653,-85.747795,-5.386488,-67.733873,0.0,-52.767105,-4.429951,17.526569,14.742622,36.729126,33.107185,47.036533,49.643841,55.028286,0.0,-41.652197,-10.885085,-72.655411,-2.400177,-74.836436,3.178849,-68.053215,6.76519,-49.953768,114.199247,118.960038,-131.187201,106.303643
64,0.180931,0.551061,0.36478,-0.466524,0.0,42.170563,0.075188,-17.176895,-17.883224,-30.918846,-34.924278,-43.390732,-49.772758,-53.65036,0.0,-47.578538,-22.822983,-92.050814,-17.592538,-96.926442,-11.959882,-86.347392,-6.009951,-67.935395,0.0,-52.35323,-5.177937,17.642841,14.13311,36.49807,32.647076,46.780758,49.390583,54.525261,0.0,-41.739573,-10.591462,-72.785118,-2.242744,-75.320127,3.280398,-68.098293,6.891006,-50.050716,114.246511,119.414305,-130.956087,105.740325
65,0.167198,-0.656592,1.112194,0.159903,0.0,42.398071,-0.002403,-17.060738,-18.315125,-30.62027,-35.46936,-43.126717,-50.305481,-53.515434,0.0,-47.436358,-22.09899,-91.2534,-16.65776,-96.116708,-11.064377,-85.429071,-5.197687,-67.893281,0.0,-52.200165,-4.846458,16.565495,14.135113,35.462437,32.353535,46.610928,49.091835,53.334503,0.0,-42.330278,-11.213628,-72.655226,-2.491783,-75.443288,3.472596,-68.498991,7.241872,-50.077423,114.35174,118.74067,-129.905863,105.883184
66,0.109749,1.036018,0.892124,-0.243389,0.0,42.542152,0.123367,-17.158356,-18.00499,-30.904312,-35.130844,-43.642159,-50.075684,-53.764687,0.0,-47.935147,-23.0095,-92.939372,-17.511058,-97.518999,-11.691607,-86.473301,-5.617558,-68.57692,0.0,-53.245926,-6.17094,16.008224,12.837181,34.655399,31.177711,45.615578,47.945366,52.320271,0.0,-41.782212,-10.671675,-72.165206,-1.866684,-74.448396,4.040762,-67.947282,7.475598,-49.640353,114.421949,119.756835,-129.053278,105.619942
67,0.099335,0.414531,0.273914,1.410256,0.0,42.084274,0.257263,-17.368011,-17.87796,-30.994949,-35.052795,-43.576813,-50.151215,-53.623466,0.0,-49.191798,-23.162302,-93.27761,-17.692265,-97.990339,-11.916903,-86.897465,-5.974661,-68.958877,0.0,-53.559608,-6.077728,16.133137,12.420959,34.919815,30.173435,44.748516,46.695156,52.802639,0.0,-42.241543,-12.076868,-74.525121,-3.26317,-77.066768,3.166901,-68.929731,7.197813,-49.981154,114.529037,120.149274,-128.77161,107.008107
68,0.342979,0.813376,0.384922,0.279976,0.0,42.2192,0.386124,-17.707558,-17.413216,-31.590385,-34.44603,-43.95195,-49.543877,-53.821564,0.0,-49.814984,-23.864373,-93.429855,-18.353982,-98.132149,-12.559478,-87.316688,-6.585465,-69.648413,0.0,-53.451405,-5.835457,16.458435,12.488766,35.302105,29.893112,44.860382,46.150131,52.289772,0.0,-42.379277,-11.995728,-74.531883,-2.979272,-77.006098,3.657384,-68.782981,7.901305,-49.016396,114.872217,120.937395,-128.386488,107.262828
69,0.441971,0.234621,0.245647,0.862375,0.0,42.645721,-0.535355,-18.106041,-18.417549,-30.977211,-35.344162,-43.20694,-50.142174,-53.976746,0.0,-49.698738,-23.870116,-93.698933,-18.447565,-98.04999,-12.664608,-87.613955,-6.609918,-69.513025,0.0,-53.541527,-5.971928,16.778641,12.497749,35.828304,29.704971,45.135212,45.629025,52.01849,0.0,-42.792387,-12.946344,-76.757553,-3.890091,-78.579375,2.96825,-69.810724,7.514655,-50.269683,115.332212,121.126227,-128.122816,108.079415
70,0.758858,-0.255955,0.744495,-0.243173,0.0,42.405739,0.133781,-18.026733,-17.863426,-30.650024,-35.00988,-43.739433,-50.017548,-54.209404,0.0,-49.236197,-23.13297,-93.044255,-17.32309,-97.389693,-11.566686,-86.720457,-5.869037,-68.555771,0.0,-53.776875,-6.380768,16.950874,11.834106,36.228046,28.864002,45.034676,44.658852,51.307125,0.0,-42.577496,-13.021309,-77.286538,-3.744174,-78.194516,3.447989,-68.989598,8.350292,-49.028438,116.119909,120.841697,-127.349482,107.807667
71,0.388069,0.769904,0.040169,-0.166325,0.0,42.452087,0.612946,-17.255058,-17.074471,-30.554695,-34.018707,-43.295403,-49.146423,-53.676682,0.0,-49.677898,-24.019768,-94.3169,-18.347005,-98.586818,-12.460153,-87.673204,-6.360107,-69.103929,0.0,-52.623997,-5.089645,16.659107,13.058338,36.117668,29.76265,45.559616,45.170517,51.737823,0.0,-42.595187,-12.933994,-75.995337,-3.776192,-78.041838,3.442678,-68.432424,8.424887,-48.587787,116.411104,121.47135,-127.406187,107.501092
72,1.32431,0.2981,-0.20628,-0.012937,0.0,41.348076,0.334854,-19.010468,-17.715797,-32.307816,-34.75811,-44.337273,-49.847832,-54.627342,0.0,-50.38494,-23.898212,-93.911354,-18.110192,-97.953104,-12.132134,-86.847941,-6.091863,-69.427841,0.0,-51.964989,-4.446774,17.948341,13.802204,37.564259,30.747414,46.257362,46.246834,52.441692,0.0,-42.93185,-12.843221,-75.988637,-3.404208,-76.573876,3.663528,-68.292529,8.593249,-49.20455,117.604551,121.595299,-127.74333,107.314003
73,0.096245,0.105346,0.364666,-1.47355,0.0,40.360794,0.038452,-18.485641,-17.72953,-31.106987,-34.652023,-43.601418,-49.535065,-54.615211,0.0,-51.122518,-23.736797,-94.525771,-18.274787,-98.868863,-12.33517,-88.452463,-6.134718,-69.666166,0.0,-51.351299,-3.186951,19.361343,15.186253,38.035069,32.276344,47.205963,47.724495,53.582783,0.0,-42.483604,-12.201418,-75.001495,-2.949478,-75.350261,3.790271,-67.72603,8.257666,-49.242835,117.68815,121.625927,-127.39131,105.765735
74,0.418167,0.537383,0.128174,-0.180064,0.0,37.133102,-0.267334,-20.191612,-18.110275,-32.625504,-35.005989,-45.51178,-49.906883,-56.033707,0.0,-54.918995,-24.759816,-96.49459,-18.869043,-100.560021,-12.597763,-90.287994,-6.090567,-70.233776,0.0,-48.909988,-2.259693,20.995216,15.956669,39.585171,33.241081,49.835014,48.88195,55.652905,0.0,-44.4456,-12.291883,-74.867249,-2.912427,-76.007131,3.847452,-69.39218,8.536778,-50.314514,117.876234,122.108661,-127.493219,105.531022
75,1.062126,-0.8495,0.554638,-0.561589,0.0,29.813805,-0.755196,-25.315018,-18.704796,-38.495522,-35.643768,-49.594917,-50.86544,-60.00103,0.0,-61.467163,-24.811686,-96.229835,-18.128655,-99.349713,-11.485299,-89.373409,-4.846111,-69.925889,0.0,-46.851368,-1.682568,24.49482,16.358471,42.369633,33.726768,51.655827,49.67783,58.007412,0.0,-46.891225,-13.530411,-74.640193,-3.383552,-75.449278,4.059194,-68.572351,9.449943,-50.341992,118.61804,121.141017,-127.258902,104.851289
76,1.331635,-2.262782,1.622658,0.297143,0.0,19.164848,-2.7071,-34.298401,-20.319099,-50.096512,-37.013054,-59.951935,-52.02919,-69.310112,0.0,-66.503866,-25.43308,-93.813943,-17.243926,-96.231564,-9.149497,-84.619893,-1.279438,-65.321407,0.0,-41.547661,0.268593,27.956085,17.617264,45.48666,34.285641,55.375843,49.560184,60.411015,0.0,-53.176583,-16.133715,-76.11152,-5.571709,-75.315403,2.739434,-68.281136,9.085369,-49.506726,120.029612,118.202561,-125.556307,104.472759
77,-0.206108,-3.220037,0.117359,-0.999863,0.0,5.644798,-7.543602,-46.337814,-23.660545,-64.358482,-38.896294,-71.487465,-52.670746,-78.74897,0.0,-67.732082,-23.493129,-89.289645,-13.497745,-89.890569,-4.107854,-77.953535,5.019845,-57.972337,0.0,-30.674229,3.787708,36.899643,20.268517,54.162941,35.689774,62.295284,49.94133,66.405888,0.0,-59.195828,-14.798548,-75.090477,-2.890722,-74.564302,6.877452,-65.123744,14.395503,-46.690722,119.67061,114.658397,-125.591841,103.148768
78,-2.201958,-1.224264,1.767654,0.272875,0.0,-6.218147,-11.981506,-60.3479,-26.477394,-76.681137,-40.264549,-82.747307,-52.68116,-89.130707,0.0,-69.812978,-24.712546,-86.87014,-12.8393,-84.916635,-1.480528,-72.70333,9.395943,-50.988797,0.0,-20.434513,4.793472,45.229282,19.399967,60.776711,33.745708,69.002781,47.396107,70.93689,0.0,-64.141017,-16.697095,-72.559945,-2.525221,-70.518168,9.724331,-59.930998,19.390556,-41.122162,116.742868,113.23102,-124.549971,103.218531
79,-3.197136,-2.605435,1.037292,4.88103,0.0,-14.480324,-19.705124,-75.508575,-33.12561,-92.630768,-44.852829,-95.864296,-54.581909,-98.659973,0.0,-66.462926,-22.095471,-75.474873,-8.793722,-71.66055,3.795119,-58.756011,15.812891,-36.268209,0.0,-4.381828,6.057415,57.010117,19.131145,71.335831,32.739601,76.945438,45.861626,76.974049,0.0,-67.628248,-19.426031,-74.264905,-4.807856,-70.667943,8.866217,-58.920823,20.435836,-39.886135,112.621708,110.215671,-124.436703,107.689646
80,-4.285812,0.32737,3.542862,2.272508,0.0,-24.188004,-24.331169,-87.335014,-37.306824,-103.958015,-47.941589,-106.728287,-56.175613,-105.274429,0.0,-62.763211,-20.829525,-65.833257,-7.27,-57.924511,5.835599,-44.494969,18.278431,-22.010502,0.0,5.085754,8.129253,65.822239,20.034714,80.047989,31.999912,83.529797,43.157444,83.119469,0.0,-68.099929,-16.112319,-66.783688,-0.512374,-63.237485,13.750088,-50.142693,25.595546,-30.16415,108.273954,109.720494,-120.955782,109.139608
81,-5.786591,2.340464,2.633343,4.423769,0.0,-33.636818,-29.8526,-95.424614,-41.310768,-110.397263,-49.68132,-110.283051,-55.546646,-105.148087,0.0,-58.29242,-18.45939,-53.566506,-3.017218,-42.857688,11.833602,-30.00962,25.633893,-9.613613,0.0,14.660625,13.280239,75.737801,22.373486,88.840084,31.725483,90.586166,40.191994,84.839687,0.0,-67.770491,-15.540541,-59.039322,1.644166,-53.290173,17.50195,-38.975718,31.039061,-18.56628,102.671728,109.689418,-118.138075,111.191836
82,-5.243225,5.898739,2.277317,6.433714,0.0,-43.18222,-36.798248,-101.750565,-45.750504,-113.508911,-50.178909,-112.376003,-51.385918,-101.585426,0.0,-53.27489,-14.796387,-41.845784,0.941354,-28.965358,16.721981,-13.801248,31.855339,6.254699,0.0,28.059196,18.175163,82.912045,25.030689,94.214573,32.330475,95.88398,38.592796,88.272343,0.0,-62.79174,-12.856961,-49.639118,5.418969,-41.323036,21.70388,-27.247863,35.353994,-8.043763,97.498798,113.73671,-115.790462,115.774103
83,-8.75473,8.947974,5.08358,7.617747,0.0,-49.340515,-41.96022,-94.813957,-49.678917,-100.914345,-52.683563,-98.936176,-51.77021,-91.673927,0.0,-47.282043,-10.849949,-30.785359,4.812333,-16.935575,20.2148,-1.362646,34.289695,15.439517,0.0,35.27195,20.635872,89.402447,25.830803,102.802849,31.646519,100.375557,36.023941,89.609127,0.0,-58.092256,-8.791221,-37.388948,9.111953,-27.101052,24.757654,-13.515313,37.050988,4.750336,88.338575,120.818293,-111.112375,121.525459
84,-6.324005,14.421315,3.838692,8.299811,0.0,-55.900726,-73.493729,-153.153934,-72.638741,-153.101463,-67.271118,-136.647778,-57.246437,-113.736877,0.0,-40.82965,-17.627767,-35.351987,-1.932232,-11.817115,14.673071,6.391106,32.352029,16.459881,0.0,41.86203,24.933987,95.028191,28.593979,107.078476,32.169285,101.212463,33.96246,86.121082,0.0,-52.357186,-4.610039,-26.586053,12.888546,-14.129791,28.373141,-2.393508,40.941758,15.060987,81.326551,133.724901,-107.961702,128.310564
85,-9.877167,8.054847,12.600117,13.221195,0.0,-66.767921,-69.911156,-135.378571,-66.933861,-125.378723,-58.775711,-115.840244,-46.457291,-94.834042,0.0,-21.76597,-12.815928,-33.577373,6.251735,-6.221786,24.49855,15.352449,42.892268,27.38217,0.0,44.551735,38.463879,106.768398,47.826977,115.619259,53.451576,115.410633,54.661732,101.939678,0.0,-42.257011,-4.023101,-17.674265,16.684776,-11.068453,33.500648,5.613977,48.363355,19.658058,70.764399,141.371748,-96.046572,141.123759
86,-4.966965,17.479813,1.952705,12.532493,0.0,-67.420464,-71.238899,-112.35569,-66.599464,-95.507069,-56.964226,-85.657425,-43.22731,-75.112267,0.0,-15.003806,-9.435525,-32.157453,10.071863,1.481948,27.279603,18.464423,43.162612,26.91472,0.0,53.621006,31.947727,106.517658,36.120186,113.720112,39.026642,111.644611,39.837399,93.074856,0.0,-39.471975,6.527945,-9.007533,26.198477,3.018237,41.890677,15.914625,54.005305,30.232569,65.16675,158.245666,-94.72455,153.050357
87,-1.40316,16.716454,4.426746,14.313313,0.0,-66.032867,-72.708092,-101.969833,-70.214996,-82.542973,-63.166695,-72.891197,-52.286568,-72.75547,0.0,-7.435367,-4.227433,-29.041898,16.14977,3.267708,34.520209,22.009885,51.174913,36.176788,0.0,57.574654,33.753147,104.832001,30.508289,108.834114,26.703472,101.003494,21.839218,74.817867,0.0,-31.7541,9.863702,8.039286,25.491682,27.80127,38.448277,43.529903,48.794743,52.744176,63.120918,174.258304,-90.940475,166.659854
88,-13.932724,14.81942,5.207176,14.901424,0.0,-80.394287,-47.617722,-85.078812,-42.530708,-70.540581,-37.958336,-67.638474,-32.895355,-69.658871,0.0,-2.596728,-0.133196,-18.155547,24.055861,10.837444,46.381414,30.929299,65.325761,47.896522,0.0,59.321022,33.842125,102.997055,29.697876,107.151947,24.371281,95.098,17.499218,67.307854,0.0,-27.838382,13.903476,19.688254,28.577967,36.60126,40.20909,45.752115,48.151428,52.116421,48.780069,188.48793,-86.141424,180.971485
89,-3.939743,17.227562,6.163788,14.61904,0.0,-71.697922,-43.139763,-73.622131,-40.104446,-69.430332,-36.693649,-72.042217,-31.970787,-76.93737,0.0,13.201003,5.587363,-9.177593,28.64157,13.391503,50.02018,36.47813,67.674994,59.510107,0.0,62.190228,32.591572,89.443016,28.964081,91.271553,24.096107,75.995522,18.12973,51.447544,0.0,-21.976416,17.886871,24.530722,29.816927,41.453113,38.134831,46.190111,42.456496,46.227099,44.63768,205.376143,-80.180283,195.251175
90,-5.557938,19.726787,10.251732,16.081536,0.0,-78.000526,-37.859802,-56.065407,-30.695572,-49.047089,-24.652634,-51.196289,-18.856544,-62.355022,0.0,30.355762,7.94981,5.240634,27.478007,22.184083,46.041292,38.134337,61.131858,61.049113,0.0,66.428719,39.159508,101.71772,37.928467,97.24205,35.552273,90.491753,30.917873,77.385864,0.0,-15.297677,23.117502,28.124781,50.167825,40.949786,69.702198,60.884115,82.796928,74.989021,39.446325,224.351504,-69.561968,210.581286
91,-2.849579,13.389959,-3.343048,13.025447,0.0,-82.725506,-25.676994,-63.016033,-16.356125,-65.264397,-9.031334,-71.392765,-3.802757,-70.258198,0.0,44.00464,15.912711,8.359524,32.777119,21.359221,47.774812,41.337455,58.594101,69.304896,0.0,74.624405,36.057243,107.551231,30.267792,108.505096,23.926849,95.788193,17.366352,70.629616,0.0,-10.457432,22.709085,44.856611,44.049348,63.755818,60.899985,76.40397,72.259838,87.08253,37.14366,237.457736,-72.358103,223.323005
92,3.926926,11.316442,7.595673,11.786672,0.0,-66.947021,-28.937874,-73.849411,-25.038643,-78.069763,-21.792068,-81.748695,-17.878876,-73.691368,0.0,-7.711206,28.124781,9.600769,44.668334,21.022866,56.049243,41.490719,61.554972,71.822336,0.0,72.955513,35.435829,98.668556,28.250771,101.11908,20.581169,88.082886,12.491341,64.384003,0.0,-9.25898,26.942199,53.53983,45.544572,68.908273,59.164305,79.191384,67.581627,85.627506,41.123686,248.666964,-64.70933,235.002462
93,-1.486015,9.435957,5.020924,10.348566,0.0,-62.145767,-34.577751,-68.376846,-25.098724,-65.996418,-15.577583,-58.977985,-5.324593,-47.270622,0.0,-5.795708,31.916874,40.213474,40.552237,43.375157,45.388899,48.007796,45.540003,60.955252,0.0,73.119678,36.06348,98.400478,26.68951,96.504421,17.38678,83.171711,8.35619,60.542507,0.0,-5.693635,29.867625,59.251682,47.867993,75.815365,60.693121,84.277765,68.269712,87.710594,39.579306,258.082636,-59.746771,245.330744
94,3.509216,19.65213,4.494438,9.63572,0.0,-57.270355,-43.697548,-20.442696,-40.561066,-9.701042,-34.516525,-5.317497,-27.925873,-9.67289,0.0,4.662897,12.629009,44.698344,16.239803,52.07758,18.786698,49.618494,20.315145,44.054782,0.0,72.435551,36.951027,96.317196,27.587872,95.682049,17.708015,79.77808,7.725849,56.518307,0.0,-3.759489,29.14885,57.7735,45.969044,76.49462,58.556928,86.115149,67.203344,88.999757,42.992935,277.795343,-55.347919,255.02704
95,1.860695,20.9027,4.98888,8.396574,0.0,-55.308609,-49.098816,-19.123878,-48.515625,-6.548195,-45.488319,-3.951187,-40.593681,-12.717018,0.0,18.56804,8.929912,39.486363,6.281993,41.423411,3.151371,34.692678,-0.525496,27.22483,0.0,73.085289,34.97406,94.702492,25.508995,93.981857,15.623531,78.334465,5.841007,55.340881,0.0,-1.57445,28.997005,59.438538,45.996215,76.470105,58.611886,85.774533,67.116091,86.948779,44.752378,298.706333,-50.460291,263.431904
96,-1.652412,2.570917,3.206749,6.851702,0.0,-48.898087,-48.850021,-16.659851,-49.133377,-1.551018,-46.727142,0.630341,-41.724472,-7.65976,0.0,12.658279,17.181188,46.43878,14.390995,47.326751,9.709511,39.127716,4.137154,27.429718,0.0,71.343269,34.843597,92.935982,25.535603,91.188927,15.323124,76.682281,5.205002,54.612694,0.0,1.303551,29.411351,60.439698,46.217405,76.438982,58.647207,85.194018,67.189574,85.780708,42.812548,301.311506,-47.54096,270.317863
97,-0.890579,-1.164119,0.997124,3.379477,0.0,-46.206093,-43.264847,-12.120895,-42.52739,0.275803,-38.654594,3.662453,-32.240639,-3.544464,0.0,16.505329,17.472403,46.436001,17.364154,51.574562,16.125009,45.000613,13.718286,36.224521,0.0,70.203438,32.674084,91.621399,23.303604,90.581589,13.043346,76.287575,2.950802,52.620049,0.0,3.372993,29.852372,60.569559,47.108525,75.019032,59.62064,85.021919,67.702472,85.572115,41.859627,300.169077,-46.606178,273.719029
98,-33.973274,-18.278739,-1.387711,2.679844,0.0,-20.946407,-25.688267,24.856339,-37.400265,26.99604,-46.163692,14.993706,-51.02726,-69.24757,0.0,-3.050964,26.803507,49.886182,43.46945,59.234144,53.705321,64.871648,62.615103,85.994365,0.0,69.255066,32.32029,91.583519,23.033066,90.527229,13.33437,77.643127,4.532604,57.597198,0.0,1.783784,31.27541,59.948967,49.712046,71.734095,62.361,80.991655,69.796244,83.538921,7.784643,281.836892,-48.095598,276.345428
99,-17.056618,12.602827,-1.116085,-0.509997,0.0,9.162483,-11.929436,50.715179,-21.266384,41.26339,-26.66153,24.411736,-27.541351,-34.162159,0.0,-3.740531,14.305471,38.669219,32.175423,49.772499,45.699813,57.155749,58.020193,70.147418,0.0,68.607616,32.302837,91.783962,23.460274,90.869122,13.624763,78.936138,4.064941,57.544384,0.0,1.438538,31.057802,58.804176,48.668958,71.509015,60.797233,81.200927,68.136578,82.978166,-9.315605,294.319985,-49.255314,275.715698
100,31.406937,-6.723879,0.067692,-1.189498,0.0,-41.542282,-40.75098,6.61972,-47.487602,3.537712,-50.338898,-4.250107,-50.501461,-77.186508,0.0,0.562485,24.119896,41.011104,41.19617,52.74467,51.897763,57.066458,60.513551,72.369136,0.0,68.929024,31.344395,91.8433,22.509155,91.952133,12.603035,79.24839,3.183575,56.88755,0.0,2.309836,30.638393,59.612119,48.501614,73.480088,60.946113,82.564932,68.520912,83.714293,22.085981,287.563116,-49.192972,274.493209
101,-23.690643,5.931868,0.32856,-0.596756,0.0,-0.562935,-15.204449,44.461212,-24.209633,44.125786,-29.65765,34.925995,-31.35664,-22.821236,0.0,-8.588309,15.425994,41.573712,32.296206,53.571817,44.13092,56.091789,52.304143,62.122149,0.0,69.652061,31.051769,91.738129,22.331886,91.541862,12.380848,79.054413,2.797966,57.127762,0.0,3.088879,30.813332,59.837075,48.633142,73.404382,61.189471,82.730423,68.954956,84.359831,-1.580658,293.461701,-48.840408,273.86317
102,18.705025,-7.579184,0.157528,0.887477,0.0,-35.672379,-36.983528,13.678322,-44.891911,12.7668,-48.635216,3.496971,-49.102764,-59.276733,0.0,9.193216,24.29465,44.996784,41.025615,57.249424,51.448159,59.695297,59.22624,74.595115,0.0,69.07156,29.07383,91.749058,20.256214,91.264057,10.903587,79.353962,2.044544,57.483501,0.0,3.027561,30.59665,59.02586,48.778503,72.646149,61.468274,82.407592,69.175035,83.505453,17.157927,285.727168,-48.649321,274.595298
103,-19.004517,10.57729,-0.201817,0.782007,0.0,10.545731,-15.477848,43.842773,-22.863522,45.729332,-26.815453,35.209923,-27.973652,3.164635,0.0,-18.680117,15.282054,36.74273,31.48919,47.526019,43.643771,53.430285,52.95351,59.812869,0.0,69.296379,29.53022,91.150589,20.938797,90.924225,11.641331,78.700676,2.647419,57.78614,0.0,2.154348,30.482103,58.286831,48.46796,71.910516,61.217074,81.737106,69.1964,83.233442,-1.826305,296.208483,-48.830853,275.28133
104,22.686653,-8.002483,-0.013847,0.421755,0.0,-43.819427,-43.152122,8.773155,-50.871334,5.36396,-52.882919,-3.972816,-51.527596,-70.11858,0.0,14.540184,21.250293,41.138248,37.676273,53.022177,48.750654,56.515891,57.234728,69.090807,0.0,68.86425,29.418697,91.069565,21.055183,91.100349,11.80418,79.170456,2.800083,58.666878,0.0,1.404884,29.812358,57.572317,47.650755,71.214218,60.614575,81.168385,69.069071,83.280866,20.909958,287.999831,-48.79509,275.496916
105,-21.021767,7.871202,0.140247,-0.193896,0.0,3.736153,-16.102467,40.943527,-25.422935,40.296364,-30.466404,29.791145,-32.140102,-27.205639,0.0,-18.535004,13.117578,38.112663,31.399343,51.13249,44.201933,55.324108,53.27313,61.65581,0.0,68.371525,29.219055,89.407482,20.792828,89.844646,11.365128,78.235874,2.058163,57.358189,0.0,1.514491,29.602407,57.145931,47.450622,71.136413,60.492803,81.234396,68.988734,83.80204,-0.025663,295.758276,-48.568697,275.190263
106,20.821037,-8.963875,-0.466976,0.062183,0.0,-37.887268,-42.651386,12.650986,-52.27232,13.704758,-56.118507,1.091652,-56.32473,-75.31826,0.0,-2.933145,21.76912,43.810621,40.05317,53.123447,52.192127,59.627803,61.765047,75.508095,0.0,67.990608,28.697891,89.212303,20.514679,90.268822,11.519108,79.207878,2.63689,58.444519,0.0,1.808361,29.224309,57.485373,47.315759,71.01847,60.577278,80.975415,69.246356,83.627533,20.872679,286.698255,-48.958368,275.156301
107,-31.12175,4.00791,-0.359173,0.568351,0.0,0.56385,-10.921555,49.325638,-20.051708,50.322304,-26.580906,41.033821,-30.246964,-9.7019,0.0,-8.839942,13.270287,39.965546,32.649234,52.324273,46.774208,57.367244,56.77055,64.980761,0.0,68.603611,28.597813,89.445477,20.504093,90.213718,11.572723,78.695126,2.838306,58.238583,0.0,1.627556,28.751362,57.772512,46.838923,70.420787,60.089264,80.248118,68.895614,82.631993,-10.111399,290.561145,-49.179869,275.579631
108,13.691826,-10.191782,0.190201,-0.443862,0.0,-13.497963,-25.691414,28.031731,-36.421738,28.872528,-43.906803,15.664444,-48.082294,-64.399395,0.0,-0.583974,29.148788,49.703524,46.038699,58.611762,56.38004,65.078759,64.64768,85.365066,0.0,68.222179,27.41169,88.454075,19.302235,89.461956,10.612965,78.446331,2.437763,58.408756,0.0,3.180764,29.702072,58.544516,47.850518,71.358714,60.841693,81.11812,69.160708,83.17268,3.642397,280.263461,-48.927698,275.029867
109,-16.619225,12.920965,-0.239925,-0.123748,0.0,9.404755,-8.122501,52.756233,-16.391716,47.133751,-20.950871,32.252884,-22.064438,-24.119396,0.0,-1.435635,13.702725,36.819795,32.224082,48.846367,46.188752,55.593587,58.886119,70.569853,0.0,66.833382,27.525558,87.72171,18.879719,88.560562,9.948177,76.392517,1.371059,54.629173,0.0,3.87385,29.755795,57.910092,47.447782,71.907676,59.704621,81.446076,67.221931,83.078634,-12.950277,293.115142,-49.141073,274.836835
110,29.531937,-6.910489,0.522022,0.226439,0.0,-35.442867,-40.664406,10.423164,-49.054699,11.716003,-53.8064,3.508644,-55.782166,-76.116257,0.0,5.233471,28.812433,47.279018,42.590247,53.244231,50.422237,58.469119,57.205458,76.284977,0.0,67.551327,27.614079,88.441944,18.787365,88.751965,9.669743,76.500034,1.096745,55.470257,0.0,4.073675,30.116726,59.292684,47.759127,72.935141,60.097909,81.696968,67.587925,82.895359,16.62755,286.014617,-48.57316,274.873237
111,-19.940071,8.992774,-0.89756,0.163392,0.0,3.402901,-16.483326,43.727646,-26.038055,43.407669,-31.044388,28.342438,-32.197666,-45.593948,0.0,-13.219281,10.724256,43.950176,28.67084,50.511343,42.405675,58.221067,53.938306,63.936191,0.0,67.54549,27.182007,88.688335,17.893353,88.562222,8.539753,75.699062,-0.177212,53.441448,0.0,3.596714,29.134585,59.34548,47.342991,72.684743,60.043507,81.824112,67.707721,82.932965,-3.271236,294.748518,-49.429436,274.777755
112,22.069359,-8.115054,0.110493,0.165553,0.0,-34.865971,-41.599274,8.462219,-49.938526,7.35672,-54.239731,-1.949272,-55.700226,-81.79184,0.0,-6.985392,27.693516,45.359383,43.212259,52.477291,52.740903,58.142829,60.989029,77.541474,0.0,67.210693,28.257637,88.57235,19.438477,88.655434,9.985313,76.167183,0.908661,54.997559,0.0,3.83433,29.123223,58.554952,46.755065,72.326343,59.325906,81.22149,67.211495,82.925555,18.827448,286.468235,-49.289618,274.778079
113,-26.197472,6.125147,0.125542,0.278247,0.0,12.111053,-13.085003,46.087303,-23.030434,46.343765,-29.247837,31.897888,-31.863613,-36.894836,0.0,-14.94255,11.299461,43.376639,30.782086,52.186261,44.998143,59.154116,56.61321,67.053043,0.0,67.285194,27.251244,88.221474,18.139629,87.90184,8.727093,75.456276,0.024776,53.672447,0.0,3.708977,28.789709,58.650541,46.8593,72.591376,59.607302,81.504122,67.478257,82.750554,-7.23135,292.299728,-49.025402,274.762673
114,-6.415272,9.146348,-0.252914,-0.276642,0.0,25.686321,-2.36578,58.015079,-11.057568,54.87402,-17.91544,37.650776,-21.140556,-30.982475,0.0,-32.571613,8.449432,34.91288,25.590235,45.196362,38.69781,52.826181,48.466787,61.134575,0.0,66.189194,27.689781,88.722839,18.90564,88.249741,9.502716,75.618668,0.546112,54.445839,0.0,4.040823,28.560245,58.039521,46.16751,72.484424,58.626335,81.410199,66.523101,83.034667,-13.579473,301.17635,-49.211168,274.216305
115,5.354748,-1.358571,-0.145798,0.407553,0.0,19.745407,-6.001625,50.835114,-14.759502,49.54834,-20.631523,32.579269,-22.887669,-23.800964,0.0,-27.28374,9.902296,36.32999,26.201873,44.918176,38.771046,53.037923,48.88601,58.803744,0.0,67.262192,27.885189,88.227882,19.241295,88.2407,10.014267,75.62336,1.272125,54.577675,0.0,3.66748,27.854561,57.829817,45.815101,72.585819,58.64307,81.249587,66.835188,82.747343,-8.098326,299.504334,-49.230566,274.310413
116,1.911736,-3.142478,-0.192661,-0.031678,0.0,19.626274,-8.659916,43.842545,-17.809696,43.119621,-22.629261,30.539932,-23.502274,-5.13382,0.0,-17.054414,10.898268,33.635017,27.760639,48.231703,40.21897,55.059199,50.644786,56.564859,0.0,67.512417,28.397827,88.491268,19.466057,88.215466,9.738064,74.869137,0.492096,53.591595,0.0,3.968328,27.337834,58.252745,45.349194,72.959532,58.28183,81.440395,66.524151,82.668673,-6.090031,296.073296,-49.326668,273.990175
117,21.730614,-11.024178,0.116787,0.136839,0.0,-32.285271,-36.965218,15.738144,-47.246017,17.925224,-52.20377,4.230881,-53.952541,-79.600983,0.0,-11.000959,23.152082,45.830044,41.189871,53.051076,52.555837,59.610451,61.877494,76.537907,0.0,67.871132,27.937374,88.559418,19.114895,88.236465,9.553242,75.109634,0.471382,53.947334,0.0,3.814755,26.882363,58.212113,44.949236,72.681223,58.095035,81.039141,66.643206,82.479902,15.747328,284.780581,-49.103136,273.858477
118,-24.072533,4.782508,0.136127,-0.267997,0.0,10.128365,-12.542839,49.370499,-23.236542,47.510948,-30.247993,34.005432,-33.167324,-28.89576,0.0,-13.701737,9.823441,43.628148,29.996312,54.244464,44.781522,61.745348,56.41036,68.127439,0.0,67.525692,28.301983,88.397999,19.570599,88.239498,10.121155,75.411015,1.236763,54.727993,0.0,4.239042,27.097007,58.521051,45.230757,72.696661,58.430463,80.917616,67.022168,82.981809,-8.261862,289.403387,-48.903666,273.430778
119,-3.237705,7.387511,0.211716,0.171172,0.0,25.205212,-5.836716,56.53204,-14.215851,51.88448,-20.181255,36.058331,-22.439976,-40.509338,0.0,-28.475153,11.647548,41.98497,27.864935,48.117774,40.429106,56.155701,50.365612,64.1023,0.0,67.563114,27.525673,88.168888,18.757725,87.934742,9.400406,74.903355,0.756054,53.852634,0.0,4.746137,26.966837,58.363031,45.017347,72.649483,58.210631,80.848332,66.825308,83.170086,-11.426353,296.566203,-48.618736,273.377256
120,1.255932,-1.657875,0.086346,-0.383161,0.0,17.062683,-8.960667,48.434486,-17.276859,45.767212,-21.593342,34.48082,-21.52462,-5.519085,0.0,-14.663376,10.154423,35.755094,27.502337,49.415952,40.215388,57.237568,51.067035,60.683612,0.0,67.674866,27.857323,88.921738,19.333076,88.577271,10.121212,76.364479,1.283398,56.147346,0.0,4.787139,27.894143,58.322153,45.978616,72.427182,59.24773,80.886,68.064145,83.819206,-10.115547,294.805822,-48.477516,272.891589
