takenoko1/special-research/HandMotion_SimilarSearch_自分用/NewProject/handData/test_key/d4_feature_d2/106.csv
frame,vel_0x_L,vel_0y_L,vel_0x_R,vel_0y_R,posFromWrist_0x_L,posFromWrist_1x_L,posFromWrist_2x_L,posFromWrist_3x_L,posFromWrist_4x_L,posFromWrist_5x_L,posFromWrist_6x_L,posFromWrist_7x_L,posFromWrist_8x_L,posFromWrist_9x_L,posFromWrist_0y_L,posFromWrist_1y_L,posFromWrist_2y_L,posFromWrist_3y_L,posFromWrist_4y_L,posFromWrist_5y_L,posFromWrist_6y_L,posFromWrist_7y_L,posFromWrist_8y_L,posFromWrist_9y_L,posFromWrist_0x_R,posFromWrist_1x_R,posFromWrist_2x_R,posFromWrist_3x_R,posFromWrist_4x_R,posFromWrist_5x_R,posFromWrist_6x_R,posFromWrist_7x_R,posFromWrist_8x_R,posFromWrist_9x_R,posFromWrist_0y_R,posFromWrist_1y_R,posFromWrist_2y_R,posFromWrist_3y_R,posFromWrist_4y_R,posFromWrist_5y_R,posFromWrist_6y_R,posFromWrist_7y_R,posFromWrist_8y_R,posFromWrist_9y_R,posFromBody_0x_L,posFromBody_0y_L,posFromBody_0x_R,posFromBody_0y_R
2,-18.794689,-17.354892,0.923653,0.116461,0.0,19.121647,2.537212,54.970837,-5.863037,53.11552,-15.152092,39.392223,-22.497196,4.635258,0.0,4.805047,19.374377,38.649089,39.953566,55.455143,54.919211,63.848444,65.74023,68.602793,0.0,69.377861,29.669209,91.9384,21.635799,90.98671,12.752094,77.846031,4.36758,58.112526,0.0,11.914742,30.297284,53.134686,47.830572,66.134938,59.740436,74.980191,66.83457,77.625146,-16.947498,271.742506,-48.384933,270.578264
3,7.999134,2.957906,0.094128,0.867779,0.0,13.706017,-5.276699,49.577065,-14.865303,47.926483,-24.159679,33.334923,-31.655674,3.977509,0.0,-3.049421,16.374913,37.538446,36.895254,53.257137,52.146556,62.014889,63.6811,65.504343,0.0,70.101757,29.050827,92.535152,21.029148,91.297016,12.547474,78.037777,4.648933,58.258266,0.0,11.299831,30.096533,51.830949,47.527069,65.600056,59.320348,74.364724,66.148153,76.792998,-7.467985,274.493147,-46.810427,271.238777
4,12.663689,-0.143878,0.069637,0.145731,0.0,0.70816,-19.561329,36.024399,-28.562965,34.396362,-35.915623,19.196434,-40.942268,-28.378544,0.0,-7.362378,19.484478,38.549979,39.692671,53.344514,53.719586,62.053113,63.919333,69.039739,0.0,69.779778,29.001904,92.525597,20.984058,91.165352,12.417469,77.751846,4.46331,57.986526,0.0,10.953288,29.600122,52.179469,46.974959,66.25035,58.790282,74.870831,65.727509,77.168811,6.157093,274.204897,-45.7794,271.240136
5,-7.668228,13.143884,-0.055676,0.303627,0.0,16.321449,-6.204586,36.147194,-14.730034,32.904854,-19.856358,16.347542,-21.952629,-17.262096,0.0,1.179618,14.976389,28.889251,32.047229,43.623455,45.282627,50.502883,56.662055,57.350325,0.0,70.320797,28.984451,92.128544,20.956821,90.644016,12.387257,77.751102,4.338684,58.184566,0.0,10.395311,29.392393,52.01089,46.572346,65.619508,58.278927,74.612838,65.261911,77.095142,-0.762091,287.226299,-45.086031,271.421281
6,28.307648,-8.386015,0.260696,-0.420212,0.0,-20.767136,-42.524872,16.632614,-53.716106,13.222847,-58.942909,-2.223129,-60.119591,-50.047531,0.0,-9.89149,15.826198,35.70946,36.613178,48.144017,50.905311,56.33274,61.459629,63.534875,0.0,70.164013,28.625278,92.104969,20.577965,90.550976,12.104301,77.340717,4.281578,57.725773,0.0,10.807619,29.998721,53.002602,47.276856,65.956665,58.961763,74.791543,65.795434,77.314356,28.009701,278.665731,-44.361191,270.826516
7,-34.242611,9.018092,0.145741,-0.010436,0.0,32.713909,-7.938824,46.527271,-14.172134,54.727077,-18.038864,45.375538,-18.269863,-16.606979,0.0,-6.134595,2.915175,21.381759,23.85474,42.713995,41.042226,51.747895,53.771024,58.722172,0.0,70.461731,28.947258,93.178368,20.639992,91.440697,12.03907,78.747253,4.158897,58.995667,0.0,10.965329,30.287033,52.623763,48.017244,65.518113,59.911052,74.12396,66.592077,76.661222,-5.951614,287.474026,-43.934155,270.606283
8,7.436314,-11.795996,0.143623,-0.189265,0.0,6.914749,-12.341251,42.15477,-22.451134,37.747879,-31.232586,23.826599,-37.615185,-6.851921,0.0,-2.851634,15.337444,36.943419,35.798072,51.701026,50.983487,59.069086,62.045949,63.168325,0.0,69.441147,28.880253,91.295128,20.811195,89.625092,12.242832,77.623444,4.24015,58.116531,0.0,10.997069,29.882321,52.656429,47.293467,65.853665,59.033456,75.134443,65.920232,77.656515,1.691494,275.726813,-43.583736,270.465801
9,10.418472,-1.480466,0.665531,-0.015438,0.0,-4.421425,-26.892757,30.630684,-37.751713,27.377129,-44.580116,14.37458,-47.944794,-17.222557,0.0,-1.330845,17.794554,39.01953,38.108835,52.687736,52.978704,61.382318,64.088283,64.542827,0.0,69.453793,28.188629,90.928173,20.073166,89.293613,11.537247,76.8857,3.669777,57.682743,0.0,11.406598,29.839096,53.521058,47.36553,65.710651,59.307442,74.867311,66.310001,77.197525,12.169361,274.320107,-42.85881,270.524124
10,-13.769875,14.08212,0.278664,-0.080523,0.0,21.842995,-13.016281,40.970764,-20.567665,46.093712,-23.999691,30.915527,-24.610519,6.032753,0.0,-2.218445,11.151939,30.639999,28.642435,42.437785,42.717762,49.260527,54.241562,52.693541,0.0,69.263477,27.588558,91.723194,19.032669,89.828625,10.21265,77.47221,2.232571,56.988773,0.0,11.781114,29.811493,53.433187,47.404803,66.279496,59.288053,75.542428,65.986243,77.941988,-1.570845,288.335182,-42.550478,270.376556
11,22.124634,-14.031978,0.084572,0.506106,0.0,-15.416107,-35.954819,22.553329,-46.187267,20.766563,-51.254768,6.764259,-52.269516,-33.777065,0.0,-0.531918,19.025487,38.969759,39.585472,53.103625,54.190865,61.260237,65.218439,66.615912,0.0,69.457111,27.7351,91.593761,19.470634,90.319462,10.916119,77.850208,3.131275,58.005581,0.0,10.863318,30.104746,52.461915,47.537011,65.872931,59.361289,75.004767,66.149264,77.971442,20.574303,274.270476,-42.445393,270.849935
12,-18.420525,15.064075,-0.178528,0.161786,0.0,21.937294,-17.206821,37.369423,-24.668083,45.354881,-27.616997,35.778465,-26.994209,13.929634,0.0,-5.148502,8.719405,27.321964,26.161859,42.544861,40.617136,49.063111,51.920611,53.608744,0.0,69.705906,27.706203,91.783161,19.505253,90.268536,10.957489,77.645473,3.129044,57.959232,0.0,10.48769,30.22448,52.037504,47.520338,65.78259,59.200182,74.937459,65.95401,77.788723,2.158327,289.264834,-42.619371,270.942005
13,8.961983,7.933014,-1.535282,0.2667,0.0,-0.888977,-21.745434,31.023674,-29.033661,35.698357,-31.755924,29.015579,-30.349388,-36.027317,0.0,-23.08039,4.920705,23.814232,21.064054,35.964119,33.658112,43.147853,43.242826,51.202948,0.0,69.906921,29.537544,93.733635,21.394844,92.316742,12.548046,79.022942,4.135551,58.777657,0.0,9.93311,29.321072,50.635338,46.742777,65.428205,58.635474,75.043423,65.798769,77.52017,11.122541,297.199947,-44.152422,271.210804
14,-1.32534,2.062402,0.812073,0.220758,0.0,-0.037766,-20.608749,32.955093,-27.190132,36.56765,-29.653873,31.662254,-27.486877,-31.670609,0.0,-18.744585,1.612489,21.89083,17.519333,33.335404,29.641248,39.549225,39.227567,49.693335,0.0,69.143372,29.409771,93.115997,21.447945,91.721535,12.662315,78.847275,4.467258,59.203606,0.0,9.760641,30.082886,51.824466,47.16021,65.516199,58.804917,74.923998,65.801795,77.517206,9.769678,299.265514,-43.367872,271.434727
15,19.824829,-20.765182,-0.244675,-0.363031,0.0,-23.834038,-46.185265,14.952278,-57.300682,12.601662,-61.496773,-2.207336,-61.495857,-66.117096,0.0,-1.185423,15.708193,36.919336,36.2118,49.572984,50.661644,56.805315,61.451972,65.727818,0.0,69.600449,29.510078,92.438164,21.565647,91.303253,12.819328,78.708115,4.576149,59.317932,0.0,9.8834,30.242017,50.991885,47.574802,65.393069,59.312444,74.889603,66.322783,77.874803,29.531822,278.519552,-43.675232,271.090916
16,-27.742538,9.488939,0.224304,0.498635,0.0,11.631317,-19.394016,36.385345,-25.799389,46.464157,-27.74437,41.197929,-26.566944,21.411896,0.0,-5.865425,6.853369,24.811748,25.648466,44.125918,40.563599,49.438615,52.06733,51.346888,0.0,69.302216,29.454403,92.961159,21.587162,91.743965,13.016968,78.992157,5.016518,59.607697,0.0,9.869507,30.060965,50.557224,47.393441,64.79761,59.101381,74.414433,65.99637,77.296202,1.755323,288.014573,-43.484888,271.595633
17,2.191772,8.492596,0.109177,-0.203653,0.0,9.853134,-13.820286,39.644737,-20.626831,41.817055,-24.531326,33.408279,-24.183655,-31.414261,0.0,-18.803556,3.164215,26.353903,19.825279,37.908763,32.427673,43.50298,42.183621,53.318825,0.0,70.128479,29.287376,92.783318,21.395359,91.198654,12.887878,78.578568,4.989052,59.321823,0.0,9.587492,30.432085,50.676711,47.72714,64.777726,59.283051,74.525214,65.980315,77.37586,3.901892,296.532194,-43.420916,271.417004
18,0.983849,-0.122019,0.099106,0.175989,0.0,11.212006,-13.494759,40.325432,-20.658131,42.343483,-24.048271,36.157722,-23.069458,-25.954742,0.0,-14.062854,4.675988,24.480272,20.494776,35.696431,32.318004,41.949648,41.52919,52.293398,0.0,70.042534,29.048996,92.676201,21.190968,91.490707,12.778301,78.733406,5.091934,59.452629,0.0,9.48332,30.536134,50.356782,47.952468,64.569195,59.539191,74.30248,66.216449,77.129105,4.816532,296.430753,-43.391018,271.613571
19,25.279884,-18.199452,-0.019054,-0.076385,0.0,-22.856827,-46.466904,16.353607,-57.975769,14.047852,-62.073154,-2.046776,-61.822758,-75.412331,0.0,-3.159769,15.794026,37.121939,36.157892,49.323759,50.355794,56.87497,61.092585,66.126231,0.0,70.104504,29.14999,93.265514,21.163044,91.952991,12.522583,78.916569,4.545937,59.114056,0.0,9.587801,30.384969,51.106123,47.653534,65.5367,59.175852,74.719789,65.787469,77.321705,30.075073,278.235284,-43.431416,271.541169
20,-45.535355,9.129675,0.246964,0.222672,0.0,33.260651,-0.918789,54.571838,-6.635284,66.649017,-10.563927,62.034187,-12.245522,39.740982,0.0,-3.870763,5.049393,22.913787,24.624768,44.708657,40.742675,50.430326,52.836246,53.669938,0.0,70.188389,28.974953,93.024387,21.120586,92.163792,12.720623,79.34927,5.075798,59.997997,0.0,9.66289,30.287713,50.945387,47.84002,65.669649,59.630459,74.415298,66.541565,77.020733,-15.471239,287.351837,-43.19541,271.750719
21,51.461563,-6.466688,0.246677,-0.293006,0.0,-30.150719,-47.056103,9.051361,-58.852043,5.677299,-63.950329,-11.161537,-65.092621,-85.008831,0.0,-3.441165,16.099073,35.923673,34.463028,47.504098,47.32039,55.101251,57.328897,64.127679,0.0,70.094147,29.074917,92.689018,21.090202,91.412086,12.520924,78.842125,4.579926,59.356956,0.0,9.835791,30.558056,51.51701,48.081588,65.650815,59.820465,74.48415,66.630918,77.360546,35.961113,280.887264,-42.977943,271.459828
22,-55.380363,2.201526,-0.000343,0.238789,0.0,29.840126,3.180027,61.770515,-3.332233,70.917664,-8.480873,61.659393,-12.380219,38.304863,0.0,2.821068,10.263104,29.735602,27.347837,48.612394,41.740623,53.595344,53.197856,57.046574,0.0,69.69223,29.264545,92.729988,21.107769,91.170731,12.378788,78.754005,4.274139,59.179916,0.0,9.893713,30.373175,51.554246,47.86719,65.317857,59.579576,74.173916,66.415162,77.284593,-19.487314,283.0964,-43.04635,271.706228
23,39.501114,-7.485447,0.252171,-0.331723,0.0,-7.001839,-34.382973,27.158775,-45.996208,22.966919,-52.151241,6.058159,-54.229317,-40.067596,0.0,-5.032473,16.59919,37.921854,37.354924,51.17059,52.024352,59.616565,62.846791,64.436925,0.0,69.822636,29.506588,92.656803,21.207333,90.723095,12.163696,78.156452,3.718014,58.527088,0.0,10.084522,30.327109,51.960255,47.694166,65.612283,59.36592,74.529351,66.240161,77.699555,20.001354,275.613238,-42.806625,271.376789
24,-20.576248,12.132597,-0.001202,0.310666,0.0,26.053619,-15.547256,39.070244,-22.489128,51.918526,-24.748363,43.806839,-23.682861,23.118095,0.0,-4.970291,6.129963,23.917355,24.977671,43.009903,41.179497,50.296205,54.461949,54.243785,0.0,69.674492,29.362049,92.246246,21.217861,91.047821,12.42897,78.110962,4.316711,58.673058,0.0,9.844004,30.474755,51.768952,47.964262,65.616358,59.671337,74.308346,66.541441,77.029069,-0.61512,287.742686,-42.848053,271.684307
25,-13.929462,-1.446256,-0.659008,-0.451581,0.0,32.669621,4.332619,62.795849,-2.171116,64.449406,-7.675781,56.964169,-9.932327,-8.800049,0.0,-7.164345,12.056397,36.865181,30.015764,51.44927,42.230242,55.153801,50.652751,62.112455,0.0,70.119038,29.634705,92.285786,21.647701,91.45071,13.030186,79.039822,4.983788,59.987011,0.0,10.213395,30.645927,52.172923,48.113328,65.661004,60.006951,74.584679,67.163638,78.173366,-14.572477,286.297789,-43.534956,271.234084
26,37.445011,-8.833582,0.42738,-0.098307,0.0,-14.717789,-36.122761,23.009377,-46.460609,19.655113,-51.681576,4.036674,-53.065567,-42.646694,0.0,-4.098622,17.981967,38.206894,37.791005,51.809584,50.998986,58.640352,60.519726,64.099521,0.0,69.877167,29.035263,91.996651,21.019478,91.202545,12.571278,78.695755,4.779568,59.762192,0.0,10.232784,30.785668,52.122658,48.420783,65.577826,60.386037,74.499958,67.381864,77.798541,22.844009,277.46186,-43.136101,271.133431
27,-17.803917,11.692873,0.003319,0.231132,0.0,21.020164,-18.999825,36.748924,-27.08725,44.012032,-30.017853,35.042496,-28.968945,5.265427,0.0,-4.433124,6.801252,26.998268,25.011819,43.072765,40.246757,50.72574,52.079248,55.092915,0.0,69.946976,29.110737,92.216606,21.025085,90.951233,12.476234,78.323364,4.485111,58.95195,0.0,10.126203,30.779925,51.882758,48.267704,65.709725,60.116187,74.460685,67.172222,77.784709,5.003929,289.153745,-43.168945,271.363575
28,1.916542,7.576096,0.413933,-0.29881,0.0,9.525833,-16.972961,37.526321,-23.608589,42.408028,-26.151752,34.619293,-24.953442,-38.170395,0.0,-18.808002,4.930894,23.942302,21.633022,37.180664,34.038927,43.801049,43.196327,52.309083,0.0,69.491158,28.924141,91.909676,20.857601,90.936241,12.283859,78.420067,4.293308,59.178772,0.0,10.332635,30.751767,51.777906,48.393921,65.67076,60.359916,74.849403,67.416877,78.499841,6.871004,296.729178,-42.80448,271.064101
29,1.226006,2.834406,-0.622044,0.431141,0.0,2.139816,-17.540073,36.788292,-24.353886,39.264221,-27.340736,30.847778,-25.896721,-36.413326,0.0,-19.597296,3.203611,26.586702,18.535004,36.304179,30.255911,41.571798,38.845023,49.093739,0.0,69.647541,29.104099,92.413845,21.008434,91.203861,12.44894,78.349972,4.488201,59.218082,0.0,10.135466,30.272337,51.656443,47.842181,65.442469,59.768039,74.255303,66.85359,77.573029,8.088055,299.56471,-43.435478,271.496369
30,-8.020935,-23.682024,0.194778,0.079226,0.0,14.025307,-12.240887,50.116768,-23.141899,47.241211,-32.633286,30.590401,-39.665623,-4.581528,0.0,-3.842481,12.082024,37.927782,32.688816,52.711263,48.6747,62.172229,61.016508,64.785753,0.0,69.752369,28.050842,92.162991,20.19722,92.001743,12.12204,78.865986,4.624157,59.754581,0.0,9.724825,29.800749,51.17553,47.624202,65.112228,59.843745,73.94865,67.084845,77.33177,0.000458,275.877159,-43.307362,271.570068
31,-19.503708,-2.958277,2.328186,0.433364,0.0,40.832634,14.712753,70.769005,3.761101,65.914993,-7.365932,50.309372,-17.249336,20.181885,0.0,-3.730836,13.516856,35.853215,35.781832,55.767662,52.499027,67.288127,64.601984,68.886784,0.0,69.357662,29.124241,89.749775,21.49292,90.665302,12.942009,77.123508,4.624443,57.247639,0.0,8.797272,30.086406,51.656196,47.013923,66.713416,58.591446,75.791468,66.063555,82.924134,-19.554377,272.908941,-41.030302,271.993491
32,11.291142,1.408712,1.288605,-0.131528,0.0,37.24577,4.467716,62.484226,-6.688614,55.868969,-17.936211,38.14024,-27.444305,-3.169212,0.0,-6.751481,13.000191,40.837029,32.66146,59.813116,47.288157,72.729697,58.759284,78.69948,0.0,67.742672,26.021004,87.228184,18.866386,90.037708,11.348534,78.838406,3.626633,57.425022,0.0,9.367723,27.695183,51.006581,44.486417,66.781403,56.825817,76.998626,65.437591,88.445733,-8.316679,274.317576,-39.795141,271.861885
33,-13.141308,-1.581613,1.072884,31.207176,0.0,-109.095726,-14.33218,-19.452667,2.070179,4.773903,11.3661,-6.031551,16.739159,-30.034561,0.0,-13.083801,17.405527,24.306382,39.422451,46.964955,54.924707,56.222453,64.991568,75.633325,0.0,41.001492,13.671913,32.258091,16.152763,43.170261,17.646217,46.447163,18.957253,55.0173,0.0,48.910587,8.037372,32.00104,-9.639239,19.988855,-27.709448,8.09585,-44.932934,-11.200845,-21.512432,272.861362,-38.776703,303.194461
34,12.548618,5.098917,25.427742,-37.453539,0.0,-33.905182,-22.699013,-59.403877,-18.471508,-60.392418,-12.188816,-52.562828,-4.606876,-36.960812,0.0,-31.20625,14.603417,31.243918,32.290711,50.462128,46.118542,63.230014,55.857879,70.642595,0.0,29.549389,3.170357,26.738148,7.683506,24.32745,14.251957,27.014751,21.220036,30.635777,0.0,3.458764,-2.360348,5.256257,-7.923813,-1.866036,-13.215267,-5.436506,-16.771906,-9.304243,-8.306665,278.093922,-12.691813,265.874565
35,25.973225,-7.126492,-11.076107,-73.713011,0.0,-54.955502,-33.839035,-88.613262,-27.863789,-88.307762,-19.521904,-79.120903,-10.821533,-57.364368,0.0,19.16177,22.374459,43.706077,38.858052,59.612551,51.918511,71.470606,60.913941,78.116371,0.0,56.815567,15.101395,34.892349,11.43013,30.214348,9.186344,22.812767,8.037071,16.671295,0.0,12.694094,-1.076186,10.633483,20.748077,30.040402,42.348556,49.176793,61.908246,69.992425,18.203888,271.200724,-23.230591,192.394848
36,8.441734,0.016117,-18.580341,-38.954815,0.0,-59.857292,-33.306313,-94.881821,-28.71769,-98.393784,-21.049919,-85.636597,-11.774368,-64.88142,0.0,20.534667,22.374521,43.740534,40.066323,58.924466,53.775408,70.911333,63.939773,78.129585,0.0,56.193295,11.284847,28.052158,17.876072,29.670181,27.532082,33.715897,36.709671,45.716114,0.0,-36.826958,2.156139,-15.603526,10.608844,-2.953399,15.887764,2.447725,18.948114,9.959106,26.732054,272.028426,-41.724501,154.251618
37,1.586838,-0.926812,-18.234272,-70.171779,0.0,-60.023746,-33.895626,-95.236187,-28.925858,-98.813667,-20.777435,-86.084461,-10.670242,-63.850307,0.0,23.145413,26.924168,45.85882,44.090597,60.597038,56.521449,73.191961,65.025469,79.868662,0.0,39.884377,19.201927,26.244736,27.501526,36.36343,36.14233,45.484715,43.584824,68.302116,0.0,-47.861077,-14.01898,-23.518447,2.452695,-7.650413,18.0678,7.326131,33.436891,15.661448,28.253345,271.727362,-60.024319,84.705587
38,-0.573578,-1.328931,25.189648,-28.039195,0.0,-60.78661,-33.688374,-95.381985,-28.93856,-99.204884,-21.488342,-88.314171,-12.496719,-67.494621,0.0,22.613557,28.238216,47.461552,45.899513,60.974889,58.407368,73.573269,66.415162,80.985418,0.0,22.917652,10.935516,30.049553,-5.301476,10.723,-20.949955,-5.219994,-35.580654,-17.796936,0.0,-51.115694,-45.931222,-114.355187,-41.904077,-56.058383,-34.836094,-36.022597,-24.960412,-30.857391,28.438883,271.582418,-34.075556,57.850379
39,-0.165024,-0.063541,7.955961,-48.89007,0.0,-60.700779,-34.020481,-94.776821,-29.165268,-98.732643,-21.631737,-88.169117,-12.668953,-66.702518,0.0,23.055319,28.149111,47.492489,45.715868,59.936617,58.226501,72.523821,66.331922,79.325814,0.0,23.242007,0.390902,13.004952,-20.986862,-7.709112,-39.667453,-23.066997,-54.850044,-36.05916,0.0,-40.053479,-26.305336,-72.087462,-22.712914,-43.356601,-18.896182,-27.897447,-14.729295,-24.712237,28.451214,272.747695,-25.94224,10.189127
40,-0.371475,-0.4819,7.955962,-48.890071,0.0,-60.908318,-34.417648,-95.238361,-28.344383,-97.754288,-19.921188,-86.448097,-10.548935,-64.399395,0.0,24.013932,28.275884,48.518163,45.656587,61.382503,57.980549,73.769327,65.705835,79.310809,0.0,23.56636,-10.153713,-4.03965,-36.672249,-26.141224,-58.384953,-40.914001,-74.119434,-54.321384,0.0,-28.991263,-6.679449,-29.819737,-3.521749,-30.654819,-2.95627,-19.772297,-4.498178,-18.567083,26.533356,275.792685,-19.532661,-35.174054
41,0.577583,-0.211433,-36.539097,17.884093,0.0,-60.965195,-34.514751,-93.738098,-28.363838,-95.466671,-19.903336,-84.654007,-10.851517,-63.478718,0.0,25.260303,28.527888,48.847355,45.784658,62.500371,57.89521,74.14903,65.360218,78.193126,0.0,66.800938,-15.125885,-5.15974,-23.300343,-9.629173,-26.205368,-12.153912,-24.880543,3.721848,0.0,-46.56895,-31.385975,-50.192526,-34.384544,-44.86294,-34.935573,-46.074514,-34.556333,-79.588284,27.360878,278.851167,-55.821819,-14.020045
42,0.749588,-0.86395,2.451038,-1.870729,0.0,-62.349644,-35.079632,-93.160744,-29.134254,-93.774033,-21.110802,-84.014282,-12.675705,-64.772587,0.0,25.272529,28.964339,49.239285,46.482746,63.697464,58.86463,74.089132,66.790851,78.507374,0.0,31.876431,2.815075,23.438931,-8.695793,-2.055817,-19.167137,-15.020428,-28.306732,-26.43116,0.0,-42.330525,-32.453516,-92.45389,-41.296206,-58.303504,-46.656265,-57.87687,-49.674316,-71.79353,29.165096,278.959261,-52.316151,-14.91873
43,0.879364,0.316594,-40.067139,-17.372799,0.0,-60.580215,-34.680405,-93.558197,-28.588943,-94.688301,-20.180168,-83.917694,-11.228485,-63.121033,0.0,25.948758,28.609892,48.676121,46.016963,63.745444,58.120723,74.121984,65.666006,78.327063,0.0,18.259621,9.611435,35.59021,16.964149,26.253834,24.531555,29.348087,33.199883,47.168369,0.0,-46.01122,-30.862269,-67.490761,-32.70592,-41.921583,-30.616811,-41.671185,-26.655337,-64.871185,30.759916,279.833184,-91.667833,-31.734201
44,2.137756,-0.601326,-13.296204,-1.011688,0.0,-62.040253,-34.129372,-96.551857,-28.458824,-98.40683,-20.607719,-86.748905,-12.275505,-64.720688,0.0,25.208062,28.235314,48.177733,45.74242,62.647707,58.114177,74.083575,66.116845,78.740359,0.0,18.472595,3.570385,14.402618,18.293724,26.154613,33.636761,38.978977,48.549156,72.482185,0.0,-41.107342,-37.906571,-39.357644,-35.137559,-36.201364,-29.829339,-30.263229,-23.841865,-78.215634,33.389482,280.039755,-104.472227,-31.937992
45,1.487617,-0.550196,-4.677887,4.590495,0.0,-62.839565,-34.928856,-97.278042,-29.164009,-99.890842,-21.031837,-88.130264,-12.425079,-66.102734,0.0,25.420977,28.823116,48.808081,46.372275,62.846235,58.641834,73.937288,66.43591,79.26641,0.0,19.193344,1.124554,16.088505,17.168999,27.072659,33.956852,42.76228,50.189152,73.006439,0.0,-43.410787,-37.749169,-42.085901,-34.456853,-37.155871,-28.915742,-29.000865,-23.439839,-80.890631,34.999752,279.723793,-109.027462,-27.113263
46,0.089035,-0.008275,-1.125011,2.964853,0.0,-61.568642,-34.044914,-96.740513,-28.262901,-98.688412,-20.338669,-86.682816,-12.079811,-65.048046,0.0,25.569858,28.737654,48.817529,46.188938,62.984864,58.411505,74.53849,66.160071,78.927895,0.0,23.378105,-2.027435,15.777397,14.143982,27.754269,31.034718,44.309521,47.22702,67.576046,0.0,-44.929445,-36.162029,-42.882234,-31.423735,-37.034655,-25.393313,-27.069065,-19.848898,-78.656934,35.438404,279.770847,-109.802856,-24.093081
47,1.856575,-0.308999,-1.63147,8.690753,0.0,-61.614075,-34.888573,-98.188992,-29.415207,-100.022278,-21.557579,-88.017998,-13.192177,-66.457672,0.0,26.190511,28.775383,48.164951,46.284898,62.621093,58.636462,74.150883,66.65747,78.892573,0.0,19.054298,-4.245701,14.77541,11.740837,27.555141,28.441315,42.754326,44.092541,58.062515,0.0,-43.635558,-34.414678,-46.16504,-30.403402,-40.077469,-25.25456,-31.245214,-20.062956,-74.808339,38.07498,279.048228,-110.654325,-15.815948
48,0.691223,-0.758172,0.876846,4.865099,0.0,-62.199726,-34.184189,-94.942932,-28.462715,-96.534977,-20.596619,-86.450729,-12.082443,-65.282593,0.0,25.935235,29.945307,49.264355,46.99052,63.476645,58.831964,74.104632,66.332107,78.912827,0.0,19.390411,-5.799866,13.762779,10.475521,25.729008,27.718906,42.359905,44.153309,60.218811,0.0,-47.554919,-33.753547,-45.137143,-29.681447,-40.479186,-24.885756,-32.203581,-20.813285,-78.097815,39.481916,277.238463,-109.061766,-12.002443
49,-1.007767,0.027788,2.116127,2.590121,0.0,-63.549957,-33.905296,-91.980629,-28.07682,-93.29916,-20.381355,-84.07053,-12.084961,-64.702835,0.0,24.464402,28.97669,49.038102,46.587104,62.86865,59.171036,73.83577,67.268367,79.870021,0.0,19.176006,-4.988823,12.172794,11.000919,24.626942,27.927589,42.63628,44.539776,62.114067,0.0,-47.630501,-36.070824,-45.390628,-32.382842,-40.497834,-27.405142,-31.739218,-22.825453,-81.625801,39.636812,276.440678,-105.782976,-10.237894
50,0.929031,0.669251,0.255775,-1.725615,0.0,-62.427235,-34.693336,-87.946186,-28.498306,-88.474789,-20.414543,-80.264626,-11.998329,-63.770313,0.0,25.05523,29.22011,48.774366,46.593279,62.543534,58.913413,73.598772,66.66346,78.021831,0.0,16.701965,-0.05167,11.78896,16.878033,23.96101,33.828907,39.618359,50.108299,75.157986,0.0,-44.703068,-38.916468,-43.934554,-36.778391,-40.517965,-31.567891,-33.758271,-25.566338,-81.395719,41.119108,276.0414,-104.973936,-13.032039
51,0.832672,-0.752429,-0.495186,-2.055239,0.0,-63.432541,-34.709816,-88.650455,-28.780632,-88.828354,-20.944519,-81.073895,-12.7248,-64.503937,0.0,24.190353,29.213008,47.847307,47.170769,61.324149,59.893454,73.973844,67.802138,78.973158,0.0,21.625443,0.018654,11.492214,17.204304,22.528839,34.523449,38.056355,51.061878,74.46619,0.0,-44.853369,-37.058398,-41.688382,-34.026299,-37.743303,-28.891165,-30.321706,-23.836462,-78.891184,42.24535,274.541313,-105.175552,-15.834936
52,0.471954,-0.546306,-1.397724,-0.834773,0.0,-64.390411,-34.280548,-89.023304,-27.900124,-88.714485,-19.698029,-80.805473,-11.265221,-64.185905,0.0,24.27489,30.550152,49.256204,48.591337,62.285171,61.252889,74.519039,68.869555,79.447216,0.0,20.403671,0.277348,12.367802,16.838264,23.233566,34.021511,38.776817,50.317669,75.476589,0.0,-41.838065,-35.230154,-38.538803,-32.775606,-36.835726,-28.140218,-30.003661,-23.011229,-75.768466,42.920523,273.509309,-106.370058,-17.155407
53,1.298332,0.61559,-1.054344,-0.657827,0.0,-64.561901,-34.785461,-90.326385,-28.709221,-89.950104,-20.82962,-83.003826,-12.724457,-66.100044,0.0,23.959654,30.420229,47.572085,47.831869,59.886229,60.286248,73.502874,68.153065,79.84353,0.0,18.870964,1.248207,12.458897,17.781143,23.57563,34.910603,38.551025,51.171741,75.082169,0.0,-43.733927,-34.455402,-38.454174,-32.007492,-36.245022,-27.502244,-29.422929,-22.524049,-76.186917,44.392033,273.698867,-107.251225,-18.239266
54,0.028839,-0.295784,-0.460453,0.042392,0.0,-64.455814,-34.499474,-90.740318,-28.302727,-90.21904,-20.478516,-83.841419,-12.601089,-67.729225,0.0,23.873265,30.573617,47.225048,48.200334,59.098788,60.748388,72.860917,68.813486,80.930893,0.0,19.272995,3.159771,20.906696,18.401985,24.416714,34.704895,36.260033,50.222855,72.107048,0.0,-46.186622,-30.806169,-48.257793,-30.516992,-36.634235,-28.258501,-31.936171,-24.922034,-71.764106,44.55451,273.310025,-107.578039,-18.289932
55,-0.067062,0.42861,-0.410843,-0.469488,0.0,-64.137783,-34.735451,-91.41798,-28.530464,-90.905342,-20.77858,-84.510098,-12.958717,-68.165474,0.0,23.115155,30.612767,45.931377,48.306359,58.453372,60.860095,72.360615,68.868444,80.438433,0.0,18.585491,3.467674,17.612286,19.095955,23.653965,35.54512,36.371384,50.976162,72.405453,0.0,-46.430444,-32.501774,-45.724451,-31.726929,-37.082944,-28.98836,-30.429986,-25.458336,-73.654873,44.618082,273.728708,-107.858248,-18.769346
56,-0.048981,-0.154006,-0.408955,-0.176606,0.0,-64.250221,-34.651222,-90.386181,-28.59684,-89.54916,-20.803185,-83.155918,-12.95517,-67.373085,0.0,22.913602,30.048244,46.746173,47.976736,59.361844,60.836815,73.404814,69.050607,81.156837,0.0,18.968582,1.525669,11.859226,17.954865,23.050919,35.05394,38.312416,51.459846,75.24662,0.0,-43.03062,-34.888057,-37.835373,-32.972651,-36.387943,-28.561264,-28.874307,-23.445119,-76.92184,44.657049,273.609345,-108.179255,-18.911311
57,-0.066261,0.070828,-0.57518,-2.335092,0.0,-64.343719,-34.902191,-89.172535,-28.784409,-88.176155,-20.911102,-81.492233,-12.874718,-65.928497,0.0,22.799858,30.035709,47.020098,47.798215,59.976076,60.553689,73.925679,68.772422,80.922989,0.0,20.096798,2.932091,11.7659,19.629536,23.613167,36.756592,39.958706,53.238831,76.981258,0.0,-43.03448,-34.16959,-36.854591,-31.703927,-35.115483,-26.78983,-27.446453,-21.425818,-75.838058,44.705057,273.777198,-108.640165,-21.149377
58,0.078278,0.190377,0.877075,-0.642884,0.0,-63.966637,-34.062424,-88.366013,-28.179474,-87.700081,-20.41626,-80.879517,-12.448082,-65.544434,0.0,23.298801,30.292714,46.647064,48.140312,59.531781,60.788032,73.671206,68.836395,80.819495,0.0,20.044727,1.787853,11.357803,18.504066,22.699356,35.629578,38.150368,52.001896,76.261826,0.0,-42.108934,-33.974459,-36.563036,-31.608492,-35.101126,-26.89567,-27.700092,-21.748402,-76.031337,44.839125,274.037275,-107.7073,-21.72256
59,0.586739,-0.390757,0.13813,0.086142,0.0,-64.036102,-34.825516,-89.959831,-28.951492,-89.510536,-21.151886,-82.864208,-13.096733,-66.725349,0.0,22.83487,31.29974,45.815965,48.876686,59.325844,61.234734,74.026023,69.055918,81.56828,0.0,16.770401,2.680092,11.718006,19.187794,23.267612,36.110229,38.954716,52.297783,76.914997,0.0,-42.302892,-34.048776,-36.61432,-31.777102,-35.436555,-26.963348,-27.794756,-21.581275,-75.584233,45.435762,273.670663,-107.559271,-21.612274
60,-0.458107,0.551308,0.270538,-0.732113,0.0,-64.068317,-34.450607,-89.719391,-28.536644,-89.154053,-20.715523,-82.202568,-12.655334,-65.780296,0.0,23.365306,30.026879,48.111475,47.585917,60.84441,60.066478,74.725717,68.004494,81.708145,0.0,17.703896,3.582401,14.047222,19.474812,23.566532,36.109715,38.224468,51.814671,74.875546,0.0,-44.113661,-31.855216,-38.819366,-30.395189,-34.990099,-26.82935,-28.250783,-22.53924,-73.247567,44.974823,274.283937,-107.291565,-22.28242
61,0.224991,0.642945,1.88118,3.292131,0.0,-64.948711,-35.22995,-90.456963,-28.879967,-90.347328,-20.535507,-82.187233,-11.882858,-64.954262,0.0,22.097694,30.013108,48.444371,47.591722,61.319641,60.096118,74.170458,68.073469,80.569097,0.0,15.176754,5.130844,24.54689,19.545994,22.91914,34.87627,34.483566,48.885498,68.579178,0.0,-45.145695,-32.286265,-52.597457,-33.408764,-38.698026,-31.414411,-34.130163,-27.687958,-71.77343,45.201302,275.069016,-105.408897,-18.848155
62,-0.250053,-0.223907,0.865345,-1.369532,0.0,-64.836559,-35.456314,-91.492767,-29.0308,-91.580658,-20.582085,-83.298054,-11.914558,-64.903965,0.0,23.33511,30.123827,48.487103,47.755237,61.828032,60.294276,74.569859,68.277369,80.593674,0.0,16.734982,6.677456,25.258884,20.451794,23.260288,34.669819,33.736553,47.547569,66.201611,0.0,-44.166797,-31.795009,-50.621259,-32.436781,-37.8141,-30.250601,-32.900712,-26.463973,-67.840114,44.86599,274.911939,-104.628811,-20.150858
63,0.376396,0.332896,-0.935497,-2.117206,0.0,-65.127811,-35.416946,-91.328259,-28.996582,-91.767654,-20.430336,-83.308525,-11.369476,-63.970699,0.0,23.315844,29.43037,50.02827,47.008427,64.095754,59.575068,75.451223,67.662335,80.976218,0.0,18.376179,4.718399,12.420845,20.923634,22.936878,37.12286,38.285694,52.055454,75.816708,0.0,-42.915795,-32.788357,-37.362056,-30.610328,-34.304268,-26.203942,-27.594036,-21.34227,-73.307619,45.221243,275.298944,-105.585451,-22.213954
64,0.415306,0.1277,-0.472584,2.24614,0.0,-64.8666,-35.393486,-92.365322,-29.076462,-92.816792,-20.552101,-83.726063,-11.594467,-64.624214,0.0,23.637687,29.283898,49.719209,46.810579,64.453042,59.32535,75.69032,67.332155,80.63659,0.0,18.387566,5.37529,15.781231,21.368008,24.364185,37.739182,39.371796,53.012123,76.817265,0.0,-44.077815,-31.439018,-38.721646,-29.351885,-34.545527,-25.530121,-27.702254,-21.066801,-71.083894,45.392275,275.484921,-106.302309,-19.909537
65,0.854988,0.524137,1.008568,0.785743,0.0,-65.209637,-35.812225,-93.119259,-29.686432,-93.455601,-21.147652,-84.205055,-12.007828,-64.131432,0.0,22.788187,28.296879,50.145163,45.753844,64.159975,58.351114,75.512603,66.443752,80.206807,0.0,17.107658,6.137066,12.020302,22.638988,23.405285,38.942184,39.500484,53.881245,77.415104,0.0,-44.499663,-32.222909,-36.082896,-29.449358,-34.718891,-24.969489,-26.813017,-20.058201,-72.710091,46.147671,275.961047,-105.393333,-19.171805
66,0.414619,-0.382482,40.375385,9.634577,0.0,-64.567165,-34.638176,-93.869991,-28.637466,-94.159756,-20.492935,-84.723244,-11.672287,-63.815517,0.0,22.587374,28.839233,49.541676,46.633911,62.959979,59.286879,75.334268,67.124674,81.620892,0.0,10.526962,11.501198,27.03598,0.940704,-0.28244,-8.843422,-8.211021,-16.813431,9.093418,0.0,-40.298164,-32.839857,-67.026676,-34.487358,-40.576937,-35.189985,-42.717762,-35.448565,-68.703261,46.419439,275.589094,-65.160799,-9.526699
67,-0.427322,0.095898,-35.537739,2.396163,0.0,-64.1605,-33.383675,-93.847389,-27.690239,-94.419937,-20.153046,-85.553684,-12.033348,-64.76841,0.0,23.232605,28.485342,49.395328,46.663057,61.910346,59.641388,74.989021,67.76941,82.492561,0.0,19.55389,1.975651,10.750408,19.136467,25.750866,36.081848,40.296593,52.048874,75.754795,0.0,-48.837907,-37.77742,-40.645541,-33.747557,-41.148159,-28.622582,-32.383429,-23.279751,-77.559938,45.884371,275.454709,-100.806284,-7.360819
68,1.059036,0.110595,0.367527,2.602687,0.0,-64.684753,-33.976707,-94.932804,-28.538704,-95.659618,-21.309929,-86.621761,-13.553581,-66.137581,0.0,22.874082,28.197152,48.67328,46.498801,61.188545,59.717959,74.862865,68.134231,83.083636,0.0,26.61953,6.807861,14.112911,24.110699,27.228642,40.805283,44.444332,55.788975,79.439564,0.0,-49.432779,-35.325404,-41.181072,-29.437348,-36.358735,-22.460076,-26.90873,-15.774266,-73.372735,46.969357,274.713396,-100.412807,-5.61004
69,-0.092697,-0.178335,5.109558,10.126296,0.0,-64.282722,-33.922462,-95.237446,-28.418198,-95.628033,-21.080933,-86.758461,-12.968559,-66.225872,0.0,22.590832,28.585192,48.547433,46.626069,60.35053,59.654233,74.502243,67.891058,84.242073,0.0,17.852955,4.757938,13.82349,21.764488,26.545315,38.087082,43.50071,52.469215,77.74395,0.0,-51.827615,-34.255269,-42.850216,-30.665409,-39.305033,-25.344499,-30.161093,-19.722001,-72.397603,47.112579,273.680157,-95.067329,3.661352
70,-0.299835,0.501413,0.850754,4.759722,0.0,-63.949699,-33.564949,-95.206718,-28.211403,-96.14233,-20.885124,-87.563496,-12.474861,-66.374245,0.0,21.460306,28.171649,47.624202,46.46385,59.318743,59.526965,74.120378,67.743969,84.637893,0.0,20.763474,4.645157,14.171848,22.01786,27.138863,38.527794,43.494129,52.844582,76.869678,0.0,-51.681143,-33.468476,-41.605853,-28.877765,-38.746716,-22.919159,-28.678775,-17.126569,-68.351778,46.9168,273.693372,-94.11252,7.932875
71,0.095329,0.42793,3.644714,10.082206,0.0,-64.582329,-33.928757,-97.591839,-28.280525,-98.665066,-20.817833,-88.60857,-12.454033,-67.037315,0.0,21.101166,27.733839,48.447212,46.406917,60.642301,59.826887,75.321856,68.309788,84.46172,0.0,13.739319,6.075211,14.159431,23.193741,25.533371,39.6381,42.567558,53.896236,79.075756,0.0,-58.361704,-29.970902,-41.55142,-23.501435,-36.052422,-16.987909,-25.785058,-11.812205,-66.612362,46.7799,273.435131,-90.700035,17.32891
72,-0.065689,0.106396,4.249306,5.935357,0.0,-63.844929,-34.064255,-97.314892,-28.547401,-98.39859,-21.122475,-88.246021,-12.617111,-66.334362,0.0,20.936971,27.894081,48.079427,46.229075,61.199598,59.414085,75.604117,67.942311,84.132096,0.0,24.152126,9.030247,11.129665,27.087307,26.781921,43.602905,42.657566,56.937847,69.743614,0.0,-51.918234,-17.172728,-30.122561,-10.868381,-25.441448,-4.337225,-19.415225,0.867717,-27.00645,46.586895,272.520206,-86.578045,22.242946
73,-0.277977,0.177471,9.76387,5.812196,0.0,-64.528427,-33.808594,-97.294292,-28.503914,-98.88834,-21.303635,-88.638153,-13.120193,-67.775917,0.0,20.098586,28.301819,48.323711,46.715422,60.664716,59.917413,74.58894,68.308676,84.166367,0.0,16.515141,3.661079,11.606083,18.734379,26.321983,32.464943,38.099499,43.823433,46.862526,0.0,-41.363977,-8.371256,-21.511713,-1.667724,-11.63773,4.173803,-2.185841,8.647651,6.172386,45.575724,272.466962,-77.547369,27.824427
74,-0.215492,0.067925,-1.212959,36.515581,0.0,-64.885941,-34.998665,-97.459259,-29.914169,-99.270058,-22.855568,-89.328289,-14.60083,-67.789764,0.0,19.271563,28.008443,48.431589,46.418587,59.410442,59.69295,73.686767,68.184064,83.893183,0.0,31.631069,11.685619,16.434002,26.851101,31.02911,42.450542,43.836765,58.023319,87.238998,0.0,-60.982453,-21.791782,-32.793915,-8.493368,-22.94599,4.488329,-14.452622,16.320047,-30.887525,43.700409,272.193516,-80.420151,63.998636
75,-0.256577,-0.825418,3.126611,25.595036,0.0,-65.148754,-34.840279,-97.653637,-29.779701,-99.540138,-22.706108,-88.848267,-14.714928,-67.805214,0.0,19.042283,27.718772,47.46149,45.953051,59.777301,59.243037,73.84386,67.801397,82.852319,0.0,34.577437,15.136757,22.391882,28.423405,35.245342,41.66771,45.757628,54.466839,91.728487,0.0,-58.071338,-17.958502,-32.533112,-4.129682,-20.494437,9.282106,-10.085077,21.744528,-25.603805,42.3139,270.802341,-78.423472,89.027915
76,-0.32753,0.514566,3.126612,25.595037,0.0,-65.2878,-35.816574,-96.831551,-30.935097,-98.7113,-23.91037,-88.153782,-15.944824,-68.256969,0.0,18.587615,26.886376,46.831945,45.142453,58.382112,58.487952,72.83177,67.03211,82.521954,0.0,37.523804,18.587894,28.349762,29.995708,39.461575,40.884876,47.67849,50.910358,96.217976,0.0,-55.160223,-14.125221,-32.272309,0.234003,-18.042884,14.075883,-5.717532,27.169008,-20.320085,40.78989,271.120988,-76.49334,114.427033
77,-0.504799,-0.058478,10.77507,12.179219,0.0,-64.79084,-35.665169,-95.804386,-30.614777,-97.699013,-23.412895,-86.605167,-15.279579,-67.010136,0.0,19.060006,26.607203,45.995227,44.772877,58.063357,58.117388,72.913157,66.748182,82.395304,0.0,36.923447,7.161942,21.753502,16.296158,34.888859,27.098122,48.73518,37.805843,85.408688,0.0,-36.565352,-4.316786,-21.979411,13.302768,-11.265159,28.285888,-0.520926,39.89126,7.429439,39.228945,272.455554,-66.774416,127.999295
78,1.347542,0.392918,0.892754,48.787086,0.0,-65.330029,-35.336723,-97.804527,-30.571747,-99.20826,-23.513031,-89.116573,-15.24559,-69.087582,0.0,17.749662,25.778574,45.379822,44.022054,58.256574,57.504701,72.887716,66.391696,82.394624,0.0,55.080299,28.454418,35.908585,36.108055,42.828941,41.359692,46.813259,44.721508,96.395016,0.0,-20.420305,-0.494559,-10.404142,18.039148,7.009351,35.102577,26.112767,50.143064,24.106682,39.470644,271.344,-66.987505,175.28191
79,-0.775223,-0.15203,-1.437321,12.936032,0.0,-65.07082,-36.077728,-98.149853,-31.318359,-100.041332,-24.175301,-89.734383,-15.836906,-69.973812,0.0,17.003408,26.464312,45.350244,44.819746,58.684442,58.248176,73.613222,66.912932,82.539367,0.0,57.816868,31.906929,47.12162,34.57552,51.212597,35.823154,52.727623,36.209621,97.458916,0.0,-16.942955,5.491341,-8.187796,25.173852,6.29354,41.894938,22.669441,54.72834,35.564347,37.881889,270.299692,-69.238358,187.325664
80,2.021141,4.322467,22.671776,88.295062,0.0,-53.976116,-35.094681,-97.783756,-32.530975,-102.772865,-27.377014,-93.042984,-20.362015,-72.651558,0.0,0.581689,22.919962,38.64137,38.943391,52.721081,51.744807,65.983958,61.34712,77.667322,0.0,57.227554,19.515438,58.17627,16.621113,63.795204,15.194035,38.205986,13.794651,31.604748,0.0,-9.30554,7.523053,2.915052,2.257286,0.79763,-6.224997,-0.623432,-16.486928,-7.402578,38.424997,274.583766,-48.044615,275.582332
81,-1.809425,9.213038,-9.655495,-33.298416,0.0,-67.260189,-27.078552,-80.089588,-23.247986,-93.419666,-19.744949,-88.222504,-15.111122,-69.159851,0.0,-10.643733,14.567663,12.440238,27.934343,32.72883,38.276302,45.308439,45.033773,61.419553,0.0,63.676987,13.649769,92.897186,14.02359,100.209274,16.759701,93.820839,20.794144,76.329117,0.0,-6.067842,13.659562,11.668481,35.112396,33.197701,50.593656,47.231161,60.603213,58.880747,35.57313,283.529888,-58.742552,242.017
82,-7.155418,-6.116749,2.906799,13.89835,0.0,-63.354836,-23.28289,-69.915447,-20.753059,-78.91571,-16.263199,-77.259521,-9.954414,-61.002846,0.0,14.985343,18.716797,5.683755,32.317634,27.7226,43.605177,43.936036,51.609698,64.915059,0.0,65.148582,22.606659,76.598969,21.400509,76.10527,22.644424,70.780449,23.827801,62.234917,0.0,-0.153635,33.11088,24.864112,57.595844,38.512744,73.632303,59.323497,81.91822,75.814377,27.323198,277.372739,-56.930265,255.874951
83,3.927155,-4.37866,-3.508701,11.925425,0.0,-62.987366,-26.805267,-73.817825,-23.156433,-69.481487,-18.32325,-63.344879,-11.482887,-49.206963,0.0,2.645326,24.299034,36.300659,41.313249,51.382209,53.822709,64.641937,62.302708,73.72462,0.0,70.318279,23.044853,90.781345,15.325069,90.797482,9.760151,80.656414,5.755177,61.600056,0.0,5.969412,30.276536,50.448666,48.594054,65.759249,60.976741,78.200413,68.558704,88.221702,29.749489,272.766575,-61.939831,267.572871
84,1.871452,0.863641,-0.303326,11.170217,0.0,-48.219166,-25.454865,-52.875595,-22.128525,-45.162621,-17.71843,-39.299355,-12.418556,-31.732521,0.0,10.737841,21.239425,46.02993,37.939638,63.219146,51.040297,75.755776,60.348492,81.416313,0.0,69.274979,24.97736,91.23745,16.813087,92.132378,10.013237,80.583458,4.91106,60.771904,0.0,1.903024,31.988875,55.019247,49.243669,68.543698,60.710412,79.397753,66.87477,88.271226,30.688534,273.176799,-63.175564,278.289671
85,-1.751518,2.203687,2.104797,5.210623,0.0,-43.62236,-21.04969,-40.740738,-15.847435,-21.470032,-10.195084,-7.996674,-4.238319,-5.074768,0.0,14.743034,8.534771,25.494337,25.108397,48.31661,40.285475,64.925742,52.238132,74.14798,0.0,68.506508,28.346157,94.35894,19.436932,93.762703,11.279812,79.783058,4.140701,60.397911,0.0,-4.198719,33.334354,60.098033,49.683579,73.456932,60.417715,83.982907,67.135233,88.750286,28.536386,275.226356,-61.471395,283.346165
86,3.540573,0.018216,1.174736,-0.034271,0.0,-47.114182,-15.463371,-58.887291,-10.850716,-37.808075,-5.925522,-18.880005,-1.00605,-15.399971,0.0,11.513426,6.598402,18.406686,21.830438,34.490878,36.014199,50.318249,47.535405,58.788059,0.0,66.495895,27.918377,94.263268,19.543533,94.90345,11.656837,81.315193,4.583416,61.832199,0.0,-2.1738,31.233358,56.704662,48.267765,71.391689,59.348259,81.087121,66.099123,84.067011,31.861982,275.260829,-60.511637,283.328149
87,-48.879433,5.462688,1.089993,-0.628496,0.0,18.178482,1.564121,51.519241,-5.429878,55.175629,-13.96574,47.605705,-23.11964,27.415123,0.0,-7.968026,12.21349,34.858478,33.524607,56.174844,50.804472,64.764017,64.926112,69.821932,0.0,66.974888,30.787125,97.051792,22.943687,96.478901,14.826164,82.4576,6.810493,62.956753,0.0,-2.020782,31.829003,51.364301,48.453758,63.886976,59.254646,74.839647,65.624571,80.611334,-17.000027,280.801832,-59.404221,282.777969
88,-2.024403,1.101504,-0.460567,-1.070073,0.0,15.634861,2.158813,53.220119,-4.614372,57.384739,-12.750435,48.632526,-21.610394,28.824062,0.0,-7.961419,11.116927,32.385498,32.879933,52.221582,50.727963,61.752017,65.351079,68.417542,0.0,66.527824,29.452,96.430206,22.163486,97.788734,14.823017,83.488426,7.874336,63.778267,0.0,1.865048,32.496525,54.10954,49.455658,65.296306,60.225115,74.39597,66.396636,80.630292,-19.01885,281.873912,-59.859209,281.678472
89,8.039532,3.232572,-0.502453,-1.06575,0.0,3.13282,-5.611496,42.745628,-11.749649,50.355835,-19.576321,43.153038,-28.153152,20.971069,0.0,-11.04826,13.247254,32.385621,33.478356,51.777412,49.21619,59.277493,62.313699,65.305815,0.0,67.062664,28.841515,96.06245,21.274052,96.744175,13.802204,82.159824,6.810093,62.616177,0.0,3.583438,32.738278,55.079577,49.864322,67.292758,60.791922,76.624913,67.011053,82.056788,-10.886421,285.058442,-60.268764,280.56468
90,2.482338,1.325164,0.593834,0.200318,0.0,5.378494,-8.872948,42.476463,-16.397667,47.156181,-24.993782,38.145447,-34.149399,15.336342,0.0,-12.831365,11.442104,33.13348,31.730511,51.325213,47.698859,59.197773,60.974271,65.740724,0.0,66.658344,28.139591,94.918613,20.736294,96.358509,13.404064,82.196217,6.60038,62.492008,0.0,5.579705,33.93426,55.449832,50.543824,67.304862,61.014841,76.548404,66.810796,81.501096,-8.319025,286.318706,-59.589872,280.700098
91,3.66726,1.396609,-1.109791,0.599226,0.0,1.056976,-12.36228,35.425701,-19.089489,41.451187,-26.586085,32.485942,-34.427062,10.884017,0.0,-10.477995,11.924653,31.721958,31.776391,50.151153,47.342096,57.686803,60.15086,63.957773,0.0,67.990036,28.27898,95.373802,21.178665,96.560211,14.400959,82.825241,8.173027,64.12056,0.0,4.473385,33.17473,53.832527,50.411369,65.999211,61.476117,75.420965,67.657086,81.688632,-4.597778,287.583417,-60.645676,281.167425
92,3.667259,1.396609,-0.4743,0.793369,0.0,-3.264542,-15.851612,28.374939,-21.781311,35.746193,-28.178387,26.826439,-34.704723,6.431694,0.0,-8.124625,12.407202,30.310437,31.822272,48.977092,46.985333,56.175832,59.327449,62.174823,0.0,68.13303,27.877293,94.758167,21.039104,96.976261,14.514599,82.933445,8.53054,64.244213,0.0,5.586128,33.410122,53.786955,50.541354,65.802165,61.483712,74.879538,67.681477,80.690745,-0.749731,288.846506,-60.939188,281.827275
93,-12.305431,14.426069,-0.238094,-0.049277,0.0,16.690807,-10.202007,38.649845,-16.656761,48.137455,-19.630566,39.150524,-20.040665,21.830006,0.0,-12.42054,9.656591,22.522475,25.32477,37.843802,38.020099,43.697803,48.469813,48.801845,0.0,68.428802,27.775383,95.102005,20.727425,96.02005,14.172478,82.857513,8.255482,64.202156,0.0,4.383168,33.591421,53.687846,50.808424,65.199172,61.884472,75.002977,67.982758,81.147143,-12.944927,303.136848,-61.067047,281.642271
94,-8.679771,5.91254,0.579243,0.200874,0.0,17.067204,-0.846977,46.542492,-5.031166,55.991993,-7.452335,48.490162,-9.256668,32.66367,0.0,-22.046379,5.837822,18.657887,21.316921,32.945203,33.357758,38.778085,42.213014,44.614549,0.0,66.72987,27.295017,93.938999,20.23138,95.987034,13.616638,83.795071,7.803783,64.767666,0.0,5.105956,32.98423,53.03113,50.642007,65.096976,61.990065,75.43912,68.191906,81.03204,-21.328096,308.972154,-60.191202,281.76591
95,23.060932,-19.563148,-1.082325,-0.504377,0.0,-9.617157,-21.38752,25.6073,-27.711124,33.415146,-33.303967,24.669456,-38.363972,4.479561,0.0,-7.977042,11.357136,31.481842,30.564601,49.668265,45.902972,57.048612,58.794729,62.553785,0.0,67.27787,28.356342,96.005745,21.065769,96.516266,14.419441,83.889198,8.602352,64.667931,0.0,4.052865,33.281187,53.913482,51.122549,66.02916,62.663454,75.897123,68.993241,82.444581,2.064342,289.352566,-60.94202,281.205093
96,-5.832367,10.713079,-0.696888,0.40181,0.0,0.618553,-22.348766,29.003448,-29.21402,38.316765,-30.910549,30.13195,-29.32497,14.296303,0.0,-12.236956,10.559135,26.522172,28.005603,41.977436,41.52567,48.416028,52.178295,51.277666,0.0,67.199306,27.670956,96.045055,20.767708,96.821194,14.597626,84.633694,9.217644,65.655613,0.0,3.504521,33.339541,53.433928,51.146693,65.053689,62.545016,75.169826,68.743646,81.762486,-3.451538,299.924437,-61.322422,281.465695
97,-15.143108,5.794412,0.902424,0.821898,0.0,20.94286,-5.907097,45.248623,-13.128376,52.988605,-16.33976,41.882915,-17.045746,25.38763,0.0,-21.702244,5.098793,22.088308,21.214354,38.383562,34.401216,45.897476,45.088731,48.318586,0.0,68.063507,27.31945,95.486069,20.310688,95.856056,13.770103,83.212509,7.78965,64.43676,0.0,2.34491,32.275829,53.362236,49.605773,64.892396,60.979458,74.514407,67.526607,81.137571,-18.356495,305.658303,-60.181847,282.227047
98,-5.074997,-9.335489,-0.458908,0.170308,0.0,30.211086,-0.249538,55.463963,-5.996361,61.574306,-9.860859,51.877041,-10.864162,33.026905,0.0,-5.54389,10.884004,32.986823,28.363323,50.938038,42.271986,54.641828,52.468646,59.857391,0.0,68.1213,27.022076,95.524406,19.654942,96.535606,12.729321,84.198074,6.555576,64.688416,0.0,1.527705,31.867782,53.317158,49.322709,64.127679,60.882386,74.225045,67.470847,81.490784,-23.189878,296.319911,-60.399141,282.394452
99,17.307186,-6.828114,-0.058136,0.554766,0.0,0.821114,-9.787846,38.305664,-15.673485,43.545685,-22.681446,35.931587,-29.494572,14.0625,0.0,-11.865218,9.839434,27.447996,29.305572,46.3259,45.277996,55.013813,58.569031,61.398435,0.0,68.455811,27.154255,95.707054,20.104523,96.552429,13.630028,84.312172,8.039761,65.53791,0.0,1.216915,32.63818,53.091522,50.245199,63.772244,61.679523,73.724805,68.002826,80.462825,-5.668116,289.488726,-60.242701,282.946146
100,-4.497929,11.097352,-0.353622,0.500919,0.0,6.95097,-14.604549,41.22385,-21.846657,50.908527,-23.867226,37.00304,-23.078442,15.855389,0.0,-12.081345,5.210191,13.368038,23.049144,37.934081,38.297976,47.1034,51.064627,50.910683,0.0,69.103317,27.087135,96.566505,20.210953,97.471046,13.979645,85.175171,8.589935,66.435585,0.0,0.345864,31.283561,51.922587,49.378964,63.130163,61.362311,73.268778,68.023636,80.567862,-9.888296,300.580844,-60.318575,283.441832
101,-10.37344,4.049283,-0.042057,-0.377419,0.0,8.168163,-6.273022,47.813988,-10.747547,55.212593,-12.187328,46.643829,-11.946545,30.174408,0.0,-19.688748,8.396574,23.72457,24.758704,38.16336,37.779396,44.731443,47.397146,52.090239,0.0,69.460773,27.64595,96.498127,20.650063,97.188206,14.126244,84.476109,8.352642,65.728283,0.0,1.164242,32.237235,52.369783,50.186165,63.328135,61.921152,73.415929,68.490346,80.556747,-20.014973,304.616218,-60.113869,283.050504
102,9.776859,-14.87975,0.069637,1.061181,0.0,2.785549,-8.132172,46.286716,-13.979816,51.43198,-20.662994,43.259525,-27.920952,21.905193,0.0,-11.548377,8.735831,27.324619,29.369175,45.133006,46.505223,55.199805,60.747956,62.758487,0.0,70.049858,26.318092,96.000252,19.495354,97.504005,13.557644,85.344086,8.442135,66.173515,0.0,0.361981,31.252563,50.789158,49.204766,62.298632,61.065538,72.646087,67.73273,80.058792,-9.970865,289.653522,-59.776983,284.028739
103,-0.235004,11.74005,-0.343437,0.256696,0.0,5.331459,-15.323353,41.938477,-21.811123,49.740257,-22.577477,38.653107,-20.81955,21.29425,0.0,-14.898769,8.711995,24.985884,27.794787,38.030597,42.61575,47.017628,54.80454,51.032393,0.0,69.670258,27.403221,97.044525,20.561028,98.006287,14.424763,85.307236,9.278927,66.668816,0.0,0.526669,31.877786,51.205973,49.843636,62.727798,61.526073,72.456698,67.931134,79.65445,-9.979563,301.308156,-59.894114,284.200019
104,-13.66333,14.433171,-0.734711,-0.111212,0.0,22.081604,1.977768,53.763428,-3.401642,61.25473,-6.67717,51.281776,-8.701973,34.111176,0.0,-31.670551,-0.106643,13.776826,15.711466,26.873347,28.701159,34.040717,39.697611,39.145006,0.0,70.789719,27.494087,98.017502,20.709343,98.781853,14.801216,86.784096,9.944344,68.156662,0.0,1.053524,31.709578,50.859307,49.955528,62.151419,61.913124,72.24014,68.425446,80.125606,-23.458214,315.742191,-60.444145,284.089671
105,5.931702,-27.068787,0.545311,0.20038,0.0,10.241661,-3.526211,54.624481,-8.399563,58.630142,-14.076633,51.402283,-20.476913,30.64476,0.0,-14.324799,11.038812,27.422308,32.251499,45.540064,49.353893,55.326825,63.407793,62.410771,0.0,70.358849,27.472916,97.071648,20.648117,97.987404,14.620972,86.066093,9.67432,67.406158,0.0,1.004309,32.103669,50.85591,50.436996,61.610794,62.453749,71.830426,68.96181,80.079046,-17.369528,288.648812,-59.74185,284.265459
106,-1.050968,-0.089168,0.222073,0.434105,0.0,12.59737,-4.275799,55.145473,-9.532471,60.11507,-15.815163,51.907597,-22.849846,30.279064,0.0,-15.94939,7.406344,28.983729,28.538262,45.672828,46.372398,56.596846,61.739976,64.075871,0.0,69.946804,27.588043,97.667255,20.657444,97.934933,14.791145,86.312771,10.219803,68.67342,0.0,0.034827,31.885381,50.933222,50.48794,60.943952,62.674877,70.648523,69.225793,78.536273,-18.249722,288.522501,-59.349003,284.662421
107,-2.397594,-1.660777,-0.016766,-0.484988,0.0,20.791283,-0.166798,57.775726,-4.857903,62.680893,-10.942898,54.632835,-17.817879,33.357239,0.0,-15.400615,8.333712,25.639821,30.286107,45.015495,48.799869,56.716333,64.391848,65.066039,0.0,69.994812,28.064117,98.45993,20.847759,97.524719,14.776955,85.42717,10.152054,68.319168,0.0,0.916438,32.031915,51.77278,50.641822,61.219235,62.774913,70.770171,69.161943,78.57215,-20.572844,286.849868,-59.291296,284.165578
108,6.180611,1.518319,0.153122,0.013585,0.0,9.330711,-5.489502,50.959969,-11.129665,55.522385,-17.826347,46.91185,-25.504475,24.208946,0.0,-14.747789,8.759358,27.906802,29.896524,46.48182,47.545409,56.583693,62.377796,64.143796,0.0,69.755974,28.030415,98.233109,20.694923,97.496338,14.440956,84.641876,9.643936,67.277756,0.0,0.951265,32.417546,51.255127,50.998492,60.89239,62.961832,70.505385,69.171082,78.568507,-14.312124,288.340137,-59.058065,284.151113
109,2.816448,1.241122,-0.912266,0.446888,0.0,13.078365,-5.755463,45.079937,-11.149578,49.022541,-17.584705,41.450214,-25.105362,20.17828,0.0,-20.727637,6.87313,23.550928,28.26656,44.741323,46.449216,56.20893,62.063548,64.239571,0.0,70.00288,30.619984,99.125576,23.583527,97.181225,17.032413,83.194942,11.594868,67.171955,0.0,-0.618492,33.373998,51.408144,51.415801,61.298275,62.754165,70.461234,68.653676,77.858069,-11.462688,289.5642,-59.937344,284.580942
110,-2.954578,-0.325857,0.03582,-0.071816,0.0,16.391144,-2.391644,47.721405,-7.673607,51.938095,-14.33527,44.91394,-22.180023,23.689041,0.0,-20.778026,5.874317,22.021494,27.442501,43.957463,46.223518,55.474409,62.400953,64.05784,0.0,70.134602,30.520306,98.511028,23.4272,97.32233,16.809597,83.569508,11.279125,67.292919,0.0,-0.520494,33.412407,51.272973,51.458903,61.212504,62.806468,71.002229,68.729011,78.247035,-14.360847,289.221346,-59.845104,284.492129
111,0.248108,0.015376,-0.052071,0.115844,0.0,15.419769,-3.865013,48.382874,-9.009819,52.478371,-15.481567,45.164566,-23.092346,23.944588,0.0,-19.513809,7.008116,23.839858,27.968985,44.963562,46.303793,56.027569,62.236079,64.28187,0.0,70.194454,30.925484,99.152012,23.784542,97.001667,17.025375,82.919025,11.291656,66.707439,0.0,-0.142829,33.163738,51.381159,51.348555,61.346811,62.732614,70.976665,68.762048,77.947669,-14.042616,289.213025,-59.827051,284.584276
112,0.423603,0.618122,0.447178,-0.005558,0.0,16.683254,-3.276501,48.419781,-8.925133,51.702976,-15.774536,44.56953,-23.699913,23.168049,0.0,-21.033672,5.229334,22.58546,26.954055,44.365139,45.824178,55.983418,62.203351,63.954037,0.0,70.521355,30.37468,98.724174,23.133144,96.830292,16.29015,82.898483,10.523357,66.374817,0.0,0.075336,33.511702,51.57944,51.656998,61.045346,62.9706,70.686685,68.755502,77.579821,-13.583078,289.822857,-59.343939,284.570429
113,-3.262997,-0.840794,1.0532,-0.207173,0.0,16.94355,-3.162689,53.891144,-8.661346,57.574883,-15.175381,50.134277,-23.044395,29.642715,0.0,-16.964629,4.753114,22.458069,26.47092,44.142653,45.622933,56.556708,62.392122,63.935944,0.0,70.123672,29.758587,97.948837,22.153816,96.567993,15.069065,81.707954,9.097538,64.965706,0.0,-0.568536,33.31867,51.723133,51.698248,61.38769,63.037599,70.183851,68.792738,77.311763,-16.808052,288.971736,-58.252716,284.352928
114,-0.591259,-1.023328,0.322094,0.014573,0.0,16.606007,-2.975864,53.342113,-7.657299,57.930393,-13.529549,49.864483,-20.544777,29.936428,0.0,-16.229614,7.256908,23.512025,28.874678,44.070405,47.662426,56.525401,63.853508,64.722645,0.0,70.328007,29.41515,97.195415,21.964588,94.421597,15.09161,80.184689,9.249287,64.537525,0.0,-0.725382,32.872708,52.508166,51.288348,60.716895,62.809617,69.737396,68.820711,76.857465,-17.337971,287.924356,-57.869282,284.34345
115,-1.059151,-0.146842,0.50703,0.013462,0.0,17.726612,0.434418,56.215496,-4.878445,58.277721,-11.296692,50.472393,-19.023914,31.624088,0.0,-13.190259,6.099582,22.13919,27.859933,44.487529,46.492688,56.50175,62.328705,62.97554,0.0,69.96048,28.909836,97.058487,21.724434,94.685669,15.04406,80.105209,9.413624,64.621239,0.0,-0.538155,32.972929,51.728752,51.358559,60.82218,62.744717,70.084803,68.717958,76.849931,-18.324823,287.762956,-57.289953,284.342354
116,4.278488,1.101257,0.058422,-0.458003,0.0,15.162678,-1.86058,51.098385,-7.726021,53.424511,-14.698391,46.130733,-22.873821,25.938206,0.0,-15.930433,5.239214,20.990756,26.526742,44.150865,45.309612,55.783223,61.56374,62.325494,0.0,70.755558,29.619083,97.431622,22.400208,95.478344,15.577927,80.912876,9.726105,65.093365,0.0,0.008151,32.552532,51.783401,50.974471,61.140503,62.598924,70.280861,68.891106,77.461075,-14.012632,288.817668,-57.197828,283.837806
117,0.684471,-0.5334,0.721035,-0.411505,0.0,14.91148,-4.271507,48.763561,-9.594898,52.158451,-15.834389,45.3158,-22.909927,26.190777,0.0,-15.778712,5.243289,20.943578,26.354952,41.684863,45.076751,54.292691,61.460803,62.502409,0.0,69.952698,29.073315,95.923004,21.882992,93.983917,15.135555,80.507584,9.40773,64.883766,0.0,1.186349,32.540553,51.846016,50.803237,60.207331,62.461097,70.198301,68.870173,77.839482,-13.299751,288.259522,-56.448383,283.401555
118,2.815704,-0.429598,-0.414505,-0.139062,0.0,13.874531,-4.970169,46.511478,-11.085548,49.678745,-18.127384,41.681156,-25.726662,21.41161,0.0,-14.973919,5.720743,23.086071,26.623196,44.389407,44.93454,55.461565,60.901282,62.865871,0.0,69.847183,29.718189,97.269974,22.35014,95.175934,15.469437,81.037102,9.624138,64.912834,0.0,0.994552,32.562413,51.866332,50.778969,60.726343,62.357727,70.621723,68.657937,77.499608,-10.463305,287.789231,-56.842146,283.2218
119,-6.160469,-1.380245,0.013218,0.075891,0.0,18.071766,3.717842,54.427242,-1.265888,56.480198,-8.218918,48.057003,-16.24157,28.486118,0.0,-16.356202,7.711391,22.430652,28.968786,44.566631,47.58567,56.122171,63.47047,63.197162,0.0,70.197086,30.357971,97.217617,23.352184,95.5723,16.53677,81.36343,10.468998,65.151157,0.0,-0.245705,32.492511,51.530287,50.679119,60.783277,62.297521,70.692983,68.688009,77.56778,-16.60409,286.383344,-56.809244,283.272049
120,-0.456562,-1.798295,0.891037,-0.737979,0.0,21.763573,1.876488,56.484489,-3.614273,58.345184,-10.753956,49.349213,-18.852367,29.805908,0.0,-13.346487,7.534971,25.123526,28.858376,46.744506,47.589622,58.367848,63.872033,65.351264,0.0,69.580021,29.748001,96.270962,22.396717,94.820194,15.341835,80.943203,9.16523,64.363232,0.0,1.341404,33.209866,52.195771,51.239195,61.371017,62.669937,72.163137,68.79774,78.606792,-17.038622,284.554466,-55.896177,282.503488
