takenoko1/special-research/HandMotion_SimilarSearch_自分用/NewProject/handData/test_key/d4_feature_d2/108.csv
frame,vel_0x_L,vel_0y_L,vel_0x_R,vel_0y_R,posFromWrist_0x_L,posFromWrist_1x_L,posFromWrist_2x_L,posFromWrist_3x_L,posFromWrist_4x_L,posFromWrist_5x_L,posFromWrist_6x_L,posFromWrist_7x_L,posFromWrist_8x_L,posFromWrist_9x_L,posFromWrist_0y_L,posFromWrist_1y_L,posFromWrist_2y_L,posFromWrist_3y_L,posFromWrist_4y_L,posFromWrist_5y_L,posFromWrist_6y_L,posFromWrist_7y_L,posFromWrist_8y_L,posFromWrist_9y_L,posFromWrist_0x_R,posFromWrist_1x_R,posFromWrist_2x_R,posFromWrist_3x_R,posFromWrist_4x_R,posFromWrist_5x_R,posFromWrist_6x_R,posFromWrist_7x_R,posFromWrist_8x_R,posFromWrist_9x_R,posFromWrist_0y_R,posFromWrist_1y_R,posFromWrist_2y_R,posFromWrist_3y_R,posFromWrist_4y_R,posFromWrist_5y_R,posFromWrist_6y_R,posFromWrist_7y_R,posFromWrist_8y_R,posFromWrist_9y_R,posFromBody_0x_L,posFromBody_0y_L,posFromBody_0x_R,posFromBody_0y_R
2,-21.312103,6.564007,1.392117,1.207406,0.0,32.039223,-4.967079,52.822151,-16.040211,48.712921,-24.272575,29.895859,-29.026966,-24.393826,0.0,-8.865013,17.572809,49.517779,36.932798,57.811847,50.18493,63.347833,60.978408,71.965597,0.0,68.254566,26.942024,86.068096,16.175365,83.74094,4.932518,68.363285,-5.666828,46.330776,0.0,8.712057,31.851295,63.040872,47.989024,76.315914,59.30738,84.176371,66.322783,86.232721,-8.181782,301.231755,-41.439857,284.912542
3,-3.467846,-0.236875,0.093441,-0.015932,0.0,-3.020325,-8.940697,53.977947,-16.766396,56.651402,-19.779854,46.188641,-20.194187,23.73991,0.0,29.745482,20.735912,47.932646,32.233345,54.251812,39.012058,55.562959,44.000874,55.178439,0.0,67.561798,27.836037,85.346832,17.787323,83.888969,6.83012,69.795113,-3.834286,47.807693,0.0,8.042929,31.912489,62.49611,48.189342,76.028527,59.503067,84.425534,66.698534,86.701283,-13.145256,301.698789,-42.842045,285.600518
4,7.903919,-12.632097,0.160561,-0.348828,0.0,4.589424,-15.897789,39.877625,-24.431705,46.534195,-30.642815,31.906815,-33.002644,-47.419624,0.0,-7.996061,25.553555,56.101423,45.215813,68.860663,57.459314,73.25581,66.76788,90.099285,0.0,67.588692,28.267536,84.633636,17.821026,83.600006,6.511002,69.378548,-4.154434,47.259178,0.0,8.379469,32.253846,64.239448,48.853468,76.474551,60.369488,84.257573,67.359572,87.081481,-5.98177,289.418515,-43.421917,285.603513
5,-7.50927,5.232977,-0.18465,0.199145,0.0,21.828346,-4.283295,57.287865,-15.272026,56.11084,-21.863079,39.009132,-25.895805,10.304031,0.0,14.460094,23.087985,54.228347,39.412509,65.632599,49.656779,68.010731,57.320931,68.945817,0.0,66.875896,27.805367,84.637814,17.225933,83.516178,6.009293,68.906193,-4.432468,45.965137,0.0,7.929988,32.53728,64.169917,49.439541,77.027649,60.867258,84.49667,67.461955,87.103402,-13.745184,294.850035,-43.860712,286.001201
6,6.922531,-6.550422,-1.067963,-0.119858,0.0,4.779282,-17.022057,39.424896,-25.668068,47.794075,-31.639366,32.229652,-34.023685,-48.479919,0.0,-6.869116,26.618256,58.936878,46.001216,70.137662,57.958813,74.823221,67.348149,91.385176,0.0,67.492046,28.287392,85.497036,17.837791,84.822636,6.76712,70.536518,-3.633327,48.027592,0.0,7.78932,32.515235,63.678322,49.779415,76.784785,61.470374,84.928676,68.208826,86.799961,-6.864223,288.432593,-44.970245,286.014323
7,-9.40424,5.321157,0.513153,-0.444356,0.0,24.542713,-4.178638,56.483517,-13.50214,56.120281,-18.457375,42.222919,-20.681305,17.319889,0.0,8.956836,23.674243,54.428913,41.949648,66.861494,53.751696,70.611102,62.789486,71.857719,0.0,67.115879,28.059654,85.068798,17.623158,84.018803,6.531944,69.799404,-3.98838,47.55518,0.0,8.309444,32.957368,64.40463,49.765275,77.41081,61.045099,85.625838,67.601449,87.624452,-16.256876,293.930942,-44.445505,285.74716
8,20.723934,-1.464596,-0.856476,-0.466463,0.0,-8.085594,-24.259129,30.607224,-34.108372,35.810966,-40.376186,18.480034,-43.159504,-60.698032,0.0,-11.189977,24.580307,56.352067,43.785488,66.601895,55.534863,70.615672,65.121984,86.307131,0.0,67.063236,28.667049,85.719967,18.119659,84.75935,6.978664,70.961323,-3.479748,48.637104,0.0,8.959614,33.240803,64.634033,50.297378,77.756366,61.586897,85.945705,67.881116,87.728563,4.526339,292.534086,-45.242701,285.348438
9,-18.344593,8.171309,0.152893,-0.264848,0.0,35.701962,-3.486786,53.999577,-13.582592,48.985577,-20.764503,31.481266,-25.176315,-4.140015,0.0,-7.442345,18.217298,49.32802,38.211278,60.39746,52.243751,65.76635,63.322022,69.258892,0.0,67.389736,28.575497,85.574284,18.008938,84.538937,6.80191,70.528049,-3.724594,48.392887,0.0,9.321842,33.501945,65.036831,50.513813,77.979038,61.819202,86.163314,68.253965,87.865834,-13.720922,300.752325,-44.992476,285.13052
10,16.185665,-7.477419,0.108147,-0.361487,0.0,-4.466972,-21.326408,33.138657,-31.745682,39.706306,-39.282246,24.357262,-43.946629,-57.353096,0.0,-9.68302,21.321306,54.497332,41.392227,65.7519,53.784671,70.210095,63.653004,84.54922,0.0,67.263393,28.156013,85.495319,17.649021,84.447613,6.53389,70.521984,-3.944378,48.149929,0.0,9.559334,33.592656,65.141992,50.477689,78.295323,61.700888,86.595937,68.095514,88.039538,2.657003,293.330373,-44.692068,284.824501
11,-16.847935,6.011156,-0.489349,0.015808,0.0,31.934338,-6.34758,50.902691,-14.460297,51.04929,-19.073582,40.765171,-21.007175,15.950375,0.0,1.609092,19.667691,49.316781,37.054014,63.398036,50.269405,66.317472,61.075109,68.825836,0.0,67.489071,28.170261,85.987644,17.866287,84.881115,6.995602,71.219616,-3.233757,49.252453,0.0,9.311221,33.59136,65.038127,50.486519,78.220297,61.786474,86.505658,68.325472,88.198175,-14.087334,299.365272,-45.07782,284.864052
12,-2.918644,-1.574944,-0.410385,0.025071,0.0,42.635078,2.750759,55.494461,-7.012424,58.241386,-13.368473,44.468079,-16.672783,24.666138,0.0,2.608029,13.356305,47.985813,30.630798,63.836341,45.416749,70.561949,57.099618,74.200901,0.0,67.994556,28.014336,86.41016,17.777882,85.279598,7.096653,71.806469,-2.963276,49.852238,0.0,9.027169,33.566412,64.947107,50.37259,77.978729,61.660812,86.35616,68.264586,88.172611,-16.90876,297.807602,-45.390987,284.906397
13,14.704742,-8.551012,0.877304,0.769534,0.0,2.854843,-21.607189,34.397049,-31.296616,42.572937,-37.475681,27.912369,-39.900684,-54.827271,0.0,-5.647446,24.33133,59.456816,43.346937,70.509152,55.161334,75.121599,64.885542,89.336729,0.0,66.458187,27.04319,86.324329,16.516743,84.208088,5.808735,69.953899,-3.946266,47.785892,0.0,8.223982,33.41321,63.881666,50.450889,77.720242,61.741396,86.074455,68.265451,87.910542,-2.082996,289.257594,-44.392662,285.676934
14,-16.109676,4.920458,0.16468,0.010992,0.0,42.676449,-4.526138,60.521679,-14.720364,53.795528,-20.823555,39.375744,-23.25491,3.587437,0.0,5.609716,24.282547,54.310414,43.256781,68.830591,56.835264,72.735872,67.054464,78.670642,0.0,66.216145,28.025665,86.078167,17.626476,84.25787,6.69817,70.041332,-3.440208,47.763691,0.0,7.663905,33.261736,62.932562,50.337886,77.544006,61.703543,86.236365,68.341157,87.861635,-18.009768,294.175999,-44.045076,285.685873
15,15.789814,-5.519622,0.109978,0.142396,0.0,4.408493,-20.897369,35.881805,-29.41,43.223648,-34.590397,30.024376,-35.961571,-51.861248,0.0,-3.999883,24.912092,59.305837,44.273316,71.868279,56.105807,76.551368,65.800066,89.78831,0.0,66.728382,27.650127,86.062489,17.214031,84.08392,6.437588,70.210934,-3.482151,48.102551,0.0,8.301602,33.167628,63.625957,50.417174,77.581365,61.776903,85.997946,68.181532,87.127485,-2.1064,288.656778,-43.821545,285.828671
16,-16.784649,4.228298,0.257206,0.213348,0.0,40.15543,-3.653355,59.876575,-14.173794,55.478039,-20.203056,43.493443,-22.736778,17.993832,0.0,5.1075,21.757881,54.611076,41.235134,68.410132,55.693561,72.79929,66.420472,76.579279,0.0,66.514549,27.933941,85.921783,17.494469,83.833923,6.526852,69.804955,-3.683167,47.648048,0.0,7.517125,32.940819,62.921632,50.028023,77.235686,61.465002,85.836222,68.210617,86.882583,-18.804874,292.880753,-43.478165,286.037696
17,12.493229,-2.529791,0.51796,-0.009077,0.0,9.469986,-16.34285,41.322556,-25.376244,47.944908,-31.320705,34.977837,-33.246918,-46.672096,0.0,-6.113723,25.587456,57.76714,44.691552,69.562086,56.452782,74.495018,65.588632,88.873292,0.0,66.424026,28.712254,85.541496,18.21682,83.467369,6.889,69.227943,-3.747768,46.941147,0.0,7.604378,33.010226,63.353761,50.01666,76.937555,61.450737,85.011113,68.217903,86.757044,-6.223497,290.348832,-42.872057,286.026488
18,-9.901371,2.1336,0.077419,0.381,0.0,26.695232,-3.611069,60.903912,-14.060898,56.574039,-20.21822,42.278309,-23.492546,15.466404,0.0,16.738869,27.675608,56.418449,43.555962,69.840704,53.901132,70.888114,61.392074,72.582916,0.0,66.128826,28.064861,85.577946,17.841454,83.205585,6.871662,68.99992,-3.43998,46.719646,0.0,7.2813,32.811205,63.051061,49.483137,76.583725,60.812423,84.178841,67.719701,86.742039,-16.091967,292.413719,-42.761736,286.338775
19,9.38879,-2.915731,-0.002003,0.017414,0.0,10.496979,-15.553265,42.197342,-25.07,49.374504,-30.963936,36.099472,-32.942505,-43.707504,0.0,-5.26873,25.395845,58.30937,44.879026,70.001626,57.170693,75.014462,66.323277,88.901142,0.0,66.454468,28.222446,85.396957,17.837906,83.468628,6.763744,69.299011,-3.539314,46.476402,0.0,7.134272,32.204322,63.028337,49.29276,76.498201,60.95729,84.139074,67.927429,86.843495,-6.643982,289.48817,-42.704544,286.346371
20,-7.949581,6.263653,-0.42223,0.019884,0.0,17.012157,-2.706184,61.823788,-13.077793,59.601116,-19.531116,41.563396,-23.145332,9.542255,0.0,24.456251,24.263157,54.826215,38.83576,65.698116,47.693239,68.065935,54.153876,71.086025,0.0,66.59277,28.488979,86.264591,18.198624,83.965931,7.144833,69.856968,-3.343735,47.261295,0.0,6.843736,31.582495,62.805788,48.546136,76.651404,60.206652,84.376072,67.216991,86.781559,-14.551992,295.740476,-43.085203,286.354908
21,15.250568,-6.395675,0.524197,-0.812697,0.0,0.295372,-23.085651,36.230965,-33.837433,45.842514,-39.34845,30.431442,-40.728722,-55.888767,0.0,-5.231495,26.689084,60.96575,44.826106,71.415092,56.155825,76.045077,64.770439,91.248646,0.0,66.671104,27.893887,85.808372,17.594662,84.111099,6.712761,69.768105,-3.411026,46.5802,0.0,8.475182,32.77329,64.444582,49.909523,78.049927,61.502299,85.043964,68.2573,87.694045,0.728874,289.363789,-42.530708,285.561199
22,-18.248062,7.748936,-0.104828,0.067925,0.0,39.641304,-4.381599,61.480865,-13.410873,56.112556,-18.114223,42.844391,-19.281406,5.737782,0.0,6.298172,21.591834,51.02912,39.817715,65.674959,53.460851,68.515787,64.520844,74.214239,0.0,64.943275,27.756557,85.972481,17.855816,85.132713,7.366219,70.95417,-2.408752,49.223442,0.0,7.542257,32.685296,66.033235,49.692471,80.354453,61.207873,87.361766,68.235193,88.461232,-17.521019,297.130679,-42.637367,285.647078
23,18.826218,-10.344059,0.260468,-1.041668,0.0,2.155952,-20.593929,38.452721,-30.87616,45.168571,-38.803654,27.744942,-43.565083,-57.19677,0.0,-5.807626,26.469808,64.159604,45.228595,78.045234,56.462662,83.075176,65.892815,94.366856,0.0,66.279373,27.04731,85.670471,17.465401,85.709724,6.996231,71.668282,-3.148727,50.46032,0.0,7.22523,29.453526,66.754974,46.333434,82.387276,58.272752,89.346424,66.114808,90.238471,1.275959,286.78767,-42.406139,284.60646
24,-11.85585,13.350069,-0.751934,-3.556021,0.0,-5.296783,-10.951595,50.263367,-17.787609,55.025139,-21.004829,43.460426,-22.503834,13.887634,0.0,34.099195,20.265188,59.121018,28.50646,67.31326,33.089082,62.113566,36.53352,58.788121,0.0,66.883564,24.320526,82.863064,15.347958,84.810276,6.175003,70.685406,-2.625389,49.477444,0.0,7.195096,27.905505,65.93956,44.791649,84.430721,56.819765,92.709846,65.059802,93.689207,-10.766401,300.185626,-43.344584,281.098327
25,33.733063,-1.164736,0.81419,-7.500514,0.0,-44.506531,-35.590324,-4.463425,-43.384037,-14.654961,-46.559944,-29.226608,-45.965652,-58.014622,0.0,7.173422,8.429981,31.984614,25.097899,46.162323,39.044415,56.713801,50.818243,71.397617,0.0,64.198837,20.869389,74.261169,9.955616,72.134743,-1.345139,57.536316,-12.053204,35.694351,0.0,8.832964,21.059237,65.2855,35.635916,81.361046,47.706825,88.702923,56.703366,88.150504,22.621965,299.24384,-42.87509,273.820763
26,-25.857582,9.915511,3.158855,-11.902145,0.0,-43.474045,-12.237682,-44.430714,2.962189,-32.381172,17.858162,-17.385406,30.368385,3.666916,0.0,17.677414,8.213546,33.022021,14.370309,58.673018,20.889794,64.971684,26.837347,62.437571,0.0,57.50536,18.819294,60.151691,8.941326,45.912609,-1.457748,27.770462,-11.151295,10.880928,0.0,18.398165,23.590448,62.844629,38.542014,85.866356,50.867643,90.353944,60.673238,83.495634,-3.566895,309.381976,-40.047512,262.141243
27,38.690186,-54.055693,-14.932251,-12.211916,0.0,-40.960579,-31.692696,-67.915936,-17.280922,-58.729591,-1.121178,-44.188042,14.778328,-22.281303,0.0,52.881633,31.379707,93.416456,42.744376,108.908955,52.167921,113.642432,59.382716,111.13024,0.0,55.863991,25.253105,50.393257,18.979282,42.031288,10.873089,29.776611,1.976538,17.832355,0.0,0.732545,3.974874,26.976687,1.81043,30.461664,0.093058,26.627735,-0.759684,14.747048,34.863567,255.387045,-55.239487,249.99009
28,17.397766,-28.667814,-14.932251,-12.211916,0.0,-36.918755,-31.699791,-68.265266,-18.228493,-52.091789,-2.888489,-37.441978,11.652145,-19.411011,0.0,58.77608,26.742807,89.957815,38.590241,104.733083,48.93819,109.086981,57.066952,106.821482,0.0,54.222622,31.686916,40.634823,29.017239,38.149967,23.203926,31.782761,15.10437,24.783783,0.0,-16.933074,-15.6407,-8.891257,-34.921155,-24.943029,-50.681527,-37.098474,-62.192607,-54.001538,52.224855,226.84812,-70.208216,237.907063
29,11.689453,-31.803068,-18.545895,-94.81362,0.0,-48.389053,-29.473343,-55.078468,-16.085815,-39.73938,-2.4963,-26.639557,10.21946,-12.228355,0.0,48.188354,22.220268,65.902324,35.510871,76.362103,46.568579,80.229655,54.420762,82.359982,0.0,27.199917,40.982552,48.27467,39.778061,40.784225,35.110359,35.121517,27.995682,30.67543,0.0,-53.20258,-1.317445,-3.432088,14.726424,13.021495,29.878925,25.693605,43.591283,36.48239,62.757568,195.680989,-89.910851,143.729379
30,12.602577,-48.026692,14.44313,-28.713571,0.0,-40.784569,-35.487442,-48.007851,-26.26339,-31.323051,-14.332695,-17.451782,-0.487175,-4.514809,0.0,27.453677,20.695836,47.441607,35.183409,57.990182,46.386292,60.362942,54.314798,62.683584,0.0,26.234665,-5.183601,4.028664,-16.08284,2.827721,-22.848587,-0.848064,-25.408573,-8.756504,0.0,-25.338077,-40.546031,-86.959709,-33.868125,-33.837589,-22.693925,-14.408378,-9.437161,-2.95979,74.890366,149.096339,-75.9375,116.45785
31,16.980057,-35.757471,-3.514309,-41.279656,0.0,-36.183929,-24.003754,-38.397331,-13.916359,-28.321609,-3.85849,-19.201698,6.010895,-14.801559,0.0,-52.082953,-13.21323,21.821947,-1.393089,30.411924,11.597129,35.809342,24.574781,41.857115,0.0,19.416218,-7.281704,-12.304688,-21.792812,4.969482,-30.849667,-6.026802,-36.419048,-10.988674,0.0,-41.719844,-50.595663,-109.672159,-47.153417,-19.626813,-37.60807,-14.109105,-25.159804,-8.518253,92.786207,114.607267,-78.536024,76.446593
32,-6.714249,-26.194556,-3.288116,-41.719041,0.0,-28.700981,-6.859932,-13.449898,7.303505,-12.882957,17.768097,-1.641998,26.549606,10.430603,0.0,-18.87812,-48.416954,-103.707563,-46.180385,-12.154951,-36.017564,-5.77002,-23.98704,1.144328,0.0,14.42585,-6.989307,-18.750858,-21.706638,2.838535,-31.854744,-9.303303,-38.757763,-16.273441,0.0,-52.068874,-52.803333,-116.196399,-49.222365,-14.704162,-39.852203,-6.816659,-27.580389,-4.381747,85.72114,90.075449,-82.174959,36.39029
33,6.088371,-43.2243,-3.926697,-34.09762,0.0,-18.746681,-1.908989,-0.548401,12.179489,-5.404816,24.353485,5.665398,35.58712,15.47081,0.0,-40.234222,-50.921427,-111.425346,-50.167023,-25.565165,-44.978043,-15.000287,-37.292803,-13.156543,0.0,16.477261,-8.867741,-20.596333,-24.846783,7.614384,-36.379337,-4.936924,-45.623074,-15.836678,0.0,-54.033926,-57.111443,-127.382702,-52.66986,-23.335697,-44.139781,-14.398158,-32.552594,-9.546027,92.92634,50.34985,-84.984827,5.79137
34,0.700264,-42.19628,-0.207424,-34.37383,0.0,-11.143456,2.925682,11.282959,18.757553,1.065102,31.585579,12.357559,43.603363,22.084007,0.0,-54.030252,-57.36073,-127.142771,-54.157828,-26.849481,-46.863005,-18.755484,-36.806086,-16.241161,0.0,15.915527,-9.968777,-20.361099,-26.743011,5.329571,-38.88113,-6.322517,-48.186665,-15.380802,0.0,-54.275864,-59.08372,-129.344312,-56.197259,-22.849381,-48.141702,-16.679589,-36.678077,-15.560641,94.4238,11.546601,-84.395056,-25.189429
35,10.164757,-27.601724,-5.581856,-26.525167,0.0,-18.553162,-0.82695,3.510475,12.149277,-4.677773,24.991951,7.135048,37.632065,19.206619,0.0,-61.049082,-52.368394,-103.081476,-51.325924,-41.750658,-46.511738,-32.176689,-39.163501,-27.384146,0.0,22.542858,-7.021236,-12.685776,-21.16024,14.039555,-32.822742,1.494427,-42.294388,-11.235809,0.0,-55.701465,-55.412103,-116.402244,-53.405554,-29.161879,-45.824734,-21.765785,-33.897055,-19.780973,104.660482,-15.088914,-89.904985,-50.748387
36,0.681725,-40.260034,0.942478,-23.409797,0.0,-12.814293,5.709,11.632004,20.141716,-1.850166,32.007866,10.48645,42.822189,21.244698,0.0,-55.055,-54.116054,-126.690109,-50.245415,-28.291785,-44.385579,-19.714251,-36.529599,-17.344672,0.0,20.180683,-5.536308,-13.419342,-20.253639,15.155296,-30.778198,3.146152,-39.337978,-6.591282,0.0,-52.816393,-56.912221,-131.256089,-53.548722,-27.116675,-46.485988,-20.845735,-35.754878,-19.062754,105.686016,-52.347986,-88.618698,-71.157223
37,1.93634,-16.13248,0.477161,-15.410278,0.0,-18.013687,5.129356,9.919167,18.809166,-5.187035,30.822258,8.804626,41.190834,18.840065,0.0,-58.190748,-54.286825,-121.575554,-52.517676,-35.236144,-47.052085,-23.476827,-38.101671,-19.38472,0.0,22.825642,-6.738739,-14.299393,-21.080818,16.760674,-31.909161,3.156109,-40.359707,-7.088585,0.0,-56.64671,-55.508125,-129.667513,-52.907969,-22.674473,-45.969585,-15.500805,-34.832327,-16.936131,106.471996,-66.496904,-89.291897,-84.583939
38,-1.419754,-12.657538,1.304398,-10.502603,0.0,-27.033463,3.764763,8.537979,17.902794,-5.445671,30.605164,9.716949,42.334442,20.113792,0.0,-63.553524,-54.950673,-122.949516,-53.41352,-33.570735,-47.563456,-22.048324,-38.262871,-20.731528,0.0,20.421352,-7.27478,-15.372391,-21.767635,13.863945,-32.578239,1.361904,-41.090012,-9.900398,0.0,-56.949781,-55.146036,-128.359948,-52.643245,-25.594805,-45.846408,-16.844092,-34.986641,-17.620881,104.033175,-78.495904,-89.006567,-94.428004
39,-1.395264,-8.102364,0.233059,-5.809417,0.0,-24.363441,3.148041,10.826797,17.737656,-4.4664,31.017609,11.870499,43.132668,23.616142,0.0,-67.662026,-57.738302,-128.835411,-55.917715,-31.460909,-49.672495,-21.11367,-40.209012,-20.177256,0.0,19.334393,-7.171955,-16.072083,-21.507053,12.857494,-32.168369,0.861225,-40.522499,-9.203281,0.0,-59.839437,-56.166152,-130.049918,-53.332194,-26.34921,-46.855163,-16.978832,-36.979404,-17.679791,101.757803,-85.856368,-89.653616,-99.495521
40,1.434517,-3.338104,-0.291996,-2.286525,0.0,-24.599304,1.658592,9.220161,16.723251,-6.490288,29.92733,9.308281,41.762466,20.934563,0.0,-67.293114,-57.478611,-130.19145,-55.376303,-31.308416,-49.787875,-20.736745,-41.802729,-20.663293,0.0,19.918957,-6.418934,-15.666275,-20.384159,12.850227,-31.287518,2.916756,-40.021992,-7.117882,0.0,-60.916195,-56.532456,-130.818912,-54.029017,-26.536267,-48.068034,-17.104741,-38.718574,-19.497075,102.567644,-88.010886,-90.570288,-100.598461
41,0.326843,-1.934887,-0.601616,-2.552268,0.0,-24.850845,2.171974,8.702431,16.699677,-7.144775,29.535027,8.837471,41.645164,20.677299,0.0,-64.766549,-56.930607,-129.220595,-53.946997,-31.300867,-48.226362,-21.524032,-40.597376,-20.851972,0.0,18.449535,-6.875954,-15.55481,-21.616287,13.764954,-32.729874,3.868217,-41.723671,-7.364845,0.0,-58.633884,-56.555473,-128.55102,-54.285142,-26.806965,-48.362166,-15.313145,-39.094834,-16.771767,102.815065,-89.324611,-91.251326,-102.529566
42,2.245102,1.461354,-0.297604,-0.948795,0.0,-27.029572,-0.089607,6.923447,14.617538,-7.535934,27.719536,7.302589,40.275536,19.604759,0.0,-62.663099,-57.135727,-130.260364,-54.222774,-33.707991,-48.500827,-24.35146,-40.749081,-22.28384,0.0,18.909531,-7.320042,-15.928059,-22.348824,13.370819,-33.718128,3.095112,-42.684174,-7.730598,0.0,-58.668912,-56.564952,-129.678706,-53.71869,-27.259086,-46.999134,-16.461749,-36.958162,-17.982677,104.743824,-88.235148,-91.865273,-103.850253
43,0.285416,1.801784,-0.772362,-0.297884,0.0,-29.959259,1.218681,8.156433,15.698318,-6.770668,28.415108,7.737923,40.851173,20.3936,0.0,-59.341528,-57.824228,-131.332474,-54.862972,-33.837034,-49.489266,-24.537792,-42.156466,-22.854507,0.0,18.410568,-6.95343,-14.589214,-21.675797,12.334442,-33.093967,3.540459,-42.054005,-6.660748,0.0,-60.592885,-55.919166,-129.632547,-53.500449,-26.155421,-47.282846,-17.120333,-37.702501,-18.48125,104.558716,-86.882768,-93.108158,-104.597541
44,0.111237,3.854492,-0.043488,-0.642698,0.0,-29.85672,1.70517,8.072891,16.109047,-6.612167,28.811874,7.766075,41.093102,19.756279,0.0,-65.963411,-58.299984,-132.526959,-55.512771,-33.379864,-50.200754,-23.986484,-43.13873,-21.478985,0.0,18.806248,-7.318611,-15.424232,-21.86594,12.248726,-33.008137,3.37738,-41.50835,-6.472435,0.0,-59.926243,-55.209963,-128.949217,-52.923098,-25.503198,-46.811768,-16.803676,-37.38566,-18.232581,104.565067,-83.982583,-93.256531,-106.194545
45,-0.167999,3.910777,0.836506,2.965255,0.0,-31.220055,2.631798,7.7108,17.497215,-4.613686,30.110893,9.753456,41.916962,20.172272,0.0,-64.678478,-59.021816,-133.484137,-56.528488,-31.343336,-51.175932,-21.596002,-43.867138,-20.057244,0.0,17.00449,-7.048531,-10.920181,-21.563301,9.373512,-32.69062,1.115055,-41.594238,-9.51067,0.0,-60.304881,-55.582781,-129.081734,-53.783883,-23.812935,-48.287325,-16.833162,-39.660005,-20.090867,104.286261,-80.379369,-92.530832,-103.536854
46,0.606422,6.358718,2.575035,9.661408,0.0,-24.597702,3.603745,6.641235,18.420525,-4.671478,30.622215,9.1008,41.785698,17.619553,0.0,-61.171888,-58.590813,-134.058276,-55.788688,-31.019301,-50.084339,-22.314839,-42.202053,-20.561714,0.0,21.491718,-7.3629,-2.041683,-22.40015,8.065453,-33.303337,-2.622986,-41.839886,-11.077309,0.0,-58.561852,-56.670622,-121.40324,-54.525367,-24.278101,-47.838476,-16.203092,-38.784091,-18.351883,104.985209,-74.245778,-89.863272,-94.100573
47,0.319519,7.256445,2.605648,13.659346,0.0,-22.865982,3.140488,6.42128,17.860909,-6.452866,29.883957,7.115479,40.885391,15.718918,0.0,-59.099251,-58.454654,-133.896676,-55.571434,-30.71271,-49.702845,-21.815031,-41.685912,-19.676923,0.0,32.070293,-4.625187,11.875362,-19.738255,11.213207,-30.249023,-2.034588,-38.869858,-10.678425,0.0,-56.088038,-57.406379,-94.790958,-55.22591,-22.200693,-47.192721,-13.509693,-37.32374,-11.728781,105.699892,-68.245737,-86.862459,-81.697632
48,-0.161934,6.061173,4.606647,14.951782,0.0,-20.147324,3.691406,5.42347,18.514824,-6.365891,30.435791,7.79789,41.180534,16.62632,0.0,-56.805562,-58.040602,-132.700447,-54.733898,-29.910387,-48.441037,-20.809426,-40.162221,-18.323509,0.0,26.882858,-6.874866,8.895092,-23.236542,11.837654,-33.65839,-4.207706,-40.9338,-14.624519,0.0,-46.23417,-60.107527,-94.171061,-58.274744,-20.001422,-48.827101,-11.855307,-36.860488,-8.619987,105.67872,-62.513755,-82.115049,-67.075042
49,0.660896,6.128667,-3.424015,9.947806,0.0,-23.429947,3.565292,4.786263,18.426361,-6.96579,30.407181,7.327194,40.937691,16.222,0.0,-56.02831,-58.044862,-133.055141,-55.515535,-31.959852,-49.628868,-21.652628,-41.229114,-18.175709,0.0,25.281429,-3.689632,13.133583,-20.107613,14.446106,-31.521263,0.202675,-40.48502,-7.282619,0.0,-48.505937,-59.608537,-96.989828,-58.61698,-18.165304,-50.258722,-10.25733,-39.14124,-10.636045,106.400871,-56.487779,-85.47781,-57.229927
50,1.353264,2.495828,-1.681709,2.452356,0.0,-23.640747,3.386993,3.537369,18.8237,-6.51432,30.710449,6.522102,40.566101,14.539032,0.0,-53.463352,-57.912655,-132.333788,-55.558544,-28.588835,-49.523614,-19.97879,-40.794175,-18.042359,0.0,22.120228,-3.470993,13.236179,-20.464039,14.59219,-31.828938,0.724983,-40.320969,-5.724907,0.0,-52.401986,-58.73693,-100.280755,-58.027541,-16.344593,-50.671647,-12.786534,-39.967275,-11.150828,107.90534,-54.275571,-87.008314,-55.061191
51,0.482368,2.368067,-2.980728,-1.484789,0.0,-22.953415,2.563705,3.354836,17.657433,-5.899086,29.62841,6.881104,39.850044,15.766068,0.0,-54.934278,-57.890208,-133.453045,-55.390984,-29.893621,-49.581783,-21.494855,-41.332947,-18.947867,0.0,23.922615,-2.326698,14.971561,-18.52232,15.237408,-29.460411,2.368698,-37.528667,-5.232754,0.0,-50.600912,-60.65002,-101.838625,-59.77057,-21.89225,-52.438882,-16.937984,-40.985755,-14.900745,108.482866,-52.056076,-89.893885,-56.694551
52,0.800972,-0.374825,0.493412,-4.657062,0.0,-23.490028,2.772446,4.391556,17.616119,-5.711975,29.596252,6.307068,39.744072,15.899277,0.0,-56.026365,-56.862249,-132.0234,-54.272962,-30.642963,-48.757168,-21.037038,-40.853023,-17.496701,0.0,22.502632,-3.367424,16.081181,-19.203815,15.991745,-29.385166,2.327671,-36.133461,-5.335293,0.0,-52.951596,-61.545215,-100.243288,-60.17979,-22.696858,-52.166748,-16.77135,-39.868659,-13.64681,109.306612,-53.337937,-89.377699,-62.258649
53,0.48111,-1.438568,0.005836,-2.104084,0.0,-23.541298,3.634186,5.517311,18.575706,-4.757195,30.31826,7.041206,40.09243,17.036591,0.0,-54.964289,-56.97056,-131.151839,-54.872528,-27.801764,-49.429074,-19.095574,-41.607088,-16.498722,0.0,27.254906,-3.062096,15.931091,-18.98489,15.883083,-28.922882,2.680092,-35.284023,-4.237232,0.0,-50.186165,-62.125577,-102.125193,-61.690777,-23.547038,-53.738049,-18.120813,-41.178417,-15.067193,109.858589,-55.603328,-89.300995,-65.189555
54,0.557671,0.091607,0.067635,-0.361703,0.0,-23.184471,3.654671,6.434441,18.76442,-4.204102,30.661125,7.793999,40.765114,17.902222,0.0,-55.89919,-57.054972,-131.278443,-54.839676,-26.413523,-49.297917,-19.41612,-41.422886,-16.789875,0.0,25.58012,-2.30072,15.779915,-18.266373,16.14933,-28.93261,3.092422,-36.717854,-3.761272,0.0,-50.570685,-61.361739,-102.646598,-60.952103,-20.868768,-53.928796,-17.151424,-42.747772,-15.98817,110.435858,-56.101747,-89.213762,-66.141283
55,0.008812,0.480449,-0.74461,0.564368,0.0,-23.047485,3.638077,6.359367,18.444214,-4.57283,30.287819,7.603798,40.406799,17.469406,0.0,-56.559333,-56.609752,-130.487698,-54.448611,-25.896116,-49.018187,-19.69622,-41.20429,-17.033203,0.0,25.010719,-1.944466,17.232685,-18.26437,16.025333,-28.981819,2.85862,-36.696281,-4.474983,0.0,-51.368871,-61.429202,-101.053885,-61.398342,-23.740872,-54.49162,-18.838939,-43.382968,-16.197102,110.450878,-55.803894,-89.952164,-65.759511
56,-0.757484,-0.10479,-1.195736,0.681539,0.0,-22.452507,3.813171,7.068901,18.631897,-4.623528,30.61306,7.447128,40.837898,17.302094,0.0,-56.142178,-56.362627,-131.168728,-53.808074,-26.351618,-48.241768,-19.193819,-40.364454,-16.365125,0.0,26.069412,-2.002831,17.546196,-18.125782,15.708389,-28.447723,2.243385,-35.738297,-5.28265,0.0,-51.747,-60.863213,-101.154786,-60.949602,-22.834067,-54.286454,-19.200827,-43.643431,-16.547351,109.711332,-56.051822,-91.129961,-65.221109
57,0.641785,0.607501,-0.426521,0.160181,0.0,-22.464981,3.137512,6.258202,18.032684,-4.927483,30.064316,7.138367,40.257797,16.608238,0.0,-56.124455,-56.855611,-131.697373,-54.417859,-26.995983,-48.878971,-19.567007,-41.091966,-17.089859,0.0,25.882874,-2.62825,16.920891,-18.923607,15.695915,-29.619541,2.912064,-37.253208,-3.634129,0.0,-50.037748,-61.362141,-101.924088,-61.253244,-23.575659,-54.194385,-18.776139,-42.719491,-16.343204,110.396719,-55.706729,-91.51288,-65.323337
58,-0.245476,-0.074934,0.279751,0.116122,0.0,-22.140198,3.695183,6.442337,18.671494,-4.271851,30.592346,7.569809,40.639801,17.105713,0.0,-56.489462,-57.036416,-131.018659,-54.805251,-26.469067,-49.244039,-19.260849,-41.384539,-16.851873,0.0,24.878139,-3.03709,17.251167,-19.475555,14.809341,-30.339146,2.097301,-38.233624,-4.214401,0.0,-51.64681,-61.232465,-101.255238,-60.710195,-21.076249,-53.551995,-17.871094,-42.196249,-15.819869,110.18486,-55.888337,-91.199512,-65.313889
59,0.552635,0.298131,0.163193,-0.007256,0.0,-23.060074,3.220482,6.160927,18.120918,-4.426804,30.068092,7.554016,40.159264,17.172546,0.0,-56.378744,-57.283171,-131.149832,-54.987044,-27.0142,-49.477301,-19.967212,-41.746737,-17.287861,0.0,24.616814,-3.191414,17.440853,-19.974632,14.968643,-30.835648,2.360115,-38.583755,-3.809395,0.0,-51.972605,-61.598089,-99.984013,-61.214974,-20.644706,-53.941733,-16.637877,-42.385822,-14.320075,110.851707,-55.728836,-90.922108,-65.459775
60,-0.547943,-1.563459,-0.408955,-0.451241,0.0,-20.722847,4.067802,6.789207,19.131889,-3.982887,30.923309,7.627258,40.887794,17.029037,0.0,-55.999936,-56.834987,-130.768307,-54.208124,-25.227174,-48.40303,-18.770551,-40.412094,-16.103643,0.0,24.192295,-2.759743,19.22596,-19.388523,15.415478,-30.14225,2.65646,-37.886181,-3.470879,0.0,-51.916813,-61.631928,-100.004437,-61.103638,-20.762959,-53.668981,-16.513141,-42.00402,-14.664488,110.488329,-57.494882,-91.146498,-66.113603
61,1.423645,1.672417,1.095886,-0.643192,0.0,-22.668686,3.119202,5.185661,17.765236,-5.230064,29.71859,6.712074,39.972839,15.592575,0.0,-56.421259,-56.565724,-131.874844,-53.950532,-27.024543,-48.386172,-20.820047,-40.690681,-17.728111,0.0,25.299625,-3.942146,18.523293,-20.245228,14.905186,-30.900364,2.744007,-38.695221,-2.619667,0.0,-52.568465,-61.247825,-100.901578,-60.595494,-19.521683,-52.988121,-14.751278,-41.104378,-14.218681,112.150412,-55.983309,-89.812174,-66.91764
62,-0.742722,-1.219787,-0.103569,-0.016889,0.0,-21.806374,4.550629,5.717697,19.424057,-4.390297,31.320763,7.158737,41.153412,16.717415,0.0,-56.243757,-56.630006,-130.791757,-54.022286,-26.688096,-48.260757,-19.38614,-40.39783,-16.43833,0.0,25.947018,-3.573418,17.829552,-19.934292,14.7785,-30.669422,2.791729,-38.52293,-2.621098,0.0,-51.39848,-61.483465,-100.818585,-60.928591,-19.492598,-53.096184,-14.889043,-40.851047,-14.17456,111.468172,-57.299535,-89.855261,-67.030968
63,0.191574,0.697872,0.15049,-0.222116,0.0,-22.669144,3.697929,5.246086,18.446045,-5.855141,30.38784,6.597519,40.274391,15.962105,0.0,-56.345275,-56.744769,-130.727876,-54.363735,-26.611062,-48.745219,-19.397533,-40.901281,-17.247847,0.0,26.57547,-4.064827,17.463112,-20.318241,15.417824,-30.906773,3.265514,-38.491058,-1.869507,0.0,-51.162192,-61.316646,-101.947321,-60.731762,-19.661918,-52.835505,-14.926217,-40.483663,-14.095859,111.528883,-56.628817,-89.835634,-67.280239
64,-0.955238,-0.768947,-0.087948,-0.258302,0.0,-21.367378,3.41938,5.302734,18.767624,-5.373802,30.852242,7.157707,40.629616,16.978111,0.0,-54.697126,-57.520262,-130.480952,-55.247353,-25.601443,-49.516667,-18.111859,-41.526349,-16.122786,0.0,27.382164,-3.993015,17.504368,-20.242367,16.47995,-30.755653,4.33548,-38.175488,-1.235104,0.0,-50.001624,-60.894737,-102.258296,-60.188883,-20.319467,-52.310472,-14.972839,-39.951745,-14.016263,110.551386,-57.486623,-89.945841,-67.627399
65,-0.905228,0.681014,0.444202,0.513578,0.0,-22.568092,3.809624,5.858116,18.613815,-5.525093,30.563278,6.891174,40.593338,16.22715,0.0,-55.538845,-57.586427,-129.452205,-55.70906,-25.356942,-50.168134,-18.79133,-42.164015,-16.921218,0.0,26.616039,-4.254398,16.328716,-20.496826,16.045475,-31.083584,3.744221,-38.628502,-2.051468,0.0,-50.335694,-60.837988,-102.424513,-59.946034,-20.212361,-52.235878,-15.21067,-40.306995,-14.621726,109.635801,-56.830494,-89.511995,-67.138707
66,-0.836563,-0.964819,-0.270653,0.110255,0.0,-20.788422,4.129601,5.479546,19.040108,-5.705795,30.897903,6.510887,40.786171,16.438522,0.0,-55.012053,-56.947033,-129.432661,-54.658038,-24.121502,-48.90503,-17.623784,-40.77037,-15.717919,0.0,26.179504,-4.320145,17.059078,-20.597935,15.773964,-31.176968,3.72591,-38.55526,-1.911163,0.0,-50.469476,-60.817302,-102.883288,-59.853378,-20.467946,-51.936913,-15.170718,-39.753804,-14.856624,108.797464,-57.812403,-89.784422,-67.045541
67,0.583649,1.590135,-0.523052,-0.052056,0.0,-22.086525,2.968369,4.62719,17.628593,-5.683022,29.595222,6.462135,39.59198,15.696373,0.0,-56.062149,-56.906771,-130.987459,-54.63025,-26.794029,-49.08213,-19.744509,-41.284257,-17.155469,0.0,26.633778,-4.008522,18.188324,-20.103607,16.7906,-30.587597,4.577408,-38.035812,-0.993862,0.0,-49.763731,-60.701736,-103.059153,-59.646884,-20.264694,-51.723164,-14.763381,-39.548792,-14.35024,109.38446,-56.184168,-90.304127,-67.059496
68,-0.753593,-0.608272,0.052929,0.508823,0.0,-21.508369,4.197235,5.197105,19.20639,-3.977966,31.099777,7.165146,41.0075,16.312752,0.0,-56.415423,-57.023387,-130.602399,-54.661928,-25.883797,-48.893637,-18.787933,-40.859013,-16.313625,0.0,26.193581,-4.047089,18.423672,-19.996605,16.73315,-30.369987,4.540501,-37.910728,-1.557255,0.0,-51.509261,-60.198346,-101.595081,-59.006378,-19.531933,-51.276678,-14.828898,-39.646482,-14.634354,108.625031,-56.780137,-90.257034,-66.538369
69,0.155983,1.232106,-0.061169,0.900969,0.0,-21.550941,3.518143,4.813957,18.262825,-4.383316,30.313568,7.458572,40.610161,16.811943,0.0,-56.518145,-56.980625,-131.011218,-54.666621,-25.841837,-49.184141,-20.018063,-41.533728,-17.463696,0.0,25.265808,-3.977623,18.715897,-20.050049,16.301765,-30.476818,3.74548,-38.023853,-1.972446,0.0,-51.138696,-60.44047,-103.24107,-59.339583,-19.126665,-51.596267,-15.143084,-40.000805,-14.862213,108.779297,-55.522497,-90.31992,-65.611866
70,0.278664,0.735046,0.004635,0.911714,0.0,-21.976662,3.84716,5.031395,18.749886,-3.913078,30.660667,7.451706,40.777473,16.541634,0.0,-56.726676,-57.618846,-130.635528,-55.711191,-26.302217,-50.240012,-20.112727,-42.462763,-17.985919,0.0,25.898552,-4.15472,18.025703,-20.257988,16.48447,-30.662556,3.335667,-38.29771,-2.872181,0.0,-50.399081,-60.784605,-103.970095,-59.654047,-18.999182,-51.724739,-15.30379,-40.005715,-14.612401,109.055185,-54.810993,-90.31806,-64.723694
71,0.329933,0.879789,0.522079,0.940119,0.0,-21.403999,3.956795,4.480247,18.93013,-3.684311,30.823517,7.965546,40.891457,17.66098,0.0,-57.172483,-57.355573,-130.94851,-55.302897,-26.734069,-49.96973,-20.541954,-42.317218,-18.183397,0.0,24.883003,-4.19775,18.487015,-20.394001,15.922966,-30.705185,2.55455,-38.211594,-3.484955,0.0,-52.731394,-61.546944,-104.220261,-60.36112,-19.793292,-52.037782,-15.26853,-39.801352,-14.100552,109.388723,-53.956491,-89.792376,-63.808862
72,-1.651268,-1.933714,0.541248,2.253303,0.0,-18.028107,5.412483,2.69268,20.890732,-5.775032,33.353462,8.451347,43.082428,17.480965,0.0,-53.298046,-54.977349,-123.057302,-53.419849,-24.566506,-47.155146,-13.78828,-38.037142,-13.784822,0.0,23.21228,-4.859676,19.312477,-21.393814,15.43705,-31.341763,2.175579,-38.258171,-3.504868,0.0,-50.899537,-61.849768,-102.130149,-60.534979,-19.371413,-52.044637,-15.770654,-39.901912,-13.065492,107.711763,-55.860704,-89.276819,-61.526057
73,-0.53627,6.579321,1.242371,4.264453,0.0,-23.964844,2.933578,6.910629,17.823029,-5.400467,30.39711,7.938995,41.315346,16.567955,0.0,-56.618675,-57.379594,-130.732183,-55.500375,-26.979928,-49.977943,-19.343965,-42.165837,-18.616638,0.0,24.682045,-3.479176,16.767025,-19.769669,15.628967,-30.325127,2.849922,-38.205013,-1.292381,0.0,-52.133279,-59.891292,-104.025053,-59.01703,-17.432481,-51.255775,-14.43598,-39.874464,-13.4309,107.210255,-48.668525,-87.999687,-56.648747
74,-1.763649,6.423741,1.522121,8.504822,0.0,-22.979279,3.631439,4.330788,18.232727,-6.519241,30.052185,5.513191,40.302315,13.689651,0.0,-57.213794,-57.835467,-130.681749,-54.930079,-29.302701,-48.131359,-19.267147,-38.854903,-17.603931,0.0,27.730122,-3.971329,17.208996,-20.808163,15.883999,-30.72401,2.031441,-36.926708,-3.343277,0.0,-51.968437,-61.442494,-110.888009,-60.160092,-21.053216,-51.17269,-15.246547,-38.720472,-11.151847,105.524311,-42.412946,-86.39986,-48.312087
75,-8.104591,8.138272,0.367241,11.350683,0.0,-28.245049,7.093735,3.957939,23.270874,-8.123817,34.210396,2.490463,42.374725,10.991821,0.0,-53.219531,-57.45354,-123.934034,-53.764787,-26.464961,-44.168588,-14.966849,-31.116125,-14.87589,0.0,39.230175,-2.654686,21.289787,-17.947311,21.428204,-27.311668,7.592983,-33.368568,4.412155,0.0,-48.860291,-59.704003,-115.783998,-58.232244,-12.710365,-48.529649,-5.539012,-35.103596,-6.975697,97.128754,-35.640331,-86.323586,-38.32706
76,2.145653,17.741449,1.138458,14.289786,0.0,-40.193367,-3.183861,-17.380257,10.781364,-30.593033,20.69664,-19.538612,28.527603,-8.756104,0.0,-49.849873,-55.888353,-110.37917,-53.096061,-22.386747,-42.984585,-8.787948,-28.140218,-5.395844,0.0,41.197071,-2.290878,27.412376,-16.924553,28.642788,-25.278797,16.877117,-30.680752,9.802551,0.0,-45.94348,-59.385989,-105.910308,-57.026475,-12.619191,-45.293989,0.118931,-29.992299,-1.677388,99.387417,-17.710528,-85.072117,-23.84892
77,-0.047836,7.785399,4.064884,14.935696,0.0,-44.665146,-18.97831,-50.508499,-6.874924,-49.874954,3.114624,-38.157234,12.7248,-23.557663,0.0,-29.21693,-45.353208,-66.123237,-40.914464,-2.341514,-28.534433,16.837608,-13.98088,19.245195,0.0,39.913158,2.435474,33.800526,-13.430099,35.901833,-23.317795,18.345165,-30.043659,6.374874,0.0,-41.169247,-56.305353,-96.798803,-54.279785,1.279252,-41.763594,13.321015,-25.292228,7.017687,98.849459,-10.289409,-81.497355,-9.277505
78,-0.499077,16.238012,-1.248608,8.076491,0.0,-61.51577,-23.941498,-81.129684,-14.976654,-80.149612,-6.792755,-68.298798,-0.046806,-44.722137,0.0,-7.534353,-27.77478,6.720452,-18.444416,28.092115,-5.05742,41.175545,12.258784,46.22182,0.0,41.088352,5.716438,40.220833,-7.785645,42.597427,-15.131321,32.212143,-20.514965,24.065037,0.0,-31.899028,-42.155771,-52.461514,-36.203711,13.027268,-20.928079,27.876143,-2.599198,25.459201,98.710327,4.485565,-82.386017,-2.664052
79,-1.61602,31.283129,2.784748,4.888687,0.0,-69.026527,-38.341942,-94.893608,-34.362602,-94.997749,-28.079681,-83.847427,-19.747353,-61.912422,0.0,1.898547,-12.340233,25.31242,-2.242312,42.062744,10.552343,51.619516,24.66929,57.764485,0.0,39.395943,3.787651,44.245892,-7.685452,46.883354,-14.884586,40.894604,-19.718914,29.063416,0.0,-19.874247,-26.856242,-24.578084,-17.940409,16.421472,-1.82031,39.33174,15.932533,46.03626,93.465357,35.261631,-83.230219,1.717572
80,5.148354,20.077035,-3.424844,29.378283,0.0,-65.139656,-45.066376,-113.700027,-38.641434,-112.506752,-29.13929,-100.983467,-19.962616,-77.690277,0.0,11.411291,-5.308405,36.346601,6.194369,54.552321,19.709898,65.404647,33.22237,73.883195,0.0,46.972246,21.543531,52.214183,18.152218,54.65435,15.106229,49.988393,11.944971,42.659425,0.0,-18.573196,-21.260512,-16.96239,-8.10363,12.818398,8.749046,31.703403,25.568438,40.392597,97.385044,52.960395,-87.88373,28.717585
81,-15.935383,34.138699,-3.424845,29.378284,0.0,-65.823784,-44.547272,-106.052513,-37.118912,-102.875204,-26.669254,-91.080265,-15.824089,-68.736191,0.0,22.634228,9.020532,54.125117,22.572447,68.107339,35.15417,76.851692,45.62843,80.96095,0.0,54.54855,39.299412,60.182476,43.989887,62.425346,45.097046,59.082184,43.608856,56.255436,0.0,-17.272146,-15.664783,-9.346697,1.733149,9.215323,19.3184,24.075065,35.204342,34.748933,81.609163,85.205765,-91.149073,56.202539
82,-15.935383,34.1387,9.089012,22.422655,0.0,-66.507912,-44.028168,-98.404999,-35.59639,-93.243656,-24.199219,-81.177063,-11.685562,-59.782104,0.0,33.857164,23.349467,71.903631,38.950523,81.662357,50.598442,88.298736,58.034488,88.038705,0.0,44.086075,35.137367,69.026413,32.971344,66.969795,27.632904,63.384705,20.839405,51.763973,0.0,-23.663931,-9.545255,-2.967972,4.21919,13.851019,18.524784,24.681578,32.920411,36.199265,66.246872,117.670767,-81.486969,76.951495
83,2.297516,24.304808,2.427692,44.817029,0.0,-61.881981,-42.343254,-94.350128,-36.396561,-102.003994,-28.424492,-92.928028,-19.039993,-66.536407,0.0,17.278136,20.214183,53.019027,35.918177,83.121859,49.93021,90.9507,61.533977,97.397072,0.0,56.250057,52.79829,70.001163,52.413826,64.052868,46.250267,52.389278,36.785774,42.648468,0.0,-28.297806,-2.229838,18.881948,13.243889,30.307133,27.600736,38.116893,40.903751,41.463148,68.750753,140.840062,-78.852911,120.633011
84,-2.078018,22.85074,6.865883,18.623708,0.0,-59.731522,-44.212875,-99.647312,-37.947006,-100.56879,-29.425049,-91.158943,-20.173645,-70.078583,0.0,10.568274,27.772927,66.704215,43.482849,89.95942,57.580839,97.871562,67.348025,107.773797,0.0,59.44479,31.106586,83.271503,20.119457,80.911045,7.663021,70.972881,-4.522362,48.036346,0.0,-16.318905,1.148311,41.512517,12.041639,49.338209,24.482618,55.290454,37.642681,54.612929,67.315321,162.591984,-71.344442,138.157902
85,-41.112442,45.533581,6.73542,34.425361,0.0,-67.467098,-38.07209,-86.627655,-27.163925,-71.815281,-15.499649,-56.536274,-3.990898,-43.078079,0.0,-29.730292,28.653488,25.504958,49.794668,60.248889,63.535987,74.214856,70.652537,85.36871,0.0,50.25301,63.862553,54.121227,62.683125,41.18042,54.583797,32.317715,41.632519,31.80685,0.0,-4.868155,26.536869,80.287577,42.685899,101.841929,55.784766,107.513889,64.616249,106.148835,26.77494,207.411745,-64.036961,171.869443
86,3.462181,46.755713,0.799885,22.236941,0.0,-68.247013,-39.181595,-83.571911,-35.228119,-76.550217,-29.286633,-63.726883,-22.318497,-55.112858,0.0,4.307339,21.563275,14.860484,24.993078,18.869907,22.193747,14.503814,14.726455,13.722362,0.0,56.350136,33.630295,87.729492,25.312958,85.731125,14.917946,73.510551,3.398895,52.590294,0.0,-2.126437,18.355063,50.755689,32.952922,60.846015,46.212403,65.423079,57.206446,69.785129,30.62439,253.474959,-62.849808,193.413884
87,3.462181,46.755714,-0.27729,20.67836,0.0,-69.026928,-40.2911,-80.516167,-43.292313,-81.285152,-43.073616,-70.917492,-40.646095,-67.147636,0.0,38.344968,14.473062,4.216009,0.191488,-22.509075,-19.148494,-45.20723,-41.199628,-57.923986,0.0,60.811272,24.681244,79.604301,15.608196,77.934036,7.139626,65.61161,-1.541348,43.536816,0.0,0.303936,17.060033,53.836603,30.272645,68.894008,41.687765,74.82211,51.089018,77.221545,34.338169,299.513534,-62.8755,213.375106
88,-0.998497,-12.335262,-0.82346,19.373636,0.0,-71.756058,-33.195992,-74.959488,-31.729202,-71.693802,-28.805923,-62.307358,-25.093002,-57.043819,0.0,36.095895,17.535511,-1.026045,15.428093,-7.376087,10.553454,-9.805842,3.385158,-3.485996,0.0,60.181904,25.813351,79.696712,17.355709,78.907757,8.128452,63.753605,-1.969242,37.461433,0.0,3.921398,21.449994,55.489044,31.736068,68.981015,39.742627,72.727597,45.808432,70.67489,33.49122,286.688808,-63.547411,232.259277
89,-0.557785,-21.030276,3.630123,21.986728,0.0,-63.369656,-23.660088,-79.540157,-20.156479,-90.264072,-16.230011,-86.34573,-10.957146,-65.444412,0.0,0.874324,28.716473,14.438481,47.400481,44.863527,61.586341,71.991471,69.165648,97.845689,0.0,59.739647,37.189808,74.364166,29.596653,63.440437,21.322289,48.422356,12.336273,38.969879,0.0,17.411578,35.276281,63.217725,53.415588,76.673325,66.64228,91.029185,75.638759,96.941663,33.159428,265.624028,-59.691296,254.211503
90,-1.488419,9.494867,-5.613899,11.794143,0.0,-57.850857,-32.173004,-58.564167,-25.53772,-54.044495,-18.123093,-48.092937,-10.458755,-43.823547,0.0,8.692173,36.090831,59.907224,47.17398,63.367161,55.088963,68.369871,59.65837,76.670114,0.0,69.151497,38.230934,92.652969,28.544197,88.931007,17.532063,73.608398,6.329899,52.760468,0.0,19.045247,34.319088,68.005358,51.201466,82.625139,63.359195,92.950487,71.555142,96.393443,31.972275,275.042649,-65.003929,265.9294
91,-2.115898,11.204859,0.697861,15.15528,0.0,-59.045734,-34.616661,-49.504223,-25.94696,-36.526794,-15.611916,-23.325119,-4.927139,-13.19973,0.0,9.962317,29.904798,66.931519,38.358985,72.062793,43.727504,73.783468,46.306757,74.291118,0.0,68.812408,34.145565,94.43985,25.606728,94.972229,16.369057,79.663582,6.64444,56.219101,0.0,18.812634,33.751293,64.846022,49.332713,80.139067,60.575734,88.537247,67.867655,93.530756,30.080652,286.207278,-64.081793,281.044449
92,-12.099266,55.363073,4.080105,10.199624,0.0,-66.322861,-50.239964,-13.844376,-47.188282,-3.029709,-39.788475,5.408592,-30.106544,-11.540794,0.0,41.514493,7.330947,40.822827,-2.074135,34.235169,-12.624563,23.01901,-23.569391,6.824779,0.0,66.886883,33.192043,90.985508,22.582455,89.837322,11.984825,73.32819,1.326542,49.562588,0.0,22.738663,36.551798,68.505598,52.115433,84.735397,62.997709,93.40534,69.514662,94.43719,18.25201,341.502086,-59.731064,291.175809
93,7.261848,-14.595389,1.405048,4.233917,0.0,-45.479794,-48.543491,-10.100784,-48.663769,1.190414,-45.395908,2.084312,-40.012779,-14.390373,0.0,48.603688,16.622902,52.382566,17.744907,55.850531,17.757319,50.418964,16.009227,45.334374,0.0,68.711014,31.591072,89.600258,19.8769,87.217484,7.699299,67.773399,-4.106712,42.105675,0.0,24.190847,35.759417,72.809417,51.534547,86.536657,61.907443,93.767198,67.872224,93.808138,25.68924,326.916206,-58.150635,295.419235
94,0.095787,-15.866398,0.171261,-2.219495,0.0,-27.409973,-30.801773,-3.37532,-32.344093,1.420898,-31.550903,-1.52195,-28.384666,-13.93261,0.0,27.210875,26.121227,57.27289,35.843521,69.457049,43.548861,68.880115,49.236259,70.065537,0.0,68.735676,31.366425,90.392246,20.108929,88.297749,8.653851,71.232662,-1.97073,49.376049,0.0,25.522372,37.361593,69.562395,54.410264,85.150731,64.640887,93.041878,70.224483,94.926932,26.063318,311.032889,-57.701082,293.18282
95,-6.179924,5.593445,0.428352,-0.279668,0.0,-40.598603,-37.668372,1.75558,-41.372881,7.430419,-41.157532,1.981887,-38.79962,-36.488486,0.0,35.152719,17.988111,52.141245,28.18789,60.866238,36.272254,61.549044,42.625661,64.744411,0.0,67.30917,31.402817,88.858624,20.382671,87.680912,8.788204,70.546932,-2.272453,49.241352,0.0,24.558077,34.965986,67.209025,52.288149,83.334466,62.985667,91.251363,69.229066,94.908469,19.907885,316.672322,-57.24824,292.949142
96,-6.179925,5.593445,0.581818,-0.064097,0.0,-53.787231,-44.534969,6.886482,-50.401669,13.439941,-50.76416,5.485725,-49.214573,-59.044361,0.0,43.094563,9.854995,47.009601,20.532259,52.275429,28.995647,54.217973,36.015063,59.423286,0.0,66.300602,31.082783,86.773052,19.423599,85.921841,7.437286,67.455769,-4.003658,45.496044,0.0,25.919427,34.787465,68.330042,51.650329,84.242629,61.976295,91.608465,67.83573,93.648761,13.81216,322.301521,-56.582222,292.920798
97,-18.86467,14.741182,-0.095444,0.390633,0.0,-42.720222,-33.921032,19.063683,-35.0453,30.833359,-32.351646,25.661774,-26.94025,3.617134,0.0,42.173061,8.089057,37.213083,9.766198,39.23615,9.81072,36.086756,8.927566,31.103806,0.0,64.692364,30.179729,86.944256,18.629951,86.013737,6.787491,67.891903,-4.695511,45.070095,0.0,24.981438,34.03516,67.044954,50.950635,84.091773,61.358173,91.78748,66.992528,92.330513,-4.779797,337.093261,-56.404953,293.361989
98,14.504356,-21.29889,-0.167427,0.777191,0.0,-43.677578,-40.96653,10.571251,-47.766953,15.175781,-49.188595,4.524078,-47.807236,-50.575218,0.0,40.24966,14.015985,51.928885,27.899639,59.857885,38.574247,62.61992,47.27488,65.074128,0.0,64.17017,29.793549,86.649342,18.707027,85.813122,7.244453,68.415585,-3.857346,46.157742,0.0,24.961678,33.422163,65.855703,50.486458,82.987737,61.099316,90.565748,67.101888,92.196947,10.16799,315.87778,-56.12895,294.222589
99,-20.798607,20.609756,-0.078907,-0.130232,0.0,-33.85397,-25.998402,26.457481,-26.971493,39.073105,-25.051575,32.532349,-21.156006,13.924026,0.0,37.244514,11.090003,35.956215,13.687473,40.5058,14.248228,36.771691,13.848271,31.332777,0.0,63.429222,29.731121,85.811691,18.565407,85.047455,6.96928,68.140182,-4.181728,45.93647,0.0,25.348791,33.482617,65.918874,50.486519,82.63187,61.226398,90.466885,67.339504,92.999517,-9.943428,336.605741,-55.520668,294.210563
100,23.285408,-12.132597,-0.540104,0.031307,0.0,-53.73682,-45.656147,6.174545,-51.471806,13.176842,-51.947365,5.870132,-50.203285,-64.72744,0.0,48.71453,10.080878,46.270263,17.951154,48.647407,24.18813,49.851663,30.125679,55.770502,0.0,63.527126,29.398727,86.234951,18.265171,85.455379,6.808662,68.284092,-4.159527,45.028896,0.0,25.117351,33.066419,65.053503,50.199318,82.807982,60.966614,90.553521,67.019945,92.507736,14.161835,324.67729,-55.240917,294.446018
101,-21.680717,0.026059,-0.236778,-0.328203,0.0,-32.904854,-30.144138,26.930695,-33.468933,36.293221,-32.986279,25.966415,-29.38282,-1.881638,0.0,48.653211,13.991902,45.777989,22.702292,49.868459,28.746299,50.037656,32.721914,48.394045,0.0,62.955608,29.41761,85.636539,18.362789,85.001621,6.874523,67.514133,-4.277916,44.834461,0.0,24.734251,32.996518,64.867449,49.981895,82.879489,60.569435,90.977438,66.527918,92.546207,-6.800766,324.894575,-54.759579,294.30904
102,19.848976,-1.433165,-0.3895,-0.203715,0.0,-51.0256,-44.09277,9.244308,-49.7826,14.87812,-50.252953,5.965004,-47.946911,-44.103355,0.0,48.098754,10.431682,46.321145,19.233648,51.101121,26.21941,52.202625,32.431255,56.475198,0.0,62.97718,29.35009,85.196457,18.287945,84.645424,6.823597,67.03949,-4.299946,44.437408,0.0,24.733201,32.827198,65.108708,49.739648,82.235864,60.346825,90.53407,66.313706,92.423138,13.707104,323.517371,-54.490185,294.161287
103,-14.61525,-6.772476,-0.009384,0.468686,0.0,0.871925,-24.258728,26.946144,-31.295242,30.775223,-34.653568,15.851669,-34.892807,-8.583984,0.0,24.003558,18.295474,46.470581,33.610317,60.191585,44.646165,63.178329,52.418998,63.469235,0.0,63.095055,28.250084,85.090141,17.326927,84.151154,6.297112,68.228302,-4.171886,46.482124,0.0,24.507874,32.121453,65.547939,49.013587,81.272928,59.884747,89.148946,66.265417,91.751726,-0.280838,316.888989,-53.872261,294.774067
104,15.837593,8.452149,-0.093327,0.408664,0.0,-55.591793,-44.868393,3.847618,-48.68042,10.214195,-47.964878,3.766708,-44.637566,-40.0914,0.0,43.541698,12.005083,45.524565,19.041419,49.543158,24.774327,50.124168,29.859473,52.506067,0.0,62.60416,27.117405,84.959621,16.07832,83.474865,5.137539,67.405758,-4.854126,45.900707,0.0,25.037199,32.932544,66.324512,49.844933,81.515546,60.590986,89.026619,66.682911,91.427783,16.003275,325.376861,-53.519068,295.218454
105,-3.437462,3.554292,0.427437,0.681169,0.0,-27.14447,-36.020851,7.858315,-38.995056,13.029213,-38.944416,5.05188,-37.219334,-19.522934,0.0,40.082069,10.684859,42.858614,17.359399,49.813872,22.398727,49.942128,25.158229,47.618954,0.0,62.105083,26.333771,83.958263,15.014305,82.178593,3.859863,65.533047,-6.46946,43.795109,0.0,25.131183,32.839672,65.574924,49.817701,81.71574,60.540968,89.323206,66.337912,90.715801,13.171692,328.961009,-52.485752,295.929479
106,-13.264847,0.060948,-0.142193,0.880376,0.0,11.304016,-16.786766,26.817169,-22.464981,31.231956,-25.314503,20.117569,-25.393753,0.40432,0.0,-7.754864,7.58894,27.963674,22.676727,46.378697,35.253372,53.58991,45.224149,55.975143,0.0,62.559242,25.701656,84.360924,14.41452,82.512474,3.330231,66.323204,-6.879272,44.641342,0.0,24.073151,32.024072,65.088207,48.865077,80.79251,59.700669,88.168967,65.653162,90.405814,0.378714,329.038784,-52.156076,296.826681
107,14.066963,-15.558263,-0.100937,-0.411134,0.0,-46.677704,-44.333439,7.661362,-49.584846,14.796638,-49.383202,7.655983,-46.372547,-27.248783,0.0,43.343787,17.523655,53.707421,32.126516,60.961303,43.586775,64.26421,52.620799,64.318982,0.0,62.189598,25.911026,84.811707,14.758472,83.13652,3.729,66.887169,-6.52565,45.019684,0.0,24.446741,31.882664,65.393686,48.859149,80.665366,59.785761,88.212131,65.832052,90.539751,14.945669,313.50607,-51.757021,296.441096
108,-11.039658,13.163335,0.093498,0.224154,0.0,-13.118477,-32.120304,19.085541,-36.492405,25.425568,-36.93409,14.523926,-34.72887,-13.681526,0.0,34.650009,13.30178,44.702852,23.753099,52.229486,31.172719,54.111269,35.884029,52.060414,0.0,62.426376,25.459442,84.753227,14.531593,83.169479,3.807964,67.537651,-6.088486,45.913124,0.0,23.645344,31.448188,64.986936,48.411397,80.171857,59.493434,87.564307,65.781602,90.030063,4.247904,326.707212,-51.32163,296.703057
109,7.624969,9.699322,-0.298233,0.148201,0.0,-54.940968,-46.316071,7.192841,-47.42569,17.00386,-44.081612,14.283943,-38.237858,-24.476967,0.0,45.195682,10.317321,42.741721,8.836422,41.388461,5.878763,36.816707,2.917583,29.970254,0.0,62.111778,27.116718,85.282516,16.24054,83.816414,5.055885,68.078499,-5.482922,46.412544,0.0,23.461143,32.342087,64.788038,49.360192,79.736331,60.064626,87.281984,65.820505,89.524018,12.223835,336.371522,-51.268902,296.816246
110,-7.147179,-12.070044,0.440712,0.122945,0.0,10.432434,-22.428875,24.888268,-28.955669,28.574982,-31.463757,16.342392,-31.18269,-1.798325,0.0,-2.985694,8.631102,35.357854,25.163787,52.054918,38.714236,59.409701,49.548716,61.497421,0.0,61.870193,26.596642,84.183769,15.73597,83.307495,4.757137,67.832108,-5.498371,46.398354,0.0,23.194504,31.914836,64.411916,49.109115,79.819632,60.072221,87.262039,66.131789,89.558043,5.343618,324.344981,-50.561228,296.982694
111,8.068542,9.834185,0.186596,0.056255,0.0,-57.971706,-46.033745,6.153717,-46.634388,16.391258,-43.18903,13.454132,-37.380695,-26.513786,0.0,44.690317,11.667061,43.646488,11.482304,43.203799,9.982386,39.216513,8.666609,34.472044,0.0,61.762333,27.076321,85.080585,16.492538,84.173412,5.515766,69.024067,-4.90202,47.286701,0.0,23.485719,32.03914,64.292615,49.070335,79.017927,60.042704,86.821759,66.214102,89.561007,13.643389,334.192489,-50.143404,297.052271
112,-5.339584,-10.237724,0.100994,-0.168085,0.0,11.691628,-24.760036,21.855354,-31.611843,26.217041,-34.487457,12.588158,-34.529743,-9.465294,0.0,8.109002,9.454544,36.49684,25.071408,52.278763,38.105191,58.634177,48.599859,60.974642,0.0,62.013016,26.28336,84.460602,15.723953,83.757706,4.959297,68.626785,-5.117855,47.339516,0.0,23.832139,31.970103,64.321267,49.127763,79.374041,60.141567,86.75303,66.307345,89.402432,8.46488,323.979974,-49.881334,296.909396
113,2.607422,0.291832,0.938244,-0.160983,0.0,-47.054558,-41.195927,12.276878,-45.741749,20.5513,-45.959644,12.521782,-43.647137,-47.789783,0.0,48.758434,12.901946,48.645184,20.932278,51.743819,27.070269,52.739668,32.846032,56.15354,0.0,61.505527,26.301384,84.301243,15.322781,83.10442,4.181786,67.677898,-6.216545,46.142521,0.0,23.884195,32.013575,64.717952,49.110226,79.622648,60.108036,86.937911,66.170445,89.569775,11.221704,324.303546,-48.793688,296.780152
114,-23.710041,8.174952,-0.30241,0.449481,0.0,-24.167404,-22.146606,33.65118,-22.731686,47.84071,-20.550442,38.746433,-15.836105,1.528072,0.0,41.122255,11.43241,41.804905,16.848909,45.57835,20.351207,45.76638,22.510557,39.95227,0.0,61.065788,26.073418,84.222336,15.460796,83.372612,4.743919,68.485909,-5.265255,47.155952,0.0,22.942748,31.669255,63.998806,48.661115,78.610065,59.771311,86.136267,66.167481,89.332654,-12.446508,332.550283,-49.05427,297.301419
115,20.747967,-12.152975,0.535755,0.22508,0.0,-38.222351,-37.530499,17.974548,-43.833332,24.715691,-45.344925,13.95092,-44.28915,-48.305283,0.0,49.030136,13.947874,50.019748,25.402329,53.942875,34.121981,56.421475,41.90173,62.423368,0.0,60.810299,26.278439,83.540211,15.628681,82.620564,4.653511,67.386761,-5.757179,46.027622,0.0,22.179142,31.831843,63.939341,48.662968,78.669346,59.721911,86.140096,66.131295,89.340434,8.326006,320.473091,-48.493967,297.602282
116,-23.4795,-1.275331,-0.165939,0.261698,0.0,2.907486,-15.632114,44.424591,-21.833611,51.857529,-23.439674,39.161797,-21.69405,9.701958,0.0,26.035764,14.218341,50.659359,29.834835,60.571411,41.660533,62.227002,50.458299,58.522224,0.0,60.926914,25.803967,84.011707,15.32896,83.302975,4.602413,68.237514,-5.510044,46.746197,0.0,22.123752,31.57101,63.2105,48.427143,78.298349,59.484666,85.907667,65.905412,89.150428,-15.145626,319.322465,-48.652039,297.988685
117,26.012764,2.707323,0.520821,-0.276395,0.0,-41.854763,-40.490227,15.429268,-47.005463,22.83371,-48.25161,13.764954,-47.324867,-60.448895,0.0,49.319437,12.169895,48.023975,23.595944,51.24185,32.329984,53.159324,40.504503,61.457715,0.0,60.726299,25.643635,83.621693,15.174465,82.764301,4.383373,67.386646,-5.897083,45.983562,0.0,22.397986,31.54174,63.573716,48.304939,79.12247,59.321274,86.764825,65.721766,89.446151,10.893259,322.10764,-48.105097,297.790142
118,-26.422863,-6.66818,-0.463142,0.122883,0.0,11.314831,-15.569057,43.914242,-22.055683,52.715435,-24.062519,43.073559,-23.734932,20.190525,0.0,24.196343,16.255117,50.680169,32.460771,65.108214,45.060634,65.654397,54.382538,62.971156,0.0,61.014347,26.194725,84.221821,15.675373,83.399906,4.829178,68.15134,-5.274525,46.750317,0.0,22.372915,31.569095,64.326639,48.432145,79.838528,59.503808,87.123533,65.824457,89.403049,-15.524626,315.493522,-48.563261,297.967088
119,24.878712,14.756002,0.639839,0.340862,0.0,-47.208767,-39.394913,14.056549,-43.118248,23.646126,-42.927933,16.60675,-40.281315,-36.479301,0.0,46.656388,11.001206,45.25805,15.646566,46.691339,18.693826,46.161644,21.621104,45.462691,0.0,60.901508,26.060371,83.75742,15.431271,82.154903,4.473839,67.037029,-5.756321,45.850925,0.0,22.743603,31.783616,64.072166,48.632834,79.301361,59.602733,86.766183,65.939128,89.777689,9.353485,330.329815,-47.924023,298.388241
120,-11.97876,-7.80235,-0.287018,0.129367,0.0,18.60878,-18.059864,35.678902,-25.081501,39.27166,-28.654346,22.227859,-28.394794,-14.780731,0.0,2.630135,14.756311,43.749117,30.971969,56.388006,42.870779,62.405028,51.708498,62.403176,0.0,60.981846,26.146259,84.844265,15.491753,83.370152,4.500847,68.039532,-5.827847,46.634846,0.0,22.307336,31.585274,63.862461,48.427267,78.584315,59.489174,86.421184,65.917268,89.361862,-2.697945,322.548553,-48.28371,298.538696
