takenoko1/special-research/HandMotion_SimilarSearch_自分用/NewProject/handData/test_key/d4_feature_d2/11.csv
frame,vel_0x_L,vel_0y_L,vel_0x_R,vel_0y_R,posFromWrist_0x_L,posFromWrist_1x_L,posFromWrist_2x_L,posFromWrist_3x_L,posFromWrist_4x_L,posFromWrist_5x_L,posFromWrist_6x_L,posFromWrist_7x_L,posFromWrist_8x_L,posFromWrist_9x_L,posFromWrist_0y_L,posFromWrist_1y_L,posFromWrist_2y_L,posFromWrist_3y_L,posFromWrist_4y_L,posFromWrist_5y_L,posFromWrist_6y_L,posFromWrist_7y_L,posFromWrist_8y_L,posFromWrist_9y_L,posFromWrist_0x_R,posFromWrist_1x_R,posFromWrist_2x_R,posFromWrist_3x_R,posFromWrist_4x_R,posFromWrist_5x_R,posFromWrist_6x_R,posFromWrist_7x_R,posFromWrist_8x_R,posFromWrist_9x_R,posFromWrist_0y_R,posFromWrist_1y_R,posFromWrist_2y_R,posFromWrist_3y_R,posFromWrist_4y_R,posFromWrist_5y_R,posFromWrist_6y_R,posFromWrist_7y_R,posFromWrist_8y_R,posFromWrist_9y_R,posFromBody_0x_L,posFromBody_0y_L,posFromBody_0x_R,posFromBody_0y_R
2,-35.697384,5.242425,-1.834831,-1.335723,0.0,9.623795,-13.348904,46.795979,-23.378849,51.523762,-28.642731,35.459576,-30.847378,-38.995228,0.0,-8.799866,16.909856,52.33897,35.911199,57.457523,48.688533,61.549106,58.059034,69.630259,0.0,65.719185,27.454777,88.792534,18.447247,89.138832,8.674679,75.644302,-0.65443,53.952827,0.0,9.512466,29.749125,60.447849,47.605863,74.255303,60.301192,81.559944,68.415998,83.622408,-14.948673,275.460915,-56.551437,261.144823
3,-4.161472,7.833719,0.099392,-0.452198,0.0,12.54158,-12.45203,50.15316,-19.81842,53.692703,-22.499428,39.399033,-20.813141,-13.843861,0.0,-1.581305,12.675754,41.445827,28.652006,48.564167,40.48851,57.093381,50.082672,63.486093,0.0,64.975834,27.494888,89.770947,18.070335,88.761921,7.941055,74.573421,-1.935139,50.8675,0.0,10.106505,30.816173,60.049867,48.194715,74.441357,60.321384,82.118538,67.744092,83.868422,-18.860493,282.910238,-56.202393,260.308229
4,43.83728,-10.238589,0.005608,-0.686171,0.0,-36.403427,-39.728909,-0.750618,-50.780869,0.608482,-58.513985,-10.960922,-62.844143,-61.249466,0.0,-1.528878,14.348264,43.458458,31.255712,56.198803,43.541018,62.938243,53.431335,71.400149,0.0,66.303921,27.280598,89.262028,17.930603,88.94846,8.257885,75.529118,-0.940475,53.221836,0.0,10.488246,32.223217,61.099316,49.647825,75.10011,61.574979,82.418028,68.750994,83.586469,25.130138,272.437785,-56.043434,259.388194
5,-24.274521,2.322803,-0.157413,-0.11677,0.0,-17.777653,-27.836437,25.119209,-37.871761,31.228294,-41.464577,19.539986,-42.044563,-47.723751,0.0,13.053049,18.968306,50.643489,33.372022,58.620037,42.735361,62.157656,50.156402,71.34093,0.0,64.852066,28.380032,88.543739,18.934708,88.15361,8.848686,74.59774,-0.962963,51.692505,0.0,10.78014,32.247979,61.807716,49.618123,75.667596,61.578993,82.849293,68.978112,83.854528,1.039524,274.676068,-56.016941,259.186903
6,28.141136,-2.29656,-0.317173,0.030813,0.0,-42.031517,-42.626667,-8.583069,-53.501701,-6.096725,-59.884586,-15.935669,-63.931217,-82.81826,0.0,-4.05941,16.007127,44.848151,33.327624,56.174535,45.301584,62.777568,54.788732,73.21876,0.0,65.279675,28.079395,88.920879,18.722477,88.923054,8.799706,75.422001,-0.859795,52.713718,0.0,10.778534,31.885257,61.356259,49.541491,75.348779,61.743311,82.330342,69.40419,83.666189,29.290524,272.398064,-56.224251,259.236273
7,-28.432159,0.824059,-0.579872,0.027294,0.0,-14.862099,-26.419201,25.181122,-37.253551,30.894814,-42.269726,18.603058,-44.343681,-50.58609,0.0,-0.247557,19.563272,49.520805,36.562419,57.652222,47.532997,61.56232,56.041092,72.879256,0.0,66.137753,28.080025,89.403591,18.878746,89.601116,9.185429,75.966854,-0.185566,53.900013,0.0,10.601496,31.929965,61.490443,49.549395,75.438564,61.71472,82.050181,69.356519,83.363735,0.921421,273.236542,-56.741066,259.277985
8,-17.099476,14.50017,-0.050182,0.229156,0.0,15.333309,-9.707336,49.839306,-17.035847,47.206593,-21.357079,33.389912,-21.781597,-32.989197,0.0,-19.484293,8.854268,40.186304,25.739301,46.94785,38.200349,52.08709,47.721892,56.915478,0.0,65.65567,28.570805,89.29081,19.300747,89.262657,9.436455,75.425606,-0.117989,53.362541,0.0,10.42841,31.872413,61.701814,49.397366,75.578861,61.540275,81.991827,69.177134,83.089502,-16.147528,287.740973,-56.760721,259.511401
9,41.298122,-16.505638,-0.152149,-0.286707,0.0,-38.429832,-38.919582,-2.318344,-49.490833,-0.512009,-56.24485,-9.99115,-60.122223,-69.26239,0.0,-4.469371,16.69126,45.31097,33.966926,56.295998,45.722969,63.291949,55.001154,73.976994,0.0,65.767536,29.091797,89.49194,19.727325,89.292812,9.588432,75.29623,-0.251484,53.010807,0.0,10.70678,32.435515,62.213293,49.886676,76.053228,61.794564,82.408765,69.129463,83.490386,25.184355,271.253366,-56.87911,259.242725
10,-21.940613,1.081558,-0.21492,-0.299798,0.0,-14.335213,-29.534912,27.165527,-40.893059,30.990028,-45.124741,17.376022,-45.826778,-61.171417,0.0,8.689888,20.512375,55.528996,36.496346,60.766234,46.599022,63.775023,54.670171,73.108104,0.0,66.805973,28.740292,89.777355,18.858891,89.409885,8.470402,74.561634,-1.243,51.483593,0.0,10.612179,32.513444,64.006031,50.116017,77.317938,61.94647,83.640316,68.896108,84.218052,3.322592,272.330278,-57.015181,258.93828
11,-19.411011,13.68278,-0.250111,-0.026367,0.0,16.091995,-10.50127,50.115051,-18.703537,47.606621,-23.079014,33.024216,-22.989349,-34.019623,0.0,-21.206079,8.228736,41.358944,25.703362,47.697377,38.604505,53.30135,48.592017,58.963678,0.0,67.522316,28.881454,89.391289,19.052525,89.346542,8.68578,74.701653,-1.161976,51.581383,0.0,10.353445,32.708823,63.136215,50.232602,77.203576,62.127398,83.390473,69.269636,84.118943,-15.977955,286.021039,-57.154827,258.919894
12,42.522125,-12.986235,0.051899,0.03705,0.0,-39.414883,-43.093987,-4.044342,-53.229446,-0.561104,-59.179859,-9.841919,-61.839924,-63.980083,0.0,2.937405,14.815838,44.928241,30.293949,56.392082,40.903967,61.694837,49.558596,70.127658,0.0,67.478771,28.070469,89.58189,18.062553,89.534855,7.899399,74.849911,-1.410885,52.527981,0.0,10.623479,32.713948,63.048406,50.447802,76.990661,62.261211,83.445431,69.241354,84.250471,26.650429,273.011647,-56.99667,258.933788
13,-31.169529,3.257396,-0.318375,0.080337,0.0,-7.277184,-22.81723,31.62569,-32.280579,37.862148,-36.195774,25.99966,-37.055855,-31.861153,0.0,4.658575,16.705771,46.836514,31.8303,56.804698,41.814724,59.674857,49.70445,69.10643,0.0,67.923489,28.986969,90.027637,19.251366,89.835262,9.032536,74.882984,-0.754738,52.522488,0.0,10.155226,31.728164,61.711818,49.477641,76.768421,61.435917,83.335145,68.714747,84.208358,-4.442539,276.237288,-57.238483,258.98237
14,24.784184,-5.413041,0.051613,0.05539,0.0,-31.628036,-36.835213,6.337967,-48.514023,8.742256,-56.287422,-1.743393,-60.830154,-54.851933,0.0,-3.900465,14.820469,44.914347,32.63571,57.558362,45.596689,64.960322,56.262838,74.287413,0.0,68.288441,29.494743,90.687504,19.544048,89.99754,8.943901,74.41618,-1.014118,51.823597,0.0,10.025673,32.303493,62.596948,49.746317,76.891428,61.448761,83.177373,68.47213,84.238183,20.369596,270.835454,-57.158918,259.048968
15,-30.645847,3.03034,-0.301952,-0.063726,0.0,3.81609,-15.752735,45.521107,-26.774254,45.230312,-32.486973,31.044903,-34.41021,-38.113632,0.0,-6.403147,17.389842,52.580908,35.033232,59.509737,46.934389,62.566629,55.540358,72.075822,0.0,68.172455,29.459381,91.021843,19.579353,90.638237,9.043636,75.117989,-0.949402,51.854153,0.0,10.250815,32.757791,62.557984,50.421743,77.090943,62.000872,83.434625,68.750068,84.331858,-10.232391,273.878793,-57.417011,258.99824
16,-6.217804,10.23334,-0.130177,-0.179385,0.0,17.989712,-10.334072,51.716824,-18.011627,51.35931,-21.881733,38.104191,-21.145248,-20.607433,0.0,-11.003491,11.3199,40.728287,27.30807,47.942896,39.156554,56.56276,48.456783,62.902551,0.0,68.255939,29.957142,90.681553,20.047531,90.757542,9.362812,75.282497,-0.886402,51.693878,0.0,10.020857,33.003743,63.001722,50.583467,77.540795,62.101401,83.850082,68.787612,84.381382,-16.369514,284.113121,-57.466507,258.819843
17,48.045444,-12.22899,-0.126858,-0.044337,0.0,-45.87925,-49.038105,-7.428246,-58.984051,-4.233513,-63.081608,-11.783295,-64.524307,-77.81496,0.0,-1.481084,17.227747,46.913826,33.621988,56.951479,45.092559,62.351429,54.661156,73.36869,0.0,68.220863,30.186081,90.619469,20.300617,91.005135,9.528294,75.430412,-0.97538,51.055298,0.0,10.032651,32.731423,62.653821,50.382346,77.746486,62.051754,84.034098,68.899134,84.822589,31.735954,271.901436,-57.53334,258.792812
18,-29.436951,1.273664,-0.058022,0.414592,0.0,-13.261585,-28.338833,25.707436,-38.840389,30.891724,-44.154739,19.249535,-46.833973,-52.72562,0.0,-5.598663,18.391063,48.308027,36.157274,57.486237,47.671997,61.35558,56.866881,72.956012,0.0,68.289986,30.699291,90.683212,20.813255,90.90786,9.84684,75.288048,-0.910435,50.866299,0.0,9.349568,32.36759,62.087631,49.871856,77.136515,61.568742,83.528856,68.583527,84.445788,2.407207,273.177061,-57.483158,259.209365
19,-19.652424,11.888745,-0.457363,-0.365995,0.0,13.364582,-8.490601,52.982883,-17.157784,49.302807,-22.906208,35.143032,-24.605083,-15.013504,0.0,-16.159095,9.951943,41.595201,25.987167,50.274036,38.059805,54.556489,47.107907,57.587508,0.0,68.246441,30.143337,91.491222,20.323792,91.45483,9.715176,75.69849,-0.484371,51.447945,0.0,10.15961,31.747492,62.2107,49.534081,77.295646,61.427643,83.406775,68.557716,84.518283,-17.110548,285.066424,-57.805853,258.843988
20,44.03223,-13.797697,-0.194836,-0.024083,0.0,-40.53566,-44.425278,-1.119347,-55.758934,2.338829,-61.543922,-6.192741,-64.364376,-69.352112,0.0,-3.968822,14.586682,46.677507,32.577788,58.050019,44.92256,64.088591,55.142562,73.962976,0.0,68.117867,30.769329,91.794548,20.964947,91.372032,10.154572,75.386124,-0.350189,50.791626,0.0,9.76274,31.807452,62.131659,49.515926,76.907359,61.431471,83.15045,68.689985,84.250965,27.075748,271.275087,-57.846622,258.826265
21,-34.84354,2.182321,-0.056019,0.195872,0.0,-2.925396,-16.376152,38.577404,-28.142052,42.000904,-34.86969,27.060986,-38.380737,-38.602524,0.0,-2.081112,17.330624,51.395979,34.134084,59.55185,45.245144,62.548227,53.63437,72.008452,0.0,68.016529,30.851784,91.732235,21.103935,91.313496,10.341911,75.237865,-0.230198,50.546894,0.0,9.625098,32.105706,61.798886,49.812884,76.700495,61.728676,83.114449,68.978792,84.060959,-7.663393,273.471904,-57.798243,259.036633
22,-11.269741,11.922831,-0.080051,0.109916,0.0,15.929146,-8.10276,53.761368,-15.526257,53.476524,-19.626732,39.875908,-19.969368,-16.466446,0.0,-12.536939,11.509412,41.589705,26.847103,48.057876,38.277351,54.896425,47.015158,61.305871,0.0,68.376389,30.565739,92.303009,20.655499,92.210999,9.961109,76.155853,-0.359116,51.630993,0.0,9.548404,32.142695,61.748683,50.09638,76.463497,61.986793,82.899311,69.114704,83.666436,-18.850536,285.42101,-57.795696,259.172824
23,46.592102,-13.510002,-0.28347,-0.438675,0.0,-40.351124,-44.422531,-3.114738,-55.354614,0.015793,-61.137314,-8.278427,-63.486156,-58.336372,0.0,2.01788,15.101125,46.078157,31.379089,58.170061,43.228808,63.300718,53.144813,71.201621,0.0,68.627129,30.775967,91.456833,21.006832,92.261009,10.32177,76.50341,-0.074158,52.509556,0.0,9.802569,31.956023,61.988892,49.747676,76.775337,61.66569,83.18256,68.804594,84.423373,27.863359,271.948243,-57.957373,258.771385
24,-30.724754,7.578134,-0.090981,0.354694,0.0,-4.398193,-19.085941,35.862694,-30.181332,38.208847,-36.263752,22.992554,-39.051819,-26.582336,0.0,-15.290143,11.47088,43.583009,29.636801,53.66506,42.069568,56.407705,51.078212,62.110849,0.0,69.019318,31.337013,92.305298,21.321774,91.869736,10.214882,75.089607,-0.55069,49.586449,0.0,9.193278,32.036422,62.320245,49.604662,76.699631,61.260669,82.841389,68.238343,83.880092,-2.795792,279.556944,-57.98275,259.156645
25,30.843887,-7.848539,-0.680408,0.343579,0.0,-39.560108,-43.962479,-1.628036,-55.132141,-0.506859,-60.516987,-8.378906,-63.024902,-68.133717,0.0,0.491472,14.984355,44.426951,32.200493,56.435739,44.306662,62.44072,54.318256,73.016034,0.0,69.412022,29.79372,92.485828,19.608536,92.06171,8.939381,75.483456,-1.236877,48.53548,0.0,8.692729,31.214092,60.646438,49.133321,76.610155,60.827552,82.812243,67.537722,83.011943,28.225937,271.701411,-58.485317,259.493231
26,-37.32193,4.153703,0.273457,0.230391,0.0,7.095108,-17.234058,38.279572,-28.715229,42.201691,-34.639893,28.258781,-37.214756,-36.227417,0.0,-2.795812,13.018839,46.702948,31.462452,56.484213,44.064785,60.775805,53.685685,67.117202,0.0,69.783211,28.921738,92.227249,18.947296,92.426376,8.769894,76.755524,-0.785465,51.062107,0.0,8.486483,30.523784,60.358805,48.713295,76.073914,60.84441,82.379434,68.015485,83.327117,-9.042721,275.855037,-58.158588,259.723545
27,-11.001148,16.106669,0.074615,0.02859,0.0,29.005795,-5.056343,53.654308,-12.300854,52.826443,-17.606678,39.258213,-19.845772,-17.457218,0.0,-32.53197,6.420499,30.951221,22.48067,42.679971,34.589246,48.244424,43.426101,53.361433,0.0,69.608917,28.722782,91.776466,18.876629,92.011299,8.797131,76.496201,-0.681896,51.097927,0.0,8.118574,30.313277,60.000467,48.525759,75.882982,60.711461,82.387832,68.008322,83.416903,-20.008135,291.975832,-58.048239,259.766261
28,-7.933903,-15.787234,0.014648,-0.004817,0.0,38.360939,4.751358,64.950714,-4.238434,61.741104,-10.515289,52.405586,-13.936901,-5.696754,0.0,-5.937549,15.375853,42.696087,32.154551,59.031233,43.359843,62.66228,50.926368,69.601421,0.0,69.389191,28.120708,92.215919,18.138027,91.968842,8.115463,76.183548,-1.240711,50.441208,0.0,8.691617,30.148712,60.33781,48.294009,75.691741,60.411478,82.183932,67.646341,82.983847,-27.919607,276.221804,-58.01116,259.794651
29,57.848167,-3.63784,0.44157,-0.208655,0.0,-42.126389,-45.670338,-6.051636,-56.38361,-2.929459,-61.434002,-11.985283,-63.425961,-70.834465,0.0,2.244195,16.502921,45.134179,32.510419,57.185081,43.578562,61.699406,52.416961,71.07775,0.0,68.763027,27.209244,91.500378,17.280293,91.371861,7.358551,75.949345,-1.931477,50.567951,0.0,9.025131,30.639752,60.525901,48.883046,76.035691,61.136798,82.580061,68.47392,83.293896,29.959431,272.597441,-57.538719,259.599473
30,-33.045101,3.313342,0.355396,-0.437316,0.0,-1.291409,-22.138653,31.628208,-33.664913,35.801067,-39.019089,21.702518,-40.906048,-50.122433,0.0,-5.923532,14.22711,49.474986,32.111449,56.507185,43.942519,59.853995,53.201314,68.637312,0.0,68.523674,27.827225,91.274643,17.723866,90.963249,7.537479,75.730362,-1.894798,51.135921,0.0,9.230575,30.786224,60.538128,48.935287,76.562422,61.084496,82.921417,68.233711,83.821121,-3.062067,275.942322,-57.159719,259.193696
31,-16.270466,14.864127,-0.169315,0.19933,0.0,18.50544,-7.183914,53.400421,-14.29121,51.196518,-19.077988,38.727722,-20.021038,-15.59206,0.0,-24.151451,7.839832,36.995289,22.271645,45.100278,32.949958,49.210447,40.711244,52.541326,0.0,68.236942,28.383465,91.086788,18.453541,90.562992,8.311501,75.249653,-1.208725,50.526638,0.0,8.771523,31.089603,60.854105,49.187599,76.824799,61.148469,83.159836,68.226239,83.65742,-19.291906,290.846772,-57.288408,259.433349
32,44.242859,-19.352703,0.220814,0.243729,0.0,-35.684566,-39.036026,1.868248,-50.845642,3.349686,-57.799587,-6.284065,-61.72102,-65.414314,0.0,-4.130732,15.184241,43.702866,32.843871,56.562698,45.157644,63.179564,55.275387,72.615212,0.0,68.017731,27.666149,90.53009,17.760773,90.333138,7.885151,75.049896,-1.160374,51.151199,0.0,8.546381,30.824509,59.706288,48.888974,75.907064,60.950312,82.651197,68.152942,83.288153,25.004311,271.514246,-57.014236,259.697255
33,-35.518513,1.683007,0.085831,-0.19649,0.0,7.48518,-14.308376,41.687794,-26.092129,44.061413,-32.624931,28.947315,-35.436802,-43.541508,0.0,-3.654451,16.954749,52.462903,34.75412,59.264958,46.800946,63.234398,55.946367,71.402001,0.0,67.907753,27.188473,90.31105,17.294426,90.171547,7.572784,75.067863,-1.2854,51.539726,0.0,9.012411,30.986418,60.338736,49.004633,76.113249,61.032008,82.767412,68.182211,83.482358,-10.44817,273.22501,-56.862373,259.528522
34,-8.590164,6.5687,0.415592,-0.157649,0.0,20.163975,-9.837856,52.323818,-18.28125,53.542728,-22.407417,40.372524,-22.473335,-12.981491,0.0,-5.132138,12.551636,42.461621,28.877889,50.185671,41.026294,59.311394,50.710673,64.105758,0.0,67.758923,27.108364,90.707073,17.059193,90.100079,7.23484,74.915028,-1.634731,51.999435,0.0,9.060823,31.010192,60.346084,48.870202,75.931518,60.837494,82.54758,68.019499,83.668968,-18.959112,279.810815,-56.367559,259.387978
35,-1.074257,2.515527,-0.698318,-0.407738,0.0,21.483021,-9.161282,53.556118,-16.594963,55.426197,-20.335751,41.092358,-20.055428,-1.949272,0.0,2.562766,13.532171,44.957264,26.927873,50.758592,37.327692,57.28419,45.286085,61.321,0.0,68.686695,27.319908,91.245747,17.424259,90.45805,7.689056,75.51939,-1.199169,52.586517,0.0,9.242987,30.708789,59.168133,48.761707,76.101949,60.940926,82.921479,68.360732,84.038606,-20.007448,282.360412,-57.039957,259.014311
36,42.833347,-10.662382,0.098076,-0.301033,0.0,-31.391544,-37.002068,6.310158,-49.477215,6.362228,-57.460041,-2.003632,-62.106743,-57.59285,0.0,-5.19747,13.524266,41.070446,31.653076,54.90507,44.514822,61.46142,54.952494,71.960657,0.0,67.915592,27.42651,90.641727,17.450523,89.964466,7.630577,74.973049,-1.202431,51.688728,0.0,9.49073,30.829881,58.571316,49.054157,75.778747,61.269315,82.862446,68.591617,84.104617,22.850361,271.685341,-56.917419,258.700588
37,-38.167305,8.509145,0.023975,-1.299414,0.0,10.713158,-2.541618,47.276001,-13.876247,48.266258,-22.277184,30.820999,-27.588501,-31.972675,0.0,-17.130182,11.480698,43.632656,29.206463,53.360013,41.71333,56.293405,50.644662,63.310598,0.0,66.578751,29.602375,89.575996,19.923763,89.661484,9.431591,74.621086,-0.743351,50.04055,0.0,10.713326,31.349634,60.464336,49.184944,77.118422,61.117409,83.986056,68.264772,84.859577,-15.313139,280.176949,-56.889639,257.383637
38,46.722221,-10.045495,-0.180817,-3.539966,0.0,-41.259155,-49.114952,-1.465187,-62.232971,-2.907715,-68.351784,-12.182007,-70.747147,-83.926449,0.0,-9.475848,13.97208,51.422347,32.028333,62.795661,44.823574,67.983066,55.599268,78.510771,0.0,66.890259,30.405293,87.79953,20.818577,86.374168,9.825211,71.632118,-1.518345,45.882912,0.0,12.287097,29.351885,65.48341,46.847629,85.178395,59.315346,92.228131,67.66604,90.422116,31.421671,270.127779,-57.057867,253.839997
39,-26.026268,36.428112,3.911991,-11.322,0.0,-68.657513,-43.457108,-11.529293,-37.666283,4.086571,-27.668438,10.743942,-16.537285,-28.535328,0.0,32.042906,-5.670726,41.497141,-15.494537,38.48403,-25.024046,25.21751,-33.722147,-8.189278,0.0,64.039936,27.404079,78.50069,16.066017,70.846081,3.117542,46.931019,-9.729366,16.094055,0.0,21.063436,31.273805,75.117338,46.693933,97.518659,57.991973,104.666825,65.301308,92.176445,5.275412,306.548759,-53.265867,242.510865
40,11.965599,-24.238241,-0.407639,15.772599,0.0,-68.306379,-44.041242,-56.427469,-38.105907,-49.539242,-28.272943,-40.920582,-17.201614,-49.557352,0.0,27.525339,11.692503,49.465353,14.897009,55.454062,15.803567,53.189459,15.448564,38.814611,0.0,31.753063,34.011154,12.6721,28.198643,1.222115,18.754292,-8.871803,6.670704,-8.985271,0.0,61.570595,16.409987,75.163836,10.865849,69.224867,8.375332,60.730542,6.567218,49.830298,16.877518,282.425698,-54.036999,258.398644
41,11.965599,-24.238241,-25.583954,-44.305735,0.0,-67.955246,-44.625378,-101.325645,-38.545532,-103.165054,-28.877449,-92.585106,-17.865944,-70.579376,0.0,23.007771,29.05573,57.433564,45.288555,72.424094,56.631179,81.161407,64.619274,85.8185,0.0,82.407818,34.559841,80.790653,38.442593,83.142643,41.687737,77.072926,43.348446,74.544525,0.0,16.335763,4.003711,23.581309,-19.641262,9.785526,-39.535701,-8.294439,-54.53852,-28.674915,27.981977,258.380535,-80.482092,214.285986
42,4.044113,-1.266439,-10.575428,-60.869666,0.0,-70.103874,-43.796482,-102.864361,-38.264751,-107.103138,-30.389671,-94.246502,-21.2043,-72.968731,0.0,22.625166,28.192212,55.398826,45.334559,71.877912,57.883045,81.481151,66.048735,85.893897,0.0,84.462147,39.060974,71.323814,38.854065,69.949265,37.491989,63.009396,34.818192,61.084957,0.0,-8.524644,-14.060692,-2.270069,-40.315331,-21.004773,-59.925656,-38.177254,-72.829177,-56.292478,31.859751,257.423003,-91.22386,153.725227
43,-0.292625,-0.536488,-22.949581,-121.961942,0.0,-70.610161,-41.631145,-101.348705,-35.962372,-105.021801,-28.109322,-92.033615,-18.962173,-70.86977,0.0,22.310362,28.018941,54.856905,45.529629,71.575644,58.277075,81.145846,66.283386,85.225572,0.0,77.805004,22.453938,56.976185,26.162281,56.951923,29.955883,59.425564,34.337826,57.268639,0.0,-20.266917,-11.602007,-7.030439,11.352474,12.193669,33.57833,31.730881,53.409105,43.2532,31.683569,256.713861,-114.056997,31.590631
44,-2.292252,0.003767,-19.174747,-44.286624,0.0,-68.806229,-39.784012,-100.357475,-34.158268,-104.001389,-26.258125,-90.994835,-16.975021,-68.715305,0.0,21.876565,28.148123,53.973442,45.643496,71.237684,58.257129,81.559821,66.170445,84.417012,0.0,56.167316,30.904598,55.312786,35.008793,54.586258,38.009834,52.964859,40.474834,52.150555,0.0,-16.458739,-30.507606,-20.8332,-17.945812,-7.108954,-3.030062,3.384941,12.467624,13.619609,26.987371,256.671222,-135.635691,-12.742398
45,0.15358,-0.937804,-4.499588,-32.367312,0.0,-68.53363,-39.115334,-100.046368,-33.320446,-103.65818,-25.400162,-90.036049,-16.404991,-68.314247,0.0,22.615224,29.0201,55.749013,46.926299,72.004315,59.756553,82.00677,67.454915,85.660542,0.0,39.58437,18.147697,40.186043,19.479046,41.455765,22.000866,38.784885,24.955959,37.770309,0.0,-27.62417,-47.220231,-30.189838,-41.581894,-25.227668,-31.537356,-16.628768,-18.417956,-5.732754,25.651302,257.398549,-141.624928,-43.44458
46,-0.906143,-1.039692,4.454041,-30.573679,0.0,-68.022423,-39.329166,-100.049057,-33.263683,-103.562851,-24.997787,-89.712467,-15.795479,-68.895435,0.0,23.366294,29.891398,56.098706,47.755978,71.902921,60.414627,82.136569,68.268971,85.582366,0.0,25.440159,10.224094,33.457317,5.311031,28.142166,4.435616,22.962971,5.300789,18.919601,0.0,-37.968105,-51.877602,-33.357356,-48.006067,-20.73974,-39.736483,-13.414196,-28.437269,-5.7259,23.04534,256.73325,-138.870707,-73.643866
47,-1.074371,0.006175,-4.04829,-12.409455,0.0,-66.156578,-38.216228,-99.024296,-32.073212,-102.627926,-23.908653,-88.442802,-15.060196,-67.017231,0.0,23.018763,28.795761,55.661451,47.079193,71.610039,60.144654,81.348819,68.315963,84.782451,0.0,27.955856,10.098438,25.410748,8.631077,27.565613,8.82225,23.973255,11.368389,22.451019,0.0,-26.243246,-58.117512,-28.960202,-59.109192,-27.443766,-55.000752,-24.1278,-46.943065,-21.294815,20.535536,256.33743,-144.354429,-86.455316
48,0.749016,-0.463993,1.839148,-0.146604,0.0,-67.098484,-38.385544,-99.669914,-32.233944,-102.952137,-24.007645,-88.774624,-15.008354,-67.417145,0.0,22.741689,29.328235,54.98337,47.556833,71.04953,60.455938,81.240077,68.317507,85.229648,0.0,29.10817,11.163,28.62182,9.956866,27.898807,10.600564,24.385708,13.512529,23.183016,0.0,-26.176185,-55.55094,-32.051702,-56.136497,-24.712021,-51.371474,-20.096407,-42.747446,-16.834945,19.984932,255.810236,-143.814901,-86.665122
49,-0.277634,0.408047,1.839147,-0.146605,0.0,-67.307281,-37.992268,-99.823723,-31.90115,-102.970104,-23.758965,-89.248066,-15.028381,-68.041134,0.0,21.718546,28.706779,54.618672,46.632676,70.187618,59.555617,80.467394,67.678884,84.206876,0.0,30.260484,12.227563,31.832894,11.282657,28.232002,12.378878,24.798162,15.65667,23.915013,0.0,-26.109124,-52.984367,-35.1432,-53.163801,-21.980275,-47.742194,-16.065013,-38.551827,-12.375073,18.910446,255.505282,-142.772607,-87.524728
50,0.176239,0.803682,1.839147,-0.146604,0.0,-66.993828,-38.052406,-99.907207,-32.020512,-103.072529,-23.946419,-89.642143,-15.22934,-68.276539,0.0,21.26184,28.508868,53.374092,46.598405,69.077716,59.477626,79.865822,67.45578,83.705833,0.0,31.412798,13.292125,35.043967,12.608447,28.565197,14.157192,25.210615,17.800811,24.64701,0.0,-26.042063,-50.417796,-38.2347,-50.191105,-19.24853,-44.112915,-12.03362,-34.356209,-7.915203,17.926741,256.092158,-142.093404,-87.888137
51,0.324097,0.048227,1.839148,-0.146604,0.0,-66.935749,-37.457256,-99.555244,-31.975021,-103.011589,-24.256783,-89.687862,-15.631027,-67.833309,0.0,20.661441,28.224755,53.597258,46.191716,69.810446,59.161032,80.38539,67.411381,83.853354,0.0,32.565111,14.356686,38.25504,13.934236,28.898391,15.935505,25.623068,19.944951,25.379006,0.0,-25.975002,-47.851224,-41.326199,-47.21841,-16.516784,-40.483637,-8.002227,-30.160591,-3.455333,16.898603,255.915397,-141.60649,-88.259729
52,0.420456,0.762185,1.839147,-0.146605,0.0,-67.438602,-37.558193,-100.29459,-32.359657,-104.102039,-24.881401,-90.63612,-16.326828,-68.554401,0.0,19.852696,28.35406,52.574424,46.017951,68.332821,58.784231,79.493158,67.004199,83.129516,0.0,33.717425,15.421249,41.466113,15.260026,29.231586,17.713819,26.035521,22.089092,26.111003,0.0,-25.907941,-45.284651,-44.417697,-44.245714,-13.785038,-36.854357,-3.970833,-25.964972,1.004538,17.528486,256.677212,-139.557916,-88.406705
53,-0.386124,0.361549,1.839147,-0.146604,0.0,-66.896954,-37.048645,-99.363785,-31.879578,-103.487206,-24.439545,-90.2421,-15.863914,-67.86581,0.0,19.065934,28.265016,52.250729,45.70537,67.830543,58.377913,79.515079,66.504453,83.830507,0.0,34.869739,16.485811,44.677187,16.585816,29.564781,19.492133,26.447975,24.233232,26.843,0.0,-25.84088,-42.718079,-47.509197,-41.273018,-11.053293,-33.225078,0.06056,-21.769353,5.464409,17.29723,258.952113,-137.563902,-86.639957
54,-0.316544,1.242851,1.839148,-0.146604,0.0,-66.105881,-37.321472,-98.476238,-32.29351,-103.291855,-24.739037,-90.367012,-15.832329,-68.017101,0.0,18.182038,27.407303,51.472673,44.592072,67.617195,57.227009,79.579732,65.536144,83.472848,0.0,36.022053,17.550373,47.88826,17.911606,29.897976,21.270447,26.860428,26.377373,27.574997,0.0,-25.773819,-40.151507,-50.600696,-38.300323,-8.321547,-29.595799,4.091953,-17.573735,9.924279,17.207108,263.427165,-135.498333,-83.554359
55,-1.108017,0.54433,-1.135826,1.837569,0.0,-64.892006,-35.568523,-97.557049,-30.589027,-102.865219,-22.938423,-89.75172,-13.940964,-67.984543,0.0,18.646278,27.747115,51.332809,44.939295,67.673203,57.536502,79.382069,65.618705,82.745984,0.0,35.617619,22.026558,44.983635,26.00893,36.465626,31.09417,35.055084,36.35828,36.914234,0.0,-14.127661,-28.680071,-10.450084,-23.668995,3.138156,-13.879023,14.031206,-1.508254,19.654415,16.207838,266.104725,-136.525412,-79.58356
56,-0.918961,0.229156,-1.583691,8.260106,0.0,-65.640564,-36.037617,-98.223667,-30.315113,-101.717663,-22.147865,-88.467636,-13.015022,-66.989422,0.0,20.17034,28.190175,52.437277,45.868453,68.391731,58.612071,80.098991,66.54422,83.228008,0.0,35.083981,22.838688,34.992943,29.23193,40.285606,35.844727,40.888481,42.032833,42.796669,0.0,-13.76815,-29.478226,-8.633881,-24.655581,-0.291369,-15.021158,9.636738,-3.458949,15.743329,15.395279,269.573384,-138.002701,-68.083951
57,-1.185951,-0.390571,2.745266,2.501787,0.0,-65.515766,-36.05444,-98.175087,-30.338745,-100.989532,-22.308769,-87.442017,-13.495216,-66.680946,0.0,20.808592,29.038131,52.57887,47.127235,68.050683,59.985153,80.248736,67.860739,83.746403,0.0,35.588551,23.00663,32.143192,28.881283,36.771355,34.077358,38.513832,38.568134,38.817558,0.0,-11.371925,-32.127072,-10.036943,-28.170754,-4.055273,-18.965898,4.074755,-8.141792,9.664958,14.3997,270.519092,-135.067062,-64.245885
58,-0.694313,0.101888,1.275158,-1.864368,0.0,-65.714035,-35.59639,-97.700558,-30.003147,-100.507851,-22.154732,-87.218628,-13.642159,-66.417503,0.0,20.992423,28.497136,52.33193,46.514856,67.564152,59.467376,79.871132,67.583912,83.869965,0.0,34.178581,22.643795,32.914124,28.949604,36.485538,33.936481,38.491287,38.034954,39.653435,0.0,-13.540044,-32.84279,-9.995786,-28.665962,-4.216349,-19.212653,3.680849,-8.002329,9.061132,14.064531,270.602794,-133.43276,-66.128439
59,0.484314,0.020254,0.628567,0.547788,0.0,-65.781155,-36.084137,-98.29668,-30.436478,-101.088982,-22.499657,-87.590446,-13.871613,-66.129341,0.0,21.208241,28.766923,52.654206,46.90938,68.307132,59.767421,80.705936,67.71155,84.115608,0.0,35.984173,21.195602,30.502682,27.26366,34.460621,32.477989,36.230793,36.946278,37.701588,0.0,-11.02322,-34.106543,-11.779509,-31.896805,-6.277176,-23.927914,1.455272,-13.715816,6.421178,14.754839,270.957303,-132.5982,-65.246396
60,0.662956,0.521482,0.805035,-7.419003,0.0,-66.76712,-36.935921,-98.44368,-31.430511,-101.220875,-23.558922,-88.197556,-14.906616,-67.20583,0.0,20.285751,29.307301,52.081347,47.119022,67.7465,59.794344,79.535457,67.654925,83.635499,0.0,35.222912,22.265167,31.276016,27.734184,34.699402,32.529716,35.757179,36.699715,37.705364,0.0,-11.050205,-31.251914,-8.254548,-27.509963,-1.001623,-18.345245,6.753365,-7.259348,12.01663,15.608397,271.515821,-131.602564,-72.628365
61,-0.147858,0.621024,0.184364,-1.359651,0.0,-67.191582,-36.713448,-98.475094,-31.155281,-101.207199,-23.132515,-88.947086,-14.30912,-67.927322,0.0,19.746485,28.957794,51.57839,46.918519,67.850673,59.598225,79.842974,67.356238,83.285127,0.0,31.226406,23.71233,33.000584,29.579945,35.652637,34.377995,37.713947,38.743401,41.15324,0.0,-20.096672,-31.872969,-7.563901,-28.122681,0.489526,-18.766969,8.758802,-7.417398,12.976756,15.652857,272.020013,-131.225882,-74.104848
62,-0.145111,0.386064,0.992661,-4.521458,0.0,-67.132244,-37.276897,-98.698483,-31.860752,-101.144714,-24.029617,-88.920364,-15.297775,-68.537922,0.0,19.429397,28.601124,51.027885,46.853928,66.904287,59.805892,79.281107,67.812018,83.849402,0.0,31.166553,23.427887,32.762661,29.922295,36.605473,34.905796,39.093018,39.043636,42.726173,0.0,-13.327314,-28.939114,-7.179412,-23.496588,0.549177,-13.132861,9.070055,-1.433752,14.015985,15.55481,272.39862,-130.186157,-78.633762
63,-0.302467,0.076077,2.341518,-1.46262,0.0,-66.828346,-37.189522,-98.811722,-31.64835,-101.092987,-23.653336,-88.529663,-14.679337,-67.300529,0.0,19.276009,28.400867,51.366895,46.621314,67.905878,59.529558,79.696255,67.402674,83.722011,0.0,30.900021,23.463535,35.217304,29.786797,38.704376,34.376678,41.597958,38.065052,43.660698,0.0,-14.652508,-27.877717,-4.090934,-22.981126,1.781993,-13.22913,9.466647,-1.945447,13.373719,15.105028,272.328888,-127.991953,-80.24219
64,0.11364,0.20427,1.382732,-2.149871,0.0,-67.154789,-37.339096,-99.390335,-32.045231,-102.135544,-24.230919,-89.592533,-15.402946,-68.851089,0.0,19.041048,28.194682,51.478046,46.304843,67.003026,59.209197,79.140193,67.195563,83.105495,0.0,30.040798,22.508698,33.143749,29.272213,36.298084,34.407406,38.748779,38.711758,41.695061,0.0,-13.713809,-27.574708,-4.388447,-22.589628,2.953368,-12.436903,11.122886,-0.759314,15.685469,14.808455,272.294756,-127.019434,-82.630465
65,-0.330276,-0.075953,1.303654,0.177718,0.0,-66.757908,-37.078857,-98.856239,-31.814518,-101.915131,-24.021149,-88.982677,-15.227737,-67.54921,0.0,19.325965,28.093473,51.076915,46.20913,66.942078,59.227846,78.62575,67.325918,82.657866,0.0,31.669006,22.770882,31.416435,29.46785,34.898472,34.285069,37.551441,38.127766,39.782982,0.0,-11.312212,-27.055881,-4.162811,-22.368006,2.442846,-12.627434,9.670516,-1.420383,14.961075,14.017267,271.693384,-126.176691,-82.978166
66,1.160774,0.108063,1.163063,-1.566454,0.0,-67.462521,-37.908726,-100.047569,-32.446632,-102.893772,-24.507294,-89.823189,-15.573235,-68.339939,0.0,19.141331,28.294595,50.301206,46.621932,66.906077,59.621381,78.664591,67.681045,83.144707,0.0,29.863758,21.644669,32.701664,28.25346,35.835056,33.306255,38.39613,37.73037,41.409988,0.0,-11.838542,-25.907293,-2.567922,-21.007058,4.44038,-10.934362,12.677946,0.758943,17.389688,14.693012,270.659018,-125.498657,-85.687048
67,0.014191,-0.109854,0.438309,-0.351236,0.0,-67.441521,-38.245468,-99.941597,-32.755051,-103.064461,-24.810104,-89.786453,-15.789871,-68.27282,0.0,19.252296,28.415008,50.607488,46.799958,66.930098,59.815216,78.77321,67.833939,83.108521,0.0,29.784679,22.001266,31.732693,28.898392,35.541115,34.158669,38.205872,38.466854,41.62571,0.0,-12.026973,-25.749459,-2.575424,-20.120785,4.570673,-9.634855,12.758222,2.127765,18.079224,14.400187,269.346729,-125.367365,-87.24072
68,0.556412,0.263057,0.454445,-0.506817,0.0,-67.90432,-38.859558,-100.689411,-33.298302,-103.575611,-25.350609,-90.321636,-16.41037,-68.612938,0.0,18.488444,28.053212,50.432611,46.547337,66.899223,59.689801,78.775001,67.754775,83.144151,0.0,29.667778,21.999893,30.658207,29.434605,34.663525,35.00267,37.635384,39.426956,41.599674,0.0,-11.779941,-24.262848,-2.632389,-18.843478,4.864944,-8.628663,12.528541,2.818104,18.241566,14.601831,268.686139,-125.267687,-88.671183
69,0.250511,-0.028652,0.759659,0.298378,0.0,-67.841606,-38.799191,-100.22049,-33.313007,-103.196239,-25.484962,-90.380688,-16.702423,-68.931599,0.0,18.304736,28.731973,50.852823,46.822126,67.059095,59.715798,78.62612,67.664187,82.997061,0.0,30.766125,21.295052,29.872398,28.310623,33.948154,33.62606,37.143974,38.013783,40.628586,0.0,-8.922688,-24.492653,-3.101353,-19.458234,4.661014,-9.418204,12.198454,2.024673,17.974125,14.405422,267.911711,-124.954948,-89.118581
70,-0.110893,-0.172469,0.592804,-1.044848,0.0,-67.903175,-38.874149,-100.063934,-33.426418,-103.080597,-25.656395,-90.211487,-16.89743,-68.854351,0.0,18.585021,28.608101,50.760382,46.899129,67.00599,59.905186,78.468533,67.930887,82.977981,0.0,28.860626,21.680088,29.561119,28.63163,33.909817,33.882122,36.828461,38.203869,40.574684,0.0,-11.998414,-22.672405,-1.414825,-16.766842,5.938599,-6.375174,13.410399,4.955378,19.081371,14.042645,267.309969,-124.614029,-90.592702
71,0.26413,-0.013338,-0.409584,-0.526978,0.0,-67.620621,-38.30389,-99.701786,-32.885399,-103.168201,-25.098381,-90.389271,-16.371231,-69.117451,0.0,18.368092,28.460518,50.626384,46.548757,67.018525,59.50035,78.68219,67.525187,83.169345,0.0,29.405193,22.37011,29.263172,29.839897,33.57645,35.009594,36.837044,38.771553,40.172195,0.0,-10.387129,-21.923496,-0.030752,-15.363008,6.760836,-4.682657,12.945789,6.677165,19.049817,13.967772,267.009198,-125.362616,-91.407113
72,0.309792,-0.313569,0.194721,-0.324406,0.0,-67.037773,-38.308468,-99.626141,-33.015003,-102.837696,-25.30014,-90.051441,-16.6008,-68.807316,0.0,18.743658,28.611127,50.938347,46.705665,67.426757,59.61323,78.997858,67.557174,83.57202,0.0,28.498306,21.212425,28.528061,28.993607,33.000355,34.356422,37.1311,38.302517,41.041031,0.0,-9.423885,-20.788492,-1.711629,-14.488407,5.904791,-4.065894,11.92138,7.325513,17.928831,14.083071,266.378016,-125.362387,-92.049132
73,0.520821,0.416013,-5.707798,7.934619,0.0,-67.642765,-37.890701,-99.869385,-32.727871,-103.115673,-25.354271,-90.461426,-17.039452,-69.364586,0.0,18.42515,27.74162,50.450519,45.492331,67.013894,58.487767,78.353863,66.884588,83.295748,0.0,34.226017,24.731026,40.009632,30.087032,41.097393,35.995502,41.67635,41.722183,43.966255,0.0,-15.061265,-29.838324,-7.405974,-25.673104,2.450719,-16.236159,12.261748,-4.270751,17.521278,14.527388,266.338373,-131.146688,-84.570169
74,0.554924,-0.158205,0.838966,3.07233,0.0,-67.225971,-37.44072,-100.064049,-32.062054,-102.984638,-24.592896,-90.180759,-16.303253,-68.79055,0.0,19.239823,27.742608,51.023995,45.446265,67.535623,58.374949,78.944752,66.671549,83.494338,0.0,33.775234,24.520226,34.465714,30.216408,39.341812,35.305595,39.781265,39.698753,40.040245,0.0,-14.106882,-31.862348,-10.49229,-26.991383,-3.279348,-16.950828,5.859558,-5.66807,11.555509,14.880295,265.751929,-130.509739,-81.926078
75,0.204048,0.291894,1.569271,1.660592,0.0,-66.428776,-37.748966,-99.534645,-32.54282,-102.791176,-25.08419,-89.521179,-16.563377,-67.791824,0.0,19.007394,27.300845,50.843004,44.978321,67.218658,57.906511,78.746101,66.155069,83.393684,0.0,33.117428,24.002151,33.770885,29.650898,37.895679,34.655228,39.108524,38.971252,39.6175,0.0,-15.865688,-31.41864,-10.098137,-27.083391,-3.323345,-17.427109,5.225999,-6.322841,10.862978,14.785652,265.832174,-129.239159,-80.477135
76,0.356941,-0.209087,-0.200558,3.556361,0.0,-66.634712,-36.831322,-99.283791,-31.790771,-102.94796,-24.417572,-89.595509,-15.947227,-67.766647,0.0,19.438844,27.260028,51.274702,45.006417,67.401624,58.002162,78.903009,66.268937,83.834397,0.0,34.433613,21.798992,32.72913,29.097519,37.382812,35.338211,40.729237,40.846767,42.527847,0.0,-14.748252,-33.109583,-11.987175,-30.230686,-5.834704,-21.495596,0.80504,-11.162653,6.475858,14.777584,265.671885,-129.804726,-76.871976
77,0.571861,0.00636,0.809212,0.191426,0.0,-66.865997,-36.601982,-99.14257,-31.471138,-102.593594,-24.080429,-89.237251,-15.747414,-67.636471,0.0,19.071306,27.300104,50.984722,45.097129,67.278247,58.065024,78.727391,66.277705,83.398624,0.0,35.755978,21.452293,34.001369,30.231686,39.897366,37.208748,44.144497,43.08197,46.100521,0.0,-11.637205,-29.908596,-9.87775,-26.451406,-3.834855,-17.131756,2.447601,-5.76579,8.638358,15.239611,265.60311,-129.105349,-76.755685
78,1.399841,0.451087,4.697514,6.775502,0.0,-67.047443,-37.040691,-99.778805,-32.066116,-103.919449,-24.628944,-90.282841,-16.025162,-68.09269,0.0,18.491593,26.688343,49.878093,44.213974,66.2225,57.215215,78.23771,65.742082,82.964272,0.0,35.857887,20.939484,37.279301,28.236294,42.21199,33.9184,44.641628,38.619232,44.388485,0.0,-13.651164,-26.555425,-10.442458,-23.913835,-6.254761,-15.924968,-1.199903,-5.599589,5.500603,16.509333,266.287876,-124.537954,-69.746504
79,0.62233,0.47943,-0.018597,-0.169814,0.0,-66.966133,-37.201996,-99.549065,-32.463226,-104.4207,-25.247269,-91.133823,-16.678963,-69.085064,0.0,17.401266,26.969307,49.531981,44.320432,65.352499,57.118267,77.119843,65.462168,82.079327,0.0,37.589836,19.075184,38.167877,28.063889,42.384224,35.505352,44.562263,41.262131,43.340893,0.0,-9.319218,-23.108486,-7.707532,-17.571049,0.666904,-6.944451,8.824103,5.923686,19.700666,16.976881,266.770301,-124.711332,-69.913322
80,0.70713,0.56199,-1.198196,20.022818,0.0,-66.702862,-37.233353,-99.511528,-32.208138,-103.80415,-24.919624,-90.111694,-16.71524,-68.682461,0.0,17.992526,27.319062,49.765707,44.78251,65.74554,57.590534,77.519862,65.872314,82.007141,0.0,46.067734,33.295555,57.644348,38.387718,56.747074,43.421974,55.783768,47.144508,58.194523,0.0,-14.706509,-31.020134,-11.535718,-21.14507,3.700301,-7.100958,18.844713,10.250538,27.17895,18.236904,267.291135,-125.356636,-49.931661
81,0.477791,0.295723,9.786415,15.378539,0.0,-66.783829,-37.557964,-100.113373,-32.161903,-103.739376,-24.529953,-89.913712,-16.017494,-68.638287,0.0,17.781463,27.200254,49.305296,45.04248,65.40721,58.031308,77.511093,66.302714,82.075622,0.0,44.292755,32.613373,55.206127,37.198563,56.717091,39.335575,56.867352,40.054092,59.469166,0.0,-8.997776,-23.218989,-1.458112,-13.403977,7.716702,0.511757,16.623612,16.759525,25.835724,20.581169,266.667255,-113.703747,-35.472725
82,-0.065002,-0.002594,6.244469,19.253809,0.0,-66.902275,-36.419621,-99.467468,-31.29261,-103.341522,-23.873978,-89.735584,-15.579872,-68.094006,0.0,17.840867,26.595347,48.917812,44.812089,65.35324,58.082438,77.611623,66.460116,82.29533,0.0,40.627441,33.319874,48.251495,38.32077,49.158325,39.449501,52.45348,38.630505,53.047142,0.0,-18.310109,-17.976317,-12.698787,-6.492315,-1.639103,7.415977,9.94055,22.950868,22.082935,21.806431,265.499262,-106.169014,-17.384316
83,-0.207825,-0.18698,2.357483,31.145704,0.0,-66.836472,-36.328468,-99.769306,-31.103783,-103.335228,-23.584328,-90.090466,-15.170059,-68.468685,0.0,17.678093,26.572376,49.178028,44.954115,65.890283,58.344753,78.51003,66.879092,83.635375,0.0,50.965547,41.36364,57.142582,46.079664,56.954355,46.912565,56.912956,45.298176,54.437828,0.0,-21.557007,-18.366672,-7.332198,-3.739358,5.548274,12.963171,18.73844,30.856449,30.338996,24.878683,264.185059,-100.531454,12.634166
84,0.110092,-0.287325,2.357483,31.145703,0.0,-66.907253,-36.371212,-99.348049,-31.320877,-103.411331,-23.851547,-90.140362,-15.341148,-68.263779,0.0,17.685071,27.190312,49.213596,45.464729,65.743008,58.728594,78.889424,67.112694,84.803879,0.0,61.303654,49.407406,66.033669,53.838558,64.750385,54.375629,61.372433,51.965847,55.828514,0.0,-24.803905,-18.757027,-1.965608,-0.986401,12.735652,18.510365,27.53633,38.76203,38.595057,27.358446,262.769307,-95.8043,42.651442
85,0.337372,0.119981,7.442436,23.017404,0.0,-67.117023,-37.178822,-99.532356,-32.155266,-102.984295,-24.640617,-90.56139,-15.818481,-68.281689,0.0,16.771474,26.799679,49.126158,45.027783,65.063075,58.627138,79.020397,67.466401,88.984567,0.0,60.657749,44.15411,63.863583,44.800415,69.614525,41.749878,66.933403,36.430492,65.709457,0.0,-28.129844,-4.041194,-4.050055,14.355612,7.847983,31.89168,22.127365,49.349355,29.61522,28.118019,262.202778,-87.939663,64.982336
86,0.595207,0.187351,7.208977,28.248158,0.0,-66.991024,-36.429863,-99.230919,-31.325912,-102.246723,-23.546333,-89.931049,-14.142952,-66.763802,0.0,15.852195,26.914905,49.33648,45.03828,65.652297,58.604043,79.875331,67.461152,90.749085,0.0,63.437748,41.398058,69.719524,40.710268,71.802663,37.042722,66.725149,31.241169,64.106254,0.0,-24.338632,-1.434339,4.227665,18.195407,17.246859,37.238123,32.467363,54.887239,40.019963,28.79282,262.214726,-80.651092,93.055092
87,0.967598,0.21273,7.208976,28.248158,0.0,-68.504276,-37.546005,-100.07309,-32.305984,-102.498035,-24.528236,-90.46669,-15.244446,-67.494392,0.0,15.454646,28.094894,49.942992,46.475583,66.048241,59.802433,80.468753,68.233032,90.645282,0.0,66.217747,38.642006,75.575466,36.620121,73.990803,32.335567,66.516895,26.051846,62.503052,0.0,-20.547419,1.172517,12.505385,22.035202,26.645735,42.584566,42.807362,60.425125,50.424707,29.680567,262.367034,-73.521967,121.242828
88,-0.062141,1.58538,6.943817,51.747339,0.0,-67.142086,-36.449203,-99.683247,-31.45752,-102.264347,-24.058914,-89.697418,-15.382805,-67.436829,0.0,15.994159,27.824612,48.883479,45.638988,65.137793,58.523397,79.627959,66.396142,88.298396,0.0,71.973095,37.397346,88.838024,33.884754,87.821102,28.466778,79.557896,21.803284,69.767361,0.0,-14.615396,8.019032,28.961746,29.027448,40.160492,48.804438,53.161609,64.840464,60.586849,29.783735,263.877819,-66.41284,172.915572
89,-2.889061,6.845527,6.549511,21.323467,0.0,-50.672607,-32.839165,-95.173359,-30.484085,-99.96294,-24.950867,-88.699951,-16.80027,-65.88089,0.0,7.625188,21.253257,39.864646,35.263623,56.074561,46.734564,68.223028,55.565058,76.55248,0.0,69.165001,35.227261,94.856186,27.235451,96.322289,19.147854,85.293732,10.932083,63.31398,0.0,-6.47274,19.418714,48.492537,34.650626,62.105539,47.760671,69.704544,59.49751,69.795132,27.328234,270.522889,-59.42977,194.038582
90,2.389755,45.782496,-0.43808,26.949918,0.0,-71.096592,-41.871185,-99.019547,-41.91782,-69.552212,-37.686138,-42.304688,-30.358086,-40.682144,0.0,35.383295,2.826255,6.256799,-16.195157,-16.474269,-35.251334,-37.629157,-53.373845,-57.169458,0.0,71.01368,32.301693,91.962891,22.653408,94.673653,13.836079,79.091721,5.035744,52.686882,0.0,-8.936026,22.056691,52.237329,34.807225,66.36817,44.669198,72.591129,52.25079,72.343139,30.160475,316.035845,-59.425364,220.718959
91,-8.782539,-37.226606,-2.349815,18.200563,0.0,-53.789692,-15.857506,-45.899906,-14.292183,-50.254326,-12.255592,-57.08622,-9.267082,-60.072212,0.0,37.312131,15.712269,5.265334,26.582873,10.813485,34.555531,21.078318,40.614728,44.548723,0.0,75.513725,33.321419,93.228836,24.316521,93.256531,15.648537,78.147469,6.719513,54.793167,0.0,-5.875181,27.893958,53.648079,41.88197,70.391888,52.209665,78.280627,59.459904,79.519217,21.58267,278.488029,-61.570444,238.598312
92,6.279831,7.054861,3.197594,15.341087,0.0,-43.546085,-41.078167,-4.17778,-38.3848,3.815689,-31.5382,6.459732,-22.163429,-5.051193,0.0,-0.765458,16.930296,28.698751,22.439791,33.501636,25.567017,34.070666,27.070887,34.670386,0.0,73.846321,34.690189,95.945778,25.458984,93.619652,16.341534,80.414085,6.726723,55.29808,0.0,-4.036748,30.914726,54.896734,46.897956,71.420465,58.048475,82.23537,64.537455,83.192255,27.952051,285.345474,-58.2833,253.741983
93,-25.453377,-14.565317,4.623127,10.396732,0.0,-8.068542,-15.360661,34.465942,-22.672863,35.874367,-30.882854,24.201279,-37.96566,-42.790375,0.0,-11.013309,19.209874,41.378889,37.810827,56.648469,50.089155,63.44756,59.945139,76.88093,0.0,74.108906,33.369884,94.7299,23.556461,93.016148,14.030857,78.789082,5.168839,55.130596,0.0,-2.737766,30.776282,53.991287,49.007041,68.989104,61.122534,79.144268,67.647021,80.165682,2.256145,271.030972,-53.902702,264.38953
94,-7.079887,13.805354,4.729843,2.753142,0.0,-21.692448,-13.279438,38.59417,-21.665211,36.309242,-24.198074,28.739319,-22.975445,-3.607178,0.0,13.841046,13.864511,32.373086,29.583017,44.241021,39.759114,48.826792,48.325193,48.384844,0.0,71.520824,31.847191,95.076542,21.979294,90.975208,12.095833,77.092381,3.16761,56.104946,0.0,1.39488,32.204322,55.387958,49.960159,67.056748,61.635247,75.187302,68.27002,77.699185,-5.069332,285.339715,-49.418449,267.646061
95,0.111809,-13.432567,-0.571861,-0.939347,0.0,11.483345,-1.747513,44.528503,-10.720024,38.415298,-21.562157,24.715691,-31.03323,-16.607437,0.0,-7.487731,21.862733,41.55599,38.978157,55.785507,50.413901,63.166905,59.15955,70.466174,0.0,71.294346,33.913937,95.191555,24.988861,93.565235,14.913712,78.325481,5.054398,54.165859,0.0,-1.015362,33.908448,55.45823,51.254447,68.779523,62.474436,76.326658,69.027389,77.466448,-5.148039,272.49969,-50.180826,267.299255
96,-7.716351,-3.064735,-0.366154,-1.628605,0.0,23.588047,0.647221,53.981495,-7.556305,48.439465,-17.840996,35.474567,-26.73975,-10.943184,0.0,-7.540466,19.79465,42.741968,38.106858,57.690261,49.925887,65.905288,58.97152,73.43254,0.0,71.407356,32.381287,93.932419,22.652721,91.254501,12.057152,76.191444,1.723881,52.738838,0.0,1.210555,32.494549,55.355972,49.896865,67.340183,61.331374,75.831235,68.082052,77.755934,-12.732096,270.034629,-50.414686,266.270324
97,2.53458,2.947409,-0.422859,-0.339874,0.0,17.095985,4.215889,50.94841,-4.16708,40.955086,-14.719162,26.145515,-24.141426,-24.28854,0.0,-15.914316,14.523512,31.755582,34.891823,49.059776,48.844885,58.749712,59.410812,69.864169,0.0,72.890854,33.659763,93.820839,24.082432,91.336098,13.030357,75.671196,2.403316,52.261734,0.0,1.933158,32.86079,56.822112,49.804733,68.103974,60.970628,75.729285,67.565201,77.805828,-10.12064,273.762578,-50.76067,266.71099
98,-1.858692,0.159934,0.014648,-0.263613,0.0,21.81982,1.612244,55.3335,-7.845039,46.536083,-18.461952,30.645962,-27.775269,-12.1558,0.0,-12.848532,13.614793,35.908667,33.359487,51.624147,46.976564,60.560296,57.549223,68.963848,0.0,72.544899,32.810497,93.76236,23.132343,91.126328,12.157688,75.964394,1.623573,52.68322,0.0,3.620921,33.256487,56.601724,50.129417,67.334563,61.183234,75.336429,67.587308,78.879853,-11.89908,274.552212,-50.66577,267.077077
99,-4.820652,-3.771221,-0.454388,0.675117,0.0,30.012589,6.974945,58.406181,-3.901005,48.599625,-16.061268,32.454071,-26.727562,-7.662735,0.0,-9.789972,14.983861,39.296604,35.183162,55.828424,49.394587,65.665697,60.330461,73.407778,0.0,72.3456,32.533607,93.617306,23.157463,90.939732,12.577572,76.162434,2.416649,53.25182,0.0,5.802933,33.315335,57.129443,50.123797,66.9732,61.071281,75.13963,67.397364,78.410858,-16.600971,271.140872,-51.001396,268.112076
100,-1.186409,-0.789726,0.080452,0.806028,0.0,31.750832,9.165344,59.848251,-0.471382,49.160843,-12.271042,33.289833,-22.64677,-17.341919,0.0,-16.946536,16.395537,36.027166,37.849483,55.420563,52.410477,66.446901,63.142205,75.153154,0.0,72.032146,31.817493,93.654728,22.534447,90.821629,12.243633,76.093311,2.339344,53.104191,0.0,5.957803,33.151882,55.826757,50.331155,66.350571,61.339525,74.698177,67.426448,77.121572,-17.590799,270.758822,-50.724363,269.32578
101,5.910587,4.464123,0.489693,0.989921,0.0,15.717716,2.961216,52.982655,-6.03899,43.808384,-16.842613,27.30978,-25.863934,-17.215576,0.0,-14.916368,15.850034,35.569411,35.697357,51.347382,49.462698,61.13723,59.890366,68.424582,0.0,72.852802,30.598526,93.528042,21.480045,91.558285,11.717548,76.036663,2.562447,53.877926,0.0,3.969069,32.503441,53.956337,49.880377,66.00872,61.177306,73.61458,67.610835,75.594546,-11.349363,275.432989,-49.903822,270.525745
102,-5.613441,-1.73142,0.133896,-0.346482,0.0,26.11948,8.44265,60.513554,-1.088562,49.643841,-12.226295,33.40765,-22.173729,-6.181126,0.0,-16.159712,13.971833,33.339665,34.929429,50.440083,50.071865,61.213739,61.369041,68.420074,0.0,72.171307,30.983334,92.544422,21.732216,90.07719,11.664619,74.939404,1.929302,52.679958,0.0,4.61819,32.801325,53.77831,49.855183,64.987801,60.873988,73.448472,67.202788,75.572748,-16.704226,273.982286,-49.511347,270.459981
103,0.496731,0.781328,-0.050755,0.037112,0.0,22.05883,6.168079,59.748116,-2.954063,49.736595,-13.569088,32.830467,-22.852192,-4.948139,0.0,-14.953295,14.938968,35.334635,35.128204,50.755195,49.369763,60.50682,59.966937,66.879278,0.0,72.580376,30.720234,93.393288,21.640491,90.862427,11.71669,75.190544,2.323952,53.258171,0.0,4.764106,32.627003,54.16919,49.9877,66.085723,61.291483,73.715604,67.765828,76.251323,-15.933352,274.906736,-49.287958,270.640215
104,0.025635,0.052179,-0.330563,0.272999,0.0,25.907478,4.998665,59.522552,-4.719887,51.053925,-15.490265,33.609924,-25.317307,-2.218895,0.0,-15.365417,13.691301,33.32645,33.889923,50.5705,48.678035,60.7361,60.030231,67.235886,0.0,72.466221,30.929089,92.568111,21.624355,89.757099,11.629601,75.207081,2.119503,53.380108,0.0,4.02446,32.730806,53.773309,49.944845,64.201842,61.193794,72.69876,67.725938,75.287152,-15.550547,275.05875,-49.261351,271.013049
105,5.929356,1.057846,0.202332,-0.116214,0.0,13.327503,-0.712566,51.691418,-10.129623,43.315945,-20.208836,27.456264,-29.197311,-14.864159,0.0,-16.583938,15.552706,34.146372,35.020696,48.526191,48.634933,58.677341,58.950463,65.435738,0.0,72.032146,30.882626,92.140331,21.688671,89.830914,11.621189,74.599171,1.913795,51.578465,0.0,4.212119,33.43828,54.113924,50.511281,65.120749,61.57078,73.317252,67.884513,76.093983,-9.160023,276.229245,-48.597851,271.009483
106,-0.59618,-1.925563,-0.86792,0.100653,0.0,18.856201,1.699505,49.792671,-7.268715,41.852875,-18.113251,26.697121,-28.045692,-27.403507,0.0,-17.038791,15.307433,36.714757,34.860886,51.555172,48.349214,61.697986,59.036358,73.623349,0.0,72.235279,31.25267,92.647533,21.815357,90.019627,11.725101,75.210514,1.960831,52.551327,0.0,4.239042,33.085068,53.167722,50.184498,64.482621,61.217691,73.515718,67.476219,75.652961,-9.146404,274.3604,-48.855972,271.166853
107,3.665257,0.214212,-0.379372,-0.209951,0.0,11.326046,-2.123508,44.530849,-11.42807,38.832035,-22.406845,26.40913,-32.129402,-27.461128,0.0,-13.373842,17.626964,38.868797,36.136403,52.080668,48.674392,60.880349,58.827209,72.601441,0.0,72.141094,30.958843,91.867619,21.66584,89.623547,11.628342,74.727459,2.077045,52.430477,0.0,5.099411,33.272295,53.690563,50.764149,64.703934,62.033846,73.350721,68.382468,75.481172,-4.715252,274.624027,-48.469448,271.006318
108,-1.19545,0.172778,-0.823288,0.174321,0.0,11.922741,-3.148155,44.664631,-12.018929,40.335217,-22.475052,28.879108,-31.920033,-30.315342,0.0,-13.154011,16.161503,38.26636,34.95839,52.133773,47.793584,60.585367,58.42929,72.966448,0.0,71.731739,30.540905,92.138615,20.984573,88.843975,11.020203,74.193249,1.422558,51.163502,0.0,4.235646,32.327576,52.467596,49.757617,64.06525,60.945742,73.079451,67.195563,74.837239,-5.204115,274.805126,-48.586149,271.18896
109,2.892895,3.541818,-0.33268,-0.653505,0.0,3.25161,-8.682175,43.624077,-15.664043,43.441429,-23.622036,32.449837,-30.849323,-29.753437,0.0,-10.698506,14.823989,32.502021,32.876846,46.346586,45.443672,54.921372,55.913022,70.897068,0.0,72.142925,29.773636,92.161274,20.677414,90.455532,10.955601,75.572033,2.023888,53.427715,0.0,5.426009,32.28009,53.950347,50.217596,66.247324,61.884349,74.298096,68.317939,75.925837,-1.612158,278.249718,-48.219767,270.43823
110,-3.979797,-3.397384,-0.756111,0.0268,0.0,10.141869,-5.865669,47.591515,-13.455505,43.808212,-22.038174,28.161163,-29.694672,-32.112751,0.0,-12.624501,17.32272,38.023681,35.830491,51.017141,48.468207,60.654589,58.569401,73.910797,0.0,72.237797,30.110321,92.166538,20.837059,89.930248,11.048985,75.083599,1.883926,52.529926,0.0,5.393219,32.86499,53.345502,50.42903,65.411285,61.705272,74.005337,67.944164,76.10411,-4.79599,274.795369,-48.179913,270.408064
111,-10.651474,-2.615686,-0.47636,-0.020378,0.0,25.294647,2.149143,57.025566,-5.438404,52.691345,-14.944324,38.46199,-23.388863,-17.7705,0.0,-13.580583,17.864209,39.131607,37.230497,53.91342,50.411554,63.223962,60.781857,75.164269,0.0,71.955299,30.037365,91.853142,20.768051,89.503326,10.988846,74.557915,1.82951,51.806602,0.0,5.559081,32.530735,53.174824,50.358819,65.644825,61.772519,74.34694,68.00826,76.385013,-14.635534,272.124278,-47.844343,270.332281
112,-2.752876,-1.01882,-0.741234,0.144619,0.0,24.658699,5.656185,58.815536,-2.593632,54.945259,-12.486076,41.266708,-20.835857,-5.245914,0.0,-7.250178,18.358953,40.009636,37.850224,55.941365,51.15892,65.504837,61.401522,75.618011,0.0,72.034492,29.547787,92.120132,20.308399,89.821014,10.670872,74.90387,1.696415,52.092361,0.0,5.520672,32.004745,52.920782,49.819183,65.250796,61.34218,73.834968,67.732607,75.970729,-16.503868,271.03974,-47.701035,270.411183
113,0.573292,1.165107,-0.14677,-0.652393,0.0,27.394009,4.24181,58.856907,-4.35648,54.203968,-14.27536,37.659702,-22.623539,-15.537529,0.0,-12.811605,16.649331,37.654413,36.56847,53.476845,50.060688,64.064076,60.497249,75.274493,0.0,71.7766,29.273815,91.591015,20.159912,89.63007,10.62973,74.479923,1.743393,51.394558,0.0,6.024308,31.890815,53.749967,49.859197,65.644393,61.653155,73.749505,68.247173,75.905768,-14.951878,272.181166,-46.869106,269.735108
114,5.232754,0.938236,-0.702267,0.045325,0.0,14.6521,-1.013317,50.694351,-9.759407,47.27726,-19.626846,32.068176,-27.996025,-22.024326,0.0,-12.626292,16.792716,39.152972,35.991783,52.442772,48.938992,62.173341,59.016474,73.726225,0.0,71.671371,29.480267,91.603203,20.104523,89.615364,10.355644,74.171333,1.27327,50.420837,0.0,5.989296,31.563414,53.576325,49.521484,65.586718,61.427581,73.648605,68.120276,75.889095,-9.107866,273.145568,-46.960115,269.8066
115,3.490162,-1.048398,-0.577412,0.065085,0.0,6.008663,-5.524864,44.307461,-13.664703,41.226139,-22.987404,27.336102,-30.981674,-27.268925,0.0,-12.04133,18.232612,42.325153,36.993931,53.227064,49.780156,62.508398,59.629285,74.220784,0.0,71.308193,29.346371,91.476002,20.131931,89.36182,10.502357,74.308605,1.47543,50.769367,0.0,5.877157,31.656596,53.807333,49.695744,65.967471,61.582327,74.230726,68.253101,76.611451,-5.146065,272.110724,-47.065887,269.885239
116,-6.747665,0.693889,-0.756168,0.053599,0.0,14.384251,1.935196,52.071476,-5.65773,48.815746,-15.870838,35.998821,-25.057755,-22.789593,0.0,-14.57847,17.596891,39.51236,36.646523,53.005751,49.875067,61.154706,60.608029,74.50391,0.0,71.606712,28.858452,91.495628,19.787064,88.996239,10.534687,74.180832,1.920776,51.579094,0.0,6.060679,31.553164,53.62449,49.439356,65.70392,61.202254,73.860409,67.838941,75.992836,-11.461287,272.826041,-47.389612,269.960266
117,-1.052055,0.604043,-0.202675,0.054217,0.0,15.75285,0.974751,54.72147,-7.833023,52.433681,-18.243084,39.323788,-27.746716,-14.588184,0.0,-13.668145,16.151685,39.545581,35.273997,52.995686,48.677418,61.039109,59.53913,73.201594,0.0,70.942383,29.201832,91.171417,20.09016,88.832016,10.523186,74.142151,1.562347,51.605072,0.0,6.065928,31.393971,54.186728,49.227922,66.083006,61.105676,73.843304,67.960219,76.234836,-12.189932,273.430963,-47.268877,270.015363
118,3.351345,-0.117449,-0.260983,-0.224833,0.0,11.785412,-2.517586,50.296211,-10.998173,48.634987,-21.064167,35.226288,-30.252228,-12.388802,0.0,-11.667432,16.482358,39.990864,35.430657,52.676745,48.931088,61.212319,59.801507,72.1971,0.0,71.139164,29.140549,91.257992,19.927826,88.991604,10.476608,74.510365,1.570015,51.567135,0.0,6.458352,30.866314,54.203153,48.991295,65.769623,61.086966,73.698005,68.030491,75.828209,-8.621063,273.351614,-47.312336,269.828629
119,1.285629,0.268244,0.192833,0.387484,0.0,10.805054,-4.508171,49.560699,-12.746716,46.856461,-22.588463,33.821297,-31.451855,-17.283497,0.0,-11.216221,16.068445,39.564662,34.803335,52.555652,48.161493,61.528049,58.928912,72.954468,0.0,70.829029,28.224277,90.663128,19.013615,88.604565,9.752655,74.636593,1.342278,53.334904,0.0,5.9993,30.575284,54.164003,48.930162,65.209238,61.057943,73.244325,67.799297,75.371133,-7.194529,273.648078,-46.978598,270.244333
120,-2.311592,0.032542,-0.406494,0.021366,0.0,10.229244,-0.318375,50.608635,-8.498497,47.30484,-18.279648,33.454857,-27.21468,-20.652008,0.0,-10.565187,17.925033,41.543886,36.134921,53.16093,48.802586,61.382133,58.961146,73.786741,0.0,70.497723,28.29071,91.71381,18.963833,89.552364,9.519196,74.844646,0.726929,50.750599,0.0,5.850234,30.418747,53.382922,48.443569,66.190143,60.433646,74.146807,67.162342,76.303626,-9.375286,273.704301,-47.254257,270.28938
