takenoko1/special-research/HandMotion_SimilarSearch_自分用/NewProject/handData/test_key/d4_feature_d2/111.csv
frame,vel_0x_L,vel_0y_L,vel_0x_R,vel_0y_R,posFromWrist_0x_L,posFromWrist_1x_L,posFromWrist_2x_L,posFromWrist_3x_L,posFromWrist_4x_L,posFromWrist_5x_L,posFromWrist_6x_L,posFromWrist_7x_L,posFromWrist_8x_L,posFromWrist_9x_L,posFromWrist_0y_L,posFromWrist_1y_L,posFromWrist_2y_L,posFromWrist_3y_L,posFromWrist_4y_L,posFromWrist_5y_L,posFromWrist_6y_L,posFromWrist_7y_L,posFromWrist_8y_L,posFromWrist_9y_L,posFromWrist_0x_R,posFromWrist_1x_R,posFromWrist_2x_R,posFromWrist_3x_R,posFromWrist_4x_R,posFromWrist_5x_R,posFromWrist_6x_R,posFromWrist_7x_R,posFromWrist_8x_R,posFromWrist_9x_R,posFromWrist_0y_R,posFromWrist_1y_R,posFromWrist_2y_R,posFromWrist_3y_R,posFromWrist_4y_R,posFromWrist_5y_R,posFromWrist_6y_R,posFromWrist_7y_R,posFromWrist_8y_R,posFromWrist_9y_R,posFromBody_0x_L,posFromBody_0y_L,posFromBody_0x_R,posFromBody_0y_R
2,-4.106712,1.915251,-0.280895,0.827826,0.0,1.702652,-12.349434,40.575943,-19.543133,44.280624,-23.367348,33.826675,-25.115891,13.572807,0.0,-24.351892,4.236325,21.140439,19.583587,35.099119,31.72341,41.371109,41.284658,43.996551,0.0,65.752029,29.864445,93.548012,21.805744,94.082565,13.595467,80.608978,6.210651,61.241684,0.0,4.362852,31.47437,52.503597,49.160553,67.301589,60.818475,76.128872,67.408911,77.642251,0.709705,299.451614,-49.356594,271.228712
3,-6.600494,-0.251015,-0.173607,-0.00352,0.0,2.938385,-8.441448,48.184204,-12.830372,50.398293,-14.84333,42.131882,-14.374523,23.689041,0.0,-23.457314,4.930153,19.17869,20.360655,35.337476,32.245262,40.305235,41.330168,43.591283,0.0,65.830879,28.915157,93.562775,20.859318,94.067917,12.851543,81.005173,5.624657,61.094513,0.0,3.349775,31.968929,51.976557,49.747676,66.834817,61.157299,76.43466,67.25225,78.537076,-5.828075,299.216592,-49.467487,271.241186
4,11.724129,1.12781,0.263844,0.047054,0.0,-4.998665,-19.492207,33.377609,-27.016182,36.510315,-29.308662,28.206596,-29.232101,9.500999,0.0,-26.462213,4.639,20.057028,19.919324,32.971262,32.007647,40.139991,41.325907,43.006198,0.0,66.141186,29.611874,93.570156,21.555691,94.2663,13.473015,81.348209,6.178379,62.204762,0.0,3.514772,32.144733,52.222879,49.898841,66.377617,61.452652,75.605784,67.876176,77.398028,6.002483,300.357678,-49.097214,271.301516
5,-14.395638,-0.001853,-0.119419,-0.349075,0.0,7.138023,-5.569553,49.381943,-10.042706,54.153328,-12.141552,45.599213,-12.216511,26.615295,0.0,-26.042434,5.63102,19.344799,20.827302,34.167491,32.500724,39.471296,41.082673,43.881325,0.0,65.984344,29.333782,94.097786,20.868244,93.972473,12.551594,80.84919,5.148811,60.874786,0.0,3.876753,32.186723,52.291052,49.861482,66.499698,61.17638,76.30449,67.174692,78.167438,-8.372154,300.368392,-49.195633,270.965007
6,8.813553,1.479416,0.386009,0.472823,0.0,5.431252,-11.928864,41.504745,-19.406776,45.456505,-22.338753,35.782471,-23.062706,17.968941,0.0,-31.526549,4.128941,21.101536,19.74914,32.402973,31.901621,38.553684,41.510973,41.346841,0.0,65.268059,29.769115,93.911133,21.40892,93.91777,12.910252,80.51239,5.199051,60.889206,0.0,3.47204,31.794855,52.215346,49.373777,65.964631,60.793713,75.841177,67.092687,77.553454,0.459909,301.857225,-48.791113,271.447247
7,7.869644,-7.48273,0.409641,-0.384705,0.0,-2.568169,-21.597576,33.950043,-28.708076,36.649361,-30.99884,29.19136,-30.058537,11.842461,0.0,-18.078606,6.178499,24.165036,22.372051,39.021629,35.341613,44.277392,45.335732,48.273076,0.0,64.894581,29.566956,93.213787,21.058388,93.296185,12.467365,79.939098,4.82626,60.207424,0.0,4.10844,32.227602,52.681191,50.044325,66.573551,61.495321,76.11362,67.671165,77.785512,8.355503,294.396031,-48.355522,271.084077
8,6.002426,-14.568836,-0.019455,-0.111027,0.0,-19.220009,-31.729889,25.9869,-40.108337,31.138573,-45.336056,18.941345,-48.863182,0.50972,0.0,-8.029344,13.018963,37.336522,32.494425,51.277974,47.376954,59.714439,60.016954,63.36957,0.0,64.926853,29.538803,93.638363,21.17054,93.052883,12.862701,80.439091,5.556564,61.363392,0.0,4.218356,32.273668,52.34391,50.090946,66.145868,61.606842,76.061317,67.825479,77.833307,14.399872,279.85262,-48.333035,270.998476
9,-11.071129,14.653496,-0.261612,0.269973,0.0,3.660736,-20.044041,35.754204,-27.684402,44.944725,-29.955597,34.929657,-28.74424,16.797523,0.0,-20.68151,8.417446,26.415097,25.332427,37.649597,38.250613,45.805344,48.662227,48.180512,0.0,64.909801,29.486446,93.997135,21.14027,93.54681,12.776871,80.464382,5.285854,61.088963,0.0,4.028782,31.94213,51.995329,49.572737,66.478456,61.052632,76.120412,67.465042,78.055361,3.347454,294.508339,-48.575935,271.270671
10,-1.512451,1.238158,0.38435,0.175495,0.0,0.348015,-16.772518,38.938751,-22.703762,45.075417,-24.671745,36.045456,-24.038773,17.726555,0.0,-21.974996,8.797334,27.772804,25.278581,39.669391,37.442054,45.124484,46.53332,48.428625,0.0,64.295311,29.51849,93.497429,21.357651,93.265228,13.120823,80.129929,5.714664,61.157684,0.0,3.761773,31.75836,52.188916,49.392055,66.264058,61.014779,75.686615,67.624605,77.616625,1.849909,295.779487,-48.17668,271.479156
11,-3.514023,3.17039,0.492268,-0.294549,0.0,9.209518,-11.341324,42.833748,-17.707329,48.351173,-20.243912,38.669815,-20.696354,21.492577,0.0,-27.20822,7.339777,24.440813,22.890816,35.562186,34.769496,40.596141,43.975432,43.401092,0.0,63.639965,28.792076,92.841511,20.588264,92.556553,12.461357,79.507427,5.208607,60.399342,0.0,4.209093,31.684013,52.145321,49.241137,66.546319,60.856637,75.88891,67.469735,78.176269,-1.632929,298.976923,-47.653227,271.211653
12,6.618118,-3.897563,0.029125,0.364574,0.0,-5.979538,-21.871433,33.794975,-27.908134,39.431763,-29.003963,32.342491,-27.407112,15.305443,0.0,-19.176282,8.760222,25.364043,24.62131,37.766799,36.904207,44.711436,46.53264,47.917455,0.0,63.564491,28.547802,92.80735,20.572758,92.604675,12.758789,79.818535,5.87328,61.512451,0.0,4.002909,30.882369,51.870902,48.673959,66.095047,60.631124,75.553235,67.647391,77.688687,5.014257,295.125149,-47.595034,271.622016
13,-2.771187,3.461111,-0.239868,0.029146,0.0,-1.094284,-17.296371,37.74765,-23.528366,42.645264,-25.120926,34.071808,-24.456997,17.349243,0.0,-26.955043,7.948143,24.440566,23.481459,35.193968,35.137837,40.698153,44.013409,44.265906,0.0,64.136238,27.993507,93.065071,19.91169,92.842598,12.211819,80.346336,5.544548,61.811371,0.0,4.063054,30.235039,52.161129,48.408988,67.016425,60.616674,75.650924,67.651775,77.919757,2.257032,298.609462,-47.82094,271.674365
14,0.860023,-0.942682,0.344124,0.10794,0.0,-2.857361,-19.928226,35.753403,-25.515289,41.413078,-26.422062,34.709129,-25.00145,17.105255,0.0,-25.13637,8.469131,23.945328,23.95212,35.900825,35.457828,42.108038,43.966787,46.183442,0.0,63.930588,27.929707,93.094482,19.73774,92.462997,11.902142,79.848747,5.059719,61.306,0.0,3.969502,29.615004,51.873125,47.848356,66.978017,60.235798,75.472589,67.512281,78.034366,3.137054,297.716844,-47.456818,271.832369
15,-3.850021,-0.26281,0.021572,0.10936,0.0,0.435104,-16.250439,39.752083,-21.385803,46.102409,-22.176704,38.021507,-20.874195,21.740913,0.0,-25.065851,9.07447,23.964223,24.513123,35.516676,36.146098,41.321214,44.850189,45.593478,0.0,63.972759,27.187386,92.838993,19.12405,92.770214,11.659756,80.545635,5.389309,62.561131,0.0,3.876691,29.85725,52.061711,48.260973,66.15476,60.72023,75.121537,67.830172,77.986571,-0.69972,297.495886,-47.421999,271.98358
16,1.167412,0.590519,-0.157471,-0.195934,0.0,0.330963,-16.51371,38.566246,-22.297955,44.673615,-23.674107,36.212883,-22.854824,20.254784,0.0,-25.80278,8.70792,24.459215,24.340963,35.927872,35.996106,41.546603,44.801776,45.150543,0.0,64.70747,27.705059,93.034,19.508629,92.634945,11.798458,80.499287,5.132847,62.243443,0.0,3.778075,29.681879,51.929318,48.125925,66.290488,60.674658,75.662842,67.942249,78.527381,0.500135,298.150394,-47.547026,271.851635
17,-3.605404,-0.180249,0.493698,0.026923,0.0,5.452595,-12.193565,42.795925,-16.951904,48.206463,-18.29155,40.543041,-18.053398,24.429874,0.0,-25.730285,9.255152,23.653557,25.036952,35.822278,36.554947,41.115092,45.021917,45.111393,0.0,63.621883,26.892071,92.301006,19.00795,92.445202,11.588001,80.412197,5.118885,61.957798,0.0,3.700146,30.154393,51.632298,48.430601,65.850825,60.791428,75.348779,67.859565,78.629702,-3.091278,298.006994,-47.039337,271.915407
18,0.177383,3.09561,-0.468292,-0.091946,0.0,9.339581,-9.549179,44.716358,-16.458893,49.836216,-19.407635,39.423466,-20.267086,21.92522,0.0,-31.357044,5.41619,22.682223,20.715287,34.194476,32.686346,39.138276,42.2337,42.259574,0.0,64.471607,27.988815,92.847347,20.032253,92.828465,12.497349,80.859661,5.903549,62.601757,0.0,3.126115,30.140067,51.932467,48.33637,66.387497,60.659035,75.70088,67.878955,78.337931,-2.893267,301.122766,-47.487001,271.843623
19,-0.901337,-12.369102,0.645275,0.167344,0.0,10.040989,-9.134445,48.346882,-15.24004,50.510502,-17.993088,43.616695,-18.561287,25.736561,0.0,-13.0633,11.733875,31.722236,28.153742,45.626638,40.342656,50.748773,49.29875,53.552674,0.0,64.295425,26.965942,92.033386,18.974018,92.128143,11.445694,80.223083,5.060406,61.987381,0.0,2.481873,30.251897,51.704484,48.599612,66.102952,60.947163,75.193353,68.004123,77.984534,-3.775692,288.783829,-46.822815,272.041131
20,20.472851,-10.501399,-0.60276,-0.778981,0.0,-21.022968,-34.676514,23.81218,-42.992191,26.993523,-47.816277,17.512321,-50.9202,-0.425606,0.0,-7.820319,14.072672,38.057149,33.935309,53.070589,48.934546,62.09325,61.202501,65.965495,0.0,65.26371,27.173367,92.932892,19.085083,92.852554,11.646767,81.154289,5.390625,62.739029,0.0,3.164709,30.965238,52.4776,49.190872,66.423251,61.379786,76.121709,68.203207,79.160941,16.695099,278.29174,-47.427635,271.271459
21,-15.280724,15.999779,-0.075417,0.066443,0.0,6.300659,-17.677574,39.71981,-24.885521,47.894325,-26.865349,38.361282,-25.936317,20.719872,0.0,-20.889423,9.343023,26.073123,26.033665,38.909799,39.082762,45.200684,49.818133,48.869955,0.0,65.425301,27.888222,93.304482,19.760799,92.860909,12.040501,80.827217,5.586147,62.912521,0.0,3.100612,30.618633,52.718241,48.842106,66.40874,61.096846,75.839201,67.997084,78.801986,1.411314,294.304239,-47.506113,271.350623
22,-1.972389,2.811188,0.153465,0.313692,0.0,7.628403,-14.261913,42.249641,-20.233955,48.613472,-21.939411,40.264549,-21.227016,23.319626,0.0,-24.817367,9.301835,25.122846,25.09759,37.877332,36.695059,43.165329,45.735134,46.24865,0.0,64.940872,27.810974,93.049278,19.893494,92.959557,12.400875,81.06823,6.108799,63.169785,0.0,2.853116,30.49365,52.096353,48.813515,66.190946,61.112036,75.297588,68.187151,78.238883,-0.556984,297.11308,-47.348557,271.661968
23,5.618477,-0.16191,-0.060081,-0.44028,0.0,-4.662895,-18.580227,37.309227,-24.982853,41.673088,-26.708107,33.892708,-25.967274,17.227478,0.0,-23.246869,8.774857,27.035257,24.614085,38.743011,36.274662,43.310751,45.39421,46.034068,0.0,64.931602,27.971363,93.067589,19.951458,92.909546,12.299595,80.788994,5.786076,62.491379,0.0,3.065105,30.778073,52.383245,49.021059,66.745588,61.206329,75.747007,68.133182,78.787289,5.041037,296.935702,-47.429094,271.206219
24,0.291481,0.543218,-0.23632,0.285287,0.0,-2.571373,-18.811455,35.738297,-25.151653,40.784683,-26.860886,35.008163,-26.32267,17.367439,0.0,-23.071127,7.373431,24.936792,23.045007,37.69134,34.777894,43.911644,43.83989,47.272657,0.0,65.03643,28.311939,93.581543,20.436172,93.645172,12.91214,81.865997,6.48262,63.73661,0.0,3.217196,30.518844,52.195524,48.730832,66.149141,61.006999,75.4243,68.0668,78.461247,5.247059,297.433256,-47.750874,271.445842
25,-8.27219,1.891477,0.96817,0.74718,0.0,8.532543,-14.051628,43.575611,-18.733635,54.251118,-19.168968,47.885571,-17.5387,29.128933,0.0,-26.602448,6.667068,21.169091,22.977514,36.262868,35.27165,42.661878,44.792452,47.079564,0.0,63.41938,25.127506,93.912735,17.49321,94.05407,10.669098,83.75885,4.931946,64.939499,0.0,2.192016,30.998522,50.747353,49.333083,65.90288,61.379663,77.438289,67.875127,80.830116,-3.185177,299.179465,-46.942749,272.047754
26,-16.286488,-0.178459,0.659866,-0.411813,0.0,33.016434,8.871231,72.473831,2.371731,73.547516,-3.591957,60.460396,-8.464622,37.719383,0.0,-27.797195,6.129408,24.509171,21.815865,47.099447,35.063242,55.353193,45.488503,59.591247,0.0,62.419624,27.904072,94.488716,20.133991,93.656731,12.237396,81.113548,4.20702,61.841354,0.0,2.067651,30.122407,53.609114,48.18502,73.649099,60.693307,91.384496,68.567719,92.220227,-19.733591,298.898485,-46.544809,271.533419
27,-3.315697,-23.256317,0.671597,-1.73778,0.0,33.140717,7.065411,69.470558,0.293484,66.858902,-6.326466,58.474388,-13.686676,42.916718,0.0,-2.568323,14.54179,39.86761,34.406218,61.7493,49.995789,76.58496,62.336979,82.379743,0.0,60.869579,27.286434,89.717846,18.46796,86.468067,9.389534,69.495335,0.267506,47.649822,0.0,2.125449,28.802059,54.446203,47.434567,80.180008,60.102232,98.08701,67.616886,92.131429,-23.462133,275.446682,-46.286058,269.600153
28,13.10955,6.390612,0.277634,-5.826954,0.0,9.109955,-8.448086,38.217659,-20.060635,35.045357,-30.276661,24.403839,-39.134617,3.152905,0.0,-0.463993,4.231385,45.00018,21.511003,66.173656,36.494246,68.536659,49.117698,67.994861,0.0,62.005062,25.49509,81.677341,14.30872,71.357288,1.964893,55.803165,-10.121384,27.453003,0.0,8.24862,23.468553,50.922292,40.787382,79.933562,53.519267,89.663327,61.405845,84.715328,-10.77467,281.523941,-46.430511,263.459846
29,15.332909,47.495391,0.631084,-7.568439,0.0,-59.976082,-16.478004,-59.595852,-11.777,-48.521061,-7.900772,-38.873978,-4.412842,-30.864372,0.0,0.964171,0.897666,-17.98314,-9.804422,-35.958623,-21.437891,-43.415912,-33.049438,-48.548112,0.0,59.359131,8.127193,48.907127,-1.114998,40.895004,-7.047157,25.761223,-9.854794,13.844604,0.0,26.307281,18.870617,52.979816,38.772404,70.22016,53.687784,75.965851,64.318612,76.313938,4.115725,328.763176,-46.241941,255.635251
30,18.015747,-47.638776,-0.60339,22.501109,0.0,-53.742828,-24.836426,-84.316292,-20.854568,-86.900597,-15.767784,-78.661537,-10.472603,-61.360073,0.0,3.201018,14.52592,32.119106,32.683814,45.005121,46.442979,57.252141,54.688203,64.406668,0.0,13.67403,29.458008,-1.225433,30.318661,-9.564056,27.241402,-11.480026,21.958809,-1.446247,0.0,33.62736,19.728639,48.810922,19.370734,47.525278,17.976903,42.300514,14.757916,41.011227,21.868458,281.111464,-47.108345,278.123423
31,4.29451,-5.052172,-29.493256,-92.32335,0.0,-56.196156,-27.52533,-86.848984,-24.360466,-90.151348,-18.907814,-80.938969,-12.36557,-62.668133,0.0,10.163006,19.046421,35.466349,37.580189,48.29086,51.233514,62.305054,60.02949,68.279654,0.0,52.290173,19.291248,48.21167,13.319435,26.62302,7.965317,19.469547,3.709774,19.696999,0.0,-2.243392,-9.301032,7.019972,2.667988,18.467263,17.959984,31.257812,35.317963,43.68255,24.202509,277.204114,-78.562059,186.944895
32,1.461639,-2.9492,-12.229156,-12.256531,0.0,-58.684387,-27.497406,-87.990131,-24.382553,-92.44297,-19.590454,-84.938393,-13.911896,-68.780823,0.0,12.780051,21.441534,38.164101,40.801461,50.52888,54.907478,63.165917,64.386599,69.72696,0.0,20.65321,15.690536,48.663597,1.238136,22.98214,-14.112968,-0.949802,-28.411102,-16.129818,0.0,-11.210787,-36.055448,-53.662652,-38.501691,-46.391232,-35.689947,-23.451324,-29.092595,-16.500142,24.706535,274.852134,-91.748829,175.285584
33,0.148201,-2.121991,-10.392323,-44.900268,0.0,-59.513454,-29.244919,-88.968544,-25.525131,-92.989883,-19.853325,-85.131283,-12.890053,-68.280602,0.0,14.993679,23.437678,39.747752,42.122056,52.705026,55.765933,65.1804,65.245794,71.74873,0.0,5.505924,15.165768,46.290607,-2.940674,2.61961,-21.209736,-12.485504,-36.79184,-24.475708,0.0,-40.10291,-51.666384,-82.159973,-56.99526,-109.181799,-52.703019,-40.342656,-43.177895,-29.028004,23.283348,274.62466,-103.71254,132.279834
34,0.807152,-1.847202,-12.212563,-47.072061,0.0,-61.004219,-29.245262,-90.661583,-25.089111,-94.343605,-19.224014,-86.042233,-12.339706,-68.762684,0.0,15.895482,24.567216,41.821455,43.493038,54.649917,57.179461,67.080399,66.451718,74.083637,0.0,-17.367096,13.831329,45.772018,-4.691391,1.091366,-21.471577,-33.845787,-33.402672,-20.092793,0.0,-23.479822,-50.253906,-96.942188,-56.651433,-123.599038,-50.754362,-91.937996,-39.347455,-24.723229,21.474037,273.341579,-118.541565,85.771893
35,0.531464,-1.286261,-7.264137,-50.856312,0.0,-61.836262,-30.303612,-91.380615,-25.701256,-95.236244,-19.226189,-85.537319,-11.847382,-67.094593,0.0,17.874583,25.39072,44.273687,44.021128,56.874476,57.378915,69.202452,65.904671,75.159946,0.0,-20.822182,13.631573,48.759785,-3.823757,4.976749,-20.172787,-38.765717,-32.987251,-23.680115,0.0,-31.389556,-49.252777,-93.554437,-57.533291,-126.605635,-53.693681,-97.330598,-43.983028,-30.600046,18.310118,274.805049,-129.501085,37.665312
36,0.26413,-0.141841,2.408066,-41.440022,0.0,-62.024002,-31.398811,-91.887932,-26.876793,-95.914364,-20.229836,-86.992207,-12.793465,-68.557491,0.0,17.527916,24.823542,42.499845,43.552566,55.444151,57.102767,67.891552,65.790741,73.822803,0.0,-27.297478,6.812897,37.22374,-10.981007,-7.066441,-25.770893,-48.936882,-35.730858,-23.150253,0.0,-41.450767,-53.207242,-105.8876,-58.642421,-136.03784,-51.643753,-106.063774,-38.618615,-24.864791,15.61017,275.11678,-130.057096,-3.321138
37,0.486145,-0.995725,-1.54707,-38.465258,0.0,-61.677189,-32.386551,-91.862068,-27.545357,-95.111275,-20.374031,-86.510296,-12.521782,-68.685436,0.0,18.132144,25.685084,42.698557,44.522973,55.67164,58.063357,68.98614,66.859271,74.807166,0.0,-28.884602,6.082935,34.616375,-12.182465,-9.29678,-26.827354,-57.183838,-37.146893,-21.49332,0.0,-47.869506,-55.471167,-110.466238,-60.799857,-138.809847,-53.579103,-117.121713,-39.802648,-25.059892,14.453773,274.011047,-133.246708,-41.896404
38,0.433846,-0.212915,0.835304,-31.774724,0.0,-62.210999,-33.271637,-92.613316,-28.159904,-95.200653,-20.798149,-85.815182,-12.801247,-67.499714,0.0,19.009185,25.927269,43.365894,44.697912,56.810256,58.184634,69.549798,66.989379,75.109064,0.0,-33.822384,5.248032,31.759357,-13.968201,-12.21056,-29.594421,-61.297359,-40.494232,-24.079456,0.0,-50.073255,-60.757651,-118.089049,-66.174304,-142.329605,-58.498882,-120.86828,-43.881973,-25.103395,13.574038,274.328614,-133.724985,-73.140646
39,1.106186,-0.275222,-3.576679,-30.791287,0.0,-62.495384,-33.872452,-93.679276,-28.615265,-96.173172,-21.206131,-86.379318,-13.295403,-67.997131,0.0,19.063031,25.865951,43.654948,44.575585,57.262763,57.978326,69.5661,66.693162,74.876388,0.0,-32.663498,6.043282,34.338398,-13.259411,-7.19965,-29.078407,-63.0443,-39.621563,-25.57869,0.0,-51.685265,-60.604201,-116.148882,-66.36326,-140.999424,-58.928619,-122.970959,-44.712022,-22.852778,14.003763,274.348296,-137.978125,-103.637029
40,1.013031,-0.215385,1.495686,-19.770969,0.0,-62.603359,-34.441795,-94.362774,-29.367714,-96.808205,-22.042236,-86.705303,-14.111481,-67.507095,0.0,19.710114,26.251829,43.028058,44.907431,56.512927,58.129738,69.04542,66.55762,74.797224,0.0,-33.938942,5.264053,34.365749,-13.454475,-7.680817,-27.927246,-57.06871,-38.740082,-27.429543,0.0,-55.906492,-60.233173,-122.922964,-65.960092,-140.61475,-60.46199,-131.336426,-46.469176,-25.918223,14.039068,274.442775,-137.460165,-123.098134
41,0.721779,0.115288,-0.704212,-23.524823,0.0,-63.403702,-34.50325,-95.295181,-29.650955,-97.350082,-22.577019,-86.911068,-14.981346,-68.541412,0.0,19.008382,26.293572,42.255375,44.815176,55.563947,57.897372,68.609524,66.111535,73.862694,0.0,-34.229336,5.072021,34.214802,-13.563423,-4.419937,-29.157257,-59.956284,-40.252361,-25.744286,0.0,-54.18012,-58.423115,-119.790813,-63.447776,-142.604912,-56.02391,-130.152447,-41.239966,-23.906626,12.522669,274.17081,-140.402555,-147.010209
42,0.64991,-0.318138,-0.542164,-9.13815,0.0,-63.715782,-34.718857,-95.847301,-29.763451,-97.668114,-22.595901,-87.52573,-14.88842,-69.121456,0.0,18.688083,26.444984,42.110199,45.035069,55.424823,58.131591,68.384259,66.337294,73.724064,0.0,-37.544746,5.223141,33.381901,-13.245335,-4.222412,-28.137646,-59.325657,-39.912529,-32.862396,0.0,-52.244399,-61.319811,-125.740465,-67.189311,-146.005144,-61.171548,-134.817714,-46.107566,-28.501566,11.073503,273.659934,-143.043795,-156.341098
43,0.372391,-0.034457,0.242157,-8.618428,0.0,-64.409981,-35.022469,-96.255798,-30.138359,-97.931957,-23.182182,-87.982292,-15.803261,-69.866753,0.0,18.020376,26.282766,41.414519,45.15468,54.209205,58.505551,67.799174,66.91781,73.880601,0.0,-36.679173,5.450935,29.951534,-14.283371,-7.927666,-30.091496,-62.626877,-42.443218,-33.949471,0.0,-45.625388,-61.194952,-124.556849,-66.625869,-144.874942,-59.934163,-132.830894,-44.155589,-25.012128,10.328979,273.286761,-143.918552,-165.298242
44,0.856018,0.057428,-2.036877,-0.50941,0.0,-64.767494,-34.976234,-96.934433,-29.99485,-98.461246,-23.178635,-88.711109,-16.044273,-70.02491,0.0,18.138875,25.957218,41.978239,44.644066,54.704319,57.906819,67.690184,66.292155,73.048144,0.0,-36.795044,5.49036,29.877548,-14.579487,-8.115463,-30.399055,-62.155552,-41.679153,-30.937328,0.0,-47.280561,-60.638411,-126.916579,-65.506458,-146.042079,-58.513563,-132.983348,-43.266615,-28.22142,10.223808,272.928207,-146.916618,-166.223634
45,0.458908,-0.368588,-2.379169,2.957984,0.0,-65.581913,-35.342331,-97.294292,-30.413132,-98.927307,-23.667755,-89.562035,-16.574707,-71.06678,0.0,18.100837,25.751898,41.997443,44.636471,54.179997,58.070767,67.250892,66.543417,73.177881,0.0,-36.558609,5.327053,29.039555,-13.809986,-7.904549,-29.083271,-62.331676,-40.136433,-31.616707,0.0,-42.010102,-58.866838,-124.177732,-62.874655,-144.306359,-55.481356,-129.246854,-40.266734,-25.940221,9.017,272.147481,-150.961504,-163.677788
46,-0.227966,-0.294179,-3.478203,12.124122,0.0,-65.396175,-34.943848,-96.353016,-30.062599,-98.368092,-23.225441,-89.001274,-16.23024,-71.018887,0.0,18.492087,25.559545,41.760507,44.304006,54.365124,57.770227,67.266515,66.330317,73.330096,0.0,-32.806377,6.643124,30.128117,-12.606411,-8.385143,-28.058224,-63.311977,-38.906364,-25.380077,0.0,-42.745688,-59.516637,-122.685093,-63.443732,-143.931534,-55.387047,-124.822453,-40.129617,-24.414353,6.666384,271.347103,-156.562357,-152.059865
47,0.633202,-0.125539,-3.827133,16.029959,0.0,-66.128082,-35.537338,-96.860619,-30.551605,-98.745289,-23.545647,-88.895073,-16.434059,-70.982151,0.0,19.233957,25.564547,42.428646,44.311602,55.076119,57.673959,67.76731,66.152722,73.725855,0.0,-34.15678,6.061993,31.337299,-13.743725,-8.888626,-29.276562,-67.167892,-39.434853,-27.22641,0.0,-33.040978,-54.583675,-112.282071,-58.812111,-138.409211,-51.142494,-116.862747,-37.459652,-25.644437,6.121187,271.262459,-161.567888,-135.989011
48,-0.111008,-0.256943,-7.718639,4.40512,0.0,-66.180897,-35.380898,-97.193298,-30.219955,-99.013596,-23.071175,-88.99704,-15.896301,-71.070328,0.0,19.21963,25.674216,42.187634,44.648512,54.911616,58.215818,67.756504,66.819442,73.696214,0.0,-22.83886,10.84322,38.11758,-7.604198,-2.699089,-24.660587,-57.342911,-36.000023,-19.455872,0.0,-4.22274,-37.896722,-84.689671,-40.959928,-108.659591,-33.709936,-77.308691,-23.251824,1.681217,4.158955,270.780713,-171.137753,-131.808694
49,0.334969,0.05749,1.155624,61.659485,0.0,-65.120831,-35.254898,-98.018303,-30.466347,-99.720325,-23.587646,-89.791775,-16.4851,-71.277351,0.0,18.089598,25.502673,41.348508,44.505066,54.661712,58.201184,67.890379,67.045633,74.777649,0.0,-24.47937,7.749252,28.941822,-9.822292,-12.489166,-24.322586,-40.418186,-35.409222,-62.976837,0.0,-29.665423,-51.502005,-104.430429,-58.746841,-133.620343,-57.477129,-52.31535,-51.819525,-100.438836,4.453726,270.779864,-170.022326,-70.207548
50,-0.382919,-0.030443,0.406036,41.162794,0.0,-64.834557,-34.71405,-97.46664,-29.964523,-99.821434,-23.16227,-89.614735,-16.055603,-71.146889,0.0,19.374068,25.671684,41.745687,44.724712,54.929153,58.215757,68.091562,66.631967,74.945055,0.0,-12.477894,6.159611,26.843891,-10.66246,-16.460896,-25.142326,-29.51231,-37.8582,-64.942932,0.0,-33.522446,-49.404436,-95.692607,-54.78478,-117.069719,-52.940512,-31.190473,-48.602298,-95.133673,4.136295,270.349926,-169.5508,-29.444248
51,-0.318375,0.135542,-3.334522,41.374659,0.0,-64.559212,-35.215416,-97.441521,-30.383148,-99.72456,-23.473434,-89.561634,-16.404648,-71.328793,0.0,19.358322,25.390843,41.588038,44.425408,54.693204,58.061936,67.944596,66.734164,74.792222,0.0,3.349342,9.227543,19.479961,-7.356033,-14.856606,-22.623425,-20.182571,-37.305508,-35.051994,0.0,-45.172989,-46.278352,-60.46764,-50.068623,-91.201314,-48.030644,-27.448984,-42.457793,-35.385857,3.617477,270.220883,-173.085766,11.665826
52,0.624847,-0.144434,-3.623829,42.40725,0.0,-65.789108,-35.406532,-97.989521,-30.644302,-99.79826,-23.741684,-89.704742,-16.688576,-71.248512,0.0,19.52511,25.499153,41.58316,44.555145,55.022396,58.127021,68.122066,66.697608,74.836374,0.0,5.385647,9.388676,17.075958,-4.674225,3.103638,-17.990398,-7.926006,-31.027622,-21.666527,0.0,-43.835969,-46.525663,-69.827891,-47.793429,-58.40002,-44.065434,-39.73145,-36.449724,-28.764886,4.283123,269.964666,-176.668797,53.961292
53,0.17395,0.076138,-19.757881,36.864811,0.0,-65.399952,-35.392914,-97.265167,-30.480766,-99.108467,-23.461533,-89.026451,-16.28849,-70.68861,0.0,19.780324,25.095861,41.884255,44.089485,54.861166,57.854825,67.937062,66.695014,74.865088,0.0,44.00156,32.921906,41.612034,26.471386,31.061783,16.124439,14.376469,3.704166,5.959682,0.0,-2.858643,-36.218099,1.904074,-46.113911,-1.123765,-48.229202,-1.668651,-44.547797,-6.056789,5.486069,270.150256,-195.397682,90.935556
54,0.897102,0.557112,10.230131,3.813829,0.0,-64.944534,-34.929543,-97.319069,-30.343437,-99.496479,-23.629417,-88.868237,-16.593819,-70.425396,0.0,19.575992,24.92543,41.75779,43.92313,54.77879,57.608874,68.052412,66.307531,74.619136,0.0,24.545861,22.717267,35.851422,12.552653,12.260428,-0.7586,-5.163145,-14.605751,-22.075195,0.0,30.348151,-11.298581,39.106042,-16.841375,36.151918,-17.9041,35.928072,-15.658608,30.779956,6.778822,271.460446,-184.771901,95.502462
55,1.171532,0.494991,10.230132,3.813829,0.0,-64.711876,-35.097427,-97.149639,-30.544624,-99.176159,-23.754616,-88.624592,-16.557655,-70.300713,0.0,18.769161,24.859172,40.956208,43.735038,55.223764,57.263627,68.168873,65.92332,74.270926,0.0,5.09016,12.512627,30.090809,-1.366081,-6.540928,-17.64164,-24.702759,-32.915668,-50.110073,0.0,63.554944,13.620937,76.30801,12.431161,73.4276,12.421003,73.524795,13.230582,67.616701,8.572111,272.005455,-173.920012,99.366308
56,-0.290794,-0.565696,11.880054,22.011675,0.0,-64.284725,-34.889259,-97.050304,-30.284843,-99.045582,-23.467941,-88.871155,-16.194992,-70.853806,0.0,19.326459,25.377196,41.789406,44.538287,55.73796,58.197726,68.503561,66.869151,74.900409,0.0,-10.620975,4.814873,22.795773,-9.994411,-9.559021,-26.844692,-26.663933,-42.291069,-66.246357,0.0,58.417557,16.421225,79.20256,19.640583,69.128536,22.394837,62.444178,24.238086,76.553159,8.91057,271.458393,-161.410704,121.396617
57,0.520248,0.116091,0.110493,7.242397,0.0,-63.88298,-34.639091,-96.848431,-29.740334,-99.3009,-22.740784,-88.536415,-15.439682,-69.25787,0.0,20.026523,25.285126,41.924763,44.39799,56.520523,58.028838,69.541523,66.635919,75.172111,0.0,-19.593945,2.373562,18.322735,-13.230057,-14.365768,-29.271355,-37.110672,-42.572765,-46.329975,0.0,61.249554,21.32075,78.505645,18.806891,74.998098,16.593756,76.455161,14.692523,58.518704,10.492458,271.545862,-160.238571,128.610393
58,0.166855,-0.139185,1.336155,2.357631,0.0,-64.213657,-35.626602,-97.33223,-30.625534,-99.489155,-23.553658,-89.286232,-16.14418,-70.49572,0.0,19.821326,25.885526,42.659716,44.874951,56.190096,58.344198,69.02319,66.96332,75.681367,0.0,-13.11327,2.128944,18.386192,-12.980404,-13.835278,-28.832417,-44.63007,-42.058125,-49.183903,0.0,58.038409,20.45291,80.331111,16.945239,78.513302,13.883407,81.491216,11.847249,62.448686,11.932898,271.397059,-157.628832,130.958406
59,-0.619011,0.00247,1.197395,1.680723,0.0,-64.471321,-35.230179,-96.635456,-30.298004,-99.193439,-23.238487,-89.120064,-15.897675,-70.308838,0.0,19.733394,25.252954,42.196527,44.237192,56.285501,57.782454,69.101737,66.402379,75.637277,0.0,-18.963089,0.229855,16.991787,-15.843773,-14.682941,-32.246647,-49.390697,-44.774094,-44.991646,0.0,54.227174,20.121001,79.94974,17.046139,77.870789,13.868957,82.028012,11.316566,57.023356,12.16238,271.459026,-155.582943,132.698625
60,-0.663643,-0.019081,-1.365395,-0.4974,0.0,-64.802341,-34.937782,-96.092606,-30.117874,-98.737564,-23.169365,-88.471413,-15.981903,-70.317879,0.0,20.079381,25.571587,42.410862,44.611709,56.127111,58.071755,69.200661,66.523657,75.709648,0.0,-15.317802,0.809498,19.957352,-14.653931,-12.471256,-30.868092,-50.253353,-43.775654,-48.127155,0.0,54.756313,21.388799,78.747954,18.025007,73.968163,15.13058,78.148049,12.471484,57.66556,12.271986,271.466405,-156.175089,132.227686
61,0.71125,-0.040508,-0.993233,-2.393075,0.0,-66.506252,-35.317383,-96.944504,-30.701752,-99.844093,-23.734474,-88.714085,-16.263657,-68.841076,0.0,18.533892,25.403193,43.062761,43.993155,57.237754,57.46339,70.055904,66.234542,76.024514,0.0,-15.55006,0.195522,20.871964,-16.605835,-14.599857,-32.856846,-44.987984,-44.955654,-40.675793,0.0,59.524248,16.845265,77.615945,12.926893,75.600535,11.015779,78.320765,10.601249,54.714138,13.486032,271.678363,-156.665525,130.087077
62,-1.138229,-0.51648,-6.908512,-4.320306,0.0,-66.217175,-34.872093,-96.033554,-29.999542,-98.655968,-22.878342,-86.791077,-15.305214,-67.097912,0.0,20.270375,25.791048,43.885709,44.653761,57.89027,58.186055,70.789376,66.701622,76.272256,0.0,3.560429,7.663822,26.683159,-8.531799,-4.757595,-24.960423,-26.215553,-39.4491,-57.090969,0.0,55.805268,16.230417,77.528383,18.595457,76.538771,22.006982,75.391695,24.712824,77.696283,12.675791,271.297147,-163.24605,125.902035
63,0.281639,-0.022107,-0.628452,-0.721615,0.0,-65.702591,-34.886055,-95.9622,-30.064201,-98.89492,-22.915192,-87.79026,-15.241013,-67.940083,0.0,19.892957,25.803151,43.718489,44.615043,57.722247,58.160614,70.42017,67.029084,76.880374,0.0,-15.207939,6.937523,28.60714,-6.889572,-7.943859,-21.538582,-24.643993,-34.572716,-41.192207,0.0,64.355847,15.95748,74.498785,14.983182,74.298713,16.438824,74.800868,18.533522,60.734124,13.406525,271.365026,-163.425407,125.270406
64,0.002174,0.005311,6.93449,-0.279297,0.0,-65.620708,-35.362358,-95.972557,-30.47184,-98.796902,-23.153687,-87.427483,-15.241585,-67.391224,0.0,19.823982,25.532313,43.613822,44.37681,57.734474,57.938436,70.771283,66.728051,77.079026,0.0,-22.842693,1.365337,20.737152,-14.874458,-15.120277,-31.740932,-44.293156,-45.107174,-41.96743,0.0,60.008309,16.014105,73.970139,10.865973,71.977392,8.293266,75.87903,7.257217,51.177445,13.792591,271.454518,-156.107025,125.07529
65,-0.188026,0.214521,0.324039,-0.376616,0.0,-65.4356,-35.034599,-95.698757,-30.060768,-98.701401,-22.777176,-87.359333,-14.975281,-67.134533,0.0,20.14212,25.361018,43.418876,44.331671,57.165506,57.995987,70.410969,66.794247,77.103108,0.0,-17.687874,0.376911,20.688343,-16.440067,-14.784622,-33.030853,-48.298244,-45.195007,-42.255249,0.0,56.182069,16.969322,74.665449,13.053234,72.190616,10.887462,74.53318,9.777622,51.806064,14.004135,271.663327,-155.383415,124.692962
66,-0.263214,-0.015993,-7.691231,-2.422222,0.0,-65.426617,-34.934464,-95.662308,-30.09201,-98.688011,-22.908783,-87.954884,-15.118332,-68.058643,0.0,19.92692,25.392449,43.560223,44.265412,56.902387,57.887244,70.156187,66.757753,76.914461,0.0,2.246418,7.741585,29.126244,-8.932629,-5.652008,-24.893932,-22.825813,-38.301716,-50.703793,0.0,55.378881,15.972362,74.481124,18.80121,75.655308,23.066866,72.139919,26.75244,76.702904,14.100866,271.599446,-162.714701,122.222853
67,0.274773,-0.014511,3.69873,0.065949,0.0,-65.137653,-35.133018,-96.241779,-30.196266,-99.170036,-22.853165,-88.100739,-14.934196,-67.980766,0.0,20.123101,25.651677,43.745412,44.354086,57.452583,57.810303,70.492109,66.536131,77.049694,0.0,-15.332279,6.104851,25.652905,-10.521412,-8.839703,-27.502041,-28.928032,-41.990547,-49.840279,0.0,61.909234,15.55956,74.609935,13.690252,75.898975,14.805464,76.56131,16.737017,65.688915,14.703369,271.438385,-158.68824,122.142253
68,-0.498276,-0.357473,3.032227,1.347456,0.0,-65.326653,-34.907684,-95.93668,-29.647751,-98.337593,-22.121544,-87.19923,-14.168358,-67.705593,0.0,21.01879,25.941595,43.761282,44.689761,58.066444,58.148387,70.842234,66.87267,77.229882,0.0,-18.324509,3.548527,22.925835,-13.29277,-9.811935,-30.78661,-38.447685,-44.707146,-41.879082,0.0,57.991541,15.130024,72.07224,10.619959,70.596159,9.141531,76.984547,9.540439,53.894772,14.60578,271.011165,-155.255327,123.419962
69,0.210571,0.260031,1.47543,0.545812,0.0,-65.248947,-35.185204,-96.810608,-29.928818,-98.728237,-22.508125,-87.877808,-14.653931,-68.442993,0.0,20.544486,25.891021,43.802408,44.800356,57.769548,58.392486,70.359654,67.289918,76.696914,0.0,-17.22084,3.008881,20.910358,-12.48642,-12.769547,-29.311409,-40.256882,-43.318348,-47.20253,0.0,56.59098,15.67596,72.319427,11.166142,72.470469,9.070395,76.298068,8.079609,56.860582,15.298405,271.072715,-153.297844,123.767292
70,-0.462112,-0.086451,0.884686,1.179618,0.0,-65.095882,-35.064812,-96.725349,-29.652672,-98.562813,-22.184143,-87.684631,-14.38076,-68.204727,0.0,20.34886,25.974138,43.84835,44.875012,58.192538,58.494683,70.581832,67.431265,76.725381,0.0,-18.888302,2.732563,20.001354,-12.780933,-14.323425,-29.646091,-43.171692,-43.288021,-46.877403,0.0,57.468083,16.378124,72.151775,11.437905,72.291022,8.575033,75.082882,6.965014,55.088345,15.471497,270.831302,-151.777954,124.791948
71,-0.077705,-0.111027,-0.489807,-1.414208,0.0,-64.487114,-34.768867,-96.96579,-29.231415,-98.774357,-21.612282,-87.334728,-13.789558,-67.397118,0.0,20.311131,26.156548,43.82649,45.030747,58.551185,58.619296,70.937021,67.440527,76.572857,0.0,-15.010242,3.086586,22.084408,-13.017197,-13.593292,-30.010757,-41.32679,-43.42535,-44.57262,0.0,56.962717,17.108754,72.953233,12.403929,73.877143,10.016349,76.144124,9.015004,57.831916,15.978155,270.527104,-151.683397,123.184569
72,-0.261726,0.214459,1.129532,0.689011,0.0,-64.462337,-34.51561,-96.729355,-29.094772,-98.745403,-21.6045,-87.341766,-13.913841,-67.527866,0.0,20.342438,25.977472,43.612463,44.865935,58.003953,58.480728,70.42369,67.349507,76.04625,0.0,-18.130703,2.746582,21.021137,-14.115887,-14.103012,-31.79306,-42.946243,-45.510235,-44.314499,0.0,57.913118,16.554915,72.727597,12.36447,73.621311,10.860848,74.64748,10.133551,56.980995,16.43858,270.563197,-149.831715,123.695214
73,0.191116,-0.54538,-0.533695,1.651577,0.0,-64.317627,-35.066643,-96.945648,-29.739647,-98.673019,-22.156677,-87.21199,-14.199486,-67.427673,0.0,20.206896,26.495002,44.451899,45.551859,59.451691,59.169739,72.048405,67.89501,77.242417,0.0,-12.661858,2.821426,23.391953,-13.387756,-12.298164,-30.64167,-46.380844,-44.39249,-49.395618,0.0,56.440865,16.944066,70.992534,12.064487,70.032748,9.295351,74.011883,7.273581,56.434628,17.121563,269.910418,-149.873543,125.239391
74,0.209541,0.452445,-0.733109,-0.874942,0.0,-64.22327,-35.525894,-96.768322,-30.380745,-98.652306,-22.874565,-87.333012,-14.942551,-67.903862,0.0,19.97527,25.955612,44.2819,44.951583,58.889886,58.571933,71.453254,67.357041,76.921932,0.0,-11.198215,3.853912,24.107437,-12.667351,-9.216557,-30.08543,-44.643803,-43.886375,-46.640968,0.0,56.522807,16.725037,71.076638,12.624501,70.867305,10.913212,74.26722,9.959909,58.556619,18.035288,270.333161,-149.902468,124.334748
75,0.059052,-0.120599,0.558643,-0.554951,0.0,-64.805717,-34.485397,-96.656513,-29.221115,-98.419533,-21.818275,-87.246666,-14.181175,-68.040905,0.0,20.35695,26.277147,44.481168,45.294236,58.738906,58.932308,71.124927,67.605586,77.113667,0.0,-8.235912,3.709888,25.601921,-13.065548,-7.030392,-30.241528,-42.824192,-43.977356,-45.594578,0.0,54.820472,15.150711,70.252085,11.270809,69.477735,10.241985,74.79494,10.102059,57.936027,18.581028,270.110813,-148.857136,123.678048
76,0.28656,0.470353,0.315342,-0.697656,0.0,-65.417976,-34.395447,-96.977005,-29.06868,-98.478527,-21.75705,-87.470284,-14.30191,-68.266525,0.0,20.09414,25.757208,43.625555,44.823142,58.009016,58.515802,70.77085,67.389521,76.897541,0.0,-5.736179,4.672909,27.567616,-11.87233,-6.860561,-28.803349,-40.419674,-42.587128,-44.15205,0.0,54.84968,14.453116,68.247852,10.15257,68.532398,8.752627,72.320971,8.502352,55.591611,19.178181,270.411908,-148.231201,122.811134
77,-0.020485,0.280285,0.464287,-3.863229,0.0,-65.604172,-34.473839,-97.131214,-29.205551,-98.367462,-22.011108,-87.450485,-14.737129,-68.807831,0.0,19.977617,26.237565,44.093623,45.153445,57.463328,58.696051,70.565592,67.354818,77.061612,0.0,-6.702976,6.377392,30.530777,-10.055523,-6.014271,-26.946659,-37.22208,-41.570377,-38.876038,0.0,52.802901,14.368024,67.710994,10.937233,69.856821,10.677819,74.203988,11.774445,53.578733,19.612427,270.490007,-147.312183,118.745718
78,0.782433,0.233108,0.534496,-3.457653,0.0,-66.729069,-34.821167,-97.134361,-29.605064,-97.925148,-22.341385,-86.877708,-14.837952,-68.268585,0.0,19.375242,26.373663,44.603434,45.136278,57.447211,58.611083,71.379524,67.269355,77.71913,0.0,-4.723663,6.040707,32.030182,-9.437599,-3.008423,-25.313244,-31.534939,-39.416256,-36.696281,0.0,55.995644,15.229998,65.339531,13.36742,72.71074,14.034695,75.787392,15.808846,58.553346,20.756521,270.543699,-146.416025,115.10865
79,0.44014,-0.175989,-4.523849,-2.461402,0.0,-67.31266,-34.189568,-97.073364,-28.705101,-98.233967,-21.395531,-86.625938,-14.044418,-68.245869,0.0,19.520664,26.464436,44.6382,45.608731,57.333529,59.250817,71.047801,67.811585,78.279515,0.0,10.882015,12.011204,42.284145,-2.389526,0.940933,-17.294998,-17.145996,-30.831814,-27.759876,0.0,53.510097,12.174866,64.436833,14.715031,70.704006,19.181438,71.44674,23.989201,62.547702,21.750584,270.239439,-150.385952,112.518976
80,0.949059,0.168146,1.835747,-2.983996,0.0,-67.162857,-34.474525,-96.877613,-29.227524,-97.928581,-22.057343,-86.833305,-14.630356,-68.430119,0.0,19.360977,26.513157,44.516551,45.276637,57.106349,58.72069,71.581263,67.164873,78.835454,0.0,1.806622,15.510578,47.038021,-1.223888,14.079266,-17.358971,-6.35582,-31.381931,-14.078465,0.0,58.649059,7.47217,59.877584,10.514119,68.836025,17.725518,74.221031,25.901272,61.712744,23.546162,270.373623,-147.703686,109.501018
81,-0.449409,-0.530436,-0.70364,-1.429213,0.0,-67.011051,-33.363762,-96.262436,-27.755241,-97.503548,-20.442009,-85.69376,-13.069153,-67.087326,0.0,20.777285,26.442947,45.709446,45.32647,58.227304,58.844376,72.702897,67.253979,79.818089,0.0,18.780098,17.120304,53.937321,-0.626049,22.637844,-17.007408,3.447533,-30.067348,-6.957779,0.0,56.330023,5.214668,57.991603,9.60188,71.177477,18.107629,74.881081,27.036924,70.060412,24.199419,269.970285,-147.304659,108.198902
82,1.102867,0.348149,-1.261997,2.388259,0.0,-65.989323,-33.692665,-96.753616,-28.544426,-98.797474,-21.578865,-87.475948,-14.259338,-68.093548,0.0,19.230931,26.712858,45.342093,45.46899,57.323031,58.849316,72.043156,67.196922,80.23725,0.0,28.302727,18.343391,61.270638,2.468719,35.357952,-12.905445,18.160744,-25.363598,6.098671,0.0,55.969956,2.181426,48.211078,7.591349,65.014786,17.654196,74.542257,28.924325,69.718191,26.353598,270.471173,-147.515345,110.739901
83,0.107918,-0.343826,-1.105328,2.48638,0.0,-65.848846,-33.449135,-95.900288,-28.130264,-98.146877,-21.106224,-86.677723,-13.727303,-67.356834,0.0,18.443304,27.474549,43.816302,46.323121,57.188045,59.478244,71.723474,67.569277,79.677112,0.0,35.279617,20.26474,67.53027,5.942459,48.423157,-8.307724,32.353306,-20.254326,19.206676,0.0,41.597115,4.017111,43.331499,12.499086,66.960418,23.85332,78.803035,35.4251,71.59985,28.397713,270.755272,-146.684475,113.854205
84,0.518417,-0.879696,1.161003,6.382399,0.0,-65.700989,-33.936424,-97.353973,-28.79734,-99.586086,-21.903992,-88.562508,-14.628983,-68.753014,0.0,17.753367,27.81819,43.57424,46.281008,57.753184,59.230316,72.261444,67.343826,79.331619,0.0,40.049572,21.429119,71.486092,10.038242,62.184162,-2.324066,42.146301,-13.406982,26.041832,0.0,37.330841,5.992939,39.419549,17.051944,68.497633,29.472298,80.868895,40.413051,72.640591,30.424633,270.042981,-144.014969,120.40401
85,-1.273956,-0.603116,5.942402,9.470475,0.0,-64.782257,-32.784691,-95.575333,-27.821846,-97.756348,-21.05484,-87.256565,-13.662415,-67.187691,0.0,17.02428,27.058722,42.472366,45.273241,55.530602,58.433056,70.476918,66.917686,79.299138,0.0,46.218052,19.099674,72.047882,8.44099,64.1078,-3.532619,47.84111,-14.304371,33.64563,0.0,32.812502,6.219007,41.915377,17.610476,70.126794,30.689029,86.03722,42.027516,77.838556,30.630426,270.159982,-136.592817,130.594603
86,-0.169258,-0.983128,5.385246,13.479991,0.0,-64.138126,-33.287773,-95.068874,-28.515816,-98.041363,-21.88694,-87.363396,-14.452858,-66.662064,0.0,16.866508,27.385134,42.228884,45.620031,55.081059,58.659248,69.6289,66.943683,79.428196,0.0,58.553066,29.795609,92.023144,18.60981,79.196548,6.681805,63.073883,-4.400253,44.389915,0.0,35.103812,11.623527,37.965512,26.131786,67.002655,40.664375,83.89658,53.892178,78.815818,31.594963,269.606374,-130.073776,144.504115
87,0.343781,-1.494792,3.558598,9.874447,0.0,-64.953918,-33.622284,-96.40749,-28.630257,-98.609447,-21.748009,-87.940636,-14.279022,-67.555218,0.0,17.995799,27.587244,43.544785,46.07649,56.680456,59.064393,71.199645,67.105161,79.689771,0.0,63.817863,30.155525,94.614544,19.07896,89.840813,7.77277,71.669312,-3.178196,49.904366,0.0,34.127415,11.507313,44.033046,27.15604,70.15983,42.321695,90.577727,55.184429,85.284111,33.074884,268.486608,-125.379038,154.753587
88,-0.426521,-0.131158,3.216648,13.87186,0.0,-64.101105,-33.914566,-96.451321,-28.755684,-98.871002,-21.724205,-87.633362,-14.148331,-67.19553,0.0,18.194388,27.729393,43.140505,46.072538,57.139385,58.85722,71.717669,66.744909,79.233127,0.0,60.823345,30.895557,97.06953,22.736435,99.545002,14.233475,85.978775,5.541744,61.138401,0.0,30.014467,15.008376,42.836446,32.460092,66.125367,47.776911,83.962776,59.702151,78.8667,33.120031,268.26355,-121.690722,168.533547
89,0.514069,-0.92675,18.527641,19.426433,0.0,-63.842525,-34.085541,-96.315708,-29.264374,-99.098854,-22.479515,-88.049984,-15.18013,-68.189621,0.0,18.572671,27.617193,43.253941,45.996709,58.010066,58.925639,72.301087,67.04162,79.165201,0.0,65.816345,24.782925,89.823475,15.178699,89.291954,5.81274,77.507915,-2.524567,55.07103,0.0,24.779205,12.888052,39.944427,30.627525,59.715304,46.376165,69.488047,59.047535,71.788497,34.283066,267.192736,-102.514114,187.815916
90,-1.015663,0.474984,2.355881,13.200447,0.0,-59.511795,-34.374504,-96.248131,-30.194206,-97.925091,-23.450775,-86.61335,-16.245575,-67.189293,0.0,2.657429,25.926157,43.051214,43.899294,58.092688,57.068249,70.526072,65.536021,79.144639,0.0,71.975155,24.105034,92.816162,16.062813,93.769112,8.004971,84.536591,-0.350304,59.730434,0.0,12.102154,16.532623,44.128697,33.977361,63.121518,47.863856,73.156022,58.056749,72.599589,33.989525,267.703937,-99.436111,201.05258
91,-1.136513,2.4003,7.852249,49.932124,0.0,-60.756168,-32.141876,-93.729458,-28.613777,-95.495338,-23.275108,-87.142067,-17.324638,-68.17234,0.0,-11.479278,24.037336,41.222352,39.057444,53.762008,51.061292,66.555397,59.374071,75.044782,0.0,76.39864,34.255772,91.923637,33.130131,92.856674,32.498417,88.956184,30.287075,80.382214,0.0,-3.435916,14.546174,34.265859,11.111925,31.52303,5.884876,30.50458,0.346667,19.522825,34.0769,270.001901,-90.359974,250.882368
92,-3.398781,-0.839126,2.423515,-21.996608,0.0,-63.608837,-25.597343,-92.117443,-22.401352,-93.472538,-17.985191,-84.212894,-12.600746,-64.103851,0.0,-2.112296,22.867536,36.333695,37.836145,53.315306,50.015981,66.517853,58.332465,76.276394,0.0,78.215847,34.035645,101.190605,28.398113,101.134071,22.54303,88.986397,16.591473,65.382385,0.0,7.31057,25.749057,42.853551,43.91504,56.738069,56.078019,68.278851,63.430641,72.422427,31.49929,268.459438,-87.115288,228.182423
93,-1.212273,0.584344,4.287815,9.252311,0.0,-61.492081,-24.135818,-85.344257,-21.476784,-95.189209,-17.43782,-86.217155,-12.079239,-62.156639,0.0,5.039945,17.914227,11.330707,33.534179,30.607641,46.530973,55.158494,55.443781,73.217525,0.0,79.913692,31.621742,100.325375,25.803165,102.31184,20.45145,90.877476,15.451813,68.003826,0.0,3.739481,30.172425,46.754201,47.951418,58.445283,58.902483,68.792799,64.280388,73.389068,30.745211,268.692792,-82.36928,237.083744
94,-0.620155,-0.467389,6.452351,9.754836,0.0,-51.73193,-10.936432,-60.7374,-11.165886,-82.288227,-11.835022,-84.094162,-11.431618,-70.009689,0.0,-9.184571,15.989466,-2.695591,34.861936,22.381622,49.970903,52.012743,60.462422,76.658382,0.0,78.424416,31.340733,100.929451,23.772125,102.00222,17.087917,88.13736,11.672916,64.030666,0.0,-1.054018,30.077946,48.275855,48.898978,62.858585,60.406291,70.435854,65.618828,73.632118,30.782375,267.620975,-75.259609,246.234152
95,-1.074486,1.301143,4.961929,5.41724,0.0,-48.852425,-14.163094,-64.331646,-14.487991,-73.99538,-14.513168,-71.601276,-13.214264,-65.037746,0.0,-10.155349,17.978509,10.869925,34.84761,30.627155,48.738303,48.148093,59.71518,71.540755,0.0,78.168068,32.269936,102.61837,24.343128,104.825249,17.218151,90.450897,11.131153,65.644798,0.0,-1.783784,30.335322,52.30192,47.821125,66.417755,59.293425,75.798075,65.364046,78.247652,30.185194,268.567377,-69.820375,251.296652
96,1.107216,-0.04057,4.287186,4.112516,0.0,-41.812363,-22.028732,-42.154541,-23.167992,-60.218983,-22.642021,-63.681622,-20.054626,-63.904037,0.0,-9.399277,16.8754,20.81909,33.739067,36.976888,47.087468,54.74279,57.514828,70.788202,0.0,77.378654,33.520603,102.935829,25.808315,105.636177,18.679104,90.520821,12.666893,66.303177,0.0,-3.531383,30.468394,51.142803,48.111845,64.15911,59.49856,72.325108,65.714047,75.422385,31.274757,268.439724,-65.550842,255.322084
97,-2.19532,3.675693,3.919144,3.218246,0.0,-28.27858,-32.568283,-0.152321,-33.268661,-3.289604,-30.739403,-6.026573,-26.394424,-49.098473,0.0,-8.372615,14.248661,21.15106,29.216466,35.323088,41.510726,49.374333,51.592901,66.546813,0.0,74.887161,34.158211,102.806053,26.514988,104.89254,19.134979,88.028526,12.743225,61.892281,0.0,-8.078065,31.409038,50.380864,49.164505,63.330914,60.313418,71.643816,66.399662,75.727309,29.055805,271.889503,-61.655331,258.314416
98,-0.731964,-1.270576,3.389511,1.985399,0.0,-43.133926,-42.451859,0.99472,-46.060238,4.409523,-45.704212,-2.851639,-42.970734,-52.540112,0.0,0.212607,20.089632,33.707759,37.599085,45.669493,49.63282,51.698248,58.609663,66.386324,0.0,73.775368,34.276028,101.668968,26.744785,103.966255,19.205132,88.47393,12.554798,63.712234,0.0,-7.069187,33.154537,51.358435,50.70172,64.986257,61.508536,72.872402,67.267873,76.171294,28.309994,270.226889,-58.279667,259.907777
99,-15.162506,3.964932,1.113396,1.833864,0.0,-1.557083,-25.181236,31.281052,-31.381245,36.339684,-32.749729,25.260201,-30.523853,-56.786556,0.0,-15.091368,16.512863,39.283327,33.587963,50.067913,44.996475,55.054383,54.247366,67.16759,0.0,72.966957,36.196232,102.976456,28.88546,106.376381,20.993729,91.161232,13.758831,66.272507,0.0,-9.166725,32.755074,51.853179,50.305961,65.897137,61.119446,74.030655,67.010189,74.406406,13.164682,273.925152,-57.149076,261.474972
100,-4.787064,-5.837637,3.444443,1.280951,0.0,-2.007523,-15.946884,34.141502,-18.079433,42.428627,-20.493736,34.524994,-23.12994,-12.220917,0.0,-9.074347,24.245188,36.237859,41.964036,50.531474,52.313776,54.517524,59.105827,66.985612,0.0,71.873016,35.888214,102.955284,28.893585,107.14222,21.364403,93.264313,14.668407,71.535187,0.0,-8.957144,33.445629,51.431548,51.213075,63.902229,62.626527,72.710616,68.877089,74.376457,8.422852,268.014418,-53.659401,262.682825
101,-7.858429,15.679973,3.140945,1.958106,0.0,14.298134,-10.835266,45.766296,-14.050426,55.711212,-14.590588,44.602089,-13.028126,23.804855,0.0,-21.073254,10.448972,20.584315,25.872064,36.27423,38.315266,44.597506,48.61505,50.854861,0.0,71.014366,37.059517,102.470284,29.588299,105.609512,21.425171,91.685829,14.118862,70.467453,0.0,-7.754246,33.45625,50.643551,51.188313,63.046738,62.488453,72.601565,68.587294,74.299763,0.647678,283.609855,-50.4352,264.556395
102,-5.850849,-12.497975,3.507042,2.314035,0.0,10.866337,4.227734,53.239574,-0.589771,62.167225,-7.295952,53.353214,-14.460239,28.95956,0.0,-5.191542,21.394665,36.00296,40.249289,54.259778,53.589725,58.576688,63.508631,61.494333,0.0,70.101929,36.502876,101.143913,29.050312,104.226036,20.920486,89.962578,13.663101,69.622536,0.0,-5.633367,32.717591,50.782983,50.359005,64.490278,62.226384,73.44841,69.288161,75.482345,-5.185919,271.033133,-46.910906,266.791682
103,13.77943,1.664174,-0.385151,1.937975,0.0,-3.555794,-9.147491,35.723991,-12.684517,45.22419,-18.088017,37.05574,-23.767262,6.885567,0.0,-5.434592,20.891523,36.963858,38.884049,54.169746,50.970519,57.953132,59.873199,63.047171,0.0,69.820805,38.185158,102.801762,30.201588,102.02322,21.512547,88.442287,13.856506,67.777348,0.0,-5.425576,33.435563,52.214111,50.657815,63.399642,61.502052,72.077119,67.304676,73.763152,8.620663,272.696905,-47.268906,268.729256
104,2.314568,0.597003,0.056019,0.351298,0.0,-10.578003,-14.154053,34.13887,-17.321548,44.629669,-21.165333,38.74958,-25.584641,17.154579,0.0,-5.197409,20.831748,37.220987,39.524957,55.005291,52.189163,58.310173,61.310379,61.342057,0.0,70.924072,37.194614,102.351379,29.453316,103.70327,20.72073,89.296761,12.653904,68.143501,0.0,-6.811873,32.41662,50.046177,49.791889,63.204511,60.85923,71.981529,66.974003,74.25981,10.9758,273.249062,-47.172318,269.035708
105,-11.885605,21.815741,1.131248,0.166109,0.0,13.775139,-1.212273,46.000786,-5.500431,54.776115,-8.140812,43.27034,-10.263462,21.765633,0.0,-29.341882,-0.018402,8.864086,15.002942,29.082839,28.951619,38.636677,41.477258,43.261845,0.0,70.319252,37.002926,100.96344,29.30603,102.280769,20.45248,87.970276,11.970119,67.272835,0.0,-7.035904,32.171965,48.856432,49.418731,62.774419,60.59358,71.587623,67.053043,73.826014,-0.897589,294.999595,-46.028852,269.136608
106,24.706879,-19.304537,0.187798,0.383717,0.0,-22.368507,-21.209908,19.190598,-24.911957,27.078094,-28.774338,21.828804,-32.371788,-4.967537,0.0,-7.768449,20.991435,33.252967,39.3741,50.203147,51.164601,53.535199,59.44848,56.941166,0.0,71.195526,36.741657,101.564484,29.264717,102.58976,20.740986,88.45356,12.686062,68.116264,0.0,-7.242706,31.821161,48.623448,48.911822,62.888596,60.078581,71.072933,66.558299,73.129346,23.81278,275.652388,-45.837564,269.477656
107,-21.260948,-0.50376,1.272411,-0.490792,0.0,5.033913,-4.504509,45.329819,-8.564129,52.59407,-14.310493,43.779945,-21.000423,21.467972,0.0,-10.56846,18.701853,36.508881,36.766875,52.696567,49.029024,56.693485,58.205506,58.966642,0.0,70.320797,35.561886,99.759579,27.848625,100.712528,19.221039,86.83279,11.179276,66.019764,0.0,-6.315585,31.844934,50.158995,49.098802,62.336794,60.324224,70.979937,66.711317,73.258898,2.55106,275.148072,-44.565926,268.986308
108,1.242828,0.364451,0.317402,0.268923,0.0,2.670937,-5.559196,41.426926,-9.718609,46.714783,-15.375481,37.720757,-21.893463,16.328087,0.0,-10.406303,20.249133,34.746525,39.070041,50.437922,51.762839,54.789906,60.629766,58.914216,0.0,70.297623,35.142803,99.22245,27.433262,100.613823,18.763504,86.448441,10.659657,65.596046,0.0,-6.322378,31.367233,49.64128,48.516249,62.339449,59.836026,70.806789,66.426647,73.243707,3.786592,275.525877,-44.255819,269.268584
109,5.343475,0.543218,0.433216,-0.283743,0.0,-5.151901,-9.503059,36.91761,-13.982964,41.770935,-20.2248,36.127853,-26.989117,14.410858,0.0,-9.168886,19.40272,33.272172,37.225865,49.344075,49.792692,53.787449,59.91025,58.225328,0.0,68.304005,34.565563,98.417988,27.188416,99.219074,18.676243,85.619717,10.344944,64.60928,0.0,-4.869205,31.305792,49.585828,47.987604,62.766577,59.095824,71.276895,65.816244,73.799832,9.145432,276.05409,-43.80724,268.969836
110,-1.049995,-0.302392,0.780029,-0.31116,0.0,-3.630638,-9.45797,37.951469,-14.150677,43.588943,-20.616474,37.663078,-27.601376,14.878235,0.0,-9.02649,19.247603,33.216226,37.37561,49.888837,50.065505,54.195064,60.151879,58.537909,0.0,68.375645,33.607178,97.541485,26.242332,98.859386,17.885513,84.966488,9.716034,64.033298,0.0,-4.74484,31.913601,49.476036,48.669637,63.314241,59.688627,72.061187,66.288388,74.255056,8.123789,275.734717,-42.998857,268.641694
111,3.462181,0.67839,0.303612,0.016487,0.0,-4.439621,-12.416382,33.378525,-19.140129,39.36058,-27.09177,32.532921,-35.084496,8.677483,0.0,-6.688002,16.965308,34.534165,34.18052,50.878573,46.612607,54.586623,56.852987,58.643811,0.0,68.443394,33.349857,97.310543,25.784855,98.062534,17.203846,84.379978,8.832722,63.396893,0.0,-5.167521,31.202174,49.123749,47.982787,63.780827,59.235071,72.302631,66.270172,74.587643,11.5874,276.394782,-42.693815,268.639857
112,-11.82312,12.951099,0.507946,0.055081,0.0,20.81543,-4.977779,45.947685,-9.895935,53.944931,-11.581078,42.556,-11.408958,19.986992,0.0,-18.114298,5.664983,13.70254,23.738834,35.574289,38.293468,43.433387,50.5684,47.70312,0.0,67.723503,32.753906,97.073021,25.003681,97.706909,16.308575,83.800278,7.988319,63.196564,0.0,-4.657093,31.235458,50.252238,48.183167,64.149724,59.438415,72.589524,66.459992,74.601846,-0.241985,289.27723,-42.192135,268.626287
113,2.704926,-4.563355,-0.813503,-0.06175,0.0,15.796967,-4.142303,50.902863,-10.7131,53.493576,-14.532738,45.339661,-16.400242,14.915771,0.0,-12.032377,11.364484,31.254971,26.797332,44.485676,38.186331,49.210694,46.505656,53.01773,0.0,67.957134,32.93993,97.651691,25.008602,98.047657,16.358757,84.161739,8.279057,63.111362,0.0,-4.571074,30.759609,49.764163,48.010513,64.953282,59.449468,73.059938,66.463203,74.434811,2.479048,284.688712,-42.989531,268.539373
114,1.891708,-9.347222,0.084858,0.145052,0.0,3.965034,-6.337509,42.783623,-13.626366,47.513809,-22.562141,38.331985,-31.220112,8.086395,0.0,-9.483567,18.436944,36.580327,36.272686,54.110651,48.608381,57.958566,58.584962,61.783695,0.0,67.554588,32.994633,96.557693,25.201321,97.462234,16.487389,83.727951,8.021965,62.303123,0.0,-5.009008,31.306224,50.061615,48.181562,64.492871,59.391361,72.792744,66.365576,74.532253,4.390554,275.292646,-42.884874,268.635581
115,-4.904709,-0.861356,-0.414162,0.003643,0.0,8.852005,-1.291008,48.48896,-7.617302,52.156105,-16.069279,41.506577,-24.58746,11.998787,0.0,-7.987601,20.177503,36.916125,38.782964,54.194755,51.10248,58.19859,60.463039,61.550217,0.0,67.725563,32.919102,97.193184,25.436096,98.047371,17.018566,84.422836,8.906021,64.311562,0.0,-4.449364,31.081885,50.258352,47.900289,64.347326,59.297068,72.955889,66.457399,75.281903,-0.519476,274.351091,-43.304358,268.559026
116,-3.588295,0.745574,-0.68161,-0.175742,0.0,13.994064,1.447334,51.588593,-4.636574,55.254364,-12.698994,46.15139,-21.277657,22.818031,0.0,-9.605894,17.675808,34.721269,36.62985,52.887684,50.029134,58.044029,60.376651,60.528618,0.0,68.171082,32.526913,97.048531,24.960766,97.979279,16.697445,84.455109,8.985329,64.636688,0.0,-4.27282,31.497712,50.164738,48.457463,64.115021,59.763222,72.861843,66.649813,75.124378,-4.078417,275.054767,-43.956614,268.341386
117,6.239777,1.279901,-0.898762,-0.118499,0.0,2.62722,-4.966507,42.535858,-10.441933,47.460022,-17.428093,39.232864,-24.723701,17.098045,0.0,-9.45689,18.623183,35.175937,36.523825,51.730481,48.810181,56.031953,58.556248,58.960528,0.0,68.78603,32.659435,97.430248,25.049114,98.15443,16.728516,84.527035,8.905678,64.479961,0.0,-4.314625,31.589473,49.809797,48.699771,64.234816,60.050485,73.103966,66.936953,75.591829,2.169685,276.315464,-44.84705,268.203683
118,-4.929428,-0.417371,-0.667763,-0.112818,0.0,6.339455,-5.426674,48.388481,-10.809345,54.162254,-17.243271,46.467247,-23.946819,23.638573,0.0,-9.975779,18.605831,37.224013,36.634173,53.701555,48.990616,57.907931,58.836472,60.513057,0.0,68.723202,31.676846,96.938381,24.293976,98.068256,16.424046,84.754887,9.093533,64.820652,0.0,-3.744421,31.846663,49.771264,49.004015,63.956878,60.256299,73.064137,66.927073,75.779612,-2.742434,275.838859,-45.497503,268.031631
119,-0.936356,0.002038,-0.388126,-0.469797,0.0,7.383156,-6.285038,46.367798,-11.6395,52.185745,-17.578526,46.004448,-23.785286,26.297035,0.0,-8.531746,18.498077,35.916201,36.730874,52.576956,49.333824,57.370702,59.019253,60.207578,0.0,68.541412,31.735039,96.76918,23.964214,97.414169,15.739059,83.87558,8.099728,63.870506,0.0,-3.122224,32.091133,50.596126,49.403047,64.796992,60.716587,73.866337,67.315236,76.553035,-3.613758,275.767815,-45.820599,267.488752
120,10.959892,0.649306,-0.443344,-0.304244,0.0,-7.645798,-15.266418,34.832039,-22.288513,40.126534,-29.195709,31.185379,-35.679073,5.635414,0.0,-8.981289,17.945905,38.09599,35.560889,52.992907,47.684594,57.26338,57.355944,60.189856,0.0,68.811607,32.03928,96.619606,24.316463,97.385902,16.043243,83.784485,8.257256,63.786278,0.0,-3.110924,32.262058,51.509291,49.226687,65.59703,60.537819,74.074868,67.395141,76.645599,7.421837,276.32908,-46.18824,267.096467
