takenoko1/special-research/HandMotion_SimilarSearch_自分用/NewProject/handData/test_key/d4_feature_d2/115.csv
frame,vel_0x_L,vel_0y_L,vel_0x_R,vel_0y_R,posFromWrist_0x_L,posFromWrist_1x_L,posFromWrist_2x_L,posFromWrist_3x_L,posFromWrist_4x_L,posFromWrist_5x_L,posFromWrist_6x_L,posFromWrist_7x_L,posFromWrist_8x_L,posFromWrist_9x_L,posFromWrist_0y_L,posFromWrist_1y_L,posFromWrist_2y_L,posFromWrist_3y_L,posFromWrist_4y_L,posFromWrist_5y_L,posFromWrist_6y_L,posFromWrist_7y_L,posFromWrist_8y_L,posFromWrist_9y_L,posFromWrist_0x_R,posFromWrist_1x_R,posFromWrist_2x_R,posFromWrist_3x_R,posFromWrist_4x_R,posFromWrist_5x_R,posFromWrist_6x_R,posFromWrist_7x_R,posFromWrist_8x_R,posFromWrist_9x_R,posFromWrist_0y_R,posFromWrist_1y_R,posFromWrist_2y_R,posFromWrist_3y_R,posFromWrist_4y_R,posFromWrist_5y_R,posFromWrist_6y_R,posFromWrist_7y_R,posFromWrist_8y_R,posFromWrist_9y_R,posFromBody_0x_L,posFromBody_0y_L,posFromBody_0x_R,posFromBody_0y_R
2,17.055588,-18.746869,0.694599,-0.315298,0.0,-21.531258,-32.721405,19.428291,-43.808098,19.974976,-49.714165,6.969452,-51.987534,-55.514717,0.0,3.370461,17.247569,45.639421,35.779485,58.542169,49.149438,66.061455,60.804457,78.010283,0.0,64.921703,27.494316,87.268581,18.927956,87.399616,9.615383,75.063343,0.703869,54.705219,0.0,-10.274219,24.097234,54.007837,42.046597,68.483121,55.587844,78.461741,64.842811,81.614099,16.413603,277.085136,-45.810957,270.425972
3,-39.27309,8.709402,-0.540104,0.869631,0.0,31.469021,5.227661,67.299557,-1.116829,65.806217,-7.22002,54.619846,-10.69582,-8.880901,0.0,-27.728096,15.829286,41.36376,33.519359,54.023274,45.656896,57.276533,53.36236,67.194514,0.0,65.580254,27.351151,88.166656,19.06723,88.333855,9.92815,75.689278,1.014118,54.913216,0.0,-11.183679,23.001226,52.333845,41.091812,66.956836,54.874504,76.734088,64.460946,80.455106,-22.495852,286.04756,-45.987425,271.548625
4,35.408878,-7.671439,0.533581,-0.260957,0.0,-17.537041,-29.712353,25.589447,-39.529152,28.266563,-44.485016,13.53138,-46.629467,-61.399155,0.0,-12.599986,21.337114,43.403315,40.926321,55.118788,53.192422,60.749067,62.574718,74.502057,0.0,65.706081,26.519222,87.346859,18.32222,87.663403,9.348736,75.466518,0.509663,54.667339,0.0,-11.394804,23.729942,51.992488,41.60329,66.554532,55.229692,76.679377,64.685718,80.674567,13.076591,278.458172,-45.290279,271.369719
5,-25.887909,10.806322,-1.227493,0.044831,0.0,23.652649,-4.290733,60.006294,-11.515503,54.875565,-16.657505,42.487907,-18.292065,-23.802624,0.0,-32.842265,14.523573,38.968215,32.337826,49.580641,44.711436,53.920027,52.834455,66.058615,0.0,65.859661,27.546444,88.518848,19.120731,88.346157,10.092888,75.797482,1.320934,55.2281,0.0,-11.565729,23.20352,52.150569,41.155476,66.67087,54.815717,77.039196,64.310769,80.947812,-12.553453,289.375213,-46.259909,271.525268
6,21.738853,-10.268785,1.330605,-0.185745,0.0,-12.646751,-26.179104,29.645805,-35.5826,32.478333,-40.643864,16.929245,-43.077793,-54.538536,0.0,-13.658882,20.888065,43.171751,40.602131,54.985099,52.901701,61.37534,61.903677,75.276222,0.0,64.960957,26.758461,87.295704,18.439636,87.716389,9.355602,75.319118,0.409126,54.6488,0.0,-10.39173,23.472567,52.298647,41.340789,66.743056,55.067474,76.753354,64.712085,81.090518,9.312601,279.158484,-44.802103,271.391579
7,-19.859619,10.352024,-0.675945,0.180249,0.0,17.838707,-6.927681,55.616226,-13.78418,51.860046,-18.152046,39.842262,-19.300461,-30.502625,0.0,-30.041267,15.120021,42.107791,31.947749,51.764444,44.450664,56.657362,52.945668,67.534635,0.0,65.460205,27.25708,87.801704,18.917599,87.878609,9.874592,75.316544,0.866947,54.515877,0.0,-11.61377,23.777058,51.812671,41.452125,66.305061,54.824548,76.580267,64.194987,80.9509,-10.36912,289.667601,-45.30015,271.728921
8,-0.034332,4.051012,-0.242157,-0.206617,0.0,2.69371,-11.026497,44.027367,-14.393635,51.738396,-14.883327,43.556671,-13.076649,13.768272,0.0,-2.997118,10.536782,34.799939,21.830932,43.252088,29.520278,47.02053,36.068292,47.881393,0.0,65.685768,26.509838,88.203278,18.26992,88.301697,9.479828,76.195564,0.845718,55.770035,0.0,-11.091547,23.123862,51.904,41.048648,66.153216,54.733898,76.591568,64.356156,80.887359,-10.221663,293.742264,-45.360518,271.545955
9,6.593628,-16.787405,0.364552,-0.217608,0.0,4.198151,-12.617397,43.528061,-20.386391,47.476158,-26.145344,32.231255,-29.893112,-37.649117,0.0,-13.043972,22.243239,41.265577,42.14021,56.006574,54.633862,63.188209,63.534999,77.901232,0.0,65.487957,26.264992,87.947903,17.863598,87.911053,9.000149,75.553837,0.411644,54.769535,0.0,-10.869616,23.319981,51.996626,41.178694,66.681985,54.780766,76.966331,64.159728,81.026235,-3.496199,276.955692,-44.86413,271.32918
10,-7.463264,19.830033,-0.833817,0.000679,0.0,-10.593681,-13.887863,42.462044,-13.66539,51.847916,-10.689526,49.608879,-5.300045,30.283241,0.0,12.936279,14.187404,35.018535,20.1273,39.313956,22.762005,36.746126,25.238628,32.478494,0.0,65.678043,27.267437,88.849239,19.059162,88.627796,10.1544,76.210041,1.317444,55.621891,0.0,-10.901232,23.555003,51.819649,41.185117,66.131974,54.696539,76.597249,64.036227,81.088727,-10.880842,296.796069,-45.619326,271.340202
11,1.274643,-20.303659,-0.177212,-0.296278,0.0,13.056908,-3.988895,48.956795,-12.103786,51.980095,-19.859962,36.516266,-26.142311,-33.26746,0.0,-15.818294,21.175266,39.412077,41.313063,55.176895,54.289295,62.931697,63.653066,77.346158,0.0,66.294937,26.954098,88.127632,18.818893,88.431587,10.006313,76.529732,1.354752,56.058083,0.0,-10.663679,23.044698,51.528311,40.877908,65.684716,54.603481,76.364079,64.195605,80.943675,-9.474592,276.589203,-45.66493,271.140718
12,-0.597725,0.194637,0.177498,-0.281026,0.0,12.327461,-3.409824,49.976921,-11.659985,53.380852,-19.398079,37.50309,-25.637627,-30.452728,0.0,-13.712358,20.16892,38.864289,40.268679,54.496653,53.463136,62.693773,63.189691,76.943669,0.0,65.729141,27.266464,87.913742,19.052467,88.091011,10.078068,76.18,1.198711,55.621948,0.0,-10.459532,22.990419,52.088819,40.76367,66.413618,54.465963,76.818686,64.141388,81.19043,-9.990692,276.794971,-45.405807,270.870822
13,-7.596416,0.906311,-0.183277,0.142829,0.0,23.764172,4.19632,59.29842,-4.889545,61.783504,-13.509521,43.340435,-20.673923,-22.232552,0.0,-19.186532,18.035999,36.679004,39.06294,52.88824,53.133204,61.768258,63.07749,76.461398,0.0,64.984989,26.718349,87.767086,18.520031,88.014736,9.537964,76.213017,0.62994,55.799274,0.0,-9.617194,22.440902,51.460447,40.305729,66.304011,54.180923,76.834185,64.235743,81.115341,-17.467175,277.684702,-45.469151,270.997071
14,-2.611599,-0.730322,0.496902,-0.147398,0.0,26.161423,6.750526,62.225075,-2.668591,63.065529,-11.847496,44.315987,-19.100304,-14.619827,0.0,-16.73183,18.673139,37.255629,39.851863,54.023645,53.794365,61.633024,63.629539,74.055787,0.0,64.850636,27.215137,87.394123,19.104309,87.642689,10.000477,75.942249,0.646877,55.554943,0.0,-9.749834,23.375186,51.43976,40.79825,66.097332,54.361172,76.591506,64.190294,81.456327,-19.963617,276.927133,-44.857092,270.822425
15,1.795807,0.093922,-0.697575,0.28751,0.0,22.852249,4.533062,59.945183,-4.281864,61.377525,-12.697678,43.301468,-19.353218,-17.537041,0.0,-18.535683,19.018386,37.0655,40.056195,53.586761,53.997092,61.271167,63.778234,74.533612,0.0,64.512291,27.332325,88.211861,19.110603,87.955513,10.203152,76.177597,1.390915,56.343842,0.0,-10.038826,22.959235,51.303539,40.606206,66.279002,54.338572,76.363832,64.255256,80.708406,-18.098373,277.033482,-45.485229,271.122362
16,0.570889,-0.611391,0.439453,-0.171604,0.0,22.54961,2.665901,59.883099,-6.192226,62.756481,-14.300537,45.025349,-20.759239,-19.584846,0.0,-17.613935,19.368634,38.961361,40.304556,54.923842,53.937132,62.703838,63.557044,75.783378,0.0,64.536324,26.778545,87.962608,18.780098,88.094444,9.933186,76.183777,1.056232,56.21521,0.0,-9.809053,22.979057,51.719243,40.666969,66.357919,54.444782,76.07941,64.362948,80.634738,-17.485714,276.421073,-45.004005,270.949739
17,-0.577755,-1.002394,-0.562077,-0.18698,0.0,24.637413,4.721031,59.820786,-4.701862,62.076874,-13.896046,43.29998,-21.59071,-21.060333,0.0,-16.673784,18.493816,40.522535,39.336865,55.650706,53.109059,64.427169,63.061435,78.09834,0.0,64.977894,27.708549,88.597927,19.567852,88.375568,10.434608,75.865688,1.243744,55.312099,0.0,-10.810768,23.405938,51.384556,40.949045,66.524028,54.518389,76.619355,64.235249,80.866734,-18.041067,275.432634,-45.54368,270.776714
18,3.905125,0.579095,0.021687,-0.243173,0.0,17.624302,0.494041,53.213139,-8.843307,56.077137,-17.737427,38.392925,-24.952011,-26.344528,0.0,-15.51016,18.808743,40.056751,39.032682,54.919026,52.820747,63.920507,62.773987,78.642546,0.0,64.45919,27.208214,88.237724,19.074612,88.361778,10.159893,76.246147,1.282024,56.016769,0.0,-10.287125,23.495414,51.599879,41.21945,66.707673,54.93292,76.603794,64.765067,80.60306,-14.12281,275.980298,-45.508862,270.50211
19,-6.095581,-0.012659,-0.108833,0.205567,0.0,26.600933,7.383671,61.623058,-1.579056,62.419109,-10.551739,42.426624,-18.116684,-18.432884,0.0,-18.886549,19.008259,37.818114,40.246881,54.52018,54.143502,62.462085,63.71,75.340628,0.0,65.146751,28.012218,88.031273,19.925709,88.004036,10.799789,75.493813,1.536255,55.227699,0.0,-11.231597,23.048156,51.721898,40.465168,66.276717,54.049148,76.614354,63.940576,80.471964,-20.203571,275.962097,-45.602875,270.702135
20,1.996536,0.814982,0.877304,-0.671844,0.0,24.858685,5.583115,58.588543,-3.135853,59.028568,-11.726418,39.672947,-18.89019,-25.191822,0.0,-20.649214,19.870295,36.468744,40.736006,52.931095,54.248478,60.280135,63.415203,73.419943,0.0,64.611511,26.487064,87.614136,18.365078,88.226624,9.696865,76.260452,1.325455,56.256752,0.0,-9.193587,23.048774,52.109505,41.235814,66.851181,55.319354,76.729703,65.258453,80.688646,-18.186121,276.791452,-44.704657,270.044663
21,-1.782646,-1.194129,-0.030956,0.047363,0.0,27.380733,6.499672,61.601772,-1.708031,62.482395,-9.914875,43.847523,-16.761875,-16.665001,0.0,-17.947078,20.195225,37.729008,41.750627,54.857152,55.403149,62.48765,64.555795,73.76414,0.0,64.885311,26.832104,87.125301,18.602886,87.686749,9.63707,75.340519,0.924969,55.361423,0.0,-10.738829,23.01018,51.780746,40.839808,66.197738,54.633183,76.744462,64.51788,80.16667,-19.93166,275.587658,-44.698505,270.082362
22,0.100536,-0.139494,0.059452,0.024577,0.0,26.589203,6.930485,60.661469,-1.468792,59.939003,-9.812279,42.428169,-16.256504,-15.965195,0.0,-17.989995,20.085001,36.54198,41.66714,54.040317,55.394998,61.186507,64.658177,72.968609,0.0,64.456902,27.127533,87.104874,19.04932,87.949905,10.227985,75.74501,1.686115,55.719795,0.0,-10.371476,23.051367,51.133725,40.93441,65.947155,54.823189,76.456458,64.862077,80.223912,-19.803314,275.440445,-44.611244,270.09922
23,1.711178,-0.442071,-0.052814,-0.435711,0.0,25.542698,5.523949,58.778057,-2.465572,58.060169,-10.563526,40.121212,-17.116127,-24.640732,0.0,-17.808881,21.275302,37.489972,42.689542,55.181094,55.882826,61.837727,64.749753,75.093009,0.0,64.04726,26.301041,86.974583,17.925854,87.5453,9.054909,75.511036,0.719719,54.901943,0.0,-9.62164,23.518571,51.787045,41.373641,66.99049,55.189925,77.291817,65.049675,80.658882,-18.074026,275.003715,-44.645948,269.66885
24,-4.683151,0.548899,-0.093212,0.496103,0.0,30.990887,12.806797,63.581486,3.541489,60.714397,-5.930843,42.620029,-13.968773,-6.469059,0.0,-18.072864,18.820599,36.08058,40.572614,54.349563,54.353083,61.257397,63.572543,69.517626,0.0,64.387321,27.313499,87.469482,18.979855,87.465248,10.015926,74.940491,1.389656,54.709625,0.0,-10.612179,23.955949,51.940927,41.474417,66.456534,54.963548,76.595643,64.501455,80.252873,-22.746735,275.547551,-44.728718,270.15989
25,-1.272297,-1.206233,-0.22316,-0.610279,0.0,32.745323,13.40126,65.930443,4.461765,62.752762,-5.93771,42.320137,-14.837036,-18.53817,0.0,-14.354686,20.116987,41.096319,41.847019,58.486409,54.820781,62.899031,63.384822,72.497454,0.0,64.255371,28.613834,88.84243,20.281048,88.36441,10.96756,75.391846,1.687374,54.794884,0.0,-9.883153,24.558571,53.389283,41.907843,68.527211,55.098781,78.142738,64.318859,81.473185,-24.050074,274.311771,-44.98292,269.520063
26,-5.218163,-1.319483,-1.10218,-2.360904,0.0,44.819756,18.051338,72.373581,8.37719,70.74234,-2.806206,47.461166,-12.891884,-12.574539,0.0,-16.383372,20.901712,45.601629,42.087846,63.904946,54.661773,67.656715,63.065572,75.294439,0.0,65.40699,29.852543,88.466949,22.221165,89.423676,13.051529,76.387711,3.329659,55.052719,0.0,-9.536795,26.098626,55.873811,43.688231,70.826488,56.917331,80.042119,66.392993,84.602263,-29.305773,272.910361,-46.122637,267.077232
27,17.510262,-4.941206,-0.282269,-7.815811,0.0,23.799248,-12.700939,43.883286,-25.388031,45.977554,-32.991199,24.662018,-37.114391,-45.419025,0.0,-14.930509,20.485761,58.609292,40.03026,69.279825,52.63247,73.924012,61.93486,80.354267,0.0,64.708843,27.656193,86.070728,17.709618,82.388363,5.703564,69.174099,-6.413956,47.316456,0.0,-7.701079,23.601687,63.12442,39.380152,79.572198,51.958834,87.247713,61.536817,88.450179,-11.814537,267.87693,-46.423931,259.169196
28,21.097298,8.785108,-0.197411,-15.002633,0.0,-26.468697,-38.371353,-60.055904,-37.560768,-61.768112,-32.07859,-52.364902,-25.778904,-46.618652,0.0,14.069584,29.145453,32.014069,41.488743,39.886073,48.237693,44.209837,52.256286,54.348205,0.0,61.740475,23.002853,71.163654,15.640583,55.053234,7.237988,23.966904,-1.882095,-1.756954,0.0,-5.377226,15.941672,59.789404,37.060498,81.134237,55.256059,92.622963,67.984548,98.368159,9.050789,276.536654,-46.853313,244.041179
29,7.659988,0.731063,-0.470352,10.233649,0.0,-52.030964,-29.070282,-84.783497,-24.013939,-87.415524,-16.360016,-75.412617,-8.247643,-52.311516,0.0,-3.238747,17.306479,38.446795,33.234195,54.627872,45.651339,64.741231,54.130905,70.241217,0.0,30.402718,45.331135,-0.110722,41.807384,-13.892727,33.166809,-20.382385,20.094337,-6.46946,0.0,63.140414,15.80403,76.092871,13.515807,72.814604,14.162766,69.177258,13.914653,64.409199,16.354294,277.991957,-47.680149,254.999067
30,5.535164,-9.735076,-15.297375,-56.597834,0.0,-57.083988,-32.075386,-90.123081,-27.661514,-93.298416,-19.729156,-80.614586,-9.866982,-59.758072,0.0,17.352113,23.497267,48.482718,40.808254,60.771483,54.323319,74.977597,64.093099,79.857918,0.0,57.48024,39.623795,42.955513,34.213657,39.974728,26.174755,35.545921,15.923424,38.238144,0.0,-13.749902,0.31678,5.644605,-14.990036,-5.8942,-29.651375,-19.014125,-42.750181,-46.012825,20.733232,269.961347,-64.133749,200.105699
31,1.660881,-2.077531,-16.216335,-80.965782,0.0,-59.514141,-32.71122,-92.31102,-27.616425,-94.966679,-19.270363,-82.657185,-9.003868,-61.332493,0.0,17.822466,25.838534,48.797893,43.097897,62.409227,56.065546,75.360141,65.034978,80.853149,0.0,51.663151,36.887512,57.864017,29.832458,40.368176,19.986534,31.460838,8.896294,21.750412,0.0,-14.271354,-29.352626,-33.774203,-25.066839,-15.968533,-16.278026,-5.094502,-4.15358,-2.34701,19.368696,270.437689,-83.375502,121.693791
32,1.162834,-0.999122,-17.945824,-96.0088,0.0,-61.310806,-34.470978,-94.425488,-29.426079,-96.585445,-21.30146,-85.044193,-11.354942,-64.119129,0.0,17.495127,27.27596,48.661918,44.661726,63.032165,57.341186,75.635239,65.659707,81.435949,0.0,24.39085,42.243576,67.952499,42.680283,59.572792,39.861202,44.530506,35.736351,37.945004,0.0,-55.143118,-7.67925,-20.305141,9.530806,13.327221,26.006865,36.535125,41.26073,48.556788,18.428793,270.292699,-103.424063,26.539123
33,-0.571976,-0.699817,2.961101,-38.791346,0.0,-61.523609,-34.553719,-95.003929,-29.359932,-97.12944,-21.31588,-84.761353,-11.75766,-62.99509,0.0,18.053289,27.245826,48.927074,45.182344,63.360863,58.228601,75.92102,66.534216,81.591066,0.0,32.610083,22.636328,33.671866,15.063429,35.888157,7.775288,20.855542,0.997381,12.446223,0.0,-53.424619,-30.855122,-70.465618,-21.240444,-2.167887,-9.350325,14.246453,3.223773,18.418882,16.687775,269.411505,-101.632004,-12.4336
34,-0.416565,0.303997,2.961102,-38.791346,0.0,-61.433029,-35.044899,-95.174446,-30.041084,-98.182411,-22.232094,-85.360107,-13.120537,-63.638134,0.0,18.16092,26.67414,48.933929,44.789735,63.43731,57.934237,75.204901,66.342234,80.366617,0.0,40.829315,3.029079,-0.608768,-12.553425,12.203522,-24.310627,-2.819424,-33.741589,-13.052559,0.0,-51.706121,-54.030993,-120.626095,-52.011693,-17.662995,-44.707514,-8.042219,-34.813184,-11.719024,12.12038,272.025678,-102.821732,-48.914771
35,-0.077705,-0.718281,-6.954746,-44.362793,0.0,-61.98864,-35.693092,-95.253181,-30.98568,-97.863293,-23.400879,-85.432777,-14.333954,-63.118629,0.0,18.210443,26.43461,49.081265,44.342786,63.595947,57.560647,75.873163,66.171186,80.680927,0.0,50.63427,4.79044,2.879276,-10.703201,12.401848,-22.632637,-3.041725,-34.346352,-11.012993,0.0,-42.628255,-58.04673,-133.167851,-56.341508,-21.862301,-49.676061,-18.207418,-40.343613,-20.807913,11.615267,271.313233,-110.203886,-93.271728
36,-0.059738,-0.918105,-2.788353,-28.141824,0.0,-63.053112,-35.165291,-95.188866,-30.092926,-99.084377,-22.035713,-86.47459,-12.436867,-64.836388,0.0,20.010406,26.327844,49.097012,43.984077,63.410016,57.163344,75.357239,65.915292,80.589351,0.0,52.456169,5.059376,6.886082,-7.25029,17.62001,-19.027805,0.640869,-31.372204,-11.015167,0.0,-42.034339,-54.022672,-112.077677,-53.029602,-39.801568,-48.317814,-33.182665,-39.630627,-34.052543,7.237616,270.099343,-117.310152,-121.709336
37,1.01635,-0.384829,0.758228,-41.243965,0.0,-63.333035,-36.302261,-96.280518,-31.263084,-99.370823,-23.358192,-87.570419,-14.1045,-66.417389,0.0,19.603409,27.094599,49.749775,44.964427,63.364012,58.126342,75.998887,66.683158,80.758671,0.0,54.238815,8.926105,10.349751,-4.70787,10.277882,-16.974049,-2.732277,-29.99754,-9.183025,0.0,-35.882146,-60.634428,-136.122539,-60.4763,-27.764992,-55.39347,-26.042711,-47.551291,-30.899844,4.707584,269.169969,-120.098305,-163.497847
38,1.594505,0.167344,2.67889,-22.869111,0.0,-64.603786,-36.562386,-98.174744,-31.677475,-101.777172,-24.179993,-89.706573,-15.574036,-68.223038,0.0,19.123362,26.678401,48.378669,44.600594,61.80432,57.662596,74.760915,66.216634,79.464691,0.0,52.415886,7.351685,11.976242,-5.62048,15.53793,-17.545853,1.324825,-30.455589,-10.444279,0.0,-33.187435,-54.170919,-125.2419,-53.00924,-28.369451,-49.896293,-24.256148,-43.703808,-28.655448,4.690332,269.386635,-119.031172,-186.317635
39,0.952263,-0.523026,2.753048,-17.210519,0.0,-65.270576,-36.63929,-99.100399,-32.208138,-102.439384,-25.018272,-90.561905,-16.705742,-69.508667,0.0,18.778424,26.658394,47.707874,44.541375,61.430236,57.668895,73.720235,66.273321,78.782596,0.0,56.109638,7.124748,13.421974,-6.688499,15.922966,-18.617706,1.003189,-30.973835,-11.994953,0.0,-24.632471,-53.276773,-121.634155,-53.499183,-25.765545,-50.520961,-21.04363,-44.001615,-25.847827,5.831738,270.515402,-116.088982,-201.876361
40,-0.057106,-0.027294,3.520374,-11.494253,0.0,-65.46936,-37.006874,-99.086838,-32.422142,-102.380676,-25.303574,-90.92926,-17.279091,-70.692616,0.0,18.688206,26.875076,47.017381,45.069032,60.231475,58.297823,72.75168,66.903299,78.180468,0.0,54.786015,7.571754,12.586327,-6.645813,12.267036,-18.880405,-2.524223,-31.475945,-13.877506,0.0,-20.241909,-53.469759,-119.020561,-53.693573,-22.622958,-51.121499,-19.897449,-45.150651,-24.510498,5.708256,273.709828,-112.634983,-210.148894
41,0.793419,-0.218905,1.797237,-3.525871,0.0,-65.723534,-37.069817,-99.708824,-32.508659,-102.491684,-25.271301,-90.546227,-16.872139,-69.319668,0.0,19.025919,26.533658,47.038191,44.565211,60.626554,57.688779,72.90371,66.23837,78.330706,0.0,49.949055,7.606316,10.501957,-6.125164,10.924702,-17.870979,-4.384117,-29.800816,-13.991718,0.0,-21.624963,-53.966441,-122.62193,-53.624876,-23.724555,-51.517921,-21.77267,-46.797395,-28.104465,5.823526,274.446819,-111.515894,-212.718869
42,0.711594,-0.217361,2.373848,-4.244631,0.0,-66.646214,-37.507324,-100.727291,-32.651596,-103.694916,-25.262375,-91.536655,-16.926155,-69.958134,0.0,18.835543,26.461472,47.069252,44.714153,60.734926,57.945784,73.37079,66.465056,78.314404,0.0,51.060848,7.006874,9.684448,-5.916882,10.717278,-17.681637,-5.192986,-30.111179,-13.425407,0.0,-17.601816,-52.966022,-119.923769,-53.067316,-23.430484,-50.854837,-19.9973,-46.311682,-27.786636,5.791826,274.885417,-109.88534,-216.30754
43,-0.105286,0.003335,1.294441,1.192647,0.0,-66.44886,-37.791481,-100.477295,-32.855988,-102.901611,-25.394325,-90.389328,-16.975365,-68.740654,0.0,17.949054,26.267576,47.180835,44.462828,60.560358,57.816046,73.043019,66.496734,78.246911,0.0,49.723835,6.605186,8.344803,-5.824413,11.11908,-17.226562,-4.674969,-28.865032,-12.146873,0.0,-18.956003,-54.796397,-122.756986,-55.060859,-25.553015,-53.002393,-22.480531,-48.676931,-29.101981,5.236702,274.906767,-109.040737,-215.096877
44,0.160675,-0.390016,0.90929,-0.802802,0.0,-66.320229,-37.710571,-100.785141,-32.659836,-103.66951,-25.047684,-90.960045,-16.623116,-69.546089,0.0,18.648069,26.218916,47.138103,44.493642,60.998477,57.900274,73.098594,66.609552,78.447785,0.0,48.188782,6.006489,7.201424,-5.90538,11.013851,-17.011814,-3.983345,-28.300838,-11.526604,0.0,-18.094229,-53.777971,-121.435057,-53.802285,-24.947846,-51.774401,-22.48632,-47.690576,-28.340305,4.77582,274.442543,-108.753004,-215.973888
45,0.405235,0.184695,-0.546455,0.25347,0.0,-66.895351,-38.03421,-100.794411,-32.971802,-103.903027,-25.421448,-91.436634,-17.079506,-70.117664,0.0,18.346356,26.376688,46.939823,44.860131,60.913632,58.364637,72.680235,67.163947,78.263337,0.0,49.118443,6.925964,8.388863,-4.77951,12.28529,-15.971661,-2.901306,-27.19099,-10.637398,0.0,-18.697484,-53.184657,-121.077221,-53.552937,-26.882255,-51.976155,-24.023859,-48.390965,-28.903593,4.898586,274.538827,-109.581928,-215.808829
46,0.402489,-0.273493,0.352135,0.457802,0.0,-66.609192,-38.232994,-101.383495,-33.052711,-104.422531,-25.305405,-91.887131,-16.72245,-70.395012,0.0,18.205256,25.816983,47.165829,44.414848,61.422579,58.127268,73.091801,67.188647,78.907208,0.0,49.393044,7.268543,8.812122,-4.666328,13.676605,-15.97332,-2.401886,-27.192421,-10.526791,0.0,-17.436726,-53.340183,-121.858973,-53.539367,-27.528766,-51.883375,-24.217801,-48.400567,-29.109885,5.164547,274.154786,-109.366322,-215.461575
47,-0.001717,-0.158143,1.17588,-0.013678,0.0,-66.537495,-38.09166,-101.325645,-32.707329,-104.469852,-24.792366,-91.752777,-16.181831,-70.988216,0.0,18.907235,26.374651,47.512372,45.067056,61.636359,58.689321,73.350165,67.537784,78.777224,0.0,50.503464,7.590809,9.246655,-4.449406,14.007053,-15.764008,-2.12122,-27.032604,-9.965515,0.0,-16.630142,-53.273917,-122.046949,-53.410077,-25.941888,-51.518446,-23.154243,-47.824243,-27.836653,4.99712,273.809555,-108.356152,-215.662341
48,-0.045433,0.015191,1.253757,1.588051,0.0,-67.256069,-38.112144,-101.271687,-32.960815,-104.626179,-25.196686,-92.421227,-16.62117,-71.379204,0.0,18.459051,26.236453,47.620621,44.720019,61.74189,58.327278,73.471443,67.410331,79.085729,0.0,51.182899,6.894722,8.274136,-4.758911,14.49995,-15.808582,-1.587753,-26.76939,-9.808044,0.0,-18.433733,-53.695171,-123.715631,-54.002611,-28.240887,-52.267448,-24.860392,-48.546669,-27.724299,4.858618,273.797097,-107.195463,-214.101939
49,0.513954,-0.213903,1.20306,1.422498,0.0,-67.971039,-39.279213,-102.213936,-34.251137,-104.962578,-26.555099,-92.812271,-18.012314,-71.829414,0.0,19.136391,27.003764,47.722139,45.585327,61.798516,58.906559,73.522819,67.370564,79.170512,0.0,51.663151,6.923962,7.302933,-4.774704,13.011246,-16.014862,-2.535667,-27.343826,-10.710011,0.0,-17.027506,-54.116757,-122.562812,-54.301421,-27.162215,-52.527154,-24.579535,-49.042509,-28.510443,5.251551,273.582777,-106.113424,-212.679858
50,0.362892,0.161539,-0.178356,2.105643,0.0,-67.662392,-39.620819,-102.323799,-34.484596,-105.104828,-26.742554,-93.089333,-18.265457,-71.860657,0.0,18.863145,26.767692,47.708492,45.207724,62.090842,58.513826,73.360169,67.075644,78.971243,0.0,51.401882,8.276539,11.122627,-3.743191,12.550793,-15.358315,-2.647591,-26.89579,-11.072903,0.0,-18.800175,-53.496875,-122.207454,-53.791023,-27.173763,-52.250837,-25.073585,-48.908488,-27.668661,5.485039,273.852132,-106.421185,-210.466399
51,0.604591,0.428671,-1.412716,2.121698,0.0,-68.397675,-40.534744,-102.552567,-35.075912,-105.413303,-27.083015,-93.494511,-18.171844,-72.100697,0.0,17.977953,26.701496,47.304891,45.079653,62.015815,58.359388,73.180228,66.922318,78.972293,0.0,51.467285,9.921741,27.641315,-2.242756,10.376415,-13.9781,-2.869778,-25.940781,-9.944401,0.0,-18.44599,-53.336872,-117.889911,-54.19423,-24.308713,-52.783828,-22.568525,-49.888806,-28.750621,6.085339,274.108319,-107.838192,-208.517186
52,0.316772,0.001482,-2.383175,2.121868,0.0,-68.220806,-40.06279,-102.153454,-34.82769,-104.889336,-27.080956,-93.2131,-18.49205,-71.933613,0.0,18.46856,26.174579,47.182008,44.816473,62.046752,58.335305,73.174238,67.066011,78.983902,0.0,54.414883,12.562866,54.900913,1.307659,9.682274,-10.601177,-0.922623,-23.311443,-7.193012,0.0,-18.246259,-48.475617,-84.159652,-51.491476,-22.703295,-51.702478,-21.388228,-49.93799,-29.586104,6.065025,273.319674,-110.558453,-207.185445
53,0.649452,0.14888,0.462742,3.494857,0.0,-68.73539,-40.343056,-102.399216,-35.153275,-105.890293,-27.396355,-93.726997,-18.705254,-72.409229,0.0,17.829505,26.714401,47.816987,45.148011,61.946531,58.417619,72.989543,66.970607,79.013975,0.0,54.876423,12.57906,58.665733,1.617851,7.415714,-10.504932,-3.617477,-23.938465,-8.5746,0.0,-16.502535,-45.369772,-62.012388,-49.771604,-21.909278,-51.364286,-20.826608,-51.114645,-30.509134,6.666698,272.601964,-110.14349,-204.557178
54,0.438881,-0.059836,0.627308,0.481036,0.0,-69.000893,-40.269127,-102.697163,-35.284882,-106.119576,-27.6297,-94.261265,-18.918915,-73.142223,0.0,17.394041,26.7094,47.770057,45.152457,61.823957,58.415643,73.100508,66.915463,78.802356,0.0,52.357006,12.269039,56.47316,1.351318,7.153358,-10.393925,-4.008579,-23.459473,-8.88176,0.0,-18.584296,-43.970446,-55.530494,-48.345077,-22.010363,-50.023391,-21.44899,-49.154825,-28.603347,6.913919,272.124927,-109.707842,-204.493344
55,-0.154152,-0.181546,-0.080967,1.067155,0.0,-69.123344,-40.005341,-102.724571,-34.877129,-106.253586,-27.161522,-94.25909,-18.478775,-73.113155,0.0,17.271961,27.15604,48.35366,45.488811,62.104365,58.60639,73.25334,66.939731,78.780929,0.0,52.315292,12.223606,57.562981,1.36631,9.169865,-10.506535,-2.632771,-23.642521,-8.313618,0.0,-19.619464,-43.770483,-56.153432,-48.265172,-23.097911,-50.004928,-22.307537,-48.940551,-29.311284,6.720142,271.610824,-109.828434,-203.758745
56,0.155869,-0.097998,-0.164108,-0.449713,0.0,-69.188232,-39.89193,-102.705917,-34.865341,-106.045475,-27.318077,-94.057674,-18.862152,-72.91769,0.0,17.736015,26.993513,48.423129,45.558219,62.27844,58.887601,73.547149,67.385014,79.149826,0.0,52.421207,12.329521,56.730995,1.862011,8.404884,-9.936733,-2.672768,-23.348866,-7.245655,0.0,-18.896105,-42.727349,-56.274849,-47.00693,-22.415369,-48.82074,-22.034307,-48.002779,-29.480835,6.865168,271.149532,-110.003386,-204.571751
57,-0.650139,0.023774,0.092583,-1.100794,0.0,-68.344059,-39.835281,-102.390518,-34.710617,-105.960159,-27.041931,-93.669434,-18.375206,-72.246666,0.0,17.816044,26.621652,48.717185,45.050322,62.659687,58.405269,73.745924,66.875634,79.420663,0.0,52.080002,11.480312,56.953468,1.281338,6.867428,-10.391407,-3.555565,-23.797703,-8.559151,0.0,-18.278122,-41.62921,-56.143197,-46.107087,-21.946776,-47.990444,-22.070879,-47.256541,-29.256033,6.176805,270.99406,-109.949026,-205.851791
58,-0.533524,0.05749,0.036335,-1.042486,0.0,-69.037399,-39.80793,-102.28426,-34.548569,-105.566139,-26.840858,-93.514881,-18.278503,-72.509708,0.0,17.933246,27.055326,48.558239,45.574645,62.545819,58.930209,73.525228,67.473687,79.030956,0.0,51.561928,11.27758,56.322556,1.221199,7.192841,-10.500984,-3.476715,-24.115562,-8.723145,0.0,-18.427404,-41.107435,-56.523023,-45.690782,-22.47573,-47.613643,-22.06052,-46.760005,-27.935886,5.71249,270.856928,-109.843483,-207.088899
59,-0.128059,0.124736,0.87759,-1.040973,0.0,-68.865681,-39.231491,-102.459126,-34.236374,-105.686131,-26.787415,-93.714638,-18.470764,-72.780876,0.0,17.931702,27.236439,48.636539,45.783176,62.31407,59.205863,73.527945,67.805225,79.187555,0.0,51.81221,10.71928,55.364285,0.626736,6.863422,-11.191292,-4.101448,-24.815483,-9.375572,0.0,-18.195716,-40.995141,-56.952467,-45.788301,-21.904384,-47.862729,-21.878758,-47.158157,-27.807754,5.647745,270.893423,-108.902578,-208.218113
60,-0.427551,0.331847,0.550461,-1.351547,0.0,-68.505535,-39.575729,-102.826252,-34.320831,-106.035061,-26.590118,-93.577194,-17.951431,-72.083702,0.0,17.236454,26.690936,48.156306,45.10213,62.148579,58.534389,73.663116,67.154376,79.426591,0.0,52.185345,9.86063,54.336319,-0.254574,5.700645,-12.050343,-4.450607,-25.511456,-9.591579,0.0,-17.546735,-40.88978,-56.261217,-45.898356,-20.61045,-48.005372,-21.255078,-47.279527,-27.01914,5.205345,271.160431,-108.366966,-209.634498
61,-0.921478,-0.196366,0.754166,-0.966023,0.0,-68.81979,-38.222923,-102.004967,-32.982101,-105.885029,-25.569534,-93.622169,-17.507629,-72.002392,0.0,17.816599,26.841052,48.152601,45.322271,62.450909,58.703832,73.786864,67.311284,79.30414,0.0,52.655468,10.24229,54.143715,0.154095,5.259533,-11.717033,-4.803085,-25.567532,-9.310341,0.0,-17.378665,-40.116819,-54.523151,-45.046385,-19.727188,-47.222979,-20.469984,-46.723835,-27.429873,4.578009,270.947068,-107.318659,-210.617518
62,0.039253,0.35031,-0.235977,-1.689568,0.0,-68.919353,-38.395271,-102.540321,-33.101921,-105.623417,-25.480728,-93.250065,-17.221756,-71.594925,0.0,17.360449,26.815363,47.877256,45.340302,62.180257,58.777068,73.710541,67.418297,79.535827,0.0,52.25132,10.609589,54.606457,0.826607,5.352917,-10.897465,-4.143791,-24.717579,-9.495449,0.0,-16.513048,-38.992236,-54.585697,-43.884582,-20.111214,-46.101653,-20.960946,-45.62386,-26.762011,4.893866,271.288672,-107.278032,-212.315793
63,-0.277748,-0.207543,0.147915,-0.209442,0.0,-69.031048,-38.139038,-102.917862,-32.884254,-106.210899,-25.323257,-93.936882,-17.114754,-72.451801,0.0,17.143705,26.863343,48.422574,45.429099,62.202178,58.932308,73.892951,67.625223,79.331804,0.0,52.341156,10.653763,54.199047,0.805435,5.67873,-11.067181,-4.042568,-24.839859,-10.373955,0.0,-17.015187,-39.234606,-55.202537,-44.387724,-21.131531,-46.738532,-22.083321,-46.211785,-27.077154,5.036345,271.053449,-106.70989,-212.552915
64,-0.962791,0.374207,-0.729103,0.198095,0.0,-68.493176,-37.964516,-102.381477,-32.810898,-105.969543,-25.285034,-93.729458,-17.147598,-72.222748,0.0,17.015511,26.27233,47.730043,44.69748,61.727194,58.213287,73.304346,67.070642,78.940862,0.0,52.656498,10.641918,55.302887,1.002674,6.899185,-10.626125,-2.879562,-24.070415,-9.456425,0.0,-17.349334,-40.407972,-56.195885,-45.819825,-21.717821,-48.301219,-22.577078,-47.776726,-27.502831,4.703321,271.399946,-106.809225,-212.38253
65,-0.617409,0.060083,0.019913,-0.349585,0.0,-68.175087,-37.543373,-101.842461,-32.367554,-105.098534,-24.774513,-92.992458,-16.576538,-71.446037,0.0,16.671253,26.147039,47.181761,44.739964,61.941468,58.382236,73.302741,67.345864,78.785189,0.0,52.653122,10.836525,54.988632,1.152992,6.79636,-10.415668,-3.014717,-23.786488,-8.629303,0.0,-17.250364,-40.179341,-55.941906,-45.499417,-21.80228,-48.028328,-22.367929,-47.71391,-28.043147,4.68873,271.429324,-106.186495,-212.76282
66,-0.375252,-0.023527,0.170174,-0.629129,0.0,-68.639317,-37.472076,-102.321682,-32.022057,-105.110836,-24.162712,-93.062897,-15.776482,-71.611404,0.0,16.67996,26.65049,47.375781,45.227793,61.971293,58.736436,73.50874,67.514319,78.481254,0.0,53.072376,10.881157,54.782982,1.320419,6.072407,-10.23468,-3.191471,-23.740425,-8.799019,0.0,-16.042587,-39.500766,-56.430923,-44.8982,-20.771897,-47.508173,-22.25315,-47.259288,-28.048257,4.748011,271.317139,-105.581789,-213.480607
67,-0.300865,0.369947,-0.493584,0.039134,0.0,-68.183212,-37.131615,-102.706146,-32.008324,-105.996151,-24.360695,-93.700504,-16.080093,-72.143097,0.0,16.153784,25.871817,47.520709,44.234722,61.919176,57.899409,73.741724,67.079905,78.890165,0.0,53.26458,11.419601,55.711956,1.945267,7.159309,-9.625683,-2.297745,-23.235512,-7.868271,0.0,-16.540419,-39.879435,-55.887982,-45.263237,-21.404823,-47.80385,-22.631511,-47.503897,-28.735817,5.080519,271.601237,-105.441999,-213.527321
68,0.119934,-0.026553,0.342751,-0.139834,0.0,-68.158207,-36.992455,-101.759148,-31.904297,-104.699249,-24.348907,-92.591629,-16.237221,-71.346703,0.0,15.968842,25.685887,47.198804,44.056264,61.71188,57.718728,73.171027,66.891381,78.196029,0.0,53.085423,10.906048,55.03315,1.361504,6.71957,-10.169449,-2.634373,-23.626614,-8.205357,0.0,-16.080595,-40.18581,-56.345229,-45.614443,-20.848035,-48.057953,-22.100179,-47.529755,-27.64515,5.637617,271.559231,-104.662085,-213.682608
69,-0.590515,-0.020686,-0.41748,0.279698,0.0,-67.769852,-37.27375,-101.475449,-32.029266,-104.555111,-24.431419,-92.344666,-16.237106,-71.380005,0.0,16.316805,26.053487,47.561526,44.449861,61.959314,58.008769,73.423895,67.013153,77.994722,0.0,53.598118,11.184196,55.650215,1.643372,7.177505,-9.905491,-2.206764,-23.436069,-7.902145,0.0,-16.886901,-40.232724,-56.611635,-45.686258,-21.134619,-48.171311,-22.503456,-47.707272,-27.911757,5.676212,271.506851,-104.450455,-213.434603
70,-0.062141,-0.027108,0.260696,-0.281196,0.0,-67.414742,-37.207947,-101.228142,-32.060852,-104.217453,-24.44973,-91.916828,-16.152534,-70.358219,0.0,16.326562,25.815007,47.51089,44.083496,61.933934,57.687544,73.417597,66.793198,78.181023,0.0,53.214798,10.999489,55.347004,1.28437,6.85318,-10.447311,-2.522964,-24.046211,-8.227844,0.0,-16.33215,-40.548161,-56.64806,-46.128067,-20.495564,-48.501259,-21.940539,-47.699276,-27.351002,6.212339,271.377855,-103.59149,-213.817687
71,0.26104,0.210507,0.294857,0.056008,0.0,-67.87405,-37.64225,-101.847954,-32.353249,-105.059452,-24.536247,-92.910576,-15.940018,-71.309738,0.0,16.593941,25.91072,47.523426,44.348528,61.779126,57.966223,73.384128,66.968939,78.233635,0.0,52.781982,10.077667,54.760494,0.272655,6.43301,-11.361294,-3.22506,-24.689941,-8.882675,0.0,-16.911956,-41.305715,-56.182694,-46.815473,-20.385818,-49.130449,-21.515542,-48.220866,-26.744211,6.951485,271.524913,-102.818527,-213.825128
72,-0.164566,-0.020192,-0.48563,0.197956,0.0,-67.570496,-37.28611,-101.147518,-32.147141,-104.374294,-24.53373,-92.276802,-16.094513,-70.771351,0.0,15.592226,25.876757,46.74605,44.172046,60.958216,57.777576,72.886296,67.016178,78.162251,0.0,52.574844,10.471516,55.204411,0.501881,7.493019,-11.098652,-2.653999,-24.314404,-8.554859,0.0,-16.758074,-41.323607,-54.690665,-46.551752,-19.882182,-48.785172,-20.797786,-47.926255,-26.520907,6.959267,271.292531,-103.131809,-213.839361
73,-0.126228,0.033345,-1.168156,2.089263,0.0,-67.777176,-37.413254,-100.723915,-32.469063,-104.293728,-25.008316,-92.136612,-16.662483,-70.901928,0.0,16.531512,26.319014,47.60154,44.80295,61.628084,58.273493,73.394934,66.966346,78.208873,0.0,53.588734,10.848598,55.15646,0.973835,7.104607,-10.780907,-3.047791,-23.995056,-8.695621,0.0,-19.704433,-40.747121,-55.778684,-46.171895,-23.012202,-48.897619,-22.976541,-48.60625,-28.451518,6.964188,271.230179,-104.168816,-211.845795
74,0.0214,0.051747,-0.157928,0.786855,0.0,-68.108826,-37.45182,-101.20285,-32.227249,-103.335056,-24.554329,-91.424332,-16.227837,-70.05352,0.0,16.683109,26.382184,47.61247,44.708966,62.199646,58.207112,73.578642,67.104543,78.684413,0.0,53.657455,11.586685,55.569534,1.803761,8.040104,-10.039272,-2.330475,-23.546505,-8.233509,0.0,-19.786407,-41.2992,-57.480271,-46.652483,-23.541511,-49.304817,-23.760956,-48.90151,-28.243048,7.076969,271.199118,-104.235363,-211.141748
75,0.379715,0.046683,-0.418854,-0.261698,0.0,-67.827644,-37.796402,-101.338463,-32.600212,-104.063759,-24.909096,-91.885471,-16.466217,-70.085278,0.0,16.403935,26.060156,47.911898,44.280418,61.815373,57.774612,73.386968,66.699584,78.682066,0.0,52.79789,11.921425,56.61335,2.337112,8.391953,-9.387875,-1.806793,-22.950668,-7.64986,0.0,-19.851939,-40.528216,-56.935223,-45.816938,-23.159399,-48.294133,-23.727858,-47.821464,-28.23746,7.508411,271.176811,-104.602489,-211.472437
76,-0.282898,0.035506,-0.106602,0.568474,0.0,-67.633152,-37.64534,-101.13699,-32.397652,-104.336414,-24.627342,-91.790428,-15.992775,-69.737434,0.0,16.306678,26.179828,47.856137,44.34118,61.972899,57.764361,73.313424,66.60665,78.728626,0.0,54.332428,11.349621,56.159763,1.914768,8.236027,-9.655552,-1.651783,-23.101387,-7.625885,0.0,-19.657271,-40.831271,-57.118876,-46.029236,-21.992178,-48.424858,-22.786273,-47.940179,-27.72592,7.37998,271.161867,-104.554625,-210.954413
77,-0.129204,0.09102,0.916729,0.396129,0.0,-67.172756,-37.656441,-101.500282,-32.250595,-104.118118,-24.452591,-91.537399,-15.986137,-69.6381,0.0,17.112953,26.189955,48.021999,44.353839,62.534766,57.725582,73.773155,66.451224,78.868799,0.0,53.354359,9.848385,54.883175,0.375252,7.435741,-11.076565,-2.378826,-24.201679,-8.172855,0.0,-18.813081,-41.713947,-56.607112,-46.952806,-20.940522,-48.943469,-21.710025,-47.793568,-26.1672,7.471933,271.185934,-103.416739,-210.625237
78,0.964966,0.931381,0.771561,1.326646,0.0,-66.942787,-37.783356,-101.035824,-32.614288,-103.455963,-25.036125,-90.903111,-16.714897,-69.106236,0.0,16.682368,24.93988,46.360913,43.127908,61.703976,56.626919,72.695487,65.565908,78.769567,0.0,51.497955,8.923473,53.018188,-0.825062,6.897869,-12.254162,-3.192158,-25.247498,-9.319382,0.0,-19.866003,-41.281061,-55.820829,-45.674078,-21.069997,-47.34276,-21.231968,-46.2227,-25.889354,8.811007,272.114954,-102.27107,-209.300953
79,-0.287704,-0.084104,-1.813889,2.814923,0.0,-66.747437,-36.760483,-100.028801,-31.871223,-103.693027,-24.676552,-90.87759,-16.457176,-68.914719,0.0,17.19786,25.880586,46.994657,44.24627,61.496371,57.502972,73.209189,65.911093,79.182492,0.0,50.480461,9.449215,53.887653,-0.427895,8.355217,-11.893272,-1.386967,-24.574928,-5.986862,0.0,-21.196693,-41.909958,-53.673998,-46.056143,-19.688748,-47.068449,-20.290506,-45.214038,-24.853923,8.670073,271.521872,-103.938189,-206.995007
80,0.448837,-0.005372,-2.611828,6.651754,0.0,-67.57473,-37.011337,-100.257797,-32.152176,-102.082901,-25.057182,-89.989185,-17.232628,-68.796158,0.0,15.987429,26.100541,46.067598,44.612326,61.076221,57.899903,73.305952,66.360142,79.831674,0.0,52.335491,9.817886,54.826927,-0.156784,8.160667,-11.410847,-1.867962,-23.487625,-7.52037,0.0,-24.139996,-43.556379,-53.762039,-47.853034,-18.79752,-48.120027,-19.323742,-45.452579,-23.622466,9.467554,271.02296,-106.201372,-200.836793
81,0.111694,0.43392,-2.48806,16.658625,0.0,-67.596703,-37.45697,-100.257626,-32.989998,-103.064747,-26.139336,-90.443344,-18.353577,-69.249401,0.0,15.683864,25.740783,45.649918,44.69007,60.513675,58.335244,73.232345,66.92417,80.315241,0.0,49.359226,28.570461,81.034184,14.996853,42.467365,-1.489048,7.085552,-18.663311,-4.012928,0.0,-34.446773,-50.425741,-53.168185,-54.495387,-33.513477,-53.982735,-19.270142,-50.817008,-24.857906,9.719439,270.143171,-108.549242,-185.491877
82,0.012703,-0.073174,-0.258179,13.109612,0.0,-67.30196,-36.853638,-100.351925,-32.265816,-102.560062,-25.437469,-89.913597,-17.822914,-68.442822,0.0,15.796558,26.221263,45.155977,44.91163,61.322976,58.276334,73.544864,66.742933,80.591883,0.0,47.675629,22.290001,64.926682,8.219032,29.298706,-6.654682,3.782158,-21.021767,-6.909885,0.0,-33.015167,-50.555464,-58.662583,-55.177698,-31.616319,-54.042123,-18.737838,-49.489559,-21.188789,9.714689,269.251186,-108.824873,-173.201075
83,0.417366,0.129738,2.821598,13.784869,0.0,-67.696667,-36.563644,-99.843521,-31.772804,-102.325687,-24.877625,-89.781017,-17.180786,-68.129196,0.0,15.006091,25.826678,45.187469,44.53063,60.992426,58.136222,73.748579,66.813452,81.845108,0.0,35.628662,17.043571,59.897518,2.72707,17.330303,-11.504631,1.4851,-25.386715,-8.081474,0.0,-40.134974,-47.62939,-85.589791,-49.57919,-27.135416,-46.743302,-19.559428,-41.609033,-17.890823,10.365028,268.83752,-105.770302,-159.95961
84,0.363235,-0.185251,3.246002,11.770045,0.0,-67.497826,-35.816689,-99.228344,-30.878677,-101.909752,-23.773155,-89.216995,-15.814018,-67.133331,0.0,14.273114,25.230971,45.502397,43.789378,60.488728,57.538108,73.920368,66.523657,82.764942,0.0,36.88282,13.155212,43.098793,-1.240597,12.935314,-14.505329,-3.405819,-26.5662,-12.690811,0.0,-40.52113,-45.965679,-63.846221,-46.986784,-12.414179,-41.955391,-4.593521,-35.156933,-4.404811,11.909323,269.366597,-101.343241,-147.475236
85,-0.359917,0.113868,1.073456,36.032523,0.0,-66.840534,-35.274353,-98.979321,-30.162277,-101.456108,-23.024368,-88.916588,-14.718246,-66.68375,0.0,13.90082,25.805559,45.532346,44.344453,60.478786,57.94566,74.496191,66.693594,84.158525,0.0,39.154558,15.751334,49.649849,1.567784,23.779793,-12.380647,1.086016,-25.098009,-10.226726,0.0,-43.884481,-49.012398,-67.720804,-51.077856,-23.11517,-47.062597,-4.846203,-40.360107,-7.577562,13.239698,270.520543,-98.579493,-110.402636
86,0.168571,0.052858,1.073456,36.032524,0.0,-66.548424,-35.535049,-98.639832,-30.083885,-100.183754,-22.733231,-87.618027,-14.569817,-66.359596,0.0,13.846048,25.764001,45.510733,44.453134,60.859415,58.091638,74.812353,66.800793,83.839893,0.0,41.426296,18.347454,56.200905,4.376163,34.624271,-10.255966,5.57785,-23.629818,-7.762642,0.0,-47.247834,-52.059117,-71.595388,-55.16893,-33.816162,-52.169805,-5.098886,-45.563282,-10.750314,14.61648,272.319332,-96.297827,-72.624181
87,1.068535,-0.109175,5.441208,29.181006,0.0,-66.984558,-35.414886,-98.795986,-30.229797,-101.091557,-23.02803,-88.532467,-14.930763,-67.128468,0.0,13.771762,26.005013,45.737974,44.669692,60.998662,58.280162,74.818158,66.972027,84.037494,0.0,37.135305,15.891552,48.686428,3.75535,33.161888,-8.207674,10.27854,-18.891535,-1.176596,0.0,-43.95294,-49.556913,-63.296588,-50.128923,-35.395367,-45.223902,-12.490102,-37.816956,-13.053204,17.130775,272.575396,-89.410858,-43.077936
88,0.778656,0.330179,5.441208,29.181006,0.0,-67.075253,-34.548912,-98.102589,-29.452744,-100.761223,-22.313576,-88.498707,-14.238052,-66.82497,0.0,14.129359,25.818033,45.462135,44.256767,60.755304,57.74775,74.335022,66.374283,84.039161,0.0,32.844315,13.43565,41.171951,3.134537,31.699505,-6.159382,14.979229,-14.153252,5.409451,0.0,-40.658046,-47.054709,-54.997788,-45.088916,-36.974572,-38.278,-19.881317,-30.070629,-15.356092,20.512047,272.397169,-81.367035,-14.405337
89,1.261826,0.220511,-7.836456,35.094782,0.0,-67.676811,-35.274124,-98.406086,-30.018082,-100.648899,-22.66674,-88.562794,-14.203377,-67.375832,0.0,14.277128,26.826911,46.343622,45.286888,61.651364,58.656161,75.248867,67.085771,84.701311,0.0,46.537513,13.104143,49.215803,4.26198,31.37392,-2.498017,18.599395,-7.073765,12.290382,0.0,-35.439241,-40.630367,-35.679929,-32.889273,-16.74682,-21.151338,-1.961302,-7.964985,6.666574,27.219458,271.012647,-83.757906,19.084413
90,-0.329361,0.110101,-7.836457,35.094781,0.0,-67.577991,-34.379997,-97.524319,-28.903656,-99.646339,-21.436501,-87.693501,-12.982521,-66.235542,0.0,15.35566,27.016608,46.822744,45.270894,62.097141,58.557422,75.601276,67.095095,84.837471,0.0,60.230713,12.772636,57.259655,5.389423,31.048336,1.163349,22.219563,0.005722,19.171314,0.0,-30.220436,-34.206023,-16.362068,-20.68963,3.480932,-4.024676,15.958715,14.140659,28.689241,31.490793,271.57717,-86.993666,54.633615
91,0.831642,0.225883,0.355397,33.412237,0.0,-67.239704,-35.435944,-98.602238,-30.044289,-100.533714,-22.516365,-88.718433,-14.173965,-68.09166,0.0,14.838686,26.593988,47.340953,45.226187,62.307833,58.798248,75.913795,67.458064,83.858727,0.0,62.074184,29.437694,68.109941,25.763168,45.19329,20.735235,32.701091,15.332307,24.59773,0.0,-33.434853,-20.78261,-2.877785,-4.950021,14.443545,12.212178,25.9587,29.962257,35.976222,33.265858,271.494007,-85.694847,87.736807
92,1.040497,0.281211,0.355396,33.412237,0.0,-67.633896,-35.162773,-98.152027,-30.133324,-100.748863,-22.897339,-88.773708,-14.642029,-67.020264,0.0,14.578593,26.594235,46.663119,44.820549,61.484885,58.259044,75.661792,66.892492,85.298129,0.0,63.917656,46.102753,78.960228,46.136913,59.338245,40.307121,43.182621,30.658894,30.024147,0.0,-36.649271,-7.359198,10.606498,10.789588,25.406157,28.449032,35.958685,45.783855,43.263203,34.352674,271.272292,-85.293131,120.646118
93,0.048294,0.035321,16.801987,24.461746,0.0,-68.004513,-34.996147,-98.435783,-29.657707,-100.87698,-22.384987,-89.583092,-14.310722,-69.192123,0.0,14.55661,27.333758,47.730043,45.840974,62.207921,59.27669,75.702732,67.838632,84.461102,0.0,53.735847,25.042648,68.701973,14.589787,55.71991,3.289089,40.079327,-7.379093,17.752247,0.0,-30.463454,0.801026,18.944409,12.966475,25.381704,24.428278,30.914171,35.108444,33.218696,35.333433,271.301732,-67.55868,145.101983
94,0.536842,0.332773,-4.152145,33.646688,0.0,-66.614513,-35.438347,-98.38726,-30.207596,-100.564728,-22.938538,-89.133511,-14.740677,-69.123745,0.0,15.309656,27.832393,47.164038,45.993065,61.659577,58.893776,75.554099,67.063232,83.60024,0.0,58.824635,32.49361,74.556084,25.98278,63.747711,17.973347,47.26902,8.860016,33.045444,0.0,-29.611299,8.396265,17.879153,26.259424,29.029239,41.88728,36.2633,54.891485,45.447006,36.206932,270.720799,-71.374168,177.834965
95,-0.378456,-0.716058,2.16013,17.356435,0.0,-68.456497,-35.504036,-97.108841,-30.56694,-100.085278,-23.374329,-88.72839,-14.89254,-68.728752,0.0,17.575032,29.649213,49.489868,47.323354,62.618067,59.6559,77.258657,67.157402,84.445232,0.0,63.269405,25.716133,82.095051,16.57465,78.870449,8.754272,65.955105,1.514397,41.849442,0.0,-18.075272,8.752009,32.169124,23.001658,43.814634,35.145803,49.393722,45.726427,50.734632,35.824814,269.706518,-69.217701,194.893177
96,0.562706,1.596125,2.887115,18.672584,0.0,-53.40723,-36.794128,-97.318382,-33.077545,-101.335258,-25.825653,-89.647465,-17.457733,-69.580994,0.0,-17.946584,28.042591,47.75357,45.230077,61.776965,57.988947,74.546085,66.51847,84.060465,0.0,61.562977,21.579323,77.83453,12.465763,78.359585,3.790627,62.493038,-4.4454,36.823483,0.0,-14.666649,15.359612,41.426375,24.985946,50.54617,32.494364,53.469929,37.941244,51.121314,36.583586,270.824772,-66.13452,213.087889
97,3.177795,49.89353,31.478691,33.662249,0.0,-69.704933,-33.293953,-99.559078,-32.684669,-101.609116,-30.152092,-92.368183,-26.206398,-75.437164,0.0,36.133995,2.552392,14.704811,-14.525982,-5.791077,-31.960963,-41.547406,-47.5317,-55.627982,0.0,28.451443,12.822361,27.63731,18.234501,12.119465,23.025742,0.745525,26.496334,1.676788,0.0,-25.997973,7.141806,41.153192,34.064738,69.031527,60.415306,91.582901,83.019292,105.086048,39.768105,320.426979,-34.649105,246.458816
98,-7.213211,-5.098361,-31.373291,2.394434,0.0,-67.114449,-27.972908,-90.019627,-24.860344,-90.614719,-20.303879,-77.473869,-14.45034,-60.850582,0.0,34.204171,11.845396,20.610559,-0.860307,-0.166417,-13.886124,-13.53569,-27.521726,-20.110936,0.0,65.550556,25.976372,86.434765,25.873604,84.255924,24.695206,75.443516,22.090588,62.039051,0.0,-13.665057,18.66258,41.423967,46.04333,55.518931,66.402873,71.835057,79.164213,86.467249,32.364292,314.996771,-66.212997,248.521403
99,-3.23822,-34.930294,3.463669,4.266583,0.0,-59.056778,-14.953995,-66.211338,-15.4953,-84.026184,-14.674873,-84.175758,-11.971779,-66.540985,0.0,12.223247,18.872037,9.619232,33.014611,22.593488,44.438499,45.648375,52.242392,70.231831,0.0,64.984875,23.437386,90.110378,16.26955,87.303944,9.894619,75.063343,4.787922,55.612392,0.0,-5.28954,25.762395,52.286359,45.524627,63.602307,59.716106,73.155034,67.81103,77.462372,29.042301,279.656069,-62.833099,252.377577
100,5.115623,-3.289321,4.869804,6.714122,0.0,-48.656673,-20.696182,-59.61565,-22.717438,-77.164192,-23.177719,-79.432755,-21.310043,-69.965687,0.0,-9.671658,18.705003,13.919469,36.63973,32.157515,50.211668,51.860775,59.948411,76.543896,0.0,65.029964,23.847141,90.498562,15.673256,88.781605,8.758621,75.313282,3.431911,55.047741,0.0,-6.660461,28.733578,52.934491,46.576174,66.743056,58.786392,76.685799,65.595178,77.358323,33.922062,276.361746,-58.199158,259.086698
101,-3.468132,-1.456507,2.719746,3.002058,0.0,-43.165627,-25.555916,-38.258057,-24.61956,-54.399662,-21.94931,-56.079369,-17.290535,-62.09753,0.0,-6.158492,21.549535,16.539539,37.331026,34.461176,50.180176,55.351093,60.425186,77.18925,0.0,64.996834,24.553642,91.760788,16.317673,90.796852,9.575157,78.539543,4.201012,58.595123,0.0,-7.193367,28.136143,52.487541,45.579708,65.429193,58.054218,76.629606,65.439258,79.632467,30.324841,274.908882,-55.608501,262.092399
102,-3.822441,5.805527,2.164364,1.445145,0.0,-40.263004,-23.968735,-11.178017,-21.512833,-17.437019,-16.70414,-16.4431,-9.952812,-36.216545,0.0,-2.72239,19.76217,19.905863,29.987606,33.797482,38.259629,48.836425,44.557368,58.905077,0.0,64.613056,26.121197,93.394833,17.803688,91.125469,10.476894,78.191929,4.306812,57.176914,0.0,-6.95112,27.535373,52.259188,45.228842,64.246117,57.507973,75.109187,64.729005,78.775001,26.317749,280.865651,-53.628788,263.688786
103,-10.038643,22.068177,3.067188,0.678328,0.0,-56.266937,-46.277332,11.978645,-47.300091,22.434883,-44.153423,18.19622,-39.001007,-59.577255,0.0,36.295657,9.057983,21.02089,9.24805,21.387132,8.055032,21.394171,8.204962,39.715889,0.0,64.726524,27.410774,94.227333,19.747753,93.431168,12.737961,80.548553,6.373444,60.140877,0.0,-6.235927,28.59569,51.742399,45.856967,64.323428,57.916082,75.454002,65.225293,78.97853,16.242113,302.999052,-50.598593,264.432338
104,-7.774429,2.001084,3.694324,1.001159,0.0,-14.332123,-26.800804,17.952347,-29.9897,30.879478,-27.614307,28.125,-22.908897,-48.825359,0.0,3.146677,8.89984,21.411585,14.168447,25.898555,18.252496,29.649646,22.621708,40.601266,0.0,63.813229,28.413734,93.346882,20.578651,92.543621,12.615623,79.47401,4.861507,59.07114,0.0,-6.535787,27.048162,49.689507,44.422135,64.316327,57.013538,76.309862,64.968535,80.954481,8.718824,305.075178,-46.653128,265.50854
105,16.356125,-25.754491,3.863125,1.579761,0.0,-23.319283,-39.652519,14.087906,-46.117287,15.383148,-47.840195,2.502594,-46.445618,-71.969833,0.0,-11.270006,18.938975,38.042144,35.827836,48.447891,47.356576,56.16978,57.360513,79.211514,0.0,63.853798,26.804008,90.737915,18.042755,89.876175,9.180336,75.72052,0.903168,52.247429,0.0,-5.875984,27.274663,51.01924,45.261693,66.522669,57.86273,78.206959,65.345459,81.19043,25.549707,279.140144,-42.315245,266.907758
106,-27.062645,4.123199,-0.467091,0.914894,0.0,18.561058,-13.866062,46.991272,-20.384102,44.561691,-23.547134,34.81041,-21.359425,-47.722778,0.0,-16.098085,16.311186,42.10211,35.037184,52.802098,47.71053,57.060592,57.467342,72.601935,0.0,63.587666,27.789173,90.961132,19.171486,91.329746,10.400505,78.66148,2.226162,55.982723,0.0,-3.47204,28.367831,51.730049,46.40457,67.043102,58.897234,77.959525,66.135926,80.45912,-1.159344,283.097774,-42.428741,267.657084
107,-3.832283,7.245546,-0.524311,0.755763,0.0,23.050117,-4.969654,60.719376,-12.066822,51.980209,-17.104168,33.282394,-18.372688,-47.095356,0.0,-29.28538,13.33883,37.656266,30.090791,43.693789,42.432166,53.445537,52.088757,63.200682,0.0,62.927971,26.483231,91.374321,17.944279,91.926498,9.82132,79.956322,2.580299,58.778343,0.0,-3.251468,27.436634,51.741411,46.185603,66.532549,59.265205,77.699555,66.890702,80.432258,-4.795704,290.121374,-42.75713,268.1909
108,22.913132,-13.372299,-0.874729,-0.201059,0.0,-16.162262,-34.104767,22.720985,-40.325146,25.662918,-42.339878,13.586197,-41.890011,-65.278015,0.0,-3.25647,22.616953,43.269625,39.663092,53.916446,50.401057,61.114259,58.714453,78.435003,0.0,63.650494,27.614594,92.001514,19.371986,92.710018,11.128635,81.425114,3.438892,60.644474,0.0,-2.11594,28.074887,51.453716,46.124532,66.007609,58.867903,76.950399,66.357795,80.295357,18.187752,276.540482,-43.561535,267.781248
109,-23.469315,13.159692,1.966896,0.763791,0.0,23.64521,-8.798561,58.717804,-15.262184,52.894363,-18.646603,39.143944,-17.27726,-45.937614,0.0,-29.327679,10.790514,36.115531,29.232522,43.668101,42.68102,50.562781,52.714536,63.877096,0.0,62.960758,27.865849,90.850239,19.204159,90.257092,10.104961,77.612057,1.252384,55.930882,0.0,-3.884904,26.577501,50.88765,44.238551,66.078684,57.023109,76.16901,64.976315,78.83885,-5.281649,289.550785,-41.594725,268.395649
110,-1.083527,1.324238,0.069523,-0.467265,0.0,25.208244,-4.285755,61.999168,-10.883217,51.87973,-14.415207,36.012611,-13.83728,-42.672787,0.0,-33.137062,12.176996,34.868111,29.280255,42.17195,41.974966,51.25383,51.696704,62.148146,0.0,63.027534,26.691914,90.160217,18.07291,90.667305,9.305878,78.374977,1.0429,55.964699,0.0,-2.962414,26.869704,51.078027,44.823574,66.752689,57.528969,77.460396,65.347744,79.74195,-6.356392,290.805985,-41.516418,267.859347
111,0.622902,-5.529008,-0.105343,-0.027602,0.0,25.710754,-8.692474,50.377808,-14.168758,48.502007,-16.507645,38.160782,-15.490379,-28.360634,0.0,-10.484355,16.499587,33.48237,33.305702,45.778174,45.22841,52.814263,54.740752,71.778802,0.0,63.326855,27.426167,90.481167,18.58017,90.661983,9.60022,77.848721,1.154251,55.832806,0.0,-2.810138,26.392435,51.455322,44.680066,66.905028,57.755778,77.51523,65.938325,79.992101,-5.681448,285.219657,-41.569719,267.774425
112,-0.800285,-1.167268,-0.226021,-0.060577,0.0,25.558662,-6.198463,51.13369,-11.770592,50.44281,-14.224663,39.368935,-13.341122,-26.560364,0.0,-10.190053,18.24101,36.476895,33.593089,50.5952,44.358779,57.180264,52.440426,72.31776,0.0,63.566723,27.544384,90.592289,18.759899,90.883541,9.542942,78.002644,0.708504,55.448742,0.0,-2.872506,26.260351,51.705905,44.213665,66.9238,57.07004,77.316209,65.119329,80.072191,-6.463509,283.991071,-41.777515,267.652529
113,21.011353,-8.375517,-0.021801,-0.060268,0.0,-11.25309,-30.727558,25.757561,-37.367992,27.397499,-40.599861,12.145386,-40.9869,-59.97179,0.0,-2.215975,22.124987,40.919775,40.305729,54.744272,51.741535,62.729218,60.168984,78.983532,0.0,64.06517,27.604179,90.544281,18.816719,90.781288,9.618244,77.96505,0.90929,55.829887,0.0,-2.68923,26.32278,51.47854,44.253433,67.08151,57.004275,77.571176,64.959643,80.157407,14.547901,275.578797,-41.799259,267.555504
114,-20.339928,10.859674,0.068665,0.353768,0.0,24.941483,-7.641964,59.035835,-13.590431,53.86219,-17.026863,41.699867,-16.183319,-41.958904,0.0,-27.849251,13.545509,40.177782,31.647951,46.508558,44.922869,53.583426,54.940947,70.119384,0.0,64.471893,27.592506,90.405922,18.92664,90.755882,9.715919,77.905197,0.949688,55.981865,0.0,-2.681018,26.247877,51.286866,43.931837,66.574354,56.544667,77.032219,64.526834,79.601159,-5.795231,286.437483,-41.733799,267.908284
115,0.246506,-3.014161,-0.338745,-0.319682,0.0,13.662415,-9.672661,54.500198,-14.188328,55.112915,-15.381718,42.781677,-12.613792,-32.815075,0.0,-0.969296,18.507586,43.474328,34.112101,47.34577,45.217233,55.041044,54.034513,72.660598,0.0,65.360413,28.549805,90.750389,19.894238,90.652542,10.378876,77.552032,1.103954,55.320511,0.0,-2.24049,26.677783,51.359238,44.07306,66.565462,56.437468,77.34801,64.204806,79.628577,-5.549812,283.416561,-42.073631,267.581841
116,-3.702621,17.528595,-0.632114,-0.025503,0.0,1.284485,-6.713963,48.567238,-10.192223,56.303215,-10.589504,43.978958,-8.31459,-19.078274,0.0,22.463627,10.119719,28.01962,18.715253,35.184705,25.048746,42.350594,30.186812,54.122137,0.0,66.417789,28.11779,90.516872,19.56562,90.64436,10.332985,77.928371,1.447392,55.743999,0.0,-2.271427,26.218113,51.535597,44.115853,67.074903,56.924247,77.697394,64.922345,80.166052,-9.270315,300.942316,-42.723627,267.553497
117,24.033279,-24.784825,0.398655,-0.130911,0.0,-12.958145,-31.513538,25.913086,-38.884048,28.087921,-42.569904,12.6091,-43.449554,-63.13385,0.0,-1.241677,20.739802,41.540243,38.563009,53.634432,50.080449,61.149457,59.019994,79.084741,0.0,66.250076,28.222504,90.306244,19.578609,90.579758,10.208874,77.757225,1.15099,55.908966,0.0,-2.182568,26.706312,52.018732,44.512476,67.122327,57.219167,77.543883,65.113525,80.253182,14.756441,276.156364,-42.331495,267.421459
118,-21.689301,14.629537,-0.978756,0.279853,0.0,9.112129,-9.559193,53.798561,-14.717674,53.615112,-17.992344,42.928848,-17.439079,-38.243809,0.0,-16.560719,10.020733,38.828844,26.480059,44.839506,38.798587,51.27958,48.514088,62.826475,0.0,66.528797,28.619728,91.010685,20.052624,91.015148,10.837669,77.794933,2.027206,56.097164,0.0,-2.820265,26.517232,51.672189,44.265227,66.882736,56.81501,76.957439,64.598835,79.522242,-6.942987,290.779124,-43.320379,267.694535
119,33.601456,-12.348909,0.576668,-0.062738,0.0,-24.914589,-43.687305,9.286079,-51.500874,13.071098,-54.362354,4.834213,-54.798088,-81.156521,0.0,5.876663,17.900703,43.060415,33.075373,52.021635,43.311862,57.884774,52.857179,79.126113,0.0,66.415043,29.16441,90.717831,20.510559,90.588741,10.836868,77.568684,1.417236,55.755329,0.0,-2.403326,26.352729,51.976619,44.305612,67.504809,57.164332,77.364436,65.214178,80.32049,26.656065,278.409992,-42.746115,267.611574
120,-37.543716,-1.92192,-0.889606,-0.021613,0.0,23.482018,-6.311245,54.261246,-15.346642,59.439011,-20.502548,49.151573,-21.227989,-33.268433,0.0,-4.215083,18.131526,44.779546,38.021952,58.516605,51.620566,63.25811,61.554972,77.319235,0.0,66.926079,28.219585,91.000671,19.827747,91.138802,10.837498,78.208923,2.219639,57.000275,0.0,-2.142616,25.985314,51.642672,44.130549,67.678946,57.024097,77.378762,65.012378,79.787831,-10.886021,276.46524,-43.63409,267.567129
