takenoko1/special-research/HandMotion_SimilarSearch_自分用/NewProject/handData/test_key/d4_feature_d2/116.csv
frame,vel_0x_L,vel_0y_L,vel_0x_R,vel_0y_R,posFromWrist_0x_L,posFromWrist_1x_L,posFromWrist_2x_L,posFromWrist_3x_L,posFromWrist_4x_L,posFromWrist_5x_L,posFromWrist_6x_L,posFromWrist_7x_L,posFromWrist_8x_L,posFromWrist_9x_L,posFromWrist_0y_L,posFromWrist_1y_L,posFromWrist_2y_L,posFromWrist_3y_L,posFromWrist_4y_L,posFromWrist_5y_L,posFromWrist_6y_L,posFromWrist_7y_L,posFromWrist_8y_L,posFromWrist_9y_L,posFromWrist_0x_R,posFromWrist_1x_R,posFromWrist_2x_R,posFromWrist_3x_R,posFromWrist_4x_R,posFromWrist_5x_R,posFromWrist_6x_R,posFromWrist_7x_R,posFromWrist_8x_R,posFromWrist_9x_R,posFromWrist_0y_R,posFromWrist_1y_R,posFromWrist_2y_R,posFromWrist_3y_R,posFromWrist_4y_R,posFromWrist_5y_R,posFromWrist_6y_R,posFromWrist_7y_R,posFromWrist_8y_R,posFromWrist_9y_R,posFromBody_0x_L,posFromBody_0y_L,posFromBody_0x_R,posFromBody_0y_R
2,-21.032925,13.112762,-0.111351,-0.126341,0.0,22.00407,-7.429218,54.713688,-14.195194,54.318981,-18.267803,39.072933,-18.43071,-43.347931,0.0,-26.888846,10.763282,34.447838,28.311576,44.637088,41.151154,51.150892,50.653616,62.683646,0.0,63.493938,25.45435,89.467678,17.147026,89.44067,8.637028,75.639324,0.862312,53.599834,0.0,0.932122,26.107024,50.459164,43.851376,64.74858,56.474148,74.52614,64.407162,76.536672,-8.547649,288.665994,-43.750019,266.450666
3,1.214962,0.335799,0.477619,0.0268,0.0,23.010635,-8.527737,53.405342,-14.857864,49.487114,-18.396606,35.575562,-18.429623,-45.586166,0.0,-29.586228,11.601791,33.459893,28.503002,42.609946,41.437552,49.113005,50.821639,62.398483,0.0,61.171761,26.509552,89.023933,17.938557,88.562508,8.822536,75.147743,0.271511,53.492546,0.0,1.28941,26.206813,50.096133,43.685638,64.486634,56.043377,74.488781,63.638369,76.956883,-7.203913,288.885609,-43.143625,266.361282
4,0.007324,2.919251,-0.436363,-0.168085,0.0,24.893875,-8.62072,53.191109,-14.101753,47.243614,-16.919689,32.567253,-16.512966,-45.919533,0.0,-35.538906,6.576789,27.989177,24.154044,40.93052,38.379672,48.827162,48.794435,58.797754,0.0,61.935654,26.711025,90.247421,17.983189,89.799728,8.882332,76.21273,0.496845,54.066925,0.0,1.588653,26.485493,50.529559,43.984139,64.594265,56.314276,74.629448,63.811517,76.955463,-7.082405,291.744684,-43.465805,266.133022
5,-10.585957,-10.084213,-0.112553,-0.160428,0.0,5.076828,-6.169281,54.024754,-9.051647,58.598042,-8.754845,53.659687,-5.899372,-10.362568,0.0,10.504116,18.508883,43.985127,29.645632,53.660738,36.243416,55.008811,41.508565,66.429364,0.0,62.31348,26.070557,90.206738,17.194061,89.511623,8.3214,76.092052,0.4006,54.611378,0.0,1.819723,26.635855,50.767175,44.315121,64.929076,56.727139,74.958269,64.172819,77.32294,-17.575665,281.636373,-43.485661,265.948496
6,31.694813,-8.069112,-0.141048,0.150918,0.0,-15.871582,-29.482269,20.168037,-36.823025,25.052032,-41.156616,12.385254,-43.111324,-64.869347,0.0,3.904293,21.773195,42.063269,39.396948,53.479068,50.878758,61.232635,60.281617,78.887633,0.0,62.351074,26.165257,90.461311,17.290821,89.447021,8.375473,76.073227,0.424519,54.281845,0.0,1.407477,26.979867,50.450951,44.696924,64.84738,57.011068,74.977844,64.135275,77.000973,14.23708,273.533145,-43.508778,266.065297
7,-19.869919,12.777704,-0.012875,0.129367,0.0,18.648949,-12.313328,50.174789,-18.397179,49.940186,-20.908298,39.145203,-19.503536,-45.333366,0.0,-24.908017,11.173799,36.188397,29.334286,47.037512,42.67713,53.234783,52.662419,65.095741,0.0,62.204876,25.64043,90.296116,16.809425,89.005108,8.090572,75.863743,0.365925,54.266109,0.0,1.15677,27.02902,50.301947,44.600841,64.773527,56.831745,74.938509,63.97176,76.835976,-5.541115,286.284173,-43.429928,266.167988
8,-1.381645,4.604172,0.174923,0.177594,0.0,25.814552,-9.387531,51.761513,-14.993935,45.677376,-17.96236,31.616478,-17.425518,-47.077732,0.0,-35.450973,7.011759,29.852743,24.559559,41.426499,38.824522,49.185932,49.23737,58.74397,0.0,62.649078,25.213737,90.121078,16.373806,88.7463,7.735405,75.43602,0.025349,53.817329,0.0,0.296217,27.150545,50.008695,44.469003,64.38981,56.571467,74.559053,63.662884,76.54754,-6.818733,290.843514,-43.150978,266.300751
9,-8.68206,-12.56485,0.2314,0.236257,0.0,15.821342,-5.48275,54.674263,-10.372982,55.333214,-12.044678,46.640739,-10.176487,-28.981018,0.0,-8.955848,18.767185,46.355232,35.51118,57.977215,46.262482,60.673855,53.732368,72.25144,0.0,62.514725,25.069485,89.800301,16.326485,88.589859,7.797832,75.507317,0.167255,53.944931,0.0,0.008769,26.93096,49.66882,44.411637,63.710061,56.691942,74.04529,64.020975,76.141284,-15.466461,278.243775,-42.885246,266.502119
10,26.510239,-5.176599,-0.181389,-0.190191,0.0,-9.392509,-25.15852,24.319153,-32.106915,28.771706,-36.747494,15.217552,-39.409161,-59.539433,0.0,-0.678637,21.807405,41.964036,40.014884,54.413043,51.753638,62.351923,61.109072,79.914728,0.0,62.869606,25.468655,90.414162,16.71936,89.046707,8.085938,75.712852,0.323467,54.139023,0.0,0.169814,27.210813,49.521484,44.627702,63.968981,56.81958,74.362007,63.972933,76.508205,11.132812,273.050766,-42.9776,266.295518
11,-18.103409,14.896484,-0.153923,-0.146904,0.0,19.857445,-10.187244,55.336647,-16.467133,52.601051,-19.010811,38.794785,-17.213402,-40.839272,0.0,-25.8063,9.755886,35.276096,27.990844,43.702928,41.381236,51.253398,51.47996,63.9612,0.0,63.475227,25.587158,90.488548,16.977539,89.209671,8.384171,76.30291,0.475159,54.673691,0.0,-0.120475,27.074221,49.59015,44.412255,64.288292,56.560599,74.580048,63.813926,76.754898,-6.933947,287.928648,-43.094873,266.130011
12,1.227036,3.271043,-0.036106,-0.277692,0.0,24.985542,-9.348679,52.413139,-14.606495,46.496201,-17.412357,32.443657,-17.104912,-45.130119,0.0,-35.788131,7.002435,28.550859,24.181894,42.446122,38.356886,49.682652,48.84365,59.54549,0.0,63.652782,25.441246,90.745411,16.719933,89.814892,8.123474,76.408596,0.337143,54.567776,0.0,-0.005125,27.003702,50.015178,44.620415,64.655275,56.919369,74.844896,64.262789,77.097304,-5.686569,291.191015,-43.110638,265.843644
13,-13.691082,-11.691329,-0.49181,-0.288498,0.0,16.470852,-1.608982,60.326328,-5.104237,64.058704,-6.643581,56.440945,-5.413113,-16.267433,0.0,-6.050058,19.768159,43.85823,34.169467,55.593587,43.179717,58.697101,49.587186,70.157175,0.0,64.490318,26.30127,91.003876,17.28653,89.932365,8.177891,76.063728,-0.257492,53.610535,0.0,0.075706,26.912744,49.577245,44.641781,64.448596,57.02033,75.28672,64.235187,77.789279,-19.356995,279.46103,-43.581791,265.51649
14,45.389156,-2.587342,0.889091,-0.013956,0.0,-31.529045,-42.115002,10.113029,-49.723492,14.964294,-52.566319,4.504623,-53.007603,-76.210155,0.0,0.736991,17.086401,39.355514,34.880091,50.035247,47.350833,58.495363,57.299998,76.500362,0.0,64.008751,25.153313,90.672684,15.927773,89.075203,6.717281,75.096245,-1.755123,52.330627,0.0,0.257684,27.098613,49.580394,44.539584,64.750988,56.648037,75.393178,63.681903,77.805457,26.056852,276.856475,-42.668009,265.485322
15,-34.92239,4.429542,-0.159702,-0.004878,0.0,11.987858,-7.787819,46.575451,-15.282784,51.009579,-19.321404,41.012707,-19.984303,-31.120605,0.0,-11.595122,14.876415,37.305585,32.30232,52.599186,44.038788,57.222563,52.76758,69.908938,0.0,63.953419,25.702572,90.854359,16.509476,89.189129,7.375431,75.390072,-1.05669,53.213139,0.0,0.03915,26.886191,49.544208,44.352727,64.524549,56.645629,75.228366,63.963732,78.076912,-8.789978,281.279965,-42.752151,265.474392
16,-3.11554,8.768559,0.067978,-0.214459,0.0,28.910465,-0.668564,56.47768,-7.556305,53.665752,-10.845909,37.529125,-11.734486,-35.296898,0.0,-15.10341,12.915099,32.400009,28.132561,41.986699,39.892742,51.996873,49.288067,62.731132,0.0,63.907871,25.748749,90.456791,16.680965,89.488049,7.593441,75.565739,-0.763893,53.173771,0.0,0.569524,26.744721,49.761322,44.397435,65.073634,56.875093,75.507786,64.324787,78.436114,-11.873932,290.040774,-42.652588,265.252183
17,34.525738,-13.0344,-0.026436,0.247063,0.0,-27.126617,-37.771969,14.59774,-44.14587,18.774261,-46.246147,7.755661,-46.091137,-76.403446,0.0,-10.510661,19.585996,38.879047,38.110811,49.662584,50.388274,57.43696,59.972371,74.632845,0.0,63.357296,26.182137,90.534153,17.282238,89.410343,8.146305,75.495815,-0.436134,52.443638,0.0,0.122698,26.632706,49.329317,44.146666,64.333802,56.462724,74.673168,63.828869,77.706224,22.716351,276.995845,-42.614479,265.488718
18,-30.652828,3.828032,-0.487518,-0.225266,0.0,16.474972,-8.130398,52.020092,-15.020714,53.37759,-18.735981,46.847706,-18.208408,-36.756248,0.0,-14.782616,17.877671,41.6107,35.263067,55.454649,47.00182,58.066938,55.233706,69.496569,0.0,63.521633,26.532841,90.633488,17.620583,89.864101,8.549652,76.287861,0.133038,53.98653,0.0,0.224277,26.541439,49.784788,44.349949,64.695598,56.982724,75.301293,64.586361,78.232214,-7.913446,280.816976,-43.078966,265.256552
19,-3.145695,5.94323,-0.024376,0.056563,0.0,22.6894,-3.643799,59.165382,-8.406658,56.791649,-10.622463,43.587227,-9.67804,-26.337032,0.0,-11.642423,15.396477,37.058522,30.412016,44.184272,41.07977,53.022794,48.900275,66.033606,0.0,63.752232,26.973553,90.907917,18.19376,89.979572,8.911514,76.226978,0.00515,53.541698,0.0,-0.161848,26.691369,49.671167,44.011742,64.740614,56.228258,75.009028,63.572173,77.956005,-11.035538,286.758925,-43.079739,265.311834
20,32.174606,-11.89702,0.496273,-0.177532,0.0,-25.847969,-37.765102,14.680138,-44.853001,19.962387,-47.787724,10.206985,-47.947369,-71.298695,0.0,1.291633,19.668185,40.075894,37.275636,50.571364,49.323512,58.843573,59.164366,79.187926,0.0,63.851051,26.644821,90.642929,17.687073,89.765167,8.49329,75.857162,-0.072498,53.133202,0.0,0.301836,26.700569,50.343876,44.425408,65.366516,56.825508,75.507045,64.178253,78.146752,21.153231,274.85925,-42.569304,265.131646
21,-28.822002,9.279111,-0.136242,-0.259166,0.0,13.790417,-7.706738,51.693363,-15.118675,54.25684,-19.417076,44.433346,-20.056229,-30.959187,0.0,-19.663739,12.26746,36.169069,30.603875,50.35956,43.284939,54.551919,52.019473,67.160798,0.0,63.629894,26.819859,90.943394,18.045387,90.180302,9.010906,76.625233,0.582333,54.597416,0.0,0.570018,26.818821,50.108298,44.641411,65.117106,57.083933,75.510503,64.400987,78.005096,-7.679186,284.167168,-42.71596,264.901286
22,-4.457989,5.007217,0.170403,-0.203838,0.0,27.835922,0.355339,58.947258,-5.650692,56.41468,-9.222851,41.894646,-10.341053,-32.211399,0.0,-26.225956,12.382131,33.265935,28.470521,42.426794,40.91749,51.159414,50.321893,64.063274,0.0,64.119358,26.738205,91.220226,17.776737,89.901638,8.628216,76.284657,0.169659,54.311543,0.0,0.231688,26.825058,50.194378,44.829749,65.172435,57.413681,75.581084,64.806069,78.144158,-12.134428,289.180128,-42.54281,264.703191
23,30.306473,-14.957308,-0.115356,0.443615,0.0,-21.01181,-33.262081,18.068047,-39.400463,22.700615,-42.554398,11.024551,-43.455391,-69.323273,0.0,-5.448424,21.284132,40.822395,39.687854,52.564915,51.618034,60.108283,61.226398,78.720166,0.0,64.411297,27.49197,90.654087,18.64254,89.46516,9.22348,75.66679,0.310764,52.925663,0.0,-0.806275,26.061576,49.327958,43.900467,64.764388,56.454079,75.127033,63.988185,77.5692,18.174105,274.225506,-42.656107,265.149492
24,-26.284676,9.117757,0.329876,-0.525496,0.0,9.779663,-6.942616,55.644493,-14.999142,55.195885,-19.712448,42.578316,-20.156307,-34.36964,0.0,-16.770609,12.77264,38.917703,30.698847,51.47607,43.384234,56.298653,52.434683,66.63172,0.0,64.296112,26.852074,90.296288,18.053684,89.63871,8.852291,76.142006,0.241642,53.626671,0.0,0.999616,26.748549,49.644614,44.763368,65.400541,57.328094,76.378714,64.842008,78.825945,-8.093805,283.304931,-42.309465,264.585664
25,26.840973,-10.50356,0.173321,0.231935,0.0,-26.436882,-31.629982,17.260666,-38.901958,22.263336,-43.226166,7.701988,-45.339947,-69.069214,0.0,-2.260127,22.175005,42.354114,39.462527,53.252876,50.75464,61.649944,59.799778,78.779076,0.0,63.150501,26.779518,89.58807,17.922421,88.897762,8.652935,75.367184,-0.112152,53.120441,0.0,0.215818,26.093439,49.636216,43.770668,65.14298,56.369111,75.346865,64.153738,78.593825,18.799582,272.75915,-42.083731,264.775377
26,-23.965759,11.653476,-0.184536,-2.223632,0.0,12.329407,-9.604912,53.947906,-18.821754,50.463066,-23.98344,32.82074,-24.600964,-42.896347,0.0,-24.857443,9.420396,41.372344,28.46799,47.672553,42.521519,54.209205,52.798084,62.14827,0.0,64.354591,25.443478,88.876877,17.210999,89.315987,8.648758,76.028938,0.675488,52.653236,0.0,3.095239,26.893292,52.012866,44.430965,70.056769,56.706577,79.708852,64.263222,80.72761,-5.075827,284.330096,-42.177916,262.469215
27,8.252792,4.575088,-2.284069,-9.117078,0.0,1.75415,-25.257969,8.192368,-28.569546,12.403221,-27.717075,-13.056393,-23.1534,-48.694038,0.0,-19.374439,3.392568,15.614518,20.521144,28.193262,34.872866,40.36291,47.390662,59.408281,0.0,65.047245,22.098999,84.881916,12.335987,83.762455,2.998867,69.797916,-4.630966,45.424633,0.0,10.88845,23.400442,55.833364,41.093355,73.787482,54.329741,82.132988,62.607631,81.705243,3.510189,288.960605,-44.128761,253.407559
28,-0.542107,-22.461404,38.285351,20.413204,0.0,-41.893501,-22.378635,-54.018002,-16.438351,-59.287548,-11.371708,-55.584583,-7.126923,-44.724426,0.0,-2.365844,23.239335,36.011544,42.349544,57.017737,56.739304,67.83221,65.498847,78.330892,0.0,25.662231,20.587921,-13.934155,6.497841,-34.127941,-5.804787,-45.200214,-18.104782,-41.536903,0.0,14.776318,5.472445,45.274908,1.332142,55.061175,1.383827,51.052771,3.819016,42.575674,3.232241,266.606555,-5.579252,273.928116
29,20.344505,0.457262,-74.867821,-41.373085,0.0,-54.991093,-29.68174,-86.890926,-24.136391,-90.058765,-16.30497,-76.88364,-7.777405,-55.258141,0.0,22.977081,25.967283,51.000592,43.191387,65.977413,56.220601,78.654773,65.473283,82.767103,0.0,57.56567,51.038418,54.010048,50.21719,54.593296,44.258652,50.6777,35.764046,48.411026,0.0,9.391744,3.304265,13.499072,-8.399476,3.801726,-18.821958,-2.492,-28.35406,-11.598889,23.897667,267.86702,-80.126152,233.358234
30,5.140686,2.142801,-58.505745,-89.851728,0.0,-58.423233,-28.944855,-90.330048,-24.281845,-93.328514,-16.903152,-79.189739,-8.13858,-57.683487,0.0,23.2381,25.755232,49.521052,43.350024,63.903093,56.240052,77.608041,64.631377,81.924766,0.0,65.085926,33.658504,56.020145,35.393429,59.168301,35.554104,56.329708,34.683266,51.441765,0.0,-9.877719,-16.461919,-3.655501,0.79232,6.132433,18.363585,18.012657,34.877559,24.926357,29.953108,270.393754,-137.717142,143.89044
31,2.394447,-0.195378,-62.138042,-48.74241,0.0,-57.787685,-30.939102,-91.343651,-25.685349,-94.058361,-17.951088,-80.26165,-8.698654,-58.171692,0.0,22.106153,26.693715,49.549148,44.281282,64.909501,56.897694,78.058819,64.86819,82.482866,0.0,51.119041,19.547424,51.581554,29.112854,53.807945,36.657085,50.901146,41.953297,50.125751,0.0,-31.726188,-37.853744,-33.816502,-21.520914,-16.012376,-2.204922,4.835243,17.701744,16.067735,31.893339,270.589997,-200.309401,95.539651
32,1.270523,-0.583294,-15.479794,-38.447536,0.0,-57.660828,-30.835533,-91.147156,-25.33905,-94.301777,-17.388153,-80.376835,-8.090401,-58.693943,0.0,23.515174,27.384826,49.914896,45.089163,65.39665,57.725335,78.03381,65.720902,82.946858,0.0,-8.220634,-18.053799,-7.564316,-26.602993,-12.384052,-31.438351,-15.164738,-33.5606,-18.312721,0.0,-42.537173,-24.343896,-33.16979,-14.965274,-20.668727,-4.462918,-8.815304,5.601472,0.51293,33.345938,270.471359,-215.607119,57.556772
33,-0.027122,-0.704449,-47.616062,-29.13863,0.0,-57.341251,-30.704842,-90.632629,-24.749794,-92.972374,-16.6119,-79.166222,-7.411766,-57.865219,0.0,24.033507,28.366966,51.163119,46.200794,66.555088,58.779723,78.919435,66.551939,83.674031,0.0,-12.761936,-33.11594,7.299156,-37.160397,6.45607,-36.203442,4.541588,-32.074471,1.593819,0.0,-58.297391,-29.695619,-43.260671,-16.289481,-21.018451,-2.666537,-2.85432,10.999663,5.540617,32.932177,270.175343,-263.609819,28.826574
34,1.775208,0.826468,-32.814903,-21.670597,0.0,-58.397655,-30.780945,-90.876961,-25.373154,-94.4244,-17.714539,-80.591984,-9.020348,-59.368458,0.0,23.828496,27.380133,50.359313,45.091571,65.310817,57.612455,78.284394,65.475382,82.194615,0.0,-22.250805,-41.545544,-6.501503,-46.927242,1.064587,-46.804504,2.931004,-42.4716,-2.595749,0.0,-59.266903,-30.459471,-48.30392,-18.972814,-20.48678,-6.34399,-0.728192,6.854913,6.353253,34.103909,271.237326,-297.028198,7.391493
35,0.344467,-0.265712,-25.668526,-13.928485,0.0,-58.341293,-30.846405,-90.492382,-25.327263,-93.977165,-17.530861,-80.051422,-8.507309,-58.343754,0.0,24.011586,27.911989,50.907287,45.370621,65.372938,57.796842,78.509536,65.672428,82.605564,0.0,-29.340878,-43.522339,-18.152962,-50.529842,-1.552277,-51.331558,-0.068607,-47.73428,-7.807674,0.0,-55.404322,-29.30548,-66.376351,-18.266081,-19.379842,-5.101078,-0.051716,8.723419,5.916647,33.963375,271.543284,-323.181725,-5.965321
36,1.921806,-0.285781,-17.515869,-6.963347,0.0,-58.348961,-30.433273,-91.635303,-24.977531,-95.126667,-17.321091,-81.614113,-8.413811,-59.66074,0.0,24.557027,27.598112,50.463054,44.996043,65.392884,57.460734,79.005885,65.349844,83.32508,0.0,-30.929089,-47.691479,-20.272923,-50.929985,-3.38316,-48.47105,-2.448292,-41.830959,-7.347393,0.0,-59.376726,-21.020272,-72.376886,-11.237649,-19.332479,-0.757338,-5.066776,10.299166,2.875686,35.76848,271.982376,-340.814295,-12.203796
37,2.084656,-0.845363,-4.073238,-7.87327,0.0,-60.733624,-31.793747,-93.853912,-25.988159,-97.396603,-17.960587,-84.592266,-8.623123,-62.584934,0.0,24.627917,29.518549,51.818537,46.616745,66.072756,58.67024,79.460924,66.267578,83.806177,0.0,-31.233902,-53.658028,-21.425743,-54.347363,-10.55563,-47.75259,-8.268528,-36.899815,-7.864037,0.0,-54.306338,-19.419486,-79.272277,-9.460595,-20.532166,-0.743969,-7.783917,6.749166,-0.116616,37.794228,271.591372,-344.946442,-19.622706
38,0.682755,-0.364574,4.372272,-10.155812,0.0,-61.128845,-32.212715,-94.46846,-26.409416,-97.872677,-18.571014,-85.453892,-9.492073,-63.03875,0.0,24.311878,29.48329,51.861578,46.806627,66.044103,59.009743,79.318281,66.741574,84.324016,0.0,-24.044552,-51.936378,-20.43457,-53.68681,-13.138161,-46.834316,-8.692017,-35.218048,-5.38084,0.0,-59.250601,-24.731009,-80.049807,-14.440828,-24.491603,-4.637147,-10.985861,4.233639,-1.234576,38.372726,271.967617,-340.678425,-29.037699
39,-0.616379,-0.55952,12.933426,-24.392401,0.0,-61.244888,-32.369156,-94.926109,-26.364326,-97.573757,-18.434143,-85.269871,-9.511185,-62.468147,0.0,25.241345,30.076773,52.564791,47.432529,66.238926,59.623481,79.016815,67.233478,84.155376,0.0,-19.874725,-46.668606,-7.966461,-49.01247,-6.966991,-43.296947,-5.111904,-32.248764,-3.981113,0.0,-55.493737,-24.679139,-72.36821,-13.522846,-21.986265,-2.075555,-6.179919,7.646523,2.332004,37.270546,272.093773,-328.230801,-52.744423
40,-1.213074,-0.267873,11.198959,-4.580213,0.0,-61.758842,-32.602043,-94.819565,-26.128922,-96.872978,-17.90863,-84.317493,-9.113045,-61.948242,0.0,26.0998,29.996806,53.438498,47.607283,66.940472,59.943163,79.259062,67.581997,83.28945,0.0,-11.609802,-38.183613,4.759483,-37.527523,7.166004,-29.903526,9.274464,-18.793602,11.118965,0.0,-49.73159,-26.036629,-70.972435,-18.137516,-46.254362,-10.608968,-17.129688,-3.42829,-13.261148,35.5301,272.706276,-317.559214,-56.444261
41,-0.456161,-0.148757,35.849762,-32.70132,0.0,-62.392616,-32.717056,-95.298157,-26.29303,-97.813396,-18.169098,-84.924088,-9.531326,-61.801872,0.0,26.034221,29.603209,53.542115,47.220787,66.982463,59.609402,79.238129,67.431388,83.17941,0.0,0.840569,-35.986519,13.070927,-40.501213,-0.776939,-36.680431,-0.412674,-27.997112,1.534309,0.0,-63.744425,-34.808028,-67.131266,-21.539501,-19.985737,-7.558652,-4.61714,5.198088,4.964424,34.795961,273.154661,-281.987429,-88.548439
42,-1.113739,-0.453248,5.984974,-0.093428,0.0,-62.281609,-32.469292,-94.854984,-26.108093,-96.936665,-17.950058,-84.269943,-9.217186,-61.061325,0.0,26.225462,30.068252,53.559343,47.669095,66.838214,59.886785,79.25369,67.411937,83.316496,0.0,5.283451,-20.410709,34.653225,-15.924282,37.70628,-6.902046,29.016151,4.055672,26.000805,0.0,-51.823169,-35.52563,-72.80108,-27.122973,-62.695934,-16.493041,-28.877982,-4.713038,-16.916927,32.970371,273.983691,-276.714306,-87.359589
43,-0.437622,-0.110101,57.400589,-27.087961,0.0,-62.423801,-33.076515,-95.328197,-26.717377,-97.303505,-18.53302,-84.404812,-9.710197,-61.585064,0.0,26.395337,29.770121,53.858401,47.193987,66.909041,59.43965,79.266596,67.106087,83.490633,0.0,28.150291,-23.038731,30.54554,-26.720123,7.844238,-22.862206,5.761814,-15.745182,6.2356,0.0,-65.901306,-38.232135,-59.115213,-24.436352,-19.445081,-9.408138,-3.679213,4.408485,6.414108,31.616306,275.176848,-220.23016,-113.144292
44,-1.228065,-0.601573,10.342541,9.203498,0.0,-62.267017,-33.127899,-95.050278,-26.27552,-96.919727,-17.70504,-83.458214,-8.707695,-60.661297,0.0,27.559271,30.578866,54.19809,48.228492,67.593112,60.319655,79.607767,67.554148,83.592521,0.0,36.507111,-6.361485,59.266033,-5.146065,28.321495,-0.300236,25.811176,6.249733,25.329952,0.0,-51.710829,-48.933651,-72.494459,-41.994603,-37.416365,-31.494393,-22.034863,-19.779645,-13.753114,29.029169,276.217929,-211.246691,-102.298141
45,-0.046921,0.279482,23.934574,0.00034,0.0,-62.712994,-33.229637,-95.294266,-26.607513,-97.346649,-18.159256,-83.239174,-9.284935,-60.461769,0.0,27.371426,30.127162,53.48833,47.668478,67.135171,59.962985,79.537371,67.495917,83.371084,0.0,36.517696,-0.078278,63.425217,-1.730289,32.001514,0.805836,28.17627,5.623512,26.588745,0.0,-48.533801,-54.634078,-67.178814,-47.852725,-34.250252,-36.714402,-22.463565,-24.549031,-14.771038,27.943525,276.945596,-188.35084,-101.849617
46,-0.467148,-0.581504,10.871601,-5.195587,0.0,-62.849121,-33.090477,-94.602642,-26.451988,-96.318684,-17.959785,-82.756119,-9.05777,-59.782047,0.0,27.554084,30.04349,53.894772,47.745789,67.056625,60.112174,79.70243,67.659679,84.032616,0.0,42.953224,3.270493,71.154671,3.499775,32.509518,8.800507,31.323566,15.718288,30.486946,0.0,-45.775688,-49.664529,-64.910721,-42.643769,-29.343472,-31.656256,-18.140419,-19.516434,-7.945549,26.896734,276.474888,-178.058882,-106.934408
47,0.135155,0.092132,8.891315,-0.794944,0.0,-61.620998,-33.095856,-93.811913,-26.381149,-95.751686,-17.583733,-81.903305,-8.220291,-58.985653,0.0,27.533027,29.242463,53.352294,46.981442,67.19192,59.509304,80.308943,67.27201,84.309628,0.0,40.866737,-1.313896,45.028324,-0.739803,27.018299,4.816933,26.293831,11.451759,26.108608,0.0,-42.709935,-48.699787,-45.655291,-41.273203,-27.590331,-30.572706,-16.742142,-18.664618,-6.804834,26.663446,276.596907,-169.536009,-107.699465
48,0.381889,1.008693,-2.101536,0.611916,0.0,-62.429352,-32.65789,-93.974361,-26.10466,-95.981655,-17.501106,-82.151699,-8.451691,-59.881039,0.0,27.088053,28.954459,53.139379,46.631997,66.671055,58.991836,79.341746,66.485372,83.077214,0.0,41.089611,-0.270309,56.589603,0.406208,28.243904,5.663166,27.349377,12.156258,25.978031,0.0,-42.897517,-48.450871,-51.537203,-40.929809,-28.933819,-30.10913,-17.958533,-18.060205,-7.084131,26.995668,277.616761,-171.687212,-107.076388
49,-0.233459,-0.053599,3.188839,1.9004,0.0,-62.314339,-33.272095,-93.340416,-26.573524,-94.802685,-17.795334,-81.102448,-8.431549,-58.689823,0.0,27.120966,29.538248,53.826599,47.347437,67.377789,59.806509,80.293999,67.294796,84.427448,0.0,40.225754,-5.35223,56.099339,-5.335808,22.986889,-0.203876,22.245998,6.816559,22.121029,0.0,-48.24183,-48.588898,-56.49397,-41.691501,-29.97277,-31.370398,-19.038825,-19.935997,-8.749323,26.581049,277.558592,-168.679533,-105.180557
50,0.19558,0.310852,-3.195934,-0.265743,0.0,-61.848621,-32.707443,-93.478947,-26.150093,-95.155792,-17.594833,-81.401081,-8.583298,-58.525314,0.0,26.975853,29.293654,53.196251,47.001882,66.861679,59.408651,79.431593,66.986476,84.063676,0.0,40.770779,-4.122505,59.628868,-3.197136,23.639317,2.461281,23.253994,9.685192,23.41341,0.0,-45.36264,-47.347206,-62.315289,-40.699697,-30.702984,-30.628714,-19.302036,-19.572071,-9.250335,26.610289,277.859039,-172.041807,-105.456705
51,-0.619011,-0.075583,-0.605106,1.818889,0.0,-61.505127,-32.335281,-93.061581,-25.756187,-94.564533,-17.209969,-80.77343,-8.194771,-58.035965,0.0,27.162339,28.982556,53.575584,46.914505,66.721197,59.520605,79.766897,67.154561,84.401822,0.0,40.341167,-5.149212,61.079636,-4.0452,22.68259,1.838207,23.292732,9.781551,24.473763,0.0,-47.90986,-47.80175,-66.026474,-41.853071,-31.591727,-32.163227,-21.063436,-21.545027,-10.790051,25.878754,277.871111,-172.759438,-103.550161
52,-0.260353,0.453063,-0.480709,1.275547,0.0,-60.543823,-32.311363,-93.07045,-25.697594,-94.437046,-17.005806,-80.214615,-7.850647,-57.533569,0.0,26.697605,28.204007,53.190446,45.86129,67.003087,58.463685,79.42196,66.297342,83.630991,0.0,31.193619,-4.354706,59.546986,-3.830452,23.25428,1.699791,24.339466,9.315434,25.37281,0.0,-47.656745,-47.789709,-64.763832,-42.50057,-32.533992,-33.572819,-21.907842,-23.124047,-12.273944,25.541353,278.352733,-173.317194,-102.246054
53,0.004921,-0.033777,2.343979,0.219399,0.0,-61.026249,-32.163734,-93.130302,-25.526848,-94.764633,-16.784019,-80.431538,-7.448845,-57.53952,0.0,26.910397,28.34134,52.790365,46.28181,66.149264,59.064763,79.859461,66.853281,84.214224,0.0,34.097157,-6.082535,56.628742,-5.791512,20.852509,-0.385609,21.755905,7.212982,22.954388,0.0,-47.809701,-47.838538,-64.368197,-42.439375,-32.619547,-33.343077,-21.80299,-22.823879,-12.084432,25.275393,278.34168,-171.244097,-102.003931
54,0.456047,-0.042176,-2.837448,-1.097737,0.0,-61.228237,-33.084183,-94.075184,-26.416512,-95.34914,-17.542877,-81.467285,-8.082962,-58.616066,0.0,26.025576,28.808852,53.355752,46.551536,66.823147,59.177458,79.652968,67.018278,83.849341,0.0,31.333294,-3.137112,60.343552,-2.091236,24.014912,3.505211,25.446796,11.156387,27.013664,0.0,-46.189324,-46.420718,-63.924428,-40.978669,-31.842542,-32.048001,-21.026756,-21.748619,-11.81131,25.48665,278.320546,-174.326334,-103.080627
55,-0.43396,0.315606,0.372677,-0.378345,0.0,-61.253872,-32.785606,-93.684139,-25.975113,-94.773102,-17.054558,-80.886211,-7.59201,-57.830429,0.0,26.038049,28.782732,53.569347,46.536222,66.987897,59.14862,80.260715,66.849885,83.854034,0.0,33.402901,-4.041481,59.508705,-2.828293,23.403454,2.923279,24.807587,10.676937,26.422062,0.0,-45.806378,-46.675871,-63.444936,-41.075293,-31.54949,-32.016956,-21.030955,-21.698601,-12.014469,24.986801,278.608581,-174.019547,-103.486543
56,0.148773,0.079596,3.448849,0.15453,0.0,-61.100807,-32.378883,-93.463039,-25.732384,-94.9506,-16.977997,-80.911217,-7.766418,-57.82402,0.0,26.105604,28.83948,53.086953,46.472249,66.680997,59.004186,79.30272,66.848958,83.28488,0.0,37.74044,-7.262936,55.629387,-6.958523,20.246601,-1.555023,21.269417,6.047115,22.461319,0.0,-47.397548,-47.731031,-62.001134,-42.37216,-31.899692,-33.382782,-20.991312,-23.113457,-12.030215,24.988489,278.624435,-170.717783,-103.395754
57,-0.155411,-0.090897,0.51733,-0.449883,0.0,-61.60778,-32.816734,-93.597736,-25.793839,-94.503593,-16.714439,-80.485039,-7.164574,-57.469482,0.0,26.182422,29.036402,53.800355,46.642741,67.487519,59.090389,80.119307,66.680997,83.791295,0.0,39.242592,-7.359352,55.958176,-6.847458,19.517326,-1.372147,20.494766,6.034412,21.350555,0.0,-46.542675,-47.52957,-61.708792,-41.971724,-31.264403,-33.033506,-20.40916,-22.860682,-11.472918,24.689884,278.443676,-170.343647,-103.935499
58,0.073814,0.081634,-0.251656,-0.372571,0.0,-61.452942,-32.588997,-93.707428,-25.772209,-95.468445,-16.851883,-81.068344,-7.46521,-57.3769,0.0,25.7795,28.784893,53.023412,46.367026,67.118375,58.903718,79.881136,66.751887,83.740536,0.0,39.515305,-7.087097,57.962379,-6.611652,20.164833,-1.241684,20.679588,6.051235,21.537724,0.0,-46.286673,-47.275652,-62.558493,-41.574731,-31.145549,-32.435006,-20.349941,-22.111248,-11.228355,24.642706,278.494188,-170.716295,-104.339193
59,0.376625,0.220078,-1.120892,1.230346,0.0,-61.208611,-32.602501,-93.439579,-25.789032,-94.820538,-16.831055,-80.337181,-7.341156,-56.699753,0.0,25.957341,28.438596,53.381749,45.980839,67.853267,58.491287,80.685188,66.303332,84.224166,0.0,40.657139,-6.88242,59.885788,-6.099472,19.995003,-0.412846,21.268959,7.363987,22.354774,0.0,-46.397546,-47.837581,-65.496933,-42.403915,-31.470387,-33.37352,-20.744063,-23.05075,-12.043955,24.876738,278.666673,-171.97978,-103.156441
60,-0.284386,-0.390263,1.086617,1.605727,0.0,-60.248909,-32.491837,-93.19582,-25.508308,-94.968796,-16.276245,-80.18486,-6.405258,-56.466866,0.0,26.246642,29.036402,53.509449,46.413215,68.062786,58.833137,80.961459,66.519767,84.439242,0.0,38.891487,-7.735577,57.541466,-7.547321,18.751545,-2.22765,20.025387,5.367737,20.994473,0.0,-47.279095,-48.246384,-65.022119,-43.125762,-31.335216,-34.295669,-20.944474,-23.971294,-12.673932,24.519482,278.297529,-170.966034,-101.529595
61,-0.522537,-0.44837,-1.830997,-0.373744,0.0,-61.767082,-32.442513,-92.860336,-25.472031,-93.513107,-16.797981,-79.111576,-7.991066,-57.370148,0.0,27.498446,29.975749,54.772307,48.004276,68.6115,60.589257,80.768304,68.181903,84.588184,0.0,38.96513,-5.70488,57.667866,-4.842682,20.508499,0.783234,21.890316,8.202839,22.216816,0.0,-45.220475,-47.806119,-63.14415,-42.386316,-31.45302,-33.332425,-21.042287,-23.039634,-11.71572,24.001265,277.829569,-172.792711,-101.92293
62,0.103111,0.231811,-2.316742,-0.332495,0.0,-61.51228,-31.562347,-92.353134,-24.704933,-93.233643,-16.017838,-78.641853,-7.254295,-57.077522,0.0,27.865491,29.688795,53.950656,47.757707,68.367586,60.415677,80.95337,68.108481,84.67093,0.0,42.235851,-4.940872,59.118919,-3.134766,22.773056,3.134708,24.14463,11.151695,24.519138,0.0,-44.182867,-46.192612,-61.137848,-39.856911,-29.786099,-30.403819,-18.757367,-20.122391,-8.74355,24.110012,277.974543,-175.103817,-102.342261
63,0.678635,0.142335,1.222458,2.169014,0.0,-61.562634,-32.23217,-92.618866,-25.418701,-93.510704,-16.797867,-78.960056,-8.140182,-57.845764,0.0,27.513514,29.716583,53.529271,47.829523,68.288546,60.552639,80.834686,68.429213,84.827652,0.0,42.624836,-5.262852,59.850368,-4.377823,21.452522,1.428738,22.89299,9.320183,23.616257,0.0,-44.569981,-46.411702,-60.806958,-39.843944,-29.205197,-30.212995,-18.26713,-19.641417,-8.155223,24.784269,278.129506,-173.885736,-100.160619
64,0.577583,0.749403,-2.105999,3.413625,0.0,-61.266632,-32.125854,-92.453556,-25.386429,-93.33395,-16.784592,-78.622341,-8.038902,-56.393795,0.0,26.966158,29.047023,53.388727,46.889928,68.074766,59.475774,80.710876,67.1524,85.200995,0.0,42.426052,-4.141273,59.214363,-2.980785,24.584713,2.919159,25.21637,11.080456,25.739765,0.0,-46.400047,-44.617359,-57.783442,-37.804806,-28.125831,-27.819363,-17.687171,-17.1153,-7.523701,25.355215,279.179355,-175.998373,-96.446548
65,0.514069,0.365748,0.270195,5.929151,0.0,-61.716213,-31.354179,-91.674213,-24.555016,-93.082581,-16.027222,-78.770943,-7.365875,-57.170563,0.0,26.25856,29.947221,53.044468,47.688052,66.870509,60.050485,80.06404,67.355867,84.954179,0.0,43.449497,-4.617176,60.979271,-3.527527,23.760052,2.629051,23.799419,11.449299,25.970764,0.0,-47.672877,-44.143965,-63.091554,-36.310786,-27.41462,-24.990268,-15.861365,-13.370971,-5.710585,26.076965,280.015518,-175.520496,-90.046983
66,1.605148,0.620036,0.858593,6.459834,0.0,-62.640953,-31.50753,-92.33717,-25.161438,-94.019566,-17.123222,-80.310974,-8.600006,-58.378086,0.0,24.989465,29.826807,52.879904,47.577643,66.350324,60.003555,80.19736,67.626581,85.662642,0.0,41.906948,-3.615417,60.281754,-2.985535,23.56905,2.667446,24.836483,10.804253,26.332626,0.0,-47.618861,-43.349376,-62.896808,-35.426705,-27.372537,-23.851745,-16.349224,-11.824216,-5.723924,28.107548,280.778722,-174.236469,-83.44398
67,0.922508,0.198836,-1.287975,4.218418,0.0,-62.968483,-31.212158,-92.710018,-24.787788,-93.922806,-16.790771,-81.240463,-8.37616,-59.866905,0.0,23.96447,29.924188,52.34885,47.981305,66.340814,60.425619,80.160371,67.926503,86.421801,0.0,47.96751,-1.916485,61.274357,0.316029,25.821075,6.926022,26.310482,15.663242,28.623161,0.0,-41.912629,-37.716225,-59.88802,-27.243541,-21.916919,-14.258757,-9.727666,-1.780882,-0.070241,29.836521,281.440918,-174.717979,-78.762203
68,1.329689,-0.290042,1.363392,3.751862,0.0,-63.828335,-31.906013,-93.547096,-25.717392,-94.725609,-17.938042,-82.542,-9.585571,-61.036663,0.0,22.944292,29.990137,52.73232,48.14377,65.820073,60.74209,80.071759,68.351408,87.178244,0.0,52.465439,-0.729275,56.905518,1.95282,28.582363,8.373528,30.19289,16.520576,29.243088,0.0,-36.62454,-28.607947,-41.477505,-16.613331,-13.018623,-3.117284,-3.52669,9.832703,6.043204,31.838779,281.808719,-172.682018,-74.352498
69,0.132523,0.220511,3.601971,8.851767,0.0,-63.860378,-31.227608,-93.155022,-24.910698,-94.370842,-17.065773,-82.168636,-8.875809,-61.228924,0.0,22.283439,29.59512,52.151002,47.638837,65.138657,60.224683,79.388182,67.851476,86.472066,0.0,45.001831,7.518253,62.102451,11.551838,27.894115,17.760201,27.957058,24.489956,28.618813,0.0,-29.147429,-26.752779,-46.087482,-16.120655,-10.803111,-3.470466,-0.401964,9.93382,7.388344,33.060837,283.609206,-167.990513,-63.920754
70,0.006523,-0.057922,6.416588,13.110137,0.0,-63.883495,-30.94162,-92.888832,-24.56028,-93.923836,-16.73172,-81.792469,-8.491631,-61.209526,0.0,21.333594,29.572766,52.144765,47.732574,65.61358,60.372452,79.999326,67.946078,87.008492,0.0,47.351074,9.495106,62.505283,11.128063,27.018356,14.705429,27.411804,19.583931,27.350121,0.0,-29.527812,-20.989583,-39.160444,-8.876622,-3.072423,4.599449,7.923875,17.878659,15.868744,33.932104,285.573348,-160.709181,-48.788553
71,0.37262,0.069716,3.64603,36.00614,0.0,-63.558311,-30.999756,-93.476028,-24.551239,-94.62038,-16.737099,-82.449245,-8.542099,-61.723366,0.0,21.101104,28.949766,51.886401,47.343362,65.414249,60.241664,80.01711,68.110149,87.249071,0.0,58.016624,8.135319,63.633327,8.836269,34.793873,12.54427,31.223946,17.631226,28.832245,0.0,-41.019348,-39.79777,-47.89081,-23.263943,-15.838116,-4.870718,3.320783,12.620734,13.541248,35.395975,284.762411,-155.971899,-13.663066
72,-0.42469,0.09065,7.890244,18.767123,0.0,-63.505383,-30.867119,-93.153477,-24.483261,-94.607391,-16.567039,-82.27541,-8.015556,-60.974007,0.0,20.278465,28.881347,51.606116,47.123962,65.679467,60.095254,79.80932,68.079706,87.126188,0.0,55.307751,2.369785,66.515064,3.578854,28.435593,8.526936,27.97617,16.031399,25.95789,0.0,-36.063198,-34.9164,-48.319049,-18.993377,-11.334875,-0.583202,5.645254,17.521124,16.507089,36.657972,280.27646,-146.394968,0.527457
73,0.428696,0.490854,6.537952,13.146848,0.0,-63.274841,-31.665802,-93.074512,-25.62664,-95.388508,-17.926826,-82.684994,-9.237671,-60.771732,0.0,20.021954,28.307686,51.69411,46.399568,65.635377,59.322015,79.6689,67.439045,87.555539,0.0,55.689125,4.469318,58.85004,6.168194,32.190685,11.005325,30.041027,18.427963,26.39431,0.0,-32.611689,-19.209009,-33.059256,-2.868523,0.918136,13.615966,13.538315,29.343765,26.219657,38.391438,275.876357,-138.552246,8.783348
74,-0.989685,0.050327,3.593015,36.340333,0.0,-63.128185,-31.224518,-93.167496,-25.112343,-95.260563,-17.373734,-82.410164,-8.7957,-60.875473,0.0,19.575622,27.813127,51.357015,45.987014,65.690459,59.112064,79.963758,67.387484,87.462419,0.0,64.847632,8.627787,68.065768,11.52237,34.687271,16.578169,32.350731,22.921687,30.429926,0.0,-32.653402,-22.69042,-38.389397,-5.845942,-0.813639,11.523275,14.641115,28.072154,26.366052,39.116335,274.2574,-133.244648,43.454398
75,-1.079407,0.157525,3.593016,36.340334,0.0,-62.628136,-31.531906,-92.935066,-25.681229,-95.07391,-17.950859,-82.864952,-9.098396,-61.138058,0.0,18.631581,27.900627,50.531041,45.986767,65.068262,58.976954,79.324085,67.07972,87.073144,0.0,74.006138,12.786255,77.281494,16.876545,37.183857,22.151012,34.660435,27.415409,34.465542,0.0,-32.695114,-26.171831,-43.719539,-8.823362,-2.545414,9.430585,15.743916,26.800543,26.512447,39.626055,273.555375,-128.062506,78.935181
76,-0.789757,0.240641,15.30138,17.187702,0.0,-62.956696,-31.652069,-93.375664,-26.129265,-95.961971,-18.660851,-83.543873,-9.939537,-61.990013,0.0,18.430954,27.789414,49.863396,46.00134,64.699056,59.139234,78.510647,67.448123,86.730368,0.0,65.533104,9.957104,74.093571,8.441048,36.330814,9.02338,27.2299,12.663288,19.396477,0.0,-29.951451,-14.892347,-23.84557,0.685862,4.58926,17.000969,17.117554,32.282776,30.085079,39.378204,272.96802,-112.219219,95.294888
77,-1.517715,0.064529,9.797373,26.515395,0.0,-62.515182,-31.136627,-93.517227,-25.496178,-95.853481,-18.041725,-83.578491,-9.548035,-62.138901,0.0,18.291151,27.143937,49.697411,45.196176,64.791002,58.352904,78.556898,66.801163,86.429458,0.0,73.331079,11.842375,53.366346,8.953028,32.775621,8.928652,25.994797,10.946903,20.108757,0.0,-14.562893,-10.334425,-11.1451,7.792563,13.059024,26.321808,29.055067,43.131135,42.657849,37.551298,272.744453,-102.731037,121.522186
78,-0.797081,-0.698027,9.797373,26.515396,0.0,-63.201885,-31.994133,-94.042454,-26.264992,-96.234283,-18.638649,-84.333858,-9.910698,-63.677158,0.0,18.911002,28.252419,49.047426,46.875232,64.31398,60.189053,78.416848,68.416184,86.690724,0.0,81.129055,13.727646,32.639122,9.465008,29.220428,8.833923,24.759693,9.230518,20.821037,0.0,0.825665,-5.776504,1.555369,14.899263,21.528787,35.642647,40.992579,53.979493,55.230618,36.610365,271.458516,-93.077517,147.449672
79,-2.226105,0.500919,8.422966,27.246999,0.0,-63.11348,-31.378441,-93.187809,-26.37989,-95.495338,-19.38549,-84.471989,-11.20079,-64.147739,0.0,17.418433,27.965527,46.930992,46.245872,61.981606,59.240999,76.364141,67.263612,84.823639,0.0,78.154793,14.413261,45.110664,5.700645,33.494568,0.068378,27.022018,-3.3922,16.007824,0.0,10.087733,-10.325533,3.922016,6.683865,18.559333,25.595855,33.823479,44.289495,39.426712,34.308844,271.305838,-84.729967,174.043073
80,-0.92308,1.033702,-3.912563,19.320037,0.0,-62.05101,-32.398682,-94.123421,-27.252617,-96.434555,-20.055084,-84.94978,-11.906776,-65.018063,0.0,17.489816,26.264426,46.227779,44.985607,61.62265,58.440405,75.599177,67.070704,83.70503,0.0,76.921978,21.14027,75.272427,15.600014,57.152138,10.012779,43.738976,4.678059,24.637985,0.0,6.803105,-6.406605,11.954942,9.649181,29.744309,27.747362,38.426911,45.117136,44.146481,33.35907,271.821994,-88.669224,192.845564
81,-2.695541,-0.951883,4.476414,17.099615,0.0,-61.036491,-31.807022,-92.759914,-26.388359,-95.180511,-18.821526,-82.999477,-10.405998,-63.417549,0.0,15.213264,27.8009,48.036757,46.035056,63.309116,59.322633,76.953425,67.829493,84.895454,0.0,71.898251,27.837582,92.468376,21.024456,76.812401,14.047623,61.399155,7.647972,44.346485,0.0,1.640214,15.639156,40.718777,32.304296,33.54091,45.029327,38.725104,54.946134,42.503241,30.483055,270.043953,-84.373283,209.119021
82,0.42366,2.704236,13.748875,22.205633,0.0,-67.045269,-33.647118,-93.002357,-29.493713,-96.201153,-22.557335,-84.621277,-14.614449,-64.503479,0.0,-7.300442,26.988388,45.439782,43.185583,59.789034,55.584572,71.38502,64.066732,81.056246,0.0,65.311031,36.767006,71.098652,41.724243,41.021175,42.938118,29.76265,41.669655,32.923279,0.0,0.578972,20.941973,54.853385,48.058308,80.806836,71.921384,102.895144,90.781195,114.481559,30.673199,272.440224,-70.857925,231.016689
83,-0.890694,24.39345,0.43848,9.580391,0.0,-58.102226,-25.672646,-80.396919,-24.3647,-88.313656,-21.107712,-80.682392,-17.289734,-62.507629,0.0,29.240055,8.345136,17.330562,10.191905,22.500615,11.699727,27.275404,11.74357,31.223046,0.0,72.619514,25.264206,98.436012,19.683952,89.107132,14.975567,74.571419,10.877266,59.280624,0.0,6.632179,24.230244,51.430066,47.007192,63.688757,64.0395,76.606697,74.685147,82.10273,29.533882,296.772465,-70.668068,240.53587
84,7.495193,-22.938302,3.073196,8.692111,0.0,-61.081696,-15.352707,-80.713863,-18.024216,-94.184017,-19.437447,-92.374878,-19.355621,-75.262012,0.0,-9.011361,20.525158,4.199337,39.189034,26.169331,52.370586,52.875087,60.229561,79.516006,0.0,72.654877,23.899326,92.449379,15.262184,91.451111,8.376217,78.482552,3.237934,57.074089,0.0,7.440307,27.971269,52.589553,47.671627,68.559136,61.017249,79.788263,68.039197,82.147746,36.723118,273.742154,-67.900829,249.135974
85,-10.05249,-0.812944,3.890705,7.553187,0.0,-56.961937,-21.180382,-48.865299,-17.939529,-56.854477,-13.384781,-55.673561,-7.104034,-49.675541,0.0,-3.865144,24.585124,30.249366,38.575668,41.54648,49.198961,55.305027,56.577456,69.626245,0.0,72.204723,25.404167,90.472698,15.325012,89.553165,6.435013,75.791302,-0.885315,54.205971,0.0,7.118464,28.059819,58.128627,45.627503,73.904869,58.24021,83.887379,65.641429,86.789216,26.405897,272.936682,-64.274855,256.696632
86,3.39117,6.309101,1.365051,4.198658,0.0,-60.822887,-37.938709,-30.061712,-38.638515,-30.786838,-35.787649,-33.785477,-31.044702,-67.682333,0.0,7.831527,14.443329,35.230216,29.57888,43.902938,41.952304,53.767443,52.093111,66.695601,0.0,71.969662,26.542225,91.771603,16.701851,89.930706,7.977276,75.997982,0.667019,54.864693,0.0,4.15537,28.934946,58.177348,46.494417,73.868622,58.775648,84.758121,65.838536,87.684782,29.566326,279.239299,-63.140545,260.888806
87,3.391171,6.309102,2.930374,1.381357,0.0,-64.683838,-54.697037,-11.258125,-59.337502,-4.7192,-58.190517,-11.897392,-54.985371,-85.689125,0.0,19.528197,4.301534,40.211066,20.582092,46.259395,34.705646,52.229857,47.608765,63.764957,0.0,70.812092,27.366314,93.649921,17.884884,91.573391,9.014111,78.010998,1.184864,57.656536,0.0,4.129806,29.453156,58.796581,46.881654,73.511581,59.142754,83.884538,66.612331,86.534928,32.799568,285.513821,-60.368099,262.235583
88,-3.696785,-3.561517,2.745838,0.888774,0.0,-46.148586,-49.880447,-1.265602,-54.520168,4.701118,-54.258785,-1.493111,-50.993328,-79.562531,0.0,3.979505,15.0064,39.122344,31.069905,52.977346,43.47124,57.930532,53.982334,71.325122,0.0,69.046097,28.904858,94.382286,19.662037,92.823601,10.604954,79.264412,2.201614,58.13221,0.0,3.709903,31.485671,58.009572,48.31766,72.631452,59.829357,82.947723,66.713293,85.429163,29.063644,281.95709,-57.6614,263.129142
89,-14.66011,6.358069,2.3909,1.826886,0.0,-26.873131,-37.012596,15.193291,-41.212807,23.373871,-40.382309,18.3815,-37.332458,-39.135876,0.0,13.73323,16.579492,38.821373,27.279788,48.536627,34.056402,49.253055,40.053849,60.696888,0.0,68.472977,30.44569,94.529572,21.831379,94.445229,12.93251,80.108299,4.402428,59.495087,0.0,2.19887,31.590646,56.910909,48.660251,71.197361,60.291744,82.005597,67.318076,85.152027,14.390345,288.313368,-55.283689,264.954237
90,11.77597,-5.40983,3.013172,1.146149,0.0,-42.337818,-45.198841,5.173988,-52.435684,8.688927,-54.741268,-0.100021,-54.347019,-69.486237,0.0,5.328752,20.967167,40.973251,37.018878,52.609931,47.870525,57.581209,57.181808,71.998263,0.0,68.964901,29.384136,92.955151,21.144505,92.714367,13.152924,80.139256,5.893536,61.642628,0.0,3.749115,32.747046,58.254845,50.158254,72.02636,61.986175,82.693249,69.046038,86.069947,26.125116,282.830904,-52.311716,266.027753
91,-28.34816,-1.828738,0.00555,3.82093,0.0,4.17469,-19.870434,40.63591,-29.85323,42.985611,-34.673138,30.649796,-35.801353,-32.590542,0.0,5.082306,19.693194,48.660004,37.167202,59.309171,48.764671,64.249513,57.655495,73.892272,0.0,69.638214,29.119205,92.86171,20.157166,92.852669,11.546917,78.995132,4.079018,58.276978,0.0,0.709389,31.547915,56.767339,48.932755,70.307722,60.430003,80.363962,66.969557,83.290993,-2.274342,281.024998,-52.357464,269.871515
92,-3.765907,15.172076,0.845661,1.740744,0.0,19.248848,-10.296478,51.145248,-17.589226,49.926796,-21.008034,33.06118,-21.38855,-38.54948,0.0,-15.402838,10.588961,31.894397,26.310801,41.286572,39.007797,52.261844,49.533587,61.818893,0.0,68.889256,29.041901,92.270107,20.223656,91.39658,11.369305,78.490162,3.514137,58.871098,0.0,1.312752,30.986851,58.497462,48.081897,71.011677,59.891848,80.177229,67.07373,82.813354,-6.059361,296.229833,-51.530914,271.645018
93,27.850113,-12.436595,0.322723,0.110163,0.0,-33.244572,-40.578117,12.136459,-49.691792,14.416008,-54.498768,5.011482,-55.849056,-39.651146,0.0,-4.479251,24.972237,40.109486,41.626632,52.280122,52.301055,56.170707,60.083954,66.144633,0.0,68.039417,28.11018,91.254444,19.168854,91.103497,10.333672,78.074169,2.34581,57.983265,0.0,2.902393,31.445224,58.267442,48.910464,71.516548,60.864294,80.416512,68.08057,82.592596,21.748295,283.731395,-51.250648,271.693338
94,-13.3881,6.875414,0.239296,-0.007534,0.0,-7.203598,-24.156189,31.464157,-33.798237,32.46254,-37.604198,16.76445,-37.732773,-38.844109,0.0,-17.467586,15.685099,38.486315,34.103271,47.180588,46.547522,55.625018,55.800328,61.530334,0.0,68.672047,27.855721,90.891209,18.692837,89.478207,9.673576,76.772861,1.389313,56.301441,0.0,3.527184,31.257132,57.392994,48.329145,71.805232,60.023562,80.929596,67.012782,83.370034,8.324575,290.52215,-51.046972,271.601144
95,21.829147,-2.755365,-0.676117,-0.014635,0.0,-45.142651,-49.943161,2.659378,-56.284332,7.042465,-56.812649,-1.465988,-53.816986,-38.26355,0.0,-7.934619,21.328839,37.294594,37.172143,48.048181,47.923877,51.897331,56.014972,61.071281,0.0,68.69997,27.161579,90.803432,18.03978,89.634533,9.139137,76.894627,1.12484,56.260128,0.0,5.002092,31.0168,57.815737,48.256835,71.906996,59.913708,80.949294,66.868286,82.773834,30.185022,287.711178,-51.69179,271.530903
96,-12.750092,4.137586,-0.26762,-0.035321,0.0,-12.088051,-33.840866,15.412903,-41.333199,20.549698,-43.042831,7.695808,-41.533756,-47.804317,0.0,-13.343461,13.586511,35.196685,30.764426,47.138165,42.833482,56.237767,51.970999,63.007712,0.0,69.315033,25.768776,90.42984,16.470451,89.887161,7.672691,77.245102,-0.039597,55.863647,0.0,5.635466,31.484868,58.580146,49.056503,72.281389,60.862256,81.547162,67.602375,83.06474,17.531204,291.747231,-51.863136,271.394049
97,15.567169,-2.625072,-0.939903,0.120537,0.0,-43.599129,-50.487728,-0.291252,-56.903572,2.245216,-57.909336,-8.692245,-56.142941,-79.218464,0.0,-13.382364,19.650463,35.049163,36.858821,45.073849,48.257391,50.214447,56.911156,65.226775,0.0,67.226601,26.191807,91.096573,17.164421,90.002632,8.632565,77.124367,0.97023,56.493759,0.0,5.91254,31.725015,57.296602,48.820123,71.931511,60.153917,81.391921,66.610416,82.0692,33.110991,289.05868,-52.790422,271.451106
98,-16.616707,-0.934222,0.380688,-0.206926,0.0,-14.610443,-34.442596,17.946739,-43.308392,18.721848,-46.408882,6.437759,-46.663342,-66.638088,0.0,-12.798514,18.709263,39.530514,35.655861,50.577539,46.533073,56.719853,55.010108,66.76331,0.0,67.211323,26.697636,90.506458,17.613144,89.281826,8.555431,76.081867,0.12434,55.039845,0.0,7.083513,31.213351,56.789013,48.227072,72.066992,59.678933,81.13294,66.4779,82.032273,16.552877,288.034581,-52.351141,271.154303
99,-14.131393,6.770068,-0.628109,0.449852,0.0,8.071632,-22.319241,33.203773,-30.089951,31.944122,-33.338985,22.406845,-32.180786,-51.50259,0.0,-19.395866,11.143418,34.425484,27.35815,46.541903,38.989272,53.611399,48.057443,60.833171,0.0,66.861992,25.331383,89.963264,16.514225,88.943825,8.130398,76.595078,0.549889,56.155586,0.0,6.861582,30.59455,55.914998,47.834957,71.326172,59.46787,80.454797,66.313582,81.70691,2.552834,294.646182,-52.8479,271.445687
100,23.698082,-8.112522,-0.198326,0.234034,0.0,-35.393372,-40.466423,6.122475,-49.30315,5.474052,-53.592224,-4.880562,-55.016327,-47.238178,0.0,-13.392615,17.787638,32.616753,36.539757,46.545299,49.634117,53.080839,59.168195,61.350331,0.0,66.844368,26.394997,89.913254,17.387466,88.479767,8.51984,75.65712,0.383492,55.444679,0.0,6.161827,30.479324,56.608393,47.473964,71.624488,59.145656,80.192975,66.241087,81.764523,26.395111,286.301957,-52.902031,271.448019
101,-13.994522,2.496199,-0.15461,0.138136,0.0,-6.071548,-31.019096,21.607246,-40.336933,24.651604,-43.721867,11.273689,-43.258038,-38.9641,0.0,-12.708852,12.744606,37.946987,30.946836,50.61459,43.826182,59.028454,53.431643,64.523623,0.0,67.063179,25.437355,90.323181,16.224518,88.333282,7.440834,75.328789,-0.423832,54.682961,0.0,6.140337,29.932462,56.53985,46.895856,71.382427,58.531054,80.216687,65.460068,81.731178,12.683744,288.675349,-52.773485,271.463348
102,9.697723,-4.180256,-0.388584,-0.411628,0.0,-33.928013,-38.966618,9.987717,-47.984791,8.974342,-52.670975,-1.95694,-54.552841,-46.992531,0.0,-9.897727,17.409047,34.131676,36.306402,48.821111,49.43775,55.255627,59.412727,64.090691,0.0,67.265339,25.807915,90.908489,16.628609,88.58305,7.67046,75.700779,-0.382862,54.986858,0.0,6.624275,30.597761,57.017675,47.287045,71.739591,58.663015,80.839687,65.462785,82.19937,22.720184,284.402437,-52.823353,270.959063
103,-16.8853,6.698129,-0.554981,0.134739,0.0,-1.738472,-24.596043,29.489021,-34.634056,30.569572,-38.968105,17.798882,-38.97028,-50.109615,0.0,-18.17432,12.630985,36.292508,30.497849,47.695215,42.818106,55.348932,52.24338,61.996734,0.0,67.648201,26.371822,91.047707,17.008038,88.410416,7.837029,75.247307,-0.254517,55.137634,0.0,6.583582,30.183601,57.534588,46.896659,72.125901,58.406071,80.583114,65.243077,82.293539,6.102018,291.088138,-53.1112,271.081375
104,13.780174,-6.564501,0.269108,0.583047,0.0,-30.064602,-36.251106,13.818283,-45.426865,13.281898,-50.74173,0.364494,-53.509369,-54.337406,0.0,-11.354913,17.665311,34.077397,36.412674,47.514657,49.607626,55.269274,60.239626,63.894448,0.0,67.73283,25.769577,90.89098,16.733322,88.486691,7.906036,75.759258,0.054932,56.266537,0.0,6.03141,29.223135,56.490141,46.062411,71.139006,57.992591,79.853842,65.409927,82.431922,20.243683,284.507659,-52.480602,271.648445
105,-17.797737,3.5567,-0.667191,-0.046683,0.0,-5.377007,-25.777187,29.322052,-36.167793,32.593918,-39.885693,24.299812,-39.837399,-1.190758,0.0,-13.018531,11.778644,36.182777,31.00729,49.914587,45.711236,56.607405,56.751963,57.77066,0.0,68.473606,25.40411,91.222515,16.366882,88.831959,7.385559,75.930805,-0.704269,56.156445,0.0,6.177882,29.441732,57.032187,46.309907,70.857486,58.101889,79.714965,65.367998,82.6294,2.785292,288.050234,-52.808447,271.587636
106,-8.817673,12.443202,0.431499,0.490545,0.0,14.997597,-13.616982,41.611633,-23.227901,42.2715,-28.5359,30.949631,-30.702152,-0.166225,0.0,-29.714669,2.912396,22.695561,19.626072,41.145288,33.202641,47.276239,43.232698,48.550335,0.0,68.507538,25.603981,90.679092,16.96146,88.273087,8.218689,74.788284,0.266247,55.42717,0.0,6.082354,29.445005,56.35003,46.074699,69.941172,58.042794,78.660021,65.658904,82.20925,-5.761957,300.480253,-52.106524,272.064998
107,-12.396812,-11.167686,-0.959072,-0.182472,0.0,24.065094,-2.713394,51.66378,-11.536388,50.458946,-17.423744,42.728691,-20.293579,16.348343,0.0,-10.916732,10.281197,35.592258,27.256879,51.516578,40.491845,59.174802,50.425263,64.342139,0.0,68.796673,25.87532,91.602116,16.989326,88.606167,8.05584,75.303097,-0.119762,55.670986,0.0,6.19159,29.583449,56.608146,46.318305,70.248565,58.187166,79.137105,65.531575,82.064877,-17.92428,289.301128,-52.831106,271.871086
108,34.499016,-5.939587,0.871868,-0.020625,0.0,-27.036266,-36.71442,18.56266,-47.13129,19.451981,-52.28302,8.245354,-54.556789,-23.998718,0.0,-11.46594,15.487436,34.395226,35.229907,50.47985,49.766448,58.27442,61.763503,62.364026,0.0,68.246498,26.113873,90.781403,17.073212,87.832947,7.717838,74.20887,-0.865803,54.414597,0.0,6.514545,28.843679,56.489586,45.673136,69.871764,57.834139,78.819337,65.616173,82.470083,16.855803,283.352448,-51.678171,271.841369
109,-16.846161,10.713758,0.712795,0.598114,0.0,8.713188,-19.333248,37.99736,-28.743382,37.484093,-32.581501,25.670815,-32.618694,-28.652687,0.0,-21.019161,9.149682,29.740048,27.506042,45.794661,40.518089,52.478649,49.782997,52.714042,0.0,67.321644,24.974499,88.931179,16.097603,86.284389,7.233353,72.951679,-0.767956,53.548107,0.0,5.763289,27.842273,55.547892,45.04495,69.340711,57.605416,78.389678,65.746775,81.891729,0.174837,294.046045,-50.80018,272.419322
110,-5.985889,7.120131,0.233231,0.220758,0.0,18.209324,-13.407784,43.52663,-22.296638,42.951107,-26.57341,31.916714,-27.937145,-6.554089,0.0,-28.93649,1.745684,21.403372,17.936642,37.147319,30.831734,45.457072,39.892125,47.350833,0.0,67.155819,24.802437,88.656406,16.184578,86.532955,7.499084,73.661327,-0.488091,54.177189,0.0,5.718953,27.474487,54.74069,44.556813,68.91735,57.129382,77.949398,65.417954,81.616569,-5.635815,301.147389,-50.391712,272.621292
111,-7.914791,-11.305759,0.065918,-0.004755,0.0,18.500175,-6.5938,47.679291,-14.292068,48.49411,-18.272839,42.863159,-19.158039,23.53775,0.0,-9.446887,10.905864,35.115977,26.840805,50.743031,39.107771,58.580269,48.33038,62.950037,0.0,66.753101,24.85651,88.577213,16.267834,86.565342,7.578106,73.616924,-0.474987,54.099941,0.0,6.005166,27.59558,54.612805,44.652649,68.749327,57.10499,77.664975,65.255983,81.198148,-13.364468,289.82454,-50.139656,272.599448
112,26.694832,-8.764298,0.892754,-0.143199,0.0,-16.117458,-32.483253,22.39048,-43.043461,22.041206,-49.5504,9.874535,-53.253078,-50.445614,0.0,-10.137997,17.142285,38.483166,36.516291,52.509216,50.306085,61.370523,61.903862,68.152571,0.0,66.375446,24.210434,87.243061,15.704384,85.931797,7.149296,73.266621,-0.75119,54.407673,0.0,6.010229,27.579525,54.346105,44.698838,68.674053,57.17835,77.936059,65.216648,81.155602,13.509264,281.050022,-49.068003,272.446029
113,-37.495995,7.221278,-0.373363,-0.071939,0.0,32.878647,2.126141,62.807579,-8.20507,67.519569,-16.509819,54.327621,-22.817402,24.661903,0.0,-16.804819,7.034422,33.136753,26.620417,47.630563,42.965381,55.100263,55.729006,56.445311,0.0,67.407761,24.241562,88.064461,15.842342,87.261429,7.51339,74.217911,-0.063686,55.242119,0.0,5.81553,28.044876,53.72749,45.313873,67.852711,57.832472,77.200921,65.759063,81.023271,-23.871775,288.213888,-49.32641,272.316677
114,31.082153,-7.07635,0.605335,0.566437,0.0,-10.677338,-23.220806,29.708519,-33.929329,30.02449,-42.62558,17.375221,-49.267845,-30.484715,0.0,-10.183631,15.925246,37.890732,34.535462,53.06145,48.461723,61.554354,60.552824,66.857048,0.0,67.09116,23.938236,87.784367,15.50211,86.884289,7.169609,73.838367,-0.415649,54.928265,0.0,5.437556,27.656095,52.733123,45.066439,66.664448,57.669204,76.314926,65.62593,80.353156,7.271404,281.117917,-48.660049,272.863492
115,-21.369724,10.2418,-0.232658,-0.425152,0.0,20.581913,-3.548813,53.989277,-13.875446,55.28326,-21.071377,41.090183,-26.241074,12.881756,0.0,-20.611794,8.174026,31.803562,26.900888,45.90081,42.414382,52.411712,54.434902,53.836479,0.0,66.634998,24.902344,88.76833,16.275902,87.172794,7.612152,74.350605,-0.374165,55.47369,0.0,5.784408,27.503325,52.910779,44.849756,66.992404,57.398984,76.742115,65.370406,80.662464,-13.999786,291.340837,-48.794174,272.419461
116,41.6292,-6.924629,0.126858,-0.002902,0.0,-37.328682,-43.810329,7.468758,-54.640846,7.493935,-59.949245,-3.777924,-61.773605,-51.198063,0.0,-10.785574,15.050984,36.090955,34.333414,50.630892,48.131235,57.723544,59.70672,62.785719,0.0,67.173843,25.331039,88.435593,16.762047,87.418442,8.04966,74.752922,-0.114841,55.524902,0.0,5.448239,27.871357,53.10486,45.364446,67.330303,58.010684,76.96454,66.114375,81.000732,27.69124,284.368721,-48.60549,272.369072
117,-28.451614,1.508748,-0.134754,-0.453557,0.0,0.579185,-19.505424,36.899757,-29.956112,38.316765,-35.158997,29.047279,-37.583942,7.487411,0.0,-14.503319,11.835887,36.755945,30.759115,50.757665,45.392049,57.607824,56.05653,59.953351,0.0,66.369839,25.777931,89.243145,17.142391,87.811718,8.356133,74.988842,0.183277,56.197529,0.0,5.692956,27.958055,53.215332,45.628614,67.499993,58.272629,77.3159,66.183659,81.202224,-0.735254,285.851333,-48.715124,271.88938
118,-10.860043,14.301334,0.263042,-0.328327,0.0,20.711231,-5.8988,50.614185,-13.976898,51.970081,-19.197235,40.777302,-22.157249,14.794865,0.0,-28.676397,2.047088,18.909767,19.488615,36.73038,34.024415,43.005889,44.708039,46.884741,0.0,66.091461,26.102772,88.827782,17.632484,87.638054,8.879929,74.882355,0.701523,56.112442,0.0,6.018319,27.853511,53.694577,45.572669,68.439711,58.316101,77.793293,66.347668,81.694375,-11.578245,300.118025,-48.43503,271.526411
119,41.105175,-14.885863,0.408726,0.130417,0.0,-38.691158,-44.998112,7.089043,-55.867081,7.304993,-60.74295,-4.513435,-62.058735,-56.465378,0.0,-14.023704,13.996966,32.630647,34.045781,47.465874,48.453387,55.293295,60.043198,62.443252,0.0,66.292706,25.016212,88.419971,16.703224,87.078609,8.303432,74.387112,0.546284,55.103931,0.0,6.353809,27.598729,53.386133,45.230695,68.242109,57.949674,77.527025,66.030148,81.321896,29.543123,285.207029,-48.010111,271.631695
120,-26.348534,0.893343,-0.461197,-0.454113,0.0,-1.738358,-22.760468,34.040794,-33.142891,35.788422,-37.628689,26.17321,-38.885021,3.891449,0.0,-15.518311,11.376525,36.310292,30.326924,50.132195,44.749597,56.943698,55.414511,59.585134,0.0,66.115894,25.604324,88.525944,17.43433,87.86047,9.015999,75.187168,1.139317,55.994854,0.0,6.823235,27.950768,53.484872,45.37445,68.1564,58.026739,77.719748,66.160441,81.720927,3.209782,286.089196,-48.456116,271.166406
