takenoko1/special-research/HandMotion_SimilarSearch_自分用/NewProject/handData/test_key/d4_feature_d2/117.csv
frame,vel_0x_L,vel_0y_L,vel_0x_R,vel_0y_R,posFromWrist_0x_L,posFromWrist_1x_L,posFromWrist_2x_L,posFromWrist_3x_L,posFromWrist_4x_L,posFromWrist_5x_L,posFromWrist_6x_L,posFromWrist_7x_L,posFromWrist_8x_L,posFromWrist_9x_L,posFromWrist_0y_L,posFromWrist_1y_L,posFromWrist_2y_L,posFromWrist_3y_L,posFromWrist_4y_L,posFromWrist_5y_L,posFromWrist_6y_L,posFromWrist_7y_L,posFromWrist_8y_L,posFromWrist_9y_L,posFromWrist_0x_R,posFromWrist_1x_R,posFromWrist_2x_R,posFromWrist_3x_R,posFromWrist_4x_R,posFromWrist_5x_R,posFromWrist_6x_R,posFromWrist_7x_R,posFromWrist_8x_R,posFromWrist_9x_R,posFromWrist_0y_R,posFromWrist_1y_R,posFromWrist_2y_R,posFromWrist_3y_R,posFromWrist_4y_R,posFromWrist_5y_R,posFromWrist_6y_R,posFromWrist_7y_R,posFromWrist_8y_R,posFromWrist_9y_R,posFromBody_0x_L,posFromBody_0y_L,posFromBody_0x_R,posFromBody_0y_R
2,5.216045,-9.201552,-0.7374,-0.899148,0.0,0.708847,-22.347851,42.11174,-29.865589,39.977074,-31.55365,32.338943,-29.069366,17.56279,0.0,-4.275413,12.552747,36.257495,24.623039,48.630858,34.314827,53.407499,42.632855,57.402442,0.0,67.031364,25.84734,89.82605,17.722607,88.734055,9.120083,76.03878,1.108189,55.652046,0.0,3.734603,26.888785,51.348617,43.875891,64.733389,56.32533,75.160131,64.407162,80.294678,0.187483,287.649181,-47.226877,270.849734
3,17.464943,-7.393809,0.867004,0.125724,0.0,-20.502148,-27.399559,19.397736,-37.717609,16.676559,-44.154625,3.06118,-48.542461,-54.189205,0.0,-11.416107,17.790108,33.22413,37.429642,46.610755,50.947239,55.691462,61.102156,63.982813,0.0,66.404228,25.979118,89.234047,17.746811,87.878723,9.002266,75.449867,0.71909,55.808144,0.0,3.866379,27.395385,51.270997,44.209837,64.495465,56.592832,75.247138,64.707886,80.460108,17.936983,280.381466,-46.075315,271.101552
4,-19.182701,8.845006,-0.359917,-0.371305,0.0,8.081589,-16.111622,43.182564,-25.987015,44.220657,-30.891552,33.386765,-32.74847,8.787804,0.0,-20.280256,8.654258,30.65698,26.783068,44.712979,41.616814,51.134343,52.957215,55.624895,0.0,66.655083,25.800018,89.759331,17.47633,88.462257,8.745747,75.609741,0.632801,55.122414,0.0,4.223296,27.105961,51.66447,43.951226,65.59561,56.38498,75.806844,64.519486,80.531862,-0.977983,289.314698,-46.167498,270.818473
5,-2.825603,9.997021,0.109692,-0.184942,0.0,12.766171,-10.311012,45.330219,-19.265156,45.919018,-24.671745,33.503323,-26.716061,-12.112942,0.0,-30.586585,4.780038,26.899159,21.158099,39.934238,34.115374,44.1429,43.067269,47.978773,0.0,66.135578,25.360508,88.704586,17.196121,87.808971,8.613911,75.445232,0.561562,55.170193,0.0,4.577311,27.132822,51.856267,43.991117,65.942956,56.418079,76.527409,64.648421,80.983504,-3.495483,299.39715,-45.749702,270.718962
6,8.388577,-6.872759,0.234375,0.123316,0.0,-4.020195,-24.610119,33.560829,-32.87859,33.792229,-35.262623,28.847923,-32.72541,-1.217194,0.0,-16.731706,7.064309,28.561542,23.272063,41.680664,36.076258,48.606034,46.388391,58.013586,0.0,65.401211,25.471001,88.507862,17.241325,87.505016,8.585529,75.127544,0.400314,54.984226,0.0,4.596083,27.102132,51.375664,44.200142,65.482916,56.826681,75.991416,65.205039,80.690004,5.009365,292.549416,-45.399055,270.867302
7,1.549988,5.912849,-0.16737,0.602561,0.0,-3.869476,-22.030277,31.98246,-30.750561,32.912636,-34.417992,25.785027,-34.236031,-15.549202,0.0,-27.90816,3.717128,26.131725,20.192385,40.20841,33.016957,44.611832,42.554617,49.658817,0.0,65.940628,26.085777,89.494286,17.775879,87.946472,8.876896,75.56076,0.46526,55.603638,0.0,3.902626,26.637275,50.555989,43.550219,64.847442,56.148106,75.32482,64.553201,80.178773,6.667843,298.496783,-45.457935,271.504381
8,-0.497017,-3.909233,-0.018368,-0.29245,0.0,-3.942032,-24.297352,31.696472,-32.485714,32.767296,-35.061378,28.686333,-32.832184,-7.69249,0.0,-18.988807,6.721779,27.827267,22.057679,40.510432,34.372317,46.414635,44.057499,56.589313,0.0,65.82407,26.070957,88.939075,18.095798,88.470669,9.374371,75.881596,1.051483,55.400791,0.0,4.09819,26.961033,51.138542,43.93301,64.993914,56.50243,75.584542,64.852753,80.50006,6.280918,294.635422,-45.366211,271.259803
9,-0.558357,5.258418,-0.111122,-0.033963,0.0,-4.175491,-21.603127,33.013802,-30.74049,32.250366,-34.635372,24.9757,-34.572258,-11.599503,0.0,-28.324482,3.25579,25.812969,19.031909,39.024717,31.465046,44.157843,40.446211,49.561251,0.0,65.850163,26.322556,89.010143,18.398495,88.597469,9.498539,75.942135,0.829697,55.427341,0.0,4.093188,26.504635,50.842572,43.281358,64.927779,55.894991,75.637647,64.410311,80.781024,5.804472,299.957906,-45.395422,271.289907
10,-4.453583,-2.616056,-0.037537,0.433056,0.0,-0.070267,-20.267544,35.493164,-28.689651,36.854553,-31.806564,32.282639,-30.292168,6.20945,0.0,-21.433259,4.124742,25.494769,19.137564,38.741776,31.569466,44.722859,41.453978,53.00254,0.0,65.877857,27.310123,89.102612,19.578323,88.341236,10.535374,75.528316,1.488934,54.900227,0.0,3.395717,26.396881,50.695421,42.970815,64.536035,55.456069,75.029776,64.039994,80.481967,1.458578,297.389475,-45.32527,271.770587
11,-1.771832,4.868711,0.316429,0.560385,0.0,3.935452,-16.699677,38.763714,-25.591164,41.000805,-29.533596,34.488316,-29.519463,-1.051254,0.0,-29.699787,0.299798,23.340482,16.460499,38.369174,29.348427,41.880364,39.029904,47.90387,0.0,65.687199,27.101898,89.318447,19.520245,88.449268,10.728264,75.271511,2.040081,54.665394,0.0,2.936911,25.969815,50.256746,42.871088,63.904328,55.734316,73.978167,64.607048,79.457528,-0.135241,302.354578,-44.830828,272.427365
12,-3.745766,-6.794274,0.47081,0.000803,0.0,12.957172,-15.242786,42.2188,-23.685379,44.346943,-26.886578,39.069386,-25.546646,12.6824,0.0,-20.330644,4.967759,28.150654,20.665269,42.057773,33.457052,48.316116,43.717254,56.839402,0.0,65.431767,27.198715,89.385967,19.589939,88.32407,10.695477,74.865246,1.803474,54.338322,0.0,2.703557,26.344825,50.734694,43.163229,63.885556,55.923087,73.883009,64.705601,79.717991,-3.718586,295.608732,-44.197598,272.476595
13,-8.052979,5.992569,-0.624161,-0.691605,0.0,23.933315,-0.02409,57.551937,-8.9011,57.131481,-15.367298,45.517788,-19.350243,0.699577,0.0,-33.254326,1.258906,18.66647,18.253175,38.579434,31.818999,43.394114,41.743279,46.657562,0.0,66.177921,25.779648,90.4846,17.67437,89.531536,9.001293,75.366955,0.782261,54.353771,0.0,4.161916,26.486728,50.863938,44.157658,64.929447,57.191688,74.936163,65.747084,80.450722,-11.641617,301.605916,-44.691811,271.789606
14,4.963074,-21.806293,0.261784,-0.337528,0.0,11.008472,-1.669693,51.219463,-12.365513,46.588612,-21.912003,30.242443,-30.220585,-2.465286,0.0,-12.631417,14.12763,31.59182,33.969396,47.530527,48.73114,59.103604,59.615206,62.884644,0.0,67.369308,25.970821,90.78701,17.125282,88.63472,7.990837,75.032387,-0.399227,55.298653,0.0,4.864327,27.721304,52.031082,45.089163,66.37842,57.492968,75.891503,65.260614,80.112453,-6.594744,279.817006,-44.346228,271.469461
15,2.924366,0.583356,-0.249138,-0.286584,0.0,6.315079,-4.386177,47.589569,-15.048008,43.357773,-24.286938,27.453003,-32.218266,-7.798119,0.0,-13.018407,14.462811,30.984936,34.001444,46.826264,48.477346,58.287511,59.327758,62.905392,0.0,66.327553,26.313229,91.161346,17.67437,88.96122,8.646011,75.149918,0.168228,55.281487,0.0,4.86655,28.369498,51.651379,45.649671,65.620928,57.856616,75.540823,65.40968,80.305732,-3.630152,280.405348,-44.55514,271.187864
16,6.416016,0.47449,0.206909,-0.098492,0.0,-0.350418,-11.136417,41.931381,-22.31123,39.354057,-31.345482,23.246269,-39.20866,-11.348763,0.0,-12.328161,14.261937,31.675121,33.283287,48.163098,47.745666,58.912919,59.167639,63.737293,0.0,66.705666,26.290798,91.008453,17.655029,88.936844,8.64069,75.111008,0.289192,55.336533,0.0,5.293307,28.402164,51.836507,45.713027,65.865212,57.974127,75.760098,65.571157,80.247007,2.822256,280.849179,-44.311838,271.058713
17,-3.899231,0.210878,0.480938,0.566313,0.0,6.574516,-6.855297,47.485428,-17.952061,45.106773,-27.430401,28.769188,-35.729198,-7.023411,0.0,-12.542373,13.942749,31.771143,32.688692,48.083502,47.084751,58.907732,58.714082,63.805095,0.0,67.744846,26.177444,90.962391,17.524052,88.45499,8.458557,74.895458,0.037251,55.353527,0.0,4.784113,27.54513,51.786489,44.854141,65.58678,57.276286,75.521371,65.086046,79.728303,-1.043701,281.021339,-43.797626,271.586309
18,7.162285,-0.203097,-0.138931,-0.216682,0.0,-2.530746,-12.502842,38.149109,-23.072376,36.620979,-31.734982,19.301376,-38.820133,-26.766129,0.0,-12.83649,17.090847,32.91933,35.993327,48.259923,49.619914,58.117326,60.399313,65.063692,0.0,68.024883,26.532211,91.112423,17.888718,88.830128,8.66621,75.478878,-0.022717,55.66824,0.0,4.807455,27.343885,51.796616,44.605101,66.113326,57.130678,75.929418,65.229554,80.209895,6.140699,280.772254,-43.914442,271.323638
19,1.419525,2.985571,0.185566,0.287386,0.0,-4.340515,-18.899918,32.543564,-28.873787,36.959038,-32.915039,26.138992,-33.777752,-4.510231,0.0,-5.416005,13.522167,31.372667,33.249015,45.953977,47.814456,55.000042,60.53362,60.702384,0.0,67.531586,26.506176,90.594864,18.015919,88.86097,8.891888,75.40226,0.295715,55.793724,0.0,4.390578,26.812276,51.082226,44.214159,65.857926,56.841501,75.356683,65.04739,79.724537,7.574301,283.724109,-43.7148,271.577308
20,-14.665031,15.573207,0.242214,0.16123,0.0,26.480598,-3.435116,57.371407,-12.239571,57.415352,-17.748184,42.189445,-20.914078,15.11467,0.0,-28.919879,-0.034457,14.114168,16.542503,34.626297,31.558536,44.010939,43.68113,49.059591,0.0,67.386074,26.535358,90.775509,18.160801,88.91367,9.173527,75.310078,0.705013,55.619144,0.0,4.156235,26.771521,51.12471,44.098377,65.720037,56.81075,74.986366,65.152366,79.407078,-7.092161,299.211945,-43.474016,271.653169
21,31.661339,-17.405836,-0.383377,-0.250707,0.0,-26.678467,-35.523834,18.324165,-45.675659,17.723122,-50.618305,4.24736,-52.691631,-50.992126,0.0,-10.632433,18.162772,34.344097,37.482438,48.746084,50.650158,55.743332,61.071466,64.075253,0.0,66.9203,26.937332,90.986996,18.458576,88.90646,9.245739,75.392246,0.52803,55.817471,0.0,4.507904,26.924723,51.428151,44.286469,66.132283,57.049353,75.436279,65.485447,79.609928,24.566317,281.792031,-43.860254,271.388383
22,-24.385071,7.391092,-0.437279,-0.327771,0.0,7.054825,-13.172722,46.463585,-22.731228,49.380341,-28.000889,38.012695,-30.528603,11.317978,0.0,-22.668514,9.089043,29.386712,27.539449,45.857029,42.161267,52.177369,53.66753,55.987123,0.0,66.83527,27.233906,91.24712,18.756409,89.277592,9.285507,75.761204,0.21183,55.641575,0.0,4.457021,26.98882,51.247346,44.01026,66.389226,56.553621,75.916945,64.907155,80.273127,0.202303,289.179588,-44.276476,271.057077
23,-9.285679,7.252771,-0.995007,-1.914386,0.0,17.595577,-2.687016,55.05312,-12.295017,53.939495,-19.68338,39.082432,-24.373112,5.126781,0.0,-28.993177,4.295235,27.582983,21.746951,43.565657,35.56163,47.6996,45.697096,50.757665,0.0,64.878502,28.107376,89.611588,20.156364,89.694099,10.90044,75.47493,1.695099,54.802551,0.0,3.850015,28.129412,54.390813,45.048346,67.791331,57.357982,77.325471,65.669155,81.887777,-9.058714,296.381677,-45.24682,269.092009
24,15.721951,-26.054104,-5.476456,-6.259269,0.0,-15.623074,-26.157417,26.207085,-37.181282,28.637466,-44.178257,14.299049,-47.925396,-42.670956,0.0,-2.657182,22.765401,53.510869,42.151634,65.239743,54.01432,70.713855,62.71131,79.559663,0.0,62.930946,28.502769,90.811043,19.847145,89.610786,10.562782,75.017166,1.542892,52.55024,0.0,8.168839,28.943406,60.185842,46.127311,77.304476,58.251448,85.627197,66.437207,89.275226,6.85647,270.265359,-50.530043,262.770526
25,-5.059204,33.974706,-6.216774,-11.483662,0.0,-56.990833,-24.598675,4.445229,-26.490841,0.965996,-24.258499,-5.459633,-19.795361,-32.543278,0.0,11.785869,-2.849164,10.888944,4.360505,17.163465,11.229498,21.787707,16.768386,29.038625,0.0,57.693272,24.178677,81.036301,16.030598,78.773117,7.500401,64.443855,-0.647106,42.273102,0.0,-0.606142,28.445019,65.861569,45.538829,87.960127,58.399402,97.69366,67.244655,97.416215,1.841755,304.198476,-56.702328,251.245275
26,30.21698,14.934214,-22.766819,-32.947179,0.0,-78.412857,-41.998329,-100.777702,-40.207558,-103.362522,-35.3092,-92.345409,-29.634247,-74.027824,0.0,26.222127,14.155664,-10.311948,-0.541675,-38.583078,-18.679253,-58.298193,-38.352193,-61.846125,0.0,64.162273,38.66787,81.430035,32.08746,69.51376,25.762653,55.298367,19.577579,45.015335,0.0,5.322886,44.138145,82.163122,63.793486,103.194139,76.520925,118.79112,83.763816,121.14344,32.23177,319.127843,-79.296112,218.293248
27,1.358299,-54.320602,-25.110798,-49.034026,0.0,-64.474411,-38.806572,-95.44693,-31.49826,-97.81105,-22.106667,-84.099598,-12.035637,-62.809868,0.0,29.828907,30.631848,56.794756,47.828596,73.764634,59.853501,83.146991,68.033084,86.807556,0.0,60.820713,34.705009,63.506069,25.609589,65.519657,14.158573,55.744572,1.714439,41.210175,0.0,-13.229408,22.788557,51.769755,39.826052,81.711294,54.138624,98.545012,65.489585,107.007783,33.213959,265.721671,-104.78302,170.173653
28,1.713409,1.073531,-30.987225,-57.530852,0.0,-62.48806,-36.746521,-93.679218,-30.21698,-96.528339,-21.247215,-81.8997,-11.298866,-60.153008,0.0,27.361299,29.888373,57.025023,46.915617,71.936575,59.206789,82.559869,67.132454,85.998996,0.0,46.478062,27.046738,38.292446,22.356834,36.940384,15.941277,37.354603,8.256283,36.295223,0.0,0.059713,1.713111,26.482745,19.549841,43.302322,38.200565,61.662325,55.267638,76.295629,34.75585,267.664247,-135.941763,113.511846
29,-0.313911,0.073051,-51.821823,-60.780066,0.0,-62.375622,-34.779968,-93.291492,-27.572021,-94.685955,-18.286629,-79.774303,-8.414612,-57.448196,0.0,28.903268,30.824447,56.57369,48.396453,72.177401,60.566657,82.745737,67.675117,86.395866,0.0,40.319996,19.73608,35.964432,27.787628,39.740009,33.336811,46.469936,37.347565,52.54406,0.0,-56.715191,-5.957772,-14.167675,14.260115,15.780781,33.769355,33.315057,50.835996,52.325045,35.542917,268.573244,-186.662607,53.567726
30,2.120018,0.216435,-16.540718,-27.276423,0.0,-62.854671,-33.525009,-93.159657,-26.309509,-93.518486,-17.334709,-79.218121,-8.057098,-57.818241,0.0,29.123285,31.143882,57.347114,48.817714,72.255083,61.092955,83.729421,68.268353,87.443338,0.0,30.454617,10.56015,25.44136,4.17635,21.90588,-0.308075,22.51339,-2.565536,17.587566,0.0,-66.826111,-61.106263,-106.207096,-51.432412,-89.200539,-39.460705,-66.672877,-27.807569,-48.263813,40.722256,269.610959,-200.144005,27.112584
31,1.383133,-0.399957,-10.25322,-39.386766,0.0,-62.110176,-33.059006,-92.739086,-25.729408,-93.982487,-16.449852,-78.558483,-6.780968,-56.285305,0.0,30.046021,31.207176,58.023281,48.640306,73.982119,60.821624,85.232303,68.129909,88.580595,0.0,26.682369,9.614868,22.705708,4.452576,19.855946,0.722305,20.328197,-1.086388,16.930058,0.0,-61.73289,-57.577967,-104.793642,-50.308218,-93.983973,-40.458956,-75.202693,-30.047269,-56.129831,42.719307,269.56301,-209.783306,-11.922174
32,1.10527,0.28152,-10.25322,-39.386765,0.0,-62.529087,-32.752533,-92.576809,-24.810104,-92.102394,-15.323868,-76.912079,-5.717354,-55.077209,0.0,30.141796,32.032594,60.016646,48.951404,74.758445,60.669039,85.027971,67.479306,88.568925,0.0,22.910122,8.669587,19.970055,4.728802,17.806012,1.752686,18.143006,0.392762,16.272549,0.0,-56.63967,-54.049673,-103.380187,-49.184024,-98.767407,-41.457208,-83.732509,-32.286969,-63.995849,44.754353,270.524294,-219.106751,-50.629175
33,0.609283,0.090835,-10.253219,-39.386766,0.0,-61.400986,-31.521835,-91.479549,-24.09153,-92.671452,-15.031586,-76.905098,-5.736008,-54.664993,0.0,29.993225,31.280227,59.334674,48.188787,74.306494,59.958909,85.355742,66.967766,88.074304,0.0,19.137874,7.724304,17.234402,5.005028,15.756077,2.783066,15.957813,1.87191,15.61504,0.0,-51.54645,-50.521377,-101.966732,-48.05983,-103.55084,-42.455458,-92.262325,-34.526668,-71.861866,46.285629,271.362849,-228.437977,-89.26822
34,0.175781,0.421694,-10.25322,-39.386765,0.0,-61.321793,-31.012917,-90.780144,-23.611908,-92.811127,-14.664574,-76.977081,-5.392113,-54.670601,0.0,29.256913,31.092135,58.97257,48.057752,73.651631,59.823676,84.389966,66.814502,87.096795,0.0,15.365627,6.779022,14.498749,5.281254,13.706143,3.813446,13.772621,3.351059,14.957531,0.0,-46.45323,-46.993083,-100.553278,-46.935636,-108.334275,-43.45371,-100.792141,-36.766368,-79.727884,48.265486,272.758733,-236.887121,-127.680796
35,0.380859,-0.181978,-10.253219,-39.386766,0.0,-60.376282,-30.958328,-90.782661,-23.502731,-92.229023,-14.354782,-76.345024,-4.690475,-54.217358,0.0,29.404126,31.116959,59.659049,47.79451,74.400972,59.498683,85.448985,66.676489,87.680213,0.0,11.59338,5.83374,11.763096,5.55748,11.656208,4.843826,11.587429,4.830208,14.300022,0.0,-41.360009,-43.464787,-99.139823,-45.811442,-113.117708,-44.45196,-109.321957,-39.006068,-87.593901,49.659863,272.483187,-246.126823,-167.161129
36,0.623131,0.218596,2.895784,6.848198,0.0,-60.656376,-31.170044,-90.458393,-23.972855,-92.599926,-15.031242,-77.953606,-5.495796,-56.229744,0.0,29.104513,31.224158,59.470402,48.125925,73.061667,59.805645,84.421582,66.93862,87.257037,0.0,17.687616,25.816355,45.957384,28.798628,54.053707,29.729176,56.787786,29.807968,57.845907,0.0,-38.979392,-21.97119,-47.7895,-21.160878,-52.692005,-18.88174,-50.324502,-15.052936,-38.785086,51.649475,273.450523,-241.864557,-159.564192
37,-0.360832,-0.431327,2.895784,6.848198,0.0,-62.134895,-30.46051,-90.633888,-23.094292,-92.363949,-14.128189,-77.962475,-4.896927,-56.953068,0.0,31.129494,31.850863,60.612661,49.40175,73.497502,61.455122,84.464622,68.663741,87.928696,0.0,23.781853,45.798969,80.151672,52.039776,96.451206,54.614525,101.988144,54.785728,101.391792,0.0,-36.598774,-0.477593,3.560822,3.489686,7.733699,6.68848,8.672953,8.900195,10.023728,52.313976,273.422164,-237.943439,-152.313026
38,-0.540047,-0.09806,-1.529703,4.020762,0.0,-61.715126,-30.368385,-90.242157,-22.636757,-90.66925,-13.58242,-76.809425,-4.666672,-55.016441,0.0,31.374643,32.107065,61.138342,49.507281,74.238692,61.546327,85.388531,68.769396,88.586338,0.0,28.413191,46.068764,84.240189,51.1201,95.611868,51.951514,97.090559,50.144778,94.449463,0.0,-29.300323,1.537956,17.06942,5.967761,22.266813,9.52159,24.880569,11.878047,24.645308,52.302332,273.524947,-238.944741,-148.091421
39,-0.272026,-0.467018,-1.529703,4.020763,0.0,-60.941849,-30.727501,-89.259739,-22.952499,-89.316216,-13.764381,-74.931335,-4.56562,-52.992096,0.0,31.906685,32.547098,61.294385,49.791704,75.038483,61.75492,86.054263,68.929762,89.240646,0.0,33.044529,46.338558,88.328705,50.200424,94.77253,49.288502,92.192974,45.503826,87.507133,0.0,-22.001872,3.553505,30.578017,8.445835,36.799926,12.354698,41.088184,14.855899,39.266886,52.620106,273.347029,-239.884644,-143.781558
40,-0.047607,-0.276457,-6.231995,-6.266694,0.0,-59.235191,-30.417709,-88.537903,-22.646599,-89.651585,-13.381119,-75.300007,-3.970413,-53.425999,0.0,31.757558,32.555682,61.092276,49.740389,75.259673,61.421715,86.148803,68.32362,89.153578,0.0,31.686001,41.388245,95.319786,41.788559,99.288654,38.309097,92.838364,31.864643,74.984779,0.0,-32.238779,-4.948354,-15.474746,-0.455224,-11.016227,3.115416,-7.664276,6.771998,-1.477965,53.247471,273.681886,-245.441666,-149.436939
41,-0.094643,0.05996,-11.037655,-6.56007,0.0,-58.841915,-30.115814,-88.020229,-21.990738,-88.58202,-12.488251,-73.81073,-3.027306,-51.581154,0.0,31.828818,31.885998,60.988659,49.122576,75.949055,60.883127,86.319234,67.887106,88.799068,0.0,21.901188,38.314533,84.860001,38.128738,83.942528,35.13485,77.417622,30.214634,60.536957,0.0,-45.575617,-22.282713,-61.172629,-17.329064,-57.885222,-12.068624,-48.930409,-5.273609,-32.017758,53.330297,273.650795,-256.301851,-156.08806
42,0.280495,0.118561,-17.949314,-32.075464,0.0,-58.386612,-29.605179,-87.191963,-21.949196,-88.920479,-12.688293,-73.596039,-3.188553,-51.729813,0.0,31.433615,31.242436,60.248951,48.050342,75.285979,59.787737,85.937554,66.976843,88.616843,0.0,-7.141285,24.284763,55.593052,30.886402,63.37532,34.781284,65.216389,36.66584,60.918846,0.0,-55.921482,-40.053062,-88.16395,-32.010889,-83.070159,-20.180621,-67.558316,-5.448717,-44.520102,53.773298,272.041502,-274.088659,-189.891378
43,0.064087,0.076509,-5.295582,10.062199,0.0,-57.796154,-29.148102,-86.488609,-21.351929,-87.938347,-12.090569,-72.698307,-2.418251,-50.670776,0.0,31.597995,32.134482,60.472117,48.925592,75.539588,60.309404,86.008876,66.968075,89.051936,0.0,-3.914509,9.274807,29.649582,13.62402,37.703304,19.47258,41.670685,26.968002,40.480614,0.0,-59.324779,-43.071869,-108.764428,-39.57022,-114.895024,-31.028301,-100.544275,-18.821526,-71.487464,54.211264,271.040667,-279.010363,-180.906523
44,0.217438,0.011053,8.835068,5.33661,0.0,-57.838326,-28.372536,-85.930252,-20.761528,-87.998886,-11.693687,-73.407097,-2.177124,-51.005173,0.0,31.199519,32.054515,61.036021,48.917133,75.650183,60.394249,86.294842,67.235701,89.523092,0.0,-4.912491,11.829414,34.655056,15.928059,42.183151,20.202141,44.62904,25.085621,42.797413,0.0,-60.337238,-39.373051,-100.430747,-33.789146,-102.310792,-24.72045,-86.976042,-13.032625,-60.42812,54.800148,269.91474,-269.803848,-176.706893
45,0.842056,0.5355,-0.236378,5.792111,0.0,-57.305317,-28.919334,-86.131496,-21.573143,-88.257866,-12.577858,-73.130836,-2.861366,-50.478516,0.0,30.443509,31.609789,61.433015,48.096223,76.27874,59.513874,87.201585,66.474627,89.846726,0.0,6.859131,32.060223,79.205246,35.419693,87.258453,37.162056,87.709751,37.013855,75.727787,0.0,-55.32769,-28.501628,-62.835614,-21.217627,-59.774013,-11.871918,-52.487866,-1.150456,-35.273811,55.859442,270.001114,-269.822989,-171.363908
46,0.239639,1.100701,12.66819,22.748101,0.0,-56.092987,-28.563538,-85.444679,-21.345177,-87.440186,-12.486534,-71.69466,-2.885628,-49.306641,0.0,29.740419,31.093185,60.749067,47.385722,75.840683,58.705808,86.743768,65.56634,89.208597,0.0,14.888343,30.125637,75.301494,30.641307,78.200359,29.202995,77.199363,26.569175,65.948925,0.0,-44.518394,-24.016711,-40.078189,-19.000036,-36.062323,-11.334803,-29.461317,-2.72414,-17.140062,56.386356,271.349218,-256.867523,-148.368404
47,0.543022,0.719639,12.66819,22.7481,0.0,-56.734428,-28.438911,-86.204853,-21.21151,-88.471241,-12.312698,-72.612419,-2.593918,-50.00227,0.0,29.130757,31.308941,60.441365,47.836809,76.012658,59.093415,86.515909,65.677553,88.643272,0.0,22.917556,28.191051,71.397743,25.862922,69.142265,21.243934,66.688976,16.124496,56.170063,0.0,-33.709097,-19.531794,-17.320764,-16.782444,-12.350633,-10.797687,-6.434768,-4.297823,0.993688,57.174311,272.20812,-243.954401,-125.481042
48,-0.283699,0.810351,12.66819,22.748101,0.0,-57.27087,-29.55986,-87.089596,-22.302704,-88.759346,-13.242302,-73.754711,-3.480148,-51.96888,0.0,28.718264,31.740021,60.238638,48.531131,75.323523,59.928775,85.812572,66.566759,88.512794,0.0,30.94677,26.256466,67.493992,21.084538,60.084171,13.284874,56.178589,5.679817,46.391201,0.0,-22.899801,-15.046877,5.436661,-14.564854,11.361057,-10.260572,16.59178,-5.871507,19.127437,56.967373,273.23083,-231.20945,-102.520581
49,0.331535,0.154191,3.176937,-6.701988,0.0,-58.946915,-29.959259,-88.520279,-22.898598,-89.602432,-14.117661,-75.619526,-4.600983,-53.504791,0.0,28.585933,32.270024,59.935135,49.575886,74.580295,61.344465,86.087917,68.304971,89.458192,0.0,27.06459,28.397999,63.932762,27.499123,69.628029,25.426712,66.542187,23.204098,63.155022,0.0,-32.549414,-5.49733,10.243621,0.631089,12.733491,7.556768,17.902525,15.723538,23.271476,57.348604,273.517074,-227.982817,-109.090516
50,-0.452156,-0.024885,2.932148,-6.65512,0.0,-59.311295,-30.239639,-88.79734,-22.838287,-90.238953,-13.720207,-76.535397,-4.097786,-54.045696,0.0,28.833058,31.974055,59.496892,49.575577,74.154402,61.51891,85.701297,68.514182,88.824324,0.0,24.384155,35.860577,50.236473,40.607815,60.061913,42.659111,66.123734,42.756329,80.340271,0.0,-29.088473,-4.742246,20.44479,3.833527,24.066636,13.799118,33.310086,24.385855,39.54024,56.897564,273.537328,-225.049553,-115.700496
51,-0.745354,-0.505057,0.628376,4.639967,0.0,-59.641399,-29.975624,-88.744698,-22.280617,-89.549046,-12.791862,-75.194836,-3.034973,-53.023853,0.0,29.843604,32.541232,60.05277,49.801399,75.217992,61.560344,86.355419,68.387285,88.80302,0.0,26.365967,34.057693,58.300762,35.994968,60.075073,35.070877,63.560524,32.378864,72.657051,0.0,-31.028841,-8.464891,14.33684,-3.776552,16.088185,2.564361,22.436209,8.846477,26.450532,56.132126,273.15409,-224.441261,-110.938711
52,-0.820885,0.806831,0.628376,4.639967,0.0,-58.859425,-30.008698,-87.741852,-22.620392,-89.465675,-13.46386,-75.586224,-3.852768,-53.166389,0.0,29.406411,31.995297,59.088846,49.191984,74.455374,61.012001,85.71655,68.044384,88.47457,0.0,28.347778,32.25481,66.365051,31.382122,60.088234,27.482643,60.997314,22.0014,64.973831,0.0,-32.969209,-12.187535,8.228891,-11.386632,8.109733,-8.670396,11.562332,-6.692901,13.360823,55.310698,274.0041,-223.813429,-106.255565
53,-0.447006,-0.147028,0.628376,4.639967,0.0,-58.891811,-30.022545,-87.252159,-22.462692,-88.992805,-12.993279,-74.716129,-2.986107,-52.930527,0.0,29.699046,32.40674,58.94188,49.45609,74.686135,61.13723,86.114408,68.146705,88.899969,0.0,30.32959,30.451927,74.42934,26.769276,60.101395,19.894409,58.434105,11.623936,57.290611,0.0,-34.909577,-15.910179,2.120941,-18.996711,0.131281,-19.905153,0.688455,-22.232279,0.271115,54.767675,273.885477,-223.281069,-101.587193
54,0.08503,-0.145793,2.029066,-1.864554,0.0,-59.351635,-30.580559,-87.790833,-22.942085,-89.678764,-13.486176,-75.281811,-3.572159,-52.796288,0.0,30.047627,32.572663,59.843004,49.696238,75.951216,61.408438,87.206155,68.309602,89.26374,0.0,29.264259,28.93321,75.594663,24.124689,62.306471,17.111006,58.390646,9.865608,53.428573,0.0,-36.376048,-15.364212,2.181643,-17.00983,-0.699014,-16.886205,1.492956,-18.686678,0.935164,54.650459,273.871552,-221.454248,-103.319879
55,0.261383,0.361055,2.029066,-1.864553,0.0,-59.724884,-30.516129,-87.74334,-23.035469,-90.09573,-13.718376,-75.49387,-3.899345,-53.169994,0.0,30.130373,32.310841,59.283545,49.355375,74.800621,61.020954,86.386048,68.011842,89.56323,0.0,28.198929,27.414494,76.759987,21.480103,64.511547,14.327602,58.347187,8.107281,49.566536,0.0,-37.84252,-14.818246,2.242343,-15.022949,-1.529311,-13.867259,2.297455,-15.141078,1.599212,54.542227,274.300116,-219.794798,-105.116924
56,-0.025978,0.242494,-4.635887,1.010823,0.0,-59.642143,-30.325928,-87.41787,-22.854424,-89.573307,-13.62648,-75.04034,-3.905525,-52.777061,0.0,29.373992,32.060876,59.199379,49.468687,75.00063,61.407635,86.241243,68.453913,89.904771,0.0,28.083172,23.897495,86.149464,22.816086,84.129925,20.406361,81.248302,18.054829,73.809528,0.0,-47.383376,-16.825752,2.046964,-17.952852,3.409734,-16.497919,8.712705,-16.564733,9.287324,54.044409,274.615861,-224.902525,-104.032849
57,0.01545,0.198775,1.311436,-4.46684,0.0,-59.296246,-30.457878,-88.029156,-22.899513,-89.749546,-13.601418,-75.326099,-3.767967,-53.460045,0.0,28.412044,32.009499,59.488741,49.540503,75.709401,61.570842,86.875543,68.777424,90.442803,0.0,26.906147,24.241676,81.107998,24.189663,82.733116,22.966232,84.748764,21.816101,82.742844,0.0,-43.494381,-16.200251,0.549085,-13.704917,6.075716,-9.20183,15.416793,-6.488486,21.952951,53.490028,274.840741,-224.160919,-108.473583
58,0.539818,0.318756,-7.061348,-8.310864,0.0,-60.117073,-30.264702,-88.507175,-22.677956,-89.347115,-13.537903,-74.573536,-4.046631,-52.453194,0.0,28.897402,31.761757,59.536413,49.235826,76.1842,61.186631,87.436052,68.32961,90.741613,0.0,31.519432,40.027027,81.14954,47.989254,90.378914,52.40324,102.944698,54.424553,109.454441,0.0,-39.518936,-16.663071,1.562718,-9.98887,10.333901,-1.309695,24.800818,5.972129,37.128979,53.515348,275.122045,-231.736765,-116.821899
59,0.200157,0.346296,9.968376,-7.213992,0.0,-59.946785,-30.417824,-88.832645,-22.81208,-89.455833,-13.576584,-74.86599,-3.893852,-52.850647,0.0,28.010851,31.206126,58.912919,48.68137,75.292154,60.687626,87.242032,67.79127,90.389944,0.0,34.398422,44.930477,73.919506,49.839764,86.372852,52.739353,95.868759,54.326363,101.740494,0.0,-31.703279,-11.100501,22.983411,-3.548426,27.562667,6.629432,35.206936,19.260478,39.726788,53.110285,275.461008,-222.37361,-124.043224
60,0.259552,-0.160057,3.767853,-0.569771,0.0,-60.533981,-30.454903,-89.146328,-22.833595,-89.592018,-13.656464,-74.897518,-4.052238,-53.033352,0.0,28.129412,31.546124,59.012707,49.319251,75.167048,61.450058,87.176144,68.563891,91.229441,0.0,28.424664,46.86121,82.796631,51.275883,93.218651,53.972855,101.49353,54.895878,101.698208,0.0,-33.152808,-12.117314,26.058396,-5.304638,30.770848,5.819204,41.327266,19.794712,42.927528,52.456627,275.154911,-219.518967,-124.759035
61,-0.085716,-0.355188,3.804646,1.918832,0.0,-61.221199,-30.714455,-89.30603,-22.698212,-88.576298,-13.302383,-73.954067,-3.68351,-52.222939,0.0,28.804715,31.940586,60.352815,49.85753,75.648392,62.038848,87.286863,69.124152,92.060108,0.0,27.534714,45.969486,83.02454,50.043869,91.015606,52.393112,96.593685,53.133659,100.692272,0.0,-33.989495,-10.52122,24.099796,-3.152112,30.523846,7.724946,39.825589,20.905602,43.225041,51.581411,274.644698,-216.50382,-122.995227
62,-0.061226,-0.241568,1.67244,3.293551,0.0,-61.025963,-30.244675,-89.679165,-22.208405,-88.855362,-12.814636,-74.097633,-3.216934,-51.987305,0.0,28.214998,32.048587,60.214123,50.198948,76.154931,62.546251,87.803034,69.716462,92.625618,0.0,29.239769,45.35923,88.040485,48.346138,96.993656,49.853783,99.769135,49.97961,99.984398,0.0,-34.452901,-9.848079,24.479253,-2.312738,33.574594,8.616158,41.399298,22.055487,44.130055,50.654926,274.291085,-215.69664,-119.813722
63,0.33062,0.724085,2.977409,5.047355,0.0,-61.420441,-30.216179,-89.862156,-22.042351,-88.677006,-12.470856,-73.213806,-2.682838,-50.982113,0.0,27.224213,31.289366,60.131378,49.019268,76.133874,61.343292,88.168411,68.614835,91.852009,0.0,28.483543,44.034004,86.261501,46.971245,94.72681,48.49371,97.67767,48.737183,97.560196,0.0,-34.613252,-10.019529,20.428117,-1.656053,30.003599,9.895257,39.351716,23.548365,42.914344,49.425344,274.735194,-214.279432,-115.046344
64,0.96199,0.293808,3.937283,8.647219,0.0,-62.079964,-30.75016,-90.426693,-22.673378,-89.897175,-13.201332,-75.207253,-3.370743,-52.671261,0.0,26.09418,30.836859,59.335415,48.822346,75.144941,61.542004,87.136994,69.348306,92.830074,0.0,28.699322,42.656937,87.856979,44.877033,94.768238,45.694885,96.978836,45.171547,94.736023,0.0,-35.111979,-9.94052,14.978612,-0.585703,26.092513,11.929593,36.684345,26.291288,42.354175,48.87125,274.727259,-211.858234,-106.700868
65,0.749245,0.460411,4.994659,11.668759,0.0,-61.927929,-30.579529,-90.109978,-22.770653,-90.192432,-13.569031,-75.360088,-3.86467,-52.793484,0.0,25.55831,30.815061,58.791456,48.878662,74.686753,61.519651,86.76748,69.200476,93.19014,0.0,34.279003,40.766773,91.500549,41.985626,93.902607,41.583767,92.932262,40.024052,88.616638,0.0,-30.664205,-8.752565,12.511714,0.975008,28.426895,13.437692,39.102954,27.495791,41.600512,48.389111,275.062888,-208.094959,-95.156891
66,0.271339,0.371182,-16.87397,35.362361,0.0,-61.88673,-30.106201,-90.837994,-22.45182,-90.596466,-13.454819,-76.315784,-3.928642,-53.773499,0.0,24.231047,30.537802,58.417125,48.744293,73.842007,61.501743,86.745188,69.211159,93.229352,0.0,51.967735,52.1105,102.558289,59.036636,101.203308,62.451153,102.852631,62.569828,104.130192,0.0,-35.542827,-33.542021,-8.728976,-24.211596,4.667868,-10.568521,12.743587,4.126008,22.493236,47.950144,275.878765,-225.679235,-59.349834
67,-0.067978,0.434661,14.850998,5.64936,0.0,-62.226849,-30.15358,-90.999584,-22.502403,-90.988197,-13.451271,-77.097015,-3.835373,-54.573154,0.0,23.526598,30.356256,57.490004,48.502108,73.182142,61.266968,86.319357,69.002442,93.277764,0.0,57.448196,53.759022,109.830208,54.241734,112.864494,52.22826,110.330315,49.04726,103.302898,0.0,-30.320008,-16.806486,7.077493,-4.907676,18.985998,9.081664,31.751136,23.572139,34.848505,47.083597,276.436665,-211.626806,-53.577236
68,-0.189972,0.424905,12.56567,15.814929,0.0,-62.176552,-30.771904,-91.369743,-23.22258,-91.659737,-14.072685,-77.777653,-4.202499,-55.693016,0.0,23.227911,30.266964,56.874167,48.498033,72.568034,61.323346,85.992636,69.162252,92.385224,0.0,55.636425,49.543648,108.127613,49.092865,106.669064,46.6115,101.110668,44.098606,93.356152,0.0,-26.896442,-12.89574,6.47064,-0.601356,25.366977,14.615736,38.478905,30.945293,43.326065,46.117916,276.679375,-199.836845,-37.944501
69,0.119934,0.238542,11.110096,19.913859,0.0,-62.187996,-31.123009,-91.624546,-23.833466,-91.949043,-14.846306,-78.059406,-5.104065,-56.071301,0.0,23.067484,29.810876,56.840019,48.065903,72.366111,61.098328,85.369821,69.257101,91.873683,0.0,56.188889,48.666115,99.83757,47.316513,102.107277,43.546085,96.617947,39.357662,87.872372,0.0,-27.052701,-10.382591,10.675936,3.390221,28.207002,19.016811,40.282079,35.575061,45.447284,45.512695,276.560968,-189.451904,-18.38759
70,0.055161,0.456397,6.072407,23.613605,0.0,-62.627907,-31.067848,-92.500648,-23.98201,-93.027592,-15.171661,-79.68647,-5.41729,-57.112427,0.0,22.074599,29.861079,55.401358,48.049786,71.429851,60.902023,84.931949,68.749945,91.666449,0.0,58.95195,47.276516,103.162708,46.585865,105.948715,43.123856,100.809059,38.499699,88.472214,0.0,-28.901694,-7.889078,6.671947,7.171847,22.648816,23.613605,36.412952,40.563105,44.989837,44.301481,275.998715,-184.645872,4.207364
71,0.230827,0.20038,8.875408,19.25773,0.0,-63.27673,-31.497116,-92.969227,-24.605942,-93.695927,-15.923767,-80.205917,-6.343117,-58.855076,0.0,20.923324,29.617597,54.723153,48.055035,70.585476,61.091103,84.422323,69.159165,91.2153,0.0,64.597206,42.607212,105.714741,39.200706,109.670105,34.222355,104.673786,27.624149,85.039845,0.0,-28.924881,-2.681975,12.679706,12.943133,30.398431,29.30795,44.210084,46.120024,54.632843,41.732597,275.449908,-178.570175,22.715908
72,0.443573,0.658198,5.354347,25.796327,0.0,-64.642181,-32.634315,-94.450092,-25.990448,-95.059376,-17.368813,-81.780281,-7.647057,-60.212574,0.0,20.014667,29.181269,54.663935,47.618768,70.368238,60.741534,84.008286,68.848992,90.701352,0.0,64.122162,42.820644,106.487961,38.930969,110.908756,32.471123,102.142467,23.550053,81.242008,0.0,-30.288639,-0.476682,16.144089,14.024445,31.825761,29.438737,46.043176,44.354549,57.395927,38.538408,275.738221,-176.85359,48.14235
73,-0.666275,0.571377,8.184586,25.961077,0.0,-65.287971,-33.075829,-94.412212,-26.256409,-95.022068,-17.617493,-81.997204,-8.101387,-60.429382,0.0,18.96207,28.708384,54.1787,46.92772,69.710534,60.074876,82.916724,68.44817,90.402356,0.0,70.148563,44.402447,109.689617,38.607216,111.136551,29.615192,94.150143,17.790585,60.570145,0.0,-26.489723,2.008154,20.689599,13.763951,36.770703,25.177465,47.608024,35.26989,53.892487,36.013784,276.144755,-170.527353,73.938585
74,-0.939217,0.61596,11.098022,26.346863,0.0,-66.167736,-33.609581,-94.9506,-26.666908,-95.705338,-17.901993,-82.425499,-8.255424,-60.18631,0.0,19.369313,28.730058,53.530012,46.791807,69.473289,59.819847,82.623657,68.093847,90.338012,0.0,69.440975,39.761353,105.64167,32.216206,107.008209,22.174702,84.882088,9.913788,44.991646,0.0,-28.664788,1.690294,25.668103,12.036853,40.555139,21.58004,45.708519,28.550241,43.266846,33.396807,276.307575,-161.107092,99.832308
75,-1.366425,0.619851,20.052795,33.40086,0.0,-65.210094,-33.382416,-94.656258,-26.865005,-95.985947,-18.440895,-82.561626,-9.053192,-59.838867,0.0,17.406762,28.177145,52.50971,46.219689,67.938791,59.331957,81.755075,67.720318,89.789175,0.0,68.725491,41.951122,99.012508,38.740368,95.642281,31.61562,88.85519,22.130127,73.493614,0.0,-28.83593,7.321376,29.667738,27.645412,42.136752,47.260246,54.985284,64.490525,64.726041,30.775394,276.447594,-142.309284,132.753336
76,-0.379143,-0.882166,5.923576,19.576116,0.0,-66.831551,-34.313049,-95.640163,-27.704887,-96.449089,-19.03656,-83.423138,-9.333115,-60.610657,0.0,19.742718,28.25316,53.126164,46.530664,68.549071,59.860973,82.464279,68.447306,90.319796,0.0,73.340893,40.911942,105.806351,33.594875,107.793732,26.712742,100.219231,19.513035,77.787781,0.0,-20.860586,15.740798,36.614907,33.017945,50.425572,47.88553,64.18591,60.784883,74.210225,28.915644,275.560735,-137.866316,152.324758
77,-1.789284,0.490669,6.013756,21.278389,0.0,-66.269474,-33.312149,-94.40546,-26.866608,-95.568409,-18.544121,-82.943745,-9.254494,-60.448208,0.0,19.433843,28.379687,52.34181,46.239388,67.650664,59.238158,81.987195,67.548529,89.22527,0.0,76.560688,38.971024,102.634163,32.272968,106.198997,24.860001,94.137268,16.330147,74.83223,0.0,-18.146902,22.635725,43.360151,36.983989,57.902744,48.806785,68.836457,58.885749,75.925404,25.319281,275.448766,-133.659639,173.00051
78,-2.24968,0.537723,15.582047,22.033597,0.0,-63.816719,-33.063354,-92.428036,-27.726631,-94.742317,-20.203743,-82.984428,-11.266136,-62.634201,0.0,15.472183,28.881903,51.085498,46.243649,65.740785,58.979856,79.487909,67.28399,87.647917,0.0,75.713539,36.884766,98.625298,30.158787,96.004829,22.402382,83.9217,14.3367,70.701656,0.0,-8.923305,28.7266,45.458183,51.184422,57.525202,66.38441,68.06964,74.456856,75.995491,21.365747,276.013335,-119.781446,195.060953
79,1.315155,1.053524,4.278316,14.806637,0.0,-51.681175,-34.726067,-93.160801,-31.040382,-96.619835,-24.52652,-85.804882,-15.968857,-65.036831,0.0,-13.817951,26.62227,49.374827,41.930073,65.503911,54.123989,77.616254,63.244648,86.159794,0.0,76.34697,34.760456,98.910255,27.402821,100.32835,20.033054,85.900154,12.819271,64.373646,0.0,-6.665525,29.42049,54.642322,48.127962,68.110519,61.444439,82.122923,69.139528,88.153715,21.755877,276.923211,-116.428156,209.723943
80,-4.249306,0.728408,16.855145,16.848353,0.0,-59.526615,-30.662041,-90.285645,-27.20993,-92.706814,-21.349297,-82.432308,-13.691139,-62.273483,0.0,-2.189484,27.023771,39.883109,40.459549,58.413358,51.664532,73.229814,60.358558,83.06579,0.0,71.382351,30.017509,93.787079,28.384209,85.388031,26.712914,78.808079,24.749279,69.733143,0.0,-2.751043,35.310182,54.127571,61.040653,72.165977,78.892265,93.181186,89.043415,101.922204,16.753464,277.376043,-100.326118,226.296719
81,3.546867,47.554425,1.967239,9.939779,0.0,-67.051449,-23.775902,-93.779182,-21.214485,-94.707241,-18.622284,-86.760406,-16.478119,-67.26923,0.0,35.222373,11.693984,17.483641,-4.949357,-22.695623,-22.944724,-36.498878,-41.450829,-44.102144,0.0,72.685432,31.226234,97.483749,23.200951,97.164688,15.943508,83.739853,8.947792,61.496086,0.0,-2.034553,34.643463,59.233712,53.165129,74.623706,65.092159,87.175835,71.651535,92.159094,19.438705,324.635022,-99.220505,235.941053
82,-4.461136,-47.169164,6.736679,9.573413,0.0,-59.805393,-19.480934,-84.468269,-18.585091,-91.764851,-16.545868,-87.737961,-13.054047,-64.823513,0.0,12.657229,23.689434,10.212777,39.982774,22.463133,51.85849,50.160415,59.259956,78.574065,0.0,73.997841,29.151249,93.414803,20.329914,95.415802,12.834091,82.600021,6.594601,60.536785,0.0,-3.101723,33.474219,58.855614,51.032269,77.220866,62.332163,87.690649,68.38994,88.911022,14.527187,277.329977,-92.934208,245.378585
83,-0.94265,0.352471,7.305222,6.534429,0.0,-50.065269,-5.891991,-65.261078,-7.127724,-79.311218,-9.549065,-77.641926,-11.477165,-66.546822,0.0,-6.275386,24.957726,13.479189,42.114769,31.929162,54.732786,55.246859,63.004686,82.97866,0.0,72.909164,29.112282,92.972374,18.880405,94.022484,10.12722,78.95771,2.84626,56.343327,0.0,-2.401227,33.787355,65.259997,50.908522,81.900868,62.355998,90.957616,68.662691,92.07993,13.076334,277.835172,-86.13719,252.065737
84,-5.646229,7.824734,5.305882,5.029942,0.0,-42.82628,-26.132898,-27.639255,-29.131965,-31.128273,-29.642715,-33.408823,-28.816852,-63.945722,0.0,2.00411,16.514592,24.538039,31.568509,38.245797,42.352169,51.289923,50.605821,71.096893,0.0,72.517147,29.764881,94.618893,19.534664,94.061108,10.575428,79.280148,3.092251,56.835022,0.0,-3.8234,32.47201,65.621978,49.750701,80.805478,61.697801,90.467935,68.722095,92.079806,7.15393,285.666853,-81.107483,257.102626
85,-5.646229,7.824735,5.137081,3.348663,0.0,-35.587292,-46.373806,9.982567,-51.136208,17.054672,-49.736366,10.82428,-46.15654,-61.344624,0.0,10.283605,8.071458,35.596889,21.022249,44.562432,29.97155,47.332988,38.206956,59.215125,0.0,71.513672,30.550632,94.092636,20.932388,94.556007,11.547489,78.526955,2.684269,54.745045,0.0,-4.18921,31.80245,62.533345,48.369345,78.737024,59.868259,89.785778,67.095775,92.053747,1.431513,293.480133,-76.046591,260.439834
86,-17.016678,7.458091,5.596504,1.483615,0.0,7.287941,-18.944435,32.67025,-25.239143,32.688217,-27.412605,26.12812,-26.250572,-53.447285,0.0,-32.823555,4.843702,34.055908,18.894947,42.531337,28.971379,48.718543,37.732836,53.675866,0.0,70.166817,31.920891,93.111877,22.156391,92.892723,12.085075,77.051582,2.175236,53.869286,0.0,-2.809273,33.007262,64.237286,49.410457,79.57825,60.850214,89.518646,68.310776,91.683492,-15.67194,300.764258,-70.536861,261.749483
87,5.936737,-23.749023,5.302448,3.202685,0.0,-1.835976,-25.514374,34.64138,-32.875786,37.646828,-37.166691,23.398361,-39.226913,-48.189354,0.0,-9.49357,20.956855,47.777652,40.317708,60.53504,52.018424,67.064097,61.028056,83.852366,0.0,68.569279,31.593475,91.826305,22.185802,92.625446,12.512112,77.262554,2.873898,54.834995,0.0,-5.251873,31.860928,61.362372,48.441284,77.165106,59.931862,87.499284,67.490483,88.233682,-9.741096,276.834785,-65.240307,264.771718
88,-13.647251,9.491779,4.709473,1.508069,0.0,8.391323,-10.935631,58.104916,-17.564964,58.878193,-20.49202,43.044949,-19.469604,-33.614044,0.0,1.66121,19.12435,53.065155,34.554604,56.424995,45.339931,63.364938,53.870257,75.272208,0.0,67.785015,30.722523,92.259693,21.473179,92.581501,12.000904,76.93491,2.653656,55.186214,0.0,-2.84657,32.076622,62.266398,49.220018,77.534805,61.049051,87.643656,68.522456,88.316983,-23.392382,286.201689,-60.534868,266.154912
89,16.297245,-6.739502,1.184235,2.445934,0.0,2.326469,-23.616886,30.446548,-31.274815,35.124207,-36.727123,18.655586,-40.080986,-60.591888,0.0,-8.031753,21.305312,47.338236,39.103201,61.356074,49.747305,67.251015,58.168209,83.586778,0.0,68.448772,31.434975,91.989841,22.218018,91.589413,12.685719,76.264858,3.768311,54.941425,0.0,-1.188387,31.204336,62.053051,48.424303,75.321238,60.351395,83.934186,67.620159,86.593097,-6.995058,279.499053,-59.250555,268.637711
90,-11.060486,10.398769,0.605679,2.019053,0.0,10.685692,-13.310738,51.504936,-20.79174,50.261421,-23.737335,34.795876,-22.51276,-37.527409,0.0,-5.474545,14.710492,43.780054,32.94156,50.094528,45.961202,58.137766,56.803833,69.604447,0.0,67.412453,29.672241,90.842628,19.923592,89.937286,10.133743,73.415451,1.414661,51.77742,0.0,1.814598,31.590399,61.690205,49.134371,75.480184,61.026265,82.9455,67.967567,85.025624,-17.962904,289.854828,-58.552237,270.61377
91,-7.975674,6.982366,-0.460453,1.67782,0.0,10.989246,-2.788925,61.806736,-8.467426,59.728718,-11.522198,47.370472,-11.056366,-30.251312,0.0,-5.264531,14.992383,41.617308,28.431186,48.462588,38.703491,56.073635,46.872885,64.688991,0.0,66.182613,29.887447,90.832844,20.690117,90.313969,10.833492,74.076061,1.19854,52.450619,0.0,1.178383,30.093878,58.354819,46.956001,72.873081,58.704943,81.572541,66.159885,84.539155,-25.774555,296.930422,-58.848667,272.384819
92,0.522251,14.655966,0.627422,-0.243914,0.0,17.893524,-4.140701,59.311066,-10.491257,57.159691,-13.201103,40.514259,-13.218441,-14.783421,0.0,27.281888,1.3716,25.043868,11.759007,31.43522,21.305992,42.195786,30.589796,54.408597,0.0,66.837044,28.845348,89.647865,19.582729,89.267807,9.94463,73.781891,0.845776,52.403412,0.0,1.379813,29.774567,58.410394,47.269755,72.880059,59.401179,81.679122,66.967828,84.213545,-25.058784,311.695254,-58.027725,272.24977
93,37.571869,-22.359639,0.361576,0.157093,0.0,-33.078403,-41.615181,12.558746,-51.878128,14.204292,-56.154327,-3.317299,-57.228355,-83.460674,0.0,-4.106155,17.739905,41.673562,34.10784,50.115338,45.062301,56.080798,54.88074,70.034045,0.0,66.270847,28.051643,89.458637,18.655987,88.876247,8.967361,73.368015,-0.078793,51.481419,0.0,1.319792,30.144081,58.329069,47.483165,72.684372,59.380431,81.570133,66.668462,83.862617,12.680397,289.367139,-57.498837,272.438387
94,-38.493347,-3.704716,0.468292,0.70698,0.0,19.587135,-4.314709,55.62561,-13.381863,58.260269,-20.585003,47.497444,-24.27824,-32.220154,0.0,-1.872519,15.769079,47.663723,34.635868,61.922078,47.84249,64.748456,57.61616,74.753196,0.0,66.797962,27.453918,89.241085,18.200283,88.192348,8.648357,73.435993,-0.292568,52.459545,0.0,1.022031,29.081789,57.159763,46.091557,71.253739,58.026553,80.281217,65.489523,83.155019,-25.56653,285.628785,-56.784124,273.111729
95,16.781616,-4.968809,-0.33308,-0.084598,0.0,-7.577019,-21.919098,34.315338,-30.760174,40.168076,-36.40892,24.72599,-39.140224,-48.254871,0.0,-1.934208,24.385114,44.555886,42.282668,58.379395,53.50136,64.80539,62.162781,80.408978,0.0,67.092133,27.926159,89.606667,19.158039,89.134827,9.95121,75.055504,1.229553,54.579048,0.0,1.059452,29.358554,56.899238,46.444276,71.041564,58.443739,79.779742,65.98754,82.851886,-8.647671,280.640432,-56.979961,273.007587
96,-15.070438,14.549694,0.416908,-0.057304,0.0,1.889248,-8.897266,59.288692,-14.395809,60.317516,-16.218395,45.804691,-13.455505,-25.460987,0.0,5.926558,13.379585,43.104381,27.955832,47.760856,38.629267,56.094692,47.644704,64.225121,0.0,66.924248,27.656078,89.361076,18.615875,88.245964,9.155388,74.330978,0.324726,53.67588,0.0,1.245259,28.877951,57.812588,46.140587,71.855064,58.372356,80.1261,66.085106,82.691706,-23.558092,295.167247,-56.403036,272.927404
97,2.11647,-14.464972,-0.713596,-0.209519,0.0,12.342854,-4.390869,52.040806,-15.437965,55.44508,-25.077438,37.472248,-32.780857,-16.533451,0.0,3.733059,18.243233,44.132896,36.085027,58.117388,48.430354,65.58962,58.141533,75.670807,0.0,67.144032,28.950462,90.433559,20.29501,89.414234,10.90416,75.575581,1.905727,55.794811,0.0,0.874448,29.481314,57.026258,46.752287,71.534518,59.017092,79.835502,66.881809,83.398686,-21.168966,280.619498,-56.843977,272.635108
98,15.222645,0.361549,0.670395,0.499623,0.0,-8.072891,-21.725292,33.099518,-33.277988,38.032608,-40.737934,21.809921,-45.238895,-30.448608,0.0,11.01405,22.590462,45.30072,38.653844,58.863271,49.151846,64.700476,57.294317,74.226897,0.0,66.201038,28.510666,89.861355,19.807892,88.674259,10.322742,74.529476,1.113796,54.011135,0.0,0.474305,28.445945,56.653286,45.583351,70.946036,57.864953,79.588006,65.842859,83.134024,-5.600309,280.888344,-55.82757,273.042028
99,-17.823887,16.389177,0.416107,0.15734,0.0,-5.232067,-5.771484,56.772594,-11.331711,60.094929,-13.496418,46.777096,-12.283401,1.951733,0.0,8.701992,9.485975,36.435954,21.626909,44.209281,30.811171,51.577526,38.956421,51.338984,0.0,65.010281,28.111954,89.62492,19.533005,88.059597,9.943428,73.862972,0.558987,53.329296,0.0,0.661656,27.801826,56.24246,45.094041,71.216565,57.733301,79.464876,66.159762,83.568685,-23.075495,297.239359,-55.062761,273.161207
100,-4.183502,-13.888903,0.032616,0.578231,0.0,13.606052,1.503754,57.632504,-8.478069,62.125683,-17.751617,49.695797,-25.601807,20.61636,0.0,7.889418,17.141976,42.830333,32.200802,56.103275,43.442032,61.813459,52.77678,66.170939,0.0,64.849148,27.871799,89.789143,19.354992,88.612804,9.720268,74.149418,0.262642,53.261433,0.0,-0.177965,27.271514,55.5503,44.578178,70.346934,57.273754,78.986557,65.739303,83.694224,-26.888294,283.303619,-54.659443,273.6926
101,1.256905,-1.08551,0.564823,0.279297,0.0,14.988842,0.903225,56.825008,-10.998802,59.898891,-21.5098,44.503613,-29.977283,11.188946,0.0,5.182156,15.255933,43.336254,32.184006,56.861323,45.482081,64.222651,56.220477,70.354344,0.0,64.335365,27.656879,89.370232,19.073009,88.341751,9.494305,73.520164,0.12125,52.989922,0.0,-0.025997,27.080767,55.234817,44.413181,69.592282,57.017181,78.195782,65.364417,83.026887,-25.048628,282.211424,-53.511858,273.965212
102,5.759182,0.582368,0.42984,0.436267,0.0,6.141357,-4.841652,49.82975,-15.891495,53.818932,-25.494404,38.613968,-33.035946,5.584259,0.0,2.449577,15.676145,42.016339,32.838622,56.479273,46.283848,63.358701,57.419053,67.932431,0.0,64.632225,26.85688,88.959732,18.288631,87.683258,8.877811,73.032303,-0.241699,52.911987,0.0,-0.641278,26.85686,55.284712,44.341118,69.285753,57.230961,77.250445,65.899978,81.83109,-18.736095,282.750613,-52.528667,274.3583
103,5.740929,-1.137566,-0.463028,-0.084104,0.0,-3.449707,-13.302898,43.081627,-23.926792,47.120361,-31.884041,34.873466,-37.410851,5.685081,0.0,7.100371,16.698855,45.378711,33.122242,58.255092,45.733281,64.351463,56.304149,68.254089,0.0,64.731216,27.301025,89.622345,18.978825,88.554039,9.602852,73.944969,0.366783,53.775902,0.0,-0.335305,26.759047,54.40835,44.222125,68.720675,57.074733,77.086312,65.746899,81.909328,-12.417126,281.56042,-52.413654,274.221569
104,-10.51815,5.25212,0.288506,0.001914,0.0,25.290527,0.50148,60.786438,-9.103947,64.668961,-14.1786,49.697227,-15.439911,5.191784,0.0,2.528371,8.367366,33.695656,25.018303,51.224807,38.365593,62.152222,50.008695,67.206864,0.0,64.493294,26.410389,89.432373,18.254013,88.724556,9.194126,74.184837,0.341606,53.956261,0.0,-0.376184,26.34075,54.253665,43.803519,68.458915,56.823717,76.558964,65.751592,81.442865,-22.340126,286.70849,-51.529999,274.119434
105,5.339756,-2.500151,0.336914,-0.141594,0.0,-4.244499,-9.353714,47.94199,-18.901691,53.323002,-26.410217,40.542698,-31.926155,8.501301,0.0,14.822013,17.767693,43.309948,31.883899,54.328692,42.002939,59.614527,50.605142,65.35077,0.0,64.16748,26.845436,89.144783,18.619595,88.084717,9.439659,73.950806,0.317402,53.715477,0.0,-0.09244,26.923921,54.041244,44.285852,68.740435,57.124071,77.243961,65.853295,81.62577,-16.553822,284.108026,-50.746536,273.877527
106,-1.604233,4.041379,0.312824,0.270776,0.0,-7.589951,-8.731556,47.452984,-16.660709,54.229259,-23.118324,43.491726,-28.036938,12.209301,0.0,24.294959,15.950934,41.417977,27.265771,50.36166,35.32667,54.473435,42.628594,58.980412,0.0,64.005489,26.301842,89.069309,18.010368,88.025951,8.926105,73.90131,0.11261,53.488827,0.0,-0.421447,26.563175,53.515439,43.929922,68.146952,56.78537,76.776819,65.509654,81.255638,-17.761917,288.073051,-50.037575,274.071948
107,3.382816,-0.144866,0.252972,-0.058231,0.0,-12.962723,-13.09679,42.942924,-20.944519,50.253754,-26.822548,40.415726,-30.817566,10.614166,0.0,26.174332,17.946213,43.419308,27.971763,51.023007,34.694407,54.414463,40.770586,58.577429,0.0,63.809967,26.636295,88.806496,18.25367,87.845764,8.933201,73.752022,-0.271339,52.93396,0.0,-0.06385,26.578057,53.221877,43.724293,68.071863,56.471308,76.986338,65.204236,81.615643,-14.147959,287.859302,-49.553461,273.944835
108,-0.137672,-5.784285,0.301781,0.579095,0.0,6.490059,-3.915138,49.304466,-15.882454,49.858704,-26.883545,32.791786,-35.438404,-9.802208,0.0,-2.058265,16.84366,40.066755,34.61512,54.953668,47.689781,64.2053,58.035445,73.413768,0.0,63.749428,26.158333,88.067665,17.596722,87.298279,8.222523,73.009644,-0.89859,51.885109,0.0,-0.553531,26.018783,52.369042,43.658653,67.064652,56.643344,76.388656,65.291736,81.069708,-14.10387,281.950065,-49.06992,274.398978
109,28.441086,2.233512,-0.311966,-1.073346,0.0,-36.14027,-37.899227,16.830597,-47.793732,19.585075,-52.106609,7.502518,-52.754116,-55.532227,0.0,7.106237,19.752907,44.206626,35.371192,54.554019,46.129287,61.37392,55.24266,73.3895,0.0,64.299202,27.74374,89.652672,19.19569,87.78511,9.262333,73.55793,-0.780544,52.723846,0.0,0.053229,27.40545,54.238968,43.743498,68.347517,55.912034,77.671397,64.3577,82.34331,14.547672,284.149183,-49.171429,273.291237
110,-26.719494,6.003066,0.405064,0.420582,0.0,-0.031242,-8.442535,52.898884,-15.886803,54.118252,-20.744476,43.086491,-22.267914,-24.334888,0.0,-10.896786,13.931696,42.933765,31.479249,55.66812,43.65643,59.340726,52.085793,63.631268,0.0,63.813343,27.170219,88.865032,18.652554,87.666607,9.040375,73.604794,-0.466633,52.430248,0.0,-0.35914,26.476415,53.877173,43.257769,67.888773,55.812431,77.118052,64.402098,81.657757,-12.096777,290.138155,-48.69132,273.697725
111,24.841747,-8.634745,0.014248,-0.098245,0.0,-24.142742,-32.383289,19.842911,-43.879852,20.849648,-50.576248,6.733131,-53.993969,-63.511734,0.0,-4.018099,21.507236,44.729837,39.222318,55.9828,50.829111,64.146884,60.437722,76.663569,0.0,63.436317,27.75919,89.503441,19.244385,87.488823,9.375916,73.575096,-0.539589,52.245827,0.0,-0.257993,26.556753,53.468694,43.023859,67.905878,55.466752,77.04142,64.214747,81.752667,12.848339,281.451153,-48.573704,273.547224
112,-25.597057,3.693107,-0.326557,0.062491,0.0,1.622486,-9.210262,52.331028,-18.821411,53.372898,-25.313072,41.273518,-28.442688,-12.373981,0.0,-1.280086,13.743357,47.699291,31.495798,57.829384,44.757316,63.753287,54.88636,67.564954,0.0,63.347797,28.206654,89.608898,19.96851,88.061314,10.307465,74.074459,0.508232,52.668285,0.0,-0.320052,26.365759,54.023768,42.997059,68.185361,55.589635,77.182766,64.480892,81.848133,-12.666321,285.098101,-48.817863,273.563557
113,-6.666584,21.343042,-0.105228,-0.275777,0.0,7.830391,-3.297501,57.999115,-9.1325,61.711121,-12.554684,46.154251,-14.120865,-4.889145,0.0,25.74739,8.119129,30.740899,15.772969,39.507852,22.752927,45.644793,28.996573,49.095283,0.0,64.464226,28.267765,89.435349,20.120316,88.233261,10.461388,74.428711,0.685101,53.075523,0.0,-0.009448,26.436525,54.16493,43.224115,68.257176,55.922038,77.814658,64.830708,82.443778,-19.204817,306.348441,-48.795004,273.195077
114,35.159569,-25.340455,-0.084229,0.149683,0.0,-30.703411,-34.746208,16.982231,-45.380344,20.102119,-51.134377,6.033325,-54.243851,-73.102627,0.0,-7.712194,22.090963,43.867431,40.436516,55.843306,52.27864,63.263853,61.974072,76.10201,0.0,64.633141,27.988758,88.877563,19.996204,88.509979,10.367489,74.696503,0.516243,52.857285,0.0,-0.365624,26.212679,53.422998,43.057883,67.764346,55.841083,77.353938,64.877268,82.208879,16.034174,280.943472,-48.79981,273.280246
115,-24.24202,5.145168,-0.396881,-0.0628,0.0,-16.827736,-16.621571,46.775665,-25.682316,48.166924,-30.812302,37.303047,-31.763306,-36.3937,0.0,10.518936,15.551224,51.304836,30.830005,57.976412,41.619222,62.388108,49.921071,67.109607,0.0,64.799423,28.415794,89.442558,20.33392,88.715515,10.495834,74.8946,0.33165,53.161697,0.0,-0.466648,25.743315,52.847238,42.432351,67.54822,55.185232,77.346281,64.279647,82.00288,-7.995272,286.07365,-48.984118,273.202456
116,29.409599,-4.336793,0.282326,-0.394894,0.0,-36.614056,-40.913887,11.85173,-50.584488,16.262054,-54.439259,3.721733,-55.777073,-82.63607,0.0,-8.629311,20.023559,46.380117,38.668849,56.880033,50.635276,62.436521,60.30959,73.546531,0.0,65.307541,27.856464,89.756813,19.514351,88.414879,9.573212,74.862442,-0.514812,53.203354,0.0,-0.067925,26.017178,53.930772,42.570364,68.064021,55.326023,77.809409,64.333617,82.546222,21.655855,281.665643,-48.460264,272.736348
117,-38.31562,-2.350159,-0.180817,-0.062924,0.0,4.526596,-5.476799,57.923355,-16.014805,58.162193,-24.069672,46.006508,-28.992748,-6.696453,0.0,5.972376,18.742732,50.986142,37.198325,63.304485,50.356041,66.812464,59.590815,74.56424,0.0,65.819893,28.190002,89.5895,20.064869,88.51593,10.39381,74.748116,0.461369,53.243523,0.0,-0.093058,26.337662,53.225891,43.02003,67.768731,55.770008,77.984966,64.687879,82.602662,-16.406651,279.275362,-48.387966,272.633302
118,35.430336,2.144221,-0.11879,-0.353274,0.0,-35.071392,-39.75666,15.218124,-49.884739,18.255615,-53.860703,5.007248,-55.126648,-78.236217,0.0,-9.523581,19.70573,45.820164,38.971611,56.412768,51.28347,62.293877,60.954573,71.807146,0.0,65.439262,28.116074,89.494514,20.002155,88.28064,10.211163,74.627151,0.144596,52.707253,0.0,0.077806,26.27937,53.470608,43.079619,67.833816,55.948096,78.096919,64.95921,82.711775,19.179096,281.361275,-48.351345,272.22172
119,-37.716923,-4.06682,0.053444,-0.030999,0.0,12.776814,-5.742645,61.070881,-15.180244,61.05772,-22.313118,49.929714,-26.054249,0.667591,0.0,4.649559,20.981678,52.367375,39.458081,64.452301,52.431904,67.601264,61.035466,76.128995,0.0,65.450363,28.24894,89.300079,20.242596,88.404236,10.547733,74.736671,0.541592,53.175659,0.0,0.006299,25.978337,53.06534,42.845832,67.287077,55.764636,77.724935,64.866153,82.716221,-18.372402,277.243603,-48.132477,272.13987
120,36.177692,3.02787,-0.302181,0.225513,0.0,-32.961445,-39.903488,15.300293,-50.077686,17.497902,-53.546162,6.626816,-54.110527,-66.451263,0.0,6.692077,18.573906,44.847039,37.694366,57.353227,50.581491,63.992508,60.450751,73.670094,0.0,65.133877,28.384266,89.583378,20.342331,88.590717,10.53503,74.765911,0.44117,52.96629,0.0,-0.138383,25.570722,53.255655,42.556099,67.34574,55.625389,77.668804,64.872328,82.601241,17.918186,280.16043,-48.321762,272.25434
