takenoko1/special-research/HandMotion_SimilarSearch_自分用/NewProject/handData/test_key/d4_feature_d2/119.csv
frame,vel_0x_L,vel_0y_L,vel_0x_R,vel_0y_R,posFromWrist_0x_L,posFromWrist_1x_L,posFromWrist_2x_L,posFromWrist_3x_L,posFromWrist_4x_L,posFromWrist_5x_L,posFromWrist_6x_L,posFromWrist_7x_L,posFromWrist_8x_L,posFromWrist_9x_L,posFromWrist_0y_L,posFromWrist_1y_L,posFromWrist_2y_L,posFromWrist_3y_L,posFromWrist_4y_L,posFromWrist_5y_L,posFromWrist_6y_L,posFromWrist_7y_L,posFromWrist_8y_L,posFromWrist_9y_L,posFromWrist_0x_R,posFromWrist_1x_R,posFromWrist_2x_R,posFromWrist_3x_R,posFromWrist_4x_R,posFromWrist_5x_R,posFromWrist_6x_R,posFromWrist_7x_R,posFromWrist_8x_R,posFromWrist_9x_R,posFromWrist_0y_R,posFromWrist_1y_R,posFromWrist_2y_R,posFromWrist_3y_R,posFromWrist_4y_R,posFromWrist_5y_R,posFromWrist_6y_R,posFromWrist_7y_R,posFromWrist_8y_R,posFromWrist_9y_R,posFromBody_0x_L,posFromBody_0y_L,posFromBody_0x_R,posFromBody_0y_R
2,-2.344208,-25.670017,-0.918789,0.592927,0.0,-0.64476,-13.490524,38.468513,-22.263222,40.142326,-30.137444,32.205276,-36.000423,-5.015202,0.0,-9.531732,18.590085,38.280933,37.081678,53.157719,50.021477,60.658171,60.384122,66.869212,0.0,65.688057,26.05299,91.408653,17.815018,91.406021,9.632664,78.371201,2.054501,57.969475,0.0,-4.214095,26.692665,48.52934,44.46252,61.572262,57.005449,70.771406,64.892829,74.411284,-1.01841,283.361742,-46.838837,280.762543
3,0.629768,0.609415,0.122681,-0.427004,0.0,-1.957226,-12.887936,37.888641,-20.332203,39.655495,-28.225536,29.593277,-34.679947,-19.430523,0.0,-13.661291,19.045309,36.728898,37.725488,52.758564,50.332761,60.103714,60.535905,68.304971,0.0,66.516037,27.104416,92.324753,18.6339,90.687904,10.103817,77.191315,2.338028,56.977844,0.0,-3.628454,27.865614,49.436577,45.528888,61.807222,57.867484,70.864032,65.369851,74.758445,0.951777,284.190911,-45.375738,280.555294
4,-6.642036,1.617923,-0.328445,-0.771942,0.0,7.490273,-4.192486,44.533997,-10.290413,46.254845,-17.549286,37.428474,-24.022236,3.871365,0.0,-15.562956,16.091478,34.006878,34.755911,50.948968,48.448323,58.794235,60.111124,64.976933,0.0,65.63839,27.61837,92.577553,19.04789,91.604462,10.306377,77.721634,2.221584,56.690254,0.0,-3.381947,28.250566,49.893592,45.798737,63.42039,58.026862,72.171535,65.478037,75.988019,-4.770641,285.943249,-44.784565,279.917767
5,11.261444,-0.088365,0.601559,-0.235207,0.0,-7.081089,-16.737957,34.123535,-23.788776,37.156334,-29.759102,27.496834,-34.129486,-9.425812,0.0,-13.907984,16.969939,33.90289,36.08867,49.669438,49.874017,56.882257,61.340451,64.336581,0.0,66.351414,28.167515,92.26347,19.523277,90.815907,10.769577,77.116413,2.716084,56.265049,0.0,-3.7091,28.518563,50.213891,46.217837,63.672332,58.554211,72.861349,66.088872,76.071012,6.985359,285.983448,-43.68845,279.811124
6,-12.80405,11.198561,0.049782,-0.434352,0.0,25.844707,-2.87653,48.923321,-9.619675,54.882603,-13.67981,39.018002,-15.560932,5.5303,0.0,-16.967161,9.793801,28.254148,27.212419,41.007769,40.852158,49.392302,51.981435,54.473126,0.0,66.740513,27.210674,91.357327,18.588009,90.230541,10.038185,76.833515,2.199326,56.045094,0.0,-2.423333,28.326705,50.948968,46.012949,64.406112,58.434662,73.034435,66.072694,76.378652,-5.485754,297.341989,-43.305731,279.536751
7,-1.247292,-2.43803,0.215206,0.12381,0.0,28.897419,-4.749126,49.67165,-11.74221,58.002033,-14.998341,43.245678,-15.743923,15.801487,0.0,-6.179425,8.163157,28.340105,25.523483,43.534164,40.005684,50.767607,51.971431,54.704258,0.0,66.606331,28.377457,91.629639,19.84005,90.770302,11.047211,77.125854,2.796135,55.996628,0.0,-2.268895,27.813621,50.656024,45.616264,63.763722,58.245644,72.663254,66.177546,75.857047,-6.589794,295.068292,-42.947273,279.824894
8,-2.609653,2.689416,0.440197,0.51753,0.0,33.522491,0.827465,51.963272,-6.708241,58.249741,-11.082115,45.130692,-13.045807,20.166206,0.0,-12.840257,3.567013,22.685311,20.905231,40.300974,36.333572,48.180574,48.831979,52.880212,0.0,66.389408,27.591534,91.215076,19.293079,90.806751,10.688267,77.398853,2.53046,56.25658,0.0,-2.498792,28.05315,49.448742,45.687524,63.515856,58.151783,72.279042,66.168839,75.449864,-9.14669,297.900351,-42.454319,280.485068
9,30.980644,-12.089928,-0.063457,-0.040632,0.0,-24.439545,-30.309963,18.787422,-38.579178,21.597748,-43.723068,11.789246,-46.612816,-23.862877,0.0,-11.526332,18.656652,36.928105,38.241104,51.106432,51.964948,58.168703,62.880692,64.50022,0.0,66.041794,27.985382,91.084442,19.614601,90.162735,10.925159,76.760559,2.641983,55.562668,0.0,-2.840457,27.975654,50.222042,45.419775,63.923285,57.893049,72.796758,65.933755,76.147212,21.829662,285.855254,-42.522068,280.489267
10,-28.076763,17.198416,0.256863,-0.014264,0.0,21.619434,5.365963,55.795498,-2.816334,58.473873,-10.141068,43.008213,-16.482239,14.0835,0.0,-28.357086,-0.647453,13.31308,17.54391,35.357607,33.17652,44.724959,45.716424,50.203949,0.0,65.325909,28.955326,91.565952,20.48727,90.521908,11.416912,76.912479,2.778339,56.029415,0.0,-2.657985,28.721228,49.319004,46.182886,63.733712,58.492831,72.521969,66.446346,75.914783,-6.245527,303.082091,-42.263632,280.503423
11,30.639324,-16.669153,0.469608,-0.085277,0.0,-25.484676,-32.150345,16.621513,-40.743885,19.444656,-46.09623,9.67804,-48.964405,-32.90863,0.0,-12.585598,17.858466,35.23812,37.81799,49.624175,51.708622,56.419993,62.700442,64.688064,0.0,65.265083,27.852345,91.39698,19.277401,90.250969,10.39444,76.491966,2.105312,55.174026,0.0,-2.450009,28.669173,50.435946,46.12762,64.361899,58.473935,72.972314,66.381137,76.079472,24.446812,286.440509,-41.741009,280.445717
12,-28.969402,14.972067,-0.55006,-0.117635,0.0,24.075565,1.302738,52.952213,-6.365891,56.07439,-12.600403,45.054989,-17.144451,11.845379,0.0,-26.28042,2.779386,16.245422,21.203239,36.972133,35.880509,45.598295,47.347746,52.736704,0.0,65.568638,28.525887,92.14262,19.943275,90.826435,11.045895,77.078304,2.786465,55.79813,0.0,-2.297239,28.569631,50.55074,46.126137,64.551225,58.53408,73.138608,66.424177,76.130107,-4.502993,301.42224,-42.271471,280.337747
13,28.292599,-16.183733,0.254631,0.590704,0.0,-24.978333,-30.889263,18.957481,-38.716621,20.45208,-43.89822,11.968002,-46.537685,-31.072598,0.0,-10.685538,20.62013,35.896255,40.294552,50.603969,53.694885,57.600599,64.429083,67.184572,0.0,65.266628,28.434963,92.385235,20.017719,90.725842,11.360207,76.895428,3.175163,55.934544,0.0,-3.7225,27.866849,50.216794,44.957387,63.794968,57.051885,72.742047,64.772292,75.688962,23.772182,285.211568,-42.034264,280.901513
14,-34.25045,18.185496,0.167713,0.187598,0.0,28.945656,9.906292,59.566956,2.251396,64.087372,-5.348167,45.988083,-11.70948,7.929554,0.0,-30.906328,1.561297,14.429466,20.512808,35.350814,36.152211,44.59201,48.421215,48.211264,0.0,65.719986,28.384323,93.407364,20.086842,91.499634,11.49931,77.905197,3.437748,57.266235,0.0,-3.703975,27.609721,49.76935,44.823945,62.633875,57.035274,71.24108,64.819469,75.460732,-10.509539,303.386582,-41.897821,281.078628
15,39.961395,-18.063231,-0.033073,-0.489557,0.0,-30.876789,-37.104034,13.268509,-45.206566,14.474258,-49.521446,6.101875,-51.078815,-34.673767,0.0,-10.720242,19.703568,36.004874,39.658152,50.391856,53.309872,57.950477,64.193876,67.151968,0.0,65.680962,28.102741,93.032799,19.837475,91.582489,11.33749,77.697372,3.350029,56.758804,0.0,-3.387381,28.422294,50.423719,45.675483,63.155049,57.706378,71.790967,65.306433,75.505687,29.443159,285.299115,-41.939592,280.564834
16,-22.733688,8.61023,0.35923,0.449543,0.0,7.567635,-11.433735,38.818474,-19.722862,43.287277,-24.618473,31.563263,-27.296734,3.992386,0.0,-18.044767,11.507745,30.313895,29.929684,46.410004,44.118693,53.691921,54.545312,58.547233,0.0,66.136551,27.903328,92.528801,19.705524,90.874901,11.313915,76.982918,3.53754,56.384811,0.0,-4.26788,27.334808,49.850737,44.625479,63.208463,56.957222,72.104783,64.937598,75.252881,6.702547,293.899403,-41.587286,281.004435
17,-3.045731,8.150252,0.508003,-0.220572,0.0,10.240974,-6.192513,45.086746,-14.210014,48.769341,-20.000324,38.982925,-23.896008,-2.809582,0.0,-25.214669,6.016219,19.700234,23.141523,39.293516,36.589774,44.693404,46.107118,48.954245,0.0,65.763359,27.868595,92.700348,19.709644,90.972404,11.287422,77.091751,3.452454,56.733742,0.0,-3.69286,27.94484,50.271319,45.163016,62.997894,57.282337,71.408115,65.056035,75.126477,3.649693,302.051507,-41.086407,280.785715
18,-8.154259,-12.204351,-0.313225,0.041311,0.0,22.583199,-1.126156,55.949478,-7.838173,56.397514,-11.505604,48.213844,-12.959518,29.310493,0.0,-6.464712,12.802342,34.656307,29.39332,50.413777,41.839609,57.581395,51.094082,63.135165,0.0,66.040192,28.152866,92.24144,20.20998,90.834618,11.897736,76.898232,3.974247,56.265335,0.0,-3.905158,27.602434,49.860185,44.735024,63.183145,56.943389,71.859572,64.943094,75.255721,-4.564962,289.821576,-41.460028,280.801446
19,39.067383,-4.177786,0.499249,-0.373775,0.0,-36.556664,-43.080769,9.297409,-51.756134,10.764427,-55.509281,0.918045,-56.35191,-53.675022,0.0,-9.997577,18.837272,37.764885,38.841627,50.43576,52.183729,57.990429,62.747558,70.492541,0.0,66.330585,28.457909,92.505054,20.33535,90.674572,11.753654,76.21439,3.677845,54.949665,0.0,-3.567445,28.072046,50.687702,45.210564,63.497516,57.338222,71.574594,65.269506,75.458571,34.491262,285.637322,-40.971937,280.421202
20,-43.930779,6.227035,0.045261,-0.060701,0.0,26.224136,1.143265,55.293846,-6.542244,59.700623,-12.630215,50.074997,-18.3494,29.531021,0.0,-16.697744,9.611513,32.697522,28.907035,45.810593,44.181988,53.821227,56.285007,56.906771,0.0,66.405602,27.534485,92.494125,19.517384,91.375008,11.232662,77.235374,3.466644,56.277695,0.0,-3.429124,28.171094,49.899705,45.500791,63.638246,57.633389,71.825239,65.398441,75.256339,-9.505033,291.81579,-40.992193,280.311935
21,43.626251,-6.21203,-0.17292,0.234713,0.0,-36.910286,-42.909336,10.006142,-52.198219,11.966515,-56.239185,3.192558,-57.343826,-23.666954,0.0,-9.039149,17.929541,36.686229,38.423329,51.548441,52.830503,59.204751,64.228209,64.229012,0.0,66.565018,28.137817,92.571259,20.113392,91.467476,11.634865,77.103882,3.541546,55.708466,0.0,-4.230829,27.476957,48.716691,44.678584,63.471334,56.862929,72.086258,64.805575,75.061393,34.024973,285.557772,-41.261358,280.50066
22,-23.430748,7.244497,0.413132,-0.099789,0.0,3.87291,-16.273041,35.516396,-24.922886,40.537033,-29.567356,30.856934,-31.479034,2.517128,0.0,-16.786726,12.002428,33.257784,30.650496,47.952221,44.25473,54.286578,54.12825,59.373639,0.0,66.03035,26.796799,91.703682,18.81815,90.75119,10.717621,76.82888,3.114109,55.922012,0.0,-3.797465,27.97059,49.174138,45.148443,63.407423,57.216264,71.948246,64.977118,74.972287,10.468655,292.78612,-40.973797,280.384723
23,-12.671585,12.804936,-0.603104,0.010621,0.0,19.336281,2.609882,55.102959,-5.435772,56.910095,-12.565956,45.211372,-18.434086,8.957634,0.0,-31.490919,1.035246,12.068748,17.392312,33.753146,31.330862,40.760644,42.127119,46.816631,0.0,66.407204,27.877293,92.221069,19.798622,91.027451,11.502113,77.182846,3.688488,56.197243,0.0,-3.703481,27.279233,48.721816,44.461655,63.855916,56.704662,72.436938,64.775441,75.054662,-2.300091,305.564056,-41.674061,280.368344
24,37.82032,-19.232845,0.660152,0.283002,0.0,-38.517838,-43.109608,8.196259,-52.375317,9.960709,-56.138649,1.267776,-57.020302,-28.398628,0.0,-10.289656,18.089166,34.648465,38.492613,50.347457,52.799196,58.133876,63.928905,64.383944,0.0,66.540585,28.147659,92.546253,20.110817,91.300793,11.671085,76.700878,3.774891,55.895061,0.0,-4.430345,27.412181,49.262194,44.643819,63.260951,56.961482,71.250836,65.169224,74.46618,35.407562,286.279016,-41.126575,280.599152
25,-24.48555,6.293293,-0.501366,-1.340725,0.0,-0.503998,-18.513336,34.591026,-27.238655,39.427414,-31.419411,29.530334,-32.741318,-0.455132,0.0,-15.208077,11.258273,34.199292,29.736652,48.765227,43.077211,54.477263,52.684402,58.417001,0.0,66.471806,27.41209,93.289089,18.804016,92.28796,10.174141,78.167553,2.488289,57.330036,0.0,-3.132969,29.079936,52.110617,46.608532,64.882146,58.763421,72.974846,66.18687,76.262253,10.803938,292.519112,-41.746016,279.205229
26,-6.105423,10.215741,-0.501423,-0.056687,0.0,4.489632,-10.699425,44.465561,-18.652039,47.850723,-23.661003,36.861763,-26.489353,4.499817,0.0,-29.246168,5.460589,18.270403,22.101275,37.634468,35.052868,43.826305,44.320741,47.155146,0.0,66.921043,28.69091,92.594032,20.301991,91.973534,11.695976,77.395363,3.803844,56.821632,0.0,-3.723982,28.309476,51.135207,45.907232,65.200346,58.470415,73.875229,66.519335,76.459792,4.609852,302.705954,-42.336102,279.119643
27,4.720802,-10.455271,0.2948,-0.172654,0.0,0.893326,-18.699589,39.465866,-26.402321,41.204224,-29.41864,34.529457,-29.140663,11.50074,0.0,-11.234993,10.687144,32.567723,26.958748,47.732204,39.163964,55.172758,49.179201,58.203901,0.0,67.179222,27.386627,92.169914,19.163246,91.683197,10.969505,77.496643,3.453312,57.105331,0.0,-3.289506,28.200363,50.936865,45.668196,65.308409,58.095035,73.604392,66.163035,76.242678,9.27701,292.208337,-42.094946,278.904643
28,15.029297,-7.104817,0.020142,-0.860677,0.0,-25.547676,-34.241467,20.424042,-42.724342,23.902016,-46.913624,13.973007,-48.43729,-28.765354,0.0,-11.028747,19.425259,36.301585,38.902945,51.671571,52.243195,57.903732,62.971959,66.715269,0.0,67.139626,27.48642,92.504196,19.546738,92.360687,11.459942,78.901405,3.896427,59.357872,0.0,-2.196956,28.543881,51.808225,45.887102,66.287771,58.178336,74.870831,66.181807,78.101118,24.232206,285.006757,-42.148905,277.947203
29,-14.457664,5.639912,0.372276,-3.187556,0.0,0.610313,-14.572105,42.009544,-23.28804,46.282425,-28.960304,29.524612,-31.995449,-2.377739,0.0,-17.578552,14.889815,39.441841,32.067359,54.370867,45.416749,64.164544,55.16683,71.225827,0.0,65.512161,28.650742,91.643715,21.283665,93.014832,12.918491,80.722275,4.25354,58.592262,0.0,0.381679,29.498666,55.572592,45.913407,71.394777,57.531686,82.326205,65.440308,87.184048,9.605541,290.494362,-41.945629,274.607339
30,-2.267303,11.206403,0.542908,-6.586361,0.0,-43.89473,-30.746613,18.846703,-33.57399,33.480263,-32.919903,32.564392,-30.771675,8.58902,0.0,38.242895,12.5144,47.510705,7.778452,46.58766,0.785959,38.257406,-5.303064,27.066441,0.0,63.148956,24.542999,87.409515,16.905956,88.677521,8.686867,76.052055,0.310478,53.501015,0.0,2.222953,25.797037,58.316101,42.045238,77.724935,54.337522,87.689228,63.841404,92.502735,7.194214,301.50267,-41.546745,267.822883
31,18.527184,23.606812,-0.070324,-17.593495,0.0,-72.759018,-47.126255,-22.754173,-47.886086,-7.158966,-43.092556,-1.968727,-35.349941,-12.103271,0.0,24.706772,-1.635089,9.916684,-20.534667,-3.67662,-40.284302,-24.632239,-58.663447,-55.577779,0.0,61.639538,26.323986,81.827831,18.010254,80.276928,8.330784,54.355602,-1.84473,21.679058,0.0,0.335613,21.063374,57.832163,39.307781,77.412107,54.391183,92.634016,65.053071,95.522206,25.61554,324.96585,-41.722927,250.085757
32,-0.209198,-53.837838,0.436764,-31.84586,0.0,-52.803726,-22.99736,-65.683422,-12.084503,-65.098,0.293541,-47.51976,12.074776,-16.988983,0.0,7.688667,19.144974,55.367951,34.332241,72.631205,46.383513,64.97403,54.760821,65.929927,0.0,58.354511,26.005497,70.12001,18.256874,64.716568,10.358705,48.253612,2.202816,29.069939,0.0,-11.325736,8.59328,43.373798,27.558004,61.352461,45.059337,76.067368,59.883542,81.128,25.636368,270.901157,-41.056137,218.013041
33,14.37561,-3.789685,0.436764,-31.845861,0.0,-47.606564,-27.454376,-75.220757,-21.146622,-74.500523,-12.211075,-19.708099,-2.744293,-11.056709,0.0,-2.951484,17.94751,53.898538,33.389065,71.141291,45.289049,43.265797,53.437942,52.476488,0.0,55.069485,25.687008,58.412189,18.503494,49.156208,12.386627,42.151623,6.250362,36.460819,0.0,-22.987085,-3.876814,28.915433,15.808229,45.292816,35.727492,59.500721,54.714014,66.733794,40.206213,266.738268,-40.425138,185.793976
34,14.118004,-40.86809,-3.389339,-38.741097,0.0,-61.263828,-40.076866,-85.754128,-30.972748,-82.076569,-20.643654,-43.543739,-9.901543,-32.314339,0.0,16.305382,31.111587,70.512919,48.969065,73.157133,61.097648,55.147749,67.846783,55.769638,0.0,57.994652,35.032654,67.401924,30.158157,63.504753,23.248329,47.277374,14.727116,32.156296,0.0,-21.966721,-14.767241,1.884808,0.840361,13.722547,17.86353,22.758608,36.030871,19.657935,54.086552,226.122954,-44.052143,147.305654
35,3.141861,-22.835549,-12.06625,-48.234574,0.0,-56.953239,-44.695587,-93.753719,-37.122231,-82.924576,-25.240288,-37.292862,-12.72274,-22.420692,0.0,7.640996,23.233778,55.230989,41.953971,50.273357,55.184367,47.411719,64.099953,54.174871,0.0,30.802288,38.907223,96.576748,43.479996,108.795719,44.346142,57.331638,42.492828,47.9286,0.0,-68.912379,-12.643953,-31.615563,9.710252,-3.699591,30.684305,17.869056,49.85083,33.005997,56.738806,204.111942,-56.608,99.895617
36,-3.310032,-47.942032,5.793114,-21.0664,0.0,-55.44116,-49.734421,-102.019815,-43.893814,-97.248917,-33.505096,-47.331505,-21.75848,-33.440838,0.0,-14.813954,19.663771,45.450341,40.346577,54.136617,55.339237,44.228146,65.393254,51.604634,0.0,58.786182,36.224842,104.896488,41.930466,113.962955,43.621845,51.499386,42.603607,50.710201,0.0,-24.802084,-20.95176,-50.065412,-3.70697,-26.111069,13.346765,-0.31925,29.511819,15.192516,52.758808,158.330464,-51.484852,80.989772
37,-3.310032,-47.942032,9.286995,-50.699774,0.0,-53.929081,-54.773254,-110.285912,-50.665398,-111.573257,-41.769905,-57.370148,-30.79422,-44.460983,0.0,-37.268905,16.093763,35.669693,38.739183,57.999877,55.494107,41.044573,66.686555,49.034397,0.0,21.97546,45.272884,98.413868,52.644367,119.734211,52.022724,57.184582,46.825047,43.762035,0.0,-62.165745,-20.301529,-54.032537,-0.609137,-12.629534,19.455363,19.456999,38.301527,45.303776,49.290991,113.580929,-42.355642,33.482494
38,-8.308668,-31.966714,7.193699,-17.210581,0.0,-51.812596,-55.818944,-113.750339,-52.926407,-114.158277,-44.051242,-50.674624,-33.040967,-41.003394,0.0,-43.680636,12.533914,26.05808,34.55469,49.493179,51.295767,34.305156,63.110195,43.921741,0.0,39.542198,42.939606,110.275612,49.981041,117.182465,50.127869,42.538147,45.987282,37.147522,0.0,-54.909732,-23.227078,-49.160275,-4.898043,-25.851192,14.90411,16.053687,32.821949,35.649161,40.877094,84.766928,-35.267172,19.424626
39,-8.308668,-31.966714,5.72937,0.110811,0.0,-49.696112,-56.864634,-117.214766,-55.187416,-116.743298,-46.332579,-43.979101,-35.287714,-37.545805,0.0,-50.092366,8.974064,16.446466,30.370196,40.986481,47.097426,27.565739,59.533835,38.809085,0.0,14.142809,35.275669,79.483624,47.958355,119.356556,54.910069,78.582401,57.531738,68.140125,0.0,-55.100819,-43.202302,-83.051757,-29.718127,-53.444379,-12.361228,-15.916863,5.377365,5.742248,32.572575,60.559864,-29.533653,27.295087
40,-8.308668,-31.966714,5.72937,0.110811,0.0,-47.579627,-57.910323,-120.679193,-57.448426,-119.328318,-48.613916,-37.283578,-37.534461,-34.088216,0.0,-56.504097,5.414215,6.834852,26.185703,32.479783,42.899085,20.826323,55.957475,33.696428,0.0,-11.25658,27.611732,48.691635,45.935669,121.530647,59.692268,114.626656,69.076195,99.132729,0.0,-55.291906,-63.177526,-116.943239,-54.538211,-81.037567,-39.626567,-47.887414,-22.06722,-24.164665,24.971409,33.665112,-23.096781,32.477861
41,-8.308668,-31.966714,3.61805,-22.995977,0.0,-45.463142,-58.956013,-124.14362,-59.709435,-121.913338,-50.895252,-30.588055,-39.781208,-30.630627,0.0,-62.915828,1.854365,-2.776762,22.001209,23.973085,38.700743,14.086905,52.381115,28.583772,0.0,57.008171,37.803383,59.770889,51.889343,131.813507,58.365326,69.123688,61.643143,50.211296,0.0,-39.009156,-51.702478,-94.69367,-39.014497,-64.21907,-18.59697,-8.799001,4.030326,11.779539,17.724266,7.145156,-18.417206,14.928641
42,-9.047813,-11.301962,-2.245045,-24.642428,0.0,-53.111916,-60.158215,-132.965012,-62.776794,-138.308372,-57.43269,-55.721455,-48.235588,-50.648975,0.0,-58.262563,-2.314683,-3.685419,16.035563,27.152027,32.46744,29.689907,46.848833,42.358992,0.0,26.158733,59.846821,120.798283,71.061115,148.157444,73.601818,67.936878,72.191906,58.891239,0.0,-69.324532,-31.23095,-64.254021,-14.701106,-24.511888,3.999049,5.262277,22.541494,24.413674,8.272276,-1.868429,-21.066427,-7.42541
43,-10.64827,-7.771845,8.875294,-16.898988,0.0,-49.225273,-58.846035,-128.259888,-62.605476,-140.074825,-58.898849,-52.252121,-51.895008,-42.717934,0.0,-56.497366,-5.336501,-10.367956,14.179901,24.923825,32.002522,30.0488,47.633095,44.701586,0.0,33.985748,62.961617,129.778061,69.35955,138.275414,67.69146,52.410622,63.112679,44.044876,0.0,-71.056508,-17.182824,-45.09117,1.115923,-6.395151,18.134398,12.883791,33.664873,27.496872,-1.909904,-6.500589,-11.725044,-21.184714
44,-5.794773,-8.679175,6.938381,-10.070597,0.0,-49.615345,-59.537544,-127.353687,-63.871136,-142.561111,-59.947987,-52.965488,-52.449303,-41.974869,0.0,-55.410713,-3.600389,-9.343949,16.83662,25.34169,34.964442,31.582742,50.485624,47.984393,0.0,30.222645,61.711864,125.707684,67.238674,134.502468,65.065784,42.350521,61.157284,36.091518,0.0,-69.660609,-8.135277,-37.792981,11.601482,1.367092,28.904936,20.968371,43.188763,32.535582,-6.940756,-12.432488,-4.022741,-28.508035
45,-6.541901,-3.525949,-7.57576,24.770128,0.0,-48.876858,-56.365013,-127.300644,-60.699291,-142.058487,-57.225552,-50.475998,-50.526695,-40.093803,0.0,-55.323954,-3.396365,-8.533475,16.755326,27.41672,35.123634,33.686548,50.901112,48.399973,0.0,-10.44136,42.743626,62.919674,58.31171,128.918324,63.937969,52.613926,63.783245,43.568401,0.0,-72.408224,-34.626204,-73.260411,-20.56474,-35.98286,-3.119847,-1.458792,14.048651,17.737559,-13.520679,-14.585231,-11.636524,-2.364701
46,-4.119701,0.542786,13.940105,-13.897887,0.0,-49.794846,-54.495449,-127.153645,-59.286003,-141.085052,-56.73912,-48.765106,-51.153488,-37.890358,0.0,-55.872514,-4.648448,-9.097997,14.666001,28.346063,32.587699,33.756357,48.2129,48.6341,0.0,23.241577,47.924423,115.10994,54.709854,121.301765,54.167747,42.397156,50.61161,33.717957,0.0,-74.29896,-22.399036,-44.949267,-6.393977,-8.664694,10.537214,12.305097,25.943756,27.403783,-17.479219,-13.525625,2.464743,-15.745768
47,-3.884182,0.441423,3.904953,-4.378289,0.0,-49.236717,-55.190735,-127.882919,-60.595322,-139.650593,-58.538704,-49.486313,-53.556175,-38.204899,0.0,-55.30546,-3.538329,-8.442516,15.992832,28.475554,33.633319,34.919518,49.077035,48.875544,0.0,28.563652,51.70269,113.451004,56.289139,122.125511,54.890671,40.060501,51.33522,34.443512,0.0,-66.089984,-10.431837,-37.454929,8.391757,12.52499,25.288523,22.28205,39.673466,33.110417,-21.339912,-13.81806,6.393185,-20.857915
48,-3.744907,4.398389,2.512665,7.111517,0.0,-47.2122,-54.800434,-126.213055,-61.077633,-138.325539,-60.284786,-48.47105,-56.577988,-38.881016,0.0,-57.215184,-6.041012,-11.929377,12.96314,25.38757,30.261314,33.458751,45.604779,46.280884,0.0,23.706665,47.43084,114.521484,51.532516,122.196808,50.501289,39.587288,47.359085,34.318314,0.0,-64.732247,-6.997865,-31.02492,12.071804,8.584481,28.604335,17.162354,42.231971,28.947513,-24.774342,-9.172483,9.216328,-13.499211
49,0.010185,4.850063,0.395393,4.458565,0.0,-48.874683,-55.08419,-129.146461,-60.947285,-137.19698,-59.736557,-49.694595,-56.010532,-39.695377,0.0,-58.093583,-6.27307,-12.970489,13.240616,21.21633,31.069689,30.28021,46.19397,42.577372,0.0,24.243851,47.449036,113.410263,52.233009,125.646515,51.071091,38.871918,47.403717,37.243309,0.0,-62.647584,-8.349119,-35.066731,11.314219,4.799273,28.756642,18.992389,43.581681,33.193316,-24.492016,-4.726994,9.883862,-9.44522
50,-5.056,5.622344,-0.107117,1.803822,0.0,-44.107361,-53.34486,-125.226517,-58.535614,-133.822746,-56.654663,-46.485615,-52.353344,-39.053936,0.0,-57.823395,-5.837853,-13.516146,13.191,20.80674,30.610389,28.835281,45.865335,40.832028,0.0,22.188835,46.134453,113.134804,50.586548,123.501434,49.194946,40.388832,45.87822,36.38855,0.0,-60.926229,-4.939724,-32.2427,14.533114,8.954489,31.329195,19.494883,45.135013,31.856111,-29.445133,0.681416,9.879627,-7.855332
51,-0.959072,0.206339,-1.70105,-1.671954,0.0,-44.593334,-52.263165,-123.879261,-57.077179,-134.632931,-55.386429,-47.020397,-51.088486,-39.820576,0.0,-56.315696,-5.032381,-10.346251,13.412653,23.12627,30.357954,31.664191,45.364786,44.080068,0.0,23.501358,46.995277,112.906151,51.682434,124.277802,49.873009,39.657555,46.230354,36.53183,0.0,-56.707997,-4.218665,-29.419718,15.592751,12.238222,32.509616,23.574887,46.731508,35.6964,-30.144796,0.539729,8.437986,-9.875311
52,-0.777225,-0.781513,0.519447,2.214215,0.0,-43.225365,-52.854996,-122.191486,-57.307606,-134.089108,-55.047855,-45.453701,-50.268059,-38.600178,0.0,-56.841223,-4.698311,-10.582878,14.530397,23.570812,31.866547,31.732055,47.222794,45.27991,0.0,22.999992,46.414833,111.387177,51.932373,125.128899,50.758438,39.318123,47.304955,36.033783,0.0,-58.552327,-5.437124,-32.227941,14.187188,8.82577,31.482151,24.066482,46.478177,35.686242,-30.926828,-0.515956,8.952627,-7.935268
53,-0.547142,-0.655697,0.78495,-1.239701,0.0,-41.401577,-51.474266,-120.913239,-56.402035,-132.695217,-54.46764,-45.12022,-50.122032,-37.125092,0.0,-56.797473,-5.641888,-11.373685,13.988383,23.604126,31.733691,32.287284,47.337156,45.443147,0.0,21.728897,45.410385,111.027145,50.311546,122.567139,48.402443,36.815987,44.50161,33.277588,0.0,-60.10674,-4.813939,-31.517318,14.364906,10.199408,31.415676,23.039851,46.24053,34.386026,-31.627178,-1.622075,9.58437,-9.625392
54,-0.384521,-1.386297,-0.24559,-1.593778,0.0,-40.915489,-50.33083,-118.78561,-55.55912,-131.775627,-54.12077,-44.281311,-50.271263,-36.939754,0.0,-57.345292,-5.237114,-13.020599,13.882728,21.941774,31.387889,32.018607,47.008736,44.96137,0.0,22.736092,44.56192,110.859146,49.826202,123.50647,48.532677,42.388115,45.355339,37.627373,0.0,-58.646805,-3.951316,-30.411337,16.421966,11.916378,33.677069,21.63577,48.047841,32.609528,-32.049522,-3.971215,9.300957,-12.182013
55,-1.810627,-2.309867,0.757141,-2.138262,0.0,-37.952213,-50.102005,-117.033234,-55.28017,-128.808575,-53.681545,-41.885262,-49.65683,-33.779697,0.0,-58.050019,-5.892718,-13.968375,13.169171,23.536911,30.567473,33.436335,46.120549,45.83236,0.0,22.619019,43.268394,110.384674,48.097458,123.159142,46.701965,40.612221,43.380661,35.816002,0.0,-58.189883,-2.467917,-29.339257,17.444244,13.414412,34.47859,23.605762,48.972986,35.003777,-33.819809,-6.694084,10.098438,-14.733278
56,0.173664,-0.506786,-0.254402,-1.749297,0.0,-38.256626,-49.328671,-118.329334,-55.158119,-128.466625,-54.242249,-42.782936,-50.86132,-35.075054,0.0,-58.732669,-7.748195,-14.799412,11.194794,21.38954,28.895241,32.569483,45.125688,44.173003,0.0,21.17054,43.347015,109.08371,48.00396,123.370857,46.460037,41.840973,43.219643,37.158737,0.0,-56.833381,-2.144592,-27.914799,17.939143,13.463658,34.672177,22.499534,48.322044,33.233732,-33.477573,-7.390675,10.012608,-16.67238
57,0.454731,-2.33645,-0.631828,1.105888,0.0,-38.237686,-50.741558,-119.137402,-56.635151,-128.182354,-55.269527,-43.105545,-51.69817,-34.243813,0.0,-58.05854,-6.937906,-15.004547,12.576923,22.826534,30.680075,34.026515,46.890268,46.980084,0.0,20.514565,43.942451,109.02729,49.067001,123.021355,48.140373,41.325188,45.314598,37.331543,0.0,-57.825432,-4.423522,-29.767373,15.735055,10.410471,33.002847,22.138789,47.301001,33.81221,-32.958899,-9.956158,9.444723,-15.795524
58,0.044804,0.346574,0.068321,0.71297,0.0,-39.02029,-50.29604,-118.444176,-56.030846,-127.847786,-54.726505,-43.352108,-51.170483,-35.230465,0.0,-58.461307,-7.127572,-15.789519,12.198732,21.956501,30.109624,32.534563,46.181775,45.299886,0.0,20.395317,43.63472,110.277786,49.039421,122.76741,48.215675,41.999817,45.544167,37.693291,0.0,-60.631217,-5.290436,-31.703217,15.008808,10.348319,32.210867,20.327772,46.55873,31.434418,-32.91853,-9.966362,9.50861,-15.439332
59,0.041256,-0.404373,-1.182289,1.41075,0.0,-38.8381,-50.580425,-119.577198,-56.078396,-127.711201,-54.558964,-41.516418,-50.986919,-34.065971,0.0,-59.078873,-6.901597,-15.000564,12.550432,22.712728,30.48553,33.376376,46.522174,45.553402,0.0,22.035599,44.656334,112.037086,50.154076,123.854256,49.473038,41.188087,46.936913,37.302017,0.0,-60.737304,-7.065976,-32.222878,12.916519,8.531807,30.32853,19.780633,45.019169,31.315209,-32.925339,-10.512421,8.278255,-14.170268
60,0.24662,0.803836,-0.03376,1.205862,0.0,-38.860588,-50.355663,-119.635048,-56.071987,-128.514118,-54.676094,-41.210518,-51.33688,-34.434185,0.0,-59.395961,-7.230417,-15.707792,12.292963,21.91448,30.250817,32.441968,46.399445,44.594851,0.0,20.965805,44.827995,112.928925,50.174789,124.85527,49.492149,41.861916,47.029152,37.607918,0.0,-61.88685,-8.671487,-34.068937,11.632975,7.605644,29.251572,18.565817,44.023382,31.313356,-32.672939,-9.778842,8.250275,-13.034663
61,0.233574,-0.409066,-0.955925,-0.104389,0.0,-39.091415,-50.193214,-120.288906,-55.85804,-128.498611,-54.250374,-42.160091,-50.480576,-34.497814,0.0,-58.19436,-5.675264,-14.367129,13.818538,22.405766,31.635631,34.038402,47.45621,45.622563,0.0,24.111557,45.453758,113.736877,50.721016,125.079575,49.936981,43.716431,47.257805,39.587746,0.0,-60.640356,-7.136557,-33.726223,13.345592,6.81601,30.610019,17.307189,44.753148,29.01976,-32.436247,-10.041111,7.297468,-12.992256
62,-0.983906,1.562008,0.309334,-0.219584,0.0,-38.583012,-48.739014,-118.339176,-54.845066,-125.479774,-53.823338,-41.554871,-50.814743,-33.667774,0.0,-57.875512,-6.874642,-15.304685,12.558181,23.293274,30.446072,33.467427,46.498091,45.143905,0.0,22.568779,44.849854,113.690872,50.056,125.492249,49.561615,42.8405,47.082596,38.834381,0.0,-60.016121,-7.389023,-32.822258,13.58543,8.387867,31.431423,18.774194,46.202739,32.026481,-33.30368,-8.461134,7.723274,-13.193871
63,1.031055,-0.786175,0.583076,0.512837,0.0,-39.304848,-49.14362,-119.226723,-54.554844,-127.824383,-53.081474,-42.364082,-49.441795,-35.064068,0.0,-57.905306,-4.829716,-13.082103,14.466516,23.2716,31.954603,32.815898,47.349475,44.64385,0.0,21.552429,43.085861,113.082275,48.31604,125.055084,48.013573,41.406326,45.664787,38.324089,0.0,-60.675214,-8.162509,-32.402726,12.399421,8.31352,30.546231,19.928988,46.051913,33.844845,-31.822042,-9.361254,8.756933,-12.794979
64,-0.341434,2.413206,-0.189514,2.234531,0.0,-39.255409,-48.926411,-117.671928,-55.137119,-126.077614,-54.100685,-41.772423,-50.865555,-33.886356,0.0,-57.959801,-7.47464,-16.076627,11.959048,22.71103,29.67027,31.978439,45.772709,43.275584,0.0,22.662849,43.149033,113.447113,48.586807,124.578896,48.455315,40.597801,46.283112,36.952858,0.0,-62.922774,-8.945504,-34.521722,11.262009,5.910008,29.1344,18.299333,44.410835,31.486257,-31.928473,-7.224042,8.802423,-10.836441
65,0.364037,-2.113655,-0.505829,-0.550104,0.0,-38.554001,-49.705238,-119.590473,-55.635109,-129.374599,-54.268284,-43.868752,-50.605659,-35.869217,0.0,-56.39344,-4.651998,-12.317941,14.806298,24.109954,32.484854,33.673735,48.145469,45.731491,0.0,23.955002,43.557014,112.408218,48.934135,125.213356,48.632812,42.690125,46.468391,38.759537,0.0,-61.346472,-6.432787,-33.345747,13.587252,6.682907,30.77341,18.285655,45.199943,31.025105,-31.381531,-9.870294,8.4795,-11.919142
66,-0.381088,1.648211,0.844574,-1.37901,0.0,-39.956188,-48.788452,-117.395782,-54.604626,-127.534847,-53.279915,-42.187729,-49.785919,-34.62965,0.0,-56.286736,-6.35949,-14.137973,13.119462,24.034804,30.698754,31.510772,46.654536,43.520918,0.0,22.463493,42.661743,113.835754,47.817078,122.758369,47.350845,40.170593,44.852142,35.607605,0.0,-59.189777,-6.608467,-30.98435,13.106185,7.430396,30.599367,20.479339,45.529073,33.449797,-31.577368,-8.749786,9.509325,-13.825855
67,0.509148,-0.948826,0.612144,1.102276,0.0,-39.023209,-49.476929,-119.332809,-55.158291,-128.996315,-53.653049,-43.271141,-49.889946,-35.163746,0.0,-58.160058,-4.890664,-12.554322,14.547039,23.259312,32.126547,32.751708,47.727665,44.803814,0.0,21.898499,41.31443,112.424469,47.019196,124.039536,47.187424,40.540237,45.345726,36.404457,0.0,-60.692195,-7.918101,-32.730806,11.729429,6.939604,29.077219,19.481051,43.826676,32.352862,-30.933495,-9.980287,10.256195,-13.005254
68,-0.592918,0.961238,-0.108376,1.874743,0.0,-39.131527,-49.172802,-118.050842,-54.953728,-127.50246,-53.603954,-42.231846,-50.201111,-34.061794,0.0,-57.010389,-6.078155,-14.266568,13.527786,23.824606,31.146445,32.020954,46.935747,44.060926,0.0,22.32193,42.652931,112.010765,48.496399,124.197693,48.643456,41.796799,46.708145,36.578293,0.0,-62.40015,-8.240438,-35.184057,11.202297,5.087277,28.026289,17.270077,42.003834,29.005002,-31.406307,-9.218117,10.267925,-11.32958
69,-0.001945,-0.804515,0.511665,-1.859953,0.0,-38.705635,-49.253769,-118.73354,-54.973469,-128.023338,-53.666725,-43.004036,-50.154991,-34.393444,0.0,-57.278509,-5.290683,-12.897654,14.083478,23.868942,31.557795,33.684541,47.147428,45.361791,0.0,21.931915,43.404236,112.235756,48.730659,123.474884,47.903366,41.693001,45.032387,36.348267,0.0,-60.716401,-7.045135,-32.245293,12.434217,7.305228,29.13792,18.132854,43.094007,29.466432,-31.286459,-10.075491,10.901384,-13.242391
70,-0.329704,0.975317,-0.265045,0.037853,0.0,-38.906422,-49.10059,-117.7244,-54.930267,-126.632996,-53.531055,-42.542496,-49.939499,-33.401012,0.0,-56.896366,-6.69535,-14.250081,12.984877,23.916058,30.752446,32.744391,46.644285,44.496946,0.0,22.230148,43.426895,113.044853,48.712692,123.071594,48.135223,40.122871,45.643272,35.890961,0.0,-59.713389,-8.508095,-32.368763,11.213782,6.440105,28.760718,19.440018,43.608017,32.839332,-31.490135,-9.164518,10.762367,-13.268882
71,0.622501,-0.674932,0.492554,1.003012,0.0,-38.872948,-49.254284,-119.045448,-55.104961,-129.758091,-53.939095,-43.583851,-50.580826,-35.522518,0.0,-57.24362,-5.708208,-13.916289,13.747587,22.567985,31.270409,32.685635,46.909164,44.773464,0.0,21.270676,43.318977,112.483177,48.844299,123.651581,48.330231,40.95417,45.683441,35.923805,0.0,-61.036948,-8.557434,-33.081116,11.010562,6.31222,28.205952,18.564459,42.766143,30.818118,-30.717173,-9.881177,11.405382,-12.307598
72,-0.75079,-0.024638,-0.176926,-0.696298,0.0,-38.636856,-49.034157,-118.129692,-54.723873,-128.326263,-53.311214,-42.215309,-49.811382,-33.964977,0.0,-56.399862,-5.736243,-13.973933,13.847808,23.485472,31.261887,32.608417,46.751669,44.332689,0.0,21.720657,43.653488,113.050461,48.990669,123.281364,48.450623,41.715431,45.852585,37.14901,0.0,-60.45708,-8.789214,-33.21354,11.140886,7.185093,28.752103,19.093598,43.802871,32.504521,-31.521034,-9.941755,11.175385,-13.039834
73,0.272083,-0.227581,0.268822,-0.102753,0.0,-39.490986,-49.432926,-118.081741,-55.152397,-126.070576,-53.758163,-41.071701,-50.310516,-33.19519,0.0,-57.007054,-6.453196,-13.621925,13.121005,24.585494,30.899659,33.075064,46.943065,44.783375,0.0,21.221466,44.50779,113.709183,49.617233,122.412071,48.929214,41.171265,46.204834,37.633438,0.0,-60.57876,-8.152783,-31.559339,11.445254,7.752147,28.99892,20.200165,44.132927,33.938767,-31.398067,-10.151629,11.29509,-13.12488
74,0.719318,0.527904,-0.125084,1.56139,0.0,-39.530525,-48.950043,-118.113499,-54.694405,-128.445797,-53.413639,-41.286163,-49.970913,-34.244728,0.0,-57.238773,-5.812566,-12.705024,13.507872,22.923111,31.163056,32.85338,47.132206,44.685655,0.0,21.414185,43.238983,113.406715,48.7714,122.103081,48.729057,40.482559,46.566124,36.819534,0.0,-62.049994,-9.512095,-32.986391,10.238465,5.581589,28.003565,19.536873,43.277406,33.058855,-31.086731,-9.526174,10.762024,-11.46594
75,-0.557728,-0.767341,-0.188255,0.571377,0.0,-39.065266,-49.08577,-117.717533,-54.638557,-128.970051,-53.057785,-40.673103,-49.241638,-32.906628,0.0,-56.315202,-5.197594,-11.38798,14.127074,24.062036,31.640788,34.73118,47.334006,45.826277,0.0,21.708183,44.968643,113.175316,50.211868,122.723808,49.56871,40.434265,46.654243,36.122704,0.0,-61.384757,-8.735831,-32.785208,10.794188,6.50238,28.516927,19.536503,43.797468,33.546652,-31.899977,-10.144389,10.318251,-10.745436
76,-0.318203,2.38971,0.646477,0.605432,0.0,-39.011879,-48.302364,-115.926647,-54.061775,-127.191181,-52.543373,-39.556217,-48.788109,-32.220154,0.0,-56.710683,-5.921865,-12.175421,13.358652,22.910329,30.99457,32.954898,46.962331,44.457116,0.0,21.766891,43.784065,112.823868,49.212456,122.030983,48.739929,39.585342,46.055832,35.889244,0.0,-61.448823,-8.952389,-32.529716,10.580346,5.643772,28.310588,20.329965,43.858014,33.682812,-32.330418,-7.766874,10.852489,-10.1522
77,0.385723,0.106705,-1.157112,2.057153,0.0,-39.736176,-48.256073,-115.445366,-54.191322,-128.120842,-52.79892,-41.231003,-48.989983,-34.128056,0.0,-55.229568,-4.629428,-10.487134,14.472568,24.57583,32.150939,35.004703,48.165352,46.252664,0.0,25.220947,47.170944,112.010307,52.156448,122.384377,50.959625,36.021996,47.285385,34.365349,0.0,-61.269747,-9.734891,-33.102296,8.90512,5.119881,26.221077,20.225359,41.427024,34.135597,-32.131062,-7.673338,9.50901,-8.108215
78,-0.054646,0.88794,0.958214,1.980428,0.0,-39.781094,-49.145622,-117.635708,-54.97879,-129.125061,-53.303604,-41.370163,-49.31757,-34.53598,0.0,-54.505885,-3.49779,-8.897617,15.848984,25.835292,33.265379,34.918499,48.782455,46.4649,0.0,24.436684,44.292641,111.330986,49.459305,122.410698,48.560715,35.618935,45.247307,34.198837,0.0,-62.681176,-9.056099,-34.00552,8.973755,3.57467,25.605364,20.470941,40.232339,32.778261,-32.234287,-6.751991,10.418644,-6.09438
79,-0.50909,2.475358,-0.037308,2.349017,0.0,-40.9655,-49.247704,-116.342754,-55.160294,-129.390907,-53.516579,-42.128048,-49.402828,-35.159855,0.0,-53.343834,-4.014641,-7.84434,15.050181,25.503908,32.437553,35.099613,48.081341,46.376258,0.0,23.769836,42.739563,108.7817,48.050995,120.988312,47.927742,40.745659,45.214348,36.646271,0.0,-63.776103,-8.837904,-35.424451,9.742795,3.124231,26.545391,16.214763,41.021848,29.515987,-32.97658,-4.396845,10.148134,-3.865576
80,-1.910362,4.36983,-3.202744,2.620749,0.0,-42.734928,-49.245014,-117.523899,-54.272804,-127.483692,-51.461391,-44.467335,-46.071453,-35.302219,0.0,-49.931476,-1.511959,-6.857723,17.349087,24.580647,34.574025,36.374482,49.276644,46.233707,0.0,23.983841,44.860497,109.619293,50.793915,122.342491,50.763245,42.583466,48.53611,39.848328,0.0,-62.393975,-8.669603,-36.777804,10.208455,1.876194,26.884555,15.690286,40.948829,27.80127,-35.220051,-0.792582,6.612282,-2.010393
81,-0.754223,9.627352,-2.288017,2.582001,0.0,-45.375252,-45.271053,-115.039387,-49.570885,-126.512489,-47.03476,-43.472443,-42.396927,-35.830364,0.0,-50.191414,-3.848193,-8.861308,15.137928,24.669444,32.478278,33.524268,47.357194,43.507395,0.0,25.099068,44.871712,109.828148,51.179237,123.261337,51.453438,41.961021,49.634972,39.54483,0.0,-60.92589,-7.568192,-35.911292,11.051965,0.617257,27.316159,15.695781,40.769135,26.380918,-36.328697,8.593975,3.969841,0.330812
82,-0.813046,13.018314,-3.616047,5.111082,0.0,-47.424374,-42.514973,-113.633308,-45.584278,-123.700104,-42.877064,-44.13929,-38.450546,-37.673721,0.0,-47.488568,-2.492216,-6.895669,16.401836,24.626219,32.86255,31.064471,47.021765,41.942454,0.0,26.046581,44.62286,108.348713,50.979137,122.337856,51.669102,41.564312,50.009594,39.195271,0.0,-61.092461,-8.255413,-37.33081,10.189405,-2.058759,26.849604,15.812274,41.147449,26.877886,-37.311144,20.970239,0.184393,4.799844
83,-3.063412,13.416481,-4.841766,9.550226,0.0,-47.468262,-39.729424,-110.011311,-41.570721,-116.710854,-38.440418,-42.464962,-34.651794,-34.47607,0.0,-44.792792,0.739338,-1.462065,19.086744,31.853456,33.360043,35.389038,44.162814,42.824497,0.0,26.617641,46.119404,109.57243,53.517895,123.59396,55.300655,44.615879,54.362011,42.678051,0.0,-63.789287,-13.287021,-41.689926,4.400952,-7.731429,21.64037,15.243583,37.221327,27.003671,-40.395355,32.691594,-4.678173,12.654944
84,-5.134506,10.694863,-2.891521,6.698469,0.0,-49.068832,-34.62204,-102.355614,-32.36721,-97.119598,-25.980606,-82.608719,-18.55093,-47.870293,0.0,-29.495517,8.273351,14.055505,21.813889,41.075818,30.840996,55.634929,35.652249,56.428885,0.0,25.662575,43.188515,105.144997,50.725136,122.001572,53.302231,45.945282,53.446541,44.602547,0.0,-61.341408,-12.019409,-42.275567,5.819698,-10.468949,22.428892,13.720231,37.320899,25.062053,-45.799112,40.495488,-7.838945,16.462444
85,25.985527,42.49191,-3.033543,10.220218,0.0,-64.879932,-54.418316,-117.683773,-53.31356,-121.366596,-46.547813,-82.944031,-36.043854,-52.365074,0.0,-36.324649,-3.75072,6.717055,12.130097,24.364675,28.895364,35.287736,44.398793,40.743508,0.0,28.031216,39.533672,102.00388,47.275372,119.178715,50.461407,49.075413,51.621838,47.863026,0.0,-62.017019,-13.670893,-42.668794,4.191556,-12.048154,20.737579,11.976492,35.46743,23.294448,-19.86846,79.018436,-10.927362,22.7137
86,2.200012,10.720149,-3.447647,9.406842,0.0,-67.349796,-44.320507,-115.803738,-43.075333,-117.679367,-37.295895,-55.397186,-29.844475,-44.591732,0.0,-21.860819,3.335665,24.736999,27.303408,42.82425,46.629311,40.887912,61.157052,50.499425,0.0,32.74847,36.616573,102.895145,43.321095,116.797314,45.9688,51.463108,46.389828,47.824345,0.0,-63.136431,-13.21678,-37.110238,5.379758,-10.326182,22.661876,14.394052,38.244438,26.688435,-18.718672,86.105238,-15.425234,28.487194
87,-0.588913,17.265477,-3.33189,8.011282,0.0,-57.152767,-40.379219,-93.901863,-37.614441,-105.435619,-30.852585,-77.707558,-22.485809,-46.466904,0.0,-1.232847,-0.964017,26.864517,23.642936,50.140285,45.003021,50.048338,61.734172,53.120236,0.0,33.913765,35.082321,101.899338,40.102043,114.628258,41.301956,53.777504,40.032463,48.952103,0.0,-59.813209,-12.628453,-30.423131,6.163309,-2.474802,23.720989,17.99336,39.699556,30.449684,-19.642382,100.590603,-19.091921,33.718365
88,2.744865,24.761483,-2.412529,10.284408,0.0,-50.672035,-37.350883,-86.303043,-32.147198,-96.970196,-23.651447,-44.801331,-15.372047,-32.04689,0.0,4.160372,-3.962617,21.717805,18.155609,48.189713,38.714915,42.627421,55.434086,54.905379,0.0,36.922989,32.151604,100.662117,36.214371,110.63839,36.978378,56.259613,35.057144,55.704575,0.0,-53.232684,-10.854704,-21.601591,7.457566,2.780806,24.913327,19.974406,40.724705,31.557733,-17.052469,124.279558,-21.659403,42.930245
89,10.480385,23.951039,-0.820999,12.975491,0.0,-59.908733,-41.805983,-96.015473,-36.993113,-99.708996,-28.439627,-44.152937,-18.968382,-32.674799,0.0,-1.382252,3.459984,29.135142,24.839598,50.133647,43.577482,44.598896,58.659835,55.225432,0.0,37.818375,29.62532,96.197662,31.623459,105.239639,31.108704,78.806305,27.969818,67.71183,0.0,-52.628271,-8.668832,-15.985731,9.309646,6.255811,26.710449,22.42741,41.820065,33.335867,-6.897812,146.964683,-22.806129,54.639821
90,10.480385,23.95104,0.292454,9.761845,0.0,-69.145432,-46.261082,-105.727901,-41.839027,-102.447796,-33.227806,-43.504543,-22.564716,-33.302708,0.0,-6.924876,10.882584,36.552477,31.523585,52.07758,48.440049,46.57037,61.885584,55.545484,0.0,41.012592,30.832729,94.361057,28.50832,102.30875,24.37849,90.501766,19.019222,68.172855,0.0,-46.884278,-3.12667,-5.326313,12.063962,19.88706,26.942477,33.873837,40.261639,45.23088,3.227949,168.153072,-22.868299,61.639014
91,6.634369,13.795042,2.444057,9.219861,0.0,-68.767948,-44.828854,-105.603905,-39.663506,-105.017052,-30.605392,-72.255306,-20.191669,-52.643967,0.0,-5.639295,14.114786,42.792912,33.963159,60.647735,49.782688,64.706651,61.597086,65.780367,0.0,38.441277,30.585251,90.738831,29.024277,96.328926,26.708565,89.086189,24.034424,65.711288,0.0,-38.763698,5.79966,11.148327,18.53874,35.898818,28.764731,40.593548,35.161456,39.765258,9.768019,179.810839,-20.518541,68.721601
92,7.565804,11.644707,-10.610762,24.787727,0.0,-70.474148,-43.60239,-107.345467,-38.993568,-109.846344,-31.235275,-93.991814,-21.992168,-70.096149,0.0,-4.225828,16.518482,42.275382,35.136725,60.520097,50.903026,70.60221,62.764786,72.228963,0.0,50.825071,36.137094,98.526792,34.181185,103.661985,30.248508,95.473566,25.538835,74.758673,0.0,-41.774941,2.030014,13.006319,18.641508,33.977191,33.695054,42.351304,45.415776,47.624434,17.36515,189.776908,-31.097975,91.83069
93,3.969154,12.537248,-10.610762,24.787727,0.0,-67.71841,-41.348419,-104.852314,-36.310043,-107.468147,-28.197613,-93.439064,-18.063698,-70.50642,0.0,-4.710692,16.057021,40.519756,34.544662,60.563569,49.534698,70.688908,60.51176,73.617236,0.0,63.208866,41.688938,106.314754,39.338093,110.995045,33.788452,101.860943,27.043247,83.806057,0.0,-44.786184,-1.739633,14.864312,18.744276,32.055565,38.625377,44.10906,55.670096,55.48361,21.145277,201.822839,-41.897764,116.127099
94,2.477646,13.496479,0.248108,14.326713,0.0,-66.01553,-38.382854,-102.374668,-33.710575,-106.850109,-26.274261,-93.900661,-16.968842,-72.193508,0.0,-10.207281,16.148412,35.184211,33.353374,53.567556,47.340892,65.848293,57.538849,69.903134,0.0,64.444942,41.664562,105.681553,35.252037,107.519817,27.355099,98.935833,19.126167,73.819256,0.0,-34.028707,6.648852,24.696645,24.963901,46.362333,42.508304,58.128565,58.036125,68.5734,23.61248,214.376235,-41.660099,129.510729
95,4.496498,10.224077,-2.406807,18.856538,0.0,-44.851971,-34.364834,-97.739639,-32.661495,-94.334507,-29.167385,-82.357922,-22.829819,-67.50349,0.0,-27.025562,12.220901,28.176589,29.449883,39.567997,43.944866,49.56014,56.511878,64.440569,0.0,66.311817,39.133244,101.95467,31.803818,104.11932,23.310699,95.24992,13.718204,66.726665,0.0,-28.939794,11.679288,33.997986,27.695924,56.265246,42.761975,68.685848,56.815875,76.51438,27.985353,223.709686,-44.190531,147.476641
96,-3.89883,-2.171886,0.101509,21.032993,0.0,-49.826002,-34.063225,-89.793835,-31.099062,-88.430614,-26.698179,-79.825687,-19.946251,-65.146208,0.0,-12.38247,20.124707,39.612334,39.572567,55.18233,54.696755,65.356081,65.894699,77.156893,0.0,67.138538,35.735149,98.06345,27.848854,100.436153,19.576893,86.761608,10.503273,60.29417,0.0,-29.382452,15.467058,39.573246,31.552299,61.855758,44.921696,68.540364,56.258022,73.694671,23.848658,220.10218,-44.326887,167.074014
97,-3.89883,-2.171885,-3.052197,19.742533,0.0,-54.800034,-33.761616,-81.84803,-29.536629,-82.526722,-24.228973,-77.293453,-17.062683,-62.788925,0.0,2.260621,28.028512,51.048078,49.69525,70.796662,65.448644,81.152021,75.277519,89.873217,0.0,68.555489,36.487999,95.654411,28.761864,98.539009,19.791126,82.82444,9.792995,55.348778,0.0,-24.855899,17.27968,44.281653,31.068855,61.249554,42.356831,67.404712,51.497065,69.99613,19.850063,216.894416,-47.478848,185.780669
98,-6.991997,17.380394,3.319645,19.042036,0.0,1.383705,-21.629791,15.565681,-22.895908,-23.906651,-21.317139,-61.371861,-14.904041,-58.412247,0.0,-48.270915,10.855846,28.715177,35.937999,47.853544,55.76513,73.385857,71.887051,90.323563,0.0,66.166821,32.066746,88.78664,22.99839,88.486118,13.048496,70.845394,3.31604,43.977985,0.0,-19.9728,23.1238,53.654315,34.647539,67.049956,43.094131,69.233203,48.177363,62.31339,12.495089,233.241001,-44.522181,203.788895
99,-7.945862,13.687041,-0.339375,17.890144,0.0,-8.965015,-16.115627,10.698051,-19.755249,5.766335,-18.692265,-9.377117,-13.940849,-40.288239,0.0,-36.381243,13.235398,20.449019,33.595929,35.020079,48.779306,49.241631,60.672991,81.310411,0.0,65.085526,30.316029,88.161049,21.788235,87.206955,13.231258,70.14061,5.361099,45.204277,0.0,-16.724729,23.160851,53.649869,34.262525,68.714129,42.006212,69.095932,46.133733,59.310221,4.112005,246.029172,-45.298777,220.780169
100,-8.217888,9.61281,0.51178,15.265999,0.0,20.663109,-16.596622,41.987572,-21.459332,42.082672,-23.779736,24.057884,-22.787018,-49.524765,0.0,-33.728878,8.505378,44.242194,29.173673,58.513888,45.127016,72.901487,56.099014,90.561363,0.0,64.229164,29.514256,86.865349,21.861362,84.531326,14.44828,69.532013,8.139896,49.852295,0.0,-13.005254,25.176384,59.537895,35.940963,76.245827,43.149521,74.673353,45.883582,62.502162,-4.553719,255.277623,-45.234833,235.681809
101,-24.489212,2.000528,-2.473698,12.408622,0.0,44.864502,8.568363,57.001419,1.028023,55.516777,-7.094822,40.270729,-13.760204,-12.111511,0.0,-8.393672,11.564864,55.35838,25.796914,67.90594,37.198263,78.630381,45.105033,93.326053,0.0,67.07365,33.83852,91.667233,25.21946,87.500896,17.400856,73.661327,10.764198,55.051403,0.0,-11.150457,28.853621,66.875696,40.146783,82.161023,48.24782,84.866061,52.484577,76.365252,-29.823503,256.893693,-48.489103,247.705973
102,17.241383,9.615712,-1.267433,9.816154,0.0,16.744709,-4.513092,47.566853,-11.688709,49.893894,-19.799995,35.035114,-27.452488,-21.642494,0.0,-20.903749,21.733613,46.99052,42.276864,66.461536,55.671331,74.016329,65.558004,81.229826,0.0,66.834927,31.403675,86.90855,22.265167,86.772823,13.025265,72.843647,3.501892,53.106365,0.0,-7.878056,32.084094,63.814111,45.321838,79.187926,54.975713,88.85767,61.088695,92.243568,-13.113241,266.358827,-50.287657,257.371549
103,33.723736,11.148234,-1.155396,8.561077,0.0,-25.018387,-39.826126,14.685173,-50.99081,15.549431,-57.097092,5.334663,-59.629154,-34.365864,0.0,-13.993508,15.991875,46.501024,34.977471,63.187776,48.668649,68.89864,60.549305,73.686396,0.0,67.805843,30.305157,88.792362,21.120872,90.225849,11.674347,76.407566,1.997166,54.980907,0.0,-5.980404,29.819459,59.098911,46.415068,75.054724,58.484124,84.790417,66.051946,91.191526,20.031767,277.490698,-52.02178,265.916262
104,-43.891983,9.520617,-0.070553,6.08081,0.0,32.488403,8.636284,67.334404,-1.036949,66.182442,-10.866508,53.740768,-19.123592,25.328865,0.0,-19.122003,11.815447,42.225179,27.569583,57.132778,40.351486,65.075857,50.408714,72.542223,0.0,67.364502,32.153835,90.415764,22.840519,90.802689,13.10709,76.899147,3.643856,55.790291,0.0,-5.542902,29.023929,59.990957,45.755388,76.698705,57.872177,86.087176,65.928568,89.2073,-24.288197,287.00852,-52.520313,271.994278
105,47.931061,-2.324471,0.470924,3.677731,0.0,-30.113068,-40.736732,7.829704,-51.334362,10.914574,-56.90918,1.218109,-59.032917,-40.311127,0.0,-7.800312,19.76149,44.767875,38.934438,60.451677,51.878868,65.955121,62.216257,69.880842,0.0,67.424698,31.894627,90.235863,23.27774,90.717201,13.574123,76.804962,3.836575,56.586113,0.0,-3.0007,29.214799,59.785452,45.854559,73.836079,58.017414,83.071038,66.304073,88.082146,23.161697,284.653174,-52.530556,275.641134
106,-13.440971,2.326509,-0.226994,1.911793,0.0,-11.155128,-32.657032,22.513161,-40.263119,24.603424,-42.703915,18.792114,-41.525116,-2.132263,0.0,-4.212243,21.010392,47.576408,37.810333,59.253905,49.912364,65.453275,58.197108,68.776127,0.0,68.117237,30.008583,89.523525,21.113148,89.816036,12.058182,77.626362,3.745422,58.322697,0.0,-2.681265,30.049726,60.42142,47.976427,73.237038,60.386222,81.455709,67.89995,84.573303,9.478226,286.964353,-53.00005,277.537597
107,25.372353,2.750734,-2.116985,1.173011,0.0,-51.965446,-57.694244,-7.639618,-64.835014,-0.580444,-64.960155,-7.939339,-61.548729,-29.800987,0.0,2.098217,19.281937,45.020373,36.631024,56.349968,49.808685,60.044557,60.155831,62.484007,0.0,68.046913,31.020126,91.62426,23.128681,92.359085,14.813232,80.781212,7.123947,62.582588,0.0,-2.784635,28.541843,57.66167,46.25359,70.455676,58.960961,78.52417,67.352533,83.088823,34.818134,289.643719,-55.149479,278.63924
108,-4.714394,8.655432,-0.294456,-0.673697,0.0,-44.508305,-51.956291,-5.171127,-55.09861,3.726425,-52.551098,3.835945,-46.873913,-8.113976,0.0,27.532841,22.532725,49.480296,26.638387,51.850648,27.930082,49.766077,27.749709,47.244684,0.0,68.197746,31.337185,92.037849,23.54187,93.188896,14.92836,79.965935,6.6576,60.556641,0.0,-3.39405,28.28879,56.791051,45.630652,69.164537,57.942882,77.727714,66.120056,82.734437,30.114098,298.153173,-55.433578,277.819565
109,-1.259193,-11.837863,1.4748,0.257931,0.0,-26.805725,-40.623722,3.81237,-43.74115,6.922531,-42.098179,1.50341,-37.710171,-13.599129,0.0,-0.570018,20.893869,45.724019,36.276391,60.235304,47.942896,66.868286,56.14471,70.59091,0.0,67.199135,31.452656,90.363235,23.317852,90.994835,14.09626,76.894569,5.302105,58.326759,0.0,-2.957412,28.901972,58.427499,45.658193,70.434187,57.630672,77.561852,65.823963,82.193936,28.857508,286.187194,-53.956175,277.94938
110,6.976776,2.709793,0.411816,0.702781,0.0,-48.245201,-56.934185,-5.246773,-65.456371,-1.920433,-66.945705,-10.518951,-64.403973,-64.041996,0.0,-1.942236,17.477528,47.824089,33.269331,57.334949,45.037107,62.435224,55.105388,68.199069,0.0,66.182156,30.269222,90.068836,22.115021,90.603848,12.994595,76.585751,4.283237,57.733669,0.0,-3.297966,29.073638,57.613134,45.560812,69.349294,57.388548,76.825355,65.489091,81.604775,35.852966,288.772405,-53.525677,278.52758
111,-6.794014,-1.192215,-0.11982,0.71155,0.0,-37.826672,-48.096485,1.444702,-56.897449,1.951332,-59.344826,-9.27166,-58.371277,-57.809315,0.0,-7.144646,20.283714,45.482081,37.241488,58.583048,49.266331,64.299284,58.880253,68.261437,0.0,66.007519,29.777641,90.672626,21.878414,91.077862,13.1464,77.834873,4.775677,58.52457,0.0,-3.108269,28.253407,56.194233,44.951892,68.146458,57.042622,76.077002,65.346756,81.800153,29.079866,287.477098,-53.624582,279.136037
112,-12.058983,1.412232,0.076962,-0.045757,0.0,-21.170197,-42.7141,12.047653,-48.389797,19.777107,-47.997837,15.159531,-44.394264,-4.417877,0.0,-5.43768,21.975428,45.720623,37.51566,58.220017,48.216204,62.671975,55.739812,65.782158,0.0,65.133591,29.738159,90.120277,21.749611,90.440025,12.827339,77.313538,4.109974,57.66552,0.0,-2.722329,28.178936,55.857261,44.979432,67.83573,57.126109,75.96369,65.465996,81.68573,17.101679,288.771711,-53.466825,278.972661
113,18.657417,2.522443,0.310364,-0.251201,0.0,-52.784328,-53.624783,-6.833153,-61.291695,-3.091736,-62.437134,-9.628143,-60.361633,-65.340214,0.0,5.415696,15.885417,46.844171,29.470446,56.350647,39.915899,60.54844,49.249782,65.325884,0.0,64.572144,29.785252,89.169159,21.860275,89.795723,12.879295,76.620941,4.003258,57.139091,0.0,-2.677004,27.754587,55.472865,44.659071,67.559767,56.975747,76.098799,65.621113,81.529007,35.804529,291.157145,-53.111029,278.584452
114,-3.509331,-2.496199,-0.27689,0.57008,0.0,-43.342094,-54.689827,-4.453812,-61.105671,-0.439796,-61.281624,-8.767204,-57.708549,-31.21685,0.0,-0.174136,19.569941,47.524784,34.080855,59.921118,44.90737,62.979677,53.500186,63.640777,0.0,64.831181,29.365883,89.508419,21.525021,89.888592,12.639542,76.973476,3.926754,57.366886,0.0,-3.539472,26.889773,55.146576,43.829887,67.383223,56.281734,75.576823,65.072584,80.780963,32.399254,288.572797,-53.283863,279.066383
115,-6.343117,8.00872,0.106659,-0.340801,0.0,-25.164299,-44.930763,-2.284126,-48.827477,4.978981,-47.269249,5.713921,-42.936745,-5.943489,0.0,28.892277,22.62214,47.436666,26.594112,52.18305,28.172082,50.86332,28.064451,49.003707,0.0,64.920673,28.29855,88.975582,20.67976,89.77747,12.165298,77.371845,3.935337,57.752323,0.0,-2.836629,27.426198,55.481819,44.406759,67.848697,56.771909,75.994874,65.29186,81.158505,26.123114,296.525278,-53.110228,278.669343
116,6.479645,-0.90841,0.586452,0.625285,0.0,-56.792336,-53.143101,-6.815529,-59.111881,-0.331535,-59.014263,-5.028992,-55.949707,-37.677212,0.0,12.922756,12.240475,44.323581,23.920257,53.737061,32.942486,55.230927,41.090824,53.556009,0.0,64.500961,27.636452,88.215408,19.901676,89.373207,11.27552,76.916084,2.747326,56.816483,0.0,-3.962339,26.478515,54.354256,43.521135,66.981722,55.983603,75.381074,64.706466,80.686361,32.65214,295.553481,-52.474394,279.231241
117,1.227493,-6.599575,0.441856,0.518889,0.0,-45.260067,-54.483776,-6.5308,-58.94989,0.392647,-57.593651,-2.125282,-52.575588,-17.941017,0.0,11.830823,21.284379,50.89012,33.594756,59.458669,42.32682,61.375772,48.640676,62.774604,0.0,64.242325,27.295303,87.843819,19.633255,89.05117,11.061287,76.409111,2.529259,56.375084,0.0,-4.137401,25.922452,53.844321,42.995268,66.811291,55.50442,75.245347,64.265568,80.450722,33.897171,288.91122,-52.014999,279.707445
118,-0.311222,1.859521,0.048294,0.132331,0.0,-50.178366,-54.386616,-6.240235,-59.783049,-0.257264,-59.174481,-4.104252,-55.014496,-27.543068,0.0,9.603702,18.624295,47.926841,31.273928,57.286938,40.395391,59.16872,47.659184,59.535672,0.0,63.871536,26.485119,87.653046,18.856487,89.213333,10.5229,76.757469,2.385464,56.684875,0.0,-4.303324,25.266169,53.239847,42.656258,66.472528,55.378078,74.941844,64.195728,80.062497,33.592444,290.694711,-51.960211,279.763746
119,-0.311222,1.859521,0.285072,0.180558,0.0,-55.096664,-54.289455,-5.949669,-60.616207,-0.907173,-60.75531,-6.083221,-57.453403,-37.145119,0.0,7.376581,15.964211,44.963562,28.953101,55.115207,38.463961,56.961668,46.677692,56.296739,0.0,63.736267,26.712055,87.337532,19.179554,88.626137,10.858669,76.044731,2.719402,56.490211,0.0,-4.290542,24.522509,52.833344,42.109458,66.103754,55.114404,74.627534,64.146698,79.963017,33.292208,292.569593,-51.664152,279.959664
120,0.372734,-4.174637,0.085831,-0.231441,0.0,-44.775753,-56.211834,-6.329842,-60.704727,1.100464,-59.255104,-1.530533,-54.254265,-15.291595,0.0,7.271482,22.168336,51.982053,34.394362,60.257287,42.744191,61.600297,48.508777,62.943183,0.0,63.609695,26.86821,87.507019,19.383659,88.451958,11.069927,75.837135,2.951946,56.510239,0.0,-3.374907,25.298712,53.694021,42.798902,66.553236,55.63354,74.906955,64.487684,80.044836,33.678474,288.326351,-51.564789,279.659619
