takenoko1/special-research/HandMotion_SimilarSearch_自分用/NewProject/handData/test_key/d4_feature_d2/122.csv
frame,vel_0x_L,vel_0y_L,vel_0x_R,vel_0y_R,posFromWrist_0x_L,posFromWrist_1x_L,posFromWrist_2x_L,posFromWrist_3x_L,posFromWrist_4x_L,posFromWrist_5x_L,posFromWrist_6x_L,posFromWrist_7x_L,posFromWrist_8x_L,posFromWrist_9x_L,posFromWrist_0y_L,posFromWrist_1y_L,posFromWrist_2y_L,posFromWrist_3y_L,posFromWrist_4y_L,posFromWrist_5y_L,posFromWrist_6y_L,posFromWrist_7y_L,posFromWrist_8y_L,posFromWrist_9y_L,posFromWrist_0x_R,posFromWrist_1x_R,posFromWrist_2x_R,posFromWrist_3x_R,posFromWrist_4x_R,posFromWrist_5x_R,posFromWrist_6x_R,posFromWrist_7x_R,posFromWrist_8x_R,posFromWrist_9x_R,posFromWrist_0y_R,posFromWrist_1y_R,posFromWrist_2y_R,posFromWrist_3y_R,posFromWrist_4y_R,posFromWrist_5y_R,posFromWrist_6y_R,posFromWrist_7y_R,posFromWrist_8y_R,posFromWrist_9y_R,posFromBody_0x_L,posFromBody_0y_L,posFromBody_0x_R,posFromBody_0y_R
2,27.596798,-25.590544,0.687847,-0.052735,0.0,-11.396599,-27.840214,22.980766,-38.85498,25.387917,-46.369457,12.901611,-51.260605,-48.510361,0.0,-5.619658,20.40246,48.108758,39.546569,63.440583,52.458704,70.060721,62.478573,77.975518,0.0,69.251461,26.700382,86.462231,17.280407,85.627041,7.374229,72.472515,-1.941433,51.306095,0.0,9.070086,31.714703,62.171735,47.982664,75.257821,59.401118,83.372936,66.5541,85.869691,8.27631,292.628935,-48.815346,285.744443
3,-24.833794,11.026524,-0.090809,-0.149683,0.0,34.596405,-5.364132,52.328453,-15.272655,52.959137,-21.408062,39.37706,-24.795914,4.379196,0.0,-5.212661,10.775756,42.875596,30.749853,56.679159,45.902354,61.423258,57.178288,61.822104,0.0,69.353485,26.707363,86.907234,17.379799,86.021233,7.473679,72.340736,-1.89743,51.133232,0.0,9.687034,32.02753,61.926524,48.238619,75.373788,59.481393,83.747144,66.463512,86.324235,-16.570301,304.014013,-48.918972,285.953314
4,-1.530762,-1.57797,-0.092068,-0.68685,0.0,37.420349,-3.557796,52.514877,-11.380119,59.638824,-15.822086,47.185707,-18.095226,18.892593,0.0,1.002394,10.073653,37.289592,28.372647,56.132977,43.822538,63.056063,56.274941,65.53386,0.0,68.971996,26.973839,87.073116,17.384949,85.920582,7.301159,72.29948,-2.095356,51.336422,0.0,10.589455,32.639848,62.878654,48.990739,76.056624,60.058142,84.626284,66.74355,86.69412,-18.106956,302.639155,-49.016933,285.469577
5,10.468426,-10.507327,-0.283585,0.254103,0.0,6.000767,-10.911713,39.640675,-19.069633,41.676121,-27.398472,30.222759,-34.558868,-25.449715,0.0,8.355263,22.277079,50.238036,39.485807,65.329589,51.009731,70.534532,59.93038,78.255247,0.0,69.070988,26.724129,86.952038,17.111721,86.129322,7.017918,72.416553,-2.496986,51.122532,0.0,10.287372,31.717111,62.001366,48.224849,75.674821,59.507699,84.247384,66.444617,86.258657,-7.649775,292.261643,-49.311762,285.853494
6,11.997013,0.252003,0.206738,0.208222,0.0,-5.618706,-26.635036,24.508209,-35.109158,27.130508,-40.541153,17.175407,-43.491554,-44.654789,0.0,8.616097,22.428738,51.346641,40.060086,65.535156,51.785501,70.589366,61.116297,78.516328,0.0,69.444237,26.767502,86.753311,17.215405,86.319695,7.139626,72.684174,-2.265415,51.60759,0.0,9.886303,32.072361,62.118877,48.539714,75.558545,59.813796,83.994578,66.718974,86.123855,4.345093,292.569778,-49.10717,286.117848
7,-21.214943,11.183432,-0.045033,-0.005125,0.0,30.742607,-7.270031,49.239235,-14.435978,54.851303,-17.86417,43.420715,-19.453068,16.08078,0.0,-1.556296,12.916148,41.572786,31.559401,58.041003,46.068648,62.946641,56.962964,61.507733,0.0,69.125004,26.145458,86.894932,16.491108,85.885906,6.465054,72.487164,-2.881737,51.686153,0.0,9.897541,31.334814,62.054595,47.95432,75.402687,59.56914,83.958515,66.90546,86.28101,-16.872225,303.808307,-49.154577,286.167819
8,-0.627651,-0.665793,-0.099964,0.156229,0.0,34.872837,-2.75219,51.649418,-11.431274,59.277248,-15.965538,47.894611,-18.184147,23.823338,0.0,6.45545,6.581606,33.57901,23.414027,55.267545,39.136361,62.495554,52.715647,63.809479,0.0,69.500656,26.330624,86.852303,16.500263,85.838585,6.41098,72.239342,-2.945251,51.534348,0.0,9.768668,31.455783,61.691749,48.258935,75.348285,59.838743,83.953884,67.038285,85.942556,-17.529173,303.192763,-49.283838,286.374297
9,20.882778,-10.480897,-0.38435,0.090588,0.0,-12.810345,-26.656895,24.696922,-35.696354,27.642975,-41.369762,17.214432,-44.641857,-40.945129,0.0,16.106977,24.333244,53.015199,39.97981,66.001681,49.834003,69.35232,57.624929,76.625777,0.0,69.220333,26.406326,87.063046,16.719418,86.20039,6.690674,72.430286,-2.681236,51.846371,0.0,9.312209,30.67143,61.068008,47.670948,75.194032,59.559322,83.616912,67.029393,85.649303,3.349314,292.74007,-49.67248,286.49309
10,-18.890705,11.480451,0.107346,0.030011,0.0,28.312168,-7.450218,49.714222,-15.083027,56.906033,-18.581886,45.757313,-20.506382,19.272709,0.0,0.323016,11.333609,41.160787,28.74809,56.982539,43.118522,62.07349,54.762674,61.266412,0.0,68.859386,27.186928,87.285061,17.657318,86.046467,7.356491,72.192936,-2.505455,51.421566,0.0,9.236812,30.99105,61.695022,47.692992,75.351125,59.43119,83.54806,67.022786,85.555443,-15.557842,304.2411,-49.581585,286.543679
11,-2.206135,3.532679,-0.297203,-0.285534,0.0,38.583527,-0.774593,53.57975,-9.412308,58.094673,-14.74165,43.392677,-17.27417,13.161964,0.0,2.673361,5.314858,33.59914,21.572074,52.134947,36.607064,59.688442,49.423362,62.792512,0.0,68.71027,26.689625,87.296848,17.24596,85.945759,7.222195,72.17989,-2.408695,51.000538,0.0,9.469055,30.913306,61.73942,47.614075,75.816847,59.360795,83.740042,66.904842,86.128672,-17.762032,307.793724,-49.876842,286.27809
12,17.159042,-15.129345,0.756798,0.110286,0.0,-5.321274,-19.992428,30.530777,-29.696617,32.133751,-37.412624,19.867973,-42.889252,-42.925758,0.0,0.80257,22.474124,51.441922,39.876502,65.323229,51.18504,70.306117,60.159166,79.738739,0.0,68.203983,25.453548,86.684017,15.951061,85.158176,6.144962,71.36198,-3.116512,50.564632,0.0,9.54612,31.080835,61.339586,47.67774,75.580837,59.290646,83.751096,66.651666,85.995167,-0.615692,292.690824,-49.132748,286.414821
13,-17.662754,17.958564,-0.399914,-0.434105,0.0,-9.972267,-11.048355,46.010799,-14.009457,54.878139,-13.144455,47.818394,-9.636841,25.804539,0.0,30.564046,15.229998,44.539708,22.940525,50.93773,27.538769,49.900693,31.844749,46.29978,0.0,68.234482,26.344128,86.915245,16.718388,86.003952,6.645527,72.902184,-2.883511,52.255783,0.0,10.654107,31.202545,60.367141,48.198975,75.933247,59.896232,84.127835,67.123995,86.40834,-18.315039,310.664146,-49.569254,285.995474
14,26.210804,-17.253683,-0.315514,-0.254226,0.0,-20.828533,-30.877533,19.751701,-39.515305,24.499969,-44.415436,14.961205,-46.91082,-49.093494,0.0,12.641544,24.65379,53.067501,39.527365,66.262823,48.741823,69.23697,56.289761,78.16466,0.0,67.071648,26.322384,87.487564,16.988182,86.325989,7.006302,72.932625,-2.683239,51.923561,0.0,10.4951,30.885827,60.80279,47.659153,76.307331,59.42131,84.57991,66.914599,86.791439,7.889271,293.421486,-49.891262,285.75227
15,-19.382973,13.85778,0.579987,0.109236,0.0,27.052116,-11.578445,48.076172,-19.810867,50.857201,-23.84943,35.368881,-23.943672,-19.945221,0.0,-10.104714,11.835578,44.979679,29.205475,54.313131,42.054933,62.115233,52.355951,64.362516,0.0,67.176704,26.350021,86.933327,17.150173,86.004639,7.131386,72.607384,-2.66819,51.87973,0.0,10.396485,31.07571,60.851573,47.817049,75.940965,59.59983,84.428683,67.191364,86.877334,-11.474161,307.326042,-49.291735,285.908282
16,-1.411629,-0.1277,-0.32198,-0.686418,0.0,28.056793,-7.734261,51.776962,-16.105042,55.250359,-21.193829,38.946533,-23.593769,-0.731907,0.0,-3.276662,10.468609,42.915795,26.457026,54.548955,39.707182,61.92004,50.729137,61.849398,0.0,67.233181,26.215782,86.556416,16.862984,86.17075,6.927967,72.690067,-2.525997,51.702976,0.0,10.923833,31.141474,61.64908,48.334641,76.781821,60.244813,85.438179,67.672153,87.69423,-12.81744,307.219368,-49.545364,285.242891
17,-2.240524,-4.23824,-0.169373,0.494868,0.0,31.649094,-3.183746,47.550659,-12.730122,53.421822,-17.74538,42.215881,-19.885769,20.831337,0.0,0.929405,9.334131,37.775321,26.492224,56.817604,41.326834,62.563233,53.57509,66.030024,0.0,67.354259,26.710396,87.124958,17.355709,86.286335,7.311115,72.485218,-2.33614,51.388149,0.0,10.018757,30.392874,60.827984,47.463219,76.348642,59.4139,84.510935,66.996542,86.737778,-15.05084,302.986254,-49.707613,285.742884
18,7.501545,-11.167315,-0.011845,-0.274357,0.0,1.808453,-12.255306,35.632038,-21.768436,41.714458,-30.701981,26.977329,-38.034954,-49.907913,0.0,-8.521372,22.531552,50.351348,41.255697,65.763077,53.235833,71.631775,62.379155,82.257847,0.0,67.747421,26.464634,85.828056,17.131462,85.234337,7.207375,71.746674,-2.293167,50.550842,0.0,10.06118,30.706566,61.392939,48.03194,76.795035,60.060735,84.421952,67.518394,86.731232,-7.519941,291.820961,-49.690104,285.470549
19,-13.5149,10.290212,-0.352821,-0.255647,0.0,-6.141701,-5.328655,50.784016,-10.49675,57.895031,-11.82272,50.051136,-11.332798,23.607388,0.0,23.384572,15.395242,40.084477,31.28634,53.112456,42.879918,55.767106,53.438436,58.745328,0.0,68.326035,26.465893,86.739006,16.939659,85.791321,7.045097,72.242661,-2.271366,51.107826,0.0,10.382282,30.759918,62.276278,48.365269,76.919648,60.480453,84.4829,67.820971,86.539003,-20.990925,302.128603,-49.999008,285.232331
20,23.693218,-9.954043,0.14122,-0.441083,0.0,-10.381565,-24.221306,28.30307,-34.239864,30.022545,-41.375828,16.243973,-45.574894,-51.918983,0.0,0.575205,22.301902,50.29145,40.468997,63.895004,52.314887,69.281801,61.61771,81.649482,0.0,67.559052,26.238728,87.289352,17.029037,86.633377,7.272263,73.068581,-2.101421,51.843109,0.0,9.807015,30.394541,60.084386,47.184169,74.973892,58.966889,83.877128,66.504267,85.909458,2.738972,292.216735,-49.82111,284.833424
21,-18.259907,17.634868,0.615234,-2.166081,0.0,-10.107708,-11.618958,49.243412,-16.953506,54.063778,-18.190212,43.085918,-15.724468,3.398724,0.0,20.947592,11.043938,41.697583,21.92646,50.219325,30.061521,53.390703,37.691957,53.622699,0.0,67.728996,25.525761,86.475563,16.381588,86.096878,6.71711,72.056923,-2.479248,50.630379,0.0,9.009015,31.516114,60.615933,47.91869,76.02155,59.091872,84.196625,65.962655,85.735013,-15.427122,309.87811,-49.112062,282.693849
22,16.764164,-27.790341,0.051327,-3.963141,0.0,-5.784016,-26.346302,26.111526,-35.788479,31.035576,-41.966686,15.811958,-44.995136,-52.947578,0.0,7.262651,25.49446,58.785095,43.947892,71.296964,55.720978,76.821341,64.5955,90.395934,0.0,65.530987,25.574169,85.81953,15.987511,85.824795,5.904579,71.476192,-3.939915,48.891506,0.0,7.165209,29.308536,64.192456,46.389503,79.407078,58.452137,86.974591,66.129381,86.427606,1.609297,282.114414,-48.788481,278.757353
23,-20.513134,28.280762,1.273041,-12.198609,0.0,-16.070824,-19.386635,32.226276,-14.830456,50.349827,-7.412968,54.887066,1.110706,40.33762,0.0,40.807451,13.687226,48.230962,9.81918,50.883698,4.321911,37.030796,-0.63325,24.941053,0.0,63.673725,25.224667,80.230579,15.778542,80.227489,5.489502,65.442066,-5.190468,41.509838,0.0,7.184413,30.576087,70.80858,47.95327,89.519819,60.823909,97.743986,69.633655,97.668712,-18.553219,310.411031,-47.164822,266.574599
24,59.937229,-1.888698,-0.892868,-16.329217,0.0,-69.342384,-35.988007,-67.415314,-35.689316,-57.655506,-34.495468,-51.073151,-32.184563,-43.978043,0.0,45.758846,41.041176,18.77299,28.655711,-5.416623,9.355743,-19.077543,-12.969933,-26.035517,0.0,56.528149,22.296124,71.752682,12.99551,67.977161,2.603874,51.63168,-8.341999,37.060719,0.0,4.538161,28.861525,68.802433,44.905208,98.759348,57.024221,108.081561,66.563054,104.553451,41.715488,308.78911,-47.726212,250.512159
25,-19.266243,-54.105711,2.10022,-17.511985,0.0,-39.24757,-21.002655,-41.482372,-7.290001,-37.496567,7.359352,-23.503189,21.180611,5.084038,0.0,32.919762,28.878074,59.838681,41.558583,92.143471,49.700375,95.702332,53.608064,96.809085,0.0,49.932346,16.878204,46.923466,5.077286,40.101814,-7.283077,28.774281,-17.842083,16.114311,0.0,8.758555,19.488924,58.036372,35.627826,94.459482,48.137163,99.608293,58.454916,96.829895,22.867813,254.724016,-45.207424,233.040791
26,30.570145,-46.463171,7.18729,11.348861,0.0,-56.719379,-24.95533,-58.758545,-9.848785,-45.732307,6.950111,-27.054291,23.132057,-1.417465,0.0,45.170735,36.254655,99.916613,45.143874,114.682927,51.380665,113.483302,54.425208,104.543818,0.0,27.476978,5.125809,27.689266,-6.689529,8.842392,-19.179096,-2.189083,-30.88028,-24.638329,0.0,0.362104,0.876238,19.40587,9.812573,28.076554,18.183582,34.770175,26.797888,34.716884,53.70472,208.466612,-37.753372,244.59542
27,23.435097,-43.246407,-43.151035,-90.081686,0.0,-63.958397,-26.949577,-50.615044,-11.143799,-35.86132,6.447258,-19.658661,24.245682,7.300873,0.0,41.20148,30.492477,91.090132,36.860797,96.350526,41.147819,94.203773,42.545602,84.507909,0.0,69.717236,24.571438,31.905727,9.094963,16.253986,-7.119484,0.303612,-22.504463,-16.654987,0.0,-0.380012,13.007724,27.701914,23.340112,39.711011,33.091922,48.490499,42.269577,59.13837,77.107658,166.801911,-80.936565,156.095439
28,15.593605,-42.069722,-5.096769,-22.801263,0.0,-59.994965,-19.74884,-38.362541,-3.898087,-22.855797,14.30603,-7.656212,32.968826,19.52179,0.0,21.786564,11.481655,52.725003,14.613636,59.772145,16.900995,59.283082,19.363478,54.716639,0.0,63.305139,13.664159,17.47178,-3.272467,0.144825,-19.644213,-14.545441,-33.261996,-30.713683,0.0,-14.699701,-14.100907,-3.869497,-8.673092,3.127489,-1.38395,8.796871,7.219828,19.221097,92.695684,128.530086,-86.038913,137.092074
29,16.464729,-24.11721,-5.09677,-22.801262,0.0,-57.502441,-33.739243,-47.307816,-23.84182,-35.403099,-13.135872,-17.666588,-1.627121,-6.205673,0.0,-10.107369,6.734932,-4.540693,1.496892,-3.846001,-3.851682,-6.491265,-9.464393,-6.253094,0.0,56.893044,2.756882,3.037834,-15.639896,-15.964336,-32.168941,-29.394493,-44.019527,-44.772377,0.0,-29.01939,-41.209539,-35.440908,-40.686297,-33.456034,-35.859823,-30.896757,-27.829923,-20.696175,109.46806,107.232122,-90.828037,117.110058
30,-6.879158,-29.983808,-6.380253,-28.838739,0.0,-43.340836,-1.372261,-1.632271,16.607437,15.363121,33.129959,30.777626,47.758369,52.563515,0.0,-33.81925,-26.265723,-30.764611,-28.131388,-38.139494,-26.704614,-39.652811,-23.296763,-37.983852,0.0,47.770386,-0.10025,-2.689762,-16.907616,-23.302917,-32.088089,-41.621933,-45.203362,-61.587009,0.0,-35.18452,-29.938946,-66.787146,-27.883275,-73.920091,-22.371958,-67.296309,-13.832648,-46.972211,103.783636,80.670538,-96.013556,91.693542
31,6.506653,-30.585041,-7.275124,-21.776128,0.0,-39.712715,-1.456261,4.68853,18.284569,17.968025,35.736008,31.632957,50.748253,45.969887,0.0,-46.105698,-31.595988,-66.101006,-33.879827,-74.458554,-34.198706,-72.362838,-32.445735,-64.654997,0.0,45.014191,-1.458664,-8.912659,-18.619308,-26.927891,-34.237061,-44.070911,-48.013115,-61.338902,0.0,-40.793001,-36.682029,-84.617361,-35.418462,-90.861254,-30.272429,-83.711143,-22.711616,-63.458922,111.679373,52.292132,-101.899595,72.124049
32,4.724464,-18.873612,-5.419235,-14.942303,0.0,-43.621216,0.02552,4.355164,16.37558,21.166306,30.807152,36.342316,44.594307,55.077782,0.0,-47.244839,-31.465386,-71.323455,-31.145117,-79.124786,-27.991832,-76.522284,-22.59744,-61.646393,0.0,47.39336,-2.260036,-11.261215,-18.737354,-27.169418,-33.269119,-41.984711,-45.801888,-61.79266,0.0,-41.377963,-36.566988,-85.186546,-36.925264,-90.964625,-32.6932,-82.097481,-23.980248,-62.266676,116.518564,34.591315,-107.204103,58.354541
33,-3.035088,-12.159243,-2.793388,-7.451731,0.0,-35.883751,3.022041,13.829384,20.62191,29.63047,35.611496,40.4813,49.270363,58.550034,0.0,-53.960073,-40.296343,-85.487363,-40.018312,-93.642431,-35.618718,-88.696872,-27.938974,-72.204664,0.0,47.320862,-3.595448,-12.748203,-20.089645,-29.500008,-34.303322,-43.795681,-46.555767,-61.788082,0.0,-45.204142,-40.628406,-90.044204,-41.097554,-96.942898,-36.79636,-88.085604,-27.946415,-66.13994,113.678827,21.722236,-109.802141,50.192973
34,-2.339172,-0.583511,0.764008,-2.713745,0.0,-33.714752,7.033768,16.63765,23.550339,31.817436,38.147736,43.907204,52.193413,60.626335,0.0,-51.026465,-37.987001,-84.054939,-37.454465,-89.414226,-33.340993,-84.519302,-26.261061,-68.424921,0.0,45.455246,-5.994644,-15.511036,-23.414898,-31.460323,-38.136005,-47.150974,-51.020565,-64.703007,0.0,-43.652045,-38.292511,-88.213613,-38.139988,-96.273462,-33.77235,-87.631986,-25.643124,-67.38347,112.178221,20.550522,-108.199568,46.891024
35,-2.285385,13.641098,0.859051,13.117393,0.0,-32.778053,6.310501,16.603546,22.687225,33.688431,37.368393,46.174622,51.299858,62.218666,0.0,-52.275892,-37.691741,-80.309869,-36.459234,-84.082109,-31.735544,-79.177181,-24.223976,-63.123865,0.0,45.096474,-7.060318,-18.026047,-24.32848,-35.129585,-39.423466,-50.452194,-53.118038,-66.17878,0.0,-44.736506,-40.99017,-93.319693,-38.433858,-96.808776,-32.923745,-89.01748,-24.502502,-68.364005,110.009022,36.440693,-107.224331,62.257491
36,-3.469849,15.556164,0.709076,18.778177,0.0,-31.816292,10.026169,15.775223,29.737587,31.754951,45.329475,44.133568,57.768745,53.537636,0.0,-34.296488,-28.949025,-60.255651,-29.209026,-66.172421,-26.511181,-62.995887,-22.433925,-51.316568,0.0,43.647709,-11.156502,-17.724323,-29.181004,-38.88176,-43.577957,-53.50565,-54.10532,-68.566246,0.0,-35.211999,-39.978483,-83.968673,-37.807863,-86.668525,-32.042443,-80.263124,-24.168586,-61.860389,106.126471,53.711357,-106.927958,82.750168
37,3.509102,60.504412,-4.752502,6.932811,0.0,-35.596161,3.350601,0.900536,24.376945,18.777924,41.397285,34.50737,54.499168,46.221199,0.0,-44.264116,-24.029833,-38.004445,-27.221496,-40.499193,-28.322073,-40.628467,-27.841995,-37.306851,0.0,47.456303,-9.312115,-8.203125,-29.138432,-27.56464,-44.190388,-42.115517,-52.442322,-57.725658,0.0,-0.464332,-31.335741,-41.211144,-29.152617,-37.062412,-24.106002,-31.932682,-18.004382,-21.173228,108.445187,114.507232,-112.870846,89.974441
38,1.817436,30.227876,-8.993683,59.059236,0.0,-38.744087,0.470467,4.359512,17.15538,32.405891,31.723595,44.300537,43.657379,58.206482,0.0,-12.536445,1.232476,8.826419,-5.389175,2.154163,-10.997254,-5.291269,-17.113386,-8.764051,0.0,57.01189,-5.502892,-1.046734,-26.442089,-21.859074,-42.371979,-38.6586,-52.191696,-52.81002,0.0,-12.429555,-16.387417,-17.006218,-19.914014,-28.89981,-20.14141,-25.435983,-16.782002,-19.760935,108.994904,145.201154,-123.132248,149.499723
39,16.534767,11.583698,-1.840267,12.19583,0.0,-56.26442,-12.097549,-9.182968,5.318069,11.240158,22.310829,29.91497,36.767464,45.960846,0.0,-0.110657,-12.358419,11.603335,-19.038764,14.40773,-22.847869,9.662272,-24.785813,2.151693,0.0,57.236423,1.116028,-8.08754,-20.432739,-23.139038,-38.239689,-42.66386,-51.94788,-57.863331,0.0,-10.656392,-17.972087,-17.292524,-17.904532,-15.267604,-14.725188,-13.883036,-8.478208,-14.999607,123.679905,157.161236,-126.822281,162.071938
40,-5.147095,-3.057633,-4.455128,-6.468232,0.0,-49.256744,-7.147751,-7.698898,8.118439,11.653404,22.949066,25.877266,37.158394,38.317909,0.0,-8.952328,-15.700814,-4.279551,-19.727064,-2.472795,-21.358047,-3.282528,-21.771682,-4.65771,0.0,59.646835,-1.775894,3.532162,-23.65139,-23.066425,-41.282787,-41.332569,-54.555359,-58.738976,0.0,-20.487305,-15.422783,-30.917258,-13.428368,-36.953176,-7.870028,-24.596578,0.04304,-7.321438,117.675018,154.042238,-132.135201,155.542341
41,0.722237,-13.422934,10.201149,-32.929272,0.0,-37.805672,-12.760849,-9.099426,-1.30806,6.269875,10.894661,18.812141,22.911758,27.189217,0.0,-14.676066,-6.916972,0.387576,-8.993793,0.460473,-10.305187,-5.245914,-12.481456,-7.98192,0.0,48.7603,-5.761127,-13.825493,-24.290943,-36.018562,-38.710327,-51.765232,-49.000626,-65.392227,0.0,-20.771079,-21.47528,-42.881122,-19.917719,-51.420988,-15.932965,-45.384639,-10.640707,-33.275043,118.1991,140.589895,-122.132206,122.583661
42,-10.229645,-34.536789,2.763748,-19.829385,0.0,-41.756058,-0.987396,1.439095,16.55674,25.112572,32.897987,41.361923,46.132965,57.694244,0.0,-26.435475,-18.095001,-21.493065,-18.915788,-30.693475,-16.759772,-29.994429,-13.908817,-20.577615,0.0,46.705456,-7.48518,-18.477173,-25.589848,-40.945301,-40.147648,-54.941883,-51.427059,-68.747406,0.0,-27.954875,-28.717955,-54.965616,-27.433547,-63.679896,-22.300544,-57.330966,-14.478372,-39.51696,107.764091,107.499748,-119.573822,104.200918
43,7.613411,-14.739268,-0.417995,-7.611356,0.0,-45.732193,-3.865242,3.310089,13.463402,23.94928,29.210243,40.876122,43.469925,58.5149,0.0,-30.418932,-15.567804,-45.576281,-12.455706,-51.943798,-7.864193,-49.195287,-3.370986,-34.442713,0.0,46.831341,-4.745922,-21.99131,-22.167492,-38.944244,-36.217861,-51.706753,-47.685184,-67.873135,0.0,-38.503481,-28.936058,-72.445799,-27.830818,-77.114563,-24.295947,-68.071616,-18.14576,-50.759456,114.332371,92.691537,-121.036949,96.520618
44,-1.400185,-9.171943,3.029366,-17.483765,0.0,-43.394394,-1.336899,15.089607,16.639595,34.789696,31.47892,44.167671,43.475761,56.214752,0.0,-30.945663,-17.6847,-54.624353,-15.519793,-57.575961,-10.757848,-47.096638,-5.002185,-33.122396,0.0,42.091885,-7.862377,-20.451851,-24.820175,-41.277008,-39.021606,-57.493629,-50.705338,-70.468998,0.0,-33.602722,-27.652699,-68.082052,-25.167523,-74.04461,-20.327803,-66.295057,-12.773134,-47.881269,112.672291,83.458831,-118.267479,78.976091
45,0.199814,-1.469938,-1.33461,1.098324,0.0,-40.850029,-0.120506,9.770737,16.690979,30.859451,31.540031,44.081726,44.57016,58.09742,0.0,-34.299575,-20.995202,-52.089406,-19.394693,-59.199873,-14.245944,-55.471105,-7.992171,-40.156416,0.0,44.534168,-6.939468,-21.439877,-24.2169,-40.728264,-38.60899,-54.293633,-50.654469,-68.098984,0.0,-34.958143,-27.824921,-68.0936,-25.831309,-73.223916,-21.261161,-66.650431,-13.787817,-48.340446,112.782955,81.948015,-119.691238,80.033536
46,-1.384506,10.994476,0.201302,13.697075,0.0,-39.56337,1.713753,11.488724,18.607292,30.955009,33.061295,46.271095,45.379143,59.756241,0.0,-37.19709,-23.327669,-48.524616,-20.588267,-58.145886,-15.765065,-55.095508,-10.351623,-40.315362,0.0,43.423748,-8.405743,-22.087612,-25.179749,-41.382008,-39.033794,-56.887379,-50.706539,-69.671745,0.0,-37.591922,-28.926456,-70.385281,-26.864764,-75.690444,-22.214834,-71.681298,-15.032798,-51.569745,110.88378,92.943941,-120.004606,93.732062
47,0.260468,18.875588,-3.903122,17.013474,0.0,-39.761925,6.969566,7.919312,24.284248,26.51516,38.731728,40.477638,50.224342,56.593552,0.0,-29.654184,-30.121295,-32.788635,-28.69026,-37.02564,-23.663684,-36.654458,-16.775827,-26.742004,0.0,47.026749,-10.506134,-14.641056,-30.98196,-33.933392,-46.391945,-51.158695,-57.084217,-63.972073,0.0,-31.401073,-31.642733,-55.730117,-31.568601,-65.211924,-29.322214,-58.348613,-24.20292,-46.417785,110.932274,111.923733,-124.119701,110.849739
48,0.887032,21.512948,-9.83963,19.133273,0.0,-40.72031,-1.288433,-0.680695,16.49271,21.273422,32.309532,36.626129,45.595894,53.938065,0.0,-19.425985,-20.794251,-18.471231,-22.274887,-20.349123,-20.854318,-20.976353,-18.228552,-17.497134,0.0,56.402493,-10.652046,-6.546764,-31.587753,-26.818027,-47.426319,-44.01329,-56.920738,-59.923782,0.0,-17.67164,-40.718191,-37.319417,-40.820851,-40.793465,-36.60549,-36.462383,-29.439447,-30.652935,111.573372,133.192567,-134.205265,129.738897
49,0.887032,21.512948,-19.395676,27.37476,0.0,-41.678696,-9.546432,-9.280701,8.701172,16.031685,25.887337,32.77462,40.967445,51.282578,0.0,-9.197786,-11.467206,-4.153827,-15.859513,-3.672606,-18.044952,-5.298247,-19.681277,-8.252263,0.0,68.115692,2.531719,5.607948,-15.637207,-10.787945,-31.057205,-26.498737,-44.557285,-43.628941,0.0,-24.696058,-19.758094,-22.617601,-20.02254,-29.35312,-18.790033,-28.084056,-14.520856,-27.172343,111.187592,154.764795,-154.873753,157.172938
50,4.086456,9.41453,4.723206,8.340505,0.0,-47.822571,-11.884918,-8.869286,2.751961,7.517281,18.420639,23.248329,32.355537,38.307724,0.0,-12.420107,-17.588802,-4.446215,-22.669101,-2.783215,-24.244262,-2.529173,-23.631975,-5.962805,0.0,65.332775,3.228092,-1.143551,-19.355507,-21.656628,-37.993641,-40.216312,-52.998848,-56.638641,0.0,-18.753044,-16.352374,-28.462926,-16.060418,-29.795809,-12.836182,-25.695828,-7.136804,-20.718622,114.635067,163.931536,-150.789528,165.265653
51,-2.589798,-2.454888,-23.241749,5.730685,0.0,-41.580734,-3.384361,-9.90921,15.808067,14.792976,33.4552,33.546066,49.732018,55.56221,0.0,-12.450056,-13.999621,-11.69701,-13.6955,-5.559822,-11.176578,-6.860533,-8.951525,-1.713512,0.0,33.439808,19.439621,23.423138,2.553406,2.011814,-14.245262,-10.605125,-29.964409,-24.885292,0.0,-41.0392,-16.408875,-38.340152,-18.119423,-40.001855,-18.196611,-37.948685,-17.089118,-34.973056,111.302118,161.150776,-174.774427,170.670466
52,2.479134,-3.977529,1.595078,2.507499,0.0,-44.045563,-4.372215,-6.686668,11.956902,13.199959,27.729721,31.046906,41.682014,46.435204,0.0,-11.891833,-13.358312,-7.324834,-15.07624,-7.036398,-13.836847,-7.365774,-11.713991,-7.779564,0.0,2.702122,18.148041,18.262882,4.157982,-7.662163,-11.916103,-17.340717,-27.281628,-27.406998,0.0,-50.830191,-19.760873,-48.923308,-20.394123,-51.613495,-20.792413,-41.872862,-19.963229,-31.914126,113.493948,157.234935,-173.466654,173.239654
53,-2.439308,-5.991457,-0.950375,2.184421,0.0,-39.817085,-3.060722,-1.370201,13.347015,23.452148,28.840027,40.809975,42.105675,57.318077,0.0,-11.729614,-9.222208,-8.482438,-10.761059,-10.143493,-9.739954,-9.449449,-8.863994,-9.564768,0.0,2.257519,14.583492,11.697121,0.565739,-5.906239,-14.77541,-14.467735,-28.880424,-23.936462,0.0,-46.153956,-22.978378,-59.373392,-25.071285,-58.547449,-25.157921,-43.251965,-23.288921,-30.28197,110.961828,151.375361,-174.50984,175.555958
54,-1.19133,-2.732888,-1.714268,-2.181766,0.0,-38.145905,-1.392059,4.823456,15.445404,28.615265,31.036606,46.033974,44.296074,62.191429,0.0,-10.832659,-9.1884,-11.577276,-8.61656,-9.840793,-5.601256,-6.848244,-2.92876,-2.070862,0.0,1.426105,13.174953,15.72298,-0.089607,-0.258465,-14.884415,-10.090942,-29.113998,-20.798264,0.0,-48.04602,-20.641495,-56.129025,-22.641159,-58.236505,-22.12085,-44.480242,-19.510969,-29.388472,109.705067,148.620876,-176.289539,173.352595
55,0.96817,1.070135,1.510506,0.743475,0.0,-39.312172,-0.726242,6.575661,17.389297,33.849678,33.851166,49.960098,46.653671,64.062538,0.0,-13.797636,-10.261189,-19.00937,-7.643651,-16.618888,-2.33645,-10.633668,2.656935,2.749314,0.0,2.994976,12.884846,16.701393,-1.465187,-4.75668,-17.385864,-14.233818,-32.216377,-25.104218,0.0,-49.672093,-21.594366,-59.119628,-24.544554,-57.045586,-24.731534,-37.094244,-21.999449,-24.696028,110.660791,149.799275,-174.791479,174.204334
56,2.394676,0.537105,-1.406479,1.472377,0.0,-41.49868,-2.997093,3.423157,14.494057,27.593422,30.550575,45.472755,43.903084,59.12281,0.0,-13.729093,-10.595383,-19.257329,-9.038994,-15.883873,-4.876554,-10.664821,-0.77293,-1.523259,0.0,-2.237263,12.054405,13.256207,-1.120834,-1.954651,-15.856934,-12.73756,-30.476875,-22.678585,0.0,-45.727199,-21.19268,-58.897728,-23.864064,-58.601419,-23.971016,-40.021276,-21.880764,-26.484566,113.044882,150.40094,-176.208544,175.741271
57,-1.421471,-0.947004,0.072269,-1.540735,0.0,-39.370537,-1.096916,2.840538,16.397781,30.123711,32.645645,47.628708,46.205864,63.075027,0.0,-10.477841,-10.779059,-13.719768,-9.054957,-12.033519,-4.571815,-6.499972,-0.169073,3.255852,0.0,7.787876,12.871113,16.393948,-0.958786,-3.851967,-16.250439,-13.748474,-31.135311,-24.444695,0.0,-46.176124,-19.337759,-57.063123,-21.766897,-55.325776,-21.921952,-40.264974,-20.038009,-25.077213,111.405659,149.532976,-176.354027,174.279577
58,3.006821,0.628557,1.031685,-0.10232,0.0,-41.231232,-3.027191,0.116615,13.194466,21.528168,29.000244,38.824654,43.229485,53.441048,0.0,-10.663802,-9.611637,-10.735494,-9.83823,-11.10788,-7.572113,-9.359386,-5.462009,-3.452095,0.0,4.960499,11.079082,12.494488,-2.662067,-5.607204,-17.914467,-15.032215,-32.574463,-26.104717,0.0,-45.393067,-19.666209,-57.3544,-21.680261,-56.274138,-21.314451,-40.612505,-18.961267,-24.516396,114.292088,150.215797,-175.442734,174.23152
59,24.560394,16.882377,0.414333,-0.094602,0.0,-69.292374,-20.307884,-41.828957,-6.363144,-24.917564,10.301056,-7.404327,29.253502,16.306343,0.0,-31.189824,-20.516698,-20.108404,-19.762046,-20.968896,-18.262993,-26.205177,-16.583382,-26.130304,0.0,7.048988,8.884907,8.488541,-5.391998,-7.782154,-20.612984,-16.158371,-35.049992,-26.185741,0.0,-44.247227,-19.50183,-56.527346,-21.005761,-54.065666,-20.028561,-38.279729,-17.281038,-23.681715,138.847418,167.104133,-175.033464,174.142877
60,1.688232,2.438709,24.006157,-13.207487,0.0,-69.6064,-21.551514,-41.141052,-8.049088,-27.793236,7.932472,-8.697624,25.675392,13.314629,0.0,-35.328615,-22.503023,-22.670367,-22.562551,-24.255685,-21.445362,-29.408078,-19.957424,-28.514827,0.0,74.769745,8.701515,4.356136,-14.776897,-15.938015,-34.362431,-35.777435,-50.619507,-53.182697,0.0,-27.495884,-19.361502,-33.812735,-18.878336,-36.235945,-15.600748,-29.780773,-10.490777,-18.359972,140.435486,169.542487,-151.127472,160.935035
61,-4.143677,-1.436562,2.016277,-0.760703,0.0,-66.294937,-16.90773,-32.943649,-1.963463,-19.304237,15.164566,0.672913,33.359299,19.599037,0.0,-30.91485,-21.141921,-26.240035,-20.118531,-23.387845,-17.979744,-25.807936,-15.736598,-25.867062,0.0,71.336861,11.427269,1.05463,-12.937603,-22.957134,-33.522949,-42.315731,-50.165119,-55.421333,0.0,-30.233125,-18.066719,-39.930688,-17.782174,-42.731378,-14.82473,-36.170705,-10.153188,-23.040036,136.115313,168.17683,-149.287691,160.245237
62,-3.013115,-5.862522,12.659912,-12.600295,0.0,-61.453171,-13.433075,-19.967766,1.514969,-1.372604,18.183861,18.850594,34.714737,31.776581,0.0,-26.763123,-17.04509,-25.046677,-15.567094,-22.543779,-12.501,-19.381941,-8.951895,-12.520822,0.0,56.386299,0.948143,-17.87138,-21.08551,-38.078327,-38.263378,-54.585915,-50.222855,-63.888187,0.0,-18.083052,-5.141833,-28.330348,-4.278316,-32.611164,-3.237173,-26.384932,-2.425124,-15.030822,132.986698,162.386664,-136.743279,147.717298
63,-12.1978,-9.106086,11.145,-6.605287,0.0,-48.984489,-5.124092,-9.217415,12.045364,13.764038,29.278107,35.839233,45.413132,51.089401,0.0,-18.652453,-12.322573,-19.079364,-10.730863,-15.67457,-6.465824,-12.117036,-1.655776,0.21872,0.0,45.300465,-8.256569,-24.639416,-28.963966,-49.33897,-44.68586,-64.129028,-54.906578,-69.990692,0.0,-12.255604,-5.322145,-22.641993,-5.629847,-27.281023,-4.561626,-23.20633,-2.07432,-16.786572,120.722036,153.291616,-125.66514,141.123048
64,-6.115952,-5.757361,-7.352829,9.09599,0.0,-42.304344,-0.440025,4.758682,17.911606,31.73996,34.81144,49.609108,48.431854,65.007362,0.0,-12.899723,-9.694197,-18.000863,-7.526233,-16.437157,-2.648846,-9.902697,2.639213,1.712524,0.0,52.339897,-1.56086,-15.257835,-23.860359,-39.39085,-41.163483,-55.64312,-54.311142,-68.123589,0.0,-19.507264,-12.682948,-37.270851,-13.405891,-42.084511,-11.957782,-34.748377,-8.657778,-26.065652,114.563484,147.60468,-133.06057,150.289465
65,0.509033,-0.954167,-4.637775,1.203207,0.0,-42.021103,-2.867661,-0.722809,15.479507,25.708466,32.597122,45.185738,46.892967,61.555138,0.0,-13.280661,-11.025289,-14.934739,-9.282507,-13.522661,-4.054686,-8.060405,1.720613,3.899292,0.0,57.276993,2.868404,-10.094032,-19.428349,-33.042412,-36.993198,-50.180054,-50.703049,-61.826878,0.0,-22.821625,-13.959267,-37.147257,-15.438931,-42.555914,-14.457717,-35.557801,-11.625133,-26.74929,115.071316,146.652937,-137.699547,151.495095
66,-0.057678,-0.418112,4.906654,-5.135288,0.0,-41.43528,-2.689476,-0.82592,15.275345,24.204369,32.101936,43.953667,46.117401,60.712738,0.0,-13.649805,-11.570947,-14.120065,-10.319852,-14.214605,-5.61268,-10.536164,-0.211619,1.376417,0.0,55.220375,0.656948,-16.200886,-20.478687,-37.537937,-36.780567,-53.48877,-48.303738,-62.635403,0.0,-20.348737,-8.30858,-33.94451,-10.094525,-38.748476,-10.187367,-31.556653,-9.184818,-20.42293,114.98188,146.238206,-132.82465,146.363188
67,0.117645,0.476343,6.17878,-4.843424,0.0,-41.907349,-2.813644,1.641655,14.920807,27.530708,31.318588,45.15255,44.606781,61.954651,0.0,-14.596408,-11.572336,-19.465613,-10.051115,-18.277443,-5.307417,-12.688012,-0.204888,1.392163,0.0,50.104523,-4.139729,-23.163815,-25.281773,-47.06543,-40.937405,-62.510262,-50.985489,-68.083591,0.0,-16.405726,-6.641905,-30.161186,-8.75908,-34.562508,-8.609181,-28.663924,-7.284974,-20.412031,115.089998,146.668235,-126.655397,141.473451
68,-1.531677,-3.20355,-0.701008,4.611922,0.0,-41.349792,-2.851067,5.098114,15.387154,31.113968,31.638451,47.029152,44.78508,62.721977,0.0,-12.073039,-8.875171,-16.687586,-5.394392,-16.183424,0.450963,-9.27133,6.095754,3.020768,0.0,50.008621,-0.332508,-14.230385,-21.151714,-37.07531,-37.045212,-51.90691,-48.734608,-61.730633,0.0,-23.291576,-13.368223,-37.161151,-13.740022,-42.409504,-11.616333,-35.114958,-7.608392,-22.350469,113.580008,143.3029,-127.334719,145.923587
69,-2.526627,-1.220651,1.346684,-2.963865,0.0,-42.043419,-2.966652,5.851936,15.790329,31.796494,32.763405,48.088417,46.239624,61.699104,0.0,-9.357688,-7.933446,-10.702612,-4.293691,-9.426664,1.77094,-3.283084,7.313256,5.552875,0.0,51.815128,2.046261,-9.447212,-18.000011,-32.620754,-33.664169,-48.153191,-45.459309,-58.581448,0.0,-26.034035,-14.946317,-39.487845,-14.050843,-43.395473,-10.867362,-34.635559,-6.362701,-18.89964,111.057072,142.020297,-125.984344,142.897771
70,-0.443001,2.623559,6.636429,-4.915549,0.0,-48.947296,-4.251938,-14.236336,10.905762,4.302406,26.32267,22.129326,40.670471,38.911629,0.0,-10.649106,-9.72288,-6.858618,-9.43358,-4.281712,-6.869455,-8.331335,-4.070031,-9.677092,0.0,50.06979,-0.043945,-6.381626,-18.397179,-23.165531,-33.280735,-37.122459,-44.929104,-50.877228,0.0,-24.54443,-19.251061,-33.159261,-17.6935,-32.507115,-13.727302,-23.796972,-7.248757,-15.196499,110.590496,144.521297,-119.37149,137.859663
71,1.699791,1.466511,5.930843,-0.636122,0.0,-59.901352,-14.3993,-42.239685,-2.740173,-40.112801,9.180222,-25.590706,21.898499,-11.560135,0.0,-9.328943,-17.20737,-16.915043,-16.91103,-7.332059,-15.654038,-10.90642,-13.364981,-11.999649,0.0,48.944664,-0.26247,5.493164,-16.530304,-9.971981,-30.659637,-26.559391,-42.064362,-39.650631,0.0,-28.234233,-24.480457,-31.310454,-22.352507,-30.314605,-16.490509,-26.531929,-7.596258,-16.606477,112.386103,145.314111,-113.344831,136.549844
72,-4.834213,-5.182589,3.565521,0.362444,0.0,-59.038239,-10.905075,-37.395859,3.1493,-23.456612,16.532135,-10.151253,29.758644,7.643623,0.0,-1.720953,-17.15482,-2.705687,-12.957953,10.215432,-6.412194,14.13609,1.710548,16.195095,0.0,50.740471,-0.45908,11.213207,-17.344208,-1.405792,-32.306499,-15.062885,-44.056606,-27.748203,0.0,-34.151374,-30.87922,-19.852541,-26.218824,-15.937936,-17.061021,-7.173545,-5.137356,3.999698,107.570086,138.874546,-109.761114,135.655312
73,0.936584,-5.098114,-0.80286,-2.059531,0.0,-66.962929,-24.42524,-61.262169,-11.389847,-47.04895,2.248535,-32.419968,15.4953,-13.883171,0.0,4.828203,-9.882876,20.783089,-4.926818,36.686661,2.867967,43.931157,12.458825,43.528483,0.0,53.960037,3.904667,22.046928,-12.846222,4.695969,-26.832962,-10.294418,-37.208633,-20.04673,0.0,-35.239879,-39.507481,-17.16717,-35.268686,-9.938451,-23.832417,0.166788,-8.249608,7.748967,108.593044,132.464668,-110.4776,132.284017
74,-4.093781,-0.998906,-5.485325,-7.850546,0.0,-70.973854,-32.418594,-79.505081,-19.937897,-70.235367,-6.140556,-52.642136,7.252922,-30.534325,0.0,12.951439,-0.695896,38.996095,7.863174,59.261963,17.642185,64.767259,27.816307,64.962699,0.0,59.903812,10.480442,55.524559,-3.60918,37.328453,-15.038166,27.874088,-22.836342,12.772121,0.0,-21.639907,-26.960755,-8.193817,-19.678714,15.000997,-5.552998,25.634819,11.429754,30.146983,104.604006,129.077843,-115.858183,122.045552
75,-7.491417,6.745337,2.133179,5.460126,0.0,-68.610535,-35.087929,-87.568817,-23.449631,-82.422638,-10.630188,-65.877113,2.879448,-43.05542,0.0,18.152707,4.096769,54.461887,14.739391,71.719831,26.817278,77.706842,38.446856,78.680831,0.0,64.583302,13.951149,60.939674,0.436306,52.595959,-11.51619,42.725945,-19.563446,23.290672,0.0,-20.6272,-23.238502,7.594467,-14.615335,23.987966,-0.975224,36.944191,14.774373,43.591746,97.232981,131.952819,-113.604612,123.635316
76,-10.692902,11.024548,3.477345,5.087925,0.0,-69.412079,-30.977669,-86.45462,-20.45414,-85.258255,-8.4692,-70.781708,4.707298,-45.373306,0.0,21.874836,10.843866,62.218418,21.283823,77.279776,33.776734,84.505809,46.242475,86.020547,0.0,70.045967,20.675354,70.039787,7.49136,66.572628,-5.789623,52.439518,-15.839195,31.274986,0.0,-16.77524,-16.628398,20.575453,-7.48168,39.022771,5.263296,48.254458,20.270283,51.69161,86.750422,140.949159,-109.916925,126.695034
77,-7.79583,14.58273,5.739098,14.945607,0.0,-71.208801,-25.615082,-83.118553,-17.069893,-84.902687,-7.835197,-72.441673,1.814117,-50.982056,0.0,18.752118,11.418392,62.297027,23.7489,74.408258,37.225804,82.958961,49.821159,88.252701,0.0,75.294971,23.652649,77.537155,11.097679,76.256161,-2.46191,61.124725,-14.692326,37.265339,0.0,-16.666714,-14.837636,32.249832,-4.421576,45.089657,7.434256,51.720663,22.059408,50.58075,78.993645,154.232939,-104.138775,140.34169
78,-5.493622,15.136878,5.794659,11.924313,0.0,-67.397003,-22.466354,-77.05719,-14.855919,-77.817078,-6.955261,-67.366447,0.562134,-49.071465,0.0,19.495223,10.789835,58.275346,24.695781,73.896656,38.557081,82.100013,50.960639,88.528478,0.0,77.947712,24.441948,79.741001,13.009987,77.828465,0.160675,62.76804,-12.723656,38.801823,0.0,-13.099177,-8.403181,36.649364,3.584303,50.722344,16.593324,57.610479,31.231074,60.934442,73.627396,167.875426,-98.216743,150.771612
79,-13.663788,17.631163,5.081177,15.72184,0.0,-51.570053,-37.976418,-81.764317,-30.447922,-89.547729,-19.91272,-80.491562,-7.704506,-55.367317,0.0,31.993321,18.268921,52.650192,35.201193,85.531916,49.093801,92.326993,58.93484,93.39898,0.0,79.485054,27.981491,84.58168,17.129803,82.798634,4.525681,66.699543,-8.499069,40.463161,0.0,-11.163857,-2.98625,42.047091,8.087945,53.374092,20.874356,61.6124,35.637645,64.495465,60.08234,184.168936,-93.016834,165.155799
80,-3.732834,12.381637,19.255886,22.324256,0.0,-48.852196,-37.046928,-60.489693,-30.327873,-91.450195,-20.582199,-82.868385,-9.303474,-57.956429,0.0,30.904229,22.851543,41.486212,38.942959,77.381232,52.616291,91.063394,61.919979,96.589253,0.0,62.876072,40.287037,69.581966,31.479034,62.154922,20.485268,57.504387,9.169865,49.093781,0.0,-7.739056,10.656886,58.781699,25.732199,79.34261,41.071064,87.774753,56.387142,82.328799,56.692629,195.372067,-73.417826,186.301549
81,-8.088455,14.778541,-1.603889,13.720571,0.0,-49.660378,-31.974106,-80.337582,-24.630089,-82.413826,-16.740875,-75.755081,-7.911301,-54.751053,0.0,34.305441,36.012038,58.773054,45.063475,64.879552,52.681993,78.836627,56.318475,88.955544,0.0,69.431705,29.343281,86.741467,17.373791,82.400723,5.932331,72.44688,-4.63932,48.484325,0.0,-5.785828,8.229416,50.108854,21.118209,65.459018,34.983708,72.885308,48.669205,76.907792,48.840837,209.079361,-74.785051,198.950874
82,-0.719719,31.251328,3.884411,11.681881,0.0,-55.442619,-27.03598,-84.757748,-24.238472,-87.837009,-21.625443,-76.660938,-19.883652,-61.027336,0.0,36.743656,36.54482,41.049451,33.109521,19.778039,25.817971,6.169731,15.563944,9.874323,0.0,68.7323,28.944569,84.523659,17.47427,82.173958,6.424484,69.670486,-4.195518,49.921932,0.0,-6.00918,11.548686,55.244203,24.727582,72.449968,38.112231,79.887928,51.073704,79.527862,48.25264,239.706192,-70.769119,210.008257
83,-7.836342,-1.551788,5.276184,13.062435,0.0,-49.645042,-24.286079,-75.681782,-18.272324,-72.103157,-12.276878,-59.782677,-6.305008,-46.904068,0.0,29.98248,40.219711,36.0234,44.501546,33.247533,44.332597,34.499832,40.30647,43.261412,0.0,68.519897,27.689438,88.009415,17.068577,84.765358,6.823254,73.383636,-3.172874,52.912617,0.0,-9.086697,12.380649,54.687215,26.589357,73.056604,40.616642,83.004348,53.073306,83.406837,40.398788,237.898541,-65.510445,222.81483
84,1.14727,1.385062,14.735241,14.376669,0.0,-53.585472,-24.752541,-73.698578,-18.17585,-69.510441,-12.055092,-55.990448,-5.783615,-40.942497,0.0,6.348128,42.241851,54.182034,48.471912,55.7027,49.992084,52.269254,48.153157,51.785625,0.0,62.517872,22.875767,79.779568,12.782536,76.983891,3.372917,64.379368,-5.275955,48.293209,0.0,0.27269,13.79745,53.561813,33.593397,68.896355,50.996516,78.022325,64.750865,84.853526,41.429873,239.169071,-50.89139,237.076967
85,-1.199341,8.981659,-3.751431,6.860471,0.0,-51.829376,-31.482582,-52.796116,-24.640961,-45.581932,-17.446175,-32.186508,-9.950066,-23.937378,0.0,7.814762,31.844687,48.177486,38.527811,52.428138,41.854491,49.565882,42.258339,49.462698,0.0,63.737068,24.081974,80.84095,12.750664,78.922005,1.111336,64.032211,-10.378761,38.682747,0.0,-6.01906,15.005165,55.920988,30.57195,74.901212,44.659565,83.466488,55.708258,85.343268,40.206499,248.103214,-54.666853,243.889921
86,-0.319862,11.417528,0.738373,6.395675,0.0,-53.054638,-37.901688,-46.284714,-31.686287,-33.106499,-23.651619,-17.046432,-15.225792,-10.581894,0.0,15.905548,16.133407,48.2309,21.037624,56.739181,24.257167,57.492598,25.608946,52.563494,0.0,64.485397,21.998005,83.113174,10.978546,82.580109,1.196194,70.047798,-7.760639,49.20536,0.0,-3.494394,15.905671,57.293144,32.248906,74.727755,46.652066,83.248447,58.001977,84.202738,39.903259,259.509966,-53.911858,250.274821
87,-22.663078,55.200669,1.306286,4.999005,0.0,-70.869827,-60.378799,-8.119926,-57.369919,9.601707,-47.665901,18.362961,-35.667,2.903023,0.0,36.669741,2.544302,32.900434,-14.074277,23.960765,-32.138125,5.648989,-49.005189,-18.908655,0.0,64.036274,23.04491,85.128307,12.894974,82.836056,3.046074,68.432064,-6.580868,48.767681,0.0,-2.222336,19.921239,56.439568,36.479303,76.563471,50.034445,87.430926,60.204552,89.545569,17.149744,314.687942,-52.696009,255.251132
88,-4.509659,0.472452,0.953979,5.150231,0.0,-57.329865,-52.544975,-0.62542,-48.774033,17.358627,-39.857483,24.558563,-29.264774,8.373756,0.0,42.185967,3.918619,35.219965,-11.31459,25.933382,-27.428236,12.71793,-41.250387,-7.507306,0.0,63.472424,24.87711,84.72559,15.119019,83.113232,5.108814,69.782238,-5.149784,49.444027,0.0,-1.513132,22.214217,56.543926,38.729364,76.844065,51.842558,86.524616,61.506807,89.696055,12.570391,315.120673,-51.811724,260.361643
89,0.513039,6.756236,1.195221,4.656969,0.0,-52.396488,-49.399624,-4.223557,-46.303654,16.052628,-38.110313,24.122887,-28.348904,12.837296,0.0,40.148451,7.942708,30.438013,-8.480863,21.935784,-26.047312,8.21546,-41.959281,-11.709545,0.0,62.068806,27.189789,86.407757,18.134308,86.485004,7.7211,73.518162,-3.656559,52.206745,0.0,-1.324299,24.741785,56.243572,40.596944,74.663782,53.098068,84.931764,62.548536,89.701798,13.298893,321.813121,-50.401039,264.954824
90,-6.468544,-2.469214,2.043056,4.484068,0.0,-31.415634,-38.17915,13.593292,-36.662922,26.555099,-31.774006,31.58947,-25.215511,17.908516,0.0,39.173165,11.727947,37.927906,-1.036851,31.456092,-13.941638,20.673359,-25.671684,3.201635,0.0,62.058907,27.196369,84.522629,17.956581,84.73938,7.561226,72.102585,-3.483582,50.653152,0.0,-0.134986,25.265552,56.434937,41.40643,76.533708,54.00796,85.382789,63.431752,89.380572,6.8472,319.298891,-48.341131,269.393876
91,-11.615753,-40.363404,2.029552,3.689155,0.0,2.11132,-20.500774,33.893738,-29.447594,38.027229,-35.527382,22.638931,-38.223724,-52.700615,0.0,-6.3401,25.605549,55.96693,44.364151,71.205573,56.032139,79.231521,65.240607,93.572375,0.0,62.165051,28.606224,84.894619,18.880405,83.454494,7.795372,70.240803,-4.147453,47.890377,0.0,1.017523,26.095354,58.146534,41.98639,78.332435,54.248354,87.796118,63.38124,90.247054,-4.69471,278.722788,-46.237736,272.870331
92,-15.214462,5.275955,-0.447979,3.328471,0.0,37.604027,-1.453686,62.081909,-10.182209,63.446045,-16.219139,44.978371,-18.758354,-9.363441,0.0,-0.682033,20.067834,58.833014,38.589067,71.174142,52.441167,78.618155,63.836403,89.674442,0.0,63.500519,30.29417,86.119995,21.058559,84.393997,10.278912,70.408058,-1.152191,48.403358,0.0,1.323188,27.107381,58.348335,43.396522,77.210986,55.734378,86.916484,64.527081,91.033137,-19.87009,283.822369,-46.646633,276.022427
93,15.969543,-2.702507,-0.541191,2.279084,0.0,1.504784,-20.370255,35.431938,-29.039726,43.546028,-36.545849,23.891144,-40.754642,-62.178669,0.0,-8.303948,26.83006,57.46518,44.264301,72.809046,55.135584,78.858487,64.675467,94.155423,0.0,65.811653,31.149216,88.260498,22.060776,87.602463,11.34304,73.50563,0.269222,51.579094,0.0,2.860526,28.276193,58.632757,44.519392,75.44406,56.530464,84.892429,64.919196,88.890089,-3.846273,281.096814,-47.133551,278.278463
94,-15.667076,10.020672,0.395508,2.533372,0.0,21.585274,-5.260792,60.338287,-11.292686,60.784378,-13.986855,51.354332,-14.32806,13.954811,0.0,10.439216,23.339371,52.238132,38.410794,66.206569,48.615791,67.101147,56.766907,71.247811,0.0,66.101418,30.781002,87.651558,22.478485,87.167816,12.713985,73.703728,2.399426,52.767677,0.0,2.056227,29.268893,58.269418,45.240698,73.972301,56.841069,83.080919,64.809589,86.814348,-19.435673,291.15415,-46.660366,280.8485
95,-5.438118,-8.731817,0.502625,1.166465,0.0,25.322685,5.9832,63.008995,-2.662354,63.333778,-13.47971,43.27137,-23.030376,-34.300404,0.0,-8.946276,26.859638,48.144758,45.319121,68.498991,56.96704,77.368635,65.686074,92.09759,0.0,65.661964,30.855503,87.366943,22.688885,88.042374,12.933884,74.058838,2.457848,53.047256,0.0,3.796292,29.281675,57.542183,45.329989,72.096632,57.021133,81.886666,65.113895,86.056486,-24.75812,282.440271,-46.04207,282.032904
96,26.986885,-0.913844,0.2528,0.257376,0.0,-11.209488,-24.391594,31.027222,-35.642509,34.530716,-42.843761,13.297462,-46.117058,-67.714634,0.0,4.773183,30.751149,59.364376,46.217219,69.258336,56.659152,75.346494,65.688051,92.918871,0.0,65.73761,31.626949,87.50885,23.489227,88.27652,13.457966,74.405365,2.603416,53.391953,0.0,3.929487,29.536642,57.609121,45.373091,71.885075,56.803895,81.642751,64.63607,85.072802,2.292738,281.531058,-45.725298,282.294911
97,-15.379543,12.525392,-0.270939,-1.00931,0.0,17.762547,-8.170567,58.002033,-17.298546,51.721973,-23.170052,34.030209,-25.781536,-30.741634,0.0,-0.40922,18.035566,49.541923,37.287925,61.687797,51.939321,65.795126,64.876959,79.926275,0.0,64.424458,31.129303,88.025379,23.094406,89.395695,13.300095,75.644474,2.88763,54.474621,0.0,6.360045,29.762711,58.131653,45.859437,72.003636,57.428007,81.702835,65.125875,85.152892,-12.927074,294.094612,-45.836506,281.323762
98,-14.759846,-7.462476,0.65546,-0.006793,0.0,47.877388,3.659019,71.496964,-5.225601,68.057556,-10.245438,53.983498,-12.003708,11.04744,0.0,8.191377,24.438961,51.252039,43.27932,65.552755,57.098445,73.51615,67.51858,87.443215,0.0,65.3088,30.510521,87.126389,22.705078,88.674889,12.963696,74.765968,2.537727,53.813324,0.0,6.802487,30.073994,58.567487,45.908097,72.268174,57.337913,81.546791,65.059061,85.354507,-27.562838,286.650121,-45.056963,281.334954
99,15.177784,-2.332807,0.017109,0.791023,0.0,11.725903,-7.931728,52.908039,-18.7187,52.657185,-27.743168,28.163624,-33.791885,-49.113121,0.0,-4.111157,23.125097,51.764135,41.749392,67.413789,54.542595,77.813979,64.450387,88.593563,0.0,64.759655,30.25629,86.985455,22.063694,88.174496,12.156258,74.432087,1.791973,53.37347,0.0,6.909315,29.424751,58.148263,45.709446,72.155048,57.371752,81.402542,65.086169,85.117509,-12.322197,284.313856,-44.976997,282.122519
100,0.018139,-0.133937,-0.528088,0.305356,0.0,12.56012,-7.609119,51.642609,-17.879848,51.509972,-26.737404,26.315689,-32.699661,-50.813656,0.0,-3.892869,24.658236,51.672745,43.199909,67.576255,55.845961,76.96701,65.611974,88.014159,0.0,65.377121,30.530319,87.770691,22.461033,88.845863,12.743626,75.171547,2.692852,54.288254,0.0,6.798906,29.422219,58.35346,45.659613,72.445892,57.271346,81.2557,64.930558,84.728605,-12.252846,284.108196,-45.453873,282.356152
101,-1.157455,1.707152,0.38887,0.015993,0.0,10.864792,-6.004772,53.096695,-16.048622,51.498184,-25.378475,23.716393,-31.636848,-49.18848,0.0,-7.690952,23.861594,49.591571,42.184856,66.245348,54.718337,75.364155,64.506765,86.835405,0.0,65.346794,30.541992,87.36557,22.161484,87.982521,12.1348,74.10862,1.774521,53.181381,0.0,6.756977,29.437224,58.918168,45.775704,72.687151,57.42708,81.495909,65.17509,85.099293,-13.392134,285.740398,-45.046835,282.297195
102,-13.316574,0.334749,-0.430584,-0.207543,0.0,30.534782,9.813766,69.044266,-0.044518,68.349266,-10.737133,41.530838,-19.529057,-24.35091,0.0,-6.095754,20.761168,43.878546,40.674626,65.037695,54.550623,75.039348,64.834783,85.821525,0.0,65.329571,31.206264,87.605267,23.092117,88.795338,13.340092,75.203876,3.243084,54.386158,0.0,7.154958,30.056396,58.934717,46.389812,72.659425,57.998889,81.286081,65.578814,84.88576,-26.667309,286.01616,-45.43602,282.030665
103,6.774788,-1.083967,0.293312,0.325301,0.0,22.991295,0.424633,59.278107,-8.458958,58.184395,-17.627449,29.372177,-24.220562,-41.914558,0.0,-8.985858,25.418878,47.964077,44.398114,67.035136,57.080228,75.814871,66.716751,87.542262,0.0,65.268002,30.929489,87.357388,22.587891,87.684803,12.545128,73.862171,2.072697,53.039417,0.0,6.381349,29.378253,58.831161,46.086123,73.017269,57.997778,81.910069,65.908561,85.692282,-19.838762,284.893492,-45.088949,282.317264
104,0.421314,1.920129,0.449638,-0.127823,0.0,18.474941,2.012215,61.468563,-7.755661,59.864216,-18.219051,34.36552,-26.690369,-36.657085,0.0,-8.165319,22.766574,46.451562,41.617431,66.078437,54.268979,75.859084,63.636702,86.790575,0.0,65.129642,30.497532,87.073917,21.959152,86.83794,11.857452,73.445148,1.394691,52.60294,0.0,7.494524,30.305188,59.70388,46.905119,73.815146,58.713959,82.855283,66.463821,86.915002,-19.360285,286.758555,-44.582148,282.134375
105,3.500919,-1.101133,0.338802,0.20989,0.0,13.362808,-2.340832,54.919281,-12.240372,54.641876,-21.970596,29.916229,-29.677219,-43.429012,0.0,-6.037461,23.712776,50.523076,42.100072,68.367771,54.432556,77.474043,63.657635,87.541398,0.0,65.175476,30.085487,85.47123,21.738853,86.513557,11.86758,73.13839,1.61253,52.792854,0.0,7.054614,30.492539,60.232463,47.040846,73.774082,58.767558,82.13941,66.37101,86.56957,-15.841026,285.614798,-44.225006,282.301641
106,-2.526398,-1.305589,-0.627251,0.129305,0.0,19.047089,0.479908,57.050285,-9.187374,56.487579,-19.22327,30.377769,-27.283802,-42.641716,0.0,-5.263543,25.967469,51.832987,44.342353,70.185395,56.534046,78.278095,65.871449,89.279548,0.0,65.496025,29.963551,86.657066,21.348839,87.16301,11.345444,73.373108,1.20266,53.048401,0.0,6.389006,30.756645,60.058759,47.264321,73.701834,58.860801,82.172508,66.314632,86.222903,-18.329458,284.256258,-44.814291,282.377996
107,1.868362,0.232552,-0.204964,0.191303,0.0,15.707474,-3.720016,54.527779,-12.115803,52.597961,-20.494423,27.248726,-26.374283,-45.030041,0.0,-8.114683,27.426692,52.043988,45.742606,69.317431,57.540207,77.095822,66.529832,88.748186,0.0,65.704536,30.234718,85.732727,21.641064,86.720581,11.662102,73.199043,1.608238,52.679329,0.0,6.410866,31.412311,59.829912,48.020455,73.61705,59.494175,81.969226,66.698967,85.840359,-16.449509,284.362994,-45.007668,282.443482
108,0.868149,1.558148,-0.255432,0.266206,0.0,11.652718,0.18568,53.28804,-8.191338,53.59005,-18.720016,29.159431,-27.446709,-45.838737,0.0,-10.795269,27.630654,50.527583,45.415761,68.388767,56.661993,75.148028,65.780182,87.850026,0.0,64.984245,29.982948,86.214981,21.598377,87.079811,11.669884,73.345413,1.443901,52.909012,0.0,6.011341,30.718977,59.748031,46.806133,73.470887,58.088674,81.588782,65.514408,85.819364,-15.575552,285.857678,-45.257292,282.646224
109,20.451622,1.048522,-0.749016,-0.454545,0.0,-12.69825,-22.933903,29.77478,-34.489975,31.783447,-42.376156,10.269127,-46.73378,-69.10944,0.0,-3.76764,27.265462,54.31171,44.138021,66.751269,54.923966,72.56328,64.107116,86.459778,0.0,66.429405,31.074657,87.604637,23.027802,88.229256,13.358059,75.011787,3.50956,54.412994,0.0,7.167062,30.016073,59.896418,46.384007,74.335887,58.034025,82.581358,65.785307,86.10002,4.910545,286.804559,-45.971832,282.090038
110,-11.512871,11.761045,0.80452,0.197416,0.0,10.137405,-13.387756,50.476456,-23.500729,47.545052,-29.11274,27.964668,-30.793877,-31.723366,0.0,-2.025228,14.775268,47.785001,33.844475,57.204532,48.285488,63.473866,60.910359,73.596302,0.0,65.833282,29.642944,87.342796,21.261292,87.315102,11.386757,73.156013,1.425018,51.998177,0.0,7.380718,29.69707,60.208751,46.551907,75.483827,58.627447,83.259686,66.687234,86.323062,-6.576948,298.50901,-45.141935,282.23086
111,-1.992073,5.121394,-0.553036,0.466586,0.0,29.604836,-9.911156,53.359222,-18.257675,52.635498,-23.305893,37.888298,-24.239788,-38.810978,0.0,-15.00992,15.559004,52.005209,30.685323,54.93965,42.955748,60.522505,53.13308,72.657449,0.0,65.840206,30.677776,86.704273,22.321014,87.441502,12.290382,73.758945,1.947956,52.767506,0.0,6.556041,30.068807,59.692518,46.320404,73.955875,57.985736,82.368628,65.834152,86.308427,-8.505907,303.514946,-45.631857,282.581988
112,7.468185,0.474861,-0.117016,0.325548,0.0,13.521194,-15.068607,42.924385,-24.538593,41.479568,-29.545956,28.404236,-30.572891,-34.203243,0.0,-4.901439,15.373877,43.563372,30.950603,52.085238,41.844302,59.289905,51.09933,68.776497,0.0,65.160942,30.707188,87.879524,22.553844,87.946587,12.649956,74.033546,2.525311,53.83049,0.0,7.0753,30.475743,60.2634,46.650892,74.017008,58.387732,81.917109,66.459622,85.926069,-0.937586,303.932996,-45.648737,282.850726
113,-5.262222,1.081003,-0.388699,0.241876,0.0,23.815155,-10.211792,48.313408,-18.899002,49.095268,-23.823681,36.750641,-24.735374,1.412544,0.0,-12.607952,14.92668,41.855108,30.703849,49.427438,42.639647,56.302914,52.050287,62.035328,0.0,65.666027,30.537529,87.224522,22.501774,87.835865,12.626896,73.9884,2.303238,53.45747,0.0,6.812058,29.646249,59.601127,46.19962,73.585619,58.314372,81.645592,66.682726,86.069515,-6.103163,304.875909,-45.94079,282.954513
114,1.685371,-3.127844,-0.313454,0.575761,0.0,24.576759,-9.276295,45.541306,-18.422012,49.638748,-23.09,34.960098,-24.516907,8.34137,0.0,-9.066257,15.005844,42.138913,30.318403,53.522725,42.02696,60.247283,51.223325,64.295146,0.0,66.54047,30.796223,87.796497,22.653522,88.08157,12.55846,74.541607,1.944122,54.039516,0.0,5.912108,28.867577,58.964357,45.506534,73.123973,57.736512,81.232667,66.224106,85.559518,-4.327869,301.692089,-46.164322,283.474297
115,5.801239,-13.495491,0.198669,-0.130911,0.0,-0.86483,-19.73093,31.467247,-28.885345,37.221565,-36.840935,19.049149,-41.915359,-62.829723,0.0,-5.083109,25.610119,51.461805,43.379294,68.547095,53.975603,75.105544,62.44109,86.741606,0.0,66.578693,30.521564,87.959118,22.312031,88.192005,12.110538,74.465961,1.423988,53.40826,0.0,5.996953,28.956991,59.25162,45.391308,73.644591,57.510567,82.225614,65.94487,86.030118,1.544695,288.125879,-45.894327,283.272667
116,-7.129326,8.527794,-0.692825,0.232429,0.0,16.390457,-11.317291,50.660477,-23.465195,47.534294,-30.996838,28.96122,-34.150772,-29.711952,0.0,-2.180531,18.873705,52.056956,36.486898,58.789603,49.009017,65.885714,59.5261,75.473021,0.0,66.799908,30.629826,88.090038,22.590637,88.630085,12.552166,74.699535,1.987782,53.40723,0.0,5.314611,29.029733,58.723283,45.464111,73.438098,57.502107,81.981885,65.761472,86.092671,-5.54615,296.597047,-46.548672,283.44847
117,3.723221,-7.846872,0.100765,-0.128811,0.0,1.838608,-14.383221,35.323906,-23.184643,40.585213,-32.041512,21.037102,-38.580322,-56.604424,0.0,-4.726006,24.3719,49.826963,42.301873,68.090512,53.311477,75.528658,61.793082,86.82287,0.0,66.779709,30.230713,88.396912,22.226486,88.401031,12.309551,74.581947,1.841583,53.484993,0.0,5.666094,28.97354,58.998011,45.310415,73.418091,57.413742,81.958234,65.874599,86.85708,-1.799669,288.7103,-46.424646,283.279783
118,3.34671,-0.835792,-0.124054,-0.174321,0.0,-3.013458,-18.615532,30.754509,-27.533913,34.896126,-35.238991,15.280609,-39.952068,-61.86161,0.0,-6.928211,24.922343,52.071776,43.431473,69.51355,54.561553,76.68654,63.558835,85.913595,0.0,66.547966,31.205521,88.544197,23.145847,88.056107,12.995281,74.171677,2.218666,53.460846,0.0,5.688818,29.512745,59.127748,45.672457,73.449336,57.656051,82.070003,66.09832,86.995586,1.567926,287.780786,-46.527815,283.01174
119,-5.549355,9.006298,0.641785,-0.421817,0.0,12.402534,-12.716503,48.157654,-24.521885,44.694328,-32.130375,26.811447,-35.889473,-31.405964,0.0,-0.580824,18.33061,49.982142,35.92077,58.479554,48.408927,64.285946,58.908041,73.074635,0.0,66.17054,31.018238,88.163109,22.801151,87.298737,12.458153,73.549347,1.46307,52.715034,0.0,6.215982,29.293222,59.929639,45.630096,74.328415,57.699832,82.942845,66.105916,87.128164,-3.964348,296.796702,-45.86895,282.599541
120,9.376717,-9.038223,-0.133724,-0.015685,0.0,-10.502129,-27.159634,27.260284,-37.192726,32.064743,-44.055176,10.613594,-47.294712,-69.507122,0.0,-7.136557,24.438899,53.381996,42.503241,68.683254,53.544029,74.388622,62.311106,85.381554,0.0,66.027088,30.462856,87.737103,22.131786,86.77763,11.685791,73.216267,0.625305,51.960812,0.0,6.734747,29.535222,60.091425,45.853756,74.455868,57.824444,83.053193,66.133086,87.24938,5.432653,287.758525,-45.982389,282.583903
