takenoko1/special-research/HandMotion_SimilarSearch_自分用/NewProject/handData/test_key/d4_feature_d2/126.csv
frame,vel_0x_L,vel_0y_L,vel_0x_R,vel_0y_R,posFromWrist_0x_L,posFromWrist_1x_L,posFromWrist_2x_L,posFromWrist_3x_L,posFromWrist_4x_L,posFromWrist_5x_L,posFromWrist_6x_L,posFromWrist_7x_L,posFromWrist_8x_L,posFromWrist_9x_L,posFromWrist_0y_L,posFromWrist_1y_L,posFromWrist_2y_L,posFromWrist_3y_L,posFromWrist_4y_L,posFromWrist_5y_L,posFromWrist_6y_L,posFromWrist_7y_L,posFromWrist_8y_L,posFromWrist_9y_L,posFromWrist_0x_R,posFromWrist_1x_R,posFromWrist_2x_R,posFromWrist_3x_R,posFromWrist_4x_R,posFromWrist_5x_R,posFromWrist_6x_R,posFromWrist_7x_R,posFromWrist_8x_R,posFromWrist_9x_R,posFromWrist_0y_R,posFromWrist_1y_R,posFromWrist_2y_R,posFromWrist_3y_R,posFromWrist_4y_R,posFromWrist_5y_R,posFromWrist_6y_R,posFromWrist_7y_R,posFromWrist_8y_R,posFromWrist_9y_R,posFromBody_0x_L,posFromBody_0y_L,posFromBody_0x_R,posFromBody_0y_R
2,44.801731,-24.826074,1.793861,1.091068,0.0,-37.420292,-43.167,2.946396,-53.702488,2.213058,-59.01804,-5.251007,-60.848751,-34.456329,0.0,-8.799681,18.278122,42.894615,37.075194,56.205472,50.696841,63.602863,60.979829,68.024254,0.0,67.968235,28.533497,90.743351,19.179897,90.242558,9.447098,75.420513,0.518932,55.703602,0.0,8.125613,30.543606,58.272629,48.288266,72.576432,60.442353,80.534702,67.930887,85.139924,25.714045,295.060666,-55.495806,284.718089
3,-32.484169,6.53023,0.629025,-0.023712,0.0,8.348579,-11.531868,37.699585,-20.253582,43.486862,-25.761967,31.161118,-30.078449,8.246269,0.0,-14.103238,11.081111,35.212678,29.096362,53.604051,43.786908,59.807806,55.750804,62.393234,0.0,68.541756,27.640514,90.290222,18.119774,89.199486,8.396645,74.678307,-0.381031,54.678383,0.0,7.393006,30.902253,58.764718,48.415905,72.859188,60.363374,80.42596,67.656345,85.080088,-5.96529,301.748421,-54.061947,284.851903
4,41.98185,-1.370859,0.473213,-0.006978,0.0,-54.396172,-53.632336,-7.065697,-60.443401,-5.041466,-61.59399,-13.607483,-59.387341,-56.671543,0.0,-0.071136,18.726245,45.811272,32.485533,55.277734,42.665336,58.894455,51.247161,62.909467,0.0,68.486481,27.790203,90.365639,18.349171,89.335213,8.488083,74.636192,-0.549889,54.507179,0.0,7.45982,31.339446,58.313137,48.591461,72.884197,60.392273,80.386625,67.719269,85.067615,36.619835,300.508627,-52.985458,284.97599
5,-6.876183,-4.037859,-0.034676,0.266206,0.0,-36.414642,-43.921165,3.111877,-53.512974,4.321518,-57.228298,-6.16127,-57.676506,-27.32151,0.0,-0.865556,17.666484,44.371067,34.989204,58.97541,48.819196,65.646307,60.083398,69.873802,0.0,67.808189,28.389988,90.451813,19.032211,89.555397,9.189892,74.946899,0.062428,54.704018,0.0,7.976671,30.379288,57.200889,47.85978,72.368519,59.978793,80.000808,67.703954,85.212296,30.20093,296.546906,-52.562857,285.318334
6,-21.406059,10.999724,-0.159931,0.074965,0.0,-8.370667,-21.518269,25.593452,-29.553165,30.863113,-33.302479,18.991585,-34.62141,-2.491035,0.0,-20.451551,7.895902,31.177104,25.30464,48.153774,39.246277,55.662624,50.380864,58.025504,0.0,67.328854,28.612461,90.516987,19.211426,90.018482,9.399261,75.081882,0.295658,54.662991,0.0,8.197985,30.151676,57.540825,47.967473,72.514806,60.191461,79.876072,67.79763,84.947201,9.192724,307.634516,-52.324934,285.481186
7,-14.87051,2.544487,0.041027,-0.200504,0.0,12.938633,-10.964756,42.556171,-19.500275,44.300594,-23.502617,36.906452,-24.164429,12.987385,0.0,-19.929328,5.653312,23.82936,22.536245,44.966218,36.162215,52.244368,46.648608,56.140881,0.0,68.113632,28.289795,90.95993,18.886929,90.544624,9.106865,75.967598,0.09201,55.622978,0.0,8.388485,30.39238,57.942943,48.245412,73.368505,60.463225,80.413486,67.995972,85.018646,-5.413742,310.232588,-52.019863,285.334266
8,-9.91745,-6.552892,0.619755,-0.052426,0.0,21.957035,-3.567524,53.471203,-10.518036,53.674564,-14.817753,48.044758,-16.915512,27.374096,0.0,-12.627156,11.781361,32.543393,29.293716,50.979658,42.616738,59.691777,52.701198,63.596564,0.0,67.995586,28.615551,90.559101,19.367752,90.187855,9.606056,75.645962,0.546284,55.394154,0.0,8.337232,30.224357,57.996234,47.89646,73.419202,60.168428,80.588734,67.885624,85.158017,-15.208855,303.718846,-51.277771,285.32099
9,51.310329,-6.151823,0.038681,0.180682,0.0,-47.877846,-51.324062,-2.143364,-61.398525,0.223274,-64.681606,-7.633667,-64.517612,-37.618675,0.0,-4.366186,18.093118,46.728081,35.7433,58.643996,48.800363,63.804416,59.60335,65.254871,0.0,68.489857,28.765297,90.751247,19.776993,90.732937,9.959679,75.835361,0.625191,55.521526,0.0,8.138519,29.892819,57.89342,47.480201,72.938969,59.877522,80.133448,67.907731,85.225943,36.189566,297.596061,-51.150999,285.530709
10,-26.13121,0.7733,0.006523,-0.128935,0.0,-9.117622,-25.359192,26.716347,-34.319,29.790115,-38.417358,17.506599,-39.89336,-10.74646,0.0,-8.264552,17.614799,40.461278,36.602186,56.656621,50.165417,62.874702,60.319161,64.909872,0.0,69.634953,29.063301,91.654644,20.060921,91.384678,10.330753,76.696415,1.333637,56.498966,0.0,7.909116,30.341559,59.116942,47.934437,73.362453,60.269884,80.09047,68.051301,85.269106,10.142269,298.348582,-51.060562,285.380996
11,25.176201,-1.306577,0.799599,0.480912,0.0,-46.891537,-47.145367,0.35614,-57.717018,0.656776,-62.141933,-10.536804,-62.973976,-42.523785,0.0,-6.511272,21.484697,45.674371,39.227443,57.212004,51.406415,62.84253,61.083631,66.256031,0.0,69.553242,28.398342,91.146297,19.321404,90.837879,9.68502,76.157169,0.790157,56.104603,0.0,7.37973,29.948209,58.250152,47.646,72.931991,60.042951,79.970118,67.993749,84.779981,35.376148,297.024545,-50.203285,285.844448
12,-39.026585,4.566258,0.235004,-0.063356,0.0,8.657169,-10.949879,38.635426,-18.332062,44.093914,-22.556477,34.104023,-25.745716,14.29636,0.0,-13.238609,13.259975,37.00307,31.238545,53.544276,45.582734,59.465214,56.928446,61.842791,0.0,69.60125,28.715916,91.171875,19.727497,90.880852,9.983997,76.137314,0.749588,55.798187,0.0,7.316683,29.174661,57.494697,46.893572,72.823372,59.384568,79.821794,67.622012,84.820057,-3.629894,301.5877,-49.947739,285.777989
13,40.087337,-4.955841,-0.06958,0.175309,0.0,-47.710934,-47.812672,-5.208321,-55.998459,-2.785263,-58.155499,-9.484749,-57.135315,-27.094688,0.0,-3.70132,21.92399,42.886649,39.225035,56.030286,52.048311,60.15861,61.72213,64.058519,0.0,69.363213,29.768028,91.371803,21.074696,91.112366,11.188602,76.327057,1.60944,56.139336,0.0,6.626931,30.277833,57.932446,47.545162,72.060014,59.670843,79.595787,67.683947,84.71891,36.451035,296.621902,-50.023727,285.943341
14,-19.290962,2.416047,-0.332108,-0.216744,0.0,-19.906883,-27.894859,21.500359,-36.435413,24.406242,-40.520954,10.549965,-41.974983,-14.179115,0.0,-10.814844,16.319893,41.483186,35.019955,57.992405,48.747442,64.464466,59.307072,65.733437,0.0,69.3964,29.955025,91.753464,21.321831,91.451683,11.466808,76.635017,1.859779,56.206284,0.0,6.981255,30.176068,58.049031,47.308287,72.475965,59.333748,79.81673,67.320176,84.845375,17.097187,299.027096,-50.41872,285.715745
15,17.975807,-1.289287,0.513496,0.136098,0.0,-46.838093,-47.388783,-0.860138,-56.362095,-0.086403,-59.496746,-8.915863,-59.237137,-36.960869,0.0,-4.833513,19.632494,44.093931,36.733591,56.990505,48.988825,61.902812,58.809116,65.855209,0.0,68.876839,29.760189,91.209755,21.052723,91.020012,11.229572,76.208496,1.744308,55.819588,0.0,7.013303,30.451598,58.092194,47.75357,72.252181,59.764766,79.517549,67.58422,84.725023,35.042181,297.724579,-49.936037,285.838612
16,-22.051964,1.127316,-0.025978,-0.050388,0.0,-12.285347,-27.334385,23.913002,-36.73027,28.40435,-40.870399,16.645203,-42.644291,-4.946365,0.0,-9.863826,16.144336,39.980551,35.021005,56.316623,49.215202,62.990978,59.903395,64.6985,0.0,69.015198,29.59013,92.179642,20.793972,91.874886,11.007099,77.020798,1.597767,56.356888,0.0,7.907264,29.877258,58.08781,47.309522,72.411744,59.49646,79.405905,67.527657,84.694333,12.892456,298.833261,-50.059776,285.769591
17,22.222252,-1.193265,-0.050697,-0.014697,0.0,-44.81638,-48.308716,1.456032,-58.827038,2.706757,-62.735538,-7.676239,-63.244915,-36.845627,0.0,-8.266466,19.405993,43.2511,38.045726,56.521758,51.175407,62.316602,61.479883,66.491238,0.0,69.755974,29.824963,92.320061,21.057587,92.030754,11.251831,77.190742,1.787968,56.6605,0.0,7.247214,30.296605,57.993764,47.629575,72.512027,59.666891,79.478894,67.52,84.887612,34.925795,297.629931,-50.299387,285.744829
18,-29.768372,4.160002,0.334167,0.293067,0.0,-2.920532,-19.463425,31.027451,-27.852745,37.802467,-31.841068,26.630287,-34.447861,5.26371,0.0,-13.699267,13.350192,35.715574,32.159862,53.115914,46.525786,59.505723,57.864335,61.002059,0.0,69.725647,30.265446,92.568169,21.534119,92.322464,11.61684,77.197495,1.858749,56.326904,0.0,6.409137,30.507421,57.202803,47.710036,72.007711,59.636572,79.312167,67.420026,84.829752,4.955721,301.772164,-50.166922,286.020128
19,31.245575,-3.897439,0.020485,0.023465,0.0,-45.475044,-49.853954,1.703224,-60.601788,2.322578,-64.482479,-7.716866,-64.435673,-42.78162,0.0,-6.285574,18.591011,44.478637,36.217543,56.985935,48.679517,62.840616,58.958676,67.142458,0.0,69.629059,30.205879,92.679062,21.60965,92.228737,11.766529,77.154007,2.137356,56.697922,0.0,6.277238,30.904908,56.88695,47.827547,71.821534,59.532893,79.324579,67.303194,84.69668,35.961628,297.855582,-50.386105,286.02445
20,-43.220272,6.770068,0.699406,0.278988,0.0,14.875546,-3.517113,43.472271,-11.907063,47.503223,-18.174706,36.335278,-24.252491,15.71188,0.0,-17.543292,9.846535,31.522042,28.034317,49.889887,42.929874,57.634438,54.946628,59.950696,0.0,69.081745,29.263,92.612743,20.401955,92.131863,10.920296,77.048435,2.121162,56.570377,0.0,6.608653,31.110722,57.850997,48.396515,72.24051,60.040728,79.425294,67.242741,84.479565,-7.513618,304.632721,-49.941673,286.310509
21,25.811977,-11.93055,0.666046,0.382482,0.0,-18.916512,-35.182056,20.831566,-46.901093,22.973442,-53.87701,15.60379,-58.210716,-10.112915,0.0,-8.544466,16.107039,44.324013,36.036244,60.818043,51.438711,69.158362,64.341706,72.574395,0.0,69.815197,28.479939,92.030582,19.95369,92.399998,10.850143,78.222485,2.078819,56.866207,0.0,5.738281,30.447893,55.545669,47.89504,72.748963,59.657011,81.026482,67.173518,86.402103,18.080006,292.657155,-49.49398,286.647975
22,-27.503471,7.192873,1.532249,-0.822886,0.0,25.959206,-10.354843,49.432411,-19.619293,53.626556,-24.812851,41.832161,-27.41993,19.227791,0.0,-9.481652,11.544178,40.178585,32.201234,61.423258,48.180821,68.946743,60.055116,72.463491,0.0,69.411106,27.278767,89.46619,18.980598,90.131321,10.550709,77.246761,2.317944,55.736217,0.0,5.811393,31.784604,60.056969,49.326785,80.911194,61.000453,90.658003,68.406921,93.258498,-9.474878,299.810276,-48.013144,285.785337
23,2.9603,-4.323826,2.520733,-3.703481,0.0,26.152439,-12.612419,45.577641,-24.065266,50.363674,-30.470467,31.591129,-32.780228,-24.41637,0.0,3.166932,13.116652,49.39539,29.695958,60.41685,41.56766,68.850783,50.992934,78.028129,0.0,66.405144,27.051487,87.203522,17.824287,85.725746,7.894421,71.678925,-2.221241,48.610497,0.0,5.431566,28.119594,58.461956,44.744781,80.103067,56.69435,89.393354,65.445433,93.45894,-6.547451,295.420748,-45.525284,282.016154
24,22.851734,20.493912,3.633041,-17.820428,0.0,-45.339203,-40.742683,-78.430996,-38.584042,-78.76276,-31.499977,-65.691032,-20.386391,-47.323551,0.0,-0.203529,12.615486,23.282005,22.762066,35.880756,31.059593,43.69947,37.256802,48.405407,0.0,62.825089,28.022232,80.164375,18.291492,66.994972,5.767365,31.393547,-7.775745,-5.34256,0.0,6.963841,27.196178,57.941585,44.873716,81.443668,57.200333,94.632198,63.779839,92.953327,16.223173,315.979776,-41.973352,264.260842
25,0.566254,-15.810267,4.207191,18.579834,0.0,-43.579445,-29.507332,-81.056843,-24.384842,-84.545403,-15.777626,-70.683689,-4.984703,-47.985477,0.0,13.371743,17.684886,36.464977,30.605912,53.614239,40.72594,63.065017,48.927815,68.116879,0.0,32.726326,35.609665,7.049904,32.519302,-11.611691,25.764313,-18.794575,16.223831,-8.264866,0.0,61.210281,20.504039,74.09611,16.206396,67.151968,13.554833,58.556989,10.563087,51.985881,16.788855,300.439266,-37.766733,283.110433
26,8.208847,-14.978427,-5.463924,-104.936118,0.0,-58.287563,-31.037693,-89.185867,-24.917336,-90.637207,-16.365051,-77.023315,-7.117538,-55.990906,0.0,23.016355,27.706175,51.545848,44.700506,67.217238,57.022739,78.509474,65.185649,81.999545,0.0,69.784641,33.083382,48.571072,29.296989,46.476002,25.110111,36.700115,20.157967,28.753624,0.0,14.832511,6.018072,6.711899,27.905505,22.595464,47.229741,37.353318,62.605161,50.289844,24.535017,286.086,-43.693342,178.799476
27,1.431656,-3.483773,-7.06089,-34.564299,0.0,-58.660927,-31.23373,-90.577812,-24.995728,-92.518902,-15.994148,-78.458805,-5.659676,-56.476021,0.0,25.574118,29.719794,54.415142,47.149527,69.789451,59.354681,81.376298,67.032295,85.131464,0.0,66.239605,37.326279,52.902317,36.434498,47.379971,34.687557,42.645206,30.168285,42.31945,0.0,-40.001979,-1.038271,-22.446491,0.286337,-19.280887,0.65721,-16.883798,1.774151,-13.524081,24.500856,285.745848,-52.220049,147.378797
28,-0.606079,-1.006223,-12.897205,-81.167273,0.0,-59.376755,-31.390171,-90.614033,-24.991035,-93.004246,-16.278648,-79.70993,-6.437874,-58.581047,0.0,26.351062,30.763252,54.931252,48.174337,70.555094,60.195351,81.935881,67.489804,85.90742,0.0,58.117275,41.438599,57.529278,48.898659,57.05801,52.557964,53.544502,53.02763,52.106495,0.0,-22.860805,-13.873218,-20.602901,5.285033,-5.725467,25.534351,16.921126,45.809142,33.197268,23.150082,287.900073,-65.86195,69.371972
29,-0.544853,0.53056,-1.255589,-45.397977,0.0,-59.416866,-32.246017,-90.44014,-25.941467,-93.182487,-17.555351,-80.664082,-7.927208,-58.005352,0.0,25.686072,30.372187,53.891067,47.714296,69.309527,59.633608,80.585523,66.866928,85.070085,0.0,52.025528,39.954357,65.594158,46.070766,51.031494,48.643341,43.381863,49.175434,43.324127,0.0,-34.952184,-23.107498,-75.943899,-2.105874,-36.164036,19.358507,-1.361905,40.352011,18.051313,21.393013,292.996149,-68.329754,28.539512
30,-0.825806,-0.645601,2.182961,-50.340171,0.0,-59.018154,-32.896557,-91.388855,-26.494217,-93.414173,-17.878304,-80.474167,-8.191338,-57.960434,0.0,25.416717,29.780742,54.922298,47.5338,69.382886,59.905001,81.243226,67.42299,85.545192,0.0,52.480602,44.936886,104.687748,50.210838,75.737514,50.122147,51.320629,47.489777,45.128918,0.0,-33.305887,-25.291765,-61.532927,-3.873449,-24.186123,17.098782,5.504771,36.896674,22.81795,19.281607,295.48625,-67.432394,-18.664957
31,-1.237907,0.154994,-8.016357,-14.06239,0.0,-59.359703,-32.602215,-90.289993,-26.464577,-92.660637,-17.946167,-79.317284,-8.21434,-56.787415,0.0,24.705599,29.252961,54.357838,46.876158,68.773039,59.22198,80.322528,66.753801,85.091944,0.0,61.014862,38.573856,107.359257,46.039238,104.318562,51.225471,71.211491,54.051361,66.13409,0.0,-20.807264,-24.526214,-40.38233,-8.861153,-29.129028,8.597541,7.569798,25.494707,31.838327,17.093468,296.140974,-76.398983,-32.227617
32,-0.825462,-0.976645,-10.150566,-7.223193,0.0,-58.65921,-32.834129,-90.613289,-26.628456,-93.229065,-17.905083,-79.137669,-7.88166,-57.175026,0.0,26.291041,29.83749,55.174302,47.350648,70.081901,59.578403,81.300284,66.995554,85.556369,0.0,53.252335,36.314163,64.575748,48.356323,83.52911,56.236038,57.891884,60.934868,59.808598,0.0,-28.485434,-28.077233,-36.690952,-8.581146,-26.863189,11.037979,0.318725,28.591367,22.896713,14.88596,294.89607,-87.931595,-39.719069
33,-0.047493,0.478504,-9.698868,4.35572,0.0,-58.451099,-33.339329,-91.236362,-27.72892,-94.326782,-19.657288,-80.894222,-10.23983,-58.986168,0.0,25.16212,27.880002,54.01043,45.65103,68.952363,58.421262,80.234163,66.690383,84.682601,0.0,42.763138,41.231518,105.476589,52.702961,48.080292,58.483372,39.989719,60.783577,43.353252,0.0,-33.202919,-30.543452,-53.050798,-14.687829,-11.749899,4.373411,9.620467,22.373903,24.008221,12.734213,294.972471,-99.734716,-35.765453
34,0.127373,-0.303627,-6.1306,31.815865,0.0,-57.724686,-34.308758,-91.828136,-28.816853,-94.55761,-20.515823,-81.24939,-10.584641,-59.457264,0.0,25.534351,27.758416,54.163818,45.326531,68.436994,57.940412,79.519834,66.170012,83.888737,0.0,34.676142,46.010685,99.9963,56.669397,45.175867,60.395908,39.609861,60.884314,40.540552,0.0,-47.540098,-25.120361,-39.885147,-8.189633,-6.229428,10.804748,13.152699,28.809531,28.716273,10.130997,293.869161,-108.595905,-4.749271
35,-0.26825,-0.458744,-6.1306,31.815866,0.0,-59.039669,-33.925667,-92.088547,-28.531151,-94.732647,-20.43045,-81.607647,-10.975456,-60.793648,0.0,24.565117,27.309614,53.713349,44.92713,68.194932,57.684888,79.254925,66.076831,83.221401,0.0,26.589146,50.789852,94.51601,60.635834,42.271442,62.308445,39.230003,60.98505,37.727852,0.0,-61.877278,-19.69727,-26.719496,-1.691436,-0.708956,17.236084,16.68493,35.245159,33.424325,7.841806,293.253231,-116.747446,26.909409
36,0.472984,-0.432809,-0.174751,24.968872,0.0,-58.981419,-33.782043,-93.028107,-28.285446,-95.668774,-20.152016,-82.758923,-10.894318,-61.254845,0.0,23.773662,26.343158,52.414738,43.984201,67.450099,56.931657,78.320579,65.755605,82.464094,0.0,20.643482,48.063526,103.665447,52.658386,44.085846,51.611538,37.398205,48.868961,32.830753,0.0,-61.366108,-15.120762,-21.552191,0.793091,2.892173,15.398206,14.714043,28.908363,21.53666,6.812868,292.596794,-118.42412,51.654652
37,1.521378,-1.880362,-5.156822,18.030379,0.0,-60.398083,-34.606647,-93.968868,-28.977299,-96.78297,-20.358238,-83.949966,-10.349808,-62.586594,0.0,26.104801,26.994934,53.158213,44.792329,68.522024,57.785789,79.244736,66.53434,84.059169,0.0,23.944759,48.338299,114.566059,55.344086,42.057495,56.758575,41.880054,55.465164,39.040375,0.0,-66.392746,-15.150988,-29.835082,2.463811,-6.177079,17.643976,6.73521,31.442631,16.62741,5.883408,290.65763,-126.03178,69.626229
38,1.243401,0.223042,-2.885971,-0.518395,0.0,-60.279636,-35.747108,-94.641495,-30.358372,-97.31163,-22.169609,-84.182053,-12.410316,-62.479763,0.0,25.900655,26.980608,52.611413,44.62233,68.251742,57.513284,79.164769,66.211323,83.795124,0.0,29.434261,50.237446,116.57793,60.561733,42.99099,63.051167,43.603764,62.293739,41.600132,0.0,-66.579479,-16.809327,-33.970847,1.091037,-9.921315,17.320435,7.801763,31.788217,20.417619,6.018047,290.609249,-130.026512,68.836411
39,1.310349,0.254535,1.58123,-9.323911,0.0,-62.715683,-35.639992,-94.374561,-30.139503,-97.443752,-22.046242,-84.758492,-12.332497,-62.595062,0.0,25.500697,27.006975,53.471349,44.793811,69.058079,57.902065,79.474571,66.878475,84.65401,0.0,31.141949,47.051983,115.120182,58.556557,44.162922,62.479534,43.949089,63.102837,44.714584,0.0,-61.584736,-15.339142,-35.151268,1.71944,-7.011265,17.739844,8.650368,31.696023,22.03017,6.893005,290.697197,-128.880672,59.345913
40,-0.090866,1.43193,0.485859,-7.25308,0.0,-63.040924,-34.86414,-94.056358,-29.431,-96.725464,-21.481018,-83.542843,-12.041473,-61.254559,0.0,24.715541,26.59899,52.494149,44.761021,68.690417,57.981043,79.248132,66.706438,84.914041,0.0,31.858463,45.965252,113.869858,57.82196,45.699348,62.213688,44.651299,63.262253,45.821571,0.0,-58.934068,-15.772753,-34.357343,1.21003,-7.383559,17.259086,9.112817,31.430589,21.970148,6.409235,291.860312,-128.787718,51.824018
41,0.546112,0.565078,-0.978298,-4.278933,0.0,-62.338257,-34.830379,-94.645157,-29.174194,-97.449474,-20.978508,-83.913574,-11.349678,-61.802959,0.0,24.513679,26.751081,52.702989,44.683339,68.635151,57.793754,79.494146,66.448322,85.162463,0.0,31.653156,45.44529,114.655437,56.863632,48.049164,60.775738,45.690193,61.651039,45.383835,0.0,-59.283051,-18.036523,-33.149103,-0.880623,-5.962743,16.097869,10.462712,31.445255,24.159633,7.068529,292.197423,-129.652834,47.317118
42,-0.133781,0.214583,-2.398968,-1.753496,0.0,-62.098045,-34.570942,-94.084854,-28.586311,-95.938854,-20.258904,-82.929325,-10.611076,-61.224632,0.0,24.592287,27.53068,54.222913,45.4228,70.48192,58.453681,80.908169,66.980178,85.835851,0.0,31.601315,45.739517,114.260101,57.275105,45.928631,61.234417,44.723225,61.994705,44.735813,0.0,-61.303555,-17.902896,-34.58375,-0.450778,-6.279399,16.570044,11.094573,32.519743,24.970014,6.793871,292.09237,-132.192678,45.243987
43,-0.768929,1.220065,-1.312981,-0.438366,0.0,-59.818668,-35.706253,-93.040123,-29.734955,-95.743675,-21.12648,-81.596832,-11.053276,-60.449696,0.0,24.595498,27.178394,52.573375,45.137699,68.862516,58.057367,79.386885,66.408493,83.959565,0.0,33.821411,44.058552,115.881157,55.803452,46.61705,60.320034,45.220699,61.754436,45.473614,0.0,-59.946621,-17.177606,-34.420421,0.352687,-7.788302,17.175507,10.456537,32.775729,25.015339,5.900631,293.125732,-133.629971,44.618918
44,-0.129433,-0.14289,-0.787582,0.340029,0.0,-58.909378,-35.207977,-92.630081,-29.261055,-95.623856,-20.419121,-82.046642,-10.014381,-60.206966,0.0,24.291377,26.862602,53.131598,44.811595,69.731961,57.931643,79.941713,66.637957,84.80851,0.0,33.677788,44.770088,116.279755,56.256008,46.35601,60.386581,44.225006,61.493969,44.574623,0.0,-60.750549,-18.551985,-34.916184,-1.463516,-6.106591,15.548044,11.51673,31.634736,25.730223,5.79031,292.86249,-134.398441,44.838595
45,0.831757,0.117079,0.307789,0.294488,0.0,-60.347729,-35.282764,-93.122978,-29.361305,-95.986919,-20.734749,-82.436485,-10.553055,-60.879765,0.0,24.624644,27.152644,52.968948,45.070885,69.191213,58.150857,79.601962,66.777698,85.222485,0.0,32.080307,44.526787,114.785213,55.993767,46.406479,60.089321,44.537716,61.151676,44.211903,0.0,-61.376297,-17.693129,-34.76542,-0.191797,-6.895638,16.723864,11.337345,32.468583,25.583628,6.652536,292.838408,-134.060183,44.991921
46,-0.39402,0.193341,-0.195465,0.208655,0.0,-60.403118,-34.831009,-92.955322,-28.97644,-95.993099,-20.399208,-81.608448,-10.168762,-59.906101,0.0,24.108966,27.579278,52.768012,45.266757,69.323668,58.049154,79.778198,66.477715,84.562126,0.0,33.313751,46.06041,115.135403,57.136974,46.077919,60.648994,43.613491,61.149101,43.15155,0.0,-60.535689,-18.057148,-35.172479,-0.61102,-5.860639,16.287721,11.965007,31.951547,25.991489,6.308641,292.961044,-134.205523,45.129872
47,0.022202,0.033901,-1.299191,1.100392,0.0,-60.850811,-34.639778,-92.930603,-28.899994,-95.880547,-20.386734,-81.850033,-10.268097,-59.879894,0.0,23.996951,27.263918,52.571151,45.042788,69.090683,57.892123,79.773134,66.323647,84.553542,0.0,35.156422,47.179127,116.343956,58.76112,45.495987,62.494469,43.686047,63.032055,43.998127,0.0,-61.252148,-18.556555,-36.094073,-0.948517,-7.248078,15.903108,10.536071,31.475173,24.401169,6.368036,292.948153,-135.46752,46.183473
48,-0.007896,0.09596,1.278248,-0.755516,0.0,-61.093998,-35.086842,-93.574963,-29.145699,-96.066399,-20.463409,-81.993656,-10.13134,-59.999599,0.0,23.547779,27.125721,52.698666,44.986225,69.391223,57.948377,80.096274,66.579418,84.430474,0.0,33.27879,47.160244,114.836254,58.257179,43.069324,61.641598,41.94603,61.967525,42.977486,0.0,-61.353511,-18.178333,-34.616941,-0.747458,-4.934198,16.416903,13.237343,32.700517,27.538399,6.384687,293.015276,-134.164724,45.399119
49,-0.478249,-0.635782,0.784664,0.672277,0.0,-60.392075,-35.037975,-93.631496,-28.692741,-95.863323,-19.820023,-81.743488,-9.845123,-60.682068,0.0,24.443715,27.743225,53.078184,45.884817,69.771544,58.962937,80.633688,67.540995,84.990365,0.0,33.401642,48.168526,114.082375,58.898277,41.103001,61.779842,39.460144,61.902122,40.077896,0.0,-60.909248,-17.996633,-34.008854,-0.598948,-3.045932,16.524318,14.821427,32.562258,28.607823,6.046801,292.319087,-133.239698,46.010988
50,0.199356,0.276457,-0.760918,1.84078,0.0,-60.510921,-35.617676,-93.524723,-29.541092,-95.123978,-20.750771,-81.897068,-10.494804,-60.416164,0.0,24.730546,27.920881,51.781796,46.082789,69.274267,58.967074,80.356305,67.288498,85.740694,0.0,34.81636,47.926025,115.756187,59.036465,41.48838,62.44915,41.16188,62.697258,41.421661,0.0,-60.743479,-18.395602,-34.50718,-1.106969,-5.014967,15.987799,13.571413,32.299695,27.665852,6.263351,292.407035,-133.983421,47.66326
51,-0.069008,0.5221,-0.81934,2.45038,0.0,-61.270866,-35.774918,-93.659477,-29.84848,-95.427589,-21.28315,-81.822109,-11.136475,-59.645405,0.0,24.144164,27.475969,51.24043,45.878951,68.232908,59.022217,79.744914,67.465783,87.567703,0.0,36.150455,48.083553,115.786457,59.304428,42.56464,62.761974,42.701855,63.098774,42.537003,0.0,-62.773091,-18.078051,-35.454215,-0.773393,-5.04152,16.083327,13.072531,32.042351,27.05301,6.227789,292.708886,-134.769316,49.893391
52,1.04084,0.101271,0.539417,3.02963,0.0,-62.885227,-35.732231,-94.137497,-29.802475,-95.744247,-21.068001,-81.619091,-10.845222,-59.870052,0.0,23.15449,27.180741,51.506698,45.313749,69.019115,58.577182,80.523463,67.275777,87.870836,0.0,34.982471,48.984718,114.923172,59.926872,42.035522,62.977924,42.041874,62.946625,41.408558,0.0,-62.80937,-17.132806,-35.639652,0.690771,-6.449676,17.602356,11.798589,33.504045,26.240807,7.443895,292.726717,-134.054632,52.839581
53,1.376038,-0.209828,-1.123295,5.252212,0.0,-64.239292,-35.204372,-95.388222,-28.938904,-96.578236,-20.149956,-82.481174,-10.214195,-60.676861,0.0,23.095704,27.611758,51.956056,45.599036,69.339352,58.799175,80.873218,67.383717,87.741654,0.0,37.053738,49.378567,114.533215,60.147743,42.421246,63.246918,43.32922,63.246231,42.835007,0.0,-62.893937,-17.137252,-36.16663,1.146211,-7.421134,17.868748,10.943562,33.330804,24.585463,9.283819,292.380636,-134.714041,57.95554
54,1.488991,-0.947807,3.358784,6.293015,0.0,-66.131229,-35.116882,-96.529713,-28.633003,-96.972656,-19.95472,-83.788605,-10.570335,-62.137527,0.0,23.432985,28.591429,52.754303,47.124271,69.004233,60.507561,80.801896,68.957117,87.376709,0.0,35.716438,47.989197,114.367676,57.478523,40.217571,59.651756,39.970093,59.100952,38.654823,0.0,-62.275692,-16.623705,-35.66429,1.600262,-3.530271,18.810163,13.597749,34.877466,28.002021,11.345415,291.364533,-130.782652,64.18026
55,2.10537,-0.94015,-0.320263,10.494606,0.0,-66.297855,-35.866814,-97.140083,-29.874458,-97.552071,-21.664925,-84.616356,-12.848282,-63.25264,0.0,22.210141,28.496024,51.113533,46.898512,67.510861,60.297425,79.676989,68.902159,85.491222,0.0,39.204483,47.699661,116.932468,56.619301,41.519051,58.520908,43.181419,57.290268,41.314087,0.0,-64.618595,-12.075355,-36.090399,7.135445,-6.785228,23.135625,10.174801,37.248497,22.044341,13.613949,290.427949,-130.939751,74.678432
56,1.045303,-1.856094,1.920261,10.827163,0.0,-66.710644,-35.414658,-97.034168,-29.533653,-97.762356,-21.495667,-85.269985,-12.856865,-64.183559,0.0,21.347179,28.161893,50.127379,46.395308,65.759249,59.736361,78.916039,68.167391,85.720687,0.0,40.697937,45.272827,117.551079,52.626915,40.524445,54.059887,42.867851,52.343616,39.93948,0.0,-63.096386,-11.65678,-32.086317,7.535187,-3.407635,24.667159,14.11318,40.383195,27.189231,15.196037,288.524447,-128.482704,85.458186
57,1.32843,-2.126746,1.6852,12.079276,0.0,-66.630821,-35.633354,-96.73914,-30.073929,-98.660145,-22.142258,-86.625423,-13.31131,-65.242882,0.0,19.342267,28.279466,49.209644,46.613039,63.360924,59.975767,77.394879,68.536535,84.444615,0.0,49.119186,44.503899,116.517506,50.944691,39.321613,52.283936,41.767845,50.960884,38.783226,0.0,-56.894946,-10.484386,-26.171523,7.36102,5.508878,24.562338,20.673976,41.34363,34.116639,16.997766,286.050154,-126.324205,97.189915
58,1.13903,-3.054793,3.266315,15.351369,0.0,-66.56353,-35.184402,-97.698326,-29.588242,-99.79311,-21.865768,-88.681011,-13.474388,-67.672234,0.0,18.712598,28.025795,47.815505,46.537704,62.290728,60.021153,76.525557,68.711783,83.920971,0.0,53.254852,45.228539,115.386429,49.766006,42.323742,49.614258,42.838783,47.339115,39.207287,0.0,-54.731212,-7.022226,-21.587913,10.248222,11.160955,27.311188,25.491404,43.991457,36.561091,18.330917,281.74632,-122.86377,111.292243
59,1.369858,-2.633593,2.580872,19.573059,0.0,-67.591839,-35.554848,-98.824711,-30.352478,-101.235809,-23.219376,-90.499191,-15.440712,-69.295521,0.0,17.950227,27.08299,46.75735,45.753165,60.442909,59.330722,74.617963,68.265574,82.120206,0.0,55.764828,45.20565,113.836899,49.348183,48.355179,49.250221,47.608509,47.500534,43.736572,0.0,-51.921043,-5.704997,-20.713929,11.994771,7.604316,28.478549,24.716961,45.159929,35.516367,20.583773,277.884573,-119.3999,129.637148
60,-0.134811,-2.510154,2.333279,20.899736,0.0,-67.153587,-35.049706,-98.627815,-30.282097,-101.851788,-23.35247,-91.026306,-15.560989,-69.726334,0.0,16.555656,26.586455,45.540188,45.16172,57.773562,58.792259,71.910269,67.703399,80.325306,0.0,57.54364,45.831871,110.28059,48.586636,49.367065,47.823715,47.07962,45.600643,43.012505,0.0,-46.804034,-4.220085,-16.965987,12.928684,5.082121,28.508621,21.969747,44.13339,33.400242,21.897612,274.24593,-115.617971,149.408395
61,-1.08078,-2.176764,1.314926,24.954947,0.0,-66.742458,-33.871536,-97.397003,-28.838425,-100.544815,-21.994743,-90.440998,-14.425507,-69.309082,0.0,15.038387,25.263143,43.503103,43.492297,56.479953,57.036077,71.21039,66.04645,80.10776,0.0,65.569153,44.576855,105.339947,47.322979,59.167728,46.502552,55.71991,44.218941,52.575817,0.0,-41.768349,-1.425694,-15.051231,15.473295,-3.83291,28.971132,13.168028,42.11341,21.746828,22.537994,270.616982,-112.581882,172.911157
62,-0.822716,-1.30528,6.219864,24.132617,0.0,-65.930099,-34.663239,-97.157421,-30.173836,-100.121269,-23.691788,-89.93803,-16.083412,-70.124302,0.0,15.103533,24.853553,43.211333,43.622097,55.877886,57.506183,70.983766,66.490312,80.19421,0.0,64.992199,41.837997,101.719265,41.584454,62.846661,39.023495,54.340897,36.121788,53.994198,0.0,-41.35493,10.918337,-14.467442,23.546297,-11.614326,31.332159,1.626074,36.63195,9.202355,23.788748,268.052996,-104.288549,195.785069
63,0.950317,-0.156167,5.939713,19.25384,0.0,-66.715908,-35.437317,-98.896179,-31.388855,-101.378403,-25.228615,-91.311264,-17.838364,-71.779461,0.0,14.628364,25.181509,39.922506,42.948091,53.624058,56.026952,69.63384,64.53832,78.539732,0.0,65.775146,41.611748,93.632298,39.009933,72.473202,34.925995,63.435917,31.079235,59.021358,0.0,-38.529417,12.475497,-10.571609,23.306581,-11.251666,30.008909,2.286247,33.987365,12.214478,26.918564,266.95793,-96.169338,214.10001
64,-3.252869,-0.71365,3.923149,14.097125,0.0,-64.645901,-34.575348,-96.157951,-31.122093,-100.697594,-24.873962,-89.929619,-17.118759,-69.054508,0.0,-4.417192,26.03385,38.975687,43.634879,53.632209,56.790989,68.957858,65.776971,79.534778,0.0,65.925121,40.152683,95.002728,37.345505,90.376911,33.322906,73.528519,28.899879,63.075771,0.0,-32.206051,13.480671,-0.403292,25.605982,6.289526,33.529794,19.704495,38.351822,24.224748,25.889826,265.519639,-90.022058,227.472494
65,5.775261,1.363017,15.014591,17.235775,0.0,-49.253311,-36.302376,-65.032482,-35.256386,-103.495445,-30.520706,-95.786362,-23.373528,-77.579556,0.0,-6.852196,17.057502,9.103307,36.189385,45.578844,51.067035,64.724127,61.088448,76.655479,0.0,58.973007,44.930077,95.329285,48.536625,80.957336,47.528515,57.730751,43.158131,49.136066,0.0,-27.507709,25.766409,15.449953,48.912254,34.537438,66.532302,63.528083,78.052953,84.821045,32.735825,266.015356,-73.936729,243.840969
66,-6.889458,1.387964,-4.401169,9.387236,0.0,-64.566021,-31.047134,-56.449814,-28.69091,-66.889172,-25.064621,-76.800728,-19.735222,-74.48616,0.0,-2.024117,18.864689,8.015759,36.277873,27.406685,50.764705,51.359053,61.286666,70.77295,0.0,67.965431,34.692364,105.607567,33.946266,103.298149,32.04546,91.910362,28.797455,76.311607,0.0,-20.388936,23.963421,22.084911,44.999192,36.139367,59.329672,52.252952,67.877411,64.948775,26.702471,267.040135,-77.481794,252.865019
67,-0.990944,1.036728,1.648579,6.1743,0.0,-56.117821,-18.838234,-63.59642,-21.020966,-74.692154,-22.675095,-80.407734,-21.981697,-70.276222,0.0,-2.116495,19.904566,5.906797,38.131559,31.271952,51.665952,57.125306,61.30618,76.543711,0.0,70.807285,33.020382,103.740978,29.025078,94.750957,24.685879,84.113445,20.400066,67.124691,0.0,-15.125455,28.35017,33.583517,47.876453,42.411356,59.867518,54.391307,65.508851,67.379641,26.334829,268.33816,-75.209913,259.300616
68,-4.848404,5.041859,4.813213,6.750185,0.0,-46.513309,-23.851891,-43.885231,-21.514549,-47.561016,-17.687187,-51.700516,-12.051086,-52.440376,0.0,-0.454483,14.186231,13.37094,30.316365,31.616705,43.878237,48.227381,54.3579,67.553469,0.0,70.584412,31.372948,101.513672,24.683876,96.751099,18.53714,85.169792,13.387642,62.471352,0.0,-12.585722,30.394788,38.511756,49.50759,51.703805,61.138589,63.069895,66.371442,72.00203,22.354116,273.766299,-69.529009,266.437081
69,-10.93277,-3.816175,1.852341,3.831057,0.0,-41.879482,-41.17012,-18.544807,-48.03051,-16.325569,-48.084927,-21.130142,-46.49374,-26.940022,0.0,3.901268,29.549301,25.699657,52.145012,38.386217,67.368403,50.381729,77.139479,62.389529,0.0,72.133713,31.376953,101.582451,24.087925,97.675552,17.707443,87.995224,12.24472,67.661018,0.0,-10.107925,32.189378,40.783554,50.76878,56.205842,62.466346,69.415367,68.382097,76.477576,12.649755,270.273325,-66.448259,270.59134
70,-1.188354,9.469549,1.704311,2.299462,0.0,-22.42115,-34.655743,19.42543,-45.153008,16.251526,-48.99559,2.764778,-48.413429,-28.867264,0.0,-1.134787,19.234204,36.723835,40.47758,49.198097,55.544928,57.982278,67.265959,64.536282,0.0,72.357845,32.040253,101.405239,24.463406,98.231449,17.53355,86.563625,11.507893,65.382328,0.0,-5.820964,34.83526,46.844542,52.828589,61.113086,63.708209,72.971079,69.254075,79.835873,13.230114,280.385356,-62.975235,273.533284
71,-18.541203,1.270762,2.576008,3.255729,0.0,-6.922932,-17.643471,35.518169,-25.933628,39.798374,-32.230911,31.32494,-37.164917,9.085522,0.0,-5.691412,15.726904,33.370417,37.134043,48.727312,54.108428,57.901756,69.09303,65.444816,0.0,72.270927,31.616135,100.686836,24.395943,97.311745,17.629967,84.914246,11.702385,65.231438,0.0,-8.555273,33.398513,47.887506,50.644415,62.122211,61.42437,73.705848,67.425337,79.286479,-3.515196,282.168384,-58.603334,277.301278
72,-15.373135,16.66409,4.166679,1.546848,0.0,27.177773,-2.229538,57.182808,-9.11087,56.071014,-12.983437,42.557144,-14.366627,18.254356,0.0,-29.840948,8.85186,24.742155,29.946974,37.114838,45.837701,46.275882,58.19859,51.904494,0.0,71.753426,31.228466,98.619576,23.210106,94.116783,15.496731,81.497498,8.986874,62.58625,0.0,-6.253341,33.394191,51.402772,50.890429,64.828361,62.13487,75.399538,68.382097,79.207747,-17.191887,299.181394,-52.740211,279.197047
73,2.314453,-13.031992,1.323109,2.121682,0.0,18.161545,1.478176,55.7024,-4.822254,57.114372,-12.456379,49.853897,-19.953461,28.068008,0.0,-9.115843,18.535436,35.450109,38.112293,51.154288,52.59474,59.625148,64.072536,66.868533,0.0,72.208157,31.429424,96.726322,24.37088,95.890331,17.245617,83.242321,10.768833,63.682537,0.0,-7.731831,32.271692,48.729041,49.515556,61.529593,60.973345,73.562401,67.835421,78.899057,-13.821001,286.388839,-50.36067,281.558167
74,1.965237,5.147206,0.568027,1.446442,0.0,16.443157,-1.272469,54.147091,-9.258442,55.312328,-17.156124,43.923855,-25.502129,22.278728,0.0,-12.72534,14.823186,32.132074,34.560903,47.773947,49.887726,55.615015,62.388849,64.407717,0.0,71.439171,31.578197,96.394157,23.250332,93.813057,15.253258,81.396217,8.475723,62.072868,0.0,-5.6677,32.599895,52.480502,49.972385,63.585325,61.312725,73.532205,67.656098,78.513982,-11.101742,291.829869,-49.03862,283.298432
75,2.372131,1.606746,-0.787239,1.133676,0.0,12.551937,-2.332249,50.725651,-9.668026,52.584743,-17.340832,43.965282,-24.995441,20.459232,0.0,-14.871043,15.060864,30.522364,34.095922,47.43043,48.721446,54.673691,60.778028,62.209279,0.0,70.923958,31.079807,96.314507,23.303719,94.474068,15.464516,81.769638,8.477383,62.647247,0.0,-6.509852,31.766017,51.650268,48.538726,63.336718,59.674981,73.87739,66.36218,78.153606,-7.663794,293.93616,-48.760042,284.931653
76,-0.474186,-0.526299,0.100422,-0.696915,0.0,10.842247,-2.346668,49.664726,-8.745918,54.056168,-16.281738,47.759514,-23.433552,21.459618,0.0,-13.760153,15.556781,30.925841,34.93227,48.893853,49.797508,55.950628,62.283812,63.500666,0.0,70.790462,30.995693,94.843998,22.842865,93.235302,14.530449,79.92548,7.060776,60.258007,0.0,-4.161854,33.37054,53.761144,50.024194,65.418016,60.801185,75.322288,66.98271,78.981494,-7.333345,293.646998,-47.854986,284.471875
77,8.793411,0.066011,0.176868,0.190253,0.0,1.27327,-11.301498,39.644279,-19.247074,44.73278,-26.942539,37.654953,-33.994503,10.860558,0.0,-10.10916,14.885246,33.322437,34.008422,48.964804,48.811663,56.001696,61.367312,63.937241,0.0,71.045036,29.959316,94.395447,21.765518,92.422485,13.576012,79.355507,6.275082,59.817581,0.0,-3.780731,33.419508,52.557566,50.558706,65.01034,61.717499,75.253004,68.244024,78.84058,2.04051,294.069417,-47.097673,285.018536
78,-10.745316,6.765499,-0.336285,0.586073,0.0,26.962738,-7.284565,45.775566,-15.163937,49.131203,-17.957668,36.663666,-17.515354,15.596237,0.0,-11.444142,10.594642,25.529288,33.569315,40.572923,50.13763,48.659819,62.429852,55.096188,0.0,71.379261,29.632187,94.899044,21.306324,92.504826,13.009815,79.48225,5.655842,60.468235,0.0,-4.409473,32.235753,51.858984,49.312521,63.9859,60.647982,74.901521,67.444232,78.810939,-8.347034,301.142371,-47.076187,285.912065
79,-2.023258,-0.179261,-0.300293,0.443553,0.0,27.212276,-5.959053,49.145222,-12.147732,52.345219,-14.921494,39.601192,-15.112553,7.337608,0.0,-11.939566,11.996314,32.654853,31.907055,46.369311,46.695847,52.93659,58.539885,56.955307,0.0,71.611004,29.263401,94.118557,20.996418,91.462154,12.928276,78.87022,5.852337,60.372677,0.0,-4.360938,32.537898,52.092895,49.641156,63.70543,60.933763,74.266356,67.703831,78.50441,-10.076551,301.009917,-47.082739,286.402425
80,2.679577,2.723502,-0.178127,-0.025009,0.0,27.431259,-4.112778,45.356255,-10.810776,47.612228,-14.53783,33.699989,-16.467075,3.801785,0.0,-18.973061,9.48863,31.661536,28.236734,43.814696,42.921044,50.893269,54.637135,53.944048,0.0,71.361122,28.090382,93.568153,20.211239,91.837921,12.876148,80.197678,6.559067,61.91391,0.0,-3.975677,32.137014,51.745795,49.68185,63.485537,61.421159,74.281855,68.375428,78.307735,-7.154646,303.615568,-47.018538,286.259565
81,0.353165,3.256099,-0.348129,-1.120276,0.0,23.086395,-4.715137,45.736771,-10.376358,47.832298,-13.302727,32.807007,-14.170189,5.998993,0.0,-20.333052,7.896149,26.687725,27.208899,40.278435,41.693261,46.434581,53.076332,50.585752,0.0,70.699768,28.897934,93.786278,20.599251,91.447906,12.716846,79.220238,5.913277,60.971947,0.0,-2.669223,32.557658,52.83569,50.269899,64.621868,61.924919,75.819255,68.659789,79.745902,-6.727982,306.792766,-47.293167,285.060387
82,5.820637,-13.450845,0.102596,0.235084,0.0,0.491409,-5.292892,39.79208,-12.230873,43.167515,-21.286983,35.733662,-29.690151,1.528187,0.0,-11.758205,17.549035,34.960181,36.153075,50.517642,49.64906,55.962422,60.577895,63.936315,0.0,70.911541,28.549747,93.182659,20.54678,91.593647,12.922497,79.25005,6.287155,60.825863,0.0,-2.634643,32.089219,52.421036,49.813749,64.237286,61.596777,75.414667,68.462064,79.266657,-0.887747,293.315785,-47.170973,285.269335
83,-2.91172,-0.480542,0.500908,-0.478133,0.0,7.205257,-3.423615,43.335056,-10.942154,45.46114,-20.124092,37.52615,-28.643475,8.974972,0.0,-12.036884,16.939991,33.254573,35.975296,49.698522,50.209445,55.821323,61.885275,63.3382,0.0,70.309696,28.147259,92.712078,19.931488,90.967884,12.064991,78.344822,5.220051,59.786282,0.0,-1.484542,32.010611,52.53651,49.584469,64.593586,61.240539,75.999814,68.028762,80.133757,-3.76442,292.823418,-46.635017,284.779377
84,7.431335,0.655789,0.416908,-0.133875,0.0,-7.024498,-13.009644,35.282421,-20.591869,38.290157,-29.291954,29.878407,-36.733475,-2.161045,0.0,-12.339523,17.410405,34.768631,35.969491,49.112079,49.436886,55.829474,60.412034,62.9078,0.0,69.524975,27.609386,92.305355,19.248562,90.789471,11.250858,78.081036,4.286613,58.715458,0.0,-0.769657,32.009993,52.376699,49.575639,64.907525,61.199228,76.204454,67.947498,79.967648,3.804789,293.49378,-46.080236,284.660075
85,-8.95174,11.459024,-0.818882,0.252559,0.0,23.706093,-1.949329,41.241302,-10.88316,35.460205,-16.433544,19.850922,-19.061737,-5.434971,0.0,-16.151747,10.608721,22.382548,31.098495,36.463495,45.876666,44.054288,57.644504,51.088709,0.0,69.600449,27.93417,93.944092,19.897671,92.112694,12.076778,78.95462,5.055542,59.268723,0.0,-1.522271,32.167025,52.882744,48.833646,65.635192,59.919698,76.258177,66.366194,79.754115,-5.072508,304.967454,-46.824675,284.927284
86,-1.375008,2.903196,0.571518,0.191612,0.0,24.805412,-1.739044,44.785538,-9.111729,36.995087,-13.294888,22.863579,-15.497131,2.254028,0.0,-24.38709,6.701649,22.175931,26.202738,32.280213,41.137322,39.947083,53.111344,45.498815,0.0,69.614067,27.807426,93.496857,19.565163,91.493912,11.388416,78.513794,4.068947,58.551521,0.0,-1.806323,31.732302,52.07332,48.429613,65.142362,59.619591,75.533042,66.198047,79.301361,-6.510572,307.879666,-46.316214,285.127912
87,12.184181,-14.597612,-0.163193,-0.335984,0.0,-6.350555,-13.482342,34.390182,-21.080017,37.522545,-29.536457,28.401718,-36.648216,-2.657433,0.0,-13.274239,17.147966,35.592443,35.705447,49.842401,49.050699,56.850517,59.788663,62.904959,0.0,70.44239,28.075218,93.730888,19.633312,91.681824,11.250858,78.591156,3.690777,58.416138,0.0,-1.498497,31.438802,51.970814,48.199408,65.031273,59.3758,75.683219,65.788642,79.628947,5.694122,293.302199,-46.458893,284.812074
88,-13.947029,8.690012,0.242271,0.155796,0.0,27.588272,-3.987694,45.795364,-12.066078,42.468567,-16.150646,30.038795,-17.435017,11.239471,0.0,-14.210746,10.222842,25.216089,31.609604,38.227087,47.247031,46.999103,59.503747,52.813275,0.0,70.225067,27.740421,93.215561,19.41679,91.396637,11.206913,78.223572,3.810425,58.039742,0.0,-1.53987,31.275719,51.635571,47.937771,64.856705,58.982141,75.140557,65.33595,79.355825,-8.324547,301.986144,-46.288261,284.961803
89,1.428051,4.58645,0.784721,-0.307455,0.0,27.447109,-3.600082,46.800556,-10.89735,43.441486,-14.690666,31.801243,-16.523895,12.171421,0.0,-24.081611,6.708565,23.729695,26.645488,34.483221,41.850848,42.966616,54.147393,47.895102,0.0,69.757233,27.719021,93.235016,19.340172,91.390343,11.064205,77.794304,3.688545,57.86808,0.0,-0.777623,31.558845,52.640868,48.211449,65.660386,59.37932,75.604179,65.946229,79.630182,-6.923761,306.558562,-45.530806,284.640315
90,18.844814,-11.687747,0.77219,0.469797,0.0,-14.468536,-19.691448,28.442574,-26.731682,34.408607,-33.562374,27.113342,-39.084492,-1.062584,0.0,-12.786967,15.336456,32.741674,34.130132,47.619448,48.211758,54.500173,59.913028,60.911471,0.0,69.609089,27.126389,93.032742,18.777809,90.949116,10.741367,77.214718,3.773689,57.728863,0.0,-1.468548,31.357291,52.342304,48.245412,65.255983,59.516961,74.898063,66.197677,78.871146,11.904287,294.85144,-44.775381,285.090738
91,-20.200539,15.010537,0.090866,-0.11183,0.0,24.872589,1.688175,52.460976,-6.002541,53.858414,-11.293316,39.419518,-15.470467,17.513695,0.0,-29.069068,2.76506,15.860099,21.837169,32.456511,37.690908,41.777056,50.683565,45.696416,0.0,69.393368,27.18195,93.029194,18.770428,91.634502,10.581779,77.595921,3.316212,57.572308,0.0,-1.670966,30.974933,51.842003,47.757275,64.74364,59.047164,75.117709,65.770611,79.284318,-8.290672,309.781933,-44.678936,284.898864
92,35.226631,-16.067889,0.331478,0.178582,0.0,-29.987583,-37.638874,15.610428,-46.15242,21.108742,-50.594215,14.149361,-52.203426,-11.153297,0.0,-9.559396,16.637043,33.792295,36.404894,49.57249,50.738461,56.033312,62.138513,61.618513,0.0,69.013252,27.576485,92.963219,19.189911,91.186066,10.981522,77.454414,3.732548,57.585411,0.0,-0.794851,31.034028,52.254125,47.974142,64.982861,59.457743,74.773142,66.409542,78.739247,26.927376,293.623333,-44.356041,284.986735
93,-32.141876,18.610401,-0.391388,0.083672,0.0,25.232849,4.519958,49.741058,-4.061565,53.02597,-11.167717,39.144173,-16.900749,11.104317,0.0,-34.900345,1.252978,13.443188,19.153619,32.56445,34.014226,40.603366,45.77873,44.570953,0.0,69.872131,27.607155,93.304253,19.416561,91.940575,11.302414,77.988396,3.929272,57.808228,0.0,-1.329857,30.695142,51.710289,47.610988,64.231791,58.957564,74.473035,65.596289,78.517193,-5.213413,312.151883,-44.746342,284.988556
94,32.768898,-18.126525,0.453529,0.081017,0.0,-29.584179,-37.508526,15.469093,-45.948029,20.025902,-50.178394,12.130623,-51.583672,-15.620384,0.0,-11.088768,17.548417,33.451001,37.441004,48.102459,51.835766,54.972934,63.281266,61.167426,0.0,69.92878,27.845078,93.624573,19.484539,91.458321,11.238785,77.776451,3.925953,57.679482,0.0,-0.893528,31.395638,52.078815,48.430169,64.615075,59.77372,74.68984,66.432884,78.554181,27.50001,294.006293,-44.348288,285.050507
95,-28.184624,16.203864,0.296173,0.267009,0.0,19.303093,-3.664341,45.286903,-12.094402,48.669777,-17.61755,37.481689,-21.158752,13.168488,0.0,-30.636849,1.612365,15.27063,19.347083,35.957944,34.100554,43.917017,45.743841,47.607159,0.0,69.540024,27.545242,92.951889,19.249535,91.564407,11.135731,77.612915,3.785992,57.068138,0.0,-0.962751,30.248439,51.720478,47.354847,64.663364,58.961208,74.534353,65.920726,78.677003,-0.730934,310.208814,-44.098434,285.316173
96,35.909958,-15.463353,1.130104,0.178212,0.0,-37.888355,-43.999786,7.627144,-53.915863,10.57972,-58.658409,0.565681,-60.110722,-26.578674,0.0,-11.623033,15.473974,34.260055,35.471474,48.527858,50.145348,55.466443,61.752697,60.772532,0.0,69.156532,27.19099,92.503052,18.84819,90.71537,10.562553,76.43177,3.079491,55.653419,0.0,-0.887786,31.0034,51.788156,47.85058,64.75142,59.090575,74.166876,65.825816,78.216283,35.086098,294.741879,-43.061256,285.490803
97,-42.462387,12.149332,-0.170345,-0.802632,0.0,29.481468,1.696873,47.874985,-6.066227,53.278885,-11.986084,43.85376,-17.123222,20.341187,0.0,-23.774094,2.86843,19.456011,22.461898,37.923151,37.91889,46.622611,50.211977,50.090884,0.0,69.690456,27.477207,92.621899,19.465256,91.183605,11.628342,77.174549,4.592915,56.662502,0.0,0.965838,31.737736,52.845817,49.052798,64.898016,60.590801,74.672859,67.360993,79.005083,-7.394228,306.881007,-43.24954,284.677967
98,30.148544,-14.67622,0.097446,0.227056,0.0,-21.303692,-34.822598,21.028862,-43.000088,25.291328,-47.587624,16.553879,-49.933777,-8.160095,0.0,-9.897171,15.387091,35.219718,35.582687,51.264883,50.799779,59.003815,63.699749,63.874564,0.0,69.492989,27.81292,92.861938,19.843197,91.559143,12.059441,77.683983,5.187836,57.616882,0.0,0.777499,31.663574,52.927513,49.257439,64.903759,60.946298,74.705834,67.715193,78.746966,22.697811,292.214342,-43.208599,284.914579
99,-38.520584,23.862829,0.286217,0.064529,0.0,39.372253,11.062145,64.813728,4.653854,66.393127,-1.031113,55.197716,-5.842438,33.128586,0.0,-40.094357,-4.93534,1.593346,13.081146,26.763123,29.166634,36.791945,42.593767,42.0947,0.0,69.37809,27.379932,92.66922,19.327068,91.43795,11.568489,77.548256,4.684353,57.049255,0.0,0.05502,31.541493,52.239984,49.255154,64.220181,60.948706,74.31341,67.691296,78.642422,-15.877676,316.050804,-42.977285,284.952741
100,33.749313,-22.454055,0.19186,0.347037,0.0,-14.944267,-29.061584,25.614624,-36.620064,29.59362,-41.325474,21.163559,-44.572563,-2.05101,0.0,-11.363681,13.565825,31.426946,33.663793,48.498712,49.466711,57.257143,63.074711,62.307586,0.0,69.378719,27.771149,92.461338,19.804688,91.293125,11.960335,77.574863,4.783916,57.060528,0.0,-0.212236,31.031805,52.36824,48.556695,64.115453,60.272169,74.153847,67.160119,78.380601,17.826891,293.577004,-42.830172,285.280034
101,-35.315552,23.428106,0.285358,0.141285,0.0,39.719582,15.426579,71.74839,8.625355,70.073318,1.841984,56.357002,-4.755192,34.376335,0.0,-41.557595,-5.927052,-3.36268,11.668728,25.205468,28.148864,36.104169,42.220733,41.743032,0.0,69.03614,27.428627,92.701836,19.472122,91.506386,11.527634,78.035088,4.190598,56.954842,0.0,-0.258117,30.827658,52.178851,48.197926,64.300704,59.719626,74.005646,66.494696,78.495703,-17.552462,316.992236,-42.608614,285.408444
102,42.999802,-22.968868,0.411873,-0.282508,0.0,-21.607132,-34.700089,19.542961,-43.830986,23.143845,-48.753605,13.353195,-51.546078,-10.191193,0.0,-11.379675,13.502592,32.30868,34.071469,49.602933,49.710872,57.716381,62.802577,61.951533,0.0,68.807373,27.187386,92.127914,19.154205,90.823517,11.235008,77.549629,3.96698,56.618156,0.0,-0.089476,31.278066,52.346071,48.59918,64.155035,60.056907,74.226836,66.679947,78.809396,25.266638,294.021792,-42.377443,285.124361
103,-38.250446,16.840511,-0.215092,-0.05397,0.0,34.445171,9.312973,58.383923,1.430569,62.691479,-5.236187,51.667156,-10.677338,31.100979,0.0,-29.823535,-2.998477,8.325191,15.789889,31.683457,32.558337,41.818552,46.38765,47.143352,0.0,69.35194,27.314987,92.667332,19.108944,90.733967,11.141338,77.554951,3.938713,56.636639,0.0,0.154747,31.309311,52.460742,48.668278,64.533627,59.999109,74.714355,66.411704,79.267831,-13.099508,310.849783,-42.708235,285.057871
104,51.110859,-18.356607,0.521164,0.134492,0.0,-32.4757,-44.548702,3.216705,-52.754631,6.658516,-55.520554,-1.229095,-55.195255,-20.265427,0.0,-8.27721,15.34788,33.933333,35.614241,51.14305,50.67282,58.218597,62.24139,63.789287,0.0,69.359493,27.29147,91.791172,19.168167,90.057278,11.212978,77.078304,4.012527,57.050228,0.0,0.552666,31.630105,52.904974,49.039151,64.667872,60.510402,74.618333,67.22366,79.14433,37.907953,292.494072,-42.290468,285.193259
105,-36.160984,13.999806,0.237064,0.465536,0.0,19.616489,-3.067303,41.677608,-12.186241,44.655247,-17.522278,35.772572,-21.437588,14.974422,0.0,-19.83732,1.711845,17.468945,19.800455,37.750188,34.551393,47.39764,46.469593,51.79427,0.0,69.202309,27.754955,91.598282,19.563274,89.533539,11.458168,76.54232,4.027863,56.610947,0.0,0.596447,31.26059,53.026376,48.678714,64.718322,60.267291,74.327983,67.136283,78.721216,1.518002,306.505456,-42.282372,285.670373
106,13.530064,-11.926845,1.018639,-0.004323,0.0,-8.07106,-17.361031,30.819855,-25.115089,31.543236,-32.246876,22.144775,-38.823967,0.86483,0.0,-11.615746,11.8018,30.606715,31.571689,49.046376,46.701281,58.095529,59.160229,62.969859,0.0,69.540596,27.024994,90.898132,18.750973,89.37355,10.734158,76.223602,3.511448,55.912857,0.0,1.088845,31.783493,53.533593,49.291587,64.614458,60.776608,74.02732,67.324436,78.668172,14.786024,294.57398,-41.525774,285.66142
107,-14.772148,7.726891,-0.047493,0.1658,0.0,24.000206,-8.814926,42.688179,-17.096272,46.883354,-20.687313,35.125465,-21.769009,14.448738,0.0,-13.778308,6.113847,22.196865,27.139862,44.145123,43.844028,51.929626,56.891828,55.075192,0.0,69.572296,27.539921,90.892181,19.268417,89.809456,11.133099,76.354752,3.714123,56.269684,0.0,1.425632,31.750024,53.267017,49.314929,64.758028,60.996686,74.248695,67.773609,78.904244,-0.334454,302.239476,-41.921597,285.765824
108,-12.682858,5.995903,0.705128,0.703831,0.0,39.942455,9.202995,57.339535,0.639954,60.483227,-6.648502,49.778194,-12.761478,28.146229,0.0,-25.876448,3.134389,19.929328,20.623403,37.994226,35.620169,46.567221,47.1013,51.822057,0.0,69.369221,27.521439,91.660366,19.132175,89.955311,10.849285,76.283054,3.31913,55.94038,0.0,0.185869,31.744467,52.479514,49.277261,64.131323,60.724305,73.453844,67.244778,78.424752,-13.449697,308.167021,-41.648855,286.401298
109,45.184078,-13.096583,-0.780087,0.038594,0.0,-29.680023,-39.618645,12.060242,-50.91671,12.61734,-57.331409,1.386795,-60.1371,-25.857124,0.0,-10.322014,12.927325,34.596718,33.111991,48.486856,48.015083,56.666933,59.879066,62.267386,0.0,69.331055,27.064133,93.454742,18.989582,92.471466,11.339378,78.329887,4.490147,57.76989,0.0,0.601264,31.432627,52.283209,48.943315,64.476013,60.578821,73.799152,67.039211,77.593406,31.326313,294.85337,-42.837009,286.222824
110,-33.892136,10.409576,0.791302,0.063232,0.0,21.688728,-1.744366,49.428749,-10.907593,50.680962,-17.242298,36.581726,-21.865768,14.630585,0.0,-23.278362,4.131844,24.365354,24.522756,41.460215,40.317461,48.408803,52.507919,52.333783,0.0,69.525089,26.852131,93.058605,18.721733,92.120075,11.018314,78.267803,4.210224,57.918606,0.0,0.447876,32.152205,53.393482,49.640909,64.935375,61.126424,74.013859,67.399401,77.802617,-2.996778,305.206444,-42.476664,286.229554
111,28.813934,-11.558874,-0.181217,0.292388,0.0,-23.246155,-36.621151,19.974976,-47.538414,21.264725,-53.760567,9.841347,-56.701756,-16.663971,0.0,-9.724393,14.113798,35.990981,34.190586,50.242976,49.243175,58.491596,61.34922,63.050937,0.0,70.124931,27.538376,93.823357,19.286213,92.855644,11.537418,78.588524,4.655056,57.969017,0.0,0.204023,31.365566,52.678041,48.94066,64.813665,60.598458,73.291502,67.147151,77.216852,25.245037,293.525798,-43.23,286.400171
112,-37.120056,11.642917,1.022644,0.649059,0.0,33.060837,3.614902,55.865364,-4.66301,57.34005,-10.793839,45.042,-16.163406,26.223907,0.0,-20.640507,4.304621,28.854239,24.660089,40.388598,40.955899,48.654199,53.748917,53.425962,0.0,70.163155,27.184353,92.750015,19.175434,91.714211,11.458168,77.843513,4.563789,57.045021,0.0,0.566869,32.158812,52.562321,49.530005,63.996213,60.947224,72.791447,67.331414,76.958921,-12.530708,305.077941,-42.863045,286.958456
113,31.150932,-11.298102,-0.654259,-0.097072,0.0,-18.099632,-30.164051,27.361794,-39.596157,29.975739,-45.466518,19.585075,-49.207363,-6.037216,0.0,-10.253162,15.936299,33.368564,35.952819,48.394601,51.231415,56.797226,63.867587,63.331717,0.0,70.367661,28.186512,94.203758,20.240421,92.892609,12.576027,78.89843,5.731544,58.496361,0.0,1.011966,32.383954,52.874346,49.870435,64.797239,61.307044,73.577901,67.633127,76.805224,17.834845,293.788685,-44.302683,286.87023
114,-29.045563,13.583547,0.190544,-0.022724,0.0,33.707771,1.621628,52.0158,-6.085796,55.292244,-11.221275,45.935669,-14.837494,26.948776,0.0,-21.752077,4.151418,22.741195,24.073089,37.870046,40.284178,46.576298,53.738975,51.79853,0.0,70.560493,27.897892,94.009438,19.96273,93.537369,12.228413,79.256744,5.281792,58.470268,0.0,1.126698,32.195306,52.804198,49.562857,64.878997,60.925303,73.673861,67.185127,77.084151,-11.910439,307.315421,-44.811859,286.790696
115,29.762535,-15.145338,0.437737,0.249225,0.0,-13.475876,-32.087231,26.146317,-41.124401,29.406281,-46.007366,19.257317,-48.957653,-4.556808,0.0,-9.218596,18.261326,34.739115,38.404001,49.936323,53.516242,58.460288,65.841747,64.536899,0.0,71.093674,27.969475,94.062881,19.995747,93.665657,12.183723,79.453125,5.272007,59.02668,0.0,1.324485,32.274903,53.257816,49.614604,64.870784,61.062698,74.09469,67.413542,77.459285,16.851025,292.167042,-45.375195,287.036879
116,-32.845688,15.686889,0.470867,0.077929,0.0,36.578407,5.566921,55.697708,-1.785851,57.608528,-7.067471,47.089233,-11.216869,28.490868,0.0,-22.075402,2.03023,21.115677,22.372545,36.373524,39.150502,45.476153,53.214961,50.922539,0.0,71.095676,27.933083,93.821583,19.827518,93.317585,12.073746,79.182072,5.341702,59.126072,0.0,1.761925,32.672699,52.787772,50.287992,64.211907,61.785795,73.367085,68.11972,76.488136,-17.033587,307.929683,-45.943251,287.190561
117,40.308952,-15.742959,-0.070553,-0.381803,0.0,-19.903107,-38.833637,16.046219,-48.147068,20.567551,-52.176247,11.609001,-53.389034,-11.723785,0.0,-7.937336,19.033823,35.980421,38.843232,50.809536,53.61356,58.839312,65.628955,65.4986,0.0,71.225281,28.356228,94.068146,19.991341,92.903481,12.009144,78.974876,5.111046,58.969345,0.0,1.545922,32.761743,53.358654,50.272616,64.872266,61.621971,74.191144,67.767249,77.48701,22.396088,292.291839,-46.893082,286.913872
118,-36.952629,17.222993,0.53009,0.308999,0.0,35.680161,6.582069,53.792953,-0.758286,57.175369,-6.817932,45.838394,-11.797256,26.076622,0.0,-23.835597,2.748881,20.79513,22.221503,35.554652,38.231718,45.337955,51.193562,50.667078,0.0,71.231346,28.545971,94.534721,20.392227,93.54435,12.39996,79.066887,5.27916,58.646965,0.0,1.745622,32.761125,53.107763,50.080634,64.761856,61.35558,73.934139,67.617627,77.435943,-15.292311,309.54864,-47.098761,287.25668
119,42.156372,-14.526661,0.760574,-0.180496,0.0,-28.003922,-41.63229,11.242676,-50.054398,15.445862,-53.044395,6.508827,-53.135605,-15.032959,0.0,-9.299612,20.064561,35.222373,39.748493,49.796582,54.046122,56.639083,65.102842,63.646088,0.0,71.037254,27.778702,94.008293,19.431438,92.761345,11.346302,78.627548,4.214516,57.889366,0.0,2.111123,32.945512,53.636593,50.242111,64.896101,61.406586,74.247152,67.458373,78.18584,26.18434,294.992494,-47.017908,287.046697
120,-34.734478,17.875695,-0.377426,-0.085771,0.0,25.930309,2.655087,46.317616,-5.320187,49.469318,-11.011677,38.106937,-15.473099,17.104855,0.0,-30.657659,1.900986,20.210663,20.660885,35.423556,35.441958,43.081533,47.111242,46.774455,0.0,70.42408,28.362923,93.96801,20.195045,93.801041,12.210674,80.000038,5.040607,58.994637,0.0,0.990044,32.962555,53.102761,50.309357,64.613717,61.586773,74.495635,67.794542,78.615993,-8.982067,312.897674,-47.827263,286.990412
