takenoko1/special-research/HandMotion_SimilarSearch_自分用/NewProject/handData/test_key/d4_feature_d2/13.csv
frame,vel_0x_L,vel_0y_L,vel_0x_R,vel_0y_R,posFromWrist_0x_L,posFromWrist_1x_L,posFromWrist_2x_L,posFromWrist_3x_L,posFromWrist_4x_L,posFromWrist_5x_L,posFromWrist_6x_L,posFromWrist_7x_L,posFromWrist_8x_L,posFromWrist_9x_L,posFromWrist_0y_L,posFromWrist_1y_L,posFromWrist_2y_L,posFromWrist_3y_L,posFromWrist_4y_L,posFromWrist_5y_L,posFromWrist_6y_L,posFromWrist_7y_L,posFromWrist_8y_L,posFromWrist_9y_L,posFromWrist_0x_R,posFromWrist_1x_R,posFromWrist_2x_R,posFromWrist_3x_R,posFromWrist_4x_R,posFromWrist_5x_R,posFromWrist_6x_R,posFromWrist_7x_R,posFromWrist_8x_R,posFromWrist_9x_R,posFromWrist_0y_R,posFromWrist_1y_R,posFromWrist_2y_R,posFromWrist_3y_R,posFromWrist_4y_R,posFromWrist_5y_R,posFromWrist_6y_R,posFromWrist_7y_R,posFromWrist_8y_R,posFromWrist_9y_R,posFromBody_0x_L,posFromBody_0y_L,posFromBody_0x_R,posFromBody_0y_R
2,13.283043,0.672153,0.500622,-1.695296,0.0,2.138786,-10.146389,36.552658,-18.013115,33.666801,-26.94603,18.348885,-34.058018,-54.992752,0.0,-6.625263,26.377182,46.747161,45.254901,60.443094,56.899485,67.391621,65.946229,81.229703,0.0,67.319927,24.937649,86.881199,15.396824,85.256023,5.67564,72.247066,-2.790413,52.382755,0.0,13.530442,28.704123,57.063926,46.497072,70.961659,59.120153,80.286218,66.939176,82.671081,-12.21179,281.289213,-51.498957,278.385708
3,-4.055901,1.566423,-0.289536,0.074039,0.0,11.496162,-5.510902,42.075462,-13.700409,38.647728,-23.47887,23.521614,-31.056175,-48.660736,0.0,-12.543238,22.78584,42.877325,42.7939,58.04761,55.27619,66.349768,65.345212,78.824524,0.0,67.407131,24.580765,86.042233,15.247993,85.121441,5.836258,72.486019,-2.450867,52.965889,0.0,13.346611,28.286752,56.817048,46.183998,70.376327,58.863704,79.492108,66.557805,82.508677,-15.00638,281.779665,-50.527182,277.383777
4,0.943909,-0.247249,0.172462,0.071816,0.0,10.838127,-5.905323,42.573509,-15.533009,38.815842,-26.204453,22.176476,-34.47258,-49.659176,0.0,-12.380834,22.390885,43.278517,42.194427,57.673835,54.755078,66.703907,64.879552,78.499038,0.0,66.793041,24.418373,85.878239,15.199356,84.910069,5.872078,72.673359,-2.393646,53.081188,0.0,13.915394,28.124657,57.358723,46.04049,70.055595,58.866668,79.352367,66.652221,82.506454,-13.458567,280.854876,-49.750814,276.778052
5,1.651955,-0.641216,-0.332794,-0.27621,0.0,7.015514,-8.301773,40.128365,-16.89394,37.53273,-26.88858,20.885468,-35.021152,-54.501801,0.0,-12.766404,23.37463,45.043715,42.717885,60.041778,55.027089,68.695913,64.763029,80.432814,0.0,67.138309,25.370922,86.631489,16.208553,85.386715,6.699772,72.973995,-1.86636,53.709354,0.0,14.187651,28.617611,58.109175,46.462245,70.859771,59.129848,79.689462,66.770103,82.880477,-11.471186,279.6651,-49.748182,275.953282
6,20.909729,2.908012,-0.348873,0.018896,0.0,-18.371601,-31.470108,16.273155,-41.185513,15.588112,-48.154907,-0.124741,-52.161083,-76.440353,0.0,-12.657044,24.352819,46.173438,42.237405,58.714515,53.017298,66.303887,61.309885,77.475834,0.0,67.813683,25.532913,87.710037,16.253471,86.19175,6.625729,73.377686,-1.885357,53.758507,0.0,14.075821,28.738024,58.396438,46.701837,70.884595,59.34122,79.710087,66.868163,82.657372,9.679012,282.25204,-49.856586,275.651107
7,-18.267403,9.233786,-0.008297,-0.267071,0.0,-1.742363,-15.092983,41.068382,-25.999203,40.887566,-31.108475,25.7341,-32.311649,-20.138798,0.0,10.047163,18.627321,42.26544,35.51013,48.594734,47.51052,55.827312,57.123083,57.612579,0.0,68.257999,25.807056,87.694874,16.333809,86.290112,6.417618,72.999973,-2.471523,52.960796,0.0,14.057358,28.796131,58.423794,46.580991,71.605901,59.169307,80.247748,66.746823,83.192625,-8.454752,291.233298,-49.731245,275.131508
8,17.51461,-9.613983,-0.131779,-0.016117,0.0,-19.589481,-30.126114,17.036591,-38.683205,16.028938,-45.288734,-0.389786,-49.17057,-75.315456,0.0,-12.298212,27.101144,46.310154,44.775038,59.3892,55.013627,66.276594,62.702974,77.482873,0.0,68.902016,25.26123,87.762337,15.945854,86.6082,6.407032,73.500252,-1.992588,53.664379,0.0,14.165483,28.998981,58.280101,46.811567,71.403051,59.377097,80.156172,66.819874,83.061529,9.226227,281.372607,-49.696655,274.868683
9,-17.264786,13.063423,0.368271,-0.118993,0.0,5.433941,-13.136616,41.019058,-24.42112,39.342613,-30.264015,21.770096,-31.755638,-42.781963,0.0,3.933748,17.046695,38.651435,33.474528,44.662467,45.019261,53.388171,54.70574,59.602053,0.0,68.552742,25.352154,87.129707,16.020184,86.130524,6.436672,72.988358,-2.156639,53.239346,0.0,14.153256,29.624451,58.470477,47.351945,71.456403,59.759887,80.45171,67.170987,83.230355,-8.001137,294.253094,-49.290962,274.566754
10,18.677788,-12.786473,-0.079651,-0.316039,0.0,-18.823242,-31.816177,15.166969,-41.105232,15.63961,-47.534237,0.026436,-51.110516,-76.761646,0.0,-12.169092,25.812784,46.474719,43.420605,59.305898,53.712546,66.082574,61.584736,77.452492,0.0,68.649902,25.799847,87.406769,16.263256,86.108894,6.354046,72.615509,-2.540703,52.575188,0.0,14.792064,30.079058,59.090883,47.694721,72.182588,59.924946,80.96078,67.116214,83.435983,10.694504,281.317957,-49.35276,274.102051
11,-17.286415,11.564185,0.104828,-0.300725,0.0,10.913715,-16.41964,41.975899,-28.122425,39.594727,-33.417835,22.49691,-34.145451,-33.488789,0.0,1.504117,15.429946,41.096072,33.36665,46.394875,46.045306,54.635036,56.067275,56.70318,0.0,68.595772,26.069298,86.999474,16.605492,85.79155,6.679173,72.251472,-2.381973,52.189293,0.0,15.039498,30.298519,59.075631,47.981984,72.037784,60.210357,80.831536,67.423793,83.360771,-6.584873,292.803086,-49.240894,273.722271
12,-6.443024,4.170191,-0.157127,0.360375,0.0,25.12619,-11.418285,49.898186,-19.216862,49.67926,-23.155746,35.537682,-23.274536,-25.081787,0.0,-0.629422,12.283207,41.576244,28.397471,48.215092,41.020243,54.21964,50.292376,58.015191,0.0,68.993797,26.75766,87.274818,17.533607,85.870171,7.61879,72.30011,-1.646347,52.475967,0.0,14.408656,29.675395,58.182905,47.22264,71.710568,59.577662,80.455415,67.209704,83.199294,-13.007069,296.88942,-49.377193,273.998789
13,6.664639,-18.124734,-1.074371,-1.126513,0.0,6.70229,-14.074402,36.68375,-23.285294,36.950054,-32.633343,20.396519,-39.964657,-58.188343,0.0,-9.211309,21.336188,45.917483,40.383164,61.76091,52.812225,70.401398,62.589415,80.715754,0.0,69.428902,26.824093,88.113098,17.822227,87.445335,8.254337,73.509178,-0.65855,53.449459,0.0,14.746122,30.74411,59.154733,48.288946,72.653373,60.416047,81.316462,67.671597,83.698978,-6.325979,278.711226,-50.435114,272.818816
14,-2.9603,0.269726,-0.07782,0.15345,0.0,7.675037,-10.232162,40.84774,-19.197464,40.421677,-29.175682,23.275795,-37.518311,-53.637428,0.0,-7.272099,22.28949,45.888954,41.074954,62.291407,53.032859,69.620317,62.502779,80.099794,0.0,69.637756,26.8927,88.09845,17.681808,87.276421,7.943287,73.534584,-1.095943,53.389664,0.0,14.5986,30.170325,58.838757,47.938389,72.305163,60.282419,81.062483,67.689567,83.892195,-9.27043,278.897774,-50.497084,272.889088
15,-2.637177,0.076941,0.438595,0.180126,0.0,13.850842,-8.027687,43.774109,-18.067532,43.3255,-28.662415,26.461945,-37.286282,-51.070175,0.0,-9.761073,21.619004,46.233645,40.793187,62.217863,53.037738,70.137229,62.795229,80.422872,0.0,69.560108,27.173195,87.915058,17.886314,86.852932,8.050461,73.035679,-1.073799,53.183727,0.0,14.309299,30.394047,58.966889,47.966238,72.386982,60.250433,81.022283,67.594656,83.356387,-11.912785,278.92746,-50.063667,273.021959
16,-1.461697,-0.940088,0.192719,-0.229218,0.0,14.05632,-6.917095,44.860783,-17.247219,44.207783,-28.15155,27.283115,-36.943073,-51.711617,0.0,-9.857651,23.996581,46.877949,43.177679,62.681732,54.980406,69.7545,64.084084,80.907798,0.0,69.423351,26.886406,87.667179,17.516041,86.736202,7.516766,72.772007,-1.859093,52.427902,0.0,14.197408,30.300495,58.865988,47.866943,72.858138,60.088338,81.310534,67.486778,83.754739,-13.373394,277.93987,-49.869862,272.74524
17,-0.537529,-0.589161,-0.084286,0.150795,0.0,13.916874,-4.374161,44.790058,-15.071239,43.457508,-26.885033,26.27924,-36.738911,-50.430565,0.0,-9.374762,23.627066,46.528256,42.789083,62.907738,54.903403,70.238747,64.696833,81.504616,0.0,69.353828,27.863903,87.633133,18.3391,86.806984,7.998905,72.591362,-1.776123,52.321587,0.0,13.952876,29.687252,58.944906,47.208005,72.736304,59.513689,81.214389,67.060268,83.619259,-13.915443,277.26466,-49.958668,272.809986
18,0.120163,-0.963862,-0.302296,-0.263613,0.0,14.686432,-6.397133,44.670467,-16.314526,42.930393,-27.06356,25.330524,-35.83271,-51.296883,0.0,-8.493399,24.717764,47.045416,43.78944,63.898462,55.954333,71.708963,65.79247,82.774328,0.0,69.710712,27.68486,88.066578,18.328285,86.289768,8.087025,72.254047,-1.632557,52.36742,0.0,14.345238,29.25117,59.611686,46.629218,72.559204,59.041421,81.026482,67.044831,83.419928,-13.807125,276.279278,-50.272808,272.524853
19,0.257435,0.257561,-0.034447,0.42299,0.0,14.55328,-5.642166,44.55162,-14.722939,42.127419,-25.18856,25.998344,-33.804646,-51.546936,0.0,-10.414886,25.685516,46.764699,44.503707,63.513016,56.070486,70.834021,65.499156,82.580061,0.0,69.263363,27.39584,87.762051,17.940331,86.164341,7.841148,71.895275,-1.589413,51.643066,0.0,13.619115,29.189234,59.093601,46.54178,72.404643,58.846722,80.649743,66.673217,83.056712,-13.568029,276.485247,-50.325594,272.896251
20,11.58783,0.945461,0.335426,-0.052488,0.0,-6.588478,-18.798809,29.172935,-27.828712,29.218941,-36.424484,14.029083,-42.728119,-66.448288,0.0,-5.89173,27.692219,46.927164,45.353084,62.535877,56.084256,68.60903,65.100125,82.124775,0.0,68.801708,27.354755,87.510052,18.021469,85.854893,7.99839,71.6292,-1.430569,51.58556,0.0,13.451524,28.877024,58.759284,46.311759,72.444534,58.791085,80.391997,66.779921,82.790198,-1.993132,277.352825,-50.003099,272.76588
21,-6.459732,0.213286,0.393677,0.3563,0.0,2.347069,-12.760792,36.672134,-21.50362,37.525864,-30.892467,22.246628,-38.162842,-59.946213,0.0,-9.743968,26.254917,47.093581,44.564223,62.415526,55.440323,68.261128,64.373569,81.58909,0.0,68.405399,26.813564,87.004566,17.614231,85.920238,7.630062,71.875591,-1.899033,51.702118,0.0,13.17056,28.074578,58.351237,45.578411,72.015306,58.262996,79.870329,66.495684,82.297615,-8.472204,277.516479,-49.628763,273.072548
22,1.019211,-0.439354,0.023117,-0.383841,0.0,2.015648,-10.984612,33.656387,-20.918312,33.889046,-31.865101,18.646889,-40.725975,-60.572777,0.0,-9.712846,23.505912,46.709802,42.681514,62.520995,54.7883,68.905,64.848986,81.362528,0.0,69.011478,27.276936,87.581806,18.108559,85.764256,8.02597,71.890354,-1.674042,51.784058,0.0,13.230643,28.365484,58.802077,45.625033,72.185738,58.199825,80.170004,66.471725,82.906535,-7.466841,277.03887,-49.619493,272.650453
23,7.834396,0.430586,0.163364,0.261019,0.0,-10.435925,-21.678314,24.252548,-31.398239,26.916389,-40.057068,13.283615,-46.212788,-67.700443,0.0,-5.901425,24.18177,47.426972,42.542452,62.437385,54.20939,68.509365,63.974971,82.292489,0.0,68.574028,26.497593,87.090569,17.269249,85.864563,7.351913,72.018585,-2.042198,51.749439,0.0,12.871626,27.970837,57.962765,45.373338,71.776024,57.944178,79.718917,66.11382,82.257106,0.364065,277.38705,-49.45962,272.829067
24,-24.217472,15.184365,-0.386181,-0.097936,0.0,-16.895256,-2.465172,56.065922,-9.976044,57.365971,-13.657207,42.406139,-13.506317,-3.661194,0.0,33.560299,16.795865,41.360241,29.583881,46.619462,38.825572,52.421715,46.776369,56.975376,0.0,69.234295,26.911354,87.288494,17.593803,85.77055,7.579994,71.51144,-1.868935,51.82703,0.0,13.12715,28.242786,58.009325,45.786325,71.826906,58.335985,79.824819,66.440541,82.266431,-23.85541,292.483574,-49.847803,272.64329
25,21.57217,-13.99252,0.261097,0.400513,0.0,9.263191,-12.241287,30.923882,-23.120613,30.044174,-33.988209,13.675461,-43.083515,-59.916859,0.0,-13.041502,18.437562,43.526445,37.782422,58.840609,50.842325,67.69111,61.195955,78.662368,0.0,69.552498,26.56723,87.678337,16.940517,85.281487,6.935406,70.174484,-2.021198,51.169853,0.0,12.398433,29.071847,58.040509,46.654474,71.666725,59.024193,78.998969,66.797335,80.97103,-2.292652,278.47838,-49.596119,273.031129
26,-2.508087,0.395079,-0.347099,-0.728161,0.0,5.404873,-9.766903,34.892006,-20.444241,32.755051,-31.442986,16.295815,-40.620461,-56.671829,0.0,-12.259371,19.38753,43.694653,38.179662,58.646651,50.642069,66.756394,60.272416,77.565681,0.0,69.255295,26.961422,87.429085,17.23011,85.254021,6.912231,70.686035,-2.628822,50.746651,0.0,12.366446,29.229928,58.066259,46.795265,72.125778,59.056303,79.950173,66.565771,82.058949,-4.803944,278.803218,-49.946423,272.232727
27,2.969513,1.261561,-1.094456,-1.349679,0.0,0.6217,-13.286018,34.227104,-23.446598,31.057777,-33.606262,13.073959,-42.041702,-61.067562,0.0,-11.40913,18.341972,42.491385,37.099524,57.958751,49.541553,66.510072,59.072729,76.610155,0.0,70.56284,27.181435,89.225407,17.644501,87.357388,7.730141,72.811031,-1.070881,53.338566,0.0,13.010503,30.268323,59.542464,48.135496,72.934153,60.3643,80.952135,67.575143,82.915551,-1.846533,279.990524,-51.05298,270.808794
28,-5.561028,-1.370921,-0.879765,0.106458,0.0,5.28368,-6.012325,40.491943,-16.364479,37.091331,-27.480698,17.656975,-37.139511,-56.442947,0.0,-9.389829,20.625873,43.337921,38.906588,61.342551,50.627187,69.308662,59.493249,75.360512,0.0,69.893761,29.001274,90.150948,19.973774,89.154396,10.133171,74.099579,0.601101,53.451462,0.0,11.03307,29.707382,58.622568,47.284946,73.357884,59.396672,81.383832,66.777328,85.543525,-7.400951,278.360128,-51.926136,270.655776
29,-15.515842,-6.52319,0.476189,-4.989248,0.0,33.019581,2.817936,64.149799,-8.266239,59.789371,-19.606991,39.257641,-28.892441,-38.102932,0.0,-4.846296,21.997411,52.10049,40.181055,73.517076,51.635448,80.688337,60.162994,82.951428,0.0,69.033394,28.802319,88.337746,20.114536,88.961334,10.473747,73.639755,0.791988,52.450275,0.0,10.503869,32.309483,64.358811,49.496969,82.412285,61.226336,90.846589,69.010037,92.235602,-22.935848,271.741935,-51.469002,265.571525
30,28.089981,-6.570244,3.069763,-9.419099,0.0,-11.172295,-29.495945,18.22752,-42.653389,14.23399,-51.991711,-10.084248,-56.73666,-80.996075,0.0,4.312031,28.504422,58.293006,43.439315,71.528157,52.75807,75.134629,60.109827,84.517542,0.0,65.475197,26.918049,81.90239,16.619682,76.904182,4.229336,57.925415,-8.232594,28.144169,0.0,14.209449,30.653893,71.66549,45.48912,87.339103,56.507926,96.193742,63.735873,91.874301,5.022354,264.994715,-48.531017,255.975449
31,5.572186,15.84355,8.065567,-5.81022,0.0,-40.822392,-38.862019,-84.8699,-36.385117,-92.095528,-30.780373,-81.152287,-22.029934,-62.930889,0.0,-29.499963,19.648055,38.636307,36.606756,56.673355,50.019748,68.386544,60.447725,74.117167,0.0,42.012291,28.390274,35.991096,20.02327,3.837204,7.49382,-26.56889,-6.965847,-32.361488,0.0,41.160355,13.722485,75.718046,22.329752,88.111107,31.489067,88.66118,39.071029,79.823461,10.668869,280.763948,-40.391121,250.090913
32,1.39492,-7.389363,-22.335663,-9.63325,0.0,-57.812405,-32.40406,-89.2313,-27.092743,-93.212357,-18.707027,-80.773602,-8.501644,-59.901466,0.0,15.797793,25.120562,47.937771,41.695422,63.423231,53.856425,76.251446,62.029277,81.128432,0.0,63.248177,52.0578,49.120331,56.998272,48.603058,56.412163,45.423832,52.515621,48.462124,0.0,12.485748,3.659638,20.16151,-17.038174,7.511814,-36.800467,-17.437205,-54.845913,-39.262332,11.887665,273.299682,-62.902908,240.38276
33,5.784302,-3.158657,-3.167496,-55.982059,0.0,-61.536198,-35.61161,-95.984459,-31.173363,-99.392338,-23.392296,-86.68642,-13.86652,-65.526924,0.0,17.354583,25.698545,51.177815,43.681933,64.85479,57.26196,77.708015,66.484013,82.364614,0.0,58.498478,41.040745,44.668007,38.132915,39.176559,30.462112,31.636848,19.933205,23.655338,0.0,-1.403278,-18.15882,-9.110656,-42.186338,-31.413361,-60.339415,-48.006499,-73.134625,-60.559864,16.517429,270.789095,-67.224941,185.048772
34,-0.414619,-0.86642,-23.354073,-116.69914,0.0,-62.556896,-35.421066,-95.113106,-30.947342,-99.089527,-23.264294,-86.412048,-13.631916,-65.896111,0.0,17.406453,26.024155,50.704128,43.718859,66.025393,57.108016,78.167253,66.123947,82.707267,0.0,18.8027,38.23637,52.370968,45.12394,45.49593,46.887875,41.307335,45.543308,38.083076,0.0,-59.667138,-11.866916,-19.009772,4.345253,2.053726,20.664405,22.940649,36.4584,34.293832,15.960274,270.244673,-90.72155,68.67163
35,-0.024605,-1.021722,8.992767,-37.895641,0.0,-63.981972,-35.605316,-95.315437,-30.653744,-99.242134,-22.760582,-86.244106,-13.288193,-65.072823,0.0,18.533522,26.986474,51.011521,44.818943,66.279125,58.161293,78.716708,66.934853,83.349656,0.0,13.383865,8.129082,5.75449,-12.984467,-27.438812,-31.763134,-24.996414,-46.443214,-35.736523,0.0,-43.309485,-41.702029,-62.546251,-43.716544,-94.766443,-38.348117,-43.712129,-29.915882,-32.391302,14.430199,269.529835,-83.234253,31.082873
36,0.609283,0.095837,-16.123466,-52.248012,0.0,-64.209023,-36.693306,-96.573372,-31.623917,-99.886951,-23.667755,-87.062187,-14.179516,-65.397778,0.0,17.383235,26.793133,51.222214,44.870937,66.254858,58.368157,77.725244,67.277321,82.657187,0.0,0.635891,-15.590744,-37.611351,-32.077618,-5.642166,-44.602261,-16.393433,-55.51157,-31.060925,0.0,-67.964973,-53.223637,-124.379208,-46.0705,-27.047483,-35.609332,-15.593955,-23.335512,-12.752633,14.368315,271.490503,-100.028887,-19.300307
37,0.919304,-0.891491,-14.671898,-49.689816,0.0,-64.563217,-35.942745,-98.022823,-31.056347,-100.390205,-23.306065,-87.926903,-14.321823,-66.216602,0.0,18.665729,26.772076,50.446629,44.570953,66.307592,57.843093,78.398385,66.652098,83.075546,0.0,-3.383904,-20.985489,-44.064217,-34.638062,-5.553188,-45.651112,-12.089424,-55.326519,-24.69595,0.0,-69.783153,-50.920903,-115.347284,-43.712314,-39.070381,-34.397233,-24.588273,-22.911965,-21.013048,12.225437,270.469336,-117.762966,-69.119799
38,0.333481,-1.083102,-15.286846,-26.223918,0.0,-64.120159,-35.397663,-97.799778,-30.204449,-100.183468,-22.3312,-87.549419,-13.377914,-65.650635,0.0,19.770197,26.811658,50.666275,44.709707,66.420349,57.994196,78.378131,66.643515,83.169098,0.0,-1.304226,-17.276001,-18.1703,-30.133381,-4.590225,-41.060257,-12.879295,-50.599537,-26.308136,0.0,-77.977571,-43.277684,-82.233703,-38.103153,-45.785059,-31.207361,-35.676084,-22.607382,-28.39111,7.681246,269.357674,-137.927485,-95.372276
39,1.088905,-0.213348,-5.379925,-33.705413,0.0,-64.298859,-36.532173,-97.858315,-31.460838,-100.400677,-23.633308,-87.704144,-14.689522,-66.370583,0.0,19.409081,27.189818,50.098603,45.300534,65.842982,58.643255,77.37376,67.210754,82.665585,0.0,-14.221859,-22.360611,-40.339622,-34.744148,-10.412235,-45.40947,-16.491737,-55.389862,-27.0504,0.0,-67.802415,-46.978278,-92.016358,-40.91272,-38.745219,-32.787817,-24.609778,-22.234996,-23.244461,4.921646,269.056873,-147.155914,-129.165143
40,1.361275,0.169567,-5.917397,-10.360237,0.0,-64.439392,-36.479359,-97.379379,-31.569328,-100.684319,-23.983269,-88.168945,-15.320549,-67.383728,0.0,18.52358,27.075703,49.065087,45.129424,64.518621,58.605155,76.016857,67.494559,81.157393,0.0,-10.569706,-20.692234,-28.704643,-32.188797,-11.046295,-43.231201,-18.274612,-54.031563,-29.859524,0.0,-70.917724,-46.01176,-77.623865,-41.502375,-36.166599,-34.535446,-26.530447,-24.630387,-25.401788,3.579683,269.053909,-155.776548,-139.697911
41,1.427879,0.073359,-4.562759,-9.925391,0.0,-64.949398,-36.220665,-98.045082,-31.189785,-101.740036,-23.502789,-89.939175,-14.766884,-68.627872,0.0,18.161105,27.024883,49.230825,44.914224,64.122801,58.201431,75.684084,66.965543,80.808812,0.0,-9.652691,-17.424316,-6.816044,-28.384323,-11.875992,-39.196815,-19.281063,-50.107441,-28.988514,0.0,-67.690663,-41.24946,-45.524225,-36.996355,-36.776461,-30.873925,-28.315173,-22.572863,-27.260476,2.178841,268.773269,-163.16803,-149.977301
42,1.646919,0.300416,0.059166,-7.57923,0.0,-65.722733,-36.61623,-99.807816,-31.806221,-103.405495,-24.265709,-90.774364,-15.702209,-69.542027,0.0,17.880573,26.726381,48.774489,44.472955,62.769603,57.649691,75.054044,66.332848,79.335262,0.0,-10.657425,-17.82589,-7.167377,-28.312569,-13.727531,-38.811779,-21.665096,-50.040951,-29.770546,0.0,-64.492732,-41.534207,-42.614947,-36.927889,-34.94022,-30.289241,-25.806856,-21.178184,-23.931619,1.951675,268.874524,-164.982948,-157.755692
43,0.288277,-0.232367,-0.072956,-5.985529,0.0,-65.490875,-37.250919,-100.252705,-32.546597,-103.691826,-25.018501,-91.529732,-16.199913,-69.817543,0.0,17.845684,26.372428,48.708848,44.254174,62.904836,57.563549,75.273937,66.37243,79.993089,0.0,-10.627327,-17.34827,-7.039776,-27.616367,-13.916531,-38.049202,-21.367607,-49.86208,-29.880695,0.0,-59.917722,-40.05337,-40.934394,-36.082032,-34.445723,-29.577135,-25.817863,-20.458189,-24.427382,1.234102,268.541226,-166.061754,-163.842152
44,0.885315,0.19896,1.469421,-5.543087,0.0,-65.370541,-37.759495,-99.665222,-33.500862,-102.884617,-26.352482,-90.969486,-17.619438,-69.18045,0.0,16.823653,25.509836,47.131125,43.203552,62.528282,56.519473,74.524781,65.650568,79.859647,0.0,-11.678467,-20.192757,-9.748363,-29.825649,-16.651897,-39.506893,-23.406315,-50.651894,-32.417221,0.0,-59.205384,-37.118975,-38.1325,-33.179438,-31.620086,-26.552399,-23.208645,-16.989622,-23.082319,1.312351,268.857357,-165.399399,-169.268068
45,-0.324554,-0.232676,0.569172,-4.401091,0.0,-64.951572,-37.312145,-98.896923,-33.06181,-103.078537,-25.980721,-90.756111,-17.219238,-69.486179,0.0,16.180893,25.69589,47.24771,43.437216,62.429481,56.709911,74.553372,65.618334,80.282884,0.0,-12.182293,-20.139656,-10.14719,-29.340534,-16.193848,-38.88485,-22.420635,-50.040665,-32.84626,0.0,-59.586137,-34.892441,-38.695911,-30.487861,-29.560818,-24.249063,-20.319683,-15.55814,-22.429448,0.385265,268.984146,-165.432758,-173.309694
46,-0.430183,-0.396005,0.088863,-1.388782,0.0,-65.679302,-37.529926,-99.142971,-32.96711,-102.695217,-25.593624,-90.396252,-16.706543,-68.644466,0.0,16.420052,25.839954,47.953764,43.80426,62.993201,57.177053,74.750232,66.143769,80.458502,0.0,-6.763115,-16.595936,-10.32423,-26.265507,-12.658081,-36.514778,-20.100231,-48.040752,-31.26749,0.0,-58.896478,-35.393159,-50.024565,-31.971322,-31.852746,-26.365759,-22.74544,-18.116645,-24.879056,-0.428553,269.086482,-165.72753,-174.200135
47,-0.839424,-0.569092,2.697258,-1.506587,0.0,-65.341988,-36.653366,-98.487396,-32.068062,-101.985569,-24.860573,-89.574509,-16.370888,-67.768993,0.0,16.403132,25.423324,48.1166,43.418938,63.007589,56.846565,74.848354,65.863669,80.697229,0.0,-3.826504,-13.362064,-21.864338,-23.878269,-9.270229,-35.066986,-18.394661,-47.6651,-30.904198,0.0,-55.99231,-36.06045,-77.464055,-32.684663,-34.16127,-26.627534,-23.262924,-17.568965,-24.205235,-1.383133,268.562792,-163.145428,-175.66132
48,0.39196,-0.422558,3.630123,6.722289,0.0,-65.915565,-37.2785,-99.366589,-32.560272,-102.801991,-25.1758,-90.25034,-16.459351,-68.546562,0.0,16.915599,25.920353,48.603317,44.136045,63.799476,57.622706,75.485927,66.461289,81.110339,0.0,-3.726254,-10.962238,-18.834686,-23.122387,-7.88372,-34.870205,-15.742092,-47.875729,-29.22369,0.0,-59.21616,-41.72957,-101.6589,-37.55251,-36.207539,-30.37617,-23.74768,-20.688441,-24.026267,-0.948944,268.024051,-159.473076,-169.055214
49,-0.790672,0.865185,0.203991,8.220632,0.0,-64.474297,-35.74173,-98.797188,-31.255474,-103.067951,-24.247169,-90.720406,-16.084099,-68.292046,0.0,15.31367,24.824715,47.269817,42.799087,62.648016,56.22517,74.552569,65.039115,79.64247,0.0,-10.324974,-4.568596,-12.968102,-20.682564,-11.233692,-35.013943,-19.227848,-48.292923,-33.577766,0.0,-55.274631,-49.07648,-117.220568,-42.79989,-22.487895,-33.25343,-12.38511,-22.499318,-9.630424,-1.9487,268.757167,-159.478168,-160.966651
50,0.253143,-0.140173,-3.519001,5.184765,0.0,-64.202785,-35.586777,-99.382095,-31.394062,-103.662987,-24.523945,-91.343765,-16.492882,-69.587803,0.0,15.465144,24.167259,46.657191,42.164787,61.679152,55.851704,73.643603,65.063816,79.11611,0.0,1.564236,-5.191841,-15.137558,-19.652023,-12.421532,-31.722622,-21.373959,-41.077709,-34.629707,0.0,-21.803206,-40.475033,-94.210411,-35.205593,-8.346325,-23.902396,0.094293,-12.166529,1.483832,-1.665545,268.612162,-162.967157,-155.786718
51,-0.085144,-0.396808,4.460564,50.872984,0.0,-64.670048,-35.631065,-99.32373,-31.16993,-103.697433,-24.126091,-91.067505,-15.719147,-68.338451,0.0,14.907723,24.418645,47.413819,42.187634,62.362297,55.696093,73.947292,64.793102,79.506866,0.0,-13.073788,-10.753441,-29.519005,-30.172176,-13.824062,-44.329891,-27.341766,-54.771137,-41.965313,0.0,-40.699588,-44.282733,-109.515884,-44.386613,-43.160173,-40.65908,-37.241982,-35.660739,-33.287362,-1.51145,268.703614,-158.267355,-104.425473
52,0.199585,-0.285657,0.689106,11.987113,0.0,-64.523048,-35.675125,-99.412022,-31.28334,-103.612518,-24.18211,-90.931549,-15.70919,-68.389034,0.0,15.489103,24.341765,46.767786,42.190043,62.191125,55.694055,74.156317,64.626684,79.579238,0.0,-17.89278,-7.970181,-30.522938,-29.418297,-11.227455,-45.593662,-27.15683,-57.037125,-41.305847,0.0,-29.61099,-55.073726,-105.44647,-57.546073,-17.737435,-49.86582,-17.592631,-39.777732,-15.259299,-1.08367,268.71354,-157.350054,-92.142776
53,0.934067,0.322769,-1.578541,5.471889,0.0,-64.940128,-35.729885,-99.452419,-31.606865,-103.664131,-24.647083,-90.974464,-16.195107,-68.599663,0.0,14.96441,24.289833,46.361777,42.18041,61.825439,55.737219,74.168729,64.669169,79.690512,0.0,-17.488632,-5.604057,-27.808113,-26.601734,-8.546791,-43.149662,-24.464264,-55.102215,-38.539696,0.0,-24.290389,-52.448145,-103.020528,-56.31281,-9.86117,-49.793865,-13.335156,-40.373562,-11.496939,-0.01153,269.375042,-158.790522,-86.332155
54,-0.379257,0.002532,0.652485,2.270964,0.0,-63.963089,-35.803185,-99.169464,-31.591129,-103.599873,-24.5327,-90.773048,-15.96302,-68.153343,0.0,15.679665,24.555484,46.478485,42.510836,61.877309,55.93235,74.139891,64.649656,79.418378,0.0,-17.155666,-6.797047,-27.294846,-26.981907,-10.420589,-43.194695,-22.920227,-54.810219,-36.658173,0.0,-26.444799,-53.155094,-101.9995,-56.153447,-8.390831,-49.116586,-8.259303,-38.811184,-7.159065,-0.344267,269.402938,-158.091516,-84.035827
55,0.844231,0.70451,0.037708,1.009681,0.0,-64.324837,-35.547409,-98.888512,-31.675186,-103.536987,-24.83717,-90.978127,-16.341476,-68.567848,0.0,15.378693,24.320153,45.807505,42.376961,61.400843,55.902771,74.121304,64.796992,79.855756,0.0,-16.179314,-5.676155,-26.326962,-25.587044,-10.592136,-41.583309,-22.335491,-53.163586,-36.000366,0.0,-26.3016,-52.499058,-103.704352,-55.436926,-9.501536,-48.778904,-8.603469,-39.317228,-7.226342,0.58588,270.120076,-157.967892,-83.013518
56,0.377998,-0.13122,1.523666,0.231533,0.0,-64.600582,-35.393257,-99.849472,-31.281796,-103.845234,-24.46455,-91.507759,-16.383018,-69.324818,0.0,15.097049,24.101433,46.083715,42.204739,61.594492,55.870414,73.782789,64.857878,79.899167,0.0,-17.646618,-6.911831,-26.409531,-26.841545,-12.180691,-43.021889,-24.093761,-54.937077,-37.510586,0.0,-27.174535,-52.849028,-103.527097,-55.407255,-11.905788,-48.670563,-11.126467,-38.820879,-9.538494,1.040268,270.011179,-156.367836,-82.759662
57,-0.773392,0.318076,-0.275631,-0.974854,0.0,-64.187336,-35.605659,-99.245453,-31.415005,-103.34444,-24.483318,-90.704098,-16.203461,-68.606415,0.0,14.668008,24.211596,46.495096,42.269083,61.720834,55.926051,74.205223,64.952418,79.559231,0.0,-16.185837,-6.198521,-25.986614,-26.465435,-10.884705,-42.860069,-23.839188,-54.973583,-37.424984,0.0,-26.426398,-52.97222,-103.845699,-55.804125,-12.273358,-48.888017,-10.725059,-38.789139,-9.085709,0.308647,270.41427,-156.601696,-83.649501
58,-0.566483,0.151783,-0.289192,-0.371367,0.0,-65.185661,-35.769482,-99.315205,-31.333752,-103.105373,-24.218788,-90.584621,-15.817909,-68.449688,0.0,14.512088,24.725853,46.859238,42.745735,62.335003,56.226035,74.697436,65.026704,79.950234,0.0,-15.912609,-6.5839,-25.8498,-26.377945,-11.376057,-42.385654,-24.086323,-54.364357,-37.958221,0.0,-26.930497,-52.482725,-102.846577,-55.248001,-11.93972,-48.384535,-10.575653,-38.559149,-9.42725,-0.253887,270.56224,-156.88694,-84.024681
59,-0.021858,0.350495,-0.970802,-0.206216,0.0,-64.871864,-36.064053,-99.02338,-31.742077,-103.166656,-24.658127,-90.558472,-16.120377,-68.561268,0.0,14.591931,24.594757,47.217885,42.46582,62.037304,56.030718,74.612035,65.056714,79.944862,0.0,-15.260925,-6.131744,-25.410061,-25.813808,-11.464233,-41.919594,-23.68063,-53.962212,-37.444496,0.0,-26.897553,-51.784883,-101.442882,-54.770639,-11.637236,-48.244053,-10.109654,-38.674314,-9.009323,-0.270281,270.918215,-157.852278,-84.225416
60,0.043488,-0.34006,-0.703011,-0.730229,0.0,-64.738655,-35.981369,-98.78643,-31.717243,-103.133812,-24.638329,-90.175495,-15.984192,-67.798748,0.0,15.142313,25.062516,47.926039,42.466005,63.018333,55.80076,75.449617,64.777417,80.259851,0.0,-14.996109,-6.317825,-25.59494,-25.85083,-10.867538,-41.747875,-23.727837,-53.717251,-37.369995,0.0,-25.515733,-51.351951,-101.20891,-53.914933,-11.330923,-46.938958,-9.482054,-37.163899,-8.759852,-0.175238,270.571101,-158.503733,-84.962701
61,-0.38784,-0.453927,-1.790371,1.06751,0.0,-64.51046,-36.554661,-98.549538,-32.027721,-103.424206,-24.630604,-90.501423,-15.619583,-68.411522,0.0,15.303111,25.577823,47.550843,43.16113,63.072488,56.355278,75.53366,64.938401,80.486722,0.0,-12.920609,-4.840908,-24.367275,-24.501286,-10.94862,-40.620232,-21.515007,-52.372227,-34.739914,0.0,-28.338345,-52.2402,-102.601984,-54.772091,-8.99015,-48.177517,-5.280926,-38.788614,-5.45605,-0.400658,270.094727,-160.131683,-83.917637
62,-0.170403,0.027232,0.346527,0.814303,0.0,-64.999809,-35.834599,-97.828789,-31.226063,-102.737503,-23.782253,-89.919434,-14.909592,-67.91748,0.0,15.77334,25.157612,47.755607,42.865407,63.242796,56.356761,75.540761,65.275002,80.564281,0.0,-13.962593,-6.354389,-25.510139,-25.81049,-12.351494,-41.893501,-22.883778,-53.74094,-36.177692,0.0,-29.857806,-51.920426,-101.680096,-54.154123,-10.420012,-47.46183,-7.695769,-37.89453,-7.694595,0.000744,270.075291,-159.213352,-83.150002
63,-0.513039,-0.25682,-0.666618,0.390633,0.0,-64.463768,-35.818348,-98.470058,-31.010742,-102.893543,-23.396072,-89.852943,-14.450226,-67.639275,0.0,15.976561,25.316063,48.388055,43.084868,63.333631,56.510643,75.696372,65.304704,80.514695,0.0,-13.518677,-5.185089,-25.908051,-24.832249,-10.419388,-40.990849,-21.432781,-52.851219,-34.481449,0.0,-29.31079,-52.933966,-103.805993,-55.682878,-10.261436,-49.185716,-7.306741,-39.669854,-6.952819,0.067062,269.75246,-159.300613,-82.82538
64,0.217552,0.616701,0.056648,1.13772,0.0,-64.421768,-35.736465,-98.026772,-30.983906,-102.272186,-23.537693,-89.309864,-14.74205,-67.131214,0.0,16.396031,24.940127,48.396453,42.674907,63.197101,56.13063,75.614614,64.941673,80.764537,0.0,-13.796768,-6.081848,-25.818443,-25.727978,-11.226254,-41.824837,-22.583084,-53.481045,-35.810738,0.0,-29.602376,-53.005473,-102.548261,-55.579879,-11.079012,-48.81367,-8.715021,-39.106382,-8.105205,0.852327,270.30789,-158.676252,-81.748931
65,0.392075,-0.162095,0.027065,0.401038,0.0,-64.673481,-35.255527,-97.853394,-30.806065,-102.071686,-23.604755,-89.13866,-14.834175,-66.890717,0.0,15.970015,25.425917,48.461168,43.248507,63.731859,56.628462,76.315729,65.362935,81.885616,0.0,-12.452374,-5.032024,-26.585999,-24.678497,-10.214596,-40.940151,-22.067986,-52.840462,-35.139084,0.0,-29.210508,-53.275971,-104.521356,-56.122479,-11.037238,-49.474893,-8.948376,-39.895706,-8.620574,1.695957,270.113144,-158.197632,-81.380544
66,0.450783,0.30869,0.359917,0.503235,0.0,-65.351372,-35.910358,-98.585987,-31.240883,-102.66283,-23.916092,-89.630013,-15.110207,-67.057228,0.0,15.709243,25.58406,48.082946,43.491,63.785335,56.792348,76.247124,65.37584,81.702588,0.0,-13.120995,-5.930386,-26.192894,-25.73988,-10.563641,-41.930122,-21.926708,-53.710728,-35.147038,0.0,-29.380352,-53.170717,-104.263564,-55.8237,-11.01016,-49.102662,-8.690506,-39.412386,-8.101098,2.619781,270.408744,-157.364674,-80.8904
67,0.208168,0.177841,0.548172,0.194514,0.0,-65.297699,-36.409779,-98.662834,-31.753578,-102.407112,-24.341812,-89.684486,-15.41153,-67.000465,0.0,15.979833,25.706326,48.325687,43.557567,63.576125,56.807353,76.052981,65.408012,81.60391,0.0,-14.405365,-6.264668,-26.181393,-26.273232,-10.314045,-42.534485,-21.85112,-54.455509,-34.669018,0.0,-30.384537,-53.006646,-103.090738,-55.389656,-10.635088,-48.463205,-8.455391,-38.495269,-7.349534,3.228064,270.563984,-156.416388,-80.718487
68,0.473557,0.413172,-0.018425,0.820354,0.0,-65.462666,-36.037788,-97.747421,-31.606293,-101.304703,-24.411221,-88.898735,-15.631943,-66.268215,0.0,15.497316,25.179718,47.744863,42.760123,63.203461,56.013799,75.896814,64.644716,81.912477,0.0,-13.57893,-6.210308,-25.106049,-26.018486,-9.063492,-42.111397,-21.265812,-54.052219,-34.259491,0.0,-29.5937,-53.019398,-103.40071,-54.927887,-10.514274,-47.572363,-7.710311,-37.432328,-6.688897,4.01144,270.977357,-156.124992,-79.897932
69,0.620384,0.213224,0.064144,2.486319,0.0,-65.799122,-35.008392,-98.121128,-30.63715,-101.514072,-23.51944,-88.512669,-14.670753,-65.422955,0.0,14.999669,24.916723,47.917146,42.269207,63.697896,55.295765,77.026723,63.696847,82.785196,0.0,-13.17564,-4.983559,-22.291317,-25.057697,-8.166103,-41.394482,-20.849247,-53.582611,-34.503021,0.0,-29.777469,-52.541882,-103.328724,-54.613268,-7.447007,-47.279913,-5.67687,-37.109281,-5.524161,4.880304,271.177953,-155.812368,-77.424241
70,0.712738,0.017908,0.396481,5.490661,0.0,-66.259232,-34.751873,-98.460159,-30.282497,-101.429443,-23.155174,-88.330307,-14.360733,-65.277271,0.0,15.095506,24.791123,48.042932,42.380605,64.538505,55.596242,78.012074,64.099521,83.263762,0.0,-9.192295,-3.453312,-18.410568,-23.326378,-6.169338,-39.690342,-18.589039,-52.282848,-33.401642,0.0,-31.404438,-53.351522,-105.504407,-55.31392,-7.389826,-47.784661,-6.281128,-37.54107,-6.786,6.398478,270.967616,-154.610453,-72.161825
71,-0.110092,0.73378,1.42971,6.644128,0.0,-65.215359,-34.882965,-98.681831,-30.250454,-101.713943,-22.78965,-87.970676,-13.59478,-64.764576,0.0,15.323426,23.952059,47.552696,41.650591,64.456747,55.032461,77.94736,63.992137,82.702512,0.0,-9.778004,-3.692894,-14.954453,-23.383884,-5.284538,-39.292774,-17.82423,-51.691303,-32.400455,0.0,-32.005671,-51.256825,-103.54008,-52.689928,-6.143024,-45.318843,-4.746723,-35.638386,-6.639466,7.510929,271.283732,-151.958199,-65.935361
72,1.309433,-0.030505,3.366108,7.233351,0.0,-66.437588,-33.627777,-98.105278,-29.038067,-100.972481,-21.8787,-87.664661,-13.348389,-65.915737,0.0,15.693373,24.640452,47.406224,42.429387,64.910366,55.858188,78.729861,64.606863,83.77913,0.0,-10.0597,-4.273052,-10.363884,-23.271389,-5.295181,-38.4799,-18.015232,-50.600567,-31.795864,0.0,-30.989413,-49.786671,-103.206767,-49.759748,-3.730867,-41.489793,-2.541431,-31.379707,-4.620691,10.643835,271.289521,-146.768618,-58.665716
73,-0.418396,0.361734,4.180527,6.950688,0.0,-66.086483,-35.435429,-97.821865,-30.319176,-101.12812,-22.549438,-87.858181,-13.436165,-67.248917,0.0,15.246794,25.386644,47.534417,44.133884,64.055431,58.323079,77.470153,67.684565,83.708982,0.0,-5.587234,-5.973816,-4.873753,-23.69545,-9.013882,-38.041248,-20.083523,-49.206448,-34.692135,0.0,-22.264976,-44.943679,-98.627789,-44.485429,2.089541,-35.147655,3.152297,-23.959438,0.290536,10.631304,271.680833,-142.182226,-51.68545
74,1.761818,0.858392,5.36293,35.98777,0.0,-66.471004,-35.240993,-98.401108,-30.564766,-102.211361,-23.057556,-88.748302,-13.793221,-65.818577,0.0,14.613358,24.230244,45.924337,41.933346,62.288382,55.452858,77.413836,64.512261,83.608946,0.0,-3.321419,-3.712521,-3.439007,-22.054253,-7.56609,-37.382355,-18.10318,-50.929127,-30.396252,0.0,-40.344169,-55.391416,-115.548174,-54.798551,-15.361279,-47.676382,-10.742596,-37.24578,-10.893081,13.694086,272.787385,-135.518332,-15.449521
75,-0.517845,-0.219646,5.811882,13.080713,0.0,-67.184258,-34.99815,-97.252007,-29.927502,-100.828571,-22.258644,-87.927876,-13.083344,-66.151657,0.0,15.270815,24.569624,47.059865,43.173542,63.818619,57.555645,78.913383,67.548158,87.143416,0.0,2.519474,-6.504364,-0.704327,-24.158764,-5.946121,-38.281002,-17.618408,-50.25301,-28.230686,0.0,-35.618471,-53.411544,-107.379304,-51.778214,-9.924217,-41.901267,-3.279873,-29.802169,-5.381332,15.237894,273.224146,-127.644796,-1.712401
76,1.211472,-0.085648,1.065331,4.58787,0.0,-66.993942,-35.146694,-98.25737,-30.23592,-102.05595,-22.459602,-89.842358,-12.792778,-66.591854,0.0,14.979971,25.359474,46.382896,43.582885,62.510992,57.764114,79.054668,67.790158,89.629797,0.0,15.718403,-3.684425,8.677711,-21.601124,-1.723537,-36.311245,-13.477192,-47.62207,-27.712612,0.0,-12.010363,-39.91843,-83.513233,-38.831129,7.023554,-28.282862,12.898827,-15.622144,13.904279,18.370829,273.070789,-124.658003,2.80776
77,-0.073128,0.215385,-7.403984,-32.445148,0.0,-66.235085,-35.111847,-98.33828,-29.896603,-101.243591,-22.089615,-89.487877,-12.632561,-65.894394,0.0,15.513309,25.390226,46.804836,43.988462,62.703221,58.159193,79.458084,67.823503,90.47621,0.0,24.41597,6.094837,19.385719,-10.894032,1.322365,-26.209774,-12.089882,-37.579994,-29.524441,0.0,-16.790061,16.213806,28.761489,20.159225,58.517809,22.64789,42.160403,20.880006,34.393312,20.806046,272.853026,-129.553642,-30.070536
78,1.175079,-0.376245,20.949841,114.092161,0.0,-67.015858,-36.086369,-99.358406,-30.83416,-101.295948,-22.902031,-89.824276,-13.222618,-66.457729,0.0,16.152426,25.751219,47.525464,44.555701,63.075391,58.736127,79.924114,68.374996,90.777058,0.0,18.809795,-1.127586,11.468868,-18.935795,7.476082,-32.589512,-4.174461,-43.763866,-12.220116,0.0,-39.496088,-54.074558,-105.793338,-52.650192,-18.123684,-42.702448,-7.080179,-28.828921,-5.129298,25.010204,270.440422,-105.574722,81.985266
79,-0.197067,0.114979,-9.185658,1.393892,0.0,-66.568737,-35.751286,-98.059959,-30.383835,-100.639,-22.395172,-88.913956,-12.674103,-66.190338,0.0,15.957109,25.999826,47.340212,44.346985,63.388218,58.349014,79.933006,68.019623,90.179499,0.0,34.360199,8.328838,31.15036,-5.002155,29.30872,-15.358887,15.70982,-22.515278,2.878819,0.0,-8.241704,-38.818748,-63.74458,-32.247485,6.610382,-17.046078,25.732879,-0.232583,32.107559,26.074963,269.206587,-113.498554,82.030343
80,-0.112953,0.246261,-1.291866,35.168342,0.0,-66.043339,-35.492477,-98.003998,-30.058765,-99.589577,-22.130585,-88.341522,-12.610474,-66.096897,0.0,15.211782,25.941286,47.632848,44.251271,63.620647,58.184079,79.769923,67.774226,89.878157,0.0,57.386742,14.802132,52.464066,4.787579,58.548489,-2.043571,45.693283,-6.465569,33.24789,0.0,-5.710863,-30.472964,-49.349941,-22.072098,23.952244,-6.308144,36.175614,11.037824,39.642035,25.939894,268.00057,-114.812536,115.746408
81,1.218109,0.232861,11.621933,20.170031,0.0,-66.530399,-36.276398,-99.246483,-30.942822,-100.832634,-23.051949,-89.081669,-13.629341,-66.875095,0.0,15.635822,25.646675,47.59376,44.225892,63.895374,58.34253,79.991607,68.093785,89.442384,0.0,56.381607,14.83263,59.081326,9.000835,59.30706,4.035816,55.314789,1.111679,48.399982,0.0,4.947875,-16.160268,7.65526,-1.896417,28.557157,16.097468,44.831355,34.654825,54.243106,27.776957,268.058708,-102.57165,135.741716
82,-0.416222,0.868828,4.590569,25.314149,0.0,-65.14801,-35.494308,-98.008976,-30.304871,-100.388088,-22.496338,-88.289223,-12.94796,-65.891533,0.0,15.297985,25.83452,47.137547,43.81661,64.419512,57.332232,79.90176,66.439615,88.088136,0.0,68.489628,26.197758,73.966026,15.424976,71.670685,6.763287,61.591358,1.037235,51.052036,0.0,21.804626,-1.534498,33.894245,15.5398,49.356857,33.390486,59.61039,49.573972,62.098067,27.713499,268.569693,-97.628317,160.698022
83,-0.532494,1.711042,4.675884,22.35334,0.0,-63.687687,-35.106297,-97.151756,-30.174179,-98.99065,-22.663193,-87.461929,-13.400688,-66.02663,0.0,12.045838,25.567696,46.861029,43.429374,63.133992,56.783456,77.967861,65.409309,86.655712,0.0,70.328636,27.222691,82.076626,15.713196,75.495872,3.714867,61.323853,-8.68309,31.080208,0.0,17.961466,10.965391,46.131572,21.253319,63.829301,31.562859,68.69511,40.737611,67.011979,27.322283,269.962751,-92.811155,182.733378
84,1.306458,2.128351,27.824192,48.278016,0.0,-57.263489,-32.342262,-95.861435,-29.422417,-101.064491,-23.54702,-90.27792,-15.789185,-66.680145,0.0,-9.307948,26.689948,39.256095,42.491879,57.958628,54.02914,73.239385,61.532865,82.845155,0.0,54.987488,39.872646,36.843224,30.494156,18.165779,17.577438,9.442234,1.069221,7.111759,0.0,19.297992,20.994461,94.262127,30.196322,103.780151,41.568278,106.133582,53.29536,100.343123,28.618383,272.139747,-64.99732,231.060038
85,-3.668861,-2.991252,-6.035328,9.115719,0.0,-53.1534,-27.981548,-78.68248,-28.074245,-92.314796,-24.690456,-89.588985,-17.886429,-69.334774,0.0,-8.167048,33.095936,10.519368,45.946506,29.389059,55.610692,56.839587,61.455369,84.881931,0.0,70.276394,29.528732,81.416245,17.582016,74.911766,6.094894,63.313522,-4.374504,40.944901,0.0,15.391228,25.162614,66.479259,43.330017,78.90091,57.524831,81.627499,67.064899,81.902782,25.020075,269.469582,-70.962095,240.496844
86,-1.194649,28.036354,1.213245,13.655795,0.0,-57.646694,-37.329998,-54.096622,-33.298359,-43.340378,-27.489338,-36.757736,-20.071564,-36.864624,0.0,27.942555,14.511779,37.805393,12.196447,39.256836,8.786466,31.182661,4.11443,24.148116,0.0,71.033535,31.204262,85.546703,19.118156,80.489674,7.366848,63.805962,-3.922462,38.058357,0.0,13.041008,30.130558,70.774494,45.526047,89.728474,56.974635,95.422973,64.346708,94.618736,24.034796,297.659432,-69.53948,254.306135
87,6.513977,-23.097556,2.595577,9.83789,0.0,-57.699738,-45.810242,-23.274765,-43.352795,-14.393921,-37.977448,-15.340118,-29.688206,-24.357147,0.0,1.479416,25.436168,67.468685,38.341448,81.566613,48.810057,82.845588,56.181945,81.850542,0.0,74.252586,30.411816,88.909378,18.776722,86.980133,7.813282,70.683632,-2.872982,47.842712,0.0,5.492452,29.136623,68.766494,44.557986,88.821422,56.484831,96.837305,64.544989,96.372262,30.601845,274.226216,-66.890831,263.808366
88,1.236305,2.730665,3.593731,2.906221,0.0,-43.100452,-39.516621,-15.64167,-39.106808,-6.909027,-35.671463,-9.500885,-30.030899,-20.935135,0.0,7.245114,24.770066,60.303415,34.737818,73.172077,43.175394,75.316669,49.561498,74.116488,0.0,71.804867,29.874287,91.015377,18.729801,89.667149,7.532558,71.994839,-3.786736,41.723385,0.0,4.375387,31.353278,66.144077,47.188986,86.203946,57.716566,95.94884,64.077909,92.241901,32.133293,276.703689,-63.001957,266.461395
89,-0.385895,2.369178,4.550915,1.61113,0.0,-37.499771,-33.685455,-7.597389,-32.895641,2.700233,-28.727989,0.248108,-22.654381,-9.496994,0.0,2.129216,20.612288,47.481374,31.003153,60.497002,39.50495,65.564364,45.357592,66.708229,0.0,72.019958,29.262886,96.149826,19.155807,94.654884,9.294605,79.516869,0.042114,56.894817,0.0,3.444006,30.09925,60.406908,46.720362,75.842288,58.488508,85.283432,66.378235,88.789127,32.16362,278.734366,-58.034821,267.734025
90,-2.769012,11.099328,2.981358,1.812683,0.0,-43.574467,-51.054268,-1.744652,-55.770264,5.152588,-55.062675,3.106155,-51.22118,-27.021732,0.0,11.145826,16.319399,45.36883,27.020128,54.944158,34.181447,54.474114,39.600292,57.359464,0.0,71.469669,29.387169,93.432026,19.424801,91.587696,9.60228,75.056362,0.287304,52.45657,0.0,4.433186,29.941416,59.550862,46.665466,75.252634,58.063912,85.27417,64.975574,86.807371,29.781389,289.982358,-54.666681,269.695372
91,-3.694382,-4.407065,1.596851,0.671227,0.0,-14.642143,-39.024124,7.788277,-45.965309,12.275162,-47.263184,3.139458,-45.565567,-21.163559,0.0,-4.478572,18.229524,43.187621,33.643971,55.466937,45.356913,63.970401,54.406621,68.142506,0.0,71.843147,29.164639,92.792015,19.160728,90.543137,9.343185,74.990845,0.690765,53.714161,0.0,6.865287,30.402136,60.206158,47.453648,74.947895,58.639303,82.803844,64.951245,85.683513,26.333485,285.732957,-52.823353,270.524263
92,-15.424805,-5.67301,1.021442,-0.989118,0.0,-16.47337,-25.545902,28.882484,-35.839291,27.158203,-44.101124,13.853073,-49.583874,-42.829742,0.0,-11.582278,17.700509,43.476119,36.47461,56.46433,49.752492,64.709059,60.337624,75.054229,0.0,71.402493,28.316231,90.993061,18.166008,89.476261,8.202953,74.722424,-0.554867,53.310127,0.0,10.80589,30.999571,62.411018,48.249611,76.187226,59.671337,83.827296,66.196689,86.584081,11.036682,279.951359,-51.673908,269.426557
93,-18.343906,6.270137,0.443974,0.529819,0.0,5.263653,-16.267605,43.381977,-23.790779,48.734837,-26.581192,35.520115,-26.091957,2.773762,0.0,18.862096,17.281223,47.594562,32.633611,57.020886,44.398793,61.53268,53.776767,60.13922,0.0,71.909981,28.737831,90.282555,18.384361,88.220901,7.942429,73.370934,-1.483383,51.328468,0.0,11.72912,30.951468,61.891512,47.867437,75.602758,59.00258,83.242272,65.234494,86.051607,-7.237673,286.203743,-51.160383,269.938622
94,-1.40728,-6.858618,0.085773,0.671289,0.0,13.492985,6.124191,49.71056,-4.334679,42.1768,-17.024345,27.023449,-28.904743,-9.456539,0.0,-11.165648,17.788997,35.415899,37.634591,52.726763,52.163167,64.143179,62.952569,69.300141,0.0,72.434978,27.935772,90.332623,18.056145,88.949375,8.348064,74.209042,-0.149403,53.578949,0.0,11.970379,31.300666,61.000144,48.30037,74.194293,59.431314,82.210361,65.674527,85.933911,-8.662634,279.349802,-51.092291,270.614589
95,6.268673,0.313816,0.245075,0.258919,0.0,3.799267,-4.638176,44.465103,-15.565166,39.91539,-27.299194,25.491829,-37.856083,-15.212402,0.0,1.97836,15.567896,39.374903,34.066653,56.623893,48.039906,65.16805,58.849131,71.666293,0.0,73.125114,27.545414,90.375366,17.788067,88.68084,8.229103,73.773766,-0.132294,53.691273,0.0,11.632419,31.376928,60.812547,48.436591,74.281053,59.555432,82.054194,65.865583,85.473068,-2.326298,279.645417,-50.779552,270.855307
96,5.035229,-0.263674,0.959358,0.149498,0.0,-1.943321,-10.49715,38.58633,-20.407677,35.45866,-30.967484,22.391911,-40.314903,-20.774632,0.0,2.572028,18.603238,42.415185,36.0594,57.568551,48.720952,65.565105,58.230515,71.917556,0.0,72.708778,27.216454,90.098305,17.478218,88.273659,7.917595,73.755913,-0.461655,53.801651,0.0,12.55744,30.88274,60.904925,47.838229,73.87739,59.135776,81.570009,65.713059,85.339563,2.726412,279.246864,-49.802713,270.869927
97,-12.294216,-2.177567,0.394192,-0.31079,0.0,23.487511,5.280075,53.782768,-4.9506,46.902809,-17.482224,31.414032,-29.04213,-12.495403,0.0,-8.145003,13.561131,36.5815,34.761715,53.987274,51.134713,65.97803,63.945516,74.09012,0.0,72.692471,27.687092,89.33836,17.881279,87.896748,8.199749,73.238468,-0.440254,53.407116,0.0,12.52496,30.638578,60.563693,47.86577,73.866213,59.421804,81.642504,66.168716,85.453308,-9.575329,276.871851,-49.416046,270.36169
98,-6.681232,6.176029,0.401115,0.349199,0.0,14.661026,10.22953,57.823162,2.024517,57.510052,-9.394398,45.559559,-21.083965,15.279465,0.0,24.277915,12.312291,36.946754,26.822156,51.698309,38.003241,56.452597,47.81075,59.664668,0.0,72.294788,27.665405,89.555683,18.158741,88.258953,8.688354,74.175968,0.109577,54.454365,0.0,12.670876,30.026138,59.322633,47.217638,73.064014,58.92212,81.072733,65.973708,85.271329,-16.257792,282.986037,-49.016161,270.649045
99,-0.777569,-6.151576,0.779915,-0.091761,0.0,34.020653,16.313095,62.54425,3.575993,57.848969,-11.877308,42.671814,-26.734543,12.243462,0.0,9.383469,10.760874,34.854403,30.886383,54.916679,47.085739,65.632228,60.057833,70.715954,0.0,71.816082,27.348289,89.03017,17.827721,87.770748,8.228073,73.396854,-0.590172,53.638058,0.0,13.077132,29.804207,59.918895,46.888755,73.23957,58.589655,81.162024,65.696881,85.293251,-17.042513,276.795789,-48.243399,270.518613
100,1.916199,-0.828629,0.42366,0.122142,0.0,36.757736,14.263458,60.518188,1.111565,54.513702,-14.091911,40.376472,-28.337116,10.819874,0.0,-2.570176,10.307996,35.233921,31.908476,55.386415,49.173026,67.474552,62.734528,72.321897,0.0,71.538563,27.737961,89.052486,18.242455,87.581463,8.627586,73.344898,-0.124454,53.874035,0.0,12.760352,30.051641,59.959033,47.024235,73.349918,58.571007,81.42329,65.473962,84.850871,-15.131235,275.966667,-47.824659,270.640261
101,1.0219,-0.252868,0.417824,-0.066073,0.0,37.880573,14.562435,59.0518,1.939831,51.532574,-12.872601,36.962299,-26.448669,7.859001,0.0,-5.273609,11.951298,35.912434,33.638043,56.220601,50.732471,68.976322,63.800649,73.102052,0.0,71.767216,27.945442,88.396511,18.311234,86.870098,8.531399,72.803593,-0.325298,53.259029,0.0,13.113317,30.206573,60.685464,47.320823,74.038065,58.972384,81.878576,65.892691,85.400141,-14.1043,275.743485,-47.4018,270.603875
102,-0.253029,1.05161,0.412502,0.847092,0.0,33.298244,14.111309,60.087147,1.533737,54.655209,-13.242645,41.076908,-27.193165,12.101841,0.0,1.624962,11.859722,36.253976,32.176719,56.30878,48.272952,67.678143,60.870222,71.791214,0.0,71.813507,27.184296,88.166885,17.883167,87.133255,8.522987,73.05645,0.107059,53.594856,0.0,12.901761,29.67731,59.828122,46.869859,73.166087,58.630349,80.803069,65.709416,84.310925,-14.394808,276.827004,-47.026777,271.482877
103,0.73122,-0.277012,0.370502,0.417556,0.0,34.387093,13.675518,60.064774,1.253357,54.261703,-13.201275,40.391922,-26.717434,9.103947,0.0,-6.819221,13.405397,35.42405,34.144088,55.645087,50.186351,67.95534,62.354763,72.202348,0.0,71.797428,26.90506,88.345127,17.644329,86.812305,8.283634,72.558804,-0.226765,53.143444,0.0,12.479573,29.010714,58.783119,46.286997,72.771255,58.168765,80.26794,65.513544,83.778513,-13.678637,276.585576,-46.671324,271.936017
104,-1.60738,0.318817,0.326672,0.301157,0.0,30.376453,12.710266,59.687862,1.67593,56.391506,-11.745071,43.584194,-24.811649,14.149418,0.0,4.588488,13.952382,36.376427,33.985327,56.242769,49.275223,66.719838,61.114938,71.051197,0.0,71.388245,27.097607,88.027039,17.702351,86.519737,8.196602,71.926346,-0.431499,52.495766,0.0,12.550215,29.002563,58.93978,46.285454,72.852333,58.142644,80.240955,65.453646,83.48631,-15.313625,276.918827,-46.372261,272.251608
105,0.681095,0.83289,0.245876,0.223969,0.0,32.241211,11.118908,59.924927,-0.280209,56.015396,-13.681469,43.533554,-26.566029,15.791588,0.0,3.598938,12.91831,34.419309,32.985341,55.419451,48.809687,66.240037,61.323593,70.788943,0.0,71.715488,27.100582,87.792263,17.873783,86.364269,8.440361,71.913242,-0.17292,52.665539,0.0,12.236276,28.58723,58.937742,45.766071,72.788792,57.661114,80.084603,65.140757,83.673476,-14.622087,277.759219,-46.115942,272.483079
106,-1.361332,2.438647,0.061684,0.277074,0.0,23.698139,11.536102,60.109806,2.608452,58.789387,-9.43388,46.875629,-21.829548,17.925339,0.0,11.07364,13.358961,34.358238,31.416448,53.894463,45.543893,62.848026,56.977723,67.566189,0.0,71.178761,26.446037,87.271442,17.460308,86.646595,8.181381,72.420216,-0.370102,52.60603,0.0,12.418625,28.079456,58.062863,45.180862,72.332086,57.161986,79.730773,64.810454,83.440059,-15.981789,280.21457,-46.052628,272.776857
107,3.177223,-2.312553,0.042,-0.141532,0.0,27.710094,10.546246,57.226925,0.449581,52.719669,-12.421646,39.7859,-24.739208,7.102547,0.0,2.633532,14.694313,33.785935,34.693666,54.433606,50.132566,65.911093,61.981235,71.284923,0.0,70.652561,26.436138,86.446095,17.350731,85.626354,7.946033,71.729794,-0.616093,52.073994,0.0,12.68125,28.379563,59.362585,45.449662,72.935388,57.405344,79.971044,65.005647,83.466303,-12.778358,277.912993,-45.984421,272.646301
108,-2.490635,-0.274666,-0.194435,0.17957,0.0,30.338631,10.873718,58.198471,1.475143,55.554657,-10.585041,44.447594,-22.208576,17.24865,0.0,4.932376,15.222897,35.944483,34.39782,55.42822,49.374888,65.427464,60.966058,69.172626,0.0,70.818386,25.926476,86.693172,16.862011,86.180592,7.705936,72.150249,-0.398827,52.50452,0.0,12.364532,28.480587,58.59194,45.814174,72.493934,57.792581,79.591403,65.217512,83.157057,-15.260553,277.62871,-46.170416,272.816253
109,-2.52142,-1.717155,-0.34584,0.262439,0.0,44.399815,16.856689,63.801212,4.484768,55.515347,-10.317478,40.053463,-23.853722,5.387821,0.0,-13.805663,13.493947,35.812522,35.367178,54.726179,52.055906,68.896602,64.321699,73.381534,0.0,69.765987,27.493286,87.913914,18.034744,86.254978,8.342457,71.810932,-0.32793,52.706852,0.0,13.097695,28.595504,58.963678,45.676903,73.030668,57.474813,80.281093,64.827312,83.716948,-17.784662,275.910752,-46.518946,273.07789
110,-1.73624,-0.355868,-0.851555,-0.249842,0.0,43.397598,18.210125,65.611038,6.260376,57.712212,-8.21394,41.549034,-21.647816,6.083336,0.0,-14.151527,14.895064,36.201179,36.615339,55.94612,52.981421,69.473104,64.892396,73.803784,0.0,69.646969,28.227825,88.237095,19.120331,87.194195,9.310398,72.209072,0.171661,52.965946,0.0,12.663219,28.431927,58.595769,45.402731,72.851901,57.196566,80.075711,64.854296,83.965431,-19.517012,275.519069,-47.36661,272.792232
111,0.844574,0.81986,-0.361176,0.332711,0.0,41.723328,16.028938,63.323021,4.184303,54.822006,-9.856396,39.341927,-22.699184,5.233841,0.0,-13.665613,14.822137,35.986349,36.563283,55.246488,52.854462,68.307132,64.743331,72.74427,0.0,69.240932,27.669754,87.485905,18.668003,87.061787,9.324017,72.468853,0.788956,53.215885,0.0,12.741395,28.698133,59.147941,45.882409,72.832882,57.728422,80.06472,65.126986,83.476615,-18.667402,276.299023,-47.72275,273.085037
112,5.275555,1.712401,-0.595665,-0.025812,0.0,29.963322,12.949047,57.936916,-0.115871,50.166149,-15.413761,34.256001,-29.489994,-0.511951,0.0,-8.480184,14.274534,35.900022,35.438376,55.27335,51.642734,67.612687,63.859497,71.725882,0.0,69.571781,27.841244,88.579617,18.78828,87.604008,9.318695,72.755871,0.671883,53.288441,0.0,12.189284,28.523627,58.411876,45.767985,72.795091,57.598561,80.145304,65.048625,83.57239,-13.366871,277.944486,-48.293438,272.992288
113,-2.266273,-0.748168,-0.314198,-0.453248,0.0,32.199612,14.686546,60.227451,1.677303,52.823811,-13.931293,37.119884,-28.540649,2.291679,0.0,-8.040645,14.001474,36.686414,35.01341,56.232766,51.268712,68.717526,63.490724,72.559945,0.0,69.424896,27.870312,88.803978,18.812656,87.518578,9.310284,72.831573,0.609913,53.488197,0.0,12.920718,28.785325,58.96269,45.999426,73.24204,57.827594,80.499319,65.256292,83.891701,-15.501995,277.148508,-48.476486,272.49123
114,2.121449,1.086993,-0.251083,0.11924,0.0,24.750824,9.669285,57.108536,-2.289963,51.727982,-16.423759,36.564102,-29.488049,-1.102867,0.0,-6.637058,14.298864,36.700925,35.398609,55.86603,51.563755,67.854811,64.039253,72.25144,0.0,69.533501,27.56258,88.584023,18.486729,87.866936,9.064236,73.58963,0.588799,53.790894,0.0,12.908615,28.377217,59.234638,45.623613,73.036597,57.535823,80.321848,64.968473,83.985624,-13.272772,278.209195,-48.619795,272.584164
115,-0.331192,0.141717,-0.387554,-0.050821,0.0,27.032547,10.565758,56.612206,-1.554794,51.05175,-15.875187,37.338066,-29.378872,3.859406,0.0,-7.3956,13.317279,35.790909,34.522988,55.241178,51.171517,67.427066,64.123233,71.734404,0.0,70.020962,27.72274,88.236065,18.642197,87.25565,9.273205,73.187885,0.875187,53.80228,0.0,12.926708,28.552526,59.528262,45.813989,73.110574,57.758557,80.503703,65.173855,83.977349,-13.512726,278.311052,-48.916111,272.493484
116,-1.553593,0.04656,-0.008583,-0.095775,0.0,28.379116,13.067093,58.249226,0.418625,51.417103,-14.687862,35.740757,-28.33746,-3.692894,0.0,-8.237814,12.930351,34.866567,34.103826,54.842455,50.765075,67.048844,63.569703,72.896423,0.0,69.956989,27.498035,87.872143,18.395061,87.127132,9.115047,73.029728,0.862427,53.649502,0.0,13.609606,28.958844,59.91519,46.181651,73.514112,57.902497,80.777505,65.033002,84.113571,-14.861097,278.251339,-48.719473,272.291437
117,-0.247364,0.536673,-0.679836,0.016981,0.0,32.987022,12.628613,57.966957,0.008526,51.419678,-14.598141,35.960083,-27.693844,0.82489,0.0,-7.3935,11.105812,33.863494,32.715677,53.060894,49.997271,65.578938,63.385439,70.726637,0.0,70.484276,27.514057,88.753052,18.251953,87.404022,8.886223,73.072472,0.654716,53.630333,0.0,13.359022,28.659107,59.524433,45.984791,73.168557,57.756704,80.513769,64.873439,83.695829,-15.036077,278.709635,-49.326925,272.230041
118,0.60133,-0.211742,-0.183907,0.17852,0.0,24.10223,10.488682,56.325245,-0.99947,49.538784,-14.685116,33.746624,-27.171879,-7.185459,0.0,1.731852,12.820374,34.479701,33.565424,54.310537,49.825666,65.534971,62.405769,71.902488,0.0,70.321999,27.553024,88.547401,18.583775,87.954025,9.304676,73.496475,0.954666,53.809776,0.0,13.417685,29.183615,59.281754,46.325283,72.875366,58.023219,80.161483,65.214425,83.630559,-14.297676,278.431326,-49.37376,272.341995
119,-0.514698,-0.349322,-0.514698,-0.170802,0.0,23.838959,9.363213,55.761909,-1.679363,49.824486,-14.872627,34.457016,-26.795597,-7.57164,0.0,2.601545,13.811035,36.997574,34.251595,55.928151,49.959109,66.336121,62.337164,72.780271,0.0,70.50127,27.877693,88.897305,18.832912,88.196354,9.431763,73.813534,0.893955,53.956318,0.0,13.620227,28.61687,59.175173,45.893215,72.964719,57.752011,80.661908,65.147487,84.12765,-14.742308,277.999537,-49.818392,272.088725
120,-5.433655,0.131343,0.355053,0.187968,0.0,30.660667,12.366028,61.57505,1.064644,57.719193,-11.893444,45.126343,-24.137707,14.852142,0.0,5.988246,11.261114,36.550254,32.060876,56.522993,48.62388,66.987464,61.799133,71.295852,0.0,69.8069,27.059212,87.676964,18.051167,87.62043,8.792496,73.151321,0.473042,53.567848,0.0,13.360813,28.294101,59.541476,45.760513,73.254822,57.776217,80.35507,65.255983,83.750725,-20.072823,278.105083,-49.360199,272.250897
