takenoko1/special-research/HandMotion_SimilarSearch_自分用/NewProject/handData/test_key/d4_feature_d2/133.csv
frame,vel_0x_L,vel_0y_L,vel_0x_R,vel_0y_R,posFromWrist_0x_L,posFromWrist_1x_L,posFromWrist_2x_L,posFromWrist_3x_L,posFromWrist_4x_L,posFromWrist_5x_L,posFromWrist_6x_L,posFromWrist_7x_L,posFromWrist_8x_L,posFromWrist_9x_L,posFromWrist_0y_L,posFromWrist_1y_L,posFromWrist_2y_L,posFromWrist_3y_L,posFromWrist_4y_L,posFromWrist_5y_L,posFromWrist_6y_L,posFromWrist_7y_L,posFromWrist_8y_L,posFromWrist_9y_L,posFromWrist_0x_R,posFromWrist_1x_R,posFromWrist_2x_R,posFromWrist_3x_R,posFromWrist_4x_R,posFromWrist_5x_R,posFromWrist_6x_R,posFromWrist_7x_R,posFromWrist_8x_R,posFromWrist_9x_R,posFromWrist_0y_R,posFromWrist_1y_R,posFromWrist_2y_R,posFromWrist_3y_R,posFromWrist_4y_R,posFromWrist_5y_R,posFromWrist_6y_R,posFromWrist_7y_R,posFromWrist_8y_R,posFromWrist_9y_R,posFromBody_0x_L,posFromBody_0y_L,posFromBody_0x_R,posFromBody_0y_R
2,37.846756,-17.995243,0.4953,0.625038,0.0,-40.757103,-42.335072,8.692474,-53.875294,6.28315,-59.729633,-12.574081,-62.314167,-88.344269,0.0,-13.761203,18.926563,44.987151,37.651943,55.079453,49.482643,61.605113,59.215619,77.785141,0.0,66.720142,26.358204,87.491512,17.491493,85.475292,7.694721,71.172466,-1.958542,50.393314,0.0,5.115466,28.593961,56.162061,44.906135,71.587685,56.637107,81.361972,64.325095,85.808311,31.638737,294.5886,-43.649826,281.641391
3,-22.178307,0.345864,0.437565,-0.679131,0.0,-7.827873,-26.67326,32.881508,-38.397045,31.790657,-43.937073,17.455902,-45.737171,-61.721821,0.0,-14.747789,18.779721,47.665822,37.962239,58.744772,49.987082,64.117923,58.706425,72.245142,0.0,65.961685,24.733028,87.141838,15.566826,84.879913,5.995102,71.240387,-2.977295,50.789566,0.0,5.808367,29.470137,58.046499,46.10471,73.163555,57.899101,82.49466,65.336938,86.312256,7.876768,294.995674,-44.795923,281.02347
4,-16.977882,7.736215,-0.089264,0.267441,0.0,14.524956,-8.24461,56.228485,-17.327557,51.280403,-23.416328,39.020348,-25.660858,-30.517273,0.0,-19.015669,13.175624,44.847533,31.023654,54.793611,44.033848,59.156277,53.067501,66.886503,0.0,65.525208,25.070686,86.331825,16.099491,84.919395,6.477642,71.086235,-2.736626,50.467415,0.0,4.739159,29.342437,56.869721,45.79213,72.437309,57.447643,81.854432,64.975327,86.198018,-9.959135,302.739762,-45.743208,281.298784
5,-2.552776,5.491341,-0.184479,-0.107507,0.0,-10.700855,-7.179165,54.31818,-12.672157,57.356586,-14.595623,42.707691,-13.062973,-17.312679,0.0,2.235982,12.244613,39.858903,24.57228,44.086892,32.95885,53.442635,39.952455,61.964254,0.0,65.661278,25.576,86.874619,16.521778,85.209961,6.812439,71.367073,-2.526398,51.244926,0.0,5.206362,29.527256,57.176682,46.118974,72.348944,57.87508,81.63176,65.394736,85.673201,-13.247051,308.251604,-46.662827,281.211778
6,44.622059,-12.041083,-0.164967,0.493818,0.0,-43.309822,-49.107227,4.73465,-57.963982,7.934418,-59.715672,-2.237892,-58.694458,-70.540466,0.0,-13.389465,15.202828,43.324707,34.439563,52.974505,47.62692,59.351717,58.622692,75.827159,0.0,66.404514,25.706978,86.948147,16.729889,85.323086,7.000923,71.666508,-2.366924,51.387119,0.0,4.453254,28.847816,56.769747,45.33388,71.817335,57.140805,81.00277,64.793719,85.157276,30.907516,296.222037,-47.295284,281.717112
7,-23.264809,-1.5261,0.40678,-0.170431,0.0,-6.107712,-25.832748,30.102539,-35.767593,29.950676,-40.505619,18.680305,-41.181679,-42.098236,0.0,-14.3453,17.675253,44.229474,36.974541,58.028962,49.322339,65.43333,57.69199,77.84541,0.0,66.258545,25.607414,86.901855,16.477661,84.846268,6.664009,71.011162,-2.662354,50.817032,0.0,4.878653,28.848187,57.017305,45.568223,71.888101,57.471417,81.098545,65.095,85.327584,7.308569,294.696771,-47.222643,281.547515
8,-15.450554,12.782274,-0.229511,-0.040447,0.0,21.9524,-7.288055,47.747269,-14.912739,48.728714,-19.670391,35.671577,-21.256371,-33.852882,0.0,-26.182916,9.485975,31.780529,26.120671,45.227669,38.786298,53.170995,48.495439,65.343977,0.0,65.802898,26.120453,87.148647,17.125568,85.37035,7.19965,71.477566,-2.368927,51.42683,0.0,4.773122,28.92661,56.755915,45.385133,71.163089,57.117526,80.527663,64.667748,84.936889,-8.37327,307.470631,-47.683439,281.498655
9,0.505772,2.955992,0.220413,0.078361,0.0,12.592449,-5.46896,48.890133,-14.329033,47.256603,-20.595417,33.197651,-24.127636,-26.228485,0.0,-20.698862,5.326961,25.299329,20.954447,43.460372,33.633597,52.060229,43.545711,58.6138,0.0,64.904881,25.960464,86.685162,16.997337,84.708538,6.965561,70.605755,-2.986736,50.335064,0.0,4.353466,29.114331,56.389612,45.491158,71.293815,57.338407,81.316277,65.239063,85.52043,-8.120756,310.373672,-47.716284,281.524065
10,0.493641,8.290116,0.041142,0.09065,0.0,8.873749,-10.050259,39.801178,-17.432728,41.412048,-21.484165,33.698502,-22.447472,-17.146568,0.0,-28.983606,0.976645,27.262189,13.299001,37.341647,23.340606,45.430519,30.751643,48.590473,0.0,64.852524,25.525475,86.482315,16.577568,84.958305,6.570511,70.448341,-3.378124,49.693909,0.0,4.154568,28.918706,56.217699,45.364014,71.057558,57.20342,81.135101,64.998978,85.429781,-7.814741,318.671909,-47.862768,281.622835
11,-1.241627,-1.024439,0.069408,-0.046004,0.0,21.168079,-9.704647,45.871983,-20.072193,42.876835,-25.77364,31.336956,-26.704617,-35.793571,0.0,-24.374555,-1.425508,22.671355,11.714238,36.791081,23.760941,43.669027,33.255623,54.224951,0.0,64.331417,25.525074,86.357746,16.630669,84.87093,6.658974,70.144901,-3.252125,49.337368,0.0,4.082196,28.740865,55.987246,45.002898,71.178835,56.812355,81.124418,64.734068,85.296894,-9.201021,317.649862,-47.938013,281.579223
12,-4.725208,-8.115548,0.280781,-0.155179,0.0,22.686996,-5.393085,46.628151,-13.468151,43.914757,-18.176308,34.77459,-18.579769,-22.111473,0.0,-17.973754,8.025763,32.427673,21.417883,46.454711,31.28103,51.923637,38.765241,58.404157,0.0,64.375992,25.220718,86.845894,16.384735,85.340538,6.476955,70.531425,-3.344193,49.495583,0.0,4.475052,29.252714,56.013737,45.551982,70.832786,57.314571,80.917369,65.086416,85.594407,-13.980532,309.528988,-47.711535,281.418719
13,43.024979,-13.729587,-0.075817,0.494991,0.0,-39.337692,-48.06839,1.713982,-57.715073,5.493622,-60.356483,-3.863754,-60.614204,-79.811668,0.0,-6.249883,14.885987,45.76533,32.035681,55.191839,43.963762,60.876273,54.344006,78.111122,0.0,65.194759,25.860558,87.28014,16.572533,84.576473,6.278,69.814281,-3.931904,49.031582,0.0,4.692537,28.111999,55.911849,44.452393,71.189395,56.182933,80.983751,63.891793,85.278122,28.930664,295.795172,-47.901134,281.90948
14,-33.759956,-3.550649,0.405922,0.085895,0.0,9.606171,-15.569687,41.081886,-27.218456,40.519638,-33.958225,28.252716,-36.86245,-37.042866,0.0,-10.504116,19.201538,48.621163,39.003289,61.655502,51.628655,68.217718,59.581058,76.857712,0.0,65.469189,25.572853,87.315845,16.244831,84.36018,5.915222,69.236813,-4.26115,48.343105,0.0,4.344574,28.117371,56.10593,44.585959,71.265039,56.524413,81.006166,64.308299,85.407612,-4.915924,292.229518,-47.581844,281.98037
15,-4.331532,8.226884,0.059681,-0.140667,0.0,14.181461,-11.76218,46.38731,-19.934807,46.80479,-23.741455,32.70052,-23.875866,-31.493969,0.0,-7.984205,12.820991,46.363877,29.959571,52.429249,41.772672,61.574547,51.637794,69.552083,0.0,65.167465,25.981579,87.142982,16.739559,84.143028,6.343975,69.336891,-3.967381,48.440437,0.0,4.426517,28.142318,56.177808,44.542548,71.481906,56.29711,81.426687,64.00739,85.373094,-9.283018,300.397816,-47.557726,281.781116
16,-3.942661,1.813795,0.19186,-0.331414,0.0,29.815521,-4.163132,53.173599,-12.956772,55.532341,-17.693024,40.758705,-18.844986,-27.820358,0.0,-6.257972,13.651781,36.427309,29.072279,50.772053,40.848145,60.230117,50.503068,70.15489,0.0,65.059605,25.653076,86.791134,16.388111,84.506321,6.17712,69.970608,-3.831196,48.661938,0.0,4.710383,27.861415,55.864548,44.414601,71.514819,56.412583,81.672947,64.265815,84.929541,-13.253603,302.18742,-47.393789,281.425511
17,7.226486,4.169264,-0.364437,-0.930393,0.0,20.974846,-4.986877,47.882996,-16.944237,47.546768,-24.927635,26.917992,-29.990616,-31.28706,0.0,6.192887,4.40336,29.387577,17.741079,42.781179,27.648747,52.008482,36.491838,57.05417,0.0,65.028419,26.025867,86.7453,17.19223,86.19381,7.37606,71.809959,-2.345009,50.211525,0.0,4.827338,26.778622,55.563638,43.199847,72.014504,55.176587,81.311399,63.017654,83.825505,-6.049976,306.327121,-47.781086,280.465555
18,-0.824661,14.33153,1.554337,-2.443958,0.0,2.091064,-8.58799,45.66227,-17.244987,50.240021,-23.333302,30.591202,-26.830673,-33.713264,0.0,35.47413,-0.051438,22.073549,5.678444,31.001733,10.258966,37.256432,14.23878,42.190969,0.0,64.053955,21.918983,84.51519,13.081856,85.61245,4.064484,72.017555,-4.4244,49.59034,0.0,4.744469,25.207383,55.174919,42.388262,73.669724,55.045614,83.536143,63.314488,83.917822,-6.825686,320.62194,-46.177797,277.984886
19,15.424576,-12.974626,-0.01276,-3.880396,0.0,-41.371651,-39.82996,14.294357,-45.560017,22.832108,-45.070095,14.755325,-41.311054,-36.285667,0.0,45.655908,6.154108,42.394498,8.09517,44.131908,7.702252,42.138852,8.141421,47.071166,0.0,65.147839,20.112076,82.572613,11.756516,82.468472,3.732834,69.543171,-3.678303,49.005947,0.0,4.856114,21.175019,53.025943,38.902513,75.072137,52.489085,84.665619,62.128139,86.139293,8.762913,307.579173,-46.026535,274.036349
20,-1.955681,-9.990723,0.300407,-10.120337,0.0,-24.70047,-29.187984,12.837753,-38.584843,16.773491,-44.591789,3.218193,-46.146812,-36.643753,0.0,51.201651,4.367051,33.527077,9.808682,42.351767,14.430392,45.998005,19.124782,52.057512,0.0,64.049892,20.58918,76.894627,9.931297,72.971706,-0.954952,57.436008,-11.163483,37.019634,0.0,7.661435,15.00183,56.469393,31.799363,75.676118,46.288294,85.242492,57.682048,86.698875,6.813211,297.594594,-45.720148,263.922156
21,45.753708,9.695494,-2.823944,-10.556665,0.0,-59.013748,-47.204933,-86.555386,-51.805458,-66.950397,-51.796761,-52.580338,-49.28112,-45.839539,0.0,49.803992,22.584719,39.15958,9.985103,-7.421103,-7.498661,-25.793456,-27.062427,-38.877565,0.0,62.28075,17.125683,71.594982,8.535862,68.516521,0.084515,55.823765,-7.504349,39.396973,0.0,3.613387,6.877267,42.186585,23.25891,61.099933,39.119936,74.44784,53.000317,75.742994,52.658787,307.251756,-48.452225,253.327159
22,-14.792061,-48.303704,-2.806892,-20.605557,0.0,-60.259666,-26.304359,-69.391823,-12.736244,-57.673645,0.900536,-45.870724,13.188515,-25.786514,0.0,24.61532,28.656761,79.637345,39.69582,88.608321,48.01533,93.840063,53.334016,91.497623,0.0,57.096233,58.124371,55.801678,56.097507,41.543026,47.791615,32.725468,35.095596,30.202045,0.0,1.753218,27.765332,94.230511,37.564875,107.322648,47.4576,110.88151,56.247462,101.834519,37.979794,258.446562,-51.146049,232.220112
23,37.923775,-35.856982,-20.214272,-32.608293,0.0,-64.633598,-32.358627,-78.263397,-19.26178,-60.921707,-5.63324,-49.169655,6.130714,-35.644684,0.0,39.611222,21.56275,77.687638,34.094317,88.083628,46.031289,94.731801,55.640764,97.769736,0.0,64.757137,27.330894,73.658237,17.406578,55.457554,5.790195,41.070328,-4.269562,23.790607,0.0,-1.12571,2.288409,12.732132,14.672701,48.416954,26.80431,53.351924,37.76791,51.933455,76.038837,222.146937,-71.225052,199.169177
24,24.266624,-27.008766,-10.510998,-11.933205,0.0,-59.779358,-32.086143,-74.24984,-19.894066,-41.648598,-6.110458,-29.172134,7.144318,-17.941017,0.0,33.255623,10.160228,49.752307,20.951483,73.681456,32.135408,79.036143,41.849674,80.82462,0.0,57.222919,22.50658,63.151646,7.03846,48.361473,-7.485123,27.923012,-18.959198,12.162037,0.0,10.101318,-28.779088,-35.729282,-27.490728,35.609857,-16.302912,38.079997,-1.585195,32.130901,100.345802,195.479837,-81.695709,187.577636
25,26.751709,-23.146648,-2.87384,-1.806817,0.0,-52.336922,-30.489464,-77.262383,-17.193947,-37.351456,-2.359314,-21.341171,11.012306,-12.084274,0.0,21.80265,-5.310288,8.613318,-1.971073,57.4687,6.816257,56.010402,17.26066,56.346263,0.0,32.772102,23.431664,56.709194,8.821278,29.518318,-6.993198,7.313461,-22.254524,-0.567913,0.0,2.806062,-37.164547,-73.258126,-41.554878,-10.213518,-37.563208,2.530902,-28.271006,1.609092,126.545963,173.779028,-85.121098,187.216659
26,11.212807,-22.815665,-4.041052,-27.045229,0.0,-54.450989,-26.152325,-60.10603,-11.70971,-22.124348,3.854026,-5.143891,17.751846,4.164905,0.0,-2.219696,-8.295366,-15.946442,-6.798304,8.568965,-1.889115,21.485561,4.155957,25.069138,0.0,51.070404,21.050606,50.818806,4.354305,17.277575,-12.637396,-1.702308,-27.953653,-10.409832,0.0,-12.791552,-42.625137,-83.953776,-48.557715,-9.700018,-44.407192,-5.797191,-35.482713,-4.924102,136.853171,153.210075,-90.067749,162.418142
27,11.212806,-22.815666,-4.041052,-27.04523,0.0,-56.565056,-21.815186,-42.949677,-6.225471,-6.89724,10.067368,11.053391,24.491386,20.414085,0.0,-26.242042,-11.280442,-40.506202,-11.625534,-40.330769,-10.594487,-13.039279,-8.948746,-6.207985,0.0,69.368706,18.669548,44.928417,-0.112667,5.036831,-18.281593,-10.718079,-33.652782,-20.251751,0.0,-28.389165,-48.085725,-94.649426,-55.560551,-9.186516,-51.251175,-14.125283,-42.69442,-11.457295,147.780905,133.858421,-94.393873,138.836925
28,6.867256,-17.096373,-0.450497,-16.108367,0.0,-56.177216,-13.580017,-20.647545,0.856361,4.711418,17.750816,22.709656,33.554993,34.321747,0.0,-30.057322,-17.174889,-84.290949,-14.200403,-26.24093,-9.374207,-18.617286,-3.783077,-6.339174,0.0,67.827015,17.504482,48.892479,0.645103,5.793629,-16.267548,-9.118652,-31.714725,-19.91066,0.0,-22.16,-48.769765,-92.112503,-56.38001,-10.926921,-52.927235,-10.944396,-44.301722,-11.864539,153.506269,121.597337,-95.986261,127.563847
29,7.479286,-18.95716,0.714397,-8.585808,0.0,-51.706009,-13.263359,-19.68544,-0.171318,6.453896,15.151062,24.441376,29.541893,36.345863,0.0,-25.059676,-18.944378,-82.176182,-12.498036,-35.758336,-3.143189,-24.287332,6.080964,-6.356742,0.0,71.237411,20.744076,57.154083,4.475899,9.196701,-12.2719,-4.751472,-28.063431,-15.487118,0.0,-21.361351,-48.996328,-95.496086,-56.896181,-12.451291,-54.804077,-12.62376,-47.34401,-15.272575,160.121984,104.047514,-96.135435,120.385377
30,8.271332,-9.068202,7.999363,-3.373363,0.0,-49.194031,-11.307564,-16.533508,0.723038,12.967987,14.349747,29.728203,26.907349,40.974998,0.0,-25.016358,-25.174562,-86.062939,-17.517727,-38.207604,-6.388265,-29.491781,5.048683,-11.807265,0.0,72.063961,22.676697,58.742123,5.622997,11.056767,-11.563511,-5.170097,-27.83123,-16.025448,0.0,-22.110847,-50.132195,-95.361377,-57.961623,-14.687521,-56.038622,-14.808891,-48.924944,-17.286163,167.732649,96.097442,-88.79674,118.130144
31,12.688522,-1.489235,11.899338,-1.111693,0.0,-51.812439,-9.338837,-21.366806,1.47789,5.467415,12.455635,15.776596,22.067528,22.027245,0.0,-21.439527,-37.90935,-92.196514,-38.640475,-13.864326,-34.1431,-10.415288,-28.272642,-8.22253,0.0,73.737488,23.525734,61.04353,6.587791,12.989388,-10.793037,-5.142689,-27.160549,-16.917686,0.0,-20.772128,-50.072699,-91.389004,-58.619913,-12.921428,-55.837717,-15.737741,-47.73946,-16.012036,178.901367,95.148308,-78.417206,117.558551
32,8.217087,0.357381,12.096462,1.648365,0.0,-48.163719,-5.681419,-15.393448,6.005516,8.931198,16.638107,16.57299,25.280457,22.776031,0.0,-22.150768,-38.944163,-89.98517,-40.79717,-15.392062,-37.330254,-11.199518,-32.326464,-8.682509,0.0,72.84708,24.337749,66.465511,8.115292,12.104359,-8.526077,-4.114723,-24.164486,-14.942322,0.0,-21.326431,-50.22019,-91.242254,-58.988223,-12.861098,-55.931269,-16.504156,-47.433085,-15.453874,185.248747,95.214288,-68.190451,118.915516
33,10.245323,-1.480157,15.467663,0.284947,0.0,-46.882324,-4.749413,-8.709641,6.283035,7.538681,15.432243,15.672913,22.872047,17.56794,0.0,-18.012009,-34.685577,-86.994382,-36.637446,-18.90069,-34.16465,-10.879712,-30.457248,-11.112542,0.0,72.197571,25.756073,71.515961,9.606457,15.981846,-6.943645,-2.612286,-22.88023,-14.171448,0.0,-18.47773,-50.007923,-91.759661,-58.553501,-10.140714,-55.527175,-15.473387,-46.997251,-15.127863,193.479738,93.674202,-54.73712,119.140535
34,20.199451,-0.989998,15.891666,-4.549338,0.0,-50.71598,-5.127926,-8.404426,9.96666,7.704106,22.752857,18.482209,34.217835,24.635468,0.0,-25.620261,-43.712268,-97.332435,-47.82838,-17.939652,-44.665987,-14.146047,-39.507358,-14.164448,0.0,73.921452,26.67738,74.058437,11.950493,17.598381,-3.677559,0.840626,-18.993015,-9.654808,0.0,-19.548884,-48.427761,-89.899183,-56.785741,-9.209148,-54.41505,-12.029011,-45.373801,-13.140735,211.504841,92.573084,-41.019802,114.480077
35,20.199452,-0.989998,13.251514,-9.403137,0.0,-54.549637,-5.506439,-8.099213,13.650284,7.86953,30.073471,21.291504,45.563622,31.702995,0.0,-33.228514,-52.738958,-107.670488,-59.019315,-16.978615,-55.167324,-17.412381,-48.557467,-17.216354,0.0,77.117729,27.276535,73.035851,13.993492,23.173599,-0.416851,5.933475,-14.589443,-6.498413,0.0,-17.414697,-50.581368,-88.369594,-58.632263,-11.846817,-57.019589,-12.907874,-48.203668,-14.578315,229.151888,90.800862,-30.320692,104.294717
36,12.368546,-24.165314,14.168243,-14.884258,0.0,-53.363457,-7.43969,-8.626671,10.129967,10.070801,25.963783,20.14286,41.294174,33.822899,0.0,-28.769795,-46.625112,-99.460648,-50.271937,-15.575553,-45.559516,-15.639774,-39.005728,-17.897986,0.0,77.88826,24.833908,65.969925,13.294716,22.000008,-0.539017,5.901947,-14.750519,-5.406647,0.0,-22.569127,-49.453991,-80.384896,-57.193695,-11.539546,-57.529185,-13.77485,-52.560994,-19.578339,240.106173,64.608561,-17.56671,87.383471
37,6.542244,-22.37767,19.458961,-24.258835,0.0,-52.161827,-7.146149,-12.211418,8.460732,7.705994,23.078957,17.876472,36.900215,30.392303,0.0,-38.024607,-41.43678,-81.886604,-44.768153,-20.17917,-42.116189,-18.480077,-38.031369,-19.550397,0.0,69.828873,27.970276,69.605598,12.15786,12.258568,-3.833199,-3.112564,-19.661179,-11.238441,0.0,-22.035696,-51.579965,-104.077788,-59.317477,-12.840134,-59.460027,-17.383142,-56.063539,-24.242594,245.21224,41.691593,0.456076,62.585339
38,-2.652626,-34.423755,5.071678,-28.500254,0.0,-49.138985,-5.036316,-6.418762,13.134041,8.025513,29.750519,20.827789,45.653343,34.610939,0.0,-42.877757,-55.643667,-123.423296,-56.727417,-16.623087,-50.86647,-14.46525,-42.335341,-16.793982,0.0,67.108841,27.569275,67.245598,11.422005,8.40889,-5.341187,-6.958237,-21.592026,-15.376282,0.0,-24.513864,-52.70867,-108.880025,-61.549229,-17.604518,-63.328042,-18.39378,-61.760663,-30.402939,241.185951,6.993481,4.154091,33.810728
39,-10.3442,-25.772522,1.435318,-31.65533,0.0,-50.512505,-3.636703,-7.014771,12.449799,10.581436,28.178673,23.285866,43.886375,35.507469,0.0,-49.17704,-46.633911,-107.633268,-46.603159,-28.289809,-43.686193,-27.568811,-39.69829,-30.31868,0.0,68.989677,19.625244,56.08223,4.29554,11.876678,-12.372437,-3.145523,-29.727058,-18.588753,0.0,-20.039861,-51.399376,-107.719827,-54.269257,-22.879701,-51.787539,-20.230701,-45.699504,-22.490488,229.978065,-17.905752,4.725723,3.028688
40,-9.739494,-34.857861,-6.253395,-39.735155,0.0,-52.420006,-9.960365,-17.509117,7.301216,6.758652,23.370209,18.761101,38.186188,30.603104,0.0,-47.192691,-55.605289,-131.452594,-55.018938,-24.268993,-50.599739,-20.868984,-43.971913,-25.142267,0.0,57.072144,26.760292,52.365875,7.728653,34.694023,-12.742081,4.541702,-31.902637,-9.176331,0.0,-24.786739,-70.706846,-137.437938,-71.667837,-97.25852,-63.730439,-20.255864,-51.690405,-19.777792,220.742798,-52.982703,-1.023445,-36.925558
41,-18.78994,-20.872072,-6.86142,-22.61578,0.0,-59.373779,-1.612816,-20.416031,15.307159,-3.018723,28.906746,9.477425,39.251633,18.315353,0.0,-56.084472,-53.339033,-103.508912,-56.52256,-36.277256,-54.128281,-34.025496,-48.347732,-34.004532,0.0,43.898735,27.186699,55.820732,8.287354,39.330482,-12.507477,2.641869,-33.362732,-13.212547,0.0,-40.296929,-55.186343,-119.250358,-56.726553,-93.150111,-51.675215,-39.304539,-42.339726,-29.834897,202.333717,-71.265718,-7.504005,-56.952281
42,-31.031685,-28.581549,-29.139233,-27.439644,0.0,-54.06189,-9.353371,-23.945847,7.798347,-1.58741,23.415756,11.842804,38.696709,22.523689,0.0,-48.898793,-57.095681,-128.159584,-57.283078,-32.240816,-53.961493,-27.60123,-47.566775,-28.271716,0.0,54.805928,21.045399,51.284008,0.896988,34.047146,-19.744062,-1.672439,-40.135917,-19.543018,0.0,-36.147835,-60.113841,-118.165064,-61.672993,-92.999502,-55.735389,-35.336905,-45.399822,-28.256055,170.781984,-96.979531,-37.163287,-81.52419
43,-32.320633,-20.697982,-29.139232,-27.439645,0.0,-62.108688,-11.319809,-25.606041,5.892105,-0.132065,22.063637,13.924484,37.906265,26.546288,0.0,-45.830646,-52.162827,-120.631236,-52.269207,-27.364973,-49.049248,-24.395473,-43.239367,-24.430177,0.0,65.71312,14.904099,46.747284,-6.493378,28.763809,-26.980648,-5.986748,-46.909103,-25.873489,0.0,-31.998739,-65.041338,-117.079769,-66.619432,-92.848892,-59.795564,-31.369271,-48.459917,-26.677212,139.475384,-117.13766,-65.288486,-108.423982
44,-23.798676,-4.574995,-45.974293,-21.984536,0.0,-52.269173,3.76133,-19.463882,17.645187,-8.954773,26.31237,-0.796623,30.377655,0.91507,0.0,-55.26174,-52.876615,-75.611913,-56.112507,-36.844248,-55.036321,-33.742355,-51.171856,-37.981474,0.0,61.087418,12.536087,36.165676,-5.431767,3.004646,-21.878128,-10.34729,-38.236542,-21.206303,0.0,-39.221531,-53.166024,-123.518346,-54.69024,-27.885344,-51.242391,-22.861747,-45.770362,-22.725788,117.343712,-120.191789,-109.595776,-128.887652
45,-44.189301,-4.962371,-34.137211,-7.45241,0.0,-43.76152,-16.49826,-33.384132,-0.763893,-11.569862,15.765495,4.772415,32.720032,16.482925,0.0,-43.173665,-52.06733,-122.190619,-54.313393,-36.456162,-52.206176,-29.196027,-46.918951,-28.01891,0.0,63.310089,7.590752,28.382549,-9.362354,-0.565395,-25.218372,-13.996239,-41.090927,-26.149864,0.0,-41.594522,-54.437635,-124.290095,-54.228841,-31.442986,-50.318743,-25.32054,-45.044625,-25.802348,76.029425,-123.746421,-140.857973,-134.932323
46,-41.066895,4.001365,-34.327812,-1.046515,0.0,-65.333176,-16.061668,-42.415924,1.404648,-20.697899,18.420067,-0.793991,36.172943,14.39415,0.0,-34.842948,-60.052739,-112.132419,-61.157006,-67.503543,-56.416766,-36.151501,-47.575728,-28.988113,0.0,57.480068,6.764946,21.025486,-11.076565,-4.564934,-27.430973,-18.550701,-43.774509,-31.789856,0.0,-45.248201,-55.915585,-127.080912,-55.268672,-31.039802,-49.93393,-24.593815,-42.303216,-23.10228,37.223539,-119.644881,-172.924776,-135.878663
47,-19.969368,14.094285,-39.112759,9.491965,0.0,-56.464977,-4.603386,-28.877335,10.348434,-16.70826,24.290314,-2.418022,37.598991,25.280571,0.0,-32.406091,-62.380158,-115.831948,-65.987555,-96.025627,-64.579214,-84.981689,-58.011425,-81.897565,0.0,57.710781,7.988491,19.057045,-8.507423,-4.28936,-23.965874,-16.435204,-39.727879,-29.191761,0.0,-48.022415,-53.957541,-127.994656,-52.961445,-30.496058,-48.58226,-24.584537,-42.004189,-24.693094,20.780983,-105.544746,-208.510723,-126.380848
48,-23.587617,23.548365,-33.825932,18.473099,0.0,-56.452618,-13.728762,-42.922039,3.039064,-21.790724,18.914651,-5.693322,34.274625,16.26523,0.0,-34.217941,-66.910538,-119.916197,-71.280715,-72.256364,-67.963113,-60.169971,-59.305064,-57.147906,0.0,54.317436,7.164001,14.549561,-9.020405,-7.114849,-24.891815,-18.804531,-40.707378,-33.207493,0.0,-52.020261,-55.492749,-130.999562,-54.158878,-26.022565,-49.159287,-21.226303,-41.854537,-23.002878,1.893597,-82.254529,-237.636423,-108.165896
49,-23.587618,23.548366,-27.418957,24.504509,0.0,-56.440258,-22.854137,-56.966743,-4.270306,-26.873188,13.53899,-8.96862,30.95026,7.249889,0.0,-36.029791,-71.44092,-124.000447,-76.573876,-48.487103,-71.347013,-35.358255,-60.598705,-32.398249,0.0,49.571171,4.755707,5.423412,-10.753384,-7.962112,-26.044922,-19.680977,-41.308365,-33.661366,0.0,-56.158912,-55.8953,-132.57023,-53.168787,-28.716473,-46.730195,-18.750451,-38.124396,-17.973353,-20.170527,-59.055408,-263.531885,-84.010633
50,-19.574661,19.992252,-22.033138,33.121439,0.0,-46.767998,-17.156067,-49.56356,-1.618023,-11.313114,12.011662,-4.554348,24.907722,-6.35685,0.0,-30.833648,-63.425886,-123.843029,-66.761551,-63.640098,-61.155076,-32.814292,-52.239428,-32.250913,0.0,42.860813,1.04044,-5.548038,-14.735985,-11.744843,-30.063457,-22.701015,-44.662285,-36.417904,0.0,-58.050574,-54.576373,-133.596955,-51.434728,-27.791267,-44.57364,-18.785155,-35.605071,-17.214934,-38.390179,-38.940597,-284.210014,-50.766635
51,-5.704765,49.458313,-13.893013,38.085462,0.0,-63.280163,-31.851082,-66.849575,-14.102097,-28.315887,2.803059,-13.528519,19.671249,-0.817566,0.0,-29.393597,-55.302372,-122.222714,-60.765586,-27.139306,-60.174233,-27.730999,-55.877083,-32.24165,0.0,36.649017,-3.640194,-14.137058,-18.985004,-14.858494,-33.844643,-26.110153,-47.882137,-41.837025,0.0,-58.422651,-53.466471,-129.343339,-49.057368,-19.106812,-41.574731,-13.445967,-31.888777,-15.333337,-41.079626,10.948919,-295.087709,-12.24997
52,-7.060375,36.341476,-4.772415,43.169713,0.0,-59.235306,-25.754471,-61.963806,-7.917595,-21.443024,8.74054,-6.674309,25.503559,6.763458,0.0,-34.5287,-54.538705,-117.731267,-58.801552,-21.52996,-57.038732,-19.743891,-51.834809,-25.510515,0.0,30.871181,-7.084179,-25.109482,-22.403011,-15.195179,-36.811295,-26.634922,-49.914494,-42.121525,0.0,-56.953053,-53.061048,-125.37606,-48.458543,-14.135596,-40.032329,-10.222565,-29.406781,-11.385232,-46.440611,47.518208,-298.160734,31.147556
53,3.585262,35.297215,6.548996,41.619222,0.0,-53.908768,-25.130596,-60.065117,-12.098522,-14.134426,0.824776,1.586666,14.637623,9.697609,0.0,-35.517509,-51.426052,-112.114202,-57.500471,-18.739336,-57.82216,-11.859969,-55.679605,-17.360264,0.0,27.42651,-10.799446,-31.165752,-26.237183,-17.689991,-40.358906,-29.514141,-52.903118,-46.008968,0.0,-55.01162,-52.555251,-123.047977,-47.049738,-14.249124,-37.798508,-9.611544,-26.48259,-11.824741,-41.720638,81.159014,-290.477028,71.11037
54,20.341072,34.47578,22.88641,40.892018,0.0,-59.461613,-27.847996,-64.417191,-14.040413,-24.421978,-1.073513,-0.59761,12.800674,6.065769,0.0,-35.200421,-52.095673,-110.308682,-58.263521,-44.033663,-57.024499,-14.65893,-51.787168,-17.747593,0.0,23.653164,-18.462925,-42.613163,-34.382057,-21.917725,-47.394905,-32.788239,-57.980461,-48.431454,0.0,-53.748269,-51.867073,-118.98196,-45.124885,-17.462183,-34.978799,-10.467436,-22.184206,-10.991666,-20.043068,111.966573,-266.25412,108.334166
55,25.231104,18.982957,25.480728,33.47462,0.0,-63.14372,-25.079012,-57.990417,-9.679184,-19.7297,4.04254,1.265717,16.559029,11.845064,0.0,-30.809828,-50.318373,-102.853679,-55.053457,-38.714683,-51.489902,-17.303191,-44.069108,-18.413587,0.0,36.750584,-18.13282,-40.128651,-35.903893,-18.432312,-49.855213,-27.027512,-60.930462,-43.013191,0.0,-47.571622,-52.803611,-115.984533,-45.998191,-11.528771,-34.912664,-4.4104,-21.67316,-3.591095,4.85384,126.70584,-241.107588,137.565098
56,25.231104,18.982956,35.04015,28.27539,0.0,-66.825829,-22.310028,-51.563644,-5.317955,-15.037422,9.158592,3.129044,20.317383,17.624359,0.0,-26.419235,-48.541073,-95.398675,-51.843392,-33.395703,-45.955305,-19.947452,-36.351047,-19.079581,0.0,35.478344,-16.043472,-35.421066,-33.429337,-16.481094,-46.793175,-25.706177,-57.508278,-38.271046,0.0,-46.796901,-51.290077,-108.860234,-45.836034,-18.147829,-34.571431,-8.771399,-21.272152,-2.60315,29.275074,144.366983,-206.877308,164.518674
57,37.53376,6.037678,36.232796,15.618099,0.0,-68.27116,-19.944763,-43.407211,-2.68404,-2.58625,12.676449,12.193279,24.95985,22.506809,0.0,-22.96044,-44.027179,-90.175979,-45.579477,-24.222973,-38.729118,-13.435578,-28.825463,-13.73357,0.0,44.010143,-11.917934,-22.46624,-30.541191,-13.051243,-44.472084,-24.559708,-55.372467,-32.43227,0.0,-44.142838,-47.795591,-99.785794,-43.135997,-20.49842,-31.906376,-12.103204,-18.168206,-3.769924,66.225242,150.120408,-171.228104,179.852521
58,37.53376,6.037677,34.10511,7.253759,0.0,-69.716492,-17.579498,-35.250778,-0.050125,9.864922,16.194305,21.257515,29.602318,27.389259,0.0,-19.501645,-39.513286,-84.953284,-39.315561,-15.050243,-31.50293,-6.923703,-21.299878,-8.387558,0.0,56.71978,0.956326,-16.936111,-20.082378,-7.664108,-37.529869,-23.561726,-50.349083,-38.548279,0.0,-42.771917,-46.222098,-103.646924,-45.188766,-8.927442,-34.507118,-9.842583,-21.342239,0.471279,103.579416,155.563753,-137.30258,186.511948
59,40.002308,-5.108673,37.91193,-17.465178,0.0,-69.260502,-18.520832,-32.717857,-1.54541,2.745495,14.69862,14.200916,29.566498,21.581841,0.0,-21.314405,-44.07181,-95.109544,-45.68419,-16.58048,-39.593268,-12.751877,-30.857638,-15.267481,0.0,57.371521,1.03466,4.986706,-16.963863,-19.703465,-32.375393,-25.959778,-43.89925,-33.187809,0.0,-46.198818,-25.560966,-55.349364,-17.59084,-2.12761,-6.090814,12.402632,7.125627,19.025302,143.529682,150.535247,-99.442692,169.126938
60,40.002308,-5.108674,32.968597,-4.503643,0.0,-68.804512,-19.462166,-30.184937,-3.040695,-4.373932,13.202934,7.144318,29.530678,15.774422,0.0,-23.127166,-48.630333,-105.265804,-52.052819,-18.110717,-47.683606,-18.580051,-40.415398,-22.147403,0.0,66.119099,11.532669,18.51059,-1.510448,2.945595,-12.13028,-0.543194,-18.666058,-7.545891,0.0,-38.660667,-32.124324,-82.451033,-27.566619,-63.39004,-23.366726,-48.122343,-20.536705,-40.21687,183.462954,143.95168,-66.543131,163.148402
61,23.778419,-17.094274,40.385799,-10.899256,0.0,-59.071999,-12.486763,-20.890846,6.288071,0.857506,23.343658,14.918747,39.724159,27.360992,0.0,-31.69945,-52.632099,-104.869551,-56.990443,-23.299141,-52.449534,-20.760427,-45.074806,-21.93529,0.0,68.262863,3.90152,14.054832,-14.555969,-22.119198,-29.975281,-32.677345,-40.208359,-37.374401,0.0,-37.737375,-43.387507,-92.740628,-41.707679,-28.165227,-35.288168,-11.936293,-27.729764,-11.412402,206.588116,126.436516,-26.810589,151.828254
62,16.755066,-25.778944,11.188431,-9.184139,0.0,-51.912003,-10.81398,-9.060631,2.408295,9.351654,15.728073,16.712952,28.449326,24.682388,0.0,-29.58737,-43.423075,-102.966496,-42.518895,-21.696717,-37.866402,-17.005693,-31.686205,-17.045028,0.0,62.360115,9.795284,30.459366,-4.17532,15.311508,-18.060493,-1.877346,-31.280422,-14.391117,0.0,-45.017471,-43.454475,-83.405911,-46.627335,-14.10824,-43.420667,-9.244345,-34.226524,-12.681095,222.755899,99.87541,-16.20944,141.861954
63,14.959259,-22.970351,27.484818,-23.086904,0.0,-52.601051,-14.383392,-14.831085,-5.860291,-1.220741,4.303665,6.422997,13.390617,7.398148,0.0,-33.394654,-31.324378,-96.710871,-26.840125,-32.931217,-19.061241,-18.945953,-11.196832,-16.041306,0.0,66.676369,12.648811,35.297356,-4.059677,1.92112,-18.472424,-10.713158,-31.466331,-19.694824,0.0,-43.45111,-53.978629,-114.689997,-57.664325,-9.110131,-52.872463,-4.893504,-43.912694,-8.055866,237.294416,76.61829,10.854635,118.488281
64,15.673828,-22.868956,14.103127,-18.487857,0.0,-51.873207,-8.012466,-10.63385,9.631577,8.55835,27.072372,21.261406,43.882828,33.790283,0.0,-39.716908,-54.45528,-119.326465,-55.47444,-17.566479,-51.656381,-17.177606,-45.765175,-21.542465,0.0,64.01104,6.026688,34.319572,-10.273476,13.750648,-24.632263,-2.071838,-36.689243,-15.044518,0.0,-44.222558,-58.280872,-116.122607,-60.419721,-17.079979,-53.184271,-12.377345,-39.626042,-12.570161,252.294331,53.411173,24.283848,99.662263
65,5.286484,-19.130864,8.68412,-14.435857,0.0,-51.094551,-7.715721,-12.774353,9.150581,9.84993,25.739021,20.079803,42.133141,32.752419,0.0,-38.118437,-51.408515,-113.80743,-54.948203,-16.690982,-50.96527,-15.508956,-44.64845,-19.547927,0.0,61.737099,6.17569,30.936012,-9.303818,14.816551,-23.726692,-0.269508,-36.829033,-12.78019,0.0,-46.679174,-58.038996,-112.721888,-61.211393,-20.565542,-55.81101,-16.405664,-44.225058,-18.652762,255.477219,34.888551,30.864372,85.834647
66,2.28241,-8.97851,10.145988,-14.711634,0.0,-53.930511,-8.620605,-14.216881,9.091187,9.440689,25.938263,21.313934,42.409286,33.941116,0.0,-41.826117,-53.318486,-118.877046,-55.940192,-20.954724,-52.089159,-18.794849,-45.887318,-20.993874,0.0,60.578613,5.735092,32.086258,-11.78524,5.621452,-25.444107,-6.73748,-37.231064,-14.629555,0.0,-44.638385,-58.479277,-122.10616,-60.114983,-17.49735,-54.31523,-15.41105,-44.935312,-15.302678,255.848322,27.132452,39.099054,72.345424
67,-0.263329,-2.709608,2.307816,-6.905796,0.0,-54.035568,-9.842606,-16.348114,7.530785,8.739281,24.065437,21.013298,39.935875,32.337914,0.0,-44.509357,-55.518622,-124.978326,-58.75916,-19.894933,-55.7341,-20.313354,-50.465215,-22.922864,0.0,59.228783,3.728485,30.170746,-13.139191,5.786018,-26.243362,-7.639275,-37.416229,-15.83931,0.0,-45.367657,-59.2615,-121.326777,-60.225702,-17.94643,-53.801065,-15.752715,-43.116669,-15.023289,253.621073,25.448734,39.442949,66.465519
68,-1.281967,0.060299,-0.706673,-0.297174,0.0,-54.970894,-11.301727,-18.136024,5.902634,7.509155,22.677155,19.534607,39.176674,29.66629,0.0,-43.815808,-56.320544,-126.053432,-58.375783,-20.722543,-54.924398,-19.824785,-49.415489,-22.611334,0.0,60.452957,6.109428,31.544609,-10.924644,5.996017,-24.535332,-6.406746,-36.505966,-14.078178,0.0,-46.005415,-59.870946,-123.639454,-61.770234,-18.972197,-56.124332,-17.749909,-46.052963,-16.809852,251.446238,26.27267,37.843409,66.931982
69,-1.431084,4.183776,-1.549301,1.744511,0.0,-55.198288,-11.16909,-19.121933,6.080818,6.207848,23.101501,20.075569,39.786301,30.52002,0.0,-42.982023,-57.347608,-125.907824,-59.279994,-20.771727,-55.445602,-19.753,-49.80461,-22.730358,0.0,62.16568,8.663063,30.610771,-8.702545,6.677856,-23.069687,-6.295509,-36.032639,-14.532738,0.0,-46.719096,-58.547356,-124.886905,-60.831905,-18.950862,-55.657468,-17.999473,-46.546226,-17.984221,248.773584,30.709082,35.052538,68.929129
70,-0.965996,5.256442,-2.546883,2.817208,0.0,-55.04734,-11.669197,-19.760056,5.430679,6.713562,22.171326,20.696182,38.745461,31.119461,0.0,-43.407421,-58.135697,-126.607827,-60.100904,-22.385451,-56.581964,-20.784911,-51.29122,-24.163801,0.0,62.721977,8.572083,31.569099,-8.726463,6.364517,-22.755318,-6.347122,-35.03334,-15.157127,0.0,-47.337928,-58.380939,-125.204518,-61.649141,-19.56676,-57.153464,-18.62976,-48.61613,-18.71374,246.223383,36.111178,30.92145,71.891991
71,-0.569458,3.045129,-0.856819,1.976198,0.0,-56.394196,-11.851044,-20.916367,5.387764,5.807877,22.156334,19.926453,38.805084,29.877548,0.0,-42.38363,-57.455609,-124.618198,-60.22777,-21.772485,-56.976457,-20.345865,-51.824033,-23.397046,0.0,63.312378,8.619232,30.89035,-8.934059,6.039047,-23.284721,-6.622238,-36.074982,-15.102425,0.0,-47.221466,-58.583758,-123.970436,-62.055459,-17.995151,-57.436436,-17.483147,-48.623695,-18.638096,244.516153,39.231797,28.926859,73.943679
72,0.161133,2.993814,-0.477104,2.068207,0.0,-56.885719,-12.612877,-21.607819,4.536781,5.54512,21.279373,19.216232,37.791367,28.983994,0.0,-42.209618,-57.691588,-124.900119,-60.735853,-22.539302,-57.616222,-20.239284,-52.431626,-22.798592,0.0,61.543694,7.967033,30.821571,-9.687424,5.741959,-24.206657,-7.344475,-37.294464,-15.86174,0.0,-48.343039,-58.878153,-124.304907,-62.114369,-17.179366,-57.260756,-16.675112,-48.186625,-17.891595,244.12199,42.244399,27.894459,76.030673
73,0.405807,0.399124,-0.073929,-0.882599,0.0,-58.314629,-13.47805,-22.57267,3.498344,6.134491,19.989738,18.287659,36.215515,28.134499,0.0,-41.902471,-56.446052,-123.355772,-59.862115,-21.785638,-57.172175,-19.136175,-51.842929,-21.129787,0.0,60.636978,6.141472,30.210228,-11.630974,6.606331,-25.92041,-6.589279,-38.430519,-13.985138,0.0,-46.449679,-59.922939,-123.334407,-62.458226,-17.585066,-56.768698,-16.502581,-46.501271,-16.420484,244.197693,42.513738,27.490425,75.018291
74,-1.006393,0.507341,-0.012817,-0.202727,0.0,-58.096504,-13.06572,-22.348137,4.393044,6.343346,21.024742,18.474655,37.162857,28.01651,0.0,-42.192173,-56.508234,-123.717167,-59.888452,-21.302935,-56.849652,-19.472684,-51.06546,-21.050283,0.0,60.528946,5.959053,30.440369,-11.784782,6.37722,-25.969391,-7.413597,-38.364601,-15.765266,0.0,-46.693006,-59.387255,-123.388654,-61.77258,-18.240485,-55.901197,-17.350631,-45.576837,-16.151438,242.803831,42.883855,27.090139,74.678339
75,-0.639839,0.890564,-0.980301,-0.302917,0.0,-58.089981,-13.63472,-22.500572,3.702736,6.430321,20.362473,18.461266,36.764374,28.230515,0.0,-41.899291,-56.584033,-122.919567,-59.94517,-22.380418,-57.039751,-19.663739,-51.373904,-21.794437,0.0,61.348343,6.620064,30.875702,-11.008186,6.592369,-25.189247,-6.964874,-37.706337,-15.4953,0.0,-47.147551,-59.274529,-122.877978,-61.880551,-19.187026,-56.291212,-17.261556,-46.255844,-16.259779,241.800156,43.650764,25.746002,74.251767
76,-3.954964,-0.171357,-0.38063,-1.051517,0.0,-56.452103,-12.04319,-20.727081,5.834541,6.831779,22.789536,19.305611,39.249687,29.484787,0.0,-40.608244,-56.019202,-122.738176,-58.476066,-21.601838,-54.818712,-18.544729,-48.539436,-20.415767,0.0,60.927773,5.521545,30.811043,-11.999016,6.164818,-25.823479,-6.978264,-37.600708,-15.463371,0.0,-46.555087,-59.517702,-122.897183,-62.094362,-19.080229,-56.30452,-17.694272,-45.865026,-15.738328,237.3036,43.288814,24.82378,73.009658
77,-5.378952,3.467008,-0.610657,-0.333823,0.0,-57.547073,-11.671944,-19.831123,5.956993,6.768265,23.109055,20.763817,39.842949,31.218109,0.0,-40.908814,-56.332153,-122.77609,-58.223445,-21.047844,-54.338634,-16.903527,-48.061704,-21.274931,0.0,60.237465,5.485497,30.701981,-12.25605,6.536407,-26.259613,-6.98307,-38.306923,-15.561104,0.0,-47.0879,-58.966549,-123.253483,-61.397385,-18.845608,-55.423372,-18.05826,-44.851146,-15.644065,231.546564,46.040011,23.835039,71.960024
78,-9.023781,7.717381,-1.790771,0.124304,0.0,-55.670471,-10.250702,-17.401657,7.236443,4.680977,24.029274,17.885971,40.828972,29.241028,0.0,-41.426869,-57.250937,-122.028293,-58.648905,-27.447194,-54.429654,-22.488111,-48.098909,-25.421657,0.0,59.268951,5.603828,29.939346,-11.951752,6.888313,-25.738907,-6.282005,-37.428246,-15.329819,0.0,-47.665421,-56.999984,-122.229321,-59.071185,-18.151626,-53.322469,-16.839152,-43.177771,-15.43433,222.382679,53.670695,21.904163,71.99763
79,-13.014565,9.079966,-4.074211,0.659649,0.0,-49.559555,-7.593956,-14.400787,10.56015,7.221565,27.557945,20.24334,44.441986,32.799911,0.0,-44.961339,-54.774344,-114.387606,-56.165581,-24.47138,-51.078521,-17.920587,-43.861688,-21.501833,0.0,58.421173,6.44474,31.608238,-10.47924,8.909111,-23.322601,-3.87085,-33.992615,-13.108406,0.0,-48.936615,-55.872267,-120.209558,-57.404109,-17.787175,-51.250372,-14.677826,-41.02438,-12.678193,209.243088,62.929536,17.704926,72.836155
80,-14.899521,12.263354,-3.689003,3.917755,0.0,-44.223633,-5.517654,-15.499649,13.524399,6.586876,29.652786,18.658791,44.24572,29.673157,0.0,-47.170769,-54.398501,-101.037784,-58.042084,-19.772698,-51.913201,-14.113859,-43.083386,-12.75606,0.0,56.146317,6.468315,34.922905,-9.673233,9.915504,-22.109299,-3.19828,-32.672539,-12.092628,0.0,-52.992783,-54.538952,-115.446594,-55.480028,-17.250132,-48.610573,-13.624981,-37.732188,-11.76932,193.945971,75.237937,13.618326,76.798957
81,-14.440384,8.783996,-3.420639,2.923697,0.0,-40.865364,-3.647118,-18.334579,14.291725,1.075745,29.352837,14.994164,42.106133,27.880669,0.0,-38.42336,-46.864395,-66.424362,-46.059632,-13.269824,-37.914321,-5.141339,-28.417663,-3.05646,0.0,52.305222,7.152328,40.023308,-8.699226,11.656494,-21.279373,-2.226562,-31.393604,-10.597916,0.0,-52.901424,-51.139993,-103.771629,-51.366617,-11.140824,-43.170948,-6.198506,-30.940106,-4.476442,179.390373,83.830893,10.082474,79.531613
82,-12.979489,20.931538,-4.611626,10.958599,0.0,-51.234741,-8.724403,-34.977894,7.546521,-12.890167,21.387463,2.46706,32.986622,14.595452,0.0,-29.472299,-42.854478,-33.632656,-40.70192,3.859292,-30.825358,9.693517,-18.861741,9.730938,0.0,46.778641,6.654282,49.504395,-9.904861,10.557404,-22.21138,-1.988411,-30.314484,-10.813637,0.0,-57.083161,-53.807981,-85.987757,-54.362593,-11.063914,-45.60694,-3.918249,-32.14606,-0.755732,166.41303,103.965757,5.472994,89.693539
83,-12.979488,20.931537,-5.816345,6.616032,0.0,-61.604118,-13.801689,-51.621208,0.801315,-26.856079,13.422089,-10.060043,23.867111,1.310234,0.0,-20.521237,-38.84456,-0.840948,-35.344207,20.988409,-23.736395,24.528375,-9.305818,22.518337,0.0,49.14814,7.164001,49.897385,-8.564644,23.331642,-20.724449,6.386833,-29.393578,-4.76017,0.0,-53.650116,-48.663802,-54.942213,-44.874117,-6.813355,-33.803658,9.025008,-19.405962,8.928029,153.579741,124.568952,-0.197153,95.981228
84,-10.35038,8.362056,-11.318321,7.564487,0.0,-70.989532,-25.074005,-74.990959,-11.201363,-57.910194,1.458092,-38.782539,12.423477,-23.745232,0.0,-3.65087,-19.408865,27.269414,-12.750071,49.606761,-1.163872,56.060853,14.159122,52.341625,0.0,55.56633,13.392792,64.102364,-0.29274,39.703789,-10.958004,22.449989,-19.115295,8.704147,0.0,-30.367185,-40.4049,-38.153851,-37.199498,14.520455,-25.988742,28.56009,-11.339938,22.362603,143.40065,132.346262,-11.344185,102.96097
85,-18.916512,17.763988,-6.993713,0.203313,0.0,-74.054604,-29.42894,-81.33831,-16.610985,-66.466255,-3.460922,-52.899513,8.438759,-34.996719,0.0,5.189505,-8.038051,36.190928,1.711721,62.855868,15.10026,70.332299,29.941293,68.702397,0.0,54.460831,19.47258,67.686768,6.971626,52.570381,-3.278961,37.944717,-11.572495,22.859001,0.0,-13.921383,-21.468982,-11.790469,-13.387088,32.636729,0.762988,48.111568,16.557786,49.243761,124.58951,149.426673,-18.232527,102.480706
86,-6.948051,14.133928,2.220955,10.587787,0.0,-68.112717,-37.185059,-95.527725,-27.112312,-86.973038,-14.513397,-72.463303,-1.173592,-49.019394,0.0,12.017742,2.441611,41.451076,14.536664,63.260457,27.373834,70.842543,39.884838,74.915229,0.0,51.48159,13.339577,61.881752,1.09623,54.823151,-10.61903,41.620331,-18.975391,23.073921,0.0,-14.286483,-9.670578,3.401614,-0.889082,36.939374,10.773162,56.308194,24.38286,58.960127,117.601833,163.185313,-16.051197,112.693205
87,-24.552498,22.734649,7.617531,5.490723,0.0,-67.015343,-38.013268,-94.712334,-29.266891,-95.374718,-18.446617,-82.919998,-6.855354,-59.490051,0.0,21.521377,10.489048,55.826077,25.726148,74.134148,40.337963,84.622394,53.215702,84.446961,0.0,39.83963,6.332817,48.916626,-5.497856,39.199448,-17.38306,25.510254,-26.675148,0.297546,0.0,-9.17679,8.00801,45.449816,17.569937,52.033151,23.795861,57.474042,28.219969,57.939331,93.470049,185.578343,-8.012953,117.84231
88,-8.136406,11.774877,-23.315678,44.913514,0.0,-56.202278,-35.952759,-97.515678,-30.044518,-98.916779,-22.219162,-87.79129,-13.627625,-65.186462,0.0,19.685846,18.503326,54.689129,33.443776,72.681779,47.879973,84.026811,60.259695,90.090023,0.0,59.809055,54.494648,58.438282,48.435688,48.007793,36.019421,35.487041,20.826588,21.334362,0.0,-30.896078,7.210719,35.751513,23.993802,59.080509,38.896461,67.525311,52.136923,67.438675,85.786886,196.940821,-30.875387,162.343423
89,-25.489254,37.020453,-9.437313,17.53687,0.0,-61.604662,-30.253086,-81.212139,-27.203922,-77.359514,-22.799721,-71.399145,-17.697487,-56.918964,0.0,27.653687,12.620024,26.939049,12.613324,25.466518,11.251542,17.471785,8.305862,7.670852,0.0,59.276962,32.571831,79.124222,21.359768,71.38504,8.964214,59.119835,-3.014202,31.704369,0.0,-28.371412,1.316889,41.734757,14.759954,56.361021,29.576904,61.153162,44.688279,63.411004,61.066675,233.280058,-39.543657,179.199078
90,-25.489254,37.020452,-2.716484,15.083711,0.0,-67.007046,-24.553413,-64.9086,-24.363327,-55.80225,-23.38028,-55.007,-21.767349,-48.651466,0.0,35.621528,6.736723,-0.81103,-8.217127,-21.748742,-25.376888,-49.083241,-43.64797,-74.748318,0.0,59.430885,25.857811,79.138298,11.553154,68.496895,-4.475155,52.258873,-19.43573,21.352444,0.0,-24.617728,9.151658,47.997731,20.139835,66.975176,30.924483,69.974764,41.302195,71.576632,37.089386,269.72228,-40.748177,193.704559
91,-12.983322,-32.798114,-10.69622,16.303591,0.0,-26.903114,-12.230301,-42.384396,-9.825439,-54.536362,-7.157135,-57.318764,-2.978325,-45.758057,0.0,-47.933819,4.209649,4.151851,24.696213,20.747459,40.99017,45.72019,52.392446,75.97993,0.0,63.398666,43.813248,85.877609,36.067429,73.975182,24.582825,57.981262,10.503674,40.346947,0.0,-20.455009,17.547985,54.437434,35.173529,70.50168,51.173493,83.119266,65.287599,87.355097,25.469456,236.432679,-50.081005,209.516662
92,8.66066,6.229876,-9.23069,12.576212,0.0,-47.921677,-16.020126,-55.610332,-12.740822,-78.792057,-9.871788,-79.9613,-7.793541,-65.069733,0.0,-31.968188,16.457967,-9.548096,36.372166,22.554276,51.001147,54.545436,60.070369,84.60251,0.0,67.936249,32.722206,88.241959,23.181324,85.522385,13.7356,70.13958,5.346851,52.967949,0.0,-22.932374,13.563293,52.42999,34.574611,64.651199,53.388727,74.202074,68.046299,80.874021,35.623026,241.806138,-57.818785,221.236458
93,1.021614,3.893487,-2.672482,9.53519,0.0,-63.14146,-19.454613,-75.110779,-17.362976,-87.888908,-14.725456,-86.836624,-12.166443,-72.46851,0.0,-13.800044,26.01409,-5.695055,45.301584,23.714628,58.490731,51.679167,65.15286,88.954865,0.0,65.63158,28.144512,88.400974,18.565006,86.613178,9.323502,75.17664,0.608139,53.645267,0.0,-18.053597,17.497226,55.214069,35.626159,72.788607,51.825207,80.593056,64.143302,86.185915,37.327709,244.827092,-59.808197,229.899115
94,-7.182083,12.972218,-2.192402,10.259337,0.0,-61.406822,-17.768326,-82.295895,-10.168762,-81.59277,-4.971085,-74.425106,-3.751373,-57.128448,0.0,0.040138,44.331177,33.248398,49.914958,32.30584,47.764005,34.241838,39.689769,35.028415,0.0,66.22982,29.018784,87.639999,18.145466,83.592567,7.452908,71.33812,-3.636703,47.056789,0.0,-17.055155,20.300448,57.395649,36.244281,75.685504,50.002767,83.065419,60.274824,86.286691,30.782604,257.060018,-61.363621,239.41916
95,-9.245796,27.395817,-0.852585,9.314247,0.0,-64.667187,-36.874924,-45.021201,-33.448134,-38.505221,-27.904787,-32.906313,-23.259802,-44.976197,0.0,19.20867,24.761483,30.106012,20.047827,25.632256,10.891291,18.530959,-0.640383,9.227148,0.0,66.210136,27.598915,86.469612,17.067089,84.468155,6.92728,72.343597,-3.363876,47.898903,0.0,-16.350398,20.600802,54.573656,36.884694,75.4871,50.268232,85.506104,59.976014,89.08133,22.273665,283.832511,-61.479349,248.110083
96,-9.245797,27.395817,-0.921822,7.494771,0.0,-67.927551,-55.981522,-7.746506,-56.727505,4.582329,-50.83849,8.61248,-42.76823,-32.823944,0.0,38.377202,5.191789,26.963626,-9.819304,18.958673,-25.981424,2.82008,-40.970534,-16.574119,0.0,65.265312,29.051342,88.963623,19.037247,85.245323,8.504848,72.681885,-2.511635,50.452881,0.0,-12.844086,24.979153,57.015884,40.715628,75.285114,52.964563,84.768928,61.606966,87.495023,13.907547,310.668191,-61.521492,255.044716
97,0.610886,5.015677,1.205864,5.709134,0.0,-51.741657,-43.800259,-14.119034,-42.551422,5.151443,-36.623383,8.941383,-28.320465,-28.074474,0.0,34.237701,2.001701,28.432174,-11.031958,22.858027,-24.706031,11.119458,-36.981951,-13.853334,0.0,65.401726,29.303741,85.888596,19.412212,85.127792,9.500999,71.617126,-0.516357,48.908386,0.0,-10.787056,27.640411,57.82605,44.135181,76.287817,56.102596,85.426014,63.78163,87.205229,15.32115,315.318707,-59.512911,260.38869
98,2.552376,-26.044471,0.773163,4.402928,0.0,-48.605633,-49.411697,1.132507,-55.017071,6.721001,-54.958878,2.136383,-52.832336,-46.827908,0.0,28.688253,13.738602,45.507151,21.686004,52.419863,26.351494,50.203023,30.806046,55.869056,0.0,64.486313,27.61837,86.582222,17.848148,86.267624,8.378506,71.837769,-0.738144,50.032654,0.0,-8.20169,27.673138,57.261589,44.441895,76.856601,56.610555,87.292914,64.411422,90.587237,18.739872,288.86236,-57.873402,264.379742
99,-12.810631,-2.047211,0.542564,3.615301,0.0,-18.027306,-36.340427,14.738045,-41.148605,23.582039,-41.449871,19.061279,-38.775215,-32.068233,0.0,14.538393,20.246849,51.630693,29.509225,58.724518,34.867308,61.293644,38.923199,68.522456,0.0,64.181328,29.31879,88.982048,19.755535,88.49865,10.058556,74.190102,0.551834,52.779922,0.0,-4.690994,29.206648,59.056797,46.127064,76.676598,58.336046,86.603718,66.506614,90.688693,6.581669,286.696372,-56.67841,267.876267
100,18.804131,4.83549,0.450668,2.876272,0.0,-56.944771,-57.297363,-2.595749,-61.046734,5.204315,-58.954182,2.255859,-53.963699,-29.461327,0.0,27.105652,15.754383,49.717603,20.802108,53.927376,23.112253,50.06816,25.079065,46.729624,0.0,64.595604,30.8008,90.832214,22.225113,90.42469,12.998714,77.213173,3.531933,56.131554,0.0,-4.307647,29.023311,59.080139,45.674865,73.538998,57.970237,83.889602,66.415779,87.294581,25.814695,291.742863,-55.798845,270.96354
101,1.652412,0.426387,-0.226192,1.091747,0.0,-35.593872,-48.253613,-2.705956,-52.077026,8.353729,-50.708714,9.06292,-46.174908,-6.08551,0.0,29.592279,21.142106,52.470066,24.62026,54.744519,25.892627,51.14589,26.412751,48.587694,0.0,64.161129,29.646549,91.448765,21.724205,92.479649,13.105888,79.235172,4.531975,58.00478,0.0,-4.085531,29.673049,58.516852,46.956434,71.919532,59.3356,81.751926,67.526731,86.385368,27.831573,292.222957,-55.660572,272.108995
102,1.854401,-10.329177,-0.556755,0.072186,0.0,-47.679577,-55.275764,-2.200584,-62.409554,3.006477,-62.638321,-5.006905,-58.961449,-45.43293,0.0,0.504624,22.257504,48.552311,37.330224,59.237108,47.57684,63.04328,55.660525,67.812512,0.0,63.343563,29.782333,91.940632,22.019749,93.634129,13.302612,80.548954,4.312191,58.169689,0.0,-3.58387,29.672493,57.648579,46.623784,70.983272,58.468254,80.480917,66.38089,85.318012,30.151234,281.975599,-55.752068,272.263
103,-6.027031,2.132983,-0.515728,-0.109916,0.0,-32.310677,-48.584805,3.405991,-55.210934,11.427612,-55.404854,6.651649,-52.295551,-24.018517,0.0,8.327846,22.530441,52.990499,34.136616,61.122102,41.485532,64.179858,47.45865,67.916438,0.0,62.895813,29.115372,92.058907,21.276054,93.356895,12.602692,80.714264,3.761387,58.364868,0.0,-2.489591,29.100499,57.076585,46.061794,70.504459,57.985242,79.479079,65.980933,84.885574,24.497652,284.221909,-55.894346,272.266412
104,-11.233635,27.427433,-0.192261,0.767558,0.0,-13.017197,-42.499695,5.700302,-42.522354,20.978622,-37.058029,25.058899,-29.384079,12.033463,0.0,41.514431,16.555038,43.790552,5.750507,33.027455,-5.657758,23.937979,-16.502057,12.717436,0.0,63.82885,28.771076,91.292725,21.112576,93.164635,12.559547,80.483437,3.668118,57.921295,0.0,-2.713128,28.935626,56.110006,45.342895,68.934578,56.994334,78.120878,65.037757,84.006248,13.46303,311.685837,-55.887594,273.070464
105,20.527611,-27.735012,-0.22316,-0.002964,0.0,-53.857555,-58.29649,-6.242409,-65.178337,-2.165794,-65.043526,-6.206017,-61.50135,-28.622246,0.0,6.459031,20.389307,52.05288,33.28551,60.784697,42.538562,61.029352,49.62331,60.773767,0.0,63.986893,28.934498,90.832558,21.21254,92.442169,12.657681,79.7295,3.826218,57.680283,0.0,-1.997194,29.108465,56.581223,45.530925,69.412712,57.181993,78.711706,65.249561,84.071519,34.174175,283.955117,-55.927219,273.071792
106,-3.974075,13.763488,-0.197124,0.202974,0.0,-50.649376,-53.948078,-11.144485,-56.242619,2.162933,-53.343601,5.443497,-47.900276,-6.800308,0.0,24.485335,17.58627,51.505895,18.691294,51.946793,18.008828,45.151345,17.111965,39.643764,0.0,64.509029,28.524914,90.335712,21.026974,92.78223,12.633705,80.242252,4.009724,57.983494,0.0,-2.155769,29.17355,56.374483,45.74946,68.91698,57.530265,77.910618,65.626547,83.861691,30.392647,297.689921,-55.931797,273.246082
107,-0.199699,-11.352566,0.190315,0.133072,0.0,-22.205772,-46.826305,2.70813,-53.086739,8.346634,-52.314892,3.025818,-47.900963,-14.344482,0.0,18.24842,17.573364,45.811519,29.847864,56.018615,39.827287,62.825795,48.193541,67.740264,0.0,64.860134,28.699036,90.627995,21.005516,92.501965,12.479725,79.862194,3.738155,57.591419,0.0,-2.209121,29.247527,56.301556,45.835725,68.584762,57.71175,77.222039,65.901275,83.41011,30.441542,286.334715,-55.492887,273.376515
108,-2.571259,-4.756264,-0.18116,0.306344,0.0,-41.993294,-50.409508,1.281853,-61.118488,4.396591,-64.632225,-2.96917,-64.742661,-31.108475,0.0,-4.59596,16.283954,46.48324,34.375158,60.898133,47.879293,65.222761,58.829494,68.13207,0.0,64.910145,29.335384,90.969372,21.672535,92.75362,13.088322,79.936008,4.281635,58.017254,0.0,-2.516391,28.846087,57.008721,45.544202,68.818426,57.635612,77.498064,66.064358,83.252708,28.081455,281.583793,-55.462875,273.6882
109,-23.302574,4.378104,0.211143,0.447629,0.0,1.979027,-28.925056,26.167374,-36.334705,32.528572,-38.164043,24.365044,-36.833611,-1.984749,0.0,-12.362926,17.259858,42.674042,34.898863,55.385674,46.955631,62.843456,55.502505,68.440637,0.0,64.525509,29.764194,90.530949,21.949997,91.550388,13.101883,78.288059,4.049721,56.890697,0.0,-2.880965,29.079442,56.340705,45.387973,68.273232,56.968584,77.195919,64.969399,82.869732,4.933519,285.968211,-55.097094,274.142143
110,26.614494,-0.810783,-0.141621,-0.382791,0.0,-50.732231,-52.664452,-1.997795,-63.012028,1.21891,-65.626545,-7.795944,-64.867115,-40.435352,0.0,1.273479,12.205525,46.299347,28.612177,58.73304,41.002274,62.643138,51.974951,62.596825,0.0,65.203629,30.191975,90.91198,22.327366,92.052727,13.285503,78.629723,3.938885,57.088623,0.0,-2.000281,28.995215,56.222886,45.382354,68.388581,57.022986,77.316024,65.107597,83.055477,31.694698,285.153492,-55.09203,273.755415
111,-12.244606,-2.085373,0.02964,-0.341171,0.0,-24.933186,-42.387486,9.723358,-48.043957,15.333366,-47.659092,11.775169,-44.036293,-6.658287,0.0,6.425007,24.270691,48.399417,38.331074,61.427396,47.791978,65.414002,54.472817,68.492445,0.0,65.491219,30.018711,90.992317,22.138309,91.776352,13.146629,78.354836,3.934364,57.142525,0.0,-1.662815,29.504347,56.53948,45.951507,69.043815,57.549778,78.037886,65.509962,83.331193,19.544792,283.108997,-54.96769,273.455123
112,9.422379,-0.581812,0.065231,0.31116,0.0,-43.358173,-49.999352,0.858536,-60.705185,3.646545,-63.961315,-3.699188,-63.969955,-30.504227,0.0,1.463794,13.781951,48.684828,30.720459,62.917557,43.622282,66.448013,54.647509,66.31315,0.0,65.451279,29.573193,90.779915,21.756306,91.719475,12.886333,78.194847,3.775578,57.011719,0.0,-1.74871,29.243266,56.10803,45.744396,68.783784,57.387992,77.751981,65.400232,82.942104,29.063301,282.555605,-54.806328,273.794704
113,-19.627991,3.091843,0.579872,0.405268,0.0,-7.209892,-31.074314,22.82032,-38.87661,29.357529,-40.931282,21.81427,-39.927921,-1.207581,0.0,-10.021536,17.412752,42.271677,34.694963,57.432329,47.283155,63.825102,56.689163,70.185827,0.0,65.419006,30.578442,90.49324,22.704506,91.267662,13.475304,77.696457,3.848248,56.617126,0.0,-2.277293,28.91568,55.685163,45.202475,68.144235,56.872376,76.963984,65.144894,82.520101,9.515848,285.651632,-54.145918,274.204156
114,21.594658,-0.17216,0.00761,-0.180805,0.0,-47.085571,-53.993053,-1.329803,-63.256187,1.0532,-64.948597,-2.791214,-63.473854,-25.372124,0.0,4.48944,14.675356,49.954293,27.631148,60.990203,36.978431,61.292039,45.037169,59.122561,0.0,65.581684,30.191631,89.861469,22.493191,91.138172,13.61721,77.675915,4.544907,56.99152,0.0,-2.0976,29.201399,56.065113,45.772493,68.731667,57.638823,77.524122,65.931162,82.905609,31.127501,285.485153,-54.121313,274.029031
115,-11.507492,-1.358077,-0.222015,-0.115412,0.0,-18.418465,-38.154659,12.053604,-44.948559,18.559685,-45.99329,12.543068,-44.203434,-10.315704,0.0,-6.689607,18.65517,44.746139,35.283136,59.547034,47.788212,66.502847,57.657656,72.445151,0.0,65.942173,30.942135,90.113239,23.240547,91.310978,14.100552,77.930088,4.672794,57.148533,0.0,-1.835346,29.309092,56.147365,45.887966,69.128351,57.783689,77.822068,66.155995,82.988725,19.636488,284.185693,-54.326849,273.972236
116,-13.817711,10.462743,-0.459881,-0.258672,0.0,7.114563,-26.878738,23.913002,-31.190186,33.352547,-30.707073,28.15567,-27.661858,3.799667,0.0,-21.421033,10.518812,28.871282,25.005335,43.766037,36.782991,54.609965,45.901304,62.0696,0.0,66.190681,30.978928,90.671654,23.289986,91.718674,14.281826,78.622284,4.996147,57.624435,0.0,-1.579637,29.757894,56.355402,46.245686,68.88629,58.12344,77.829664,66.439738,83.456176,5.829678,294.730734,-54.775829,273.795862
117,23.353729,-8.650553,0.052586,-0.601634,0.0,-45.899734,-54.506779,-0.275345,-63.632526,2.741089,-65.2141,-1.768341,-63.397694,-23.924675,0.0,6.112797,14.313251,50.025614,26.607265,61.677547,35.461409,61.918064,43.221954,60.313109,0.0,66.377735,30.994148,90.648136,23.086739,91.601658,13.833218,78.320103,4.439793,57.173367,0.0,-1.074025,30.217749,57.207866,46.683188,69.826316,58.425832,78.486564,66.593929,84.040705,29.183865,286.122664,-54.722786,273.236712
118,-20.051308,2.672002,0.40678,0.538772,0.0,-5.977249,-27.720108,22.360497,-34.738255,29.024734,-36.835213,20.327339,-36.501789,-2.25071,0.0,-14.054517,15.374618,38.941539,32.249647,54.475472,44.675929,61.6258,54.209946,67.983313,0.0,66.166534,30.619698,90.452728,22.4683,91.243057,13.143368,77.556381,3.770542,56.776543,0.0,-1.646328,29.580176,56.802537,46.101437,69.180036,57.93436,77.623911,66.216017,83.28488,9.132528,288.773363,-54.316034,273.75418
119,-16.870708,15.044068,0.126286,-0.055452,0.0,21.447887,-10.946789,40.935917,-16.405506,45.490551,-18.842239,36.922703,-19.249878,11.537304,0.0,-39.024037,2.230795,17.581577,18.287755,35.396448,31.724892,46.728328,42.177075,55.361838,0.0,66.214657,30.012989,90.340176,21.858215,91.083469,12.771206,77.36372,3.770199,56.627369,0.0,-1.667323,29.550104,56.981242,46.27088,69.290014,58.14567,77.58223,66.310618,83.308654,-7.78985,303.77527,-54.241419,273.656568
120,-7.154446,-13.648632,-0.024548,-0.090217,0.0,20.679817,-5.369511,51.678085,-11.275749,54.205513,-14.242287,47.770729,-15.28965,25.432091,0.0,-17.166553,13.437198,35.148396,29.981863,52.218927,42.393325,59.589271,52.016695,65.662795,0.0,65.452309,29.466877,89.906044,21.510315,91.450539,12.603436,77.823715,3.640823,56.627083,0.0,-1.909261,29.475139,56.549051,46.336953,68.372341,58.356362,76.961947,66.600413,83.579738,-14.993248,289.964914,-54.314919,273.404627
