takenoko1/special-research/HandMotion_SimilarSearch_自分用/NewProject/handData/test_key/d4_feature_d2/135.csv
frame,vel_0x_L,vel_0y_L,vel_0x_R,vel_0y_R,posFromWrist_0x_L,posFromWrist_1x_L,posFromWrist_2x_L,posFromWrist_3x_L,posFromWrist_4x_L,posFromWrist_5x_L,posFromWrist_6x_L,posFromWrist_7x_L,posFromWrist_8x_L,posFromWrist_9x_L,posFromWrist_0y_L,posFromWrist_1y_L,posFromWrist_2y_L,posFromWrist_3y_L,posFromWrist_4y_L,posFromWrist_5y_L,posFromWrist_6y_L,posFromWrist_7y_L,posFromWrist_8y_L,posFromWrist_9y_L,posFromWrist_0x_R,posFromWrist_1x_R,posFromWrist_2x_R,posFromWrist_3x_R,posFromWrist_4x_R,posFromWrist_5x_R,posFromWrist_6x_R,posFromWrist_7x_R,posFromWrist_8x_R,posFromWrist_9x_R,posFromWrist_0y_R,posFromWrist_1y_R,posFromWrist_2y_R,posFromWrist_3y_R,posFromWrist_4y_R,posFromWrist_5y_R,posFromWrist_6y_R,posFromWrist_7y_R,posFromWrist_8y_R,posFromWrist_9y_R,posFromBody_0x_L,posFromBody_0y_L,posFromBody_0x_R,posFromBody_0y_R
2,-2.892838,10.065873,0.293999,0.31962,0.0,-2.742462,-17.361889,39.922714,-25.100441,45.886459,-27.757301,32.574806,-27.458496,4.604416,0.0,12.824449,10.716784,30.859274,28.811939,44.872604,43.205405,50.028208,55.134288,53.179949,0.0,69.018116,25.677223,91.344509,17.702351,88.925571,9.888725,75.001431,2.765465,52.927723,0.0,11.881459,30.158778,48.765103,47.603825,62.240031,59.452926,73.150279,66.479629,80.746815,-1.01326,299.517131,-43.43668,282.413935
3,23.681602,-8.424609,1.058636,0.163083,0.0,-27.376385,-41.231747,15.413246,-50.524864,16.526756,-53.919239,4.954262,-53.846855,-24.178677,0.0,8.580961,10.487999,31.908537,32.212226,49.912241,49.210571,58.855923,61.838406,67.658321,0.0,67.790451,25.214367,90.278206,17.032642,87.373924,8.993454,73.474503,1.715126,51.811981,0.0,11.938392,30.026323,48.717308,47.362257,61.966044,59.127069,72.850666,65.970929,80.241696,22.318611,291.286404,-42.727776,282.770898
4,7.347794,2.598149,0.049953,-0.246878,0.0,-35.679932,-45.241013,6.689301,-54.20866,8.456039,-57.399387,-3.167267,-56.735802,-39.498024,0.0,12.631356,8.425411,31.64863,28.745743,47.412954,45.096882,56.912267,57.339333,67.535376,0.0,67.658672,25.544014,90.394077,17.499619,87.808399,9.395771,73.711796,1.874084,51.918125,0.0,12.310747,30.099683,48.83025,47.595674,62.161484,59.489359,72.550621,66.45851,80.024829,29.272642,294.094149,-43.071585,282.733616
5,-26.744614,6.826446,0.205593,-0.780587,0.0,16.334839,-16.754208,37.423325,-26.827583,38.202438,-31.80954,26.207886,-33.633842,2.883568,0.0,-13.139253,8.969988,26.70588,26.861553,41.412482,41.223155,49.49666,51.116621,55.075131,0.0,68.092003,25.256538,90.10952,17.247047,87.863274,9.268456,73.805923,1.819382,51.460419,0.0,12.810679,30.541198,49.599598,48.17761,62.827586,60.181828,72.785334,67.156784,80.414351,2.114153,301.0051,-43.279867,282.037535
6,29.078522,-9.840546,0.871067,0.384088,0.0,-29.316444,-46.30846,7.585258,-57.381134,8.096695,-62.293682,-5.376778,-63.187122,-39.066868,0.0,3.392012,10.70499,32.423042,32.016971,49.517223,48.867671,59.427917,61.776779,69.772346,0.0,67.729053,24.635868,89.040241,16.555138,87.01086,8.532829,72.988529,1.165466,50.517025,0.0,11.899551,30.206943,49.242681,47.688979,62.293322,59.627803,72.619349,66.529585,80.103746,30.853329,291.297194,-42.748146,282.554262
7,-24.511757,8.301602,0.503483,-0.326845,0.0,5.028076,-23.198833,29.458351,-32.272797,30.790215,-35.855999,19.941902,-36.081963,-3.445473,0.0,-3.051211,8.252449,28.345724,26.181742,44.41633,40.85963,51.556283,51.01041,57.947451,0.0,67.508698,24.254608,87.847595,16.225662,85.854263,8.326435,72.540665,1.014061,50.132103,0.0,12.386083,30.436099,48.644937,47.945552,61.683845,59.749946,72.488129,66.459498,80.368099,6.003742,299.718083,-42.582493,282.346704
8,24.357948,-9.251755,0.831013,0.40675,0.0,-29.868393,-43.766155,7.796173,-55.246639,8.889084,-60.831013,-4.220009,-62.698231,-41.612892,0.0,-4.48697,9.801458,31.74669,32.041363,49.35167,49.683208,60.385851,63.396246,72.688386,0.0,66.748409,23.33971,86.752224,15.256176,84.746418,7.337093,71.774082,0.107861,48.900433,0.0,12.136488,30.990124,48.276534,48.081341,60.860836,59.510786,71.300175,65.962222,79.419181,30.1367,290.475235,-41.976471,282.762361
9,-29.509163,7.025344,-0.032845,-0.085957,0.0,18.693924,-14.353237,36.615829,-25.645695,36.92688,-32.215519,22.959366,-35.268402,-4.041138,0.0,-9.161415,5.214205,28.699554,23.762423,45.849804,39.466479,54.656772,51.300699,61.311614,0.0,66.563587,23.884792,87.114086,15.568886,85.067539,7.32542,72.110538,-0.323582,48.526096,0.0,11.746534,30.717001,48.01533,47.60648,60.581724,59.006656,71.225889,65.506134,79.580658,0.391045,297.534526,-42.245808,282.710352
10,-6.730156,7.966359,0.356655,0.249286,0.0,18.440895,-8.432121,41.660728,-16.903324,43.296432,-22.699928,33.969383,-24.925232,-3.888302,0.0,-15.48478,4.30987,28.237846,21.346932,40.317894,34.523482,46.734256,43.815684,59.241122,0.0,66.307755,23.883762,87.148018,15.465775,85.035667,7.248116,71.800461,-0.302639,48.337097,0.0,11.317616,30.415351,48.931891,47.464454,60.892884,58.955465,70.41875,65.454881,78.861883,-6.567593,305.480369,-42.117634,282.939122
11,-4.315624,-1.601188,-0.219326,-0.659,0.0,25.206928,-6.884308,47.670422,-15.525684,49.759541,-20.615215,41.629314,-21.244354,12.633533,0.0,-13.934783,7.707192,27.435338,24.270011,44.260225,37.224939,49.892419,46.695229,59.483987,0.0,66.438503,24.289169,87.57391,15.87656,85.582523,7.646599,72.334957,0.007896,48.787479,0.0,11.666444,30.459873,49.28745,47.761782,61.247702,59.505908,71.114924,66.023046,79.253999,-11.124258,303.903942,-42.578001,282.304883
12,35.208836,-16.049179,0.796165,0.122451,0.0,-18.989754,-38.507423,16.421814,-50.846043,15.181618,-58.273144,0.567284,-62.408981,-29.256306,0.0,-8.870694,14.326837,32.768721,35.157844,49.981154,51.579502,61.027315,64.321823,70.34928,0.0,65.99493,23.911457,87.115345,15.536728,84.717579,7.338524,71.353168,-0.236378,48.291721,0.0,11.253086,30.581768,48.956591,48.029409,61.564234,59.746735,71.586697,66.192366,79.220221,23.909798,287.893126,-41.956615,282.465697
13,-34.650364,9.644488,-0.866032,-0.580207,0.0,17.157269,-8.369637,47.779713,-17.07407,55.552883,-21.801453,45.456905,-24.863262,21.935291,0.0,-1.16381,4.497468,27.286766,24.08933,43.261412,40.953738,49.889702,53.598802,54.948357,0.0,66.095924,24.847126,88.960419,15.952034,85.717049,7.256527,73.04306,-0.62851,49.957924,0.0,12.181319,30.675629,49.956145,48.0023,62.084482,59.853439,72.26484,66.492905,80.430282,-10.895061,297.536271,-42.977142,281.884147
14,-14.386253,0.645848,1.0425,0.029578,0.0,40.192509,10.672932,68.709698,1.099834,66.405544,-7.139912,56.445179,-11.564255,26.553783,0.0,-7.550717,12.664577,33.099456,29.369731,49.834991,42.232157,55.864239,51.285137,64.795634,0.0,65.507526,24.528408,87.914715,16.097889,84.870472,7.588406,72.066135,-0.337944,49.372387,0.0,11.885534,30.705701,49.74996,47.965744,61.888239,59.772423,72.909144,66.419978,81.164248,-25.482073,298.20827,-42.135401,281.939877
15,45.737286,-11.284332,-0.084286,-0.339627,0.0,-21.619377,-32.607536,21.063766,-44.644775,17.041397,-51.608047,1.579514,-55.52124,-30.410614,0.0,-5.99368,15.57827,35.124005,37.529924,50.665472,53.628072,60.814152,65.42098,69.059376,0.0,66.113892,24.532185,87.95208,16.033459,85.247269,7.739925,72.803535,0.251026,50.148926,0.0,11.972911,30.846616,49.926196,48.509703,62.012728,60.524481,72.406681,67.174198,80.461837,20.048304,286.954026,-42.426596,281.630337
16,-23.771782,10.758774,0.506802,0.166541,0.0,23.840218,-14.371204,40.295906,-24.141655,46.955109,-28.910007,33.913078,-30.772877,8.82328,0.0,-4.684572,5.947429,26.449677,25.626791,43.222077,41.810154,50.740993,54.228409,56.082156,0.0,66.136265,24.048729,87.861042,15.477562,85.196629,7.038574,72.226238,-0.625477,49.480877,0.0,11.722575,30.175142,49.461154,47.781543,61.958881,59.805027,72.421254,66.476171,80.131472,-3.833399,297.719901,-42.029715,281.803979
17,-11.148434,9.049029,0.035362,-0.35241,0.0,23.42165,0.633202,55.522785,-5.852394,57.498608,-11.559963,46.970959,-14.835262,15.196095,0.0,-20.953644,3.917199,24.992985,20.738629,39.756582,33.987489,45.214331,42.853304,56.009476,0.0,66.142788,24.177818,88.112698,15.618668,85.308094,7.255611,72.497234,-0.24765,49.690533,0.0,11.967292,30.724164,49.713836,48.305124,62.536927,60.239997,73.040425,66.716751,80.96115,-15.11364,306.77668,-42.12616,281.45932
18,21.982441,-20.135142,0.724068,0.021674,0.0,3.878288,-17.437077,36.109085,-28.469982,30.054131,-37.008476,12.823792,-43.894672,-16.629524,0.0,-15.144412,14.103485,30.850506,35.796158,47.400172,51.975507,59.767792,64.003067,67.777067,0.0,66.332645,24.149666,88.009815,15.704384,85.448513,7.260532,72.380962,-0.400257,49.080677,0.0,11.802665,30.913491,49.447877,48.172052,62.479561,59.85418,72.891298,66.308272,81.017652,6.641035,286.621469,-41.629858,281.460925
19,-7.954903,21.796599,0.253487,0.322708,0.0,-44.973679,-26.634178,34.442139,-25.918121,43.461227,-21.363144,38.839188,-13.694744,15.378799,0.0,38.397826,16.154217,28.739815,20.632603,31.24472,23.007895,32.380619,25.300317,32.14146,0.0,66.345463,24.13147,88.265247,15.550289,85.904675,7.148552,73.105145,-0.324039,50.03706,0.0,11.491134,30.142043,49.211373,47.787471,61.712003,59.695976,71.944726,66.259242,79.967092,-1.471252,308.420568,-41.533756,281.786134
20,9.108353,-20.781113,0.201874,-0.29881,0.0,3.076515,-19.989223,37.8265,-31.867161,35.40184,-40.855236,16.407394,-47.349358,-21.28767,0.0,-13.891249,11.506695,31.791582,32.590941,48.488832,48.863904,61.147419,61.458024,71.897363,0.0,66.33276,24.36636,88.118076,15.797939,85.971508,7.338982,73.198643,-0.373192,49.918842,0.0,11.416231,29.628712,49.329008,47.379053,62.08726,59.506155,72.627747,66.210397,80.562366,7.483692,287.654414,-41.485291,281.502282
21,-12.29805,8.265293,0.276718,-0.263489,0.0,-2.323322,-13.77079,43.755341,-22.560711,51.697197,-26.042347,37.193413,-26.174469,1.089478,0.0,21.558119,8.500006,30.938377,28.058337,45.073725,43.772706,52.519466,56.461304,54.600394,0.0,66.51495,24.685192,88.083744,16.093197,85.950222,7.564659,73.126431,-0.155754,50.002499,0.0,11.45007,30.158531,49.737055,48.051824,62.430222,60.141011,72.815345,66.820738,80.617015,-4.995861,295.947603,-41.390076,281.266689
22,-1.39183,-7.258205,-0.224876,-0.056749,0.0,16.963348,-3.835487,52.875137,-14.499435,49.124222,-24.200993,31.672325,-33.309689,4.737167,0.0,-16.00404,9.941446,31.243979,31.268247,47.549299,47.74863,60.326941,60.659776,69.348121,0.0,66.94788,25.287952,88.744755,16.631413,86.129208,7.902031,73.193951,-0.157928,49.86105,0.0,11.350899,29.859844,49.587001,47.683298,61.93344,59.968604,72.729512,66.906077,80.616768,-6.588593,288.694646,-41.815853,281.215189
23,0.464172,-0.366427,0.224991,-0.477145,0.0,18.707657,-3.930359,52.467728,-15.021458,49.919701,-25.339451,31.705627,-35.095482,2.106857,0.0,-14.636577,10.138244,32.617803,31.294183,48.947267,47.865338,61.11605,60.906469,70.538051,0.0,66.845226,25.172768,88.902225,16.484184,86.188602,7.722359,72.9249,-0.304298,49.640064,0.0,11.587835,30.303397,50.148251,47.99946,62.919533,60.046842,73.556967,66.789184,80.963003,-6.327181,288.387129,-41.793623,280.796954
24,-3.507729,1.270638,0.584621,0.07583,0.0,19.709816,0.275459,55.575829,-9.99424,52.74971,-20.049992,36.069374,-30.228024,9.268227,0.0,-17.733483,9.180804,29.549857,30.247945,46.07859,46.996942,58.552235,60.476871,67.369329,0.0,66.216888,25.312557,88.274345,16.516743,85.42717,7.609863,72.198944,-0.571918,48.488274,0.0,11.470077,30.4072,50.485408,48.079056,63.319058,60.102293,73.90666,66.815551,81.322699,-10.002394,289.666767,-41.376486,280.881783
25,2.930202,-2.365411,-0.375366,0.372787,0.0,21.418819,-3.006763,54.529781,-13.528576,50.731716,-22.859688,33.705196,-32.073212,10.755672,0.0,-13.385699,10.335413,30.378239,31.904894,46.48287,49.004633,59.680847,62.544831,67.159007,0.0,67.010307,24.775887,88.976898,16.069336,86.277924,7.699356,73.103027,0.235462,50.490646,0.0,11.104638,28.350046,49.450841,46.35906,62.091954,58.834125,72.682026,65.860581,79.954989,-7.267828,287.30713,-41.947489,281.260344
26,-2.978096,-0.499993,0.71394,0.230761,0.0,26.354885,-1.755581,58.068523,-12.0714,54.555988,-21.038189,38.09412,-29.672184,14.757557,0.0,-13.175747,10.104776,30.573864,31.813812,45.847458,49.213967,59.772361,63.050073,67.32351,0.0,67.035198,24.239159,88.188572,15.877419,86.31094,7.571697,72.239971,0.038109,49.250278,0.0,10.342577,28.170847,49.100408,45.993251,61.812842,58.423423,72.375435,65.595548,79.198053,-10.388775,286.809005,-41.3764,281.492974
27,23.21085,-0.799544,0.26762,-0.188524,0.0,0.778999,-26.289139,33.673782,-38.088455,29.571419,-45.720692,12.241402,-50.64806,-18.623829,0.0,-10.161586,13.367667,33.863432,34.215348,49.563165,50.383581,61.431409,63.135721,68.740682,0.0,66.98925,24.554787,88.024521,16.200428,86.476021,8.052807,72.918777,0.774021,51.022911,0.0,10.642375,27.963612,49.024825,46.147441,61.383182,58.772869,72.221491,66.045338,78.78346,12.558575,286.044643,-41.37228,281.339632
28,-17.165222,8.690753,0.516357,-0.575884,0.0,0.526772,-16.052856,41.075249,-23.98304,50.022697,-26.333485,36.479759,-25.38763,11.720009,0.0,16.281484,10.314789,32.104904,29.459269,45.287505,44.946766,51.049066,57.145807,55.043082,0.0,66.172485,23.585644,87.809258,15.238323,86.433792,7.256126,72.559547,0.164337,49.89212,0.0,10.660159,28.31985,50.147942,46.259889,62.257321,58.723407,72.791324,65.908932,78.560603,-4.929771,294.753056,-41.179047,280.781408
29,6.922531,-7.777279,-0.864887,-1.17579,0.0,13.460655,-14.377613,44.208183,-24.345245,40.419617,-32.624474,25.592766,-40.17643,1.041985,0.0,-14.377781,12.34366,31.659745,32.611134,47.445929,48.856988,60.381035,61.894846,66.845685,0.0,66.477757,24.010677,88.674488,15.588684,86.537762,7.579708,72.934628,0.601273,51.492062,0.0,11.532939,29.209427,50.959219,47.312733,63.833747,59.723022,73.090937,66.752195,79.024472,1.745195,287.007872,-42.291498,279.637713
30,-7.634468,-6.339359,-0.209599,-5.051369,0.0,13.166885,-9.620934,52.530098,-21.569424,51.638718,-30.843315,32.507629,-38.624954,3.566208,0.0,-6.592597,20.570853,43.439377,40.7499,56.90918,55.292369,67.747983,65.39171,70.492788,0.0,66.357765,23.396358,88.322296,15.202332,86.536102,7.643394,72.589417,1.259651,53.643608,0.0,12.028116,29.908318,58.522656,47.540222,73.386474,59.751736,81.473185,66.940225,82.936176,-6.172285,280.761494,-42.784109,274.679325
31,18.937912,11.948396,1.565723,-17.504451,0.0,-41.795254,-37.963886,-22.95702,-43.607254,-28.369217,-44.614162,-31.29364,-42.844162,-47.661552,0.0,29.920668,11.416663,23.927111,17.291659,29.415673,21.770478,32.390746,26.146483,43.492112,0.0,61.846218,26.184769,83.306293,17.830811,75.092068,8.782825,57.594967,-0.423088,30.911121,0.0,17.725147,27.263424,60.966491,46.27934,77.448663,61.429063,90.010612,71.759598,94.452257,12.587814,292.771563,-41.396198,257.236547
32,-3.486443,0.057922,1.549301,-6.79588,0.0,-55.983582,-38.079586,-64.749813,-32.258892,-61.649036,-23.572655,-48.123951,-15.69809,-37.657928,0.0,31.075524,30.187121,27.516539,34.099627,26.791404,31.69025,21.529343,26.057686,17.773251,0.0,52.266827,27.75095,63.029308,19.291935,39.770451,8.115578,12.714672,-4.070377,-7.485752,0.0,9.018709,19.352764,60.74882,37.201721,85.213716,52.158165,96.306313,61.95672,94.948915,8.998919,292.912539,-39.94935,250.523722
33,17.316399,-17.46277,-26.306992,-22.671726,0.0,-60.857735,-35.425873,-95.167522,-29.548759,-98.024368,-20.688858,-86.077709,-10.343056,-61.941605,0.0,20.323357,26.620788,47.947713,43.765234,65.07598,56.567576,78.069317,65.277719,83.704042,0.0,64.756794,30.515842,48.034973,21.924248,45.100765,13.342552,38.178692,4.794559,34.748268,0.0,10.325039,-4.632207,9.250644,-8.107953,8.026319,-10.202835,7.329342,-10.762232,0.353892,25.800533,275.695058,-66.771126,228.097284
34,1.245804,-1.153559,-35.250778,-81.952306,0.0,-61.902924,-34.017792,-95.237617,-28.722267,-97.326393,-20.653381,-84.137478,-11.113358,-61.974106,0.0,21.162484,27.858143,48.132902,45.185432,64.011836,57.881193,78.956362,66.101037,83.853478,0.0,61.974106,21.453781,42.003479,18.626289,40.787601,16.810799,38.616829,15.890522,31.770172,0.0,2.457111,-3.992596,9.730445,19.303117,29.141131,42.264822,43.805742,62.371436,56.044365,25.947762,274.857861,-103.12048,146.461341
35,0.205765,-0.065949,-40.072575,-13.422811,0.0,-61.842442,-34.029808,-95.335236,-28.702927,-97.938766,-20.87574,-85.493145,-11.572037,-63.608665,0.0,20.97643,28.691958,48.547927,46.313303,63.649669,58.843944,78.152124,66.439306,83.218869,0.0,23.686237,18.223972,40.284176,29.745998,47.227936,37.681789,45.484314,42.973652,47.574921,0.0,-35.750802,-18.556771,-33.899926,-6.201254,-16.998036,7.174472,-2.684043,20.554489,9.658444,24.825954,275.223377,-144.520626,133.469996
36,-1.034546,-1.628914,-28.889523,-22.845862,0.0,-61.8643,-33.671494,-94.369583,-27.882614,-96.792412,-19.777679,-84.676838,-10.461273,-63.407078,0.0,21.663527,29.274388,49.879081,46.745618,64.689793,59.310591,79.059608,67.295599,84.609982,0.0,16.191502,12.840614,25.897064,26.756229,33.322506,37.947578,39.159966,46.900406,44.312153,0.0,-53.113258,-39.174122,-66.500223,-29.82338,-45.725686,-18.276671,-26.662439,-4.988322,-11.681943,22.72542,275.393067,-174.476137,112.422738
37,-0.592575,0.072742,-10.203552,-32.291421,0.0,-61.451168,-33.052139,-93.660507,-27.48024,-96.515007,-19.52774,-83.885307,-10.252876,-61.940517,0.0,21.978762,28.977431,50.421002,46.582411,64.947787,58.910017,79.526688,66.310865,84.436711,0.0,2.118587,-8.44368,9.825554,3.445587,18.605518,15.271454,23.480015,26.564598,30.27832,0.0,-62.654623,-21.432734,-50.995528,-9.995385,-31.590924,1.979533,-13.957199,13.591945,2.250154,21.005259,276.246535,-185.807276,80.912043
38,0.360031,-0.392856,-8.401623,-0.54717,0.0,-60.994263,-33.215561,-93.557167,-27.553825,-96.005688,-19.533005,-82.992725,-10.281372,-61.284199,0.0,21.797031,28.104218,50.089711,45.511042,64.858928,58.12449,78.746842,66.238679,84.468389,0.0,-3.441238,-3.931732,-9.478512,1.8433,-2.306042,9.03614,1.351891,17.476788,9.997959,0.0,-40.456523,-24.385763,-56.54442,-20.110998,-32.212782,-14.470468,-17.72385,-6.680314,-9.910787,18.845758,277.625005,-196.72843,82.136199
39,1.091309,0.470785,-44.367027,-11.619513,0.0,-61.286259,-32.83493,-93.309917,-27.113113,-95.223141,-19.073868,-82.033768,-9.773827,-59.806595,0.0,21.467345,27.603978,50.251497,45.049828,65.228442,57.542924,78.981123,65.322365,84.599423,0.0,-1.055832,-10.455494,-4.102135,4.956722,9.066582,21.761799,24.352398,38.326607,36.907082,0.0,-61.468892,-12.660347,-65.494617,-4.394221,-21.184621,3.188452,-6.419912,9.39443,0.629823,17.569113,280.429215,-243.463411,72.85011
40,1.341934,0.051623,-7.915592,1.932973,0.0,-61.255417,-33.097343,-93.399239,-27.367058,-95.950012,-19.27803,-82.462749,-9.920654,-59.926987,0.0,21.204042,27.544821,50.047597,45.023831,65.110375,57.457029,79.269251,65.056529,84.342603,0.0,-3.369198,-12.401619,-13.121567,5.398865,6.722946,23.939152,18.703022,41.905289,32.382431,0.0,-58.373807,-20.582153,-75.54885,-19.874185,-21.852174,-17.140185,-14.203614,-13.862226,-12.021138,17.07613,281.081083,-253.213921,75.383328
41,0.857048,0.23002,0.636692,-2.184822,0.0,-60.511436,-33.134651,-93.608894,-27.396584,-95.92186,-19.26693,-82.388706,-9.816513,-59.542179,0.0,21.453081,27.514872,49.791704,45.05625,65.031644,57.516063,78.844408,65.091295,83.993713,0.0,-6.049519,-16.580944,-21.935577,-1.962605,-9.502487,15.655518,16.035175,32.890148,28.670368,0.0,-52.739915,-10.261159,-67.342962,-7.595455,-74.104107,-7.902509,-42.162656,-9.293375,-35.982459,14.844303,282.087198,-255.666103,73.974601
42,2.045517,0.137271,-4.886856,-39.186348,0.0,-61.391373,-32.969284,-94.28587,-27.209015,-96.237831,-19.203644,-82.882175,-10.173569,-60.524769,0.0,21.207067,27.246875,49.082438,44.829255,64.841514,57.429489,78.559553,65.427464,83.734547,0.0,-14.136028,-22.433338,-21.338596,-5.867271,4.661522,13.776226,20.484524,33.491478,34.323807,0.0,-66.414482,-9.965065,-86.385862,-2.024426,-35.04518,3.907628,-23.723242,6.554991,-14.032256,12.906246,283.083139,-264.536533,35.646923
43,1.943665,0.860183,5.64497,-32.017311,0.0,-61.469364,-32.846489,-94.034615,-27.228699,-96.071377,-19.348183,-82.591152,-10.315247,-60.068321,0.0,20.100006,26.725825,48.285364,43.954623,63.714816,56.504159,78.04931,64.458106,83.390226,0.0,-0.648479,-21.19257,-17.22393,-4.873981,6.980267,14.723911,22.440434,34.498787,35.436115,0.0,-69.717203,-12.806788,-93.168188,-4.308851,-31.141227,2.380201,-23.280029,6.337507,-13.25204,13.079166,284.226108,-260.662308,3.912398
44,1.784592,0.178273,7.717438,-33.296594,0.0,-62.658691,-32.277946,-93.649292,-26.887321,-96.340828,-19.379539,-83.444424,-10.410347,-61.12215,0.0,20.576225,27.473129,48.710824,44.737309,63.451204,57.080908,78.051409,64.704058,83.810747,0.0,6.576805,-16.866932,-11.793652,-1.087017,9.25415,17.897129,24.545288,37.515621,36.555748,0.0,-65.496748,-14.400968,-94.202214,-4.716867,-28.607052,2.840951,-20.255772,7.478376,-9.984918,13.120794,284.313948,-254.687834,-29.474629
45,0.050583,-0.045263,10.829601,-22.450011,0.0,-62.16568,-31.66729,-93.969669,-25.886993,-95.707226,-18.204002,-82.682533,-9.408073,-60.691853,0.0,19.721661,26.620232,49.350559,44.244417,63.764031,57.04676,78.160028,65.046093,83.881883,0.0,10.865479,-14.704056,-7.311115,1.584206,11.823864,20.800381,26.949806,40.254078,39.140511,0.0,-63.702466,-14.801419,-97.344492,-4.743049,-29.53269,3.754888,-18.628525,9.400327,-7.422677,11.962624,284.171645,-245.066986,-52.021681
46,0.671883,0.028652,8.371639,-1.577507,0.0,-63.12664,-32.384148,-94.777451,-26.423378,-96.495609,-18.653526,-83.533916,-9.950638,-61.843414,0.0,20.463593,26.829813,49.415397,44.712053,64.08359,57.524831,78.467113,65.394242,83.799446,0.0,20.885353,-9.503174,4.148884,7.849274,20.392857,27.292843,34.555836,47.095127,45.428066,0.0,-71.456897,-28.024622,-106.473673,-21.075971,-41.449841,-13.694605,-30.616256,-7.279818,-22.788897,11.524973,284.157951,-237.80488,-53.641533
47,-0.34481,-0.106025,14.428425,-6.615847,0.0,-62.162018,-32.152977,-93.848591,-26.684761,-95.921459,-19.259262,-83.687496,-10.701942,-62.476387,0.0,20.201709,27.596938,48.73855,45.540744,62.763983,58.195626,77.789649,65.943574,83.49971,0.0,22.68837,-5.66288,8.141499,11.408215,20.966606,29.90015,35.927639,48.844013,45.960732,0.0,-68.585658,-28.007054,-105.907236,-20.387393,-39.880423,-11.742952,-29.504162,-3.723334,-20.575762,10.362082,283.472584,-224.194536,-60.836722
48,-0.078735,-0.38804,17.693253,4.649127,0.0,-63.2444,-32.657089,-95.139484,-27.232246,-96.008835,-19.91581,-84.51107,-11.506004,-64.113121,0.0,20.142182,28.235252,49.169136,46.260939,63.405879,58.902112,78.409006,66.503526,84.758739,0.0,21.904221,-4.970112,9.18663,11.572781,21.15303,29.609814,35.698814,47.639008,46.549015,0.0,-68.329116,-28.735462,-102.749382,-21.817779,-42.062528,-13.055519,-27.035195,-4.316477,-17.772263,10.441761,281.360195,-206.342869,-57.911945
49,-0.113525,-0.440527,17.51833,10.049293,0.0,-62.619209,-34.161987,-96.047688,-28.317604,-97.398205,-20.541916,-85.018387,-11.812248,-64.705124,0.0,21.1673,28.137872,49.457572,46.369434,64.252662,59.368699,78.608645,67.563225,84.56546,0.0,21.97649,-0.475101,12.845364,16.015778,23.358421,33.203259,36.466026,49.42955,45.395451,0.0,-65.989115,-27.737421,-100.68539,-20.055268,-39.062847,-10.581828,-24.932099,-0.889669,-14.4977,9.459343,280.357769,-189.693432,-48.42455
50,-1.140175,-0.043596,20.180798,6.852999,0.0,-63.094597,-33.328171,-95.587006,-27.395439,-96.120415,-19.542847,-83.838558,-10.878983,-63.453255,0.0,20.738258,27.574893,49.634858,45.93008,65.139151,59.065257,79.230657,67.407985,83.766595,0.0,18.285542,-0.016994,14.439583,13.330822,24.082146,28.322697,34.409237,43.111839,41.740322,0.0,-57.350633,-17.253899,-84.049644,-7.608392,-23.574825,2.542295,-12.762421,12.727377,0.71825,8.363113,278.849562,-169.468689,-43.036162
51,-0.116501,-0.599102,25.34729,2.536676,0.0,-62.769585,-33.376122,-95.544205,-27.585411,-95.901432,-19.960213,-84.593868,-11.473618,-64.575863,0.0,20.414563,27.708521,50.01135,46.203387,64.868561,59.375615,79.434557,67.708277,84.63283,0.0,7.884464,-1.707287,7.000751,7.926979,18.611813,16.916542,25.518665,25.845909,32.265358,0.0,-46.587043,-1.689152,-38.759715,7.103675,7.390197,16.042942,22.544489,22.674072,33.940002,11.136847,278.330164,-141.231165,-40.419782
52,-0.137558,0.121587,3.871422,77.857328,0.0,-63.2127,-33.946724,-93.941174,-28.09639,-93.06324,-20.416603,-83.672791,-11.90094,-64.208221,0.0,20.042084,27.417924,48.272026,46.192581,64.192085,59.614712,78.619143,68.185669,84.945719,0.0,19.599552,10.036755,20.605431,28.164368,25.20052,44.456577,37.355747,59.437294,49.436646,0.0,-78.446087,-30.816111,-99.130406,-21.827659,-42.330062,-11.006085,-25.648095,0.17605,-17.549961,13.115158,278.404033,-135.243874,37.389828
53,0.369186,-0.26775,14.628124,17.594391,0.0,-64.448376,-33.824844,-90.977726,-28.202248,-91.134567,-20.551987,-83.628559,-11.888237,-63.953419,0.0,20.945678,26.984868,47.830943,45.751498,64.783777,59.271256,79.564541,68.007211,85.514132,0.0,16.208782,3.141804,17.867088,19.903278,25.465622,37.117882,39.37294,53.903332,47.499104,0.0,-85.637108,-18.206708,-76.04307,-4.505001,-25.103796,8.173068,-12.654358,19.993765,0.674809,15.655718,277.973895,-118.444376,54.821831
54,0.257378,0.157278,9.215412,42.081547,0.0,-63.265858,-33.813171,-87.816925,-27.898979,-88.137932,-20.033112,-82.122173,-11.225624,-63.210583,0.0,20.651623,26.096218,47.817728,44.576634,64.911601,58.050883,79.517796,66.785108,85.808249,0.0,22.395573,8.719425,19.141388,28.040199,22.323303,45.291023,35.369282,60.222187,47.638149,0.0,-77.332542,-18.702069,-94.85172,-10.200118,-32.713763,-2.202359,-21.652072,4.234164,-13.175655,17.392788,278.013044,-107.749271,96.785249
55,0.536842,-0.005187,8.470631,19.680813,0.0,-62.808037,-33.769112,-89.771805,-27.773323,-89.567242,-19.817734,-82.235641,-10.930023,-62.73737,0.0,20.453095,26.411022,46.931857,44.845866,64.485646,58.296156,79.461295,67.022292,86.204563,0.0,22.949352,8.964214,20.710373,28.906288,21.506481,45.584564,35.670433,59.756184,45.707474,0.0,-76.73699,-15.234413,-88.3691,-6.443223,-32.853103,1.108821,-24.049532,7.065019,-14.883239,17.544594,278.008629,-99.663677,116.466835
56,0.039368,0.246816,3.346195,10.953165,0.0,-61.963463,-33.091507,-93.660221,-27.104416,-93.236732,-19.217377,-83.279858,-10.179977,-61.306915,0.0,19.879989,26.857354,48.21503,44.92855,63.58477,57.91954,79.51193,66.048117,85.603546,0.0,27.074947,10.387917,26.834106,29.35627,26.447239,45.501251,36.091175,58.840542,47.118073,0.0,-68.634194,-14.041056,-87.567395,-5.59502,-38.592834,0.954229,-28.38404,5.191542,-18.98856,17.20871,278.161894,-96.692734,127.326447
57,0.419769,0.951327,-1.924152,-0.347994,0.0,-61.544151,-32.444687,-95.585861,-26.995926,-97.291031,-19.462509,-84.812565,-10.550194,-62.6441,0.0,19.656947,27.318444,49.154748,45.417428,64.257293,58.287078,78.961178,66.20132,85.018955,0.0,29.297104,13.996124,28.436565,32.883625,30.214119,48.160744,37.718754,59.910851,49.018822,0.0,-66.166616,-13.979954,-91.364242,-4.965258,-56.864009,0.849068,-40.424753,4.637765,-26.350105,17.293053,279.057213,-98.952312,126.922445
58,-0.319633,0.215262,-0.037308,-4.140767,0.0,-61.418953,-31.674843,-95.340385,-26.1866,-98.177834,-18.689003,-85.538177,-9.875908,-63.129101,0.0,18.808064,26.614613,47.862868,44.64845,63.865302,57.732004,78.896587,66.061826,85.113619,0.0,28.326416,14.533138,27.102184,33.544922,28.255806,48.128357,37.6367,58.894615,47.762833,0.0,-65.512247,-13.622635,-87.896926,-4.419847,-47.829893,1.367803,-33.198781,4.642272,-22.207362,16.77947,279.114209,-99.183569,122.623412
59,0.259094,0.70451,-0.903568,-3.4512,0.0,-61.465015,-31.358185,-95.122375,-25.989075,-98.422852,-18.616676,-85.804996,-9.901199,-63.188725,0.0,18.314431,25.731273,48.031693,43.595544,63.555438,56.83724,78.358247,65.597463,84.777696,0.0,31.742821,14.06868,28.878136,33.525238,27.977257,48.172646,35.905781,59.181347,46.57505,0.0,-63.934709,-11.690341,-88.29324,-2.96016,-46.680996,2.756477,-30.899505,6.0307,-20.188494,17.035189,279.612673,-100.090513,118.966167
60,-0.988541,-0.113497,-0.583992,-0.628557,0.0,-61.945553,-31.236305,-94.729729,-25.517235,-97.177448,-18.00705,-84.0802,-9.172325,-61.883011,0.0,18.253237,26.497349,48.581149,44.400769,64.395429,57.428933,79.273388,65.694473,85.478008,0.0,29.046421,13.96019,26.376743,33.001785,27.326202,47.569828,35.751801,58.656693,46.200199,0.0,-65.022165,-15.036997,-90.147234,-6.313949,-48.158251,-0.340523,-32.790951,3.37994,-22.413547,16.105213,279.435064,-100.61594,118.273497
61,-0.219269,-0.716243,-0.641842,-2.464737,0.0,-62.890549,-33.042412,-95.123634,-27.257309,-98.28289,-19.27002,-86.030331,-9.834251,-64.597607,0.0,18.670546,27.095896,49.465229,45.408412,64.92673,58.75385,79.964128,67.327462,86.169674,0.0,26.320038,14.656906,25.975399,33.751373,27.237797,48.200912,35.61739,59.074631,46.619225,0.0,-65.449354,-15.911198,-92.168109,-7.685734,-49.180683,-1.800549,-33.068704,2.184081,-24.141138,16.012888,278.589377,-101.130838,115.679316
62,0.058022,0.350372,-0.663528,-1.6023,0.0,-63.217335,-33.556366,-96.541214,-27.547073,-98.773041,-19.370499,-86.257038,-9.97776,-63.64357,0.0,19.420072,26.535634,48.880453,44.782202,64.826879,58.283065,80.09084,67.025935,86.212344,0.0,28.40498,11.890812,27.45924,31.321793,27.237568,46.987324,35.766506,59.298248,47.75877,0.0,-65.621669,-15.336981,-92.724851,-6.616896,-47.964941,-0.455687,-32.880458,3.848687,-22.498824,16.222458,278.883725,-101.642818,114.020993
63,-0.196724,0.152277,-0.180244,-0.633775,0.0,-62.844715,-33.419151,-95.619335,-27.612419,-98.166962,-19.453812,-85.808887,-9.731369,-62.602787,0.0,19.752043,26.902123,49.57885,45.060449,64.630389,58.355127,79.945603,66.902434,86.190855,0.0,31.394691,9.966717,26.533928,29.580574,26.883659,45.92989,36.269989,59.05117,48.376751,0.0,-65.454078,-15.84531,-94.196456,-6.940252,-47.352748,-0.516172,-32.387751,4.111003,-21.447091,16.164751,278.877488,-101.684046,113.228705
64,0.596008,0.794975,-0.454216,0.117727,0.0,-62.534981,-33.882523,-96.389866,-28.300781,-98.861103,-20.351601,-86.903286,-10.820045,-64.495926,0.0,19.097241,26.492841,48.596463,44.536867,63.457934,57.921948,78.762589,66.746885,85.28547,0.0,31.033115,10.794353,27.040901,29.835205,27.774067,45.683956,35.920086,58.650684,48.319817,0.0,-64.604207,-16.670697,-94.656651,-7.828069,-48.159826,-1.056426,-31.069967,3.827877,-20.788461,17.124395,279.360284,-101.774626,113.034253
65,-0.484314,0.205999,-1.147957,-0.572766,0.0,-62.381401,-33.454857,-96.173744,-27.64801,-98.223724,-19.606476,-86.14603,-10.017471,-63.88916,0.0,18.710066,26.743733,48.877612,44.963809,63.969043,58.327216,78.779879,66.955416,85.528952,0.0,29.944839,11.493702,28.066063,30.543709,28.638496,46.319618,35.871449,59.25745,48.321476,0.0,-65.965557,-15.743731,-94.536114,-6.654163,-50.755967,-0.011208,-32.468861,4.743574,-21.111941,16.750574,279.488385,-102.81209,112.383589
66,0.182304,-0.004508,0.060997,-0.046158,0.0,-62.583675,-34.096642,-96.440392,-28.184395,-98.555088,-20.078201,-86.764355,-10.462303,-64.562416,0.0,18.402487,26.596643,48.529464,44.862724,64.211289,58.298008,78.999093,67.093181,85.392298,0.0,28.767815,11.52626,27.604008,30.778141,28.608398,46.539516,36.268616,59.315186,48.51059,0.0,-65.83656,-15.38036,-93.242875,-5.781228,-49.260805,0.85336,-31.090993,5.405044,-20.051903,17.090006,279.403247,-102.593966,112.2568
67,-0.092926,-0.06984,-0.106316,-0.146904,0.0,-62.724895,-33.602371,-95.658245,-27.893028,-97.981224,-20.034943,-86.22694,-10.679626,-63.607521,0.0,18.594469,26.479873,48.586336,44.611523,63.861659,58.042547,78.887263,66.871991,85.536794,0.0,30.453472,10.897522,27.810402,30.170403,28.046436,46.086559,36.028862,59.098549,48.336697,0.0,-65.875463,-14.305255,-92.69555,-4.747372,-48.432824,1.816975,-31.352815,6.24096,-19.544191,17.106485,279.206526,-102.590876,111.983014
68,0.185966,0.041682,-0.290165,1.359343,0.0,-62.522907,-33.921432,-96.194916,-28.174438,-98.556976,-20.255013,-85.945358,-10.869141,-62.986565,0.0,18.369327,26.252508,48.994506,44.245837,64.415869,57.649011,79.363791,66.349459,85.445527,0.0,29.984951,11.147346,27.68486,30.167027,28.526516,45.89344,35.702763,58.672371,48.069935,0.0,-66.570526,-15.077413,-93.243369,-5.293955,-53.716375,1.28728,-36.429069,5.58375,-22.744128,17.38512,279.098987,-102.788372,113.193136
69,0.487976,-0.04446,-0.325527,-0.383285,0.0,-64.690876,-34.444542,-97.362041,-28.694801,-99.288197,-20.750656,-87.01601,-11.303673,-64.371872,0.0,18.32462,26.908792,49.643564,44.6763,64.662129,57.774056,79.731329,66.270666,85.703397,0.0,30.55418,11.16869,28.193035,30.493183,28.333683,46.154594,35.799179,58.729649,48.336525,0.0,-66.469162,-14.501065,-92.529195,-4.755307,-52.093975,1.754144,-35.056357,5.946843,-22.007816,17.925138,278.935102,-103.061857,112.690426
70,-0.745239,0.115165,-0.341663,0.615219,0.0,-64.609737,-34.12056,-97.185287,-28.391533,-99.100285,-20.380211,-87.030773,-11.04023,-64.056473,0.0,19.686093,27.137639,50.296452,45.176046,65.169594,58.288869,79.892127,66.620296,86.173564,0.0,29.413376,12.055607,29.380016,31.455231,28.662758,47.087917,36.851063,59.591846,49.233513,0.0,-65.894235,-14.655905,-92.969846,-5.165947,-49.348799,1.131885,-32.435299,5.33187,-20.481438,17.306871,278.890147,-103.276548,113.145527
71,-0.180588,0.262439,-0.93298,-1.663741,0.0,-64.883766,-33.407593,-96.772385,-27.482071,-98.310242,-19.459763,-85.917149,-10.333099,-62.852898,0.0,20.543189,27.092623,51.028317,45.137575,66.579047,58.221808,81.387228,66.547801,86.596123,0.0,33.697987,12.688465,29.625149,31.937771,29.234219,47.250481,37.947178,59.43821,49.575119,0.0,-65.650352,-14.116546,-92.094256,-4.352478,-45.751189,2.222089,-28.615882,6.379867,-16.511813,17.260752,279.139418,-104.07506,111.468617
72,-0.260582,0.262439,-1.036606,-0.655326,0.0,-64.083481,-33.157654,-96.349926,-27.152481,-97.516193,-19.148598,-84.771709,-10.060501,-61.883469,0.0,20.221654,27.177159,51.258955,45.389517,67.010744,58.615652,81.747295,66.990984,87.076726,0.0,33.732147,12.837753,30.344467,31.870823,28.825779,47.183704,38.115635,59.5994,49.577579,0.0,-65.221341,-13.998602,-92.173389,-4.597812,-43.707189,2.074289,-28.850564,6.573239,-17.273844,17.111406,279.384073,-105.000429,110.795507
73,-1.71524,0.187165,-0.727501,1.29009,0.0,-61.787109,-32.730103,-93.401871,-26.538506,-95.380096,-18.247604,-82.319241,-8.533859,-59.54813,0.0,20.922398,26.850808,51.648292,44.994561,67.94404,58.221746,82.021714,66.907312,89.136905,0.0,32.848549,12.870998,29.159546,31.62775,29.398441,46.997795,37.693691,59.418354,49.540043,0.0,-65.468096,-15.45477,-93.494385,-6.166118,-51.322311,0.250552,-35.376873,4.722517,-22.345405,15.587139,279.683918,-105.536957,112.198276
74,0.224991,0.222981,-0.785522,-1.451752,0.0,-62.360687,-32.199211,-92.720032,-25.937805,-94.827061,-17.407837,-81.512089,-7.383842,-58.511353,0.0,21.015826,27.447255,52.933565,45.246812,68.477996,58.273802,83.117845,66.766645,89.757188,0.0,32.824631,12.250729,30.425549,31.112709,29.487305,46.638737,37.353344,59.189701,48.793316,0.0,-64.953715,-14.09413,-92.110928,-4.611027,-49.726495,2.049404,-33.623223,6.90771,-20.168796,16.372547,279.991528,-105.762062,110.831152
75,0.833244,-0.292079,-1.961689,2.941296,0.0,-63.675613,-31.518631,-93.057461,-24.889755,-94.30212,-16.280251,-81.436958,-6.466827,-58.485374,0.0,21.573803,28.323123,53.603742,46.44724,70.369287,59.474415,84.68328,67.841843,91.504601,0.0,31.205807,12.961407,31.61459,31.643314,31.593418,46.968956,37.472649,59.15657,48.554077,0.0,-65.968737,-14.403685,-93.054413,-5.457285,-53.39623,0.858423,-35.927656,5.562384,-23.312324,17.790613,279.686836,-107.138929,113.759835
76,1.434402,-0.020933,-1.462841,5.112131,0.0,-63.729801,-31.478691,-93.584919,-24.669914,-93.928413,-16.169243,-80.867558,-6.660805,-57.914314,0.0,20.801182,28.680658,54.013641,46.938526,70.231769,60.034924,84.561817,68.30318,91.901409,0.0,28.740234,13.424377,33.793831,31.164322,31.706715,46.039124,38.9855,58.189201,49.573231,0.0,-67.713155,-17.315989,-90.734975,-7.500267,-52.367097,-0.146719,-34.22143,5.484486,-21.527398,20.481234,279.603812,-107.345552,118.809877
77,1.54026,0.026923,-1.403046,4.936019,0.0,-63.591728,-31.798096,-93.971443,-25.282059,-95.023384,-16.95076,-81.703835,-7.457542,-58.597813,0.0,19.356531,28.865971,53.038726,46.883445,68.692764,59.757356,83.438824,67.754837,90.534193,0.0,33.884983,12.623234,35.063152,29.743538,34.074497,44.971333,40.728035,58.116417,50.55788,0.0,-66.977368,-17.16291,-79.67245,-6.701649,-59.354002,1.183169,-34.654887,6.985114,-19.782177,23.698969,279.527118,-107.071123,123.642279
78,0.471268,-1.708943,-1.796265,4.497406,0.0,-64.016533,-31.059494,-93.444843,-24.880714,-95.22337,-17.074814,-82.760181,-8.274422,-61.038723,0.0,20.410178,28.651821,53.39132,46.881716,67.87525,60.132675,82.845155,68.563026,91.09464,0.0,35.587177,14.526272,32.069378,31.692352,36.778278,46.586552,41.08263,58.96534,50.746536,0.0,-68.151645,-12.821516,-58.041065,-0.99517,-50.956749,7.790247,-24.908912,13.964547,-13.139747,25.6285,277.371705,-107.409124,127.693214
79,0.644531,-1.497447,-1.166496,8.787454,0.0,-64.970856,-30.878677,-94.17326,-24.61853,-95.3405,-16.748314,-82.694321,-8.113747,-60.592289,0.0,19.666395,28.663368,52.517305,46.888755,67.972198,59.883882,83.13458,67.724456,90.253105,0.0,37.183399,17.302265,33.400555,33.379784,35.126839,46.657047,43.162994,57.45203,52.184029,0.0,-66.293174,-9.397116,-51.841478,3.047198,-31.639861,12.115801,-17.867235,18.235267,-7.112412,27.657738,275.325574,-107.190914,135.931985
80,0.924911,-1.410379,-2.398167,8.03941,0.0,-65.494709,-31.688232,-94.984245,-25.748177,-96.934719,-17.986336,-84.325047,-9.121971,-62.344151,0.0,18.967257,28.822499,51.570424,46.852261,67.05187,59.875855,82.861581,67.934777,90.640342,0.0,44.2313,18.249207,34.271049,33.410225,34.944534,45.863056,44.601574,56.499367,51.384602,0.0,-61.649172,-5.946194,-42.578854,7.311805,-21.921242,16.579245,-9.781204,22.504938,0.845795,29.754438,273.332471,-108.417292,143.388671
81,-0.627136,-1.143988,-0.839367,7.04424,0.0,-64.783173,-32.047005,-95.364304,-25.784225,-96.282063,-17.817421,-83.811722,-9.005585,-62.154694,0.0,19.42705,28.361655,52.459754,46.376288,67.740758,59.35851,83.11062,67.300724,89.773305,0.0,42.290325,20.137711,35.652122,34.980412,37.354946,47.045116,46.105843,56.532269,52.56609,0.0,-56.851165,-4.0005,-44.561135,9.1348,-23.572541,18.361238,-10.002887,24.322499,0.81881,30.459194,271.92589,-107.924767,150.170317
82,0.334053,-1.641573,-2.600212,16.257031,0.0,-65.814056,-32.793159,-96.540127,-27.101784,-97.330341,-19.622841,-85.277367,-11.107292,-64.436588,0.0,17.554037,29.231595,50.241123,47.55745,66.716751,60.481873,82.029803,68.367957,89.41861,0.0,41.381836,26.819458,64.600239,42.393379,38.859272,52.891388,48.757896,60.275688,53.823853,0.0,-42.251361,-0.108495,-51.402648,9.676475,-19.859118,15.052219,-10.011903,17.844634,0.15629,32.996464,269.705345,-108.321762,165.848377
83,0.342407,-1.015918,4.262981,8.751207,0.0,-66.767006,-33.185463,-96.868401,-27.613907,-98.499527,-20.341988,-87.037468,-11.917191,-65.554905,0.0,17.509453,28.371844,49.542541,46.738022,65.11618,59.769953,81.09836,67.725135,88.79876,0.0,46.666431,27.224751,50.657444,39.955559,41.452503,48.42453,46.67038,54.683247,49.215031,0.0,-34.637412,7.196517,-29.385786,16.566215,-15.93173,20.945122,-6.476321,21.828585,0.016734,36.050835,267.828765,-101.346817,173.738921
84,-0.67852,-0.200812,3.816376,1.4993,0.0,-65.524349,-32.830582,-97.016258,-27.213821,-98.618889,-19.870377,-85.928822,-11.496849,-63.602715,0.0,16.977411,26.509205,48.879465,44.693837,65.157861,57.906572,80.964423,66.172359,88.431406,0.0,59.204178,22.154732,39.733601,33.047447,38.82328,41.901741,43.274059,49.811611,45.963135,0.0,-29.682867,13.663514,-14.527649,25.218436,-5.873143,31.36501,4.311537,33.303232,10.641448,37.068214,266.728651,-95.834541,174.338919
85,-2.904053,0.289486,1.639709,18.103677,0.0,-64.279404,-33.409882,-96.247387,-28.189659,-98.639431,-21.022224,-85.816269,-12.496147,-64.646931,0.0,15.883564,27.912606,47.486684,46.095571,63.149121,59.127748,77.839852,67.333452,85.446392,0.0,62.225332,25.360337,66.278029,33.651066,51.292763,39.686079,51.883936,44.180975,51.762371,0.0,-24.977641,13.247501,-12.6869,29.434322,-1.106228,40.445007,11.412124,47.583076,23.387999,35.08604,266.928691,-93.272953,192.353151
86,-0.415306,-0.064035,1.63971,18.103677,0.0,-63.796234,-34.193115,-96.528854,-29.20372,-98.617058,-22.12532,-85.489712,-13.649483,-64.359512,0.0,16.277162,27.828132,46.727648,45.430087,62.103995,58.185561,77.837876,66.282892,85.033714,0.0,65.246487,28.565941,92.822456,34.254684,63.762245,37.470417,60.493813,38.550339,57.561607,0.0,-20.272413,12.831489,-10.846151,33.650208,3.660688,49.525004,18.512712,61.862921,36.13455,35.639248,266.641042,-90.66473,210.233214
87,-1.196709,0.425028,6.3204,11.788895,0.0,-48.608093,-35.13485,-95.549812,-31.376953,-98.559208,-24.590721,-86.960163,-15.901909,-65.958481,0.0,7.839894,26.233736,45.276637,43.695086,59.765754,56.730289,74.574182,65.740415,84.058551,0.0,64.871807,24.579906,100.561581,26.238613,92.54179,27.353668,90.029011,27.839699,78.92561,0.0,-15.379681,13.997954,4.007849,35.947755,14.157023,51.396412,27.869381,60.604077,41.052291,35.14432,266.257294,-83.64255,221.213333
88,-6.956749,3.04411,4.627075,11.478661,0.0,-66.333218,-28.802376,-84.827785,-24.47731,-88.629799,-17.602272,-77.610283,-8.262291,-55.586014,0.0,-1.776621,23.170854,37.38759,37.246984,54.840232,48.936831,68.540734,57.315868,78.076665,0.0,68.827114,27.778473,105.346127,25.778904,105.472469,24.587402,97.839489,23.613396,80.804386,0.0,-11.115445,21.671307,18.007408,40.820851,34.775486,53.963685,51.151571,61.430607,60.875903,28.225708,269.237678,-78.977337,232.628267
89,8.311386,49.68926,4.205704,8.050401,0.0,-73.439598,-32.433929,-95.264568,-31.574593,-82.36742,-28.360405,-69.354572,-23.252792,-60.015278,0.0,32.13195,2.38196,7.862433,-16.564239,-21.563985,-35.03774,-40.498884,-51.175469,-56.193801,0.0,70.03973,27.942581,99.486294,25.778675,94.019794,23.548508,83.120327,21.107826,64.514523,0.0,-9.225079,21.801106,21.226519,41.795087,35.303822,56.412706,48.305433,65.364972,61.924363,36.656971,318.770771,-74.651756,240.522501
90,-6.525078,-51.097478,8.033981,13.243117,0.0,-59.612789,-13.13839,-64.64819,-9.976616,-80.56469,-8.67691,-82.659187,-7.445984,-68.713932,0.0,-3.5073,17.173469,5.032226,39.456167,29.665515,56.092777,52.079495,66.758185,81.808181,0.0,72.58215,29.402046,94.333363,23.402653,93.766766,18.031597,83.610821,12.745342,65.177708,0.0,-6.465021,26.232378,37.26625,43.853599,52.469202,56.076537,64.87171,63.002093,73.058024,30.217667,267.555643,-66.532001,253.647968
91,4.518814,3.081222,5.256672,8.701806,0.0,-66.102905,-9.061203,-68.174229,-9.566803,-74.285831,-12.116776,-79.30172,-15.231285,-71.992264,0.0,0.449605,20.472052,11.501261,41.60292,26.679451,56.932398,49.535563,65.645381,74.609133,0.0,71.311684,27.519779,97.960281,21.235085,99.373856,15.258236,87.420616,9.687996,64.56356,0.0,-2.802419,28.626812,41.280583,46.725857,59.589642,59.246248,72.121826,66.082327,81.002091,34.859047,270.634318,-61.152763,262.347227
92,-4.431152,2.727948,-0.078163,3.894784,0.0,-59.079952,-23.665352,-41.798744,-22.888412,-44.115086,-21.24939,-47.602501,-18.487587,-44.837894,0.0,1.025304,20.200227,29.9881,37.754325,44.711497,51.536091,56.807724,60.531644,65.754803,0.0,71.096191,29.428196,100.757217,22.630634,100.621605,16.502266,89.263802,11.471958,68.675652,0.0,-3.417021,28.299658,42.309839,47.455624,58.186857,60.336142,72.064583,67.357164,78.812977,30.550518,273.255206,-61.108303,266.134951
93,4.076958,4.450846,6.591454,7.431477,0.0,-37.762871,-40.102558,-0.460854,-42.761765,6.643639,-40.917892,3.526154,-36.673622,-11.766014,0.0,0.108681,18.591999,37.54283,33.5808,53.526801,45.647819,60.134095,54.841714,66.119624,0.0,70.632362,30.828781,98.410606,23.184299,98.209648,15.536785,85.80677,8.289986,66.066856,0.0,-4.594107,30.210525,46.85084,47.912824,63.10219,60.099515,76.341602,67.388595,81.37778,34.673023,277.744183,-54.471302,273.604559
94,-46.158199,6.353685,2.523422,3.575843,0.0,13.831844,-3.006477,50.945377,-10.882244,54.199963,-18.786221,45.634518,-26.460285,23.540554,0.0,-11.508548,14.49029,30.854705,35.13901,48.742132,51.15188,58.580393,64.067349,66.302776,0.0,69.119453,30.25835,97.499657,22.863522,96.852264,15.457249,84.817543,8.788776,64.45713,0.0,-4.543595,30.468888,48.952145,48.526253,64.411484,60.727269,77.256743,67.763605,81.453795,-11.44043,284.134965,-51.903133,277.217498
95,9.734974,1.764889,0.718403,3.354097,0.0,0.954552,-15.007668,40.513115,-22.865009,46.18515,-30.293312,37.310371,-37.484093,14.6838,0.0,-8.08035,16.362562,36.013334,36.655477,53.045518,52.907938,61.231462,66.258192,69.620749,0.0,69.174557,30.15873,96.962299,22.220249,95.858173,14.349174,83.710842,7.444153,62.856388,0.0,-2.492185,30.871686,53.504385,48.369839,67.288004,59.991266,78.18936,66.609675,82.216969,-1.672583,285.933507,-51.151857,280.60525
96,-4.116497,7.547259,0.67646,1.293301,0.0,10.790348,-10.145531,42.902813,-18.715611,45.727329,-22.765217,32.205105,-24.03059,9.325848,0.0,-4.909281,15.311756,36.014755,35.648389,50.385002,50.364809,59.400994,62.238487,62.903663,0.0,67.909985,29.629784,95.579967,20.674896,93.44656,12.127476,79.893208,4.882393,57.841816,0.0,-2.633532,32.985279,57.195825,50.001408,70.621414,60.783586,80.213909,66.587816,83.287844,-5.759754,293.55357,-50.446072,281.971354
97,-6.16396,11.154471,2.347927,1.616379,0.0,26.757431,2.734337,53.28495,-5.407219,48.974648,-11.040173,27.459869,-14.922581,1.462727,0.0,-20.34287,3.938318,23.346658,23.173448,42.08377,38.989704,47.153541,51.679105,49.747305,0.0,67.515335,29.132252,94.416847,19.832726,92.134209,11.060257,77.708702,3.500576,56.662331,0.0,-2.520899,33.317682,59.354002,50.364748,72.273547,61.221211,79.765848,67.390324,82.008067,-11.796656,304.762844,-47.971087,283.642536
98,39.024582,-11.573262,-0.323467,0.902112,0.0,-30.642815,-41.247425,10.317535,-52.171497,11.969376,-58.112125,3.076515,-61.37804,-21.057014,0.0,-13.629921,16.55368,36.4538,37.873565,52.921647,53.872356,60.756601,66.378914,67.288004,0.0,68.604298,29.800301,94.90099,21.133633,93.278103,12.694759,78.560772,5.241337,57.868938,0.0,-1.260079,33.932284,58.518087,51.038939,71.596762,62.110849,79.333657,68.688935,81.571244,27.264404,293.268762,-48.258076,284.623827
99,-26.932983,11.589441,0.19455,1.005729,0.0,8.116722,-12.272129,37.567635,-22.861633,38.307266,-29.785194,24.67289,-34.812355,3.56678,0.0,-23.205311,11.895661,34.335761,30.405903,44.53557,43.836247,52.322359,54.360925,54.839738,0.0,69.156246,29.284973,94.806461,20.651665,92.705441,12.319221,77.709675,4.997807,56.941509,0.0,-1.067726,33.377086,57.016996,50.546602,70.176194,61.628455,78.290692,68.250816,81.20278,0.347157,304.887163,-48.047791,285.658517
100,-15.685101,13.919716,0.395851,-0.457077,0.0,34.169598,5.42244,60.76189,-3.958111,56.88509,-11.398373,38.766232,-17.180729,14.206066,0.0,-42.405984,0.454854,19.181901,17.505563,30.209537,31.632884,37.131634,42.725542,39.902931,0.0,69.055538,29.189587,94.090176,20.074711,91.612415,11.164341,77.143536,3.199596,55.659199,0.0,-0.337898,33.86337,56.618026,50.782242,69.243701,61.518477,78.278589,67.746624,81.630278,-15.322809,318.921535,-47.636805,285.316096
101,48.705654,-24.070681,-0.379944,0.083734,0.0,-39.914532,-53.464165,0.561676,-64.741001,6.384087,-68.439846,-2.134094,-68.663406,-26.35437,0.0,-10.078964,16.050352,39.401579,38.074007,52.729294,54.10781,58.836842,66.594608,64.884492,0.0,69.103031,29.09317,93.170872,20.044384,89.821873,11.327705,75.614719,3.56781,54.897594,0.0,0.261883,33.063085,55.8551,50.084524,68.245691,60.986745,77.542709,67.329253,81.021542,33.451796,294.866337,-47.947798,285.415313
102,-45.411301,4.518216,-0.912037,0.269479,0.0,21.626816,-1.551876,51.745949,-10.343056,51.653709,-17.245445,39.093933,-23.752556,17.948685,0.0,-14.923778,11.761724,35.467831,30.961904,47.981243,45.977566,55.126754,57.306791,58.123996,0.0,70.170593,28.161736,93.727226,19.420567,90.924568,11.053505,77.279892,3.611469,56.247597,0.0,0.817761,31.923481,54.020557,49.13505,66.631659,60.285877,75.998826,66.718665,80.344387,-11.914158,299.437828,-48.814487,285.738067
103,46.348801,-3.848162,-0.136013,-0.453742,0.0,-45.343037,-54.551067,-1.301079,-64.43819,4.553719,-66.698456,-4.187737,-65.568695,-29.349403,0.0,-7.570848,16.091663,39.122715,37.765934,51.850833,53.777631,57.57522,66.379285,63.352773,0.0,70.647526,27.418385,92.982044,18.690491,89.767284,10.392208,76.502094,3.062954,55.530682,0.0,1.483801,32.087922,54.135475,49.356302,66.328217,60.515589,76.008088,66.790666,79.850199,34.489317,295.592908,-48.895826,285.287567
104,-23.442535,4.408177,-0.265274,-0.338084,0.0,-4.491577,-24.443092,27.21405,-34.676285,26.29818,-39.815254,13.015709,-42.545471,-10.267868,0.0,-14.781196,14.849924,34.40875,33.333922,46.785076,46.112244,53.822524,55.304842,55.607666,0.0,70.345173,28.133583,93.366909,19.015903,90.278149,10.346947,76.671009,2.714424,54.373455,0.0,2.336327,31.913539,54.540372,49.38236,67.09139,60.564248,76.837396,66.724655,80.900141,11.164885,300.001795,-49.042997,284.950194
105,20.499229,-4.31197,-0.107746,-0.337775,0.0,-43.111897,-52.626686,3.045616,-62.278919,8.665123,-64.829063,0.385323,-63.963375,-24.993439,0.0,-12.573063,17.305059,37.137254,39.065534,50.358819,54.520489,56.615248,66.046388,63.336657,0.0,70.346146,27.895432,92.861938,18.849335,89.521523,10.1758,75.601501,2.533894,53.718338,0.0,2.616921,32.13936,54.762982,49.603982,66.612825,60.76574,76.375071,66.952205,80.899462,31.803417,295.691755,-49.01144,284.614349
106,-33.730431,7.516198,-0.122566,0.298563,0.0,5.850792,-10.744915,40.858383,-19.406948,41.740265,-24.607029,30.796967,-29.077377,12.317276,0.0,-18.943791,10.89691,28.763898,29.801922,41.646577,43.939741,50.792369,54.670357,53.730701,0.0,70.049057,28.052902,92.515297,19.257145,90.086861,10.835724,76.604576,3.473396,55.776901,0.0,2.786117,31.804179,54.619104,49.688334,66.21719,61.242947,76.134491,67.695433,80.622511,-1.785793,303.222866,-48.992786,284.927825
107,-6.981812,12.693106,0.157127,-0.430586,0.0,23.215714,-2.872181,52.00985,-10.960007,48.927498,-16.171532,30.887604,-18.662453,-6.098499,0.0,-34.243012,3.353356,20.341697,21.140501,32.211114,34.67335,39.120862,45.130968,38.153789,0.0,69.230347,27.294731,92.143021,18.261623,89.136429,9.803696,75.56694,2.485886,54.017487,0.0,2.826255,31.878835,54.448117,49.562857,66.917378,60.825267,76.834432,66.974497,80.762314,-8.632307,315.914506,-48.700361,284.495773
108,33.633385,-22.905821,-0.384808,0.105346,0.0,-31.004791,-47.792988,12.852974,-58.232632,17.433701,-61.715927,7.575874,-62.271423,-17.705383,0.0,-10.260572,16.677304,36.995475,39.583126,50.858072,55.961249,58.789912,68.606437,65.080797,0.0,69.759235,27.690353,92.811184,18.729286,90.667934,10.321198,76.738529,3.219395,54.805927,0.0,3.129881,32.369813,54.444782,50.161095,66.97567,61.4353,76.814178,67.519135,80.625105,25.135689,293.026669,-48.950558,284.619104
109,-41.941166,8.38657,-0.238953,-0.736991,0.0,25.664921,0.627251,54.167919,-8.861618,54.88512,-15.469494,40.660229,-21.187477,20.985203,0.0,-18.65412,8.879771,32.791074,28.780138,43.851376,44.304068,52.41906,56.410545,55.675962,0.0,70.261059,27.426052,92.531261,18.62463,89.984722,10.736504,76.046391,4.109516,56.715031,0.0,2.075925,33.10242,55.480769,51.039741,67.188709,62.447512,75.958997,68.643981,80.070092,-16.744537,301.417794,-49.128571,283.886666
110,46.288776,-6.697079,0.188713,0.075397,0.0,-37.47385,-48.343964,5.621452,-58.790932,9.459572,-62.463627,1.840439,-62.64782,-22.458115,0.0,-10.675596,15.426179,38.564861,36.648129,51.430621,52.336994,57.553422,64.753458,63.519376,0.0,69.881802,27.216511,92.375164,18.791828,90.301037,11.041203,76.512394,4.434013,57.263088,0.0,2.854166,32.734758,54.686535,50.369873,67.471217,61.800245,77.04778,68.246247,80.828572,29.766054,294.721255,-48.718042,283.962604
111,-41.717491,11.785004,0.061512,0.617072,0.0,21.366577,0.715141,48.82473,-7.611122,49.675369,-13.742294,36.272163,-19.354019,19.217491,0.0,-22.963002,6.486387,26.013534,25.109447,38.840145,39.778442,47.485141,51.455383,51.348987,0.0,69.390564,27.456093,92.227364,19.238434,90.868492,11.528893,76.817322,4.843826,57.202721,0.0,2.814337,32.438294,54.216491,50.107248,67.016549,61.670383,76.253978,68.379195,79.981727,-11.821918,306.471154,-48.527012,284.544571
112,41.492271,-11.309588,0.849667,0.063294,0.0,-38.519669,-48.149471,5.222397,-58.170319,9.669342,-61.531677,1.038322,-61.632729,-23.112488,0.0,-10.78613,15.951366,37.783225,37.477622,50.769707,53.002293,56.316129,64.880787,62.363285,0.0,68.717937,26.384068,91.309719,17.942848,89.937115,10.097122,75.927486,3.502178,56.574955,0.0,2.934441,31.946329,54.52512,50.009806,67.041434,61.811607,76.177531,68.443786,79.944615,29.763565,295.122524,-47.584133,284.568823
113,-44.779701,12.546325,-0.206051,-0.72884,0.0,30.127945,1.453686,50.032425,-6.27697,53.954887,-11.715546,42.807884,-16.36837,25.339622,0.0,-23.076438,4.633998,22.289737,23.287871,36.690181,38.395603,46.149479,50.445023,49.697349,0.0,69.358635,26.922798,91.556168,18.056087,88.991776,10.011635,75.300865,3.298874,56.484261,0.0,2.764998,32.81034,55.34603,50.924577,67.776882,62.581573,77.177641,68.843805,80.617448,-14.923353,307.641355,-47.697401,283.812489
114,38.655968,-12.846494,0.16325,0.00494,0.0,-34.461823,-44.936428,10.018387,-53.470688,15.984306,-55.701256,7.704048,-54.936161,-15.090408,0.0,-5.764277,17.438069,37.572038,38.428269,50.544132,53.431767,55.146885,64.594327,60.82218,0.0,69.072018,27.234535,91.088963,18.510704,88.815594,10.403366,75.062084,3.589153,56.283932,0.0,2.822056,33.081178,55.40988,51.065368,67.773794,62.70495,77.375057,69.076296,80.948553,23.810892,294.758722,-47.455873,283.781289
115,-38.136692,15.193071,-0.223618,0.099727,0.0,25.444736,2.708759,52.092991,-4.99609,54.691257,-10.789032,42.549763,-15.579586,22.80756,0.0,-26.898109,3.52564,18.53488,21.779864,35.411515,36.617315,43.764061,48.440852,47.847245,0.0,69.284534,27.359905,91.435261,18.671093,89.012089,10.683289,75.105915,4.032326,56.37537,0.0,2.900355,32.875487,55.448721,51.037148,67.82585,62.786954,76.98677,69.181457,80.454921,-14.281111,309.900201,-47.634802,283.829424
116,40.32629,-16.086476,-0.216637,-0.196181,0.0,-35.031338,-46.511364,8.245468,-56.238956,13.053589,-59.371319,4.472466,-59.462585,-19.531174,0.0,-9.577057,17.677229,37.870601,39.38151,50.98324,54.889694,56.569058,66.50223,62.973873,0.0,69.178791,27.667637,91.609097,18.935509,89.114628,10.809002,75.151806,3.939171,55.971851,0.0,3.227385,32.993554,55.657128,51.066479,68.107617,62.73916,77.125091,69.112728,80.766266,26.087294,293.773093,-47.809324,283.592611
117,-38.443165,12.505879,0.301151,0.19649,0.0,18.231754,-2.032585,49.431782,-9.835224,52.562084,-14.75338,41.039257,-19.037075,22.913647,0.0,-24.668672,6.400307,23.60391,25.309209,37.424578,40.365133,46.795821,52.56053,50.702275,0.0,68.849258,27.093544,91.482124,18.355637,89.193993,10.339794,74.876404,3.698845,55.710869,0.0,3.483773,32.485348,55.470889,50.69573,67.961392,62.507596,76.752551,68.957303,80.397307,-12.346601,306.189294,-47.498903,283.699424
118,38.442593,-13.503951,0.05785,-0.029825,0.0,-34.185963,-46.599483,8.491745,-56.554985,12.8825,-59.832401,5.20546,-60.02924,-18.838348,0.0,-9.278432,16.907201,38.767464,38.705714,52.129389,54.523823,58.521298,66.690939,64.633971,0.0,68.992481,26.944427,90.98711,18.022156,88.731823,9.893131,74.557858,3.193874,55.286808,0.0,3.225162,32.74507,55.512015,50.824109,68.008013,62.488885,76.851969,68.797678,80.380141,26.07522,292.648324,-47.461824,283.632579
119,-31.070423,10.215494,-0.396481,-0.05292,0.0,11.613293,-11.977215,41.971264,-20.558167,45.408611,-24.432106,34.285297,-26.523457,16.163235,0.0,-19.263659,10.014373,27.491469,29.111491,41.062418,43.839705,50.57649,55.483363,53.653389,0.0,69.602737,26.71423,91.228409,17.822742,88.767815,9.857254,74.839439,3.336067,55.723228,0.0,3.359963,32.440023,55.441249,50.625026,67.617504,62.379031,76.325485,68.75791,80.138203,-5.022297,302.859743,-47.885399,283.575583
120,-15.024891,3.860945,-0.219269,-0.730137,0.0,36.31588,6.309242,59.214249,-1.449966,62.511978,-7.679214,52.715034,-11.959362,34.568253,0.0,-23.046304,5.568158,25.038928,24.48552,42.120697,39.470987,49.092566,51.422717,52.327299,0.0,69.399376,27.374039,91.109276,18.267803,88.390503,9.833221,75.108032,2.704868,55.780106,0.0,4.499753,32.726545,56.102843,50.549381,68.012151,62.227187,77.731727,68.685292,81.652323,-20.043354,306.69608,-48.100834,282.820839
