takenoko1/special-research/HandMotion_SimilarSearch_自分用/NewProject/handData/test_key/d4_feature_d2/137.csv
frame,vel_0x_L,vel_0y_L,vel_0x_R,vel_0y_R,posFromWrist_0x_L,posFromWrist_1x_L,posFromWrist_2x_L,posFromWrist_3x_L,posFromWrist_4x_L,posFromWrist_5x_L,posFromWrist_6x_L,posFromWrist_7x_L,posFromWrist_8x_L,posFromWrist_9x_L,posFromWrist_0y_L,posFromWrist_1y_L,posFromWrist_2y_L,posFromWrist_3y_L,posFromWrist_4y_L,posFromWrist_5y_L,posFromWrist_6y_L,posFromWrist_7y_L,posFromWrist_8y_L,posFromWrist_9y_L,posFromWrist_0x_R,posFromWrist_1x_R,posFromWrist_2x_R,posFromWrist_3x_R,posFromWrist_4x_R,posFromWrist_5x_R,posFromWrist_6x_R,posFromWrist_7x_R,posFromWrist_8x_R,posFromWrist_9x_R,posFromWrist_0y_R,posFromWrist_1y_R,posFromWrist_2y_R,posFromWrist_3y_R,posFromWrist_4y_R,posFromWrist_5y_R,posFromWrist_6y_R,posFromWrist_7y_R,posFromWrist_8y_R,posFromWrist_9y_R,posFromBody_0x_L,posFromBody_0y_L,posFromBody_0x_R,posFromBody_0y_R
2,-17.616291,16.111794,0.894127,-0.14851,0.0,20.450993,-5.583801,44.802189,-14.726372,49.884167,-20.21101,35.741215,-24.021149,13.505688,0.0,-18.568534,3.802282,26.137344,23.666154,38.491687,39.974438,46.77921,53.52958,49.295477,0.0,68.151112,27.299938,90.271397,19.226875,89.552593,11.257553,75.103855,4.168396,54.442234,0.0,2.661319,30.660747,52.293151,48.325008,65.224428,60.292794,73.911476,67.372849,77.246246,-5.408878,306.790851,-42.33427,285.766689
3,34.40237,-15.684049,-0.253716,-0.63288,0.0,-27.922897,-43.049068,10.969734,-54.002209,13.967628,-59.043331,5.350342,-61.771488,-16.018066,0.0,-9.133256,12.966969,35.240837,34.873977,51.818105,52.236341,60.062835,66.264614,65.58468,0.0,67.575932,27.031288,90.906086,18.728199,90.366268,10.679054,75.969143,3.561058,54.977474,0.0,2.131007,30.472161,52.602829,48.522115,65.322056,60.608894,74.670142,67.630471,78.199487,29.090023,291.10671,-42.491455,285.133716
4,-49.110432,13.046195,-0.311508,-0.046066,0.0,38.058872,10.179462,62.979298,1.130447,66.546078,-7.087955,54.254665,-14.006653,32.032528,0.0,-19.854178,3.935169,24.963777,23.246684,41.606748,39.406458,49.773796,52.37812,51.807978,0.0,67.551327,27.261314,91.018467,18.982544,90.138988,10.921898,75.490322,3.781872,55.085735,0.0,1.965083,30.536196,53.209404,48.286167,65.927704,60.277788,75.008781,67.462263,78.469336,-19.94422,304.150558,-42.726774,285.085304
5,41.3447,-14.789903,-0.380459,0.170369,0.0,-20.232925,-34.392643,20.90332,-44.719334,22.840233,-50.465355,12.393494,-54.278126,-9.089928,0.0,-10.822501,14.707219,37.235931,36.491715,53.401695,53.13166,61.722563,66.324389,67.391065,0.0,67.864037,27.335358,91.277504,19.31242,90.745811,11.470928,76.450882,4.491119,55.862389,0.0,2.007382,30.330197,52.948879,48.125245,65.60197,60.079322,74.508418,67.137024,78.139898,21.439247,289.371431,-43.068466,285.266449
6,-26.043949,13.454921,0.200787,-0.278803,0.0,25.326519,-8.07106,46.378956,-17.997837,50.814457,-23.479099,37.795773,-25.930023,15.487919,0.0,-18.832394,4.886187,26.395831,25.215904,41.371171,41.685233,50.666831,54.495912,55.185911,0.0,67.613239,27.079124,91.256618,19.031353,90.966854,11.163368,76.929531,4.157524,56.188145,0.0,2.037578,30.281105,52.608449,48.213548,65.592955,60.243702,74.557447,67.38489,78.683548,-4.537125,302.858091,-42.800102,285.019385
7,-18.788681,-9.685861,-0.006123,-0.355991,0.0,37.805958,8.792381,73.682613,1.160603,72.084332,-4.282379,63.90192,-7.506351,46.25227,0.0,-7.205903,16.23196,36.757982,35.88971,54.94811,50.134665,63.076626,60.09723,67.353397,0.0,66.998291,26.557388,91.180573,18.538055,90.295143,10.69891,76.080093,3.609295,55.537834,0.0,2.386159,30.483214,52.549168,48.131729,65.669217,60.039987,74.704722,67.188956,78.605249,-23.288412,293.208956,-42.768831,284.70012
8,44.408627,-4.261519,0.544109,0.506292,0.0,-23.618889,-30.648022,20.709457,-42.089138,21.901932,-49.08514,9.325218,-54.146976,-16.693726,0.0,-13.402742,15.710725,38.248205,37.098536,53.64882,53.311662,61.686747,66.054292,66.93899,0.0,66.476727,25.906162,90.653172,18.003445,90.209713,10.400448,75.523052,3.657417,55.098553,0.0,1.955759,30.136177,52.776533,47.91727,65.547321,59.901111,74.265924,67.078546,78.11952,21.151514,288.960713,-42.193422,285.219688
9,-27.507877,12.686993,-0.676918,-0.114177,0.0,24.808788,-5.624657,45.688419,-15.145912,52.826443,-20.732975,42.17371,-24.422665,20.290546,0.0,-16.931778,2.572831,24.442913,23.522893,41.799904,41.253906,51.868617,55.516337,56.004536,0.0,66.878071,26.852016,91.832829,18.873367,91.488934,11.136475,76.342678,4.183559,55.672131,0.0,1.193759,30.235904,52.164278,47.918752,65.662548,59.942298,74.201333,67.399463,78.074689,-6.326437,301.687257,-42.840414,285.145063
10,25.359478,-12.332113,0.342865,0.369947,0.0,-20.368652,-32.281952,23.535919,-43.192291,27.13028,-49.542217,15.165596,-53.739281,-7.382812,0.0,-11.938145,14.642937,39.222997,35.610289,54.800712,51.672004,62.57336,64.452116,67.456644,0.0,67.598133,26.178417,91.15591,18.359528,91.191158,10.968475,76.425076,4.517727,56.209316,0.0,1.165292,30.005698,51.904309,47.97902,64.930002,60.249383,73.013378,67.82091,77.033886,19.05158,289.354758,-42.47901,285.514623
11,-34.942989,16.85459,-0.125027,-0.479368,0.0,35.338612,6.606846,60.974407,-2.723293,64.391613,-10.146446,49.88657,-16.188526,28.154583,0.0,-23.342088,0.682836,24.294094,20.830637,38.61951,38.15311,47.233014,52.244368,51.66657,0.0,67.465782,26.024323,91.750145,17.865772,91.334953,10.258255,75.74707,3.767738,55.751495,0.0,1.102121,30.628513,52.628147,48.574047,65.445742,60.669656,73.603712,67.893034,77.576734,-15.885172,306.225295,-42.597799,285.051202
12,29.601345,-16.944745,-0.537758,0.002161,0.0,-9.500427,-26.044006,29.871368,-37.582169,30.735397,-44.878635,19.168968,-50.869961,-2.932091,0.0,-15.446557,14.096755,34.932208,35.238861,52.963946,51.457606,62.325741,64.516645,67.164256,0.0,68.184471,26.71011,92.307701,18.470249,92.156982,10.638428,76.644058,3.892879,56.397743,0.0,1.209938,29.947653,52.813769,47.966176,65.429563,60.165464,73.951614,67.400019,78.275501,13.721437,289.282757,-43.130293,285.055571
13,-17.452984,9.807633,0.164909,-0.476157,0.0,19.246502,-13.518734,40.066967,-22.395287,47.198467,-25.60627,39.880543,-26.413651,21.845798,0.0,-11.914248,6.665092,27.603546,28.515476,44.161672,45.73995,53.469373,59.280457,56.946971,0.0,67.495308,25.889168,91.41655,18.085327,90.910378,10.842762,76.64772,4.611282,56.966171,0.0,1.793541,30.982158,52.672731,48.9548,65.245671,60.935492,73.877575,68.037468,78.105626,-3.724937,299.092011,-42.958775,284.581034
14,-23.170509,4.308017,-0.165939,0.2307,0.0,48.824329,18.756523,75.108204,10.080414,71.902485,1.450253,60.289478,-5.524921,39.251575,0.0,-23.005733,8.072199,30.536258,27.05619,45.319368,42.083894,51.726715,53.147653,55.706158,0.0,67.148323,25.940323,91.422501,17.836189,90.797768,10.495262,76.407051,4.376221,56.545944,0.0,1.583157,30.602701,51.932158,48.714777,65.02621,60.797541,73.537948,67.921192,77.689984,-26.880169,303.404196,-43.109436,284.815902
15,34.848347,-15.317313,0.258064,0.160922,0.0,-0.62645,-18.44902,33.767967,-29.360332,32.778282,-37.911301,21.414757,-45.847607,-2.229996,0.0,-15.536342,13.83271,35.431769,35.166427,53.427259,51.882573,62.720758,65.126369,67.17568,0.0,67.16011,25.739193,91.425705,17.607307,90.702324,10.213966,76.158943,4.149113,57.054977,0.0,1.320533,30.427639,52.216457,48.590349,64.778467,60.783339,72.638121,67.956946,76.846412,7.974873,288.079998,-42.844677,284.969939
16,-5.632668,7.719357,0.000744,-0.317768,0.0,6.859703,-13.029442,35.964661,-22.628632,34.137726,-26.970978,22.592468,-29.135056,-0.151749,0.0,1.097552,14.62929,31.458192,33.88381,47.251786,48.517978,53.132154,61.392074,57.776155,0.0,67.886982,26.205883,91.70042,17.836075,90.453243,10.207214,76.005306,3.923035,56.833591,0.0,1.678994,30.53984,52.817597,48.843897,65.177004,61.112283,73.16584,68.22204,77.363386,2.348957,295.779858,-42.837181,284.632673
17,9.64222,-8.257574,0.158215,-0.460226,0.0,-5.695267,-23.902187,29.861069,-35.162144,29.811287,-43.108807,19.796562,-49.752388,-2.674141,0.0,-14.845725,14.215501,37.192891,35.406204,54.641952,51.961428,64.324601,65.202754,68.700112,0.0,67.889099,26.461544,91.622543,18.052769,90.170631,10.225639,75.96508,3.58223,56.214523,0.0,1.764024,30.47778,53.140861,48.703353,65.445248,60.914497,74.036891,67.958304,78.519045,11.996098,287.477885,-42.674046,284.128049
18,-17.585278,9.925267,-0.177498,-0.385261,0.0,23.437099,-13.201618,40.445538,-21.683807,45.707645,-24.519081,37.672291,-25.306606,20.738697,0.0,-8.041694,9.074717,30.612705,30.91732,44.679696,47.473717,53.583364,60.641436,56.742948,0.0,67.891502,26.279526,91.70929,17.923794,90.293541,10.091686,76.022987,3.370571,56.231918,0.0,1.757293,30.983393,53.430717,49.136532,66.244483,61.112407,74.751529,68.046237,79.313402,-5.587091,297.355929,-42.849455,283.695564
19,22.518482,-9.577118,0.073357,-0.557421,0.0,-12.66037,-29.130192,25.201492,-40.908852,24.405556,-48.261967,14.056435,-53.861732,-7.793198,0.0,-13.899277,14.448053,36.452812,35.71261,53.917681,51.893688,62.832958,64.745616,67.192476,0.0,67.916794,26.416969,91.340103,17.938271,89.508018,10.053749,75.382118,3.336582,55.955772,0.0,2.315702,31.898534,53.880569,49.99511,65.989948,61.851744,74.78086,68.500905,79.334089,16.928587,287.701175,-42.778902,283.060508
20,-21.754017,10.097798,-0.225334,-0.152771,0.0,19.534664,-14.490566,38.63863,-22.566662,46.378498,-25.245609,39.11356,-25.931454,22.329426,0.0,-11.387208,9.930578,28.490652,30.721509,42.121932,46.897894,51.672251,59.691468,55.303237,0.0,68.36071,26.583996,91.892967,17.961845,89.820099,9.98909,75.336227,3.222027,56.026611,0.0,1.864492,31.79399,53.827402,49.884391,66.150561,61.682054,74.549852,68.340231,79.089866,-4.825144,297.761258,-43.00395,282.870023
21,11.825809,-7.3462,-0.093384,-0.092564,0.0,-2.813187,-18.67321,37.735863,-29.206581,36.172485,-37.025585,24.883461,-44.446449,3.917656,0.0,-15.06636,11.961672,31.451399,32.865978,49.212361,49.347162,59.370489,62.871182,64.969337,0.0,68.479729,26.96743,92.227249,18.422642,89.981804,10.375786,75.422745,3.597794,56.583595,0.0,1.828244,31.62887,54.071563,49.657582,66.288512,61.520762,74.6623,68.219694,79.319577,7.004499,290.389371,-43.0935,282.751771
22,-3.355522,1.472192,-0.056705,-0.109483,0.0,5.00267,-12.348518,39.190063,-22.834625,36.737251,-28.540993,20.437317,-31.408081,-10.086765,0.0,4.179206,19.137008,36.290964,38.5493,50.399451,52.330325,56.866881,63.944219,63.339188,0.0,68.421535,26.876793,92.489834,18.202286,90.113583,10.119152,75.974064,3.305569,56.695347,0.0,1.969591,31.896681,53.908604,49.837276,66.193231,61.610177,74.619692,68.274467,79.419119,3.653154,291.845152,-43.146029,282.625877
23,-10.839729,6.84738,0.194893,0.03211,0.0,21.362457,-6.055584,48.87085,-13.625336,51.754189,-16.955166,40.011978,-18.624229,16.562805,0.0,-7.21004,7.295811,29.342623,28.007887,43.268081,44.516922,50.969161,57.868905,54.153135,0.0,68.395557,27.003422,92.594662,18.331833,90.258465,10.193195,75.86935,3.302364,56.653805,0.0,1.797801,31.991283,53.863464,49.902546,65.985811,61.647536,74.587273,68.253039,79.239549,-7.193041,298.646852,-42.957602,282.612308
24,22.327881,-9.418049,-0.536098,0.112633,0.0,-11.030502,-22.110615,26.87542,-34.4981,23.310471,-43.153095,11.644249,-50.569096,-8.480988,0.0,-14.072919,13.490427,33.327315,34.883363,49.918107,51.423767,59.014683,64.425008,65.77833,0.0,68.422508,27.663631,93.175392,19.059849,90.99678,11.05648,76.552734,4.404316,57.77607,0.0,1.100578,32.184932,52.798702,50.139173,64.791496,61.88509,72.905377,68.58328,77.442982,15.088835,289.208518,-43.539705,282.704656
25,-8.566818,3.763441,-0.823975,-0.533277,0.0,-2.664413,-17.765236,36.631279,-28.762779,36.067657,-34.207249,22.78347,-37.130985,2.583847,0.0,-7.780984,13.27146,36.180184,35.347912,48.165445,52.327484,56.635008,65.96778,59.751366,0.0,68.908424,27.635593,94.392929,19.099102,91.777153,11.265507,77.762032,4.69511,59.105988,0.0,0.818378,32.668191,52.71787,50.574514,65.36102,62.064475,73.440506,68.183323,77.32967,6.352558,292.935989,-44.533138,282.135409
26,-14.138088,11.943332,-2.295742,-1.789156,0.0,23.350925,-7.033997,44.592876,-13.370647,51.115894,-16.425991,42.080326,-16.875458,21.876125,0.0,-29.755609,4.658389,23.161592,23.587237,36.765948,38.677741,43.642165,50.856775,48.130247,0.0,67.369137,28.922424,95.945034,20.55994,94.330387,12.945156,81.063251,6.788864,61.189785,0.0,1.888883,33.040237,52.483034,50.887341,67.141223,62.294495,76.047732,68.389446,79.35212,-8.067913,304.84593,-47.111263,280.312861
27,-7.28857,-10.269711,-4.976807,-5.209327,0.0,15.325241,-4.670162,53.541298,-9.612751,60.246506,-12.143097,49.130173,-13.578644,29.491425,0.0,-13.227926,12.937638,30.901697,29.23283,45.679806,41.149178,51.514108,50.208889,52.821488,0.0,66.252079,27.085876,95.305424,19.042625,95.131931,12.226696,81.940784,7.11731,60.87038,0.0,3.924609,33.296378,53.86896,51.652491,71.3053,63.014813,80.386501,68.470401,80.374583,-15.617867,294.56586,-52.349453,275.093176
28,57.071686,-19.264894,-10.267353,-4.800477,0.0,-79.578609,-26.51825,-99.920883,-23.236885,-100.03521,-20.971298,-91.610699,-20.033569,-75.844231,0.0,-1.40828,38.019976,17.070901,56.670885,28.803665,66.829507,45.603359,70.090608,60.999403,0.0,66.114235,22.132759,93.049622,16.025963,93.797379,11.74221,82.565231,8.892746,63.218422,0.0,3.54435,31.914218,50.220499,50.08545,71.047616,61.694466,81.256811,68.164674,83.126799,40.973368,275.396047,-63.097258,270.387779
29,15.647163,-1.778906,-12.685947,-7.953206,0.0,-64.718456,-42.796783,-127.978764,-41.635094,-131.804867,-38.09761,-116.394997,-33.61908,-90.913639,0.0,36.890437,27.054708,12.377376,47.886889,28.116012,61.412328,41.447926,69.661751,56.372075,0.0,61.363792,14.725685,97.592525,12.835979,102.013836,12.492542,91.284657,13.205166,71.822891,0.0,4.025386,29.677125,46.584017,48.690941,69.554491,60.881707,78.39752,67.964726,77.013014,55.954571,273.845633,-76.449165,262.663065
30,31.916313,-15.853677,-32.405319,-23.303494,0.0,-66.345634,-28.680611,-93.599167,-21.057243,-89.839096,-14.457779,-79.737396,-9.272575,-62.389069,0.0,28.641447,22.829807,49.466526,43.091599,61.122472,57.942758,71.989804,66.889467,78.090497,0.0,71.015739,26.226883,97.140312,16.857777,94.079247,8.688698,80.280075,2.180099,59.746742,0.0,16.284016,29.254752,48.475247,47.628155,56.61957,59.810893,63.731242,67.219214,67.181978,87.213049,257.437437,-109.51232,238.805053
31,29.254417,-15.537021,-21.204357,-18.449912,0.0,-68.40065,-24.059486,-90.578384,-18.184662,-78.805389,-13.77594,-68.869286,-10.838814,-58.511009,0.0,30.922445,23.782121,51.558568,44.260225,50.880549,58.090959,58.810969,65.773328,69.174602,0.0,67.660732,10.674934,65.333633,3.708515,53.443851,0.017967,45.318718,-1.375065,34.489346,0.0,27.191609,29.751225,30.908983,49.217734,37.21086,61.748312,46.630083,69.386344,52.089931,115.767374,241.596634,-131.416769,220.05136
32,20.674553,-9.239652,-8.37307,-5.214452,0.0,-61.909332,-29.315071,-68.446655,-26.796684,-46.186295,-23.246384,-39.031448,-20.215302,-32.937241,0.0,24.360599,26.823329,28.469657,48.772698,30.482782,62.28937,37.883322,69.376403,46.848,0.0,55.001392,8.026943,36.446228,3.202343,27.148247,-0.233974,20.658245,-2.548714,14.924355,0.0,15.150464,12.277464,10.718945,33.345531,24.111622,49.071138,35.150002,60.441797,44.273255,135.775995,232.300851,-140.45577,214.780777
33,22.128296,-20.554767,-58.827839,-40.645418,0.0,-64.631653,-24.830589,-63.038063,-20.453853,-41.53038,-15.986824,-34.777794,-12.125129,-28.352909,0.0,21.620826,17.418433,23.111852,37.613905,25.801391,52.411372,35.83716,62.107144,46.254733,0.0,72.07695,14.354382,75.435905,9.275723,33.578968,5.23756,26.606426,2.260265,19.270935,0.0,21.685818,9.594038,19.896291,30.650496,25.206024,47.929064,39.055283,61.917879,49.376494,156.848316,212.619451,-200.339584,175.008726
34,22.128296,-20.554767,-9.555473,-7.511814,0.0,-67.353973,-20.346107,-57.629471,-14.111023,-36.874466,-8.727264,-30.524139,-4.034958,-23.768578,0.0,18.881053,8.013536,17.754046,26.455112,21.119999,42.533375,33.790999,54.837886,45.661466,0.0,74.700165,12.346344,65.753174,8.660431,35.064011,6.18124,28.061771,5.020065,22.645683,0.0,18.256386,14.548088,17.57287,34.842114,25.806176,50.673006,37.173501,62.970168,45.677583,177.818871,193.429507,-211.052799,168.861735
35,14.630127,-14.401678,-10.149593,-11.856141,0.0,-62.706184,-23.534889,-74.639626,-21.493378,-45.059738,-18.658218,-36.582756,-16.393776,-32.616234,0.0,11.060487,11.412155,16.00299,29.061843,19.347639,43.302044,30.817469,52.826057,40.384275,0.0,62.647476,16.239052,86.118565,14.416008,35.432396,11.525517,27.57803,9.051247,21.827202,0.0,15.047773,12.877307,19.056301,33.259698,21.421774,48.678714,33.794024,60.680339,44.326175,191.561737,180.513667,-222.089653,158.491432
36,5.152931,-13.95936,-2.557297,-11.349849,0.0,-61.385536,-26.578903,-63.773575,-24.007416,-46.609383,-20.930786,-35.599937,-18.305168,-31.103096,0.0,7.468527,3.623144,15.111993,19.346589,16.923441,33.916599,26.482096,45.281577,35.907,0.0,63.71933,17.692966,84.819832,15.553608,38.278828,12.520809,28.884773,10.192337,23.426971,0.0,10.728578,12.057262,13.699144,30.295493,20.55912,44.316048,30.925594,55.370236,41.777859,195.906858,168.752437,-225.45476,149.339713
37,0.709419,5.066807,6.025143,-21.390775,0.0,-51.529999,-25.9655,-72.921524,-22.378235,-67.346306,-16.877861,-58.049583,-10.594482,-45.488777,0.0,5.073908,-11.583142,-11.59469,-7.104879,-12.958818,-1.695419,-7.757766,3.351936,3.247825,0.0,68.798304,20.139084,80.145493,17.149401,37.180166,13.320122,27.677908,10.13958,21.934605,0.0,9.922257,7.270741,10.10828,25.998884,18.90918,41.70487,31.469307,54.98763,42.465974,196.156139,178.445183,-219.889755,132.574877
38,0.078849,-37.495885,6.025143,-21.390775,0.0,-68.126907,-27.698764,-58.238353,-22.10186,-50.386963,-16.207866,-39.849758,-10.356445,-28.83007,0.0,-0.627091,-17.137901,-5.043712,-9.471587,0.316919,0.838138,7.496716,11.245013,16.60941,0.0,73.877277,22.585201,75.471153,18.745193,36.081505,14.119434,26.471043,10.086823,20.442238,0.0,9.115935,2.484219,6.517416,21.702275,17.25924,39.093692,32.013019,54.605025,43.15409,194.262571,144.97365,-215.83703,115.208454
39,0.07885,-37.495884,-3.485012,-15.718783,0.0,-84.723816,-29.43203,-43.555183,-21.825485,-33.42762,-15.537872,-21.649933,-10.118408,-12.171364,0.0,-6.32809,-22.692659,1.507266,-11.838295,13.592655,3.371696,22.751198,19.138089,29.970995,0.0,75.249081,25.18919,42.990189,21.001682,37.553959,16.869164,27.875004,13.243732,24.298153,0.0,4.296254,6.128265,5.811764,23.566335,17.584943,38.846474,29.964048,52.343694,42.009238,192.244234,111.91322,-221.41923,103.925125
40,10.934715,-20.757741,-2.648764,-20.92967,0.0,-62.181015,-29.467163,-42.276878,-27.70443,-40.717278,-26.136246,-32.781944,-25.080299,-36.810722,0.0,-7.667086,-5.887747,-3.761866,7.219333,4.275846,20.853793,17.651911,33.147714,28.832873,0.0,79.766779,21.480446,57.310839,17.852039,37.504492,14.278049,28.685732,11.6821,24.038401,0.0,2.817548,3.64434,3.338907,22.499581,15.532514,39.714268,30.136625,54.755526,43.311909,202.111616,92.495139,-225.135326,84.335115
41,6.929054,-14.087523,-2.648764,-20.929669,0.0,-63.414001,-23.113976,-91.587067,-25.867996,-43.788071,-27.102127,-36.55014,-28.496361,-36.077499,0.0,-13.578977,-11.117637,-29.657395,3.025708,-2.66558,18.100806,13.341177,31.781208,26.777233,0.0,84.284477,17.771702,71.631489,14.702396,37.455025,11.686935,29.49646,10.120468,23.778648,0.0,1.338842,1.160414,0.86605,21.432827,13.480084,40.582062,30.309202,57.167358,44.61458,208.15959,77.76904,-228.665171,62.76687
42,6.176605,-11.223508,-12.519436,-1.670812,0.0,-74.432487,-20.409622,-91.895027,-22.591896,-44.7258,-25.207214,-38.815269,-29.000015,-38.647041,0.0,-25.810345,-18.016238,-36.281763,-2.065953,-5.273516,15.027951,12.840906,30.697272,28.365268,0.0,88.996468,22.713261,97.427845,22.140198,44.046822,21.196804,37.533989,21.328468,33.309746,0.0,-3.135038,-3.063685,-7.430118,17.623074,10.800054,37.695292,26.722985,55.130706,40.783152,213.409595,65.835063,-242.111206,60.385589
43,7.514534,-1.87959,-3.870964,6.533194,0.0,-72.355042,-21.507225,-95.709572,-25.907021,-46.114197,-29.280281,-44.709435,-31.985435,-44.958801,0.0,-25.211026,-18.818994,-37.271993,-0.740542,-7.271914,18.601571,12.063993,35.810361,27.484861,0.0,88.770618,20.498257,90.232143,19.989338,42.437325,19.512463,35.282593,19.860306,30.980644,0.0,-6.364831,-3.335479,-10.524401,16.969692,6.674201,36.644485,22.116064,53.857968,37.897648,220.541782,63.382182,-246.364517,66.345492
44,0.730934,10.102151,0.081367,10.738057,0.0,-78.658333,-16.694069,-77.955437,-20.65773,-43.015137,-25.657082,-41.394539,-30.120735,-41.423149,0.0,-29.344135,-17.893232,-27.340118,2.073671,-3.625768,22.026372,13.207826,40.030384,28.143152,0.0,86.340179,17.056961,66.899471,14.070339,36.990395,11.923027,29.452171,10.451889,24.499798,0.0,-1.632249,-1.281568,1.039661,20.423455,15.098995,40.459734,31.772748,57.233277,45.374141,220.43561,74.019015,-247.120256,77.61823
45,-1.857491,15.331392,-3.181114,18.396467,0.0,-76.557083,-9.96048,-34.732018,-13.749504,-35.875854,-20.325851,-34.264183,-27.537003,-36.233597,0.0,-20.591848,-10.806538,-1.153343,9.543835,7.181357,28.767634,22.473908,46.004891,38.139864,0.0,82.417374,17.063656,65.22892,12.097263,35.324249,8.885765,28.278122,6.77742,21.263809,0.0,9.214983,-1.415319,9.270775,18.874693,20.762403,38.77824,37.985426,57.193139,49.582956,218.05624,91.740133,-250.82325,98.404422
46,-19.205818,10.267828,-4.111805,30.620871,0.0,-49.79805,-5.037117,-5.914879,2.60788,-1.97319,8.491058,4.906311,12.324829,11.687508,0.0,0.913597,11.976678,22.501511,23.707434,29.707104,32.871782,36.952558,38.582306,48.368418,0.0,75.62808,15.202961,55.186815,9.246711,32.942047,5.342188,26.147546,2.966365,18.397379,0.0,15.798673,9.59975,14.929119,27.915324,26.759016,44.427461,40.813919,58.527581,51.16721,198.629694,103.518005,-255.155782,130.535338
47,11.709938,57.912006,-4.111805,30.620872,0.0,-70.182953,-8.12439,-19.141045,-5.631409,-19.178123,-6.112175,-14.637337,-8.148193,-15.181274,0.0,-4.03681,-5.337644,1.791071,12.066648,15.396971,28.445945,25.157056,42.654962,41.249646,0.0,68.838787,13.342266,45.144711,6.39616,30.559845,1.798611,24.016972,-0.844688,15.530949,0.0,22.382363,20.614819,20.587464,36.955954,32.75563,50.076682,43.642412,59.862023,52.751463,210.508718,161.203372,-259.098501,160.92957
48,0.540333,28.473856,-3.091593,30.984813,0.0,-68.444309,-11.309452,-27.128677,-11.194725,-27.307949,-13.040428,-25.473804,-15.627765,-25.001335,0.0,8.546504,8.565924,4.416729,26.471105,18.472049,40.601513,27.875803,50.69221,41.161898,0.0,61.543837,8.555059,39.117851,4.286699,29.363537,2.828607,26.597986,3.018579,27.977629,0.0,27.742484,33.863648,22.312801,48.277398,30.425076,57.465334,39.809657,62.600776,49.651746,211.258449,189.220506,-261.980696,191.457662
49,0.540333,28.473856,-3.091593,30.984813,0.0,-66.705666,-14.494514,-35.11631,-16.758041,-35.437775,-19.968681,-36.310272,-23.107338,-34.821396,0.0,21.129818,22.469493,7.042387,40.875562,21.547127,52.757082,30.59455,58.729458,41.074151,0.0,54.248886,3.767853,33.090992,2.177238,28.167229,3.858604,29.179001,6.881847,40.424309,0.0,33.102605,47.112477,24.038139,59.598842,28.094523,64.853988,35.976902,65.339531,46.55203,211.987982,215.307354,-264.883089,220.055466
50,-3.771458,24.762533,-0.929031,18.49184,0.0,-60.539016,-19.493179,-54.348449,-20.204372,-37.661361,-21.705036,-38.183899,-23.493061,-44.25785,0.0,21.617553,33.350687,18.983157,47.722076,23.454906,55.094767,29.088612,56.790495,40.749096,0.0,47.515354,6.8577,65.672607,3.193073,26.391106,2.494068,18.832855,3.247147,15.083599,0.0,39.081342,46.451253,39.641912,56.441914,29.978281,58.196614,36.952558,57.123083,41.337023,208.151636,236.564162,-265.877008,235.041581
51,-3.771457,24.762532,1.445274,11.422591,0.0,-54.372368,-24.491844,-73.580589,-23.650703,-39.884949,-23.441391,-40.057526,-23.878784,-53.694305,0.0,22.105289,44.231882,30.923927,54.568592,25.362685,57.432453,27.582674,54.851532,40.424043,0.0,46.3064,9.735374,72.230129,4.109859,42.95763,1.658134,28.420086,0.325012,22.661819,0.0,36.54976,45.529629,44.652834,54.935204,29.639642,56.226405,32.157021,54.708457,36.555256,203.898525,259.50623,-264.913387,244.643708
52,-2.067375,8.96653,2.053127,1.538759,0.0,-57.831116,-18.424072,-89.583778,-17.324066,-41.85276,-17.592773,-35.266113,-18.62606,-31.657448,0.0,24.298725,40.618742,52.646487,52.423136,24.14577,56.791977,27.014817,56.773761,31.373841,0.0,49.948769,15.782948,84.629345,9.903488,48.74033,7.305107,33.280277,5.58712,24.450989,0.0,35.15488,46.210427,45.330854,55.342757,31.558845,56.540468,34.290374,55.523994,37.558206,201.260719,266.451839,-263.430691,244.161546
53,-5.443382,0.530683,5.958366,-8.853774,0.0,-56.274834,-19.049492,-89.533768,-17.490463,-39.192467,-17.682152,-32.355309,-17.975578,-28.500595,0.0,22.014392,42.747834,50.757665,53.079851,23.756124,55.517696,26.702731,53.934354,27.956017,0.0,55.762196,21.484394,90.976181,16.945839,45.620213,13.678722,31.350918,12.009773,25.542583,0.0,30.646297,47.326319,38.902883,56.945921,24.819899,57.955911,29.581535,56.571405,33.965752,195.417681,265.619227,-257.871981,233.944477
54,-3.535767,-9.022908,5.334091,-16.44963,0.0,-52.174072,-23.864479,-89.572334,-20.163231,-42.478981,-17.843971,-30.516586,-16.039009,-25.1231,0.0,19.968601,40.181549,45.657452,50.192032,22.084294,51.766111,21.99772,49.792198,21.846678,0.0,58.014278,26.957302,93.920689,23.05006,76.035233,18.372288,35.056343,14.794407,27.946243,0.0,28.37734,42.694297,33.038261,51.759566,27.784783,54.018272,27.544574,54.026794,31.666229,191.606913,255.943385,-252.812891,216.841913
55,-2.731819,-18.468066,7.04607,-13.635819,0.0,-46.979713,-23.795013,-90.702095,-21.987305,-39.449501,-19.631195,-30.768356,-18.003273,-27.903557,0.0,16.656803,32.033397,38.812789,44.302216,14.560253,48.317166,18.589838,48.331739,23.128555,0.0,52.420235,36.749411,94.324493,32.134409,70.900526,26.090384,41.176729,19.891863,34.360199,0.0,19.46302,22.176024,11.62399,22.480793,7.310014,19.873537,7.148382,16.578041,5.686966,188.415899,237.694564,-246.226015,203.425339
56,-8.627129,-33.10983,7.04607,-13.635818,0.0,-67.71698,-21.46328,-53.325119,-11.183968,-29.272385,-2.777023,-18.325424,3.424416,-12.195625,0.0,19.438783,31.520992,13.786212,35.044964,11.562765,34.053932,7.02059,30.896201,6.903943,0.0,46.826191,46.541519,94.728298,41.218758,65.76582,33.808479,47.297115,24.989319,40.774155,0.0,10.548699,1.657752,-9.790281,-6.797979,-13.164756,-14.271199,-13.24781,-20.870713,-20.292297,179.670925,206.541157,-239.297791,191.745944
57,16.741161,-40.780852,1.815033,-46.355865,0.0,-64.089374,-26.196956,-50.233669,-21.603298,-57.924957,-16.622772,-31.662082,-11.9977,-25.487594,0.0,15.443932,14.244631,11.952549,25.943587,14.650362,34.329169,16.133854,39.533494,21.374149,0.0,56.992264,41.045351,92.714596,36.676369,55.508251,30.065947,40.878611,22.168636,32.579041,0.0,7.18764,4.207843,-1.160954,7.776353,1.619852,10.652224,8.644981,13.263973,8.979622,196.218939,167.968994,-237.675905,147.598768
58,16.741162,-40.780852,1.815033,-46.355864,0.0,-60.461769,-30.930634,-47.14222,-32.022629,-86.57753,-30.468521,-44.998741,-27.419815,-38.779564,0.0,11.449082,-3.031729,10.118886,16.842209,17.73796,34.604406,25.247119,48.170786,35.844354,0.0,67.158337,35.549183,90.700893,32.13398,45.250683,26.323414,34.460106,19.347954,24.383926,0.0,3.82658,6.757934,7.468373,22.350685,16.40446,35.575647,30.537771,47.398659,38.25154,210.841627,129.221922,-237.979345,103.276684
59,2.54425,-7.129641,-6.52874,-18.820692,0.0,-60.662041,-23.519554,-64.20536,-24.492874,-56.246681,-24.474449,-44.914856,-24.217529,-41.237183,0.0,-8.956033,-1.430047,-12.807499,11.68219,-6.330436,22.74632,3.089836,29.733904,13.136628,0.0,78.407364,33.131847,48.695126,30.770874,48.987579,27.356472,39.073391,24.257984,32.326241,0.0,0.214984,17.261247,4.621833,34.426102,14.014503,47.461058,27.286673,56.966824,38.078793,212.645645,123.77904,-245.248318,86.142751
60,8.14064,-23.469433,-11.003151,-13.054747,0.0,-69.026298,-19.661751,-62.0014,-22.220592,-46.754265,-24.928207,-42.315731,-27.431602,-41.852874,0.0,-15.466872,-5.848551,-13.307121,10.871145,-2.796027,25.496143,8.998749,36.617393,20.322416,0.0,74.085903,35.014229,55.344372,35.298042,49.645557,34.163818,43.67506,32.642441,40.604038,0.0,-2.328021,14.742386,1.925934,32.673162,11.881459,46.471168,24.773833,56.697314,34.62043,220.745287,100.253723,-256.292467,73.03212
61,8.140641,-23.469432,-6.786289,-2.234964,0.0,-77.390556,-15.803947,-59.79744,-19.948311,-37.261848,-25.381966,-39.716606,-30.645676,-42.468567,0.0,-21.977713,-10.267056,-13.806744,10.060099,0.738381,28.245966,14.907661,43.50088,27.508203,0.0,73.801117,32.557011,81.194286,33.686371,54.024181,33.550529,48.598766,32.919617,43.816967,0.0,-7.164252,15.454183,1.309634,34.264377,11.21616,48.654261,24.320276,59.382685,38.040539,228.834229,75.451779,-263.130455,69.464644
62,10.636253,6.809125,-1.892567,6.278103,0.0,-75.405121,-16.517258,-65.584145,-23.9114,-43.17524,-32.403603,-47.631454,-41.016655,-53.213997,0.0,-30.014066,-14.439006,-22.615193,5.179779,-6.715203,23.408995,12.153222,37.573767,24.730114,0.0,77.25174,29.505444,50.884323,30.535641,50.130215,31.230583,45.763092,31.523323,40.840416,0.0,-3.136859,17.121969,0.754343,35.692572,13.371527,49.849842,25.789133,60.129093,36.885682,239.378757,80.043122,-265.114746,73.524965
63,-4.415474,9.295104,4.683208,12.724136,0.0,-80.191956,-14.188957,-36.190224,-19.307899,-38.473778,-26.357689,-37.988434,-33.290405,-40.236053,0.0,-23.646116,-18.125784,-12.088569,2.328762,3.99803,21.911918,19.035213,38.586844,30.91556,0.0,86.617584,25.785484,41.215324,23.695621,39.964886,21.840706,34.151459,20.501518,29.273987,0.0,3.017712,11.890875,6.093469,32.093819,19.370487,48.956993,34.40486,62.358808,45.087002,234.388618,88.351795,-261.006203,85.262669
64,-6.962814,12.841647,-0.578384,22.257627,0.0,-74.94976,-9.956017,-29.471626,-13.08815,-33.675156,-18.834686,-32.529716,-25.139809,-34.155807,0.0,-8.664509,-13.084511,-2.5213,7.586378,8.956805,27.6979,24.961029,45.85919,39.115366,0.0,86.851215,25.260887,42.975941,20.423012,36.706696,16.053886,30.222874,11.9874,24.985256,0.0,7.348423,12.20182,9.177871,29.030011,22.072654,42.674629,35.091493,54.234121,42.551128,227.756996,101.209635,-261.253395,107.53649
65,-9.018174,29.13721,-2.1385,24.32585,0.0,-69.027958,-14.934082,-33.288459,-15.395965,-33.780555,-17.216091,-28.637294,-19.001941,-27.596569,0.0,2.17911,-5.445661,2.083443,14.826165,13.115247,33.61998,26.797687,49.494529,41.164337,0.0,75.900021,24.075709,52.471991,19.283667,37.101774,14.685087,29.321938,10.28389,22.565918,0.0,14.378182,18.05051,16.646568,34.343834,23.980633,47.232041,36.171955,57.698797,45.36548,219.157705,130.25706,-262.973013,131.772554
66,-9.018173,29.137209,-2.1385,24.325849,0.0,-63.106155,-19.912148,-37.105293,-17.703781,-33.885956,-15.597496,-24.744873,-12.864075,-21.037331,0.0,13.02273,2.193189,6.688187,22.065954,17.27369,39.542062,28.634345,53.129869,43.213309,0.0,64.948826,22.89053,61.96804,18.144321,37.496853,13.316288,28.421001,8.580379,20.14658,0.0,21.407942,23.8992,24.115265,39.657658,25.888613,51.789453,37.252418,61.163474,48.179833,210.159788,157.759103,-265.091257,154.463237
67,-3.719845,25.336194,-3.767052,22.205232,0.0,-60.952549,-21.6473,-60.564479,-22.56649,-38.073406,-23.045082,-33.155594,-22.549667,-31.538601,0.0,18.496626,20.448402,21.637993,36.730658,20.438646,47.919833,26.3037,54.785583,37.050371,0.0,59.133454,20.755606,55.193596,17.839051,38.907194,15.912524,33.706455,14.175711,33.241625,0.0,25.657944,35.276775,24.490121,48.446594,26.500127,56.014972,34.400382,60.073857,43.578346,206.59192,181.736896,-268.706332,175.310068
68,-3.719844,25.336194,-3.767051,22.205232,0.0,-58.798943,-23.382454,-84.023666,-27.429199,-42.260857,-30.492668,-41.566315,-32.23526,-42.039871,0.0,23.970522,38.703614,36.587798,51.395362,23.603601,56.297604,23.973054,56.441297,30.887433,0.0,53.318081,18.620682,48.419151,17.533779,40.317535,18.508759,38.991909,19.771042,46.33667,0.0,29.907948,46.654351,24.864977,57.235531,27.111642,60.240491,31.548347,58.984241,38.97686,203.137321,205.399377,-272.208138,195.841586
69,-8.476295,18.040259,4.500103,14.080205,0.0,-50.915565,-16.514854,-67.138252,-17.910461,-59.768829,-19.664841,-43.658867,-20.8881,-38.298225,0.0,20.931105,31.691485,36.764158,40.960098,33.045609,45.159126,23.814046,44.476907,25.444443,0.0,51.604099,13.542023,66.753674,10.911884,31.661854,9.541225,31.201973,9.764614,43.034019,0.0,32.572169,46.184553,33.138297,56.028989,25.663903,56.759744,30.403556,52.953819,36.045012,195.085745,221.930286,-267.283316,208.412442
70,-5.743332,17.203788,1.991272,7.803338,0.0,-57.935257,-13.226395,-60.726585,-11.161537,-35.545578,-10.254936,-29.846191,-10.790062,-26.971779,0.0,20.964821,35.22577,35.951707,41.750009,20.923263,43.585849,21.484636,40.856666,23.9528,0.0,52.230492,15.565281,83.527737,11.341324,63.439178,9.586086,29.160404,8.373585,22.808304,0.0,37.598035,46.100573,44.512784,57.112586,32.807068,59.083535,27.72575,56.981798,31.117515,189.846668,238.345136,-264.787788,215.426841
71,-0.662041,3.543733,3.179455,4.636406,0.0,-56.191063,-16.063957,-71.661186,-13.471069,-34.099274,-11.956444,-29.057579,-11.876678,-27.305603,0.0,19.824414,41.413717,40.640663,49.252808,20.44445,50.826085,20.512005,48.59356,23.673935,0.0,52.860489,19.498215,85.497551,13.70636,39.913273,10.891685,28.958473,8.96965,22.083321,0.0,33.869113,46.438533,42.836076,55.987987,25.117351,57.426833,28.312502,56.593512,33.130269,189.846497,241.137752,-260.946465,219.31213
72,-1.131592,-1.162575,3.108616,-1.214816,0.0,-51.519356,-18.891907,-67.383041,-18.391914,-32.966881,-19.253769,-30.482368,-21.24012,-34.134865,0.0,18.373526,43.567633,30.410781,51.210234,21.623327,51.802915,21.139636,48.866806,27.522282,0.0,57.509537,23.799248,89.26363,18.774776,43.620701,14.995651,29.922638,12.655048,24.65332,0.0,31.593796,47.052394,40.62819,55.995706,22.726251,56.489647,27.017658,54.68493,32.904572,189.335976,239.693857,-257.216778,217.815995
73,3.444328,-6.057715,4.516296,-5.856903,0.0,-53.472633,-20.220222,-90.695572,-21.631393,-31.749687,-24.298096,-31.068077,-27.542038,-30.522766,0.0,10.261745,39.464133,41.43323,47.162618,16.844957,48.015268,18.269415,46.606,20.950309,0.0,58.695087,23.695507,91.080379,20.915508,45.433331,19.133263,31.130333,18.502922,27.362938,0.0,25.503846,46.927905,37.376536,55.107858,23.31887,55.554376,26.964738,53.883471,31.249599,193.296375,233.755413,-252.18441,212.078363
74,0.557556,-9.704633,3.582516,-9.103554,0.0,-50.262451,-19.779167,-89.640083,-20.776176,-30.473213,-23.074265,-30.219727,-25.970192,-28.204536,0.0,9.819365,38.720843,38.406533,46.5658,18.270527,46.817742,18.718464,44.272143,19.094709,0.0,59.876404,26.151009,94.597321,23.220348,51.966648,20.629578,32.226334,18.803902,27.135143,0.0,24.39907,44.667469,31.531613,54.126521,20.261298,55.348438,23.667389,54.292691,28.526344,193.796482,224.278407,-248.659344,203.202436
75,1.835403,-9.386618,2.587337,-5.760017,0.0,-49.59549,-16.857491,-86.66748,-18.222427,-29.871368,-21.273422,-29.8946,-24.540253,-28.970261,0.0,15.020788,36.811582,37.25742,47.740602,19.546167,51.055611,22.110661,51.102171,25.138778,0.0,61.317673,27.86871,95.111904,26.207199,46.02499,24.741554,36.214314,24.098911,32.984219,0.0,22.713716,44.768863,28.347206,54.643125,18.567237,55.998917,24.082105,54.554081,29.059003,195.551062,215.169496,-246.15283,197.720126
76,4.019394,-6.813479,3.887501,-3.156928,0.0,-52.151299,-16.330719,-79.486885,-17.480507,-68.315735,-20.428963,-29.566498,-23.900642,-26.461372,0.0,15.110141,35.645117,33.300453,46.809776,31.059716,50.56414,17.490125,49.98597,20.479092,0.0,61.053658,28.223763,93.448677,25.720768,43.905087,23.560238,32.942333,22.100315,28.030357,0.0,24.347199,44.485059,26.874397,54.524996,16.700152,56.320266,22.562736,55.482066,27.586009,199.496555,208.832422,-242.33923,195.039603
77,5.508499,-3.358852,-0.189171,0.238604,0.0,-53.162498,-20.173759,-88.663101,-21.534348,-36.084595,-23.87558,-29.880066,-26.346588,-28.899536,0.0,13.722115,36.449169,36.678818,46.974465,15.629832,49.726681,15.79063,48.872611,20.090991,0.0,61.460152,27.77544,94.813042,25.465736,47.263126,23.432407,34.308701,22.3946,30.233974,0.0,22.261579,45.164992,25.558187,55.359985,18.047114,57.204285,23.490165,55.934017,28.926239,205.06176,205.746506,-242.471695,195.551143
78,1.230698,-0.748724,0.37262,1.887587,0.0,-54.760208,-19.988251,-86.795082,-23.131256,-33.56575,-26.419487,-28.827095,-29.52507,-30.348358,0.0,13.466406,39.204163,37.243649,47.135201,14.908031,47.793584,13.961583,45.33882,18.823687,0.0,61.672096,27.097893,92.638893,24.020061,43.220329,21.572514,32.261868,20.403214,27.711296,0.0,22.882665,45.754338,24.856702,55.170782,18.298191,56.578074,23.695486,55.265198,27.84604,206.343613,205.11094,-242.04792,197.551887
79,0.4533,1.489111,-0.214062,0.648441,0.0,-55.320625,-21.834183,-87.889137,-23.838501,-32.722435,-25.987015,-27.22332,-27.867851,-26.339607,0.0,14.994544,36.131216,36.754586,44.811718,10.688688,46.180478,11.315578,44.590528,15.693003,0.0,60.472069,26.918621,92.22084,23.965359,43.472557,21.675625,33.522663,20.680504,28.968258,0.0,23.334122,45.082988,25.969012,54.95799,18.449912,56.783579,23.284043,55.749692,27.985595,206.915016,206.833329,-242.143879,198.433606
80,-2.230797,-2.041716,-0.324783,0.26528,0.0,-53.660774,-17.849808,-82.808762,-21.472321,-43.149033,-25.115776,-27.658539,-28.063774,-27.325401,0.0,17.910028,37.068217,36.07385,47.153294,15.074387,49.792815,12.450056,48.434924,18.008643,0.0,60.858479,26.949348,92.42506,24.520798,45.81459,22.597847,35.201397,21.809692,30.540276,0.0,21.868106,43.94641,26.2635,54.016667,17.371564,56.020036,22.700316,54.946937,27.717784,204.867239,205.006011,-242.285643,198.913283
81,-2.265129,-1.997626,1.093826,-0.346976,0.0,-53.923531,-17.315826,-71.086464,-18.712807,-69.870415,-20.256844,-32.259178,-22.127266,-27.72789,0.0,16.704104,30.535517,26.099923,43.236465,32.507393,49.305604,17.957946,50.914511,22.398727,0.0,59.255447,26.716118,91.628151,23.805084,47.011642,21.167507,35.207634,19.636459,30.503712,0.0,22.248303,43.446046,26.123697,53.641471,17.865567,55.709987,22.447078,54.712347,27.981952,202.961283,203.092952,-240.832644,198.650875
82,-1.967125,-1.162575,1.294498,-0.545688,0.0,-53.567963,-18.412514,-82.528267,-19.857216,-40.360451,-21.552887,-28.969917,-23.141441,-26.632004,0.0,20.742519,34.450493,36.47566,47.27945,17.980485,52.900713,19.833368,54.606445,25.926466,0.0,59.13065,26.430244,90.453873,23.692532,46.524296,21.186733,34.784088,19.720974,30.078621,0.0,22.847344,42.375294,25.691568,53.141849,16.155884,55.935376,21.133214,55.608469,27.81819,201.319513,202.025998,-239.21279,198.200807
83,-2.221069,-0.769904,1.069107,-0.362413,0.0,-53.591309,-20.311203,-81.550026,-20.24437,-47.435532,-20.796204,-32.657776,-21.741714,-29.738503,0.0,15.252475,31.350252,36.730195,44.61671,17.367242,50.58532,18.981583,52.785487,26.626531,0.0,58.654976,26.448669,91.427937,23.854694,51.55077,21.429634,35.295467,19.954262,30.346012,0.0,23.050009,41.549382,25.527991,52.941592,15.662683,56.15212,19.746917,56.016701,27.184075,199.38921,201.478457,-237.852917,198.060757
84,-3.475571,-0.147275,1.109333,-0.371923,0.0,-53.62793,-17.949944,-71.572266,-18.686256,-63.893166,-20.055542,-30.923538,-21.432495,-27.327576,0.0,18.043285,29.612472,28.154236,42.843856,27.203526,49.587495,20.538187,52.096538,26.988635,0.0,57.765198,26.619987,91.462212,24.156246,59.855118,21.832695,37.579021,20.359039,32.388382,0.0,21.334273,40.970657,24.522324,52.382689,17.82086,55.70764,20.09272,55.583707,26.687293,196.319075,201.441777,-236.338148,197.799429
85,-2.607765,-0.316039,1.294155,1.340848,0.0,-54.212265,-18.11451,-81.532059,-19.563446,-61.027107,-21.189308,-37.518997,-22.587891,-34.599724,0.0,14.1527,27.315109,34.870828,42.165034,20.598702,49.568291,18.277134,52.385406,25.514344,0.0,58.908806,27.7981,93.154335,25.648098,53.973885,23.625698,37.506294,22.399921,33.263454,0.0,18.185126,39.682667,21.958076,50.632683,16.19596,53.431767,20.000032,52.844953,25.439379,194.76222,201.326906,-233.993082,199.341445
86,-5.788307,-0.890564,3.223343,-1.03469,0.0,-56.189003,-19.041138,-77.493553,-19.208107,-50.640335,-19.189568,-36.754074,-19.20948,-33.229866,0.0,15.320401,25.527497,31.266642,40.93441,19.424457,49.258921,21.529158,53.371684,30.884963,0.0,60.403805,28.100224,95.204258,26.40604,48.934078,25.06525,39.931297,24.623966,35.926666,0.0,18.909643,38.573383,22.092507,50.919637,13.663205,54.723215,20.051841,54.883025,27.198463,190.124588,200.569059,-229.619064,198.439472
87,-8.361397,-0.103555,4.267559,-0.039335,0.0,-59.117088,-16.208725,-75.712509,-15.814819,-48.516769,-15.909691,-41.238327,-16.940918,-37.764244,0.0,14.654546,23.855234,30.679025,41.584642,21.665564,52.431596,27.344503,58.689012,37.42322,0.0,61.005878,30.288277,99.732685,28.804779,51.217346,27.564583,42.070141,27.278881,38.908024,0.0,14.091321,37.020298,19.478365,49.795964,12.388368,53.882977,19.798047,54.353145,26.68118,182.933893,200.707518,-224.180803,198.642152
88,-8.137779,1.921673,7.886696,0.475972,0.0,-63.442154,-20.741959,-80.709915,-20.706024,-41.671486,-20.157852,-40.510597,-19.949684,-39.547577,0.0,13.01322,26.274677,28.437238,44.544709,19.796626,55.397653,29.959941,61.544413,40.485546,0.0,61.362648,30.644245,96.877384,29.276962,49.83633,27.66655,42.802849,26.74078,38.749924,0.0,13.257381,35.977519,16.340456,48.383115,11.282912,52.347245,20.238204,53.168154,27.639361,175.798931,202.445422,-215.29129,198.934355
89,-10.980492,2.301932,8.279114,0.92817,0.0,-64.320946,-22.595673,-80.884094,-19.526939,-61.433258,-16.599998,-56.038971,-13.765297,-51.733017,0.0,11.86386,24.483544,29.413388,41.687456,25.986611,52.406895,37.929264,58.49987,56.068386,0.0,64.863796,28.618984,95.472679,27.85984,53.901386,26.818657,49.724178,26.538734,44.340191,0.0,13.375263,36.408722,18.17469,49.765336,13.985913,54.905749,22.919839,56.315882,29.227705,165.776711,204.610283,-206.053905,199.725455
90,-7.83577,3.075232,10.442505,2.524048,0.0,-68.285179,-22.712631,-82.581596,-19.577866,-78.801613,-16.57711,-69.638557,-13.542938,-54.798546,0.0,8.209347,22.508766,31.475049,39.372186,37.883075,50.368144,52.594493,56.383498,63.091693,0.0,71.734772,30.381317,97.680645,28.257065,60.509777,26.517792,53.370895,25.345058,47.984619,0.0,9.497831,32.577603,19.532211,48.271717,15.327564,55.619955,24.665646,58.882661,32.340173,158.984385,206.502717,-194.567957,201.066705
91,-17.058907,5.315722,10.893002,4.005255,0.0,-69.098625,-29.80648,-99.694176,-27.292671,-69.699783,-24.37603,-63.295555,-21.478043,-58.660011,0.0,12.238438,31.185564,32.751739,50.174124,28.037095,60.547329,38.621857,64.746727,52.384974,0.0,72.77195,29.91806,94.94688,28.052673,68.613281,25.831947,63.487587,24.054623,54.535275,0.0,4.099795,30.762141,21.74442,47.933819,19.337821,56.905845,27.844805,60.728751,35.698839,142.684937,210.410561,-182.915497,203.664082
92,-8.73848,5.798178,11.004639,6.331084,0.0,-72.157745,-32.890778,-103.821602,-29.02565,-92.366753,-26.118279,-84.706993,-23.664894,-74.234848,0.0,10.11447,28.954089,30.936339,46.822744,35.632211,57.621162,46.967981,63.087617,60.034862,0.0,72.987843,30.705299,93.235645,28.243217,68.174057,25.134602,63.439751,22.499599,52.386589,0.0,3.070601,29.894671,21.182614,47.424687,20.78031,56.733562,30.453142,60.462607,38.924125,134.879723,215.400381,-170.977592,209.186807
93,-11.271973,5.495601,11.414967,7.333973,0.0,-74.226265,-34.881134,-105.768814,-30.647621,-103.478279,-26.509666,-94.320374,-22.589264,-76.23848,0.0,7.242829,27.050324,33.175965,44.644004,44.152471,54.937242,56.705712,59.693568,66.105483,0.0,75.08955,30.699806,95.011024,28.651371,73.975983,26.073532,67.514992,24.202709,59.869423,0.0,-0.994861,28.148061,16.038373,45.768664,16.345025,55.384068,29.012999,58.98387,40.563846,124.395103,220.029701,-158.775272,215.654499
94,-18.540573,5.792683,11.097794,5.577297,0.0,-69.668427,-29.112625,-101.25927,-27.282372,-105.846977,-25.448112,-96.396446,-23.350639,-78.456459,0.0,5.348574,25.224179,34.020278,44.598185,45.037416,57.351374,58.662089,64.069819,65.712751,0.0,74.554482,29.07114,97.258701,26.624165,85.962582,23.81567,79.090748,21.643181,66.696453,0.0,-4.235955,26.440847,24.566475,44.357544,29.87874,55.130089,40.489066,59.766927,50.035186,106.713409,225.103532,-146.8186,220.512944
95,-11.852188,4.61362,12.308578,4.891621,0.0,-71.198387,-32.27314,-105.150032,-28.543053,-108.205948,-24.584541,-99.253693,-20.11528,-76.567383,0.0,9.725196,25.176878,39.045033,43.439995,52.662233,55.217342,67.434599,61.60746,71.663082,0.0,75.88171,28.101768,99.380951,24.791908,96.470318,21.710987,87.405968,19.528828,69.873791,0.0,-4.545263,27.808187,28.71493,45.26793,40.31283,55.768094,51.453284,60.193561,58.912919,96.066828,229.103461,-133.304415,224.790874
96,-12.008972,4.277019,11.917934,5.545496,0.0,-72.411804,-33.477859,-96.195087,-28.271255,-98.16925,-22.663765,-88.212776,-16.497917,-68.088684,0.0,12.360086,25.226958,46.691463,42.346765,59.646575,53.65555,71.674074,59.780512,74.893308,0.0,76.962833,27.887993,100.434322,24.185829,98.23122,21.04557,88.371563,18.656387,68.988247,0.0,-4.120728,29.142551,33.628657,46.692451,46.178564,57.367615,57.526746,61.914051,63.866599,85.044479,232.719889,-120.399857,229.675779
97,-11.333542,6.609208,12.344513,6.542086,0.0,-70.106049,-31.192589,-92.147598,-24.805641,-94.951973,-18.45623,-82.876511,-11.86924,-62.849464,0.0,16.904855,27.244961,50.890429,43.747079,66.259612,54.444165,79.284256,59.709684,77.407661,0.0,77.49733,29.052372,101.479797,24.53825,98.572311,20.504951,86.684361,17.733479,67.213211,0.0,-3.13019,30.18144,35.497039,49.075214,47.348116,60.618342,57.713911,65.451114,65.652235,74.174137,239.025193,-107.592144,235.91396
98,-10.543671,6.175103,7.144775,5.506037,0.0,-62.672081,-30.762863,-84.462605,-23.128395,-85.445824,-13.937073,-71.396255,-4.007835,-49.786263,0.0,26.428744,33.98261,61.370153,47.102165,77.731666,54.431012,88.482536,56.470752,82.424697,0.0,77.220783,30.079536,102.136688,25.560837,100.080185,21.641178,87.91626,19.074554,70.246983,0.0,-4.165806,29.874232,36.222606,48.635365,47.041711,60.163303,57.003164,65.380657,67.504501,64.163189,244.705721,-99.914646,240.925423
99,-17.401428,9.787687,8.65963,3.139082,0.0,-74.623489,-37.922058,-125.563431,-31.58432,-127.870045,-23.146706,-112.538223,-14.272614,-80.528469,0.0,41.420509,29.243081,20.394,51.480392,41.034075,65.761533,62.218912,72.907415,85.211184,0.0,76.470966,28.660641,100.782509,22.417316,96.727638,17.039738,84.560623,13.233662,65.831337,0.0,0.237122,30.280673,40.970472,49.748478,53.818757,61.763133,62.906009,67.26954,68.04846,47.298689,253.774449,-90.718088,243.345545
100,1.776924,3.74578,9.193554,3.477721,0.0,-75.550117,-34.988251,-116.755886,-29.960289,-120.471153,-22.796402,-109.303894,-14.648438,-78.566666,0.0,34.153103,31.608739,20.645941,52.919424,46.275512,67.135912,69.267598,74.363428,95.527332,0.0,74.577541,28.195267,95.877628,20.472794,92.635174,13.598785,80.432911,8.193626,57.37833,0.0,0.844746,29.137179,47.38424,48.400529,62.004206,61.437646,75.096714,68.343997,83.925541,49.573374,257.119329,-81.026773,246.422367
101,-1.183205,3.887312,7.086582,5.431504,0.0,-80.68325,-34.109573,-110.485039,-29.085732,-113.657856,-22.017059,-105.307217,-13.908806,-75.108433,0.0,8.38021,35.842841,17.965788,53.56805,43.181075,65.449015,71.566504,71.366001,99.716356,0.0,74.264717,27.922668,88.937416,18.92704,85.506363,10.603065,71.39637,3.336239,46.767941,0.0,4.137401,29.612781,53.861859,48.39318,68.533695,61.419306,79.863228,68.543451,86.496704,48.674955,260.715643,-73.655405,251.562873
102,-2.533951,7.200222,7.388248,5.990222,0.0,-82.628117,-32.800255,-93.088589,-29.722252,-102.876148,-24.726105,-101.159248,-17.119102,-76.228752,0.0,-5.24014,41.539564,24.140089,54.020001,41.785022,62.093806,65.332306,65.24777,94.301462,0.0,74.700336,24.635525,88.549976,14.804592,86.387844,6.177635,69.914532,-1.027451,44.544525,0.0,8.412814,30.129199,59.771744,48.200025,76.736372,60.593765,87.090126,67.556186,91.814526,46.244488,267.812617,-66.163673,257.449849
103,-4.730988,1.189498,4.464798,6.03635,0.0,-75.073013,-29.763794,-90.824375,-25.399246,-92.5173,-20.781326,-90.183678,-15.416908,-74.409199,0.0,-1.554875,45.630714,41.597918,58.157464,45.823066,63.877652,59.069765,62.8965,77.357273,0.0,71.38979,24.22039,90.280323,14.645462,89.073544,6.473064,73.769588,-0.477734,47.798538,0.0,5.715433,29.940181,59.904692,47.603207,75.905706,60.117793,87.184604,67.478504,91.698559,41.633348,268.972414,-61.579027,263.456496
104,0.646477,18.457816,5.542889,4.794549,0.0,-63.445988,-54.696007,-29.742165,-51.863766,-16.497002,-45.03788,-9.015656,-36.84391,-14.969788,0.0,5.35549,18.745017,54.640408,24.052959,62.044097,27.522776,58.929838,29.567641,51.974457,0.0,71.482773,26.260071,90.229111,16.852856,89.775581,8.184929,75.427666,-0.217838,52.909698,0.0,2.452973,29.88899,60.191955,46.694674,76.718897,59.002086,89.019394,67.367291,94.87358,42.36125,287.374839,-55.954714,268.195655
105,1.174164,1.61712,7.247257,5.18086,0.0,-57.792664,-51.308613,-10.978661,-56.571865,-3.74691,-57.13028,-7.81002,-54.802208,-42.060013,0.0,-4.030511,15.630326,55.045923,29.964758,65.107226,41.244459,68.777362,49.983315,75.983203,0.0,70.528507,26.93264,88.030987,17.610569,89.010029,8.478355,75.395336,-0.900364,52.893047,0.0,0.260525,29.850087,59.452988,46.137932,76.662272,58.162034,88.590537,66.629744,95.012765,43.596954,288.952439,-48.645916,273.336995
106,-11.1129,0.057304,5.827045,2.731776,0.0,-21.408119,-38.199406,10.619659,-48.218937,15.093842,-52.095966,8.635368,-52.089386,-18.810425,0.0,-2.969639,13.2383,46.713384,31.934658,63.937488,46.651757,72.786569,57.868658,82.31651,0.0,69.312286,29.33567,87.503128,20.678329,89.51088,11.73254,76.40007,2.258606,54.857597,0.0,0.433117,31.300296,60.96118,46.895918,76.124117,58.70766,87.336016,67.204826,93.536375,32.456818,288.867192,-42.846107,275.92622
107,-44.504986,-9.133936,3.962517,2.033318,0.0,29.398212,0.41399,56.597157,-6.053238,59.358501,-14.974823,46.355953,-22.039204,-33.975449,0.0,-13.734094,25.743315,52.77536,46.583955,74.529042,59.758158,83.377074,70.598999,97.555771,0.0,69.519882,29.82645,88.795738,21.127853,89.496689,12.252846,76.819038,3.077602,55.151596,0.0,0.375937,30.899289,59.029689,47.151133,75.037433,59.208024,86.88036,67.773115,93.758676,-12.102985,279.537261,-38.938408,277.763542
108,3.471737,1.649971,1.578884,2.649957,0.0,27.59182,-1.420612,50.625801,-8.178749,53.905907,-16.917572,40.220375,-24.141426,-40.488338,0.0,-11.28921,27.972319,58.023713,46.029375,74.140941,57.544406,79.921829,67.318694,96.792412,0.0,68.413067,30.981331,88.381748,22.602024,89.10387,13.669109,76.959629,4.59549,55.98032,0.0,0.5221,31.667896,59.335539,48.348473,72.967498,60.506203,84.061886,68.740188,90.495167,-8.739424,280.980461,-37.467699,280.206728
109,-11.889553,1.055006,1.406879,1.766556,0.0,34.489918,10.911942,60.875072,4.886456,63.86919,-4.891319,48.852139,-13.977242,-24.869442,0.0,-6.20746,28.993794,51.302181,48.968571,68.523568,61.034725,74.175706,70.711941,92.142421,0.0,67.182426,30.059452,87.05761,21.367207,86.748734,12.32523,73.941193,3.722878,53.523674,0.0,1.096873,33.651196,60.15861,50.418409,73.776675,61.782584,83.852058,68.53283,88.362617,-20.668545,281.852716,-36.100388,281.790533
110,0.120792,1.949028,-1.697044,1.645031,0.0,32.098274,9.329395,61.952591,1.827393,63.926125,-8.210506,48.039551,-17.104969,-19.543476,0.0,3.553798,29.481314,51.066479,47.515337,66.230898,58.81313,71.578669,67.408726,87.795748,0.0,68.895149,30.542393,88.407211,22.183056,88.072128,13.332367,75.089149,4.754562,54.40258,0.0,0.009263,31.720693,58.366613,47.775182,71.39348,58.835669,80.492341,65.95932,85.947373,-20.684252,283.701508,-37.933931,283.335328
111,4.60865,3.834021,1.396523,-0.18204,0.0,17.256432,6.705494,55.703201,1.780243,52.017746,-6.02314,39.969521,-13.719292,-23.110771,0.0,18.706855,35.475673,51.920796,47.311128,61.855882,53.898291,63.204696,59.498621,78.149345,0.0,68.660202,29.012432,86.707764,20.891247,86.942482,12.536144,74.853287,4.736595,55.092201,0.0,1.197402,32.342519,58.416816,49.170309,72.245142,60.601731,81.722471,67.54186,85.738348,-16.181889,287.450869,-36.643696,283.068628
112,2.94445,-1.784216,-0.322552,0.689505,0.0,15.572777,3.896999,55.000763,-2.828121,52.579651,-11.488838,38.23288,-19.254513,-29.363766,0.0,11.775865,31.553411,50.732348,46.402471,63.684497,55.418525,67.429906,62.720696,82.282177,0.0,67.90781,29.901695,87.529049,21.719341,87.692585,12.917805,74.877377,4.384518,54.013424,0.0,0.312457,31.020752,56.594006,47.388131,70.918125,58.620345,80.191246,65.757952,84.911139,-13.360376,285.555981,-37.089186,283.647461
113,-2.245388,0.585209,1.142006,-0.348952,0.0,23.645153,6.744404,59.487247,-1.211414,57.868481,-10.478268,40.968418,-17.972832,-25.947933,0.0,-2.576042,31.953306,47.267038,48.027494,62.839072,58.138075,69.209677,65.724977,84.921822,0.0,69.076252,28.754311,86.484089,20.35841,86.453533,11.755085,74.084873,3.637791,54.012165,0.0,1.394386,30.982158,57.65673,48.028791,71.596824,59.664174,80.45171,66.729409,84.617392,-15.746899,285.988156,-36.088314,283.145476
114,-6.507168,0.359449,0.919075,0.577737,0.0,19.691849,11.313515,60.69397,7.349911,58.05954,-0.088863,43.044205,-7.545719,-15.400715,0.0,19.579574,34.061589,50.060009,47.892879,63.464727,56.563563,66.034409,64.345288,78.504472,0.0,68.33868,27.955399,85.519466,19.280605,84.766903,10.539665,72.632732,2.385979,52.476826,0.0,0.863209,31.027668,57.837103,47.743134,70.999821,59.192833,79.707,66.23695,84.279803,-22.477999,286.166013,-35.393171,283.541621
115,2.932835,-0.630533,0.501366,0.345123,0.0,24.241848,9.450932,59.441013,3.51963,55.474834,-4.81184,39.773998,-12.219143,-27.256565,0.0,9.660667,31.181797,47.320761,48.100113,63.657141,59.447307,69.301438,68.819414,83.762087,0.0,68.530598,28.08609,85.68758,19.031181,84.724216,9.92506,71.672688,1.459751,50.839634,0.0,1.11089,30.921457,57.214782,48.044291,71.396567,59.617306,80.097694,66.45215,83.240729,-19.889288,285.429933,-35.235929,283.781197
116,-6.857529,-2.949508,-0.252171,-0.044213,0.0,36.728039,15.008755,68.724689,8.739166,71.155643,-0.682297,53.147449,-9.161224,-8.972282,0.0,10.874556,28.532148,50.434711,46.457367,67.393967,58.246755,71.763241,67.271702,84.397746,0.0,69.029274,28.823776,85.975456,19.99094,85.248985,10.815296,72.1978,2.039051,52.143173,0.0,1.351346,30.42202,57.231887,47.457662,70.969501,59.029627,79.979257,66.032803,83.487113,-27.132883,282.324782,-35.874166,283.581342
117,-2.094154,-3.70064,0.762005,0.075212,0.0,44.510937,19.187222,70.994625,12.133999,68.760509,1.357098,51.686954,-8.069973,-12.507248,0.0,1.651021,28.39852,50.922539,48.477284,68.682575,61.507424,75.190945,71.660489,89.495798,0.0,68.606586,27.46273,85.043507,18.939915,84.822865,10.352497,72.447567,2.252026,52.562542,0.0,1.414702,30.191073,57.275298,47.250057,70.700578,58.892479,79.561701,66.026875,83.714354,-29.624805,278.551199,-35.50993,283.583611
118,2.997494,1.385247,-0.11879,0.114362,0.0,44.914398,15.355339,67.881317,8.559895,65.765076,-1.323566,48.823586,-9.360523,-15.225277,0.0,-0.078608,29.185962,49.8219,49.061135,67.423361,61.987842,74.493906,72.042538,88.816853,0.0,68.20364,27.470627,85.289211,18.842869,84.76759,10.124073,72.285519,1.83672,52.027416,0.0,1.345356,30.452092,56.745356,47.53664,70.751276,59.099405,80.072871,66.130801,83.780921,-26.961336,279.917118,-35.962744,283.678645
119,-1.560688,0.600214,0.270138,0.166356,0.0,36.995602,15.506744,68.403454,10.371094,69.873676,1.451683,52.678585,-6.833038,-13.401489,0.0,16.68984,30.942514,51.263031,48.626041,67.899086,60.376651,73.346831,70.363915,88.016629,0.0,68.508568,27.336445,85.047226,18.483067,84.580536,9.596157,71.874275,1.268921,51.89415,0.0,1.519431,29.991496,56.689595,47.378251,70.737382,59.167948,79.789375,66.296416,83.411283,-28.81382,280.516344,-35.984402,283.844012
120,3.022041,-0.462325,0.344296,-0.051438,0.0,39.021549,14.218483,67.862835,7.302017,67.644024,-2.407665,50.559826,-10.502987,-15.128517,0.0,4.448006,30.276783,51.006767,48.997099,67.867408,61.241589,74.395353,70.970119,87.932834,0.0,67.953587,27.815666,84.629688,18.897858,84.032879,9.791393,71.189976,1.124096,51.206875,0.0,1.555061,30.175883,56.589251,47.303039,70.629071,58.961702,79.842789,66.114561,83.555841,-26.168432,280.100085,-36.01676,283.83864
