takenoko1/special-research/HandMotion_SimilarSearch_自分用/NewProject/handData/test_key/d4_feature_d2/139.csv
frame,vel_0x_L,vel_0y_L,vel_0x_R,vel_0y_R,posFromWrist_0x_L,posFromWrist_1x_L,posFromWrist_2x_L,posFromWrist_3x_L,posFromWrist_4x_L,posFromWrist_5x_L,posFromWrist_6x_L,posFromWrist_7x_L,posFromWrist_8x_L,posFromWrist_9x_L,posFromWrist_0y_L,posFromWrist_1y_L,posFromWrist_2y_L,posFromWrist_3y_L,posFromWrist_4y_L,posFromWrist_5y_L,posFromWrist_6y_L,posFromWrist_7y_L,posFromWrist_8y_L,posFromWrist_9y_L,posFromWrist_0x_R,posFromWrist_1x_R,posFromWrist_2x_R,posFromWrist_3x_R,posFromWrist_4x_R,posFromWrist_5x_R,posFromWrist_6x_R,posFromWrist_7x_R,posFromWrist_8x_R,posFromWrist_9x_R,posFromWrist_0y_R,posFromWrist_1y_R,posFromWrist_2y_R,posFromWrist_3y_R,posFromWrist_4y_R,posFromWrist_5y_R,posFromWrist_6y_R,posFromWrist_7y_R,posFromWrist_8y_R,posFromWrist_9y_R,posFromBody_0x_L,posFromBody_0y_L,posFromBody_0x_R,posFromBody_0y_R
2,-1.012802,-12.491676,1.290092,0.611823,0.0,-14.452515,-34.942989,24.893303,-45.643501,28.116646,-51.275368,18.061409,-54.513073,-4.234543,0.0,-5.162334,15.199864,42.899925,36.528888,58.377543,52.593999,64.992679,65.313658,67.952747,0.0,64.359226,25.641346,90.610371,17.767353,89.194279,10.198917,76.809483,3.795891,58.943539,0.0,8.611465,33.220425,51.456557,50.442368,64.488672,61.460123,75.609119,67.111089,80.65246,12.067595,292.717948,-47.450781,290.107141
3,-18.936996,15.172138,-0.369415,-0.057551,0.0,20.619392,-17.35239,37.776375,-24.757862,50.126495,-26.773167,40.003853,-25.86731,18.808022,0.0,-7.535835,9.520864,29.307054,28.800948,44.326545,44.108628,51.327066,56.787161,55.620634,0.0,64.25211,25.647926,90.885944,17.51564,89.074001,9.905434,76.702938,3.53611,58.348217,0.0,7.732881,32.763225,51.740361,50.070507,64.846825,61.19719,75.805485,66.913549,80.739343,-5.454369,307.830327,-46.405163,289.98983
4,-4.059162,7.960184,0.791245,0.282014,0.0,16.983204,-7.475395,44.364338,-12.43475,55.459614,-15.023117,47.883396,-15.78907,29.996967,0.0,-18.624974,5.574148,21.593934,22.851296,38.214428,36.21285,44.786277,47.197075,48.761954,0.0,63.678761,25.133343,89.917316,17.192688,88.206081,9.620647,75.923252,3.209038,58.175526,0.0,7.623891,33.016896,51.205788,50.140038,64.60643,61.147851,75.834137,66.915278,80.967634,-8.759451,315.748011,-44.859838,290.229345
5,1.77372,-0.442627,0.20565,-0.301095,0.0,10.508595,-9.070415,45.756626,-14.021645,51.199665,-15.633831,45.100994,-15.345726,25.034122,0.0,-16.652357,5.942983,22.713778,22.864757,38.316439,36.001046,44.976036,46.109094,50.150968,0.0,63.403988,26.137505,90.335484,17.882366,88.100452,10.011921,76.129818,3.297729,58.220387,0.0,8.409603,32.855109,51.245494,50.140408,64.332011,61.365028,75.479937,67.310481,81.048774,-6.68664,315.183381,-44.355097,289.806246
6,41.501484,-18.94762,0.032387,0.317335,0.0,-37.610092,-51.53286,5.752373,-65.17725,7.589493,-70.942154,-4.459076,-73.442917,-31.454659,0.0,-4.334508,8.786651,47.498293,30.735156,60.93438,47.603887,65.384362,61.090238,66.358413,0.0,63.981228,25.410461,89.789944,17.34169,88.123684,9.730339,76.019268,3.354321,58.03339,0.0,7.704661,32.595696,51.236602,50.035927,64.540666,61.238439,75.535759,66.994689,80.977823,34.962816,296.207958,-44.174738,290.095778
7,-27.241058,4.868588,-0.076504,0.147954,0.0,-3.133621,-25.389347,25.549164,-32.373333,34.765778,-34.150715,26.859055,-33.538914,12.731667,0.0,-4.887051,13.005069,35.651106,31.450967,51.337255,45.569643,58.045573,56.585546,60.800011,0.0,63.925667,25.740738,89.820442,17.806206,88.243103,10.250244,76.09211,3.790512,58.095245,0.0,7.367812,32.725434,51.287237,49.907609,64.216168,61.005826,75.221758,66.799373,80.768674,7.882175,301.00828,-44.090824,290.175467
8,24.594498,-4.442819,-0.431213,0.06422,0.0,-35.490189,-51.289101,10.128593,-64.652081,11.085548,-69.984856,-0.207596,-71.853104,-25.067482,0.0,-4.848519,8.976225,47.131496,30.665934,59.26786,47.435061,64.279894,60.905666,65.395539,0.0,64.394073,25.013409,90.235291,17.177982,88.819427,9.872704,76.658821,3.818951,58.527374,0.0,7.099815,32.083168,51.15577,49.24583,64.393638,60.390421,75.411579,66.209841,80.110971,32.599382,296.571976,-44.399328,290.246202
9,-24.578247,5.182033,0.063515,-0.352471,0.0,-3.440666,-28.162594,24.371567,-35.117283,35.126839,-36.365433,27.684631,-34.837818,12.162094,0.0,-6.076549,12.657785,35.678277,31.299678,50.601252,45.501347,56.859656,56.651433,58.924343,0.0,64.483337,25.457325,90.251198,17.628765,88.450584,10.101471,76.216049,3.628349,58.184967,0.0,7.414495,32.568094,51.711154,49.432563,64.618472,60.402092,75.876868,66.200208,80.712605,8.084507,301.734496,-44.272442,289.874218
10,27.90081,-3.782583,0.462971,0.203035,0.0,-43.461685,-55.473461,6.031151,-68.418045,8.500099,-73.110237,-4.192657,-73.940735,-33.685913,0.0,-2.625875,9.843695,46.224506,30.669515,58.294797,46.652251,61.990312,59.554073,63.02599,0.0,64.195805,24.995327,89.965611,17.114468,87.922497,9.627228,75.762806,3.313923,58.250027,0.0,7.553002,32.253352,51.668422,49.373962,64.25081,60.499843,75.346432,66.350509,79.93245,36.002169,297.997624,-43.79262,290.122964
11,-20.563774,2.374056,-0.301666,0.300292,0.0,-13.834305,-32.848721,18.12664,-40.143242,26.809845,-41.180592,19.007149,-39.595528,4.254684,0.0,-3.961165,14.904944,37.835095,33.58327,52.854092,47.466801,59.192278,58.08676,61.831243,0.0,64.661579,25.038815,89.960918,17.217922,88.296032,9.880371,76.146183,3.77306,58.4725,0.0,6.832374,32.418411,51.425743,49.481717,63.870921,60.594506,74.808154,66.440541,79.802836,15.526428,300.412852,-44.006252,290.464428
12,19.562759,-1.878695,-0.36375,0.052364,0.0,-43.247395,-52.339497,5.860291,-64.658604,7.381325,-69.637585,-4.14608,-71.175842,-32.361603,0.0,-2.269822,8.857541,45.524627,28.875048,57.797274,44.72181,61.87064,57.793199,62.921756,0.0,64.476013,24.895763,90.407066,17.197838,88.697205,9.988518,76.541977,4.051266,58.73703,0.0,7.002682,32.507887,51.27464,49.581135,63.891299,60.596606,74.939003,66.3389,79.662539,35.13402,298.490145,-44.325171,290.47278
13,-35.755348,1.541661,0.104313,0.175062,0.0,11.503944,-17.326183,36.791267,-23.000278,47.385406,-24.384785,39.616928,-23.683205,24.291,0.0,-3.239118,17.053241,36.349998,35.714277,52.238132,49.378408,58.510368,59.383333,61.216394,0.0,64.747982,25.618229,91.417294,17.92963,88.923054,10.63282,77.309361,4.544563,59.867878,0.0,6.839784,32.711663,52.133959,49.674378,64.028014,60.651625,74.515951,66.38336,79.356998,-0.613346,300.031096,-44.212875,290.647132
14,35.545578,-1.791935,0.274601,0.012782,0.0,-38.47126,-54.853992,8.788376,-69.326134,9.44664,-75.377197,-3.879433,-77.391014,-28.576241,0.0,-3.522738,7.527005,45.667517,28.788598,57.585779,45.70537,61.746336,59.434772,63.181293,0.0,64.586563,26.001663,91.220169,18.263569,88.546715,10.899982,76.335869,4.702091,58.72261,0.0,6.780998,33.338615,51.980015,50.245199,64.357947,60.996131,74.806796,66.477777,79.944492,34.933834,298.170988,-43.936672,290.591742
15,-44.268265,1.276381,-0.20731,0.028837,0.0,19.478188,-9.668198,50.358238,-16.873455,56.535416,-20.214157,46.991043,-21.777134,29.594765,0.0,-3.003293,16.466612,37.490651,35.006,53.193534,48.020702,59.117251,57.169211,58.785713,0.0,65.339527,26.065693,91.478062,18.218021,89.090366,10.853176,76.8857,4.684124,58.784924,0.0,6.767104,33.259698,52.012866,50.200553,64.358811,60.942778,74.599438,66.368787,79.770911,-9.313688,299.450503,-44.12324,290.623714
16,40.794868,-3.484329,0.057964,-0.093058,0.0,-33.284397,-52.409248,11.355171,-65.742016,13.523026,-70.828915,1.603317,-72.112656,-22.82341,0.0,-4.490552,10.542463,46.309783,32.572354,58.995294,49.725878,64.211969,63.519438,66.155439,0.0,65.455627,25.647469,90.788383,17.968025,88.996696,10.818214,76.858063,4.838734,58.797798,0.0,6.929755,33.611367,52.242022,50.665781,64.385611,61.454257,74.519533,66.967766,79.885458,31.496944,295.90254,-44.049511,290.467022
17,-46.851139,6.484287,0.274715,-0.079967,0.0,29.242687,-2.889748,53.429661,-9.182968,63.040295,-12.611103,55.214252,-14.856663,39.122372,0.0,-6.740551,9.508822,30.572258,28.998734,48.353043,44.507783,55.547274,56.239249,57.057566,0.0,65.433712,26.003036,91.136112,17.926655,88.625736,10.391521,76.294384,4.189682,57.986927,0.0,7.285931,33.842313,52.471116,50.8104,64.477187,61.415107,74.733313,66.642156,80.230767,-15.362377,302.385284,-43.782978,290.385511
18,45.565395,-7.963642,0.005722,-0.117202,0.0,-28.499451,-50.725708,12.170677,-64.027462,14.513855,-69.380722,2.104797,-71.068668,-21.859131,0.0,-3.700764,12.606841,46.134412,34.157858,59.305651,50.953167,63.951444,64.308855,66.265232,0.0,65.739613,26.786213,91.832142,18.696957,88.661213,10.961609,76.009426,4.434071,58.354855,0.0,7.003423,34.44969,52.57146,51.07531,64.655398,61.41838,74.584124,66.554038,79.949061,30.183163,294.394641,-43.797112,290.241309
19,-38.582897,8.575033,-0.138988,-0.008645,0.0,24.928036,-10.519123,42.091312,-17.223129,53.53735,-20.377979,45.874157,-21.888599,29.446392,0.0,-7.998222,9.536919,30.95826,29.362753,48.222564,44.711868,54.911122,56.273397,56.466182,0.0,65.621223,26.911411,91.483727,18.846016,88.641472,11.212006,75.974007,4.696312,58.364983,0.0,7.278274,33.57833,52.334956,50.378271,64.239015,60.947224,74.668228,66.423374,79.729044,-8.474979,302.960334,-44.011345,290.223324
20,5.11219,3.44345,0.630112,0.142952,0.0,14.245205,-7.552471,42.235279,-15.478306,38.099957,-19.851665,20.755291,-21.703663,-2.279835,0.0,-7.938509,8.832223,32.010981,29.72566,42.893936,45.401682,48.811045,58.027356,53.591392,0.0,64.416161,25.735931,90.266991,17.891693,88.470497,10.378475,75.521622,4.025459,57.978859,0.0,7.675144,33.715972,52.229054,50.588346,64.242967,61.174342,74.89022,66.645799,79.871688,-3.619108,306.406239,-43.637552,290.368731
21,33.121319,-12.273265,0.097561,-0.419285,0.0,-29.338188,-50.592842,12.167816,-63.401012,15.23941,-68.141613,4.453011,-69.377804,-18.412743,0.0,-2.057462,12.104192,47.306435,33.596917,58.90168,50.235751,63.86172,63.763908,65.867621,0.0,65.240879,26.115646,91.040897,17.859135,88.341236,10.095291,76.013088,3.515167,58.206539,0.0,8.190389,34.016449,52.375773,50.938285,64.748024,61.557689,75.184029,66.874029,79.876072,29.30975,294.132881,-43.732452,289.949353
22,-31.602173,9.863332,-0.260181,0.193402,0.0,17.534065,-16.174908,38.014984,-24.362812,47.408295,-28.108006,38.555832,-29.507217,19.378166,0.0,-10.738458,9.960588,31.205818,29.090804,48.06084,44.137095,54.643804,55.439149,56.210289,0.0,65.909271,26.441059,91.186867,18.33498,88.928375,10.626469,76.359215,4.098072,58.156357,0.0,7.603452,34.196884,52.430916,50.946066,64.508803,61.40745,74.869225,66.605538,79.914851,-2.558928,304.003577,-44.259138,290.150119
23,31.614761,-9.141037,-0.259438,-0.277815,0.0,-29.924927,-51.893864,12.778358,-64.923077,16.592674,-69.318924,4.594345,-70.266323,-18.848991,0.0,0.385878,13.265779,46.707209,35.094859,58.012907,51.359485,62.056818,64.08112,63.889755,0.0,65.186005,24.555874,90.609741,16.245689,87.65419,8.811951,74.45755,2.813187,56.513443,0.0,8.430722,33.561164,54.334496,50.562164,66.260662,61.215715,76.258424,66.549037,79.241895,28.890181,294.8622,-44.684229,289.871964
24,-27.035065,7.695398,1.194935,-0.733965,0.0,10.559235,-21.430435,34.615288,-30.242214,42.905159,-33.651695,31.664543,-34.53146,1.801758,0.0,-5.689992,17.989562,44.138515,36.332522,56.216525,48.744231,59.178075,57.566822,57.61826,0.0,64.444141,22.736549,88.780918,13.595581,87.772007,5.844383,74.719791,-0.222473,54.973011,0.0,11.416231,34.155264,61.564234,51.086548,75.734719,61.646733,83.64013,66.906695,83.523731,1.755495,302.55695,-43.588915,289.13735
25,-4.174747,4.804553,-0.902309,-1.080323,0.0,4.158726,-11.607227,40.287495,-18.712578,48.808422,-22.667427,35.094509,-25.666752,13.766499,0.0,-5.029695,17.200145,43.597952,31.821222,61.04973,43.328041,64.880973,52.550589,64.718137,0.0,60.914268,25.077095,84.375,14.805851,83.160439,5.560799,69.225655,-2.040768,48.011055,0.0,12.637592,31.470048,67.314186,48.73466,82.797175,59.326276,89.326973,64.785074,85.783364,-2.466316,307.306375,-44.538288,288.001899
26,10.586672,-9.422805,8.289471,-8.067136,0.0,-21.183501,-22.03414,-20.616675,-22.283936,-15.179444,-20.204659,-17.511378,-16.895628,-18.174019,0.0,-17.313827,20.93549,46.023354,35.846084,62.61532,47.195717,70.17462,55.87767,74.01355,0.0,53.945446,24.539394,65.400524,12.121067,49.768696,-2.643871,16.759129,-18.024788,-12.784252,0.0,41.307074,18.933294,73.033571,30.11969,81.924272,40.453498,81.99547,48.110672,73.544802,7.821036,297.919895,-36.548138,279.971088
27,10.586671,-9.422804,-4.069347,28.682202,0.0,-46.525726,-32.461052,-81.520844,-25.855293,-79.167309,-17.74189,-70.117264,-8.124504,-50.114536,0.0,-29.59796,24.670833,48.448756,39.870944,64.180908,51.063392,75.468266,59.204751,83.308963,0.0,20.268803,44.857178,11.515503,42.29805,-10.663776,35.617104,-22.768421,26.273975,-17.164879,0.0,51.970073,20.335707,57.507047,10.704125,51.975137,1.287496,42.256116,-8.17347,28.604335,18.365335,288.565048,-40.659857,308.721246
28,8.57048,-7.1536,-23.798046,-76.219028,0.0,-59.880867,-32.600498,-89.079266,-25.420647,-91.4217,-15.952835,-76.501808,-5.469131,-53.164845,0.0,26.3912,29.615992,55.96341,46.717768,74.167988,58.635412,83.678971,66.483581,87.671815,0.0,70.777988,33.715553,48.726768,32.992058,41.077595,30.904999,39.135876,27.885017,36.674652,0.0,-5.447004,-13.584844,-7.708983,-36.519626,-24.99175,-54.796945,-39.525204,-68.750439,-54.223654,26.979303,281.896605,-64.414415,232.987377
29,3.039551,0.9278,7.223797,-77.921363,0.0,-59.571247,-31.564064,-90.76292,-25.284119,-92.530117,-16.697388,-78.529587,-6.907997,-55.630245,0.0,25.743253,28.743582,56.04276,45.369201,71.138821,57.595536,82.499538,65.827545,86.54981,0.0,37.170582,19.099388,24.875679,8.377018,13.463688,-4.688587,4.530373,-18.540001,-14.32497,0.0,-24.244694,-33.963097,-37.9531,-46.964862,-49.849379,-55.764327,-60.202731,-60.317617,-90.275181,29.432974,283.455124,-57.776499,155.696732
30,-0.001602,-1.062786,-36.091862,-118.698834,0.0,-59.69593,-30.38475,-89.557915,-23.897095,-91.733723,-15.225906,-77.652683,-5.139656,-54.761696,0.0,27.499496,30.298025,56.607467,46.951617,72.840415,58.786763,84.085289,66.257328,87.98384,0.0,6.868172,-3.810253,2.433815,-2.054043,5.801411,1.374149,12.364311,7.849903,17.579727,0.0,-45.635716,-13.201157,-38.690462,1.50248,-20.241538,16.635098,-0.193865,29.40002,25.165207,31.190071,282.908602,-92.109661,37.514163
31,0.640182,-0.656777,-7.023811,-47.285008,0.0,-59.027252,-30.869408,-90.381145,-23.969765,-92.319145,-15.085258,-77.927971,-5.248489,-55.920982,0.0,27.958055,30.792522,58.483877,47.758633,73.267111,59.775943,84.765593,67.261142,88.383179,0.0,-0.564594,-15.468607,-24.666653,-19.912691,-13.604422,-19.987908,3.840236,-15.137959,4.906969,0.0,-52.908895,-28.475816,-72.393805,-18.006698,-50.61171,-5.551393,-8.213067,6.116548,10.783274,32.543907,282.601316,-98.419819,-9.421353
32,0.555382,-0.321781,-7.023812,-47.285007,0.0,-59.784622,-30.949631,-90.767212,-23.878441,-92.665215,-14.856148,-78.118114,-4.915466,-55.793667,0.0,29.005342,30.9251,59.235935,47.900597,74.057454,59.811449,85.655849,67.119549,88.91553,0.0,-7.99736,-27.126961,-51.76712,-37.771339,-33.010254,-41.349964,-4.683838,-38.12582,-7.765789,0.0,-60.182075,-43.750476,-106.09715,-37.515876,-80.981883,-27.737884,-16.232269,-17.166923,-3.59866,32.702351,284.480428,-105.840569,-54.505468
33,-0.484428,-0.217423,-10.417786,-24.126534,0.0,-58.635921,-31.004448,-89.731522,-23.874664,-91.29673,-14.838295,-76.958828,-4.990768,-55.135517,0.0,29.511633,30.620733,60.264388,47.615743,74.729484,59.631632,85.624542,67.173333,88.665441,0.0,-4.383202,-30.434875,-45.00309,-36.758995,-1.240482,-37.048531,-5.073566,-32.456646,-9.42152,0.0,-67.473656,-39.542494,-94.039147,-34.628087,-32.414304,-26.115515,-21.062078,-14.821118,-18.898374,30.828352,286.98206,-117.647924,-75.912946
34,0.010414,-0.201368,-3.15937,-17.819594,0.0,-57.270985,-31.220055,-88.75042,-24.112473,-90.703068,-14.951134,-76.133652,-4.788322,-53.865223,0.0,29.991434,30.816481,60.615254,47.744925,75.485803,59.652442,85.712845,67.16086,88.823769,0.0,-13.433361,-32.115784,-36.831779,-37.246914,0.522652,-36.641579,-0.501022,-30.445747,-7.760639,0.0,-69.310577,-38.641416,-82.216691,-31.159289,-39.038425,-22.543964,-30.809843,-12.922416,-32.208675,29.723625,289.021414,-121.922436,-91.491819
35,0.255089,-0.168579,1.174965,-7.086354,0.0,-56.419029,-30.801315,-87.979889,-23.413353,-89.591103,-14.19857,-74.81535,-4.240265,-52.785988,0.0,30.771342,30.90429,61.068687,47.749741,76.601633,59.612736,86.369128,67.091823,89.707973,0.0,-10.753212,-30.51012,-42.650814,-34.188709,-5.649033,-32.736168,-5.260963,-27.380676,-7.021923,0.0,-52.274503,-44.420483,-90.58452,-38.595104,-44.706959,-31.589396,-36.935561,-23.896344,-33.737893,28.143826,290.808548,-122.582359,-96.62246
36,0.523796,0.586258,6.864624,-8.834601,0.0,-56.403236,-30.764465,-87.952824,-23.182182,-89.518204,-13.808556,-74.072227,-3.779755,-52.035427,0.0,31.522536,31.598056,61.73516,48.37589,76.950276,59.935938,86.595937,66.741327,89.4493,0.0,2.289734,-33.996906,-52.060719,-38.846054,-3.348255,-36.549625,-3.106041,-29.861927,-1.728859,0.0,-57.419099,-47.571514,-101.565812,-43.041704,-47.414899,-37.568982,-37.127358,-31.966861,-31.694356,27.831516,292.107622,-116.553841,-104.744244
37,-0.225105,0.234343,10.27977,-8.913981,0.0,-57.514915,-31.358871,-87.494087,-23.368263,-89.051399,-13.605423,-73.833618,-3.366165,-52.221622,0.0,32.388338,32.340358,62.816162,48.970855,77.112926,60.386222,86.25631,67.132146,89.207362,0.0,4.451008,-37.559624,-57.30629,-41.410961,2.681293,-38.681889,1.200657,-31.912022,-5.337524,0.0,-64.959612,-43.34811,-94.544975,-39.097181,-37.483071,-34.681995,-30.201895,-30.736916,-34.005226,27.700109,293.076949,-106.180372,-112.923241
38,-0.328445,0.238171,5.162315,-4.455539,0.0,-56.997471,-30.161018,-86.950665,-21.993027,-87.422333,-12.063332,-72.47961,-1.906242,-50.435829,0.0,33.08266,32.218957,62.660737,48.928865,77.487566,60.22283,86.366658,66.738363,88.830993,0.0,-4.589825,-39.148636,-59.192963,-43.364182,-0.641842,-40.658512,-3.529987,-33.579197,-1.182117,0.0,-68.51943,-39.467915,-91.172415,-35.989761,-34.781908,-31.44192,-22.207332,-26.477326,-19.487751,27.964897,294.250856,-100.424824,-116.443045
39,0.517273,-0.401501,0.006523,1.740374,0.0,-56.743355,-30.266876,-86.185513,-22.409248,-87.593479,-12.689781,-72.349319,-2.376709,-49.727154,0.0,33.047771,32.137755,62.637951,48.610974,77.647623,59.85134,87.01195,66.463265,89.174696,0.0,-2.496357,-32.442284,-49.584446,-32.924652,-2.259579,-27.262802,0.673485,-18.53159,4.258461,0.0,-57.102705,-39.116756,-92.375405,-36.036028,-41.748512,-31.797819,-22.534825,-27.406423,-18.463512,29.203005,293.700366,-99.697466,-114.85166
40,0.169029,0.01377,-8.567276,4.437755,0.0,-56.596184,-29.693184,-86.451988,-21.293564,-86.864834,-11.299896,-71.312199,-1.030312,-48.660278,0.0,32.997321,32.67486,63.745321,49.235394,78.952657,60.348431,87.92246,66.491547,90.02432,0.0,5.551186,-24.234066,-34.665298,-21.137295,6.736336,-12.340164,10.208473,-0.85207,15.673027,0.0,-49.61976,-39.896555,-97.702521,-37.73932,-45.743146,-34.049717,-30.783923,-29.715302,-22.69306,29.731407,293.572404,-107.905369,-110.555637
41,0.368614,0.312395,3.122978,-2.197944,0.0,-56.792965,-29.72374,-85.496807,-21.3731,-85.962639,-11.397972,-70.498409,-1.233101,-48.351345,0.0,33.319102,32.002583,64.206164,48.538232,79.086037,59.799531,88.277957,66.221018,89.997706,0.0,2.779198,-27.343597,-39.063606,-25.870285,2.864971,-18.171387,4.932232,-7.287312,10.816097,0.0,-53.175364,-36.657839,-93.453521,-34.620291,-39.591138,-31.120741,-27.295859,-27.144493,-21.441704,30.390158,293.629971,-104.492254,-113.00841
42,0.605621,-0.267812,-2.131004,-3.201033,0.0,-56.632977,-30.173492,-85.984955,-21.439819,-86.146889,-11.119194,-70.471115,-0.553093,-48.215046,0.0,33.24494,33.165961,65.083576,49.586322,80.255837,60.478724,89.008279,66.404294,90.759088,0.0,2.71328,-26.8927,-40.105991,-25.729237,2.737656,-18.177795,5.304108,-7.543087,11.044178,0.0,-53.123987,-34.129175,-90.427736,-31.100302,-35.100324,-27.005416,-24.393312,-22.480021,-17.58695,31.347456,293.077289,-106.271582,-116.494313
43,1.228981,-0.052117,0.325813,-0.363463,0.0,-57.033634,-30.671425,-86.694889,-22.355804,-87.251587,-12.423134,-71.9137,-1.963463,-49.505367,0.0,33.525966,33.846821,66.132777,50.133986,80.865314,61.07795,89.819988,67.270714,92.233256,0.0,-0.243645,-28.839512,-41.409187,-29.105759,0.186939,-22.085724,2.753506,-11.403465,8.493004,0.0,-57.594239,-32.524853,-88.881042,-28.691325,-32.476487,-24.518742,-23.163074,-20.309572,-16.093639,33.025761,292.572896,-105.496445,-117.310052
44,-0.146027,0.450531,-2.387638,0.739168,0.0,-57.010002,-30.048752,-86.697063,-21.613998,-87.048969,-11.663818,-72.23671,-1.283455,-49.959812,0.0,33.971248,34.392201,66.703227,50.882586,81.461761,61.799257,90.270272,67.895751,92.579676,0.0,0.509434,-27.593479,-40.926704,-27.23505,-0.079937,-19.881306,2.798252,-9.082432,8.913574,0.0,-56.692235,-31.86806,-88.860556,-28.24223,-32.782723,-24.348481,-23.354562,-20.4926,-16.495279,33.515511,292.47794,-107.248306,-117.116372
45,-0.525055,0.861356,-0.786037,0.131096,0.0,-56.881828,-30.239296,-85.629215,-21.526108,-85.829887,-11.358032,-71.019001,-0.901909,-48.539829,0.0,34.183484,33.492435,66.446284,50.02722,81.340545,61.170143,89.864201,67.651467,91.734436,0.0,0.051498,-27.794209,-41.306477,-27.304058,-0.174809,-19.953747,2.883625,-9.065666,8.968391,0.0,-56.285995,-31.603784,-88.660501,-27.647419,-32.144563,-23.444625,-23.530241,-19.236674,-17.141389,33.508101,292.880753,-107.516699,-117.443819
46,0.008926,-0.091885,-3.309288,1.193512,0.0,-56.752796,-30.343094,-85.537434,-21.297684,-85.455437,-10.850372,-70.091858,-0.266418,-48.142262,0.0,35.057994,34.605487,67.154005,51.167626,82.332442,62.038292,90.546296,68.007705,92.042138,0.0,2.527027,-26.072788,-38.639488,-24.913731,1.992416,-17.168884,4.969997,-6.0672,11.584396,0.0,-52.458256,-32.733291,-88.887495,-29.065996,-33.249525,-25.052929,-24.43913,-20.829603,-18.176743,34.157009,292.434838,-110.186005,-116.604337
47,-0.447578,0.53797,0.485802,0.177996,0.0,-56.488209,-30.171089,-84.880657,-21.350327,-84.154129,-11.04641,-68.82185,-0.532265,-46.41861,0.0,34.135257,33.490892,66.493708,50.201294,81.540863,61.365707,90.276447,67.791146,91.398267,0.0,-0.596924,-26.55447,-38.91798,-26.342239,1.202488,-18.977165,3.799553,-7.812195,10.078182,0.0,-51.449795,-32.757714,-89.313943,-28.566142,-33.482386,-24.124172,-24.041272,-19.680674,-17.339685,34.415474,292.582838,-108.99416,-116.816311
48,0.089035,0.240456,-0.430012,1.980181,0.0,-56.053905,-30.29274,-85.119095,-21.154861,-84.619331,-10.717163,-69.218559,-0.246506,-47.043056,0.0,34.288028,33.438404,66.195145,50.208889,81.495785,61.398064,89.670737,67.712106,91.695225,0.0,-2.347355,-25.508022,-37.759495,-25.156116,1.882553,-18.039608,4.64653,-7.352715,10.664749,0.0,-48.244671,-33.491509,-90.174559,-29.767265,-34.41335,-25.557971,-25.327256,-21.33168,-18.855596,35.102606,292.474142,-108.826075,-115.185282
49,-0.084114,-0.10936,-0.47945,2.128815,0.0,-57.311897,-30.144997,-85.166416,-21.453209,-84.647369,-11.341782,-69.325218,-1.048508,-48.198967,0.0,34.256535,33.319287,65.98964,50.038767,81.140103,61.426716,89.712851,68.078779,91.18177,0.0,0.208511,-26.055279,-36.809635,-25.131168,1.783676,-17.663212,5.090961,-6.729012,11.629257,0.0,-49.990571,-34.618856,-91.192885,-30.998383,-34.704658,-26.922485,-25.85499,-22.834793,-20.061551,35.317526,292.386642,-109.006491,-113.034608
50,0.256577,-0.02927,1.345768,-1.018419,0.0,-57.070484,-30.275688,-85.818501,-21.642838,-85.223007,-11.476822,-69.825211,-1.061325,-48.336525,0.0,34.116609,33.198195,65.501873,49.80955,81.36611,61.166747,89.849319,67.888588,91.260749,0.0,-0.618267,-27.724457,-38.443909,-27.623405,0.112724,-20.433254,3.760128,-9.813366,10.131969,0.0,-54.102176,-34.154184,-91.1391,-30.446411,-32.035774,-26.434425,-24.813199,-22.280537,-19.271285,35.949039,292.406139,-107.285786,-114.004259
51,0.118561,-0.232984,-2.00552,0.396005,0.0,-57.393208,-30.221329,-85.888481,-21.459961,-85.540009,-11.118622,-70.265179,-0.466461,-48.245144,0.0,33.980264,33.354856,65.83761,49.852157,81.514805,61.032749,89.984676,67.557359,91.457794,0.0,1.230297,-26.374912,-35.787735,-25.533886,2.22765,-17.927341,6.221867,-7.030964,12.682056,0.0,-55.866138,-34.806654,-91.894061,-31.338844,-32.889365,-27.499342,-25.259546,-23.460108,-19.278216,36.654053,292.227032,-108.704853,-113.554376
52,0.21595,0.085154,-0.423203,1.686435,0.0,-58.045635,-30.264702,-86.176815,-21.553345,-85.585842,-11.338806,-70.253906,-0.831985,-48.574963,0.0,33.820392,33.21283,65.667364,49.850675,81.49702,61.163598,90.156404,67.794728,91.282917,0.0,1.489334,-25.247211,-34.200268,-24.176044,2.811241,-16.492996,7.056942,-5.497742,13.739262,0.0,-51.608463,-36.03169,-93.441958,-32.564373,-34.773957,-28.530188,-27.012872,-24.274859,-20.449467,37.16217,292.410817,-108.835888,-111.769311
53,-0.641556,-0.144681,-0.462914,-0.205351,0.0,-57.972908,-29.864388,-86.159935,-20.976448,-85.294991,-10.618973,-69.798546,-0.174065,-48.17625,0.0,34.43734,33.298663,66.166493,50.148868,81.750074,61.538114,90.488683,68.024748,91.867755,0.0,3.206348,-24.763527,-33.837147,-23.205414,3.179455,-15.121536,7.826443,-3.714752,14.990444,0.0,-50.551172,-36.340874,-93.295178,-33.211409,-35.683819,-29.49933,-27.883013,-25.361357,-21.137753,36.713448,292.33968,-109.105968,-111.901117
54,-0.088921,0.758727,2.464256,-1.684829,0.0,-57.944241,-29.619026,-85.810776,-20.972557,-85.051804,-10.903587,-69.417858,-0.834618,-48.013172,0.0,33.808289,32.73414,65.229801,49.65258,80.983998,61.183358,89.698772,67.888403,91.161763,0.0,4.008808,-26.595039,-35.308571,-25.398903,1.653442,-17.366238,6.276226,-5.829735,13.131981,0.0,-54.545281,-34.959641,-91.777847,-32.088108,-35.06667,-28.72995,-26.064432,-25.015231,-19.501845,36.842022,293.10608,-106.424217,-113.578274
55,-0.244446,-0.139741,-0.455132,0.684596,0.0,-57.808456,-29.80442,-85.769062,-21.351242,-85.610218,-11.321869,-69.943886,-1.101151,-48.063583,0.0,33.571229,32.663745,65.014107,49.51463,80.858089,60.996192,89.786643,67.71686,91.36344,0.0,3.10564,-24.824467,-33.505955,-23.542614,2.51421,-15.69088,6.731873,-4.450779,13.656864,0.0,-48.609538,-35.781415,-93.462228,-33.038122,-37.170336,-29.482425,-27.701744,-25.47558,-20.494529,36.899672,292.984725,-106.577253,-112.875292
56,0.684242,-0.086389,1.05772,-1.310066,0.0,-57.529049,-30.386925,-86.270027,-21.877785,-85.902042,-11.73912,-70.342026,-1.403961,-48.872166,0.0,33.871459,32.82127,64.696154,49.638254,80.442941,60.95908,89.48703,67.491718,91.90073,0.0,3.259106,-26.461658,-33.97974,-25.41441,1.447334,-17.374821,6.011238,-5.751915,13.132725,0.0,-53.876694,-34.617543,-91.996875,-31.635091,-35.026578,-28.05772,-26.307729,-24.128881,-19.40235,37.857428,292.77357,-105.246019,-114.310124
57,-0.151405,0.024206,0.763206,-0.776635,0.0,-57.553883,-30.43911,-85.985641,-21.922874,-85.425797,-11.781235,-69.762154,-1.275444,-48.040123,0.0,33.76636,32.978116,64.740861,49.727175,80.868278,60.865652,89.817827,67.173086,91.856023,0.0,3.032742,-26.988201,-33.77243,-25.910168,0.930862,-18.001099,5.958652,-6.664124,12.923584,0.0,-56.686214,-33.802731,-91.289648,-30.720984,-34.267928,-27.335873,-25.677828,-23.704748,-18.378158,37.788477,292.664534,-104.400358,-115.220001
58,-0.088234,-0.007163,0.00103,-0.923601,0.0,-57.445965,-30.210342,-86.058998,-21.679115,-85.536804,-11.536331,-69.815826,-0.938644,-47.917614,0.0,33.514357,32.904386,64.880664,49.520434,81.105276,60.629395,89.912367,67.058848,91.861024,0.0,3.845673,-26.364727,-33.261108,-25.03046,1.184177,-17.166138,5.900974,-6.105423,12.8409,0.0,-55.927101,-33.724324,-90.149426,-30.790839,-33.694545,-27.458726,-24.873761,-23.717469,-17.280606,37.682533,292.530288,-104.417038,-116.270684
59,0.331993,0.177656,0.326443,-1.352643,0.0,-58.003693,-30.524254,-86.658955,-22.020721,-86.045036,-11.854477,-70.221806,-1.259995,-48.334751,0.0,33.435255,32.878019,64.869796,49.559831,81.022592,60.718316,90.079031,67.115103,91.741105,0.0,3.538399,-25.546188,-33.400841,-24.313431,2.912693,-16.362476,6.185303,-5.130672,12.977943,0.0,-55.856366,-32.875672,-89.691084,-29.540008,-33.185613,-25.648281,-24.380097,-21.559662,-17.045244,38.011694,292.654546,-104.093428,-117.676726
60,-0.247192,-0.088427,1.153965,0.29915,0.0,-58.137131,-30.365753,-87.014694,-21.93306,-86.024723,-11.867409,-70.206184,-1.26812,-48.057804,0.0,33.490398,33.073644,65.00083,49.763854,81.418227,60.88004,90.476704,67.261698,92.118771,0.0,3.018093,-26.65741,-33.845558,-25.914745,2.273197,-18.313465,5.825443,-7.193928,12.129993,0.0,-55.537116,-32.962308,-89.949201,-29.438891,-32.975229,-25.527358,-23.770404,-21.539547,-16.409601,37.591496,292.562522,-103.112469,-117.381173
61,-1.037407,0.492336,-0.33062,-0.932616,0.0,-57.781277,-29.663658,-85.699024,-21.09066,-85.599689,-10.902214,-70.152168,-0.474014,-48.715782,0.0,33.34726,31.755273,64.629957,48.891383,80.300545,60.671818,89.50537,67.675364,91.589076,0.0,1.497459,-27.178288,-34.273567,-26.618557,3.134537,-18.952847,6.617317,-7.736835,13.002205,0.0,-57.619109,-31.79558,-89.312847,-28.700218,-30.608876,-25.122275,-22.004219,-21.427115,-14.917217,36.33585,293.086876,-103.661327,-118.281772
62,-0.799484,0.310728,1.561775,-0.31468,0.0,-56.749821,-29.557228,-85.011463,-20.893707,-84.422665,-10.606041,-68.758507,-0.013504,-47.587967,0.0,33.671141,31.964792,64.296937,49.139558,80.302274,60.806742,89.548471,67.596509,91.879303,0.0,0.14946,-27.842102,-36.841278,-27.901096,1.80788,-20.714092,4.6035,-9.835682,10.526161,0.0,-58.11126,-31.623173,-88.692178,-28.027756,-30.292436,-23.925352,-21.265128,-19.73574,-13.728815,35.270834,293.48725,-102.365084,-118.506806
63,0.750732,0.350557,0.272598,0.529108,0.0,-57.801704,-29.658966,-85.365086,-21.182556,-85.336075,-11.023178,-69.933128,-0.430069,-48.364964,0.0,33.388757,31.706243,63.884753,48.873722,79.299385,60.684291,89.187911,67.637573,91.89863,0.0,0.463715,-28.577957,-36.953259,-28.803062,0.838451,-21.897926,3.081322,-11.148548,8.868141,0.0,-58.023003,-30.909771,-87.732083,-27.38251,-30.987684,-23.672051,-20.746517,-20.123873,-12.759333,35.921488,293.894015,-102.192564,-117.921489
64,0.013733,-0.138506,1.316643,2.19955,0.0,-57.744255,-29.120865,-85.658112,-20.678329,-85.347462,-10.603065,-70.357304,-0.150261,-48.598137,0.0,32.843253,31.805105,63.575754,48.801906,78.843667,60.503609,89.272385,67.381494,92.126242,0.0,-1.77269,-31.330433,-43.440742,-31.9697,-0.999527,-25.287209,0.448494,-15.262756,6.703548,0.0,-58.33157,-31.573063,-87.577198,-27.173161,-28.092871,-22.938703,-20.805659,-18.905491,-15.680514,35.695038,293.717425,-101.116104,-115.760024
65,0.655403,0.194082,0.407753,4.960565,0.0,-58.311024,-29.958916,-86.400547,-21.573601,-85.382652,-11.503258,-70.202007,-0.91713,-48.709888,0.0,32.051737,31.730696,63.110218,48.726386,78.340833,60.533497,89.271706,67.488322,91.619333,0.0,1.451969,-33.155766,-47.337456,-34.411926,-2.510147,-28.215466,-1.061039,-18.441296,5.585918,0.0,-63.672285,-32.877525,-87.453589,-27.880157,-27.294716,-23.343678,-20.385046,-18.83508,-18.226885,36.164188,293.895065,-100.894604,-110.8159
66,-0.209312,-0.352595,-2.27766,8.454589,0.0,-58.257809,-30.014191,-87.08519,-21.477013,-85.61039,-11.308136,-70.471859,-0.621185,-49.043198,0.0,32.514371,32.549198,64.180785,49.692409,79.436533,61.287531,89.748296,67.736929,92.825442,0.0,4.903049,-33.135223,-48.937855,-34.717312,2.865486,-28.950577,3.124695,-19.87421,8.266926,0.0,-61.336051,-32.602257,-91.565086,-26.590237,-27.622086,-21.864895,-21.734941,-17.726706,-24.653204,35.459204,293.316124,-103.667936,-102.587658
67,0.845833,-0.137148,-1.197968,13.411171,0.0,-58.989601,-30.288506,-88.27755,-21.925278,-86.970921,-11.987114,-71.672459,-1.622887,-50.230923,0.0,31.485362,32.130592,63.083109,49.365132,78.071602,61.294756,89.349697,68.331586,92.715218,0.0,-0.695,-34.946766,-50.431938,-36.216545,-0.702438,-30.588055,-1.060753,-21.254311,1.32637,0.0,-41.839547,-36.337601,-97.386606,-31.37648,-30.847557,-27.220292,-26.373632,-23.66529,-24.269054,35.810194,292.773323,-105.360746,-89.582141
68,0.180473,0.045942,-5.717239,9.249718,0.0,-59.153881,-30.974579,-88.815651,-22.892761,-87.603779,-13.099709,-72.80571,-2.831726,-51.692562,0.0,30.47284,32.368207,63.222665,49.636772,77.387037,61.505139,88.177057,68.380801,91.634153,0.0,-4.935837,-30.788155,-43.64193,-31.742764,6.512604,-26.161938,4.358139,-17.110863,6.072922,0.0,-35.855531,-36.936966,-97.832845,-31.493976,-33.494782,-26.616064,-26.439797,-22.015133,-18.73171,35.147324,292.376669,-111.921329,-80.775019
69,0.356712,0.217485,0.883598,11.304926,0.0,-60.364723,-31.094055,-89.627094,-23.117523,-88.673859,-13.55587,-74.275875,-3.46241,-52.960339,0.0,28.149852,31.910019,61.905097,49.039892,76.133133,60.87757,87.717325,67.826344,91.61217,0.0,-6.969452,-32.56176,-41.367931,-33.162975,1.80233,-27.251701,1.277103,-18.612442,3.668289,0.0,-37.913117,-37.115579,-100.272573,-30.13099,-30.105333,-23.696875,-23.334832,-18.202231,-17.936333,33.946581,291.70626,-112.595186,-70.357987
70,0.28862,0.396993,-2.366867,10.490839,0.0,-60.331078,-30.888748,-91.409969,-22.959824,-90.089722,-13.613548,-74.994678,-3.971214,-53.535233,0.0,28.082111,31.442384,61.755908,48.896323,76.493261,60.921042,87.588328,67.875003,91.290142,0.0,-1.407452,-27.926502,-34.093094,-27.235794,6.830521,-19.81945,7.777977,-9.897881,10.239086,0.0,-40.491567,-33.896623,-98.896249,-25.662452,-25.393838,-16.929956,-16.393314,-9.298346,-8.2384,33.243027,291.501743,-115.954227,-60.468659
71,-0.326614,0.019204,2.455044,11.616395,0.0,-60.71949,-30.788841,-91.074886,-22.848816,-90.357227,-13.41568,-75.278149,-3.628807,-53.798618,0.0,27.231685,30.821977,61.684216,48.399417,76.065145,60.698185,87.545844,67.883339,90.918404,0.0,3.838463,-20.37878,-25.754585,-21.617718,4.056587,-17.238922,10.020447,-10.733013,12.382221,0.0,-12.195151,-26.013009,-86.924002,-22.51383,-20.869293,-16.01111,-10.369407,-9.419778,-4.726315,32.2542,291.173725,-114.161396,-49.199486
72,-0.12188,-0.388225,7.915221,28.17926,0.0,-61.103382,-30.947685,-91.680279,-22.877884,-90.788898,-13.226166,-76.412029,-3.170128,-54.582024,0.0,27.354074,30.68625,61.583007,48.247449,76.320051,60.688799,87.871083,68.18956,91.66262,0.0,4.424872,-19.142075,-20.854369,-21.8886,0.168771,-19.8028,3.672409,-15.387068,3.505726,0.0,-21.651841,-31.483695,-88.650285,-28.406116,-39.333639,-22.182184,-30.094812,-15.139156,-21.510972,31.92687,289.57056,-106.451626,-22.235165
73,0.710106,0.027479,7.91522,28.17926,0.0,-61.510506,-31.731148,-92.063026,-24.347305,-91.880093,-15.107803,-77.557125,-5.25547,-56.401577,0.0,25.470316,29.721955,59.54444,47.298099,74.656619,60.114952,87.271178,68.234452,92.195403,0.0,5.011282,-17.905369,-15.954151,-22.159481,-3.719044,-22.366676,-2.675629,-20.041122,-5.37077,0.0,-31.10853,-36.95438,-90.376568,-34.298402,-57.797984,-28.353257,-49.820217,-20.858533,-38.29563,32.616177,288.304322,-98.557205,4.650377
74,-0.302467,-0.161354,7.91522,28.17926,0.0,-63.059235,-31.715012,-92.110691,-24.68399,-92.188454,-15.718231,-77.80426,-5.916252,-55.814781,0.0,24.456065,29.50904,58.723716,47.06919,74.836374,59.883697,86.468237,67.985969,91.756975,0.0,5.597692,-16.668663,-11.053934,-22.430362,-7.606859,-24.930553,-9.023666,-24.695177,-14.247265,0.0,-40.565219,-42.425065,-92.10285,-40.190688,-76.26233,-34.524331,-69.545622,-26.57791,-55.080287,31.497288,287.245735,-91.458407,31.932404
75,-0.550117,0.013029,7.91522,28.17926,0.0,-62.851295,-31.658134,-91.924267,-24.582024,-92.115498,-15.681267,-77.746353,-5.794716,-55.490799,0.0,23.107004,29.061349,57.891196,46.652128,73.978167,59.471637,85.494804,67.610217,91.375913,0.0,6.184101,-15.431957,-6.153717,-22.701244,-11.494675,-27.494431,-15.371704,-29.349232,-23.12376,0.0,-50.021909,-47.89575,-93.829134,-46.082974,-94.726676,-40.695405,-89.271027,-32.297287,-71.864944,29.451742,285.200592,-85.038614,58.053492
76,-0.741234,-0.21273,1.186924,35.323922,0.0,-63.427162,-32.057991,-93.044186,-24.952126,-92.630138,-15.886803,-78.16,-5.902061,-55.594597,0.0,23.487263,29.272289,57.720642,46.95736,74.297169,59.818859,86.583834,67.948671,91.343926,0.0,9.285221,-6.451893,6.996689,-15.839081,2.030582,-23.418217,-5.063324,-30.024319,-14.021702,0.0,-46.674728,-43.930416,-78.874264,-44.450386,-83.138254,-41.323561,-78.112357,-33.856917,-65.472727,27.497892,283.424588,-85.064306,91.81414
77,-0.086861,-0.600585,-11.856708,20.108389,0.0,-63.451653,-32.344894,-93.231812,-25.490227,-92.976208,-16.505013,-78.779984,-6.386604,-55.768089,0.0,22.45634,29.342623,57.288389,47.070548,74.147178,59.918277,87.096177,68.009928,92.235294,0.0,33.706055,-0.757113,27.566786,-3.796206,21.11475,-4.957695,16.696043,-5.258188,10.819645,0.0,-36.850423,-34.974322,-52.643616,-26.631208,-44.619767,-15.94618,-34.322515,-3.404902,-22.883066,26.347876,281.465294,-97.984171,110.563819
78,-0.247993,-0.56372,-11.856709,20.108389,0.0,-63.347282,-31.713982,-93.681107,-24.873619,-93.554764,-16.070251,-79.265671,-6.227875,-56.532784,0.0,21.4876,29.106674,57.405221,46.782359,73.640577,59.698755,86.956127,67.925577,92.464264,0.0,58.126888,4.937668,48.136883,8.24667,40.198917,13.502827,38.45541,19.507942,35.660992,0.0,-27.026118,-26.018227,-26.412967,-8.812031,-6.10128,9.431202,9.467326,27.047113,19.706594,25.008802,280.065165,-110.931959,129.835799
79,-0.819397,-0.012659,6.288929,19.252821,0.0,-63.088074,-32.516212,-93.893223,-25.681114,-94.883823,-16.779556,-80.292149,-6.752815,-58.103943,0.0,21.596404,29.077899,56.642294,46.886532,73.06741,59.836396,85.409959,68.055438,91.241297,0.0,64.040823,8.005457,43.269253,5.444355,35.058918,5.733033,31.219254,7.438689,24.398518,0.0,-2.727392,-15.249172,-10.629454,3.121113,8.401437,22.275473,22.995174,39.886258,32.100334,23.342056,279.656424,-105.49038,148.692538
80,0.053215,-1.173381,6.288929,19.252821,0.0,-64.521732,-33.001213,-95.22686,-26.208115,-96.279087,-17.386665,-83.03009,-7.607574,-61.229382,0.0,22.417931,29.678668,56.275126,47.887506,72.512397,60.958772,85.090833,69.22851,91.017576,0.0,69.954758,11.073246,38.401623,2.64204,29.918919,-2.036762,23.983097,-4.630566,13.136044,0.0,21.571333,-4.480116,5.15406,15.054256,22.904154,35.119744,36.523022,52.725404,44.494074,22.600279,278.056316,-99.996443,167.518633
81,-1.814346,0.628619,6.453724,18.102998,0.0,-63.348942,-32.698345,-94.558067,-26.214752,-96.187878,-17.812729,-82.555103,-8.581009,-60.479164,0.0,20.949383,27.745695,55.091371,45.845667,71.012974,59.169554,83.693483,67.804978,88.782519,0.0,63.332863,9.832134,38.901787,-0.306416,34.720688,-6.261406,29.070854,-8.645096,17.322178,0.0,23.125776,-1.220003,13.364333,17.624309,24.983784,36.605212,34.941656,54.224148,39.600292,19.968996,278.589114,-94.359655,185.525809
82,-1.365051,-0.76941,2.390442,19.395743,0.0,-64.019794,-32.938499,-94.25869,-26.471329,-95.366364,-17.914009,-82.36227,-8.497925,-60.529461,0.0,19.769641,27.974604,55.571234,45.913407,70.615178,59.072914,83.473404,67.475416,88.548115,0.0,58.361092,12.623634,63.86467,1.425705,53.704319,-8.729897,39.653606,-17.245216,13.802776,0.0,3.608077,10.32294,38.517622,22.967139,43.997045,33.489471,48.232876,42.359362,44.488517,18.026476,277.560954,-92.546682,204.662802
83,-0.92308,-0.092934,3.896999,24.674106,0.0,-54.638958,-34.477329,-92.440166,-28.859596,-93.992844,-20.294838,-81.597576,-10.303802,-59.250927,0.0,5.591623,27.80973,55.245438,44.946643,71.283379,57.93331,82.888875,66.695694,88.640864,0.0,47.787552,37.851906,40.483189,38.792725,28.819313,35.213184,30.608025,29.378128,36.286526,0.0,9.410269,21.3465,95.577226,43.396522,116.897729,63.91322,126.520049,80.320737,132.098149,16.623573,277.247386,-89.129505,229.116274
84,-1.144295,0.057613,0.142879,7.69336,0.0,-51.577549,-31.795521,-91.345539,-26.503487,-94.25766,-19.339485,-82.458458,-10.291901,-59.95657,0.0,3.897933,31.677714,53.229905,46.056607,70.570903,56.854284,81.724694,64.899127,87.580548,0.0,63.597393,9.158478,74.438381,3.884926,67.816601,1.093597,59.400902,0.549545,51.019421,0.0,11.720969,17.571327,57.464007,42.650207,86.262794,63.043651,100.879487,77.129043,100.002754,15.244789,277.187812,-89.221115,236.692448
85,0.476761,0.048412,-4.952145,9.448801,0.0,-48.26025,-32.734623,-95.431309,-29.271927,-98.380337,-22.841148,-84.639587,-13.675461,-61.906357,0.0,11.960931,31.943426,37.025115,45.902292,59.484419,56.136744,80.072809,62.754103,89.09862,0.0,68.322144,14.206982,82.932987,4.421768,78.45171,-2.068348,65.968151,-5.783329,48.410397,0.0,14.83356,25.379296,60.935492,44.480057,73.01486,58.127886,79.87706,65.779379,80.184515,15.648136,277.189279,-94.246674,246.094303
86,-1.776123,-0.430462,2.245388,9.313135,0.0,-68.065281,-35.784245,-87.552795,-31.782589,-93.687801,-24.347305,-82.997704,-12.812119,-61.179428,0.0,-5.637319,31.824557,26.238306,46.104587,52.237514,56.629018,78.213504,63.124544,91.169605,0.0,67.400723,19.631138,81.328926,8.000622,73.204937,-1.054401,60.344868,-7.27232,42.517605,0.0,12.728921,28.909443,66.484816,45.614103,77.41785,56.866572,85.187657,62.66296,83.665386,13.843031,276.660957,-92.030268,255.309579
87,-1.80851,2.469214,2.882538,7.290933,0.0,-69.842777,-33.360214,-69.041462,-29.360619,-89.449825,-23.016129,-84.489613,-13.427124,-65.248089,0.0,-10.497323,33.210977,38.016518,46.958595,49.194021,57.723235,64.251674,65.431169,87.53689,0.0,68.853779,19.208965,85.033607,8.169365,81.119499,-0.381718,67.325535,-6.497383,47.190285,0.0,16.079993,30.580657,65.828718,47.022198,80.529886,58.356301,89.72588,64.499602,89.941081,12.022161,279.063774,-89.160089,262.534115
88,-0.634804,0.88334,2.199097,4.79671,0.0,-66.264153,-34.227962,-48.807793,-29.940834,-78.257275,-23.279572,-77.215862,-13.754425,-62.966423,0.0,-3.431038,30.980429,53.196498,45.172032,57.559535,56.251414,67.738226,64.430318,85.571189,0.0,66.636944,20.470734,85.369835,9.655724,82.48764,0.94986,67.5737,-5.631294,46.251755,0.0,14.078168,31.180994,66.345384,47.472296,80.435469,58.432192,88.556328,64.48083,88.965362,11.42518,279.955944,-86.92317,267.339656
89,-0.100479,4.738233,2.916756,3.649264,0.0,-59.30706,-35.704937,-28.996582,-32.430782,-21.755104,-27.363911,-25.768204,-20.170212,-41.63269,0.0,5.012343,28.250752,56.659214,37.633233,65.466614,44.654008,67.06669,49.693212,72.661339,0.0,66.247272,22.060204,87.387772,11.155758,82.808762,2.049465,67.617645,-5.430164,45.259781,0.0,12.810123,32.582358,66.325685,48.223305,81.528266,58.463191,90.648617,64.009304,90.20988,11.340008,284.70066,-83.991108,270.995403
90,1.482468,-4.234967,3.944435,2.044062,0.0,-58.243847,-31.150475,-32.488461,-26.185684,-23.214684,-19.671135,-22.10083,-11.731796,-26.044922,0.0,4.198349,32.152205,61.482477,42.273221,71.828758,49.856356,73.555794,55.2342,77.18079,0.0,66.700974,23.230019,86.206627,12.664032,83.219833,3.026505,68.183327,-5.442123,46.932335,0.0,11.583698,32.44416,66.850255,48.388734,82.594696,59.221362,92.251657,65.58573,92.685145,12.85924,280.495643,-80.009909,273.069415
91,3.359528,1.122808,3.997478,0.929714,0.0,-58.052788,-33.577194,-30.677834,-28.939934,-20.581512,-22.607117,-19.591942,-15.007324,-21.132431,0.0,2.598581,29.103895,61.460988,40.711491,72.299852,49.491473,74.806178,55.899252,76.098367,0.0,65.562687,25.231533,87.481213,14.486389,84.477596,4.417248,69.254093,-4.638176,46.833,0.0,11.708619,33.583517,65.710404,49.809056,81.679369,60.297425,89.960964,65.92758,89.486845,16.30085,281.6262,-75.930347,274.006878
92,2.58934,-1.414208,2.928944,1.518134,0.0,-55.145988,-31.083412,-29.764938,-26.176414,-19.145737,-19.55761,-15.544281,-11.6605,-14.076462,0.0,5.700428,28.492813,60.296622,41.1041,72.449041,50.606809,76.709573,57.239421,79.010578,0.0,64.644356,26.76899,88.15979,16.829281,87.00325,7.079544,71.021461,-2.034187,48.953419,0.0,10.980088,32.849367,63.313253,49.325797,80.266891,60.098712,88.97376,66.310186,90.237421,19.260864,280.213551,-72.63073,275.526572
93,-2.700806,28.078406,3.871365,0.390633,0.0,-62.500591,-51.383343,-1.3377,-57.383652,0.56694,-57.606583,-5.227203,-55.82262,-88.696632,0.0,26.661173,10.806322,42.268095,18.756132,43.768507,24.236357,44.86612,30.261839,50.747168,0.0,65.955677,27.072086,88.957272,17.400913,87.942867,7.794914,72.424107,-1.071968,51.721287,0.0,11.939689,33.137247,66.892122,49.263244,82.047217,59.875669,90.292255,65.943882,90.470282,17.048807,308.282417,-68.270617,275.907664
94,-8.547478,8.071829,2.948341,1.682699,0.0,-60.897961,-45.833416,3.927383,-47.662296,12.932625,-44.416752,7.816772,-39.528465,-74.613476,0.0,34.608327,9.38316,38.420612,13.788805,38.363987,15.998729,38.510274,18.257003,36.83023,0.0,66.754704,25.69416,87.265148,16.543694,87.66283,7.377892,71.772137,-1.114311,50.876484,0.0,13.574408,31.776947,63.992878,47.923754,80.663266,58.357844,88.676432,64.700229,89.802574,8.874121,316.451395,-64.949484,277.687512
95,-0.630569,12.75745,2.809124,1.322756,0.0,-49.424973,-40.293274,-26.245651,-38.9007,8.09166,-33.080521,16.481781,-25.460701,-25.849857,0.0,35.215704,11.374364,30.192617,3.030957,30.692672,-5.366049,25.297291,-13.548843,11.517749,0.0,66.450806,24.735889,86.105003,15.253944,86.338005,5.927811,71.296463,-2.749043,50.628319,0.0,13.339447,31.674503,63.778234,48.122775,80.232619,58.82406,88.665749,65.197135,88.713482,8.641148,329.477274,-61.742764,279.278696
96,9.602966,-12.726081,0.152321,0.934469,0.0,-70.944843,-51.829491,-2.528915,-55.113659,5.858917,-52.697067,3.899345,-49.642525,-84.113331,0.0,33.127367,5.360739,39.631661,8.734164,38.353737,10.363139,36.720438,12.866439,39.902622,0.0,64.796562,25.050087,86.592178,15.38784,87.135429,5.869789,72.124443,-2.809925,50.338326,0.0,14.596562,30.321058,61.873419,47.202385,78.959079,58.252622,86.331584,64.862386,88.021199,18.973417,316.85623,-60.861139,280.318203
97,-5.699158,9.655912,0.173035,-0.721862,0.0,-60.691395,-51.246643,-0.602188,-49.941101,12.568359,-42.941837,12.588387,-33.402958,-51.779308,0.0,38.759128,5.345424,37.289098,0.036556,31.533589,-6.571479,24.717578,-12.733923,11.063389,0.0,64.374161,26.51207,87.670212,16.690922,86.89476,6.630936,71.526031,-2.683868,50.089073,0.0,15.263158,31.10393,63.038834,47.652484,79.113084,58.587494,86.272489,65.14545,88.782149,14.462299,326.581766,-59.500065,279.665964
98,-1.532707,-6.156084,0.29274,0.41064,0.0,-39.144173,-38.944416,0.390472,-38.004341,11.710854,-33.346825,12.480812,-26.344414,-4.885254,0.0,26.973691,11.366337,35.222311,12.380711,38.140883,11.058202,35.340872,8.557619,30.316612,0.0,64.433441,26.439285,87.611046,16.640453,86.201248,6.645184,70.759621,-2.702808,49.586334,0.0,15.020294,31.372173,63.330852,47.829893,78.162313,58.737424,85.476032,65.254871,88.002179,14.080153,320.528929,-58.056765,280.179851
99,5.909729,-1.695543,-0.010815,-0.359943,0.0,-68.0373,-50.054855,-0.550003,-54.556561,7.577019,-53.068886,3.966179,-49.998722,-76.769485,0.0,34.197131,2.219001,36.757056,5.364073,36.831589,6.774391,35.181309,8.813328,34.066714,0.0,64.966335,26.29137,87.888165,16.466331,86.662388,6.560326,71.223392,-2.580757,49.999409,0.0,14.884134,31.78164,63.436445,48.409976,77.942235,59.308121,85.047052,65.670081,88.17471,21.129827,319.080264,-56.927633,280.066786
100,-8.315964,8.040274,0.18774,0.180373,0.0,-55.496807,-48.110962,2.817307,-46.744537,16.517601,-39.93124,17.579384,-30.339489,-26.940708,0.0,37.882643,4.560453,37.122125,0.253424,32.270086,-5.730191,25.590606,-11.814027,11.768764,0.0,65.400581,25.586128,87.534943,15.680408,85.877953,5.973072,70.646896,-2.848377,49.583931,0.0,15.457548,31.715444,62.792635,48.230036,77.85634,58.945029,85.11615,65.090492,87.778519,13.734655,327.388828,-55.819101,280.515449
101,-1.300735,4.852903,0.367928,0.355744,0.0,-34.672337,-38.318996,3.131447,-37.664394,16.700249,-33.081951,17.861595,-26.305389,-10.441589,0.0,34.398808,5.171659,30.513719,0.086574,26.510193,-6.388574,21.127409,-13.399901,5.627253,0.0,65.215302,25.828114,87.091713,16.166553,85.891914,6.461105,70.741997,-2.502022,49.406548,0.0,15.604267,31.470789,61.957832,47.876144,77.591739,58.588914,84.603684,64.860224,87.291926,13.287907,332.442189,-54.597187,281.07165
102,11.816139,-6.693621,0.592804,0.112756,0.0,-69.591522,-52.386703,-3.898773,-56.160107,4.125824,-53.918266,1.638107,-49.5825,-72.456665,0.0,34.510144,0.649059,34.128156,-1.198699,31.202483,-4.145614,26.694333,-6.24309,22.713901,0.0,65.249176,25.929279,87.11483,16.112938,85.61142,6.221237,70.16922,-2.953033,49.214516,0.0,15.526215,30.717619,61.635927,47.407088,76.905939,58.437996,84.062812,64.958593,87.187259,25.849285,325.963444,-53.259144,281.399283
103,-6.563759,9.055698,0.07782,0.265959,0.0,-63.354206,-50.336781,-5.874367,-45.687733,9.605255,-36.761856,14.022217,-25.511227,-32.461281,0.0,35.781338,2.266425,32.443728,-8.154389,24.768523,-19.449836,16.077708,-30.681371,-9.20748,0.0,64.993401,26.738091,87.536659,17.05164,85.947762,7.058945,70.720596,-2.398739,49.36718,0.0,14.82473,29.850581,61.161251,46.463789,75.954921,57.721692,83.188364,64.57574,86.766368,19.806604,335.212991,-52.660246,281.859092
104,-0.481682,-1.001283,0.351334,0.348766,0.0,-46.684227,-46.206665,-3.839035,-44.488621,12.259712,-37.836514,13.110237,-28.840771,-5.43972,0.0,38.575112,4.116097,34.528731,-6.613963,27.912298,-18.265772,16.060418,-30.087826,-4.668516,0.0,64.803886,26.832161,86.956215,17.704067,85.839386,7.855568,70.425224,-1.819382,49.431953,0.0,13.743666,30.488895,60.320458,46.99336,74.369726,58.285782,82.292366,65.428884,86.84967,19.815016,334.398967,-51.818819,282.395116
105,-3.85231,-0.116523,-0.25423,0.32456,0.0,-30.959873,-37.993813,2.538986,-37.073078,17.554321,-32.241669,18.295212,-25.533943,-7.327766,0.0,38.699415,5.117133,30.824447,-5.023026,24.379001,-16.101667,14.126086,-26.989314,-9.972259,0.0,64.829464,26.598415,87.317448,17.678261,86.581821,8.010292,70.997715,-1.548157,49.549656,0.0,13.629427,29.973712,59.766989,46.482808,74.013797,57.874647,81.590511,65.217204,86.238464,16.368685,334.384424,-51.66707,282.821657
106,16.560516,-33.19449,0.69191,0.551369,0.0,-53.238029,-49.823227,-4.256058,-59.830284,-2.154007,-63.070564,-13.478394,-62.996979,-78.865757,0.0,12.677483,11.681449,44.513093,27.812139,54.244958,40.487954,58.087933,51.647304,64.054505,0.0,64.856815,27.002106,87.468166,18.232212,86.144085,8.482933,70.899181,-1.333351,49.26115,0.0,12.782088,28.896291,58.951575,45.399088,73.332381,57.135495,80.919901,64.930002,85.492704,33.305712,301.303386,-50.59865,283.486477
107,-19.322433,-1.109037,0.05928,0.061997,0.0,-31.238651,-42.464161,15.293083,-53.017159,19.836617,-55.998001,7.664223,-54.685078,-45.659981,0.0,22.540938,13.379585,45.124546,28.919941,55.165348,40.412434,60.142061,49.118624,64.231914,0.0,65.501118,26.312199,86.788044,18.051453,86.753483,8.614883,71.860714,-0.934982,50.028362,0.0,12.513289,28.409883,59.24915,45.17055,73.425192,57.27783,81.095149,65.424685,85.977877,14.44376,300.242421,-50.078888,283.596548
108,-17.940617,12.229052,0.329189,0.084536,0.0,11.344013,-18.723049,38.941441,-27.356586,38.150654,-31.822472,25.579548,-31.789341,-41.016083,0.0,-15.476444,5.641332,39.197062,22.27677,49.317028,34.413381,53.488948,43.535955,55.712642,0.0,64.687958,26.050529,87.144012,17.710991,87.251015,8.357792,71.848297,-1.01841,50.201569,0.0,12.652659,28.532334,58.61874,45.481216,73.091493,57.544036,80.554092,65.446545,85.643684,-3.182402,312.574349,-49.435244,283.78396
109,29.227581,0.929097,-0.904083,-0.308382,0.0,-66.581955,-49.827061,0.670395,-54.290199,7.441406,-53.031178,2.185364,-49.201756,-66.011295,0.0,28.782361,5.880059,39.809009,13.742431,43.840878,19.825896,45.052854,25.67261,44.765714,0.0,64.994545,26.987743,88.784523,18.376751,88.093071,8.796101,72.635651,-0.613518,51.199493,0.0,13.370261,28.607113,58.09028,45.688945,73.733326,57.667413,80.738787,65.330083,85.756811,26.256037,313.486541,-50.128469,283.458674
110,-12.873344,-3.043431,0.299606,-0.073298,0.0,-43.57029,-40.471458,10.819473,-43.888321,20.071907,-41.923084,13.044777,-37.039833,-43.687534,0.0,27.787315,13.161545,42.367946,20.991373,46.737096,25.276173,48.499638,28.282924,47.483288,0.0,64.516525,26.500053,88.251915,17.971058,87.682114,8.485165,72.309952,-0.801029,50.869789,0.0,13.55298,28.673557,58.82159,45.542596,73.966064,57.461475,81.168385,65.095988,85.773422,13.654261,310.507763,-49.557295,283.450029
111,16.789055,-5.400753,-0.353851,-0.512158,0.0,-57.465878,-50.002041,-0.56385,-58.346901,2.417336,-60.053215,-6.51638,-58.823605,-75.496044,0.0,21.707493,9.094415,43.960798,21.742814,51.544736,31.889889,54.710309,41.315904,58.984241,0.0,64.267502,26.787357,89.010429,18.044701,88.038826,8.397331,72.433891,-0.962963,51.088028,0.0,13.733353,28.93155,59.168257,45.830415,74.636303,57.695571,81.381547,65.260182,86.354061,30.71806,305.152042,-49.636402,282.982903
112,-26.4394,24.851392,0.051842,-0.033098,0.0,-56.339264,-42.738533,14.878349,-40.396328,31.672668,-32.729702,31.97628,-22.395973,-11.831589,0.0,36.829428,9.491038,35.347974,0.7641,28.821264,-9.814549,19.716351,-20.28569,-3.251591,0.0,63.976936,27.056465,89.005623,18.231812,87.548904,8.472347,72.143211,-1.072483,50.992699,0.0,14.221799,28.814039,58.963492,45.716856,74.53849,57.719469,81.490537,65.474888,86.440326,4.509315,329.988907,-49.353905,282.935278
113,24.627113,-18.917177,-0.460453,-0.453125,0.0,-65.152016,-50.273266,-0.815392,-55.391579,4.513092,-54.643764,-0.890121,-51.360855,-72.162724,0.0,26.932566,7.505516,41.262366,16.213373,45.60447,23.054393,46.949888,29.705344,48.424364,0.0,64.360943,27.550507,88.966427,18.767281,87.611332,8.852978,72.366314,-0.983448,51.258717,0.0,14.716358,29.275932,59.48905,46.08106,74.72053,58.00068,81.862089,65.726892,86.787734,29.413147,311.006274,-49.53764,282.416698
114,-13.76667,14.031052,-0.089264,0.110595,0.0,-62.793617,-48.71767,3.399925,-46.352005,18.70491,-39.295235,18.861237,-30.122395,-17.391586,0.0,34.651491,7.528116,37.260137,4.651597,33.288412,0.26528,28.831823,-4.589414,16.281731,0.0,63.989697,27.348003,88.923969,18.752003,87.979717,9.004726,72.555943,-0.71497,51.40543,0.0,14.333814,29.251788,59.630891,45.959226,74.566463,57.884095,81.683321,65.706514,86.573892,15.903625,325.014679,-49.369755,282.504646
115,-2.866287,-16.287412,-0.05785,0.0268,0.0,-14.549675,-31.678219,17.300491,-38.086452,24.153099,-39.5224,15.309677,-37.669201,-7.747192,0.0,-13.677284,11.28495,37.250813,25.72374,47.91974,37.12725,55.442793,45.91316,57.862421,0.0,64.647217,27.452488,89.166183,18.887615,87.816696,9.11602,72.338333,-0.712967,50.700989,0.0,13.989124,29.175835,59.371848,45.659922,74.334961,57.428562,81.538764,65.258206,86.523875,13.277893,308.708958,-49.18705,282.513137
116,20.463982,1.071308,-0.361691,-0.042237,0.0,-64.020309,-54.89296,-3.643112,-60.530434,0.548515,-59.329662,-5.900116,-55.244064,-72.821903,0.0,23.532279,6.986627,41.64701,15.846823,47.249007,22.817456,48.694955,29.379488,52.387259,0.0,64.699688,27.20335,88.426151,18.850307,88.136158,9.294434,72.612362,-0.309849,51.255741,0.0,13.687535,29.559181,59.62558,46.048641,74.0393,57.727867,81.429527,65.483286,86.282245,33.903437,309.787568,-49.387178,282.478201
117,-10.336304,-3.068131,0.170231,0.074471,0.0,-48.314381,-49.409466,4.604416,-54.343929,14.411087,-52.607288,6.491089,-47.720032,-51.964188,0.0,23.796571,11.091856,44.051818,21.406645,49.564833,28.933464,52.230598,35.459618,56.105869,0.0,64.176521,26.895847,88.339233,18.478146,87.774239,9.040031,72.263374,-0.325642,51.102791,0.0,13.631774,29.608335,59.762419,46.224074,73.810391,57.940165,81.24193,65.612221,86.071923,23.657341,306.711795,-49.12674,282.545031
118,-8.816071,4.248058,-0.484371,0.229032,0.0,-23.033695,-38.308697,15.811958,-43.683815,24.344215,-42.999516,18.187637,-39.327106,-38.877697,0.0,-8.184955,9.816278,38.953024,23.043339,46.43242,32.55105,51.042088,39.296604,57.816911,0.0,65.041523,27.121639,89.203548,18.594875,87.969532,9.083004,72.429485,-0.344524,51.019306,0.0,13.473816,29.412894,59.377899,45.82109,73.48509,57.557683,80.910824,65.280621,85.918288,14.971704,310.957584,-49.480677,282.771794
119,22.835541,-11.106553,0.031471,-0.097751,0.0,-51.508942,-56.684532,-5.555763,-66.340714,-2.23732,-68.025913,-11.471558,-66.446514,-86.558247,0.0,7.140879,10.608289,45.308747,27.621577,54.535741,40.628622,58.726433,52.194906,70.748003,0.0,64.697742,27.223721,88.98737,18.605919,87.325687,9.004326,71.83382,-0.483341,50.884838,0.0,13.805169,29.848297,60.213629,46.190296,73.840402,57.859642,81.15517,65.550718,85.948669,37.939081,299.836196,-49.317369,282.659207
120,-26.723785,1.118485,-0.124855,0.204394,0.0,-29.445705,-39.087868,18.066101,-48.067131,23.334503,-50.073051,14.827538,-48.248749,-28.545914,0.0,19.953411,17.057749,44.74651,29.855707,54.994917,38.320144,57.841117,44.809372,63.814358,0.0,64.777164,27.082214,88.772907,18.460236,87.389431,8.905334,71.618443,-0.511723,50.90086,0.0,13.607877,29.67274,59.568832,46.19678,73.652927,57.941894,81.081255,65.632907,85.754156,11.298466,300.972836,-49.359055,282.881756
