takenoko1/special-research/HandMotion_SimilarSearch_自分用/NewProject/handData/test_key/d4_feature_d2/14.csv
frame,vel_0x_L,vel_0y_L,vel_0x_R,vel_0y_R,posFromWrist_0x_L,posFromWrist_1x_L,posFromWrist_2x_L,posFromWrist_3x_L,posFromWrist_4x_L,posFromWrist_5x_L,posFromWrist_6x_L,posFromWrist_7x_L,posFromWrist_8x_L,posFromWrist_9x_L,posFromWrist_0y_L,posFromWrist_1y_L,posFromWrist_2y_L,posFromWrist_3y_L,posFromWrist_4y_L,posFromWrist_5y_L,posFromWrist_6y_L,posFromWrist_7y_L,posFromWrist_8y_L,posFromWrist_9y_L,posFromWrist_0x_R,posFromWrist_1x_R,posFromWrist_2x_R,posFromWrist_3x_R,posFromWrist_4x_R,posFromWrist_5x_R,posFromWrist_6x_R,posFromWrist_7x_R,posFromWrist_8x_R,posFromWrist_9x_R,posFromWrist_0y_R,posFromWrist_1y_R,posFromWrist_2y_R,posFromWrist_3y_R,posFromWrist_4y_R,posFromWrist_5y_R,posFromWrist_6y_R,posFromWrist_7y_R,posFromWrist_8y_R,posFromWrist_9y_R,posFromBody_0x_L,posFromBody_0y_L,posFromBody_0x_R,posFromBody_0y_R
2,29.051914,3.72108,-1.410198,-0.582368,0.0,-1.743965,-23.506565,28.752708,-37.677956,23.584785,-48.696156,6.199608,-55.830231,-33.313637,0.0,-7.812847,7.891456,37.917346,27.459235,53.144628,43.873976,64.019987,57.483582,69.931292,0.0,66.924248,25.937004,86.335831,16.635132,83.629189,6.874924,69.441261,-2.291107,48.249149,0.0,14.759769,27.916744,57.337481,45.069464,71.555698,57.437207,79.699281,65.361453,85.001171,7.377949,292.732413,-52.180653,279.990339
3,-17.924595,2.903381,0.869808,0.81103,0.0,14.610386,-14.818439,38.717136,-27.13171,40.246181,-33.813114,29.484386,-37.142887,4.172001,0.0,5.202472,9.164564,41.81775,28.226546,55.954148,43.313097,59.837137,54.713706,60.507376,0.0,67.202282,24.78344,85.939808,15.885201,83.478642,6.632538,69.196644,-1.98761,47.997265,0.0,14.180118,27.180432,57.368294,44.103132,70.814631,56.552262,78.32978,64.492069,83.800681,-10.519609,294.256691,-51.283808,279.422266
4,1.057377,-5.577729,0.219727,-0.023527,0.0,18.510246,-3.329716,49.001999,-17.538757,43.126259,-31.775494,25.453491,-43.816566,-9.174557,0.0,-2.255002,7.364231,38.804391,27.61287,54.98584,44.352357,65.380842,57.838091,72.175796,0.0,65.853825,24.876537,85.571194,15.948029,83.173656,6.590195,69.050503,-2.231712,47.502079,0.0,14.177524,26.675313,57.004461,43.953326,70.665628,56.65168,78.118347,64.785136,83.890219,-9.180021,287.729271,-50.78187,278.449049
5,-2.646446,-1.488741,-0.449696,-0.764038,0.0,23.536491,0.32959,51.170654,-13.553638,44.862213,-28.0513,25.65239,-40.349579,-12.489738,0.0,0.10973,9.606944,38.77191,29.830451,54.869255,46.199065,65.32607,59.364006,73.785135,0.0,65.540428,25.755672,86.802063,17.030926,83.971367,7.450619,69.539108,-1.850853,47.879562,0.0,14.524067,27.774409,57.707304,44.566631,70.730095,56.912329,78.151321,64.880108,84.146731,-11.557446,285.529166,-50.962543,276.973646
6,-1.372948,-0.158081,0.308933,-0.139865,0.0,22.95948,-1.105957,51.357765,-14.37664,46.430511,-27.956886,27.580032,-39.08987,-16.92461,0.0,2.090992,9.561496,40.65925,29.505829,55.734872,45.538027,65.987725,58.399835,75.298761,0.0,65.544834,25.663891,86.852131,16.935425,84.426212,7.339897,69.945545,-2.013702,47.764778,0.0,14.738156,27.769037,57.41226,44.558542,70.397199,56.905845,78.04474,64.851209,84.446776,-12.747145,284.993249,-50.470362,276.455946
7,1.693268,0.126403,0.428982,-0.029455,0.0,18.807793,-1.829109,48.980026,-15.135956,44.707146,-28.665047,25.123901,-39.94606,-19.172173,0.0,-1.687639,10.073406,39.250908,30.542618,54.623241,46.640642,65.445371,59.302873,74.995999,0.0,64.816475,25.782051,86.166344,16.808567,83.836327,6.911259,69.191093,-2.645874,47.32029,0.0,14.834857,27.596568,57.468083,44.531186,70.506929,56.977414,78.283776,65.049428,84.412751,-10.916319,284.767289,-49.903822,276.074128
8,-3.342476,0.612935,-0.234718,0.196984,0.0,27.222404,5.215416,53.39447,-8.498383,46.925011,-22.669315,29.650269,-35.345249,-2.205677,0.0,-3.950791,9.361918,34.755046,29.880777,51.002259,46.684361,62.992336,59.618726,71.403977,0.0,64.740257,25.640945,86.78524,16.661968,84.244194,6.946163,69.999161,-2.469006,47.819481,0.0,14.566119,27.487764,56.448707,44.539028,69.653168,56.917639,77.49263,64.792978,84.322349,-14.24017,285.059183,-50.119915,275.950071
9,2.863598,0.032481,-0.901508,-0.663385,0.0,23.178463,-0.638294,51.573429,-14.120464,46.515369,-27.737045,26.875248,-38.926506,-13.849697,0.0,-2.581538,8.839386,36.177035,29.393381,52.644449,45.994362,64.395367,59.177766,74.728558,0.0,65.50169,26.416111,88.06406,17.415962,85.643177,7.55476,71.068325,-1.936226,48.709946,0.0,14.76687,28.191965,57.227812,45.244218,70.204846,57.612579,78.067032,65.408506,84.890576,-11.304302,284.779778,-50.949154,274.974801
10,-0.4422,0.624852,0.370102,-0.099665,0.0,21.263752,-1.338902,51.234455,-14.407082,46.902523,-27.590275,27.685261,-38.49535,-12.891312,0.0,-4.174019,8.064913,35.689886,29.225914,52.252519,46.23031,63.808615,59.706906,73.318302,0.0,65.522518,25.659084,87.84914,16.729374,85.289555,7.136364,71.20245,-1.992474,49.035931,0.0,15.051045,28.262731,57.223675,45.497271,70.142478,57.975486,78.186581,65.685086,84.999689,-11.722984,285.12575,-50.555534,274.596255
11,-0.94471,-1.840842,0.39402,0.044707,0.0,19.346752,-2.644901,51.153545,-15.278778,48.61948,-27.628155,28.647709,-37.638645,-19.476528,0.0,-5.823805,11.2705,37.860845,32.52104,53.815546,48.68032,65.56103,60.991129,75.698348,0.0,65.815144,25.976372,87.854633,17.045631,84.943943,7.276268,70.987873,-2.149601,48.758812,0.0,14.854247,28.144418,57.418929,45.140416,69.895044,57.455856,78.370535,65.127542,84.914041,-12.634621,283.035885,-50.128441,274.391939
12,1.415119,1.614835,0.016136,0.509873,0.0,23.494263,0.371532,50.400009,-13.02166,46.081123,-26.313343,28.729134,-38.144188,-5.476227,0.0,-13.204399,8.147843,34.141494,28.963722,51.578699,45.696787,63.012343,58.875683,70.577633,0.0,66.27943,25.960178,87.726345,16.927814,84.909725,7.159252,70.718937,-2.088947,49.02689,0.0,14.248475,27.81325,57.431465,44.923425,69.657305,57.383052,77.954461,65.146191,84.862788,-11.169062,284.409198,-50.061865,274.66029
13,2.502193,-0.388719,-0.99781,-0.94756,0.0,16.679363,-4.255371,46.980228,-16.528816,42.790432,-28.481483,27.214222,-39.180107,-1.802731,0.0,-14.039635,8.796717,34.456298,29.586969,52.336253,46.44125,64.295764,60.035727,71.111836,0.0,67.856083,27.375298,89.102268,18.143864,85.863018,7.849331,71.019459,-2.164764,48.301964,0.0,14.436258,27.794663,56.985009,44.884337,70.481179,57.173718,78.667802,64.879058,85.275034,-8.610077,283.796418,-51.002884,273.488669
14,-2.044659,0.22823,0.937557,0.678946,0.0,18.074455,-0.664444,49.130402,-13.380375,44.193535,-26.154442,28.74836,-37.519398,-0.243244,0.0,-15.344175,8.120858,34.07925,28.776186,50.812747,45.744705,62.992398,59.712278,70.737135,0.0,67.294464,26.022949,87.94075,16.822701,84.767647,6.854668,69.802094,-2.596264,47.046661,0.0,14.026544,27.901862,57.075165,44.887856,70.349589,57.093566,78.084013,64.710418,84.34285,-10.557432,283.963052,-49.968023,274.106019
15,0.414677,-0.333452,0.107059,-0.401872,0.0,16.5592,0.566769,48.338985,-12.813721,42.656078,-26.413822,26.443005,-38.55938,-5.383301,0.0,-12.600295,9.267378,35.233365,29.716768,51.502808,46.087296,63.036056,59.26681,69.481872,0.0,66.802425,26.208973,88.325214,16.895828,84.642963,6.817532,69.852848,-2.71883,47.117271,0.0,14.718643,27.727787,56.841563,44.737556,70.49637,56.931225,78.641064,64.40006,84.685133,-10.084391,283.593985,-49.802599,273.668532
16,-0.529976,-0.393721,0.02718,0.099665,0.0,21.597919,2.180157,48.519001,-11.059914,42.451572,-24.852791,26.655636,-37.19965,-7.112446,0.0,-15.297121,8.734102,34.893738,29.349477,51.236663,45.982691,63.28633,59.397042,69.931909,0.0,66.731186,26.116219,88.25592,17.00861,84.936562,7.028103,70.072975,-2.504482,47.076988,0.0,14.550064,27.754958,56.634699,44.580648,70.298892,56.744738,78.684413,64.399628,84.748982,-10.549564,283.185382,-49.710617,273.753316
17,-0.408268,-1.018758,-0.64064,-0.012721,0.0,22.889328,1.765022,48.777237,-11.870098,42.238426,-26.466351,27.603264,-39.315834,-6.023026,0.0,-12.59869,8.533969,37.401978,29.101302,53.926326,45.906615,65.591102,59.724566,72.468863,0.0,66.685295,26.930809,88.973694,17.874184,85.209618,7.768936,70.179863,-2.068233,47.363949,0.0,14.60212,28.425752,57.08912,45.110467,70.598258,57.064976,78.657057,64.498244,84.760036,-10.873833,282.160156,-50.267258,273.734127
18,0.195637,0.229526,-0.02449,-0.049956,0.0,22.244968,0.945339,47.446232,-12.240429,40.760822,-26.689796,25.360508,-39.300098,-10.797215,0.0,-12.8707,8.720702,38.224246,28.865786,54.463061,44.854203,65.505393,58.094294,71.416513,0.0,66.388435,27.016582,88.686218,18.041096,85.094147,8.025169,70.079956,-1.838207,47.434902,0.0,14.617928,28.329916,56.956172,45.028709,70.322481,57.105546,78.617661,64.733513,84.83815,-10.605726,282.406324,-50.219278,273.700813
19,-0.165997,-0.385199,0.324669,-0.008151,0.0,21.635971,-0.628738,46.027908,-12.731609,39.601135,-26.028385,24.081345,-37.303791,-19.211483,0.0,-14.242733,10.892155,38.383006,30.805984,54.536605,46.159791,65.347744,58.696545,72.544261,0.0,66.777992,26.447639,88.47393,17.341404,85.07515,7.363701,70.028229,-2.255402,47.525826,0.0,14.360244,27.775521,56.647543,44.723045,70.418688,56.984083,78.52627,64.73555,84.669695,-10.708666,282.034324,-49.831553,273.705861
20,10.144157,1.608969,0.338173,0.364142,0.0,8.536034,-10.071259,35.317039,-23.423824,30.346184,-36.637802,15.121536,-47.241211,-27.69556,0.0,-12.662478,9.738225,38.290628,29.409375,53.530074,44.845743,63.943663,57.443383,70.614004,0.0,66.337624,26.377373,88.054848,17.411499,84.534874,7.325592,69.417686,-2.626991,47.050266,0.0,14.013206,27.723712,56.660079,44.57929,70.076158,56.927767,78.093091,64.920678,84.406329,-0.502539,283.647137,-49.43141,274.073847
21,5.670891,1.364684,0.150146,-0.123439,0.0,2.242584,-13.661671,29.736099,-27.554398,23.860245,-40.695763,9.561539,-51.38855,-23.386917,0.0,-13.444794,8.134999,37.794957,27.516354,53.631283,43.039852,64.357267,55.788101,69.939813,0.0,66.547279,26.564541,87.830544,17.585392,84.561653,7.433681,69.239044,-2.570057,46.831799,0.0,14.251995,27.874506,56.748876,44.684945,70.216393,56.917392,78.034613,64.844108,84.017178,5.240622,285.026085,-49.208994,273.964672
22,-14.101124,14.910995,0.182362,0.372787,0.0,-42.39109,-22.989521,37.886295,-27.145958,44.913425,-27.038612,37.823696,-23.704891,6.964016,0.0,39.565218,14.584336,38.810196,21.557131,39.934238,26.88792,42.484839,31.953553,39.40726,0.0,66.582813,26.282501,87.70895,17.17535,84.464436,6.981068,69.243107,-2.921276,46.888561,0.0,14.026421,27.342094,56.299518,44.37928,69.72838,56.840698,77.564939,64.974277,83.814699,-8.810806,299.935413,-48.976936,274.335792
23,-1.579571,-18.037604,-0.5686,-0.334749,0.0,20.580482,0.933151,45.861397,-11.596928,39.53167,-25.715904,23.793526,-37.988491,-17.064114,0.0,-15.245621,9.727851,38.409436,29.990817,54.968055,45.987693,65.353055,59.253164,73.093222,0.0,66.566162,27.072144,88.329048,18.022041,84.619102,7.791138,69.616585,-2.216377,47.409325,0.0,14.042167,27.421691,56.500701,44.339513,69.636495,56.670206,77.869246,64.595439,84.006928,-10.342627,281.903135,-49.497786,274.006369
24,5.883007,1.412232,0.367756,-0.08466,0.0,11.795826,-6.600552,39.163685,-19.117527,35.000095,-32.071037,18.684711,-42.671242,-23.304062,0.0,-15.832003,9.729395,39.394602,29.584252,55.644778,44.992029,65.427402,57.812835,72.232483,0.0,66.07481,26.637039,87.705975,17.600098,84.398746,7.167492,69.430447,-3.225002,46.993504,0.0,13.80097,27.209516,56.592956,44.071269,70.192434,56.55078,78.52664,64.828485,84.680254,-4.445486,283.34104,-49.115896,273.947382
25,-11.342869,-3.797897,0.266018,0.490113,0.0,32.991028,7.395172,50.77446,-4.605217,44.971619,-18.251038,28.118248,-30.495415,-18.172817,0.0,-22.43448,11.638656,36.650105,33.132554,54.374264,49.069471,66.3008,61.171255,73.77649,0.0,65.964432,25.86525,87.264862,17.143536,84.424553,7.380981,69.780235,-2.122936,48.047218,0.0,12.616165,27.462569,56.511322,44.263498,69.721649,56.684964,78.099081,64.860101,83.818527,-15.755596,279.615946,-48.81712,274.510299
26,-2.237377,-0.365254,0.503826,-0.179508,0.0,35.059605,9.337521,52.66737,-2.533779,46.021786,-15.943165,29.237766,-28.083115,-17.221928,0.0,-22.859076,11.496198,35.869332,33.393017,54.46726,49.460166,66.227996,61.473091,73.448348,0.0,65.840664,25.315418,86.679211,16.350574,83.860302,6.55014,69.353657,-2.817078,47.700863,0.0,12.991052,27.516972,56.358366,44.545142,69.776237,57.116476,78.282418,65.318783,84.144075,-17.973261,279.270082,-48.293581,274.35018
27,0.355854,-0.492645,0.106316,-0.357103,0.0,29.830399,9.059315,51.836243,-2.73634,43.429527,-16.47892,27.122841,-28.799973,-16.745281,0.0,-20.019792,13.303509,37.079764,34.579366,54.964227,50.181287,66.41547,61.671063,74.294144,0.0,64.956837,25.839272,87.150936,16.657734,83.868084,6.335964,69.167347,-3.694096,47.467861,0.0,13.163459,27.43083,56.637972,44.267697,70.148777,56.684532,78.942776,64.82762,84.768249,-17.599955,278.783967,-48.169813,273.999607
28,1.114998,0.913659,0.271683,0.347223,0.0,24.748192,7.796631,50.468903,-3.994446,41.567345,-17.775936,26.125946,-29.562664,-17.017536,0.0,-16.63624,13.677902,38.134399,34.632039,55.147873,49.940337,65.860705,61.383121,73.061729,0.0,64.951229,26.618443,86.929722,17.449265,83.459759,6.921329,68.416615,-3.427277,47.090778,0.0,13.087259,27.991277,57.268629,44.693775,70.423257,56.922086,78.640385,65.012439,84.424175,-16.466789,279.704481,-47.879963,274.353684
29,0.935555,-0.258981,-0.762405,-0.545009,0.0,24.944801,4.688129,50.211296,-6.895123,44.628639,-20.197678,28.247681,-31.613903,-23.133259,0.0,-16.014908,13.108563,39.613013,33.861641,56.424995,49.142583,66.904287,61.286975,75.561571,0.0,65.106182,26.996155,87.299023,18.164635,84.249058,7.730598,69.763241,-2.76226,48.082581,0.0,13.340868,27.650476,56.357255,44.410032,70.243687,56.823594,79.232324,65.201643,84.971469,-15.516443,279.449313,-48.627577,273.812488
30,1.462669,0.472885,0.453072,0.202233,0.0,25.782051,3.854027,48.195763,-7.571583,42.738762,-20.847931,27.698364,-32.282181,-22.286682,0.0,-16.337924,12.505323,39.30636,33.007386,55.994533,48.463946,67.046004,61.01021,75.343901,0.0,64.905338,26.215897,86.591206,17.381401,83.555889,7.194271,68.700085,-2.942848,47.216892,0.0,13.41608,28.153557,57.298269,44.749968,70.398001,57.044413,78.860957,65.29433,84.631348,-14.039726,279.936909,-48.160458,274.029433
31,1.633415,0.486593,-0.663929,-0.573167,0.0,25.524216,2.70813,46.657104,-8.744717,41.020775,-22.108269,25.154114,-33.747997,-24.912186,0.0,-17.808634,10.882337,38.530158,31.617322,54.978368,47.424131,66.014834,60.213012,74.413692,0.0,65.536652,27.191906,87.564583,18.267689,84.387245,7.888985,69.667168,-2.486687,48.269062,0.0,14.065077,27.809175,56.787531,44.524208,70.230287,56.856198,79.076528,65.149463,85.19939,-12.394295,280.422499,-48.81237,273.455262
32,-1.696415,-1.052845,-0.003834,0.492027,0.0,24.956074,5.246143,48.225346,-6.17672,41.193295,-19.700031,25.88522,-31.537628,-21.058903,0.0,-18.801889,12.041824,37.98132,33.231972,54.699256,49.119242,66.180448,61.677361,74.186945,0.0,65.329227,26.579819,87.584324,17.751675,84.367161,7.635155,69.173985,-2.296028,47.235489,0.0,12.97475,28.273661,57.174274,44.884645,70.564048,57.067569,78.80038,65.086601,84.103197,-14.083071,279.446086,-48.808565,274.023721
33,-0.193005,0.206308,0.526772,0.018463,0.0,28.620758,4.692535,52.952499,-7.7952,46.633987,-21.48468,31.033516,-33.89843,-4.124966,0.0,-17.669263,9.237676,35.954424,30.459193,53.620353,47.573629,66.586087,61.545956,73.562401,0.0,65.315495,25.355816,87.539577,16.478977,84.443607,6.745663,69.849644,-2.649708,48.241882,0.0,12.727871,27.043037,55.12132,43.830751,69.242651,56.298715,77.659418,64.444891,83.441973,-14.288521,279.714701,-48.294239,274.10449
34,-2.144222,-4.370385,-0.610657,-2.000713,0.0,36.524906,7.250004,56.481228,-5.487385,50.016918,-20.570698,31.923237,-34.022884,-13.942051,0.0,-8.635733,13.692351,42.835088,34.87867,58.735263,50.815464,70.622526,63.422304,78.852559,0.0,64.105625,26.433506,88.277264,18.098545,85.490513,8.498268,70.143757,-1.078606,49.030952,0.0,13.933548,28.785202,55.869365,45.383465,70.749053,57.364033,78.491072,65.279572,83.032136,-16.447935,275.418369,-48.920088,272.177831
35,27.95145,0.633621,2.196579,-6.893384,0.0,-11.741409,-27.908134,18.629608,-41.761436,17.462883,-52.681446,3.252525,-60.116215,-40.46648,0.0,15.283536,14.184687,52.033985,30.713667,65.126616,42.871212,70.8615,52.662172,75.462523,0.0,64.859219,25.263805,83.82906,15.901108,81.004658,5.637131,66.517467,-4.355736,44.689808,0.0,11.525097,26.157722,63.572049,42.531152,78.286184,54.642384,86.044753,62.843394,87.768207,11.476393,276.134813,-46.750631,265.36727
36,-9.902802,48.978945,6.749039,-15.107794,0.0,-44.438725,-41.701183,-24.35812,-36.571369,4.416389,-27.304001,15.504341,-16.111164,11.439285,0.0,19.637928,-6.880725,16.420114,-20.24759,3.442462,-33.051538,-7.813403,-44.356062,-23.527339,0.0,59.581318,22.750053,67.111301,12.007828,61.023273,-0.321293,32.633743,-13.289623,4.770927,0.0,20.903502,26.124809,67.922057,40.754037,87.82934,52.48007,98.937251,60.753513,90.603292,1.565752,325.249192,-40.009432,250.39491
37,-12.65213,-34.144211,-5.39257,-27.321779,0.0,-29.379272,-3.386307,-27.154484,6.930542,-19.682522,16.113281,-6.723633,23.533287,12.702599,0.0,3.109442,-1.359188,22.611766,8.19076,41.767546,18.307453,49.68327,26.554097,48.825186,0.0,45.245132,58.474102,52.482891,48.554707,35.539055,33.260937,19.352989,12.788429,9.45179,0.0,19.61718,36.815163,101.325634,40.65536,109.163366,43.834888,102.864392,45.226187,89.672034,-10.853376,291.158827,-45.169001,223.126978
38,68.153458,-79.181442,-27.731838,-72.632008,0.0,-52.907524,-37.740784,-85.372353,-26.924744,-77.685242,-14.12796,-62.696342,-1.359329,-44.358673,0.0,50.011906,21.814815,78.72418,38.092656,97.336125,52.162734,102.350999,63.098732,101.572388,0.0,57.915745,34.553947,47.910919,21.558952,41.706562,8.534431,34.488316,-2.594032,30.115814,0.0,24.434638,3.360643,32.075696,20.143602,49.958615,38.197879,64.43779,55.693067,70.684029,57.334929,212.443617,-72.865992,150.961201
39,18.155937,-39.680012,-19.12262,-10.559444,0.0,-59.363708,-37.303619,-77.151089,-26.451073,-68.143387,-14.171333,-54.023094,-2.689934,-38.180695,0.0,43.7866,12.797526,66.70545,28.022954,85.858452,42.570178,90.593288,54.868082,91.230985,0.0,47.036133,33.455315,34.193802,25.481415,24.415855,13.701668,14.465504,0.045261,9.852448,0.0,10.57093,-28.714003,-26.721194,-45.87364,-43.549756,-58.559027,-61.629906,-66.797489,-95.099741,75.132551,173.528337,-92.346926,141.16649
40,13.809814,-57.16637,-60.54388,-111.353839,0.0,-54.532242,-39.166946,-60.667877,-31.359215,-53.402481,-21.622009,-41.678696,-9.702072,-27.100296,0.0,17.005261,14.439469,48.661177,30.582447,71.772689,44.240342,76.797629,54.597615,81.691411,0.0,23.937836,22.200222,29.607983,31.065331,35.902348,36.941128,41.826382,40.760765,46.454315,0.0,-54.304053,-18.891983,-42.06472,-4.685189,-22.965935,10.582353,-3.721327,25.26373,15.512815,88.701611,117.063158,-153.131561,30.513843
41,17.50946,-60.626369,3.017464,-29.481684,0.0,-48.523178,-31.326828,-46.042442,-26.992607,-42.646523,-20.345306,-34.801025,-12.264633,-34.374847,0.0,-43.982472,-13.896189,7.432588,-0.857127,32.124911,13.298167,51.299433,27.746096,62.049593,0.0,0.913582,-15.103798,-34.492435,-30.025177,-7.130642,-40.041962,-18.587494,-47.633514,-28.720093,0.0,-55.464529,-57.722031,-126.475434,-49.77676,-32.778879,-37.010326,-17.903914,-22.930398,-14.309639,105.748186,58.959787,-150.576982,3.555156
42,-3.076973,-22.071512,-31.768112,-53.512969,0.0,-19.038849,-2.570686,-27.228355,9.135704,-24.298668,18.767509,-12.542038,26.540909,-0.935783,0.0,-46.935778,-51.389619,-74.615987,-51.406539,-12.968019,-44.425037,-0.951172,-33.667374,1.139696,0.0,-14.437122,-21.22364,-44.990902,-36.153431,-8.639145,-46.807079,-15.347271,-54.604626,-27.664146,0.0,-62.507596,-51.422254,-122.942415,-42.22135,-37.99509,-30.283946,-23.487479,-15.952848,-15.467274,100.379763,38.998071,-184.636545,-47.848017
43,2.04483,-40.703679,-28.753738,-43.682427,0.0,-9.120483,0.183792,0.499992,14.151993,-10.898552,25.637054,-1.28643,36.586304,10.928764,0.0,-54.526941,-57.187057,-123.565724,-53.977949,-37.814038,-47.126649,-25.208247,-37.592632,-23.307045,0.0,-24.522743,-26.845665,-53.580666,-39.428444,-11.049213,-49.446945,-16.810284,-57.388687,-25.451145,0.0,-59.908474,-52.565393,-113.567684,-43.1121,-43.132817,-31.629055,-25.493071,-17.873348,-22.155832,100.872059,1.294335,-214.942818,-88.5305
44,5.835457,-45.621668,-17.550774,-22.957784,0.0,-6.278572,4.352646,8.750038,17.753334,-9.789162,29.37973,0.30098,41.556129,13.525887,0.0,-58.94117,-52.912014,-121.077954,-50.294136,-38.900691,-45.27497,-26.996539,-38.468531,-26.921667,0.0,-30.190315,-25.998802,-62.315884,-36.187706,-16.561832,-46.551132,-22.702217,-56.469212,-35.305595,0.0,-66.842613,-40.709222,-99.194689,-31.971168,-42.695671,-21.749267,-25.961077,-8.727803,-20.439849,106.990614,-43.088619,-232.210493,-110.249572
45,8.426514,-38.499468,-0.987453,-16.45633,0.0,-3.730774,6.73233,12.187157,18.412628,-5.591469,28.7883,4.331703,40.295906,17.090607,0.0,-58.444449,-51.290973,-114.683776,-47.812757,-43.851685,-42.368934,-32.396921,-34.287503,-29.615343,0.0,-36.728497,-35.438747,-82.843037,-43.024979,-16.55508,-48.947697,-20.294495,-53.709011,-31.072998,0.0,-64.126105,-35.297184,-89.676588,-25.32071,-37.735785,-14.174514,-20.427268,0.010621,-11.951483,115.243921,-79.612352,-233.371153,-124.730167
46,13.419914,-19.470677,17.395077,-3.528542,0.0,-7.102432,2.88414,1.181831,13.633804,-4.529343,24.650917,2.989883,37.095451,13.068008,0.0,-60.858968,-48.187613,-88.203918,-48.294858,-48.966101,-46.091341,-40.723625,-41.650884,-40.566377,0.0,-31.41901,-37.570381,-67.633324,-46.156998,-6.164818,-52.29847,-9.692802,-56.405582,-20.077686,0.0,-57.704741,-41.023593,-100.743204,-31.524373,-40.664576,-19.822608,-21.146706,-6.57594,-15.646196,128.734732,-97.267736,-215.90518,-126.443416
47,17.503052,-29.54044,41.384697,18.414096,0.0,-2.49012,5.502434,11.919937,17.157555,-4.2342,27.82711,5.632439,40.094604,17.541275,0.0,-53.84446,-47.511801,-110.058284,-45.646213,-47.859564,-41.580998,-40.212069,-35.012545,-39.905679,0.0,-19.351845,-14.43964,-45.887947,-27.674675,-14.97345,-39.146633,-20.920658,-48.987808,-30.575237,0.0,-57.743875,-52.245217,-115.529432,-46.584696,-44.574134,-38.982773,-31.706691,-29.122698,-26.412766,144.786644,-125.328544,-175.971622,-106.549688
48,17.470665,-16.019971,33.719559,23.649142,0.0,1.401901,3.850021,5.472336,15.699692,6.965561,28.038254,14.224663,42.219887,20.547752,0.0,-54.466966,-43.292504,-69.975412,-42.175593,-49.198514,-37.563347,-41.134821,-30.558488,-44.346969,0.0,12.395382,-4.359798,15.305843,-16.715641,7.790737,-28.745613,-1.316071,-40.54493,-9.152813,0.0,-58.84717,-53.988509,-57.902559,-51.346764,-44.219007,-46.588957,-35.24377,-39.794219,-35.258312,162.072029,-140.182127,-142.437344,-81.734158
49,10.218658,-6.316944,4.051094,10.771865,0.0,10.8284,17.157326,45.835876,28.133354,11.501427,38.88588,17.616005,50.969582,27.543869,0.0,-59.915653,-47.807895,-116.574072,-41.880828,-48.488446,-34.101387,-34.381919,-24.055321,-33.329692,0.0,30.500965,15.039768,47.711678,0.987339,20.677414,-13.668709,4.076672,-29.267063,-3.815575,0.0,-54.965894,-49.212454,-97.94202,-53.226354,-28.806351,-52.496495,-22.44609,-48.460612,-27.770581,172.753086,-146.792307,-137.923851,-71.255529
50,-3.88916,9.704726,-11.280899,0.610742,0.0,10.793037,15.008926,40.909767,26.126976,7.117195,36.639519,14.631729,48.074226,27.607498,0.0,-55.17759,-43.781536,-109.352662,-39.004092,-44.165793,-31.593626,-30.456862,-21.376665,-26.881884,0.0,23.989563,15.413303,38.608646,1.624374,13.495331,-12.726631,1.001816,-28.340206,-8.724861,0.0,-50.905187,-47.750606,-92.945686,-51.275628,-40.657274,-50.424028,-36.402547,-46.343314,-36.237241,169.137325,-137.175638,-148.931351,-70.732843
51,-14.269524,9.702904,-24.904804,-8.904934,0.0,-1.581345,6.483536,16.434402,19.233742,-2.326927,29.871941,5.205574,39.690742,16.054115,0.0,-43.11704,-47.624187,-108.743232,-42.864975,-29.182689,-35.072999,-20.283636,-25.106004,-18.285439,0.0,7.035255,18.145638,13.342781,7.29023,3.677273,-6.018448,-3.588352,-20.760212,-13.673115,0.0,-58.789588,-45.333447,-67.425213,-45.067735,-73.483639,-42.238146,-61.489239,-38.191333,-55.728527,154.277258,-128.545586,-174.426699,-80.710629
52,-24.770623,28.333112,-33.139629,-24.43013,0.0,-9.320926,0.118161,-0.249309,13.540421,-7.909126,24.832707,1.496144,35.884323,12.712899,0.0,-51.674559,-50.548339,-111.937334,-48.488925,-36.860288,-43.406665,-26.98026,-35.92084,-26.525137,0.0,-14.04808,-16.90155,-41.257038,-30.602245,-10.114231,-41.366158,-17.394562,-49.995861,-24.55101,0.0,-64.638649,-51.537666,-118.107543,-44.584338,-40.87604,-34.667608,-24.384744,-22.248797,-17.898666,128.366632,-100.990699,-208.706331,-105.918984
53,-24.770622,28.333111,-14.837093,-4.822738,0.0,-17.060509,-6.247215,-16.933022,7.847099,-13.491325,19.793472,-2.213287,32.077904,9.371681,0.0,-60.232077,-53.472491,-115.131436,-54.112874,-44.537886,-51.740331,-33.676884,-46.735676,-34.764834,0.0,-30.674057,-31.144924,-75.028496,-40.21471,-25.615425,-47.584476,-27.850227,-55.219002,-33.702793,0.0,-56.24473,-48.125076,-109.06367,-36.721828,-38.887909,-22.651811,-21.976632,-4.982239,-13.004729,102.383022,-72.571956,-224.756413,-110.65609
54,1.627922,2.197882,-7.300758,5.017252,0.0,-18.841438,-7.070961,-19.236603,5.191154,-16.513138,16.67038,-3.324394,29.584923,8.834381,0.0,-56.32394,-50.602919,-108.326494,-50.7049,-47.917085,-49.218475,-37.399971,-45.530709,-39.200304,0.0,-26.929379,-31.823158,-70.110283,-42.428856,-18.768196,-50.031738,-22.001266,-55.608959,-29.482441,0.0,-55.367781,-48.425815,-110.57072,-37.49837,-41.699914,-25.216306,-23.888981,-10.691312,-16.263762,102.423649,-70.106262,-233.644466,-105.371027
55,12.946243,-10.630086,18.603287,10.119503,0.0,-10.783539,-6.848145,-7.994614,4.854698,-8.781967,16.971016,1.823616,32.069778,10.518723,0.0,-55.552832,-48.662814,-100.53671,-48.950509,-48.174893,-46.340072,-38.205937,-41.277866,-39.21429,0.0,-13.27961,-23.121529,-47.012501,-35.031338,-13.97541,-44.883728,-18.042183,-53.615799,-28.1991,0.0,-58.998474,-49.309294,-114.319804,-41.028919,-48.222163,-30.172486,-28.040677,-16.889757,-21.888483,115.286808,-82.421532,-215.124264,-96.936708
56,17.524796,-13.800383,14.222374,3.651147,0.0,-1.369629,-4.660606,8.082275,7.711601,-1.166039,20.093079,5.657959,34.005547,10.8918,0.0,-58.170524,-44.957449,-85.883029,-43.389467,-46.909812,-39.156785,-35.253341,-32.732164,-32.456943,0.0,-4.4874,-14.19548,-17.436962,-26.908092,4.719944,-37.11628,-5.705166,-46.694183,-13.230572,0.0,-59.155644,-48.722989,-110.083694,-43.423523,-31.959883,-33.573606,-17.058829,-21.100208,-13.722207,133.083773,-98.62166,-200.629721,-95.685305
57,17.362747,-7.556676,13.730793,7.902571,0.0,-0.672112,1.953621,18.792229,14.207153,2.820168,26.462288,10.417099,40.494919,18.82988,0.0,-58.146488,-49.237123,-109.988568,-45.645503,-45.972117,-39.099311,-31.650513,-30.231798,-28.787764,0.0,12.13068,-6.91721,17.54179,-17.401886,13.854561,-25.644264,4.892635,-33.264599,-2.482395,0.0,-55.224737,-43.766346,-87.208532,-42.105599,-31.410551,-35.535386,-12.004373,-26.193197,-12.360673,151.726484,-106.759068,-185.618963,-88.363466
58,5.247345,-1.403278,21.522617,14.622621,0.0,1.84227,10.71579,23.221092,22.604942,1.261368,33.394547,10.876236,43.847923,22.67189,0.0,-61.174991,-55.156703,-128.919978,-50.450704,-45.232377,-42.466175,-29.592727,-31.197898,-27.318598,0.0,21.219006,-4.477615,30.300751,-15.137043,17.125111,-24.059429,4.597664,-33.114796,-5.169239,0.0,-53.454646,-45.160639,-91.176845,-45.315293,-25.433544,-40.927154,-15.586946,-33.985698,-20.568846,158.405399,-110.239275,-162.664776,-75.817773
59,-2.930374,-2.10856,19.179497,14.006969,0.0,-0.529747,10.499039,21.205902,22.333031,0.368958,33.616562,10.14679,45.054932,22.694321,0.0,-60.281292,-49.046176,-122.839971,-45.473868,-44.470254,-38.905029,-31.055517,-29.991743,-30.273525,0.0,16.791515,-2.09507,16.906815,-15.09201,13.464203,-28.24419,-3.025703,-42.041245,-11.423893,0.0,-56.330764,-47.76277,-104.181389,-47.703336,-31.00939,-44.217093,-18.454296,-38.884759,-24.361927,156.197004,-112.470688,-142.7633,-61.933656
60,-5.268517,2.748758,5.740986,3.084896,0.0,-4.955864,8.279114,15.363808,20.524521,-1.263771,32.286186,9.556732,43.543739,21.515694,0.0,-60.40027,-51.669055,-124.529061,-48.005187,-43.30544,-41.714842,-31.232092,-33.327639,-29.916716,0.0,10.441875,-4.353905,4.771442,-17.455673,5.255928,-30.677662,-6.904678,-44.325771,-17.536926,0.0,-63.455927,-50.571797,-113.742283,-48.928711,-33.066882,-43.931528,-22.277264,-36.71522,-23.665382,151.368113,-109.993137,-136.582689,-59.119968
61,-5.99762,3.240013,-4.50983,-0.112571,0.0,-5.158195,8.864136,12.815666,20.50518,0.574493,32.268333,9.219475,45.189857,21.532516,0.0,-60.8952,-46.28127,-111.289881,-44.241314,-44.671282,-39.289935,-31.417961,-32.121206,-31.69201,0.0,11.669655,-4.962158,4.099159,-17.441025,6.512833,-29.835033,-5.533676,-42.508621,-16.228867,0.0,-63.205838,-49.711089,-116.373097,-46.972303,-37.488397,-41.760322,-23.834208,-34.569918,-23.825717,145.655336,-106.818935,-140.807676,-59.298349
62,-1.970558,5.229642,-1.614761,-1.560649,0.0,-4.043083,8.141441,10.498466,19.496384,0.470009,31.460495,8.088455,44.403992,18.794861,0.0,-59.388551,-46.304689,-106.242942,-44.646953,-45.964058,-39.686789,-31.834622,-32.06773,-30.084276,0.0,8.903046,-6.100445,1.783562,-18.630352,4.549656,-31.042843,-6.896725,-43.547573,-17.365894,0.0,-61.851405,-49.093368,-116.818441,-46.060744,-34.982596,-40.355098,-21.689184,-32.703049,-20.353677,144.190006,-102.520504,-141.91721,-61.79021
63,-0.796051,4.603833,0.164623,1.998861,0.0,-6.904907,8.321342,12.123413,20.41626,-3.871307,32.379799,6.101074,44.23954,19.218178,0.0,-58.998613,-47.406378,-121.117382,-44.977333,-44.222928,-38.784508,-29.439478,-30.078317,-27.654088,0.0,8.801537,-5.803814,-1.205692,-19.12611,1.668663,-32.083054,-7.989464,-44.771004,-18.538284,0.0,-62.989897,-50.028115,-118.83044,-46.830895,-33.463104,-40.775001,-20.120415,-32.820313,-19.330225,143.707266,-98.280798,-141.439276,-60.155476
64,-1.643028,10.898238,0.90477,4.297705,0.0,-6.851692,6.644096,11.413193,19.1185,-3.071594,31.334267,7.614784,43.922081,19.14299,0.0,-60.25386,-50.854706,-122.274029,-48.547032,-44.650858,-43.015985,-30.494052,-34.607432,-29.889608,0.0,8.658657,-6.200466,-0.578556,-19.52116,2.108059,-32.234802,-6.89621,-44.858437,-17.712479,0.0,-62.530752,-50.00289,-119.73726,-47.192197,-31.192078,-41.411432,-19.924851,-33.587531,-20.554458,142.188463,-88.166312,-140.41028,-56.641523
65,-2.505569,10.641171,1.577969,5.722503,0.0,-7.204742,6.347008,11.268997,19.011955,-4.174461,31.589813,6.678658,44.288521,18.741646,0.0,-59.06924,-51.560637,-124.071552,-49.509072,-42.721837,-43.893675,-29.892788,-35.208171,-28.201537,0.0,7.627773,-6.135406,1.403217,-19.381256,2.709045,-31.791115,-6.987133,-44.18169,-17.421856,0.0,-61.892561,-50.581708,-119.791338,-48.190423,-30.824756,-42.413085,-20.747243,-34.322948,-20.851725,139.868431,-79.429215,-138.646774,-52.823093
66,-4.099274,13.506421,1.098804,6.265536,0.0,-10.701027,5.213699,9.340553,17.942734,-5.735893,30.461655,4.795418,42.886848,16.838493,0.0,-59.441163,-51.771144,-124.861834,-49.863581,-41.707649,-44.762349,-29.221592,-36.545746,-27.685766,0.0,8.010635,-4.514065,3.349056,-18.34877,2.604961,-31.274242,-6.293507,-43.944283,-17.447834,0.0,-60.906222,-50.746489,-119.643337,-48.168656,-30.143494,-41.777859,-18.15882,-33.146263,-17.791807,135.954237,-67.42174,-137.36289,-48.056502
67,-5.591011,18.829584,1.214848,8.051914,0.0,-10.944214,4.570312,7.611923,18.346481,-7.513504,30.945396,2.147141,42.805824,15.224419,0.0,-58.973403,-54.629601,-129.607415,-52.192035,-43.325262,-46.386477,-29.970779,-37.426153,-25.65955,0.0,7.765331,-4.080563,3.962231,-18.361359,2.360916,-31.386909,-5.598278,-44.063129,-17.433929,0.0,-59.139728,-50.680045,-120.646735,-47.584312,-28.909413,-41.194657,-13.814277,-33.010288,-14.274133,131.1131,-48.945661,-135.398169,-40.358093
68,-7.382469,19.948285,1.252556,11.199394,0.0,-7.43042,4.017448,3.843956,18.444214,-10.697594,30.737114,0.602188,41.670456,14.405594,0.0,-56.55643,-53.618191,-126.992918,-50.453051,-39.481793,-44.117489,-27.171231,-35.563266,-21.313772,0.0,8.91386,-5.815201,4.751015,-19.787807,2.965565,-31.670094,-6.460476,-43.263359,-16.30394,0.0,-55.052036,-51.962292,-120.820841,-48.772822,-26.816043,-41.398742,-17.34109,-31.97918,-16.112875,124.464598,-28.734767,-133.411646,-28.89609
69,-9.555016,25.349316,3.348942,10.369531,0.0,-6.522446,4.561615,-0.286903,19.490433,-10.471344,30.764809,0.858879,40.395584,11.247253,0.0,-57.784708,-56.090863,-126.24671,-52.271261,-36.164962,-45.029265,-23.633272,-34.974322,-19.643331,0.0,7.697468,-7.287998,4.660435,-21.263809,2.384319,-32.925797,-7.724819,-44.079037,-17.638607,0.0,-51.685157,-50.905774,-118.322496,-47.386865,-18.80723,-38.814673,-9.341818,-28.354986,-9.789231,115.319023,-1.967198,-129.653263,-17.108307
70,-3.910561,28.446223,4.868202,12.485501,0.0,-18.675156,0.265503,-11.088982,14.567986,-19.883881,24.506493,-9.127121,31.860924,-0.219498,0.0,-52.372562,-56.855735,-118.163736,-54.393005,-36.495389,-46.276561,-22.686329,-34.355675,-15.54014,0.0,8.260746,-11.09808,2.246418,-24.518738,0.898819,-34.662495,-8.263493,-43.173981,-17.232971,0.0,-45.532654,-49.477981,-112.027011,-44.846515,-13.447449,-34.735101,-3.290741,-23.152514,-5.867987,111.570139,31.463564,-124.623384,0.361734
71,-11.04332,19.646542,4.791241,9.575606,0.0,-27.025108,0.005608,-31.828537,10.400963,-22.311172,16.942635,-13.112411,21.550484,-4.957581,0.0,-36.299084,-50.995157,-80.404254,-45.683171,-17.043824,-32.178356,-5.904945,-15.393204,3.994171,0.0,5.757809,-9.052563,2.209969,-23.284149,0.863171,-34.477043,-8.722172,-43.379745,-20.562801,0.0,-35.615137,-46.321855,-100.04564,-41.383737,-3.792278,-29.0335,6.963934,-15.483514,4.909744,101.222534,51.555203,-119.136429,10.382436
72,-2.275543,4.868619,5.336552,48.07319,0.0,-48.308601,-8.213654,-55.048943,-1.870995,-43.944855,2.440453,-34.178581,5.42141,-23.833923,0.0,-38.337929,-24.962203,-25.291147,-12.965209,19.909753,3.713639,31.900942,21.173938,39.855167,0.0,12.508793,-8.920498,2.691021,-25.427055,8.059673,-37.448959,-2.395763,-46.945553,-9.903946,0.0,-49.697565,-57.721815,-122.412195,-54.464635,-21.078966,-45.088391,-13.06648,-32.391518,-11.508764,99.256182,56.98399,-113.490686,59.015795
73,-12.499123,26.743609,7.303905,25.080115,0.0,-60.235405,-23.919868,-61.233673,-19.267044,-52.014885,-14.257278,-39.132614,-9.439545,-31.2117,0.0,-7.213961,-15.767443,1.62561,-2.218013,29.83678,13.344542,45.441078,29.487736,53.783189,0.0,11.13224,-8.473434,4.19117,-24.597931,6.952171,-36.483192,-2.07922,-45.672283,-7.722301,0.0,-51.854569,-55.778375,-119.569083,-51.549059,-17.836576,-41.122779,-10.827472,-27.277411,-8.106471,87.711382,82.787589,-105.232458,83.155899
74,-7.380524,39.88527,2.147026,25.105834,0.0,-64.244385,-33.869705,-86.735401,-31.787796,-71.884117,-27.663231,-60.845833,-21.536865,-45.699806,0.0,5.411127,-10.697363,12.028239,5.398406,43.622158,22.20835,55.401235,38.111799,61.216147,0.0,22.657413,-4.062824,15.132523,-18.603916,19.068489,-26.967316,5.709629,-31.798038,0.561619,0.0,-47.095279,-53.660614,-108.193947,-51.655177,-12.143774,-40.761478,-5.443762,-25.501747,-1.170664,80.217218,121.779825,-103.199072,107.368699
75,-1.063042,17.406021,-12.54467,-1.89018,0.0,-58.458824,-33.602486,-98.940754,-28.478279,-93.650208,-20.827904,-85.432892,-13.277435,-65.572815,0.0,5.074278,0.216929,31.703032,13.834377,49.926258,28.274896,61.569298,41.960455,75.1329,0.0,43.65818,7.754288,44.595451,3.018837,31.374321,2.703266,25.841103,4.382744,23.624039,0.0,-25.89451,-30.479756,-55.62789,-18.511508,10.4189,0.28504,24.893814,18.770767,33.10489,79.126167,137.773089,-115.771751,104.065762
76,-15.700264,41.656334,12.732525,31.397553,0.0,-68.542271,-36.08551,-93.497143,-32.987251,-94.715652,-27.471542,-84.517078,-20.485497,-68.248672,0.0,20.181455,5.295901,33.379617,23.348942,47.978712,40.229838,59.910867,54.512399,67.645353,0.0,54.433193,15.196495,55.139809,13.308563,52.572441,12.471428,41.940479,12.409172,31.76342,0.0,-11.126621,-23.152823,-29.150826,-9.484431,16.931222,7.174595,29.006577,23.971325,34.928071,63.104382,178.904652,-103.360748,134.938544
77,-5.692062,12.763872,8.144131,24.289154,0.0,-55.68306,-35.608521,-92.125397,-31.087189,-97.381783,-24.63192,-89.285259,-16.507072,-67.881203,0.0,16.024911,15.555608,47.387328,33.843425,68.005235,50.039879,78.597777,63.110835,88.980615,0.0,60.167942,22.330856,69.637585,17.406635,65.93399,12.585926,56.151295,9.36739,42.703629,0.0,-2.089572,-16.222945,-1.119411,0.111089,28.306574,18.370562,44.002232,36.138008,46.829413,57.511597,191.091389,-95.11734,158.650563
78,-7.245483,19.136947,2.787666,14.892532,0.0,-53.233624,-38.091202,-91.19442,-34.334908,-97.524319,-27.635651,-87.592163,-19.716568,-66.706581,0.0,20.464581,19.673434,41.928221,37.338869,67.063047,52.878113,84.24053,64.594389,94.030625,0.0,64.610023,27.735672,88.545628,18.082352,87.516632,8.159409,70.630703,-0.09716,46.244431,0.0,12.217998,-4.960164,29.467235,9.247618,54.722474,24.673736,57.061333,40.708836,60.914929,50.759153,209.239743,-91.836634,172.554502
79,2.902908,64.519671,38.242836,38.308968,0.0,-70.088997,-36.41407,-104.102383,-36.755562,-112.858028,-34.813843,-100.796299,-30.738029,-67.431164,0.0,26.380517,17.905149,34.121055,1.207962,-7.911833,-17.925959,-44.382429,-37.586241,-60.765555,0.0,51.672421,44.042015,43.546371,37.670517,29.535027,27.326603,17.544022,13.379688,14.034233,0.0,3.786597,10.100083,61.420603,21.75572,82.956553,36.069712,96.121432,51.141568,97.890335,54.559708,273.235955,-52.696152,210.340012
80,-7.745132,-3.488404,-7.76865,12.122717,0.0,-65.307598,-27.369347,-96.472721,-25.208931,-93.816376,-24.111671,-77.313995,-25.421104,-67.83617,0.0,13.645421,32.36864,24.270444,22.745456,-6.402036,7.642725,-26.180816,-11.32589,-27.427495,0.0,71.16869,29.104958,81.716709,15.809383,76.393261,2.73531,62.30032,-8.74855,41.301041,0.0,0.300169,9.601695,52.229548,26.716439,69.255372,43.445305,77.11552,57.495068,78.952101,47.619324,269.336324,-59.660053,222.051502
81,-49.682465,25.241778,1.447277,15.453226,0.0,-42.103901,-10.937347,-33.494053,-9.684334,-23.999863,-8.756847,-20.70076,-9.019375,-18.102436,0.0,42.705844,26.261771,7.115994,12.166498,-14.866906,-7.235172,-33.271863,-28.479846,-48.686989,0.0,70.670128,29.834003,87.039757,19.068775,83.217888,8.00354,68.458443,-3.474483,46.004219,0.0,-3.105366,15.900361,54.618857,30.867178,72.480287,45.060572,79.806912,57.262392,83.915414,-2.045145,294.543105,-58.19478,237.469731
82,-27.87014,-10.111939,2.246418,14.355612,0.0,11.237183,5.055084,40.687637,-2.972317,40.767059,-11.544971,30.389442,-19.745293,5.595016,0.0,46.63422,20.73301,28.65886,21.276907,33.357943,17.141791,29.775555,11.526208,24.897149,0.0,71.56477,28.683529,86.556416,19.2976,82.099514,9.291401,69.589062,-1.511364,45.805779,0.0,-8.755035,19.880977,56.142363,35.689145,75.579108,48.981785,84.733607,58.857158,87.458344,-29.75441,284.289542,-55.787487,251.683719
83,29.28875,17.516863,4.396534,9.085276,0.0,-36.364803,-30.885086,22.798347,-35.454426,31.447906,-36.652737,23.440132,-35.473652,-40.826855,0.0,52.845262,9.140913,43.573622,6.143857,41.742043,2.627542,36.122077,1.243406,42.097294,0.0,67.834282,27.103329,84.724731,17.325726,81.782112,7.147007,69.751968,-3.969727,47.132263,0.0,-6.526031,26.511304,61.012803,41.648183,80.610346,53.440783,90.864126,61.82303,93.967393,-0.464516,301.785811,-51.389809,260.748401
84,-11.776028,-11.849472,4.484539,8.422015,0.0,-10.81953,-17.070351,35.712147,-20.985947,46.705799,-23.46405,39.172955,-24.278755,-26.201649,0.0,48.39917,28.15263,56.414065,29.947838,57.648641,28.718264,52.657355,29.217454,65.750604,0.0,68.390636,27.981148,86.372738,17.250423,82.919254,6.596146,68.883648,-4.589024,48.023643,0.0,-5.575445,28.648671,59.265761,43.944125,77.831578,55.523809,88.96388,63.336286,93.083374,-12.201118,289.928033,-46.865845,269.162111
85,-0.591774,-16.355152,0.654545,3.671618,0.0,20.09119,-11.947918,45.235462,-21.743717,51.729755,-29.277649,29.045849,-32.431984,-51.223068,0.0,-4.905761,28.289099,56.2608,46.631626,72.012095,59.083782,78.045296,69.689971,97.707986,0.0,67.743187,28.721638,86.82621,18.281765,84.636726,7.910271,70.173454,-2.196178,49.709644,0.0,-4.144749,26.926205,58.06311,43.68465,76.932245,56.193986,86.273971,64.670157,89.675183,-12.608013,273.645515,-46.026421,272.906363
86,10.084362,5.120344,1.744995,1.220373,0.0,-0.061111,-17.843628,32.194176,-26.331711,35.153732,-33.314781,14.17099,-37.044697,-58.007298,0.0,-2.13255,28.412847,54.902291,44.71829,68.274652,54.906552,71.488637,64.261925,91.274828,0.0,66.28418,29.310722,87.682343,19.599037,86.369133,9.065723,70.469398,-1.369514,48.392143,0.0,-1.384197,28.870602,58.875436,45.747669,74.895099,57.844575,84.793134,65.589312,87.026029,-2.50886,278.945553,-44.266634,274.30643
87,-10.91898,28.716041,-1.415806,0.502154,0.0,-8.861217,-8.025055,52.724819,-13.824635,54.359264,-15.835648,43.563938,-15.341034,1.481438,0.0,41.661397,13.097756,36.571249,14.666958,41.775636,14.892656,37.477869,15.441864,37.918643,0.0,67.500515,30.27832,87.876263,21.101475,86.87685,10.730095,72.579975,0.24765,51.064053,0.0,-0.289548,28.767294,59.250755,45.442128,74.009907,57.402071,83.577639,65.444383,85.648254,-13.352108,307.943423,-45.606709,275.090413
88,23.489857,-27.865491,0.339718,-0.111645,0.0,-14.792233,-30.280895,17.372131,-38.362885,22.012367,-44.16481,8.226013,-47.170258,-68.08382,0.0,0.805596,26.680315,56.502924,41.664423,67.084721,50.867211,70.767145,59.008014,87.016828,0.0,68.431664,29.696846,87.141953,20.213985,85.519981,9.50243,70.972824,-1.202431,48.809967,0.0,0.642822,28.58266,58.114733,45.2457,73.184427,57.270049,83.219486,65.060296,85.544019,10.241003,280.400223,-45.163736,275.301059
89,-16.378841,10.352827,1.264915,0.184881,0.0,26.609402,-10.051575,52.206516,-18.230495,49.530544,-22.915878,30.881939,-23.66272,-41.569805,0.0,-7.400108,16.015155,49.033285,34.725962,54.328753,48.002671,62.059288,58.767188,74.897013,0.0,67.845039,28.760777,87.463531,19.290504,85.718307,8.738937,70.967331,-1.598625,49.017906,0.0,1.242727,28.447489,56.325515,45.454787,71.649312,57.59041,81.67727,65.225355,85.063786,-5.956993,291.088447,-43.717976,275.821337
90,3.256474,1.538079,-0.231915,0.256449,0.0,13.853302,-14.379101,46.867447,-22.679501,43.991203,-26.046696,24.465294,-25.179348,-43.684387,0.0,-0.553407,16.49724,43.526754,33.673241,49.165369,46.46558,58.257438,57.509826,72.777121,0.0,67.66119,27.581921,87.168446,18.065586,86.697178,8.063107,72.753124,-1.196251,50.858517,0.0,1.439649,27.859131,55.671146,45.431507,71.084481,57.995678,80.662155,65.991801,84.16328,-2.458477,292.762362,-43.707848,276.213622
91,-1.129532,3.564357,-0.301151,0.018587,0.0,24.960136,-9.45591,49.289589,-18.046646,50.03952,-22.904606,35.753632,-24.100971,-39.663677,0.0,2.670952,15.42303,44.271958,30.06677,49.998074,41.914698,57.805857,52.255483,67.915511,0.0,68.621178,27.749119,87.379875,18.443928,87.005768,8.628216,73.797569,-0.555096,52.303734,0.0,2.579747,28.371289,55.709987,45.882223,70.915223,58.260093,80.634429,65.967903,83.927825,-3.372231,296.507324,-43.793221,276.412813
92,0.307045,6.157875,0.169029,0.635782,0.0,23.191681,-6.738625,43.181305,-16.349144,45.180702,-20.625114,29.821701,-20.571156,-16.361675,0.0,-0.027232,8.993762,24.763335,24.749318,40.404468,36.840111,49.506355,46.882271,57.763497,0.0,68.712158,27.242603,87.157288,17.851582,86.318092,7.86541,72.832832,-1.453285,50.550499,0.0,3.063623,27.883152,55.800883,45.551179,70.545955,58.108558,80.113256,65.705773,83.130257,-2.867832,302.73862,-43.426838,277.122017
93,15.644531,-20.8491,-0.225506,0.194576,0.0,-18.211842,-28.395996,18.526955,-38.624153,19.431953,-45.429382,1.812744,-48.811569,-73.215351,0.0,-5.285094,28.702579,49.645108,45.728156,62.105786,55.656449,68.32257,63.553339,88.150813,0.0,69.179134,26.389332,87.576313,16.905212,86.904202,7.209949,73.58305,-1.613903,52.297039,0.0,4.044343,27.964106,55.671516,45.944221,69.588207,58.657519,79.144947,66.385645,83.21856,12.813721,281.832277,-43.615322,277.25935
94,-9.777489,7.244867,0.027351,0.354447,0.0,1.238651,-22.933331,41.4814,-31.832943,35.362701,-34.907398,18.232613,-33.562088,-49.968395,0.0,8.864642,17.669448,43.872309,37.13818,51.257905,51.94352,61.096907,64.404383,76.646032,0.0,69.645367,26.385326,89.097805,16.850796,87.318935,7.351513,74.393063,-1.249638,53.958378,0.0,4.775406,27.488319,55.003871,45.331039,69.058511,58.078979,78.633654,66.147041,82.470886,3.088646,289.061475,-43.535557,277.598128
95,-14.644833,14.318439,0.126171,-0.349754,0.0,13.615093,-1.033344,58.205624,-8.943386,52.736721,-14.028454,36.096554,-15.989056,-35.940228,0.0,-7.312607,8.884217,36.092931,25.127354,47.205596,37.770504,51.795258,47.532627,60.697691,0.0,69.003754,25.777588,88.435822,16.239853,87.23877,6.556835,74.412575,-2.163277,53.534889,0.0,6.163679,28.381416,56.042945,46.304534,69.435374,59.01493,78.968835,66.815675,82.573639,-11.513357,303.322068,-43.366556,277.190529
96,30.163479,-19.042716,0.521679,0.381556,0.0,-24.529781,-28.70779,15.459137,-39.383068,14.816093,-46.728344,-3.905525,-50.966091,-74.871597,0.0,-6.827743,24.792482,47.441977,43.090178,59.688504,54.568407,64.809651,63.896424,83.832977,0.0,69.21072,27.204838,88.120022,17.780972,86.371479,7.74519,73.173008,-1.749859,52.917309,0.0,5.808861,27.724947,54.906429,45.172649,69.359668,57.724223,78.097043,65.760669,81.850974,18.65344,284.135644,-42.841558,277.428376
97,-16.063271,5.926681,0.030499,-1.005173,0.0,9.012451,-18.51202,40.429344,-27.87981,38.504562,-32.137642,21.728325,-32.131176,-54.597015,0.0,7.353239,17.27653,50.248595,35.127401,54.490231,48.408494,61.352369,59.893207,73.511457,0.0,67.356377,26.205254,87.061958,17.11544,86.909065,7.645683,74.12075,-1.131935,53.377876,0.0,7.604378,28.261867,56.38251,46.81978,70.311057,59.810152,79.724104,67.586011,83.165764,2.571516,289.894117,-42.829714,276.254995
98,-8.82637,7.588385,0.09201,0.427498,0.0,30.308189,-9.427299,52.916679,-17.082081,50.541687,-21.290989,38.833694,-21.180725,-38.159351,0.0,-2.259756,15.400059,44.595283,30.845566,49.738845,42.890045,55.586856,52.355643,69.697258,0.0,67.589149,26.378002,87.247925,16.943665,86.206512,7.022781,73.038483,-2.27005,51.942558,0.0,7.390289,28.441808,55.587844,46.502815,69.887881,59.103604,79.225532,66.431031,82.629461,-6.261005,297.317057,-42.743855,276.517048
99,1.788712,5.105648,0.197868,0.471526,0.0,6.034641,-12.698021,46.099548,-19.471722,50.019722,-21.257229,38.377075,-18.621025,-23.589706,0.0,24.944696,13.824373,39.196321,25.751898,41.444036,34.5622,48.828212,41.60045,58.91718,0.0,67.19696,26.516819,86.847382,17.034702,85.787888,7.009907,72.294617,-2.526798,50.952873,0.0,7.136804,27.479983,55.130706,45.616635,69.879854,58.456275,79.284997,66.213979,82.782355,-4.475813,302.308343,-42.549505,276.874213
100,15.027809,-18.234835,0.401917,0.572303,0.0,-10.109711,-22.812538,28.0093,-32.921276,27.612076,-40.015869,7.588692,-44.324512,-64.709129,0.0,-7.427463,21.604431,45.358642,40.964482,58.43213,53.492653,65.199543,63.359381,84.142346,0.0,67.160683,25.879669,87.196541,16.571674,86.224937,6.981697,72.694244,-1.849937,51.769753,0.0,6.339544,26.687849,54.522465,44.842161,69.141442,57.837288,78.694355,65.934064,82.377458,10.534229,283.867231,-42.165356,277.240238
101,-12.657909,7.739056,0.541019,0.74508,0.0,22.041721,-13.628426,47.962475,-22.349396,45.791759,-26.743069,31.883183,-26.933155,-43.894558,0.0,6.935436,16.545158,50.234578,34.148534,55.784705,46.974279,61.99834,57.401145,73.261059,0.0,67.701359,25.774727,86.337261,16.458664,85.503559,6.604671,71.338863,-2.630367,50.164089,0.0,5.133435,25.915228,54.251071,43.897195,68.662321,57.004584,78.078332,65.415546,81.760386,-2.155523,291.322404,-41.656179,277.701436
102,-1.414776,4.111713,-0.067978,-0.471958,0.0,29.552078,-10.320396,51.435242,-19.036617,49.164162,-24.069157,34.055901,-24.846725,-34.965935,0.0,2.002936,17.883413,49.647022,32.787863,53.090719,44.376625,59.136085,53.628874,71.388602,0.0,67.474651,26.424465,86.293774,17.26965,85.649357,7.476196,71.129322,-1.567383,50.822353,0.0,6.158122,27.082804,54.897784,45.226804,69.331325,58.36723,78.31848,66.76788,82.749134,-3.743448,295.290702,-41.897306,277.086063
103,1.206207,5.639356,0.160618,0.065702,0.0,18.123093,-12.0924,44.921722,-21.517124,47.504539,-25.766888,34.154205,-25.577087,-5.560226,0.0,7.678972,13.114429,36.524257,27.150668,42.606055,37.464469,50.231181,45.805097,55.270324,0.0,67.905235,27.155514,87.282372,17.610111,85.349922,7.301903,70.951195,-2.367039,49.547653,0.0,6.576604,26.685379,54.512831,44.522232,69.366893,57.378112,79.062449,65.514223,82.755309,-2.657461,300.873016,-41.856909,277.094723
104,-3.300934,-22.803933,-0.423889,-0.381247,0.0,11.803322,-10.86874,39.042892,-20.125694,39.590378,-28.564053,18.041382,-33.662052,-53.486881,0.0,-6.878378,26.552615,49.242557,45.425641,65.809205,58.026739,72.956012,68.314049,89.268866,0.0,67.853851,27.003479,86.802063,17.621155,85.172997,7.510071,70.510254,-1.853027,49.204102,0.0,6.852258,27.452628,57.05312,45.317331,70.785053,58.291339,79.706135,66.648887,83.467291,-6.027746,277.984037,-42.350149,276.62843
105,-3.871937,-1.692764,0.019684,0.004137,0.0,17.702465,-8.81361,40.468311,-17.724838,41.087322,-26.386528,19.357052,-31.762962,-54.819031,0.0,-4.801774,28.337264,51.017264,46.783162,68.690788,59.509057,74.631239,70.346934,92.353175,0.0,67.940025,27.013149,87.386971,17.511349,85.219917,7.227631,70.823135,-2.359142,49.83387,0.0,7.303345,27.352221,56.432467,45.087125,70.203488,57.937571,79.611533,66.144201,83.448087,-9.972553,276.271251,-42.403336,276.612545
106,-0.789585,-0.242185,-0.051727,0.158637,0.0,17.659035,-8.81258,43.073959,-17.754135,45.078964,-26.298294,23.203239,-31.666718,-52.789707,0.0,-5.025496,26.259918,50.761123,45.45843,68.856032,58.893838,76.697964,69.900355,92.939742,0.0,67.901917,27.106934,87.617912,17.682438,85.436783,7.374916,70.858727,-2.293739,50.195503,0.0,7.998222,27.369203,56.603947,45.205933,70.215035,58.172964,79.334274,66.456226,83.351262,-10.859442,275.998623,-42.552366,276.740739
107,-3.168297,0.946387,0.394592,-0.103926,0.0,23.368263,-4.79948,47.472496,-13.509178,48.094826,-22.671146,23.925476,-28.483658,-50.345879,0.0,-7.862186,26.980793,49.165122,46.217775,67.558903,59.433845,75.330871,70.088261,92.335453,0.0,68.10379,27.013721,87.420387,17.653427,85.348663,7.389736,70.861702,-2.163849,49.75193,0.0,8.175816,26.823391,57.129999,44.769851,70.945542,57.961345,79.633331,66.410963,83.686134,-14.151249,276.893232,-42.281284,276.585035
108,-1.008224,0.263983,-0.018311,0.24552,0.0,24.873276,-4.149342,48.178596,-12.062016,47.163734,-20.729599,22.494392,-26.095848,-49.497528,0.0,-6.126382,27.360311,47.899362,46.562528,67.570388,59.795085,73.938585,70.662972,91.434514,0.0,68.346863,27.069168,87.441902,17.868919,85.693016,7.836971,71.354485,-1.511021,50.416489,0.0,7.708613,26.956216,56.752704,45.128745,70.852052,58.356548,79.601098,66.781342,83.593817,-15.243902,277.054447,-42.384024,276.727787
109,5.169983,-2.162499,-0.3792,0.156537,0.0,22.047729,-9.758835,44.548874,-17.92551,46.47995,-25.543213,26.61232,-30.411758,-48.921661,0.0,1.342269,27.998748,50.486396,46.324665,69.644461,59.439773,76.741868,70.673223,95.428901,0.0,69.160252,26.7449,87.221661,17.586651,84.937878,7.842979,71.533184,-1.028595,51.462078,0.0,8.180942,26.620232,56.629697,44.766826,70.285616,58.047055,79.480314,66.519088,83.066839,-10.328894,274.874472,-43.018198,276.866849
110,-0.769787,1.005173,0.066319,0.131652,0.0,20.456028,-7.882233,45.604877,-16.599941,48.133564,-24.793854,28.43462,-30.212231,-47.887573,0.0,-1.031479,27.105837,49.470725,45.634789,68.959896,58.752676,76.749834,69.870282,94.095463,0.0,69.322815,26.316776,87.576599,17.277489,85.420418,7.69598,71.893044,-0.95787,51.645126,0.0,8.13784,26.871803,57.120613,44.61881,70.348848,57.529957,79.269436,65.763324,83.083018,-11.238127,275.829488,-43.091326,276.948344
111,0.348759,0.030505,-0.207825,-0.006978,0.0,22.286682,-7.769966,44.321823,-16.154881,46.677818,-24.277039,27.379417,-29.694328,-49.187222,0.0,-3.396767,26.969739,50.046177,46.035611,69.060858,59.50245,76.61386,70.747571,94.169193,0.0,69.559822,26.568947,87.570305,17.559414,85.544014,7.855682,72.223434,-0.983047,52.21344,0.0,7.9043,26.267823,56.982848,44.210393,70.357184,57.440357,79.058435,66.054045,83.242458,-10.979376,275.76959,-43.389158,276.850963
112,3.017006,-0.351483,0.297718,0.012721,0.0,16.772003,-10.751724,39.68605,-19.283524,41.547203,-27.226753,23.028946,-32.307129,-53.360939,0.0,-3.09561,28.686586,50.964221,47.02405,69.168118,59.760011,75.974249,70.556823,94.164994,0.0,69.460888,26.362953,87.304974,17.341805,85.437984,7.763214,71.716862,-0.821228,51.621838,0.0,7.92054,26.361868,57.330935,44.382985,70.88126,57.584112,79.017062,66.095171,83.033803,-8.148165,275.204173,-43.277235,276.64975
113,-1.6115,0.638191,-0.042,-0.210631,0.0,16.381931,-8.945217,41.957874,-18.140774,44.887104,-26.931095,23.765774,-32.784061,-52.647915,0.0,-5.364567,27.455036,51.638226,45.631702,69.717944,58.289795,76.842336,68.970085,93.93874,0.0,69.555187,26.856422,87.60149,17.687416,85.373669,7.854595,71.547146,-1.046906,51.339512,0.0,8.270665,27.026859,57.486793,44.91972,71.111219,57.971225,79.385033,66.209841,83.502983,-9.884005,275.653067,-43.443575,276.249823
114,1.643372,0.283496,0.420856,-0.44133,0.0,14.394093,-10.691586,39.058971,-19.569798,39.754086,-27.89835,18.542919,-33.071194,-54.085922,0.0,-7.561955,28.511524,50.193946,46.645397,68.920067,58.983623,75.611589,69.385603,92.715033,0.0,69.460144,26.841087,87.06665,17.624989,84.606514,7.608891,71.30825,-1.540833,50.943489,0.0,8.960294,26.891996,57.778687,44.799739,71.267571,57.948624,80.098374,66.404294,84.257079,-8.403282,275.775302,-43.185368,275.647232
115,-1.720161,-0.896184,-0.193577,0.066505,0.0,17.602558,-8.749924,41.909924,-17.562504,44.078579,-26.094017,23.826542,-31.599369,-50.748253,0.0,-3.957028,28.392778,51.142,46.3012,69.757279,58.921502,77.016905,69.73542,94.99739,0.0,69.455395,26.446095,87.334042,17.183018,84.974499,7.314777,71.471386,-1.62941,51.054554,0.0,8.90373,26.822279,57.774179,44.87952,71.089359,58.144991,79.842542,66.593188,83.95234,-10.225067,274.721423,-43.480568,275.556042
116,-0.735168,0.946572,-0.017338,0.068419,0.0,17.472324,-6.800423,43.310337,-15.396023,45.430241,-24.418888,25.836811,-30.744267,-49.30521,0.0,-5.471334,27.076321,49.544887,45.195929,68.285582,58.042732,76.25299,68.934455,94.200562,0.0,69.292145,26.999874,87.762909,17.882481,85.31353,8.008633,71.449585,-1.081982,50.997276,0.0,8.783934,26.814499,57.562437,44.763059,71.145861,57.89626,79.737628,66.353288,83.967284,-11.070843,275.48861,-43.608513,275.445076
117,-2.611313,-0.361487,0.137901,0.32456,0.0,23.427944,-3.92292,45.523624,-11.98637,48.104382,-21.03241,28.891125,-27.478237,-46.255302,0.0,-4.65771,26.884586,50.566363,45.570569,69.886338,58.915698,76.586566,70.332669,94.934775,0.0,69.110527,26.642876,86.944885,17.51049,84.871902,7.489471,70.645866,-1.852169,49.508743,0.0,8.417199,26.132404,57.384905,44.188286,70.746274,57.653951,79.450612,66.413927,83.649269,-13.840771,274.996753,-43.629227,275.639266
118,3.845387,0.684071,0.075474,0.616948,0.0,15.505829,-8.15752,41.382065,-16.893768,45.979156,-26.047268,27.012177,-32.344265,-51.912689,0.0,-6.410063,25.977349,51.109457,44.259978,69.07222,57.249795,76.267687,68.361473,94.897971,0.0,69.143887,27.122269,86.862202,18.235359,84.600735,8.374557,70.421848,-0.820198,49.967823,0.0,7.730596,26.064972,57.032681,43.951164,69.968404,57.348225,78.307426,66.266034,83.177064,-10.130739,275.548261,-43.689108,276.123652
119,-2.944279,-1.104962,0.353794,0.419471,0.0,21.099987,-4.959297,45.258579,-13.726559,50.030193,-23.154202,30.352993,-29.991245,-47.855759,0.0,-3.238624,25.881697,52.292904,44.397064,70.416959,57.785974,78.262843,69.26729,96.215169,0.0,68.882904,27.261028,86.356087,18.092823,84.238586,8.070202,69.838829,-1.18927,49.170227,0.0,7.816058,25.473218,56.979143,43.559049,69.915175,57.11981,77.785944,66.103013,82.704735,-13.205051,274.309579,-43.465347,276.409402
120,1.2533,0.822207,0.011845,-0.271949,0.0,19.380798,-5.842266,43.541908,-15.436935,46.504326,-25.506363,25.718422,-32.86623,-51.130199,0.0,-5.656091,24.730299,51.110507,43.368302,69.450441,56.854284,77.522393,68.356039,94.734148,0.0,68.823681,27.428226,86.674633,18.254471,84.257526,7.938595,69.850559,-1.814461,48.042583,0.0,7.687988,26.260968,57.364959,44.297584,70.463889,57.724841,78.465693,66.538724,83.543553,-12.008657,275.046339,-43.510408,276.052006
