takenoko1/special-research/HandMotion_SimilarSearch_自分用/NewProject/handData/test_key/d4_feature_d2/143.csv
frame,vel_0x_L,vel_0y_L,vel_0x_R,vel_0y_R,posFromWrist_0x_L,posFromWrist_1x_L,posFromWrist_2x_L,posFromWrist_3x_L,posFromWrist_4x_L,posFromWrist_5x_L,posFromWrist_6x_L,posFromWrist_7x_L,posFromWrist_8x_L,posFromWrist_9x_L,posFromWrist_0y_L,posFromWrist_1y_L,posFromWrist_2y_L,posFromWrist_3y_L,posFromWrist_4y_L,posFromWrist_5y_L,posFromWrist_6y_L,posFromWrist_7y_L,posFromWrist_8y_L,posFromWrist_9y_L,posFromWrist_0x_R,posFromWrist_1x_R,posFromWrist_2x_R,posFromWrist_3x_R,posFromWrist_4x_R,posFromWrist_5x_R,posFromWrist_6x_R,posFromWrist_7x_R,posFromWrist_8x_R,posFromWrist_9x_R,posFromWrist_0y_R,posFromWrist_1y_R,posFromWrist_2y_R,posFromWrist_3y_R,posFromWrist_4y_R,posFromWrist_5y_R,posFromWrist_6y_R,posFromWrist_7y_R,posFromWrist_8y_R,posFromWrist_9y_R,posFromBody_0x_L,posFromBody_0y_L,posFromBody_0x_R,posFromBody_0y_R
2,26.19112,-16.968396,0.559216,0.114732,0.0,-7.730942,-26.827183,27.634735,-38.432693,30.292168,-45.02512,18.137627,-49.323864,-15.145454,0.0,-11.4723,13.0633,43.225659,34.674771,58.025133,50.472687,62.846482,62.051136,66.884279,0.0,66.491833,22.933216,86.653004,13.306332,84.96706,4.735451,71.012478,-2.510605,50.87225,0.0,3.708174,30.565836,56.698549,48.482965,69.621737,60.655392,81.596068,67.51296,86.67683,2.364492,311.604049,-50.494223,298.366057
3,-18.329315,10.578957,-0.385437,0.092379,0.0,26.242104,-8.64212,55.645409,-19.214344,51.859818,-25.140839,37.234039,-26.890182,2.090836,0.0,-23.484546,5.998806,31.761386,26.299686,47.465072,42.089081,52.385345,53.219469,58.338887,0.0,66.707897,23.62318,87.677937,13.803635,85.579548,5.012169,71.662617,-2.413845,51.449032,0.0,3.126856,30.515757,57.237939,48.333962,69.755427,60.340527,81.099595,66.981783,86.580808,-15.968685,322.157179,-50.883522,298.432609
4,2.347069,9.533584,0.288563,-0.274234,0.0,16.405563,-12.560692,53.895264,-19.898872,47.764435,-23.995457,35.334549,-24.484634,-14.43655,0.0,-31.808316,2.826255,31.153268,18.687898,40.020195,31.12616,44.518651,39.661796,49.744588,0.0,66.3937,22.43763,87.130966,12.469196,85.351753,3.948441,71.392593,-2.835789,51.280289,0.0,3.496,30.00471,57.300801,48.282215,69.975505,60.686144,81.55698,67.615219,86.345292,-13.61701,331.6834,-50.590353,298.151012
5,-6.642323,-4.951642,0.36644,0.075336,0.0,31.025562,-3.037605,54.684048,-13.083973,54.304447,-19.374847,41.292286,-21.755562,4.414501,0.0,-26.636719,6.818542,31.349943,23.540122,46.040675,35.830862,51.348987,43.885586,58.129553,0.0,66.557579,22.231407,86.351051,12.560577,85.126762,3.958969,71.427383,-3.235188,51.546135,0.0,2.975444,30.004216,56.382572,47.821372,68.919635,60.004296,80.849259,66.909165,86.203328,-20.260935,326.729349,-50.225515,298.223939
6,0.387669,-13.753422,0.43911,-0.344135,0.0,36.994743,-7.322674,57.203178,-17.549744,58.33683,-21.435528,44.064217,-20.838432,-0.859509,0.0,-12.85341,10.607486,38.158605,29.140205,50.056736,43.333846,58.93379,54.254962,72.628797,0.0,66.2146,21.147423,85.806084,11.350307,85.060387,2.930489,71.40049,-3.698273,51.539383,0.0,2.993969,30.117343,56.524413,48.228369,69.53646,60.627357,81.628549,67.477948,85.819179,-19.860134,312.964148,-49.773273,297.868025
7,20.736694,-4.337534,-0.313282,-0.373343,0.0,-2.310677,-27.688923,31.122437,-38.691673,32.960815,-43.918819,20.367165,-46.455917,-9.922256,0.0,-12.347551,16.656124,46.118913,38.621486,58.734275,54.209019,64.681766,65.231283,69.08599,0.0,65.666142,20.98978,85.872173,11.236267,85.167217,2.93375,71.989574,-3.466244,52.233524,0.0,3.175268,30.683224,56.036214,48.906018,69.247962,61.120311,81.482756,67.690493,86.273168,0.87739,308.611995,-50.085726,297.480063
8,-12.004051,11.268894,0.133953,-0.588481,0.0,21.669617,-14.627266,51.032066,-25.223179,46.479721,-30.033474,32.186394,-30.875187,-1.205635,0.0,-20.926844,6.01591,35.330189,27.137762,46.718756,43.353667,53.261151,54.98763,54.85215,0.0,65.594902,21.96516,86.2397,11.983395,84.971809,3.24852,71.250114,-3.827419,51.444283,0.0,3.176503,31.147711,56.534663,48.9929,70.324333,61.021757,82.553014,67.563102,87.470261,-11.124601,319.875764,-49.949713,296.886456
9,0.369415,6.5172,-0.195694,0.132393,0.0,24.824066,-12.701912,51.809807,-21.850319,48.340759,-26.52729,32.449036,-27.346344,-19.699001,0.0,-32.643985,1.952548,29.83607,21.472162,41.610145,36.649919,49.045882,47.718619,52.185644,0.0,66.035156,22.47242,85.839729,12.821217,84.997787,4.217892,72.026367,-2.869549,52.382011,0.0,3.410537,30.41887,56.252217,48.416213,69.481502,60.673361,81.713703,67.46708,86.941616,-10.75902,326.387314,-50.14924,297.013199
10,-16.884098,-7.634759,-0.313396,0.191797,0.0,41.196041,3.432941,62.575321,-6.293507,62.522907,-13.788357,51.266956,-17.395706,-4.650021,0.0,-22.510001,12.197127,37.938218,29.931227,52.870579,42.625198,59.228402,50.507823,67.469735,0.0,66.225185,23.477783,86.451702,14.031887,85.448399,5.442238,71.722126,-1.773262,51.924419,0.0,2.882633,30.330197,55.465579,48.409421,68.750253,60.570609,80.687164,67.306344,86.562716,-27.64595,318.744157,-50.465469,297.196597
11,32.199612,-7.086971,-0.438881,0.150733,0.0,-16.177139,-29.834461,27.045937,-40.663548,28.867836,-45.576382,15.107574,-47.165394,-17.441826,0.0,2.518861,15.448039,42.523186,35.779485,55.813974,50.298736,61.363978,61.006814,66.415285,0.0,67.695637,22.31535,87.314587,13.199329,86.709194,5.247974,73.119335,-1.123123,53.543301,0.0,2.645388,30.235719,54.828314,48.505319,67.986154,60.6733,80.164076,67.203591,85.984917,4.536552,311.659532,-50.921459,297.349677
12,-16.559372,13.224777,0.12886,0.100221,0.0,19.662094,-12.061386,50.947952,-20.031796,47.522964,-24.476967,33.373375,-25.094776,-15.719833,0.0,-25.474144,5.754953,33.200171,23.833189,44.056078,38.03671,50.317076,47.920357,56.190899,0.0,67.376919,22.459946,87.000446,13.338432,86.536961,5.355778,73.090496,-0.988712,53.30801,0.0,2.449083,29.643285,54.985037,48.053306,67.955464,60.530286,79.865636,67.393165,86.049261,-12.034807,324.880943,-50.804586,297.446532
13,0.712166,7.105373,-0.261383,-0.930887,0.0,24.481316,-12.452259,48.974419,-20.509186,44.010544,-25.119781,29.86805,-25.789604,-39.990635,0.0,-35.20922,0.576564,33.005657,15.370851,41.602858,27.518083,48.4884,36.355308,56.145204,0.0,67.011509,22.695866,86.95673,13.58099,86.619244,5.535564,73.273602,-1.131935,53.490543,0.0,3.113147,30.255108,55.994286,48.184649,69.092351,60.338304,80.573543,67.090279,87.206278,-11.35726,332.001615,-51.100588,296.530943
14,-19.412384,-12.526318,1.04393,-0.045757,0.0,44.782219,8.999176,69.321442,-1.211071,66.909714,-9.826241,53.088455,-14.551334,7.607632,0.0,-20.29946,12.039478,36.023276,28.393086,53.224224,40.276891,59.152757,48.134323,68.202466,0.0,66.581669,22.012138,85.846424,12.700939,85.385456,4.554119,71.97401,-2.116871,51.99297,0.0,3.563863,30.034165,55.72456,47.993593,68.802865,60.044866,80.430838,66.63981,86.693503,-30.810843,319.488326,-50.097857,296.498216
15,37.624168,-13.594724,-0.319405,-0.4212,0.0,-14.233131,-34.381886,25.292587,-45.152206,26.719093,-49.646759,15.265045,-50.812054,-16.297417,0.0,5.707467,17.020698,46.842504,38.218503,61.942703,53.839381,67.684441,65.307174,74.124145,0.0,66.361027,23.245869,86.728077,13.69194,85.545902,5.160999,71.837711,-1.936512,51.988964,0.0,3.832354,30.314759,55.688683,48.278448,69.178616,60.233822,81.251563,66.782391,86.908024,6.781826,305.912128,-50.448761,296.095541
16,-23.442879,15.628782,-0.103168,0.419224,0.0,28.820229,-9.145775,56.165428,-18.682079,53.882561,-23.886566,41.596069,-25.219402,8.708611,0.0,-28.22599,3.414427,23.912971,22.879269,43.394793,39.025705,52.35342,50.993428,59.312629,0.0,66.766891,22.046528,86.156616,12.776127,86.023293,4.78117,72.2089,-1.678162,52.457085,0.0,3.378983,29.02152,55.530663,47.409558,68.907038,59.763345,80.796647,66.604859,85.831344,-16.715956,321.566675,-50.606833,296.54053
17,-15.577927,-2.910235,0.668278,-0.460102,0.0,45.754967,9.994183,70.294304,0.60648,70.131226,-7.972355,56.335716,-14.344025,22.262764,0.0,-27.57088,8.660928,28.829415,26.083004,49.361242,40.193405,58.443369,49.896741,64.560488,0.0,66.769123,21.35519,85.645123,12.188072,85.986042,4.209938,71.665821,-2.423687,51.612568,0.0,3.859462,29.725105,55.811319,48.021443,69.264881,60.253026,81.178944,67.01834,86.226361,-32.425604,318.710225,-50.070276,296.134212
18,23.943329,-17.425164,0.045547,-0.686047,0.0,6.985588,-19.155407,38.912315,-30.046291,41.461945,-36.481361,27.259598,-39.697495,-10.180206,0.0,-3.61703,20.193373,50.895554,42.360227,64.454154,57.940103,72.161284,68.650835,80.19242,0.0,65.366764,22.590237,86.920109,13.309021,85.62418,4.954147,71.786785,-2.112179,51.834812,0.0,2.075123,31.587559,56.417646,49.230269,70.083507,60.758947,82.166271,66.935903,87.695959,-8.582325,301.352477,-50.124779,295.515581
19,-11.004639,2.044,-0.660095,-1.893947,0.0,33.468361,-8.496437,57.176056,-16.957169,59.910507,-20.850048,44.143295,-21.561699,12.17617,0.0,-0.344382,19.709929,50.307011,38.891027,64.943341,53.253802,71.72014,64.435629,76.878151,0.0,64.414387,23.165989,87.525043,13.87825,88.015194,5.443611,73.971577,-1.700478,54.077396,0.0,3.29352,32.144239,59.323868,50.058712,75.619863,61.86817,89.026372,68.388705,91.192206,-19.825201,303.41579,-51.023111,293.640947
20,20.453453,19.970701,0.189342,-3.124509,0.0,-38.280945,-37.335663,22.511673,-43.664417,34.169655,-44.656906,28.410187,-42.705173,-9.276581,0.0,52.972714,12.670073,53.196683,14.300901,53.973503,13.583794,49.549086,12.816175,45.549389,0.0,63.361816,24.293175,84.896622,14.333668,83.361511,4.454784,67.49794,-4.88205,45.123138,0.0,1.132626,31.947564,63.10429,49.243916,84.071333,60.624023,95.258285,67.408479,94.981643,0.477791,323.413707,-50.98423,290.543654
21,16.410942,18.672707,-0.293026,-9.505797,0.0,-68.819218,-59.40176,-16.389313,-57.766056,-5.720215,-51.368237,0.868149,-41.876621,-33.792915,0.0,38.66607,6.047465,30.747136,-8.695817,21.890459,-24.162566,9.495855,-38.540964,-13.716063,0.0,60.303211,19.94957,76.919804,9.371452,74.321308,-1.053658,54.203396,-10.277481,24.98394,0.0,-1.246,29.391158,68.554937,45.409956,88.113701,57.780725,98.359391,65.566773,95.381601,16.805449,342.137775,-51.36054,281.089218
22,-3.512421,-42.891527,7.991524,-11.044308,0.0,-48.208466,-29.863701,-78.549728,-21.549911,-75.851097,-10.807343,-60.482197,1.351891,-37.781181,0.0,-11.640508,30.19589,58.395389,42.106556,74.736956,50.680663,81.510297,56.887999,83.624507,0.0,44.809513,28.862629,27.394123,20.099831,2.285328,7.564373,-10.676937,-7.310886,-18.913651,0.0,16.000087,26.897924,85.395571,38.710901,99.873326,48.957394,101.105864,56.514965,92.950981,13.050671,299.408157,-43.611374,270.20682
23,2.373619,-5.150849,-12.92284,-53.44245,0.0,-58.122139,-29.796638,-81.741829,-21.134377,-79.482479,-10.741081,-63.799381,-0.039482,-42.012749,0.0,26.753242,30.870142,64.090197,46.980763,79.492293,58.117759,88.546386,64.592228,89.057679,0.0,59.526443,34.682693,34.484196,22.850189,24.196587,8.19603,12.94899,-7.583714,5.101032,0.0,1.041729,34.778944,49.645417,48.775292,59.741115,58.566931,60.432102,64.625511,60.813349,15.056362,294.340317,-56.902142,216.847378
24,-0.53421,-2.691515,-41.867466,-45.501656,0.0,-58.792648,-27.608643,-82.180767,-19.052582,-79.278202,-8.736305,-64.275742,1.902237,-42.430115,0.0,29.715348,32.499798,66.020206,48.876192,81.840229,60.209183,90.728954,66.870447,91.307308,0.0,48.650665,48.794689,74.658222,49.700603,52.022495,46.698704,47.80798,41.636238,63.140316,0.0,-5.871353,-4.044281,-5.109167,11.554799,9.856539,26.562187,25.528053,41.330601,43.211518,13.691483,292.06855,-99.600277,171.765471
25,-1.075859,-0.029517,1.173306,-37.383267,0.0,-56.278782,-27.86705,-80.769596,-19.37336,-78.713493,-9.200249,-63.638649,1.659279,-41.246567,0.0,28.049075,31.813812,65.081908,47.883678,81.158381,59.032715,90.005733,65.502923,90.951626,0.0,41.115074,14.014378,43.09021,1.978741,30.8424,-9.795856,15.923939,-20.531273,3.656158,0.0,-10.761491,-40.41617,-30.114935,-36.156564,-22.562273,-26.835371,-9.827918,-15.223144,0.190747,12.671499,292.705181,-98.371096,135.048352
26,-0.363922,-0.830728,4.049149,-54.870366,0.0,-57.563496,-28.540535,-82.110729,-19.604645,-79.360085,-9.36676,-64.855213,1.093369,-43.62608,0.0,29.334101,33.358499,65.542134,50.201171,81.424649,61.691811,89.677036,68.231241,91.851453,0.0,15.227222,-12.950134,11.590405,-31.001759,-2.602959,-45.574207,-16.617107,-57.286377,-28.913097,0.0,-42.399655,-53.455417,-41.873911,-47.575265,-25.405077,-35.749351,-10.552837,-20.525003,-1.554011,12.280855,292.173001,-94.348669,80.476533
27,0.751877,-0.591507,-8.526878,-60.383906,0.0,-58.818913,-29.023476,-82.171898,-20.432281,-79.714565,-10.1437,-65.271606,0.653687,-42.647953,0.0,28.827809,32.187217,65.176572,48.747072,81.096322,60.186521,89.465479,66.964246,91.408517,0.0,0.897789,-16.127243,-2.389355,-34.685555,-14.290295,-49.672222,-26.542969,-60.323582,-40.571709,0.0,-53.683307,-54.789998,-34.088111,-46.962207,-14.950732,-35.307558,-2.511945,-21.686498,2.108715,11.445093,291.917045,-104.463186,20.428179
28,-0.891037,-1.266995,-9.238129,-38.083671,0.0,-58.673401,-28.937073,-81.969337,-20.198364,-79.755821,-9.811363,-65.087471,1.075172,-43.169003,0.0,29.794018,32.448112,65.553867,48.763065,81.708948,60.109395,89.767068,66.791716,91.651876,0.0,-1.795921,-11.658783,4.893894,-27.32832,-6.871662,-41.686363,-18.073597,-54.288311,-31.826134,0.0,-63.953975,-51.296345,-50.694834,-43.458674,-24.334479,-32.974658,-8.882982,-20.760087,-6.66006,7.976933,293.70069,-116.278439,-14.604852
29,1.106987,-0.356176,-0.413647,-37.552679,0.0,-59.310608,-30.442314,-83.574028,-21.648445,-81.223297,-11.132355,-66.378479,-0.213089,-44.678421,0.0,29.444325,32.061431,65.008919,48.722495,81.241806,60.263339,89.893903,67.023774,91.801559,0.0,1.644115,-9.062519,1.221485,-25.133343,-10.413437,-40.196114,-21.073551,-54.071674,-35.296268,0.0,-70.447958,-45.423294,-53.398514,-39.301297,-24.481939,-30.368081,-11.358186,-19.433812,-10.918245,5.009594,295.227207,-120.766411,-50.274839
30,0.711021,-0.218905,-3.547955,-18.736588,0.0,-59.907532,-31.232529,-83.016529,-22.805901,-81.368523,-12.322083,-66.173058,-1.097031,-44.991188,0.0,29.421787,32.456202,65.364108,48.87329,81.700735,60.196278,90.215932,66.869151,92.180398,0.0,15.400887,-2.997608,6.420021,-17.559414,-4.71817,-31.718102,-15.929661,-45.812073,-30.375538,0.0,-81.196913,-41.339801,-63.679958,-35.515286,-36.668784,-28.824475,-24.004979,-20.084044,-18.943544,4.918699,295.489198,-125.116282,-68.53053
31,1.452942,0.015746,1.499004,-10.91244,0.0,-60.81871,-31.369972,-84.400005,-22.92263,-81.960411,-12.447281,-66.380024,-1.268578,-44.979572,0.0,29.40709,32.190058,64.713135,48.663894,81.235693,60.015534,90.37179,66.641477,92.186758,0.0,15.677834,-0.919304,10.725117,-14.927044,-3.386593,-28.482285,-14.724827,-41.314831,-29.435062,0.0,-73.645054,-37.503557,-79.811728,-33.370015,-51.272324,-28.859395,-37.139415,-23.444995,-32.987533,4.946136,295.673724,-125.042782,-79.274191
32,0.754852,0.001976,-1.349316,-7.577146,0.0,-60.617409,-30.441628,-84.140625,-22.054825,-81.820965,-11.858253,-66.998234,-0.984993,-45.238152,0.0,29.126496,31.856482,64.024371,48.303457,80.644247,59.690356,89.275596,66.400465,91.454645,0.0,9.447556,0.322723,13.824005,-14.227638,-0.698948,-28.11676,-14.043674,-40.84362,-29.261684,0.0,-70.394821,-38.345308,-78.427716,-35.86677,-62.684896,-32.722593,-47.82273,-29.100005,-43.968578,3.268061,295.883969,-128.825026,-86.643068
33,1.137199,-0.387422,-1.012917,-10.878076,0.0,-60.260525,-30.520592,-85.205956,-22.050018,-83.063965,-11.809616,-68.466282,-0.957069,-46.102695,0.0,28.083532,31.89699,64.108845,48.552373,80.01322,60.14731,88.838095,67.035383,91.627855,0.0,4.438477,-3.652668,10.555515,-17.588425,-2.12019,-31.043072,-15.726242,-43.947544,-30.626335,0.0,-70.58634,-40.51974,-81.566798,-38.126186,-58.389553,-34.981331,-42.325477,-31.003709,-38.711549,1.832514,295.305969,-132.410688,-97.711722
34,1.315498,0.202047,-2.423229,-12.092614,0.0,-60.385551,-30.617752,-85.527077,-22.249603,-83.99231,-12.169876,-69.059715,-1.547127,-46.814861,0.0,27.894267,31.442507,63.468617,48.130247,79.798884,59.782488,88.206141,66.724469,90.928161,0.0,9.031105,-13.874016,-2.96814,-26.635609,-6.026058,-39.025211,-18.481178,-51.744633,-33.471794,0.0,-73.6315,-41.300296,-85.671379,-38.015561,-44.36764,-33.427212,-27.748875,-26.120146,-26.76922,0.485086,295.274137,-137.496843,-110.038215
35,0.762291,-0.147151,-6.111202,-6.621281,0.0,-61.123352,-30.298576,-85.721569,-22.194672,-84.293861,-12.344971,-69.966145,-1.797066,-47.555523,0.0,27.404462,30.883234,62.859943,47.525958,79.165078,59.264958,87.720968,66.369528,90.902534,0.0,7.669544,-19.171543,-33.413086,-32.810726,-12.47097,-45.451183,-21.590824,-57.648811,-36.698685,0.0,-66.192999,-42.944803,-99.49126,-36.823299,-22.892823,-27.739597,-11.507436,-15.451003,-8.775382,-0.730133,294.77453,-145.585556,-117.011952
36,0.587883,-0.258858,-9.304962,11.644584,0.0,-61.29261,-31.093254,-86.574326,-22.800407,-84.635639,-12.679253,-69.681931,-1.8853,-46.942463,0.0,27.903282,31.397367,63.535925,48.076957,80.313636,59.654665,88.831734,66.374159,91.121007,0.0,9.212608,-23.628674,-51.794643,-36.250706,-16.296501,-47.223473,-22.348709,-57.423306,-35.253353,0.0,-62.51056,-45.330067,-107.116927,-35.764063,-23.186631,-23.710985,-7.935144,-9.333235,-3.18064,-1.371431,294.402715,-156.119699,-105.480325
37,1.215134,-0.139494,-7.580395,14.485319,0.0,-61.888676,-32.080193,-87.283745,-24.258728,-85.131168,-14.428596,-70.57148,-3.48587,-47.889633,0.0,27.263177,31.498329,62.98505,48.322723,79.798143,60.012941,88.524835,67.030875,91.117364,0.0,8.797703,-30.684643,-68.419418,-41.737576,-19.435444,-50.743332,-24.883919,-58.401947,-34.892979,0.0,-57.349367,-44.657991,-101.686102,-34.325943,-15.292582,-20.086143,-3.010641,-4.455971,4.235492,-0.789299,294.774947,-164.333096,-90.48328
38,0.001259,-0.681786,-6.864109,15.112641,0.0,-62.050209,-32.202988,-88.194523,-24.044037,-85.507107,-13.971405,-70.49818,-3.189812,-47.862568,0.0,28.004429,32.033211,64.247969,48.938992,80.952382,60.646438,89.74984,67.404712,92.044176,0.0,7.089729,-30.062141,-73.592319,-41.275063,-18.189697,-48.104267,-21.935463,-51.987133,-33.902321,0.0,-47.285532,-40.904924,-83.767413,-29.82514,-5.037382,-13.849074,13.10424,2.465107,19.571577,-1.19854,294.258466,-171.607704,-75.205333
39,-0.788727,0.600399,-11.676579,6.562926,0.0,-61.503754,-30.780258,-87.087936,-22.653122,-85.215855,-12.811203,-70.339909,-2.290764,-47.557354,0.0,27.02939,30.679025,63.032845,47.541148,79.992348,59.269404,88.619251,66.073126,91.108102,0.0,17.257519,-23.79221,-64.730186,-32.202301,-18.760529,-33.073254,-12.417011,-30.628567,-16.456318,0.0,-18.623863,-24.021806,-48.098137,-13.869513,16.804078,-1.978915,33.560793,8.777543,36.848601,-1.877661,295.288448,-183.174677,-68.212824
40,-1.124954,-0.510058,14.395008,75.78168,0.0,-60.017738,-30.566597,-86.758804,-22.508583,-84.934959,-12.743111,-69.498539,-2.25071,-46.883583,0.0,26.902555,30.496244,63.459355,47.470753,80.601084,59.369748,89.402185,66.355017,90.984416,0.0,-0.636063,-34.88863,-90.08852,-46.247635,-23.513031,-53.402481,-27.345543,-58.146229,-39.74968,0.0,-53.506269,-45.985748,-82.407592,-35.252291,-13.650484,-20.988008,-0.003983,-5.248044,6.094395,-3.043499,294.74932,-168.820553,7.539787
41,-0.921364,0.210322,3.718357,7.709786,0.0,-60.342979,-30.498619,-86.219959,-22.353287,-84.121742,-12.581177,-68.259144,-2.230225,-46.254559,0.0,26.903172,30.08937,63.311709,47.112539,80.709517,59.003383,89.125111,65.973831,91.121934,0.0,2.560673,-41.205254,-87.180519,-50.929585,-19.518929,-52.771854,-21.418934,-51.635513,-30.875874,0.0,-25.571648,-28.172946,-41.671494,-13.756911,0.848358,3.544258,17.658827,20.162683,29.452662,-3.864241,293.557985,-165.001574,13.847916
42,-0.303841,-0.831284,10.388832,59.666891,0.0,-60.597668,-30.322151,-86.427841,-22.174759,-84.224625,-12.288551,-68.449173,-1.812744,-46.155853,0.0,27.722045,30.939426,64.019554,47.61247,81.130594,59.301329,90.114599,66.11666,92.147979,0.0,-1.085587,-36.553574,-94.359627,-49.005775,-17.632313,-55.242348,-26.586914,-58.586483,-39.905148,0.0,-42.549091,-45.313873,-60.441519,-34.801668,-11.948797,-19.828798,1.506895,-4.435563,8.70863,-3.413715,292.8408,-153.858376,73.628906
43,0.568886,-0.161169,0.424576,-1.929978,0.0,-61.079693,-30.123596,-87.066135,-21.935921,-84.833393,-12.060814,-69.287109,-1.63662,-46.70517,0.0,27.890253,30.490871,63.962312,47.195593,81.242794,58.884822,90.482014,65.726274,92.26092,0.0,14.147758,-32.155094,-25.828915,-45.067806,-17.083282,-50.165234,-20.781498,-51.185303,-30.819397,0.0,-10.974962,-21.374874,4.48521,-7.523053,16.526417,8.121785,29.054896,21.634813,38.772034,-2.329588,293.305302,-152.918558,72.324599
44,0.008354,-0.08219,-20.267315,-2.878928,0.0,-61.347885,-29.522781,-87.093716,-21.189079,-84.579105,-11.352425,-69.480858,-1.117401,-46.961918,0.0,28.143924,29.442226,63.687337,46.373633,81.141956,58.41941,90.292934,65.642787,91.994652,0.0,45.761089,0.846119,33.597164,-10.108166,23.873234,-17.120476,17.751904,-21.702232,7.107468,0.0,13.341238,4.506823,35.137528,16.117506,51.946731,27.091697,61.132815,34.863418,64.631377,-2.411213,295.008919,-173.275852,71.231478
45,-1.133537,0.066135,42.95763,70.35737,0.0,-61.119289,-29.898949,-86.67366,-21.624985,-84.240246,-11.624451,-68.387718,-1.082497,-46.487617,0.0,27.623121,29.216158,63.983554,46.083344,81.397355,58.181547,89.813751,65.429378,91.482062,0.0,-6.132774,-31.188126,-11.621418,-45.787582,-14.531479,-53.681087,-22.57925,-56.271,-32.233658,0.0,-18.792379,-39.882522,-16.852706,-29.723715,-1.677141,-14.678505,8.069729,1.386606,17.930097,-3.005962,295.837502,-129.779434,142.351295
46,0.628166,-0.053352,3.962288,7.287969,0.0,-61.518402,-30.441628,-86.842575,-22.23381,-83.84531,-12.30217,-67.997761,-1.956825,-46.535797,0.0,27.368647,29.401965,63.362221,46.127558,81.507827,58.032728,90.152946,65.171694,92.209482,0.0,-5.507069,-28.625221,-6.602325,-44.905128,-16.660881,-53.306236,-23.205242,-56.495247,-32.36681,0.0,-19.405684,-42.082937,-11.640632,-30.75541,-2.275256,-14.334401,7.991862,2.395051,17.614367,-1.823845,295.780336,-125.263195,149.635451
47,-0.168343,0.039397,2.412701,1.95613,0.0,-61.328716,-30.751419,-86.461258,-22.49691,-83.719139,-12.358131,-67.653236,-1.597824,-46.041927,0.0,27.362287,29.221777,63.594094,45.653068,81.676714,57.427698,90.307446,64.502072,92.292783,0.0,-1.394119,-22.405071,-12.277451,-35.638447,-23.083591,-43.945026,-26.898994,-48.54681,-34.011211,0.0,-15.915119,-35.376132,-13.219034,-24.174607,-4.353836,-9.799852,8.168406,4.651288,17.608624,-1.463699,295.81206,-122.322006,151.583908
48,0.473442,0.233478,3.144321,-1.382777,0.0,-61.627922,-30.176582,-86.363068,-22.056313,-83.496208,-12.127419,-68.062992,-1.540489,-46.166725,0.0,26.889217,29.002872,63.273362,45.308562,81.641578,57.052564,90.54926,64.164236,91.955441,0.0,-6.271935,-24.259644,-11.100197,-39.774857,-21.844025,-48.939571,-23.647213,-52.896538,-32.266388,0.0,-10.070134,-40.128289,-9.634608,-28.393148,-3.133031,-12.942207,9.305046,2.594567,17.861986,-0.821228,296.018369,-119.008656,150.173961
49,-0.547714,-0.165059,1.881294,-4.000809,0.0,-61.662827,-31.364937,-87.337132,-22.5317,-84.786015,-11.812248,-68.356361,-0.762749,-46.016979,0.0,27.892723,30.992408,65.000645,47.751902,81.881787,59.348815,90.83992,65.992418,92.194353,0.0,-4.88863,-28.300724,-9.23069,-43.461056,-19.222183,-51.964188,-23.73539,-55.538521,-33.14352,0.0,-8.136173,-40.257564,-6.050614,-29.241321,0.307579,-14.01969,10.112186,2.271427,18.07731,-1.3486,295.915631,-117.107019,146.235473
50,0.416336,1.148249,-4.909344,-1.644537,0.0,-61.919975,-30.904655,-86.447926,-22.891846,-84.274979,-13.036194,-68.768291,-2.537384,-47.239723,0.0,25.826307,29.735664,62.364149,46.368817,79.228125,58.218782,88.096596,65.555411,90.417485,0.0,0.231056,-24.855824,-4.46085,-40.507336,-11.762524,-49.486656,-16.434574,-53.644638,-26.467152,0.0,-6.024494,-41.030957,-5.159062,-31.078365,2.290817,-16.074342,11.847125,0.040385,17.52489,-0.864916,297.134584,-121.949015,144.66164
51,-0.328217,0.269973,-0.83416,-4.157408,0.0,-61.489792,-30.925827,-86.21006,-22.453995,-84.05714,-12.157974,-68.373241,-1.254959,-45.863285,0.0,26.053549,29.98211,63.329123,46.375918,80.092446,57.873721,88.753558,64.772354,90.230937,0.0,-0.840569,-21.129456,-6.534691,-35.800037,-15.928288,-45.030098,-19.334507,-49.896526,-30.131721,0.0,-6.161333,-37.923182,-7.569767,-26.524426,0.786453,-10.950262,12.711199,5.598478,20.795007,-1.069393,297.499699,-122.659435,140.599374
52,0.125542,-0.120722,1.570129,0.073668,0.0,-61.418552,-30.758629,-86.28994,-22.376518,-84.036598,-12.241173,-68.40168,-1.646576,-46.060181,0.0,25.770176,30.027373,62.798069,46.716039,79.865698,58.423485,88.793202,65.430304,90.519558,0.0,-7.954102,-22.061005,-10.530739,-35.699215,-20.453911,-44.899235,-21.179638,-50.161572,-31.625404,0.0,-13.901809,-35.708195,-9.735508,-24.698899,-1.253966,-10.23828,11.19714,5.279722,19.02135,-0.738688,297.451858,-120.884142,140.745923
53,-0.927086,0.026491,2.76638,1.110952,0.0,-61.397324,-30.974007,-86.392879,-22.559967,-84.041634,-12.28466,-68.349667,-1.469307,-45.906944,0.0,25.935667,30.312474,63.382228,47.151627,80.276894,58.927677,88.803823,65.791359,90.762855,0.0,-11.540451,-25.438042,-11.94809,-40.009918,-19.759712,-49.07032,-20.817146,-53.337536,-30.877419,0.0,-14.447435,-40.569372,-8.038576,-28.892277,-0.348952,-13.435593,10.886165,2.889858,18.150299,-1.509762,297.591105,-117.96175,141.969631
54,-0.145454,-0.22718,0.207024,-0.598485,0.0,-61.30085,-30.046692,-85.943699,-21.59317,-83.993397,-11.511269,-68.748665,-1.015434,-46.645947,0.0,25.784317,30.044663,62.717732,47.117602,79.67915,59.21352,88.039971,66.519149,90.89673,0.0,-13.179588,-25.76889,-12.171478,-40.064907,-19.922848,-48.881092,-21.044083,-53.08651,-31.400928,0.0,-15.810174,-39.177611,-9.109019,-27.442995,0.685491,-12.087581,12.207562,3.530024,19.223459,-1.430597,297.389228,-117.530107,141.396448
55,-0.513954,0.394647,1.536312,-0.285163,0.0,-60.87822,-30.137444,-85.741024,-21.763229,-83.946648,-11.651917,-68.499241,-0.852699,-45.813618,0.0,25.44895,29.583573,63.182342,46.281625,79.895338,58.133505,88.485809,65.314461,90.951009,0.0,-13.175468,-28.442688,-12.552166,-42.480698,-18.686428,-50.535793,-22.117252,-54.064121,-32.372017,0.0,-16.587427,-38.311777,-7.880588,-26.634651,3.362433,-11.227028,13.358714,4.493701,20.102847,-1.726112,297.835838,-115.775356,141.163248
56,-0.383606,-0.36513,-1.250439,0.604413,0.0,-61.05669,-30.494156,-86.207428,-21.929054,-84.008389,-11.631317,-68.314018,-0.951118,-45.850468,0.0,25.751404,29.857991,63.353206,46.501333,80.184268,58.356733,88.472841,65.446483,90.684123,0.0,-8.071918,-27.535515,-8.627758,-42.055492,-14.792919,-50.505924,-19.596977,-54.491615,-29.752235,0.0,-15.171706,-40.494994,-6.271372,-28.906418,2.853734,-13.218478,12.30908,3.050347,18.91835,-1.884069,297.526375,-116.800146,141.823329
57,0.2742,0.460535,0.262356,-0.254597,0.0,-60.860195,-30.213089,-86.379204,-22.014084,-83.9855,-12.018127,-68.745861,-1.415176,-46.530762,0.0,25.316557,29.181083,62.449365,45.681782,79.427085,57.436343,87.973774,64.646321,89.740639,0.0,-9.056396,-27.098579,-10.839958,-41.473331,-18.090935,-49.909458,-21.566734,-53.920097,-31.459351,0.0,-14.869129,-39.949429,-9.858083,-28.508282,0.145175,-12.952643,11.164474,3.142787,18.358768,-1.547499,298.089446,-116.47542,141.671269
58,-0.756226,-0.535808,-1.529388,-1.684428,0.0,-60.524197,-29.768143,-85.889683,-21.275139,-83.683434,-10.959435,-67.683563,-0.138474,-45.96405,0.0,26.75034,29.983098,63.419834,46.678742,80.57626,58.513394,89.138202,65.562512,91.035421,0.0,-7.996101,-25.674133,-9.301815,-39.639587,-15.337486,-48.317757,-18.780155,-52.672005,-28.607826,0.0,-13.794579,-38.472359,-7.709323,-27.252433,1.75507,-12.06001,12.400409,3.756092,18.991586,-2.23875,297.58476,-117.939835,140.017963
59,0.448952,0.155796,-3.967094,-0.799297,0.0,-61.417007,-29.989586,-86.817856,-21.625214,-84.446411,-11.560822,-69.248085,-0.970345,-46.871109,0.0,25.924922,29.977726,63.208401,46.758894,80.126964,58.593607,88.943626,65.696943,90.706168,0.0,-3.851681,-24.062977,-3.254814,-37.400951,-9.034023,-45.549259,-14.845905,-49.663353,-25.93586,0.0,-13.58259,-38.502432,-6.448102,-27.313041,4.214836,-12.193669,12.75782,4.038786,18.387605,-1.690493,297.750143,-121.807623,139.228253
60,-0.292969,0.250027,0.784607,-2.987423,0.0,-61.461926,-29.915085,-86.880856,-21.446342,-84.806728,-11.369476,-69.562683,-0.861053,-46.960144,0.0,26.005198,29.867563,63.103734,46.53968,79.86471,58.349199,88.625241,65.393069,91.250436,0.0,-6.100388,-24.498367,-4.14196,-37.923775,-9.32785,-46.138515,-14.949703,-50.305424,-26.910725,0.0,-13.491137,-38.347994,-3.931587,-26.69495,6.585681,-10.847633,15.173064,5.642629,20.750176,-1.872196,298.007349,-120.911751,136.248008
61,0.429039,-0.543404,0.732307,-1.939117,0.0,-62.292767,-30.13401,-86.99667,-21.761971,-84.601421,-11.611977,-69.849701,-1.009254,-47.953491,0.0,27.30807,31.140486,63.57032,47.856446,80.798685,59.666027,90.236495,66.714713,92.90967,0.0,-2.441368,-24.202595,-6.644783,-38.116035,-12.755699,-46.572647,-16.958199,-50.94738,-28.167744,0.0,-5.264593,-37.463728,-5.320601,-25.516382,6.406204,-9.333729,16.754523,7.55328,23.025957,-1.174707,297.44434,-119.910994,134.289285
62,-0.090408,0.074471,-1.284256,-0.970161,0.0,-61.910648,-30.540733,-86.495304,-22.257729,-84.773769,-12.32151,-70.219631,-1.807365,-48.308258,0.0,26.994193,31.369209,63.495232,48.625671,80.13283,60.80773,90.059333,68.169985,93.23071,0.0,2.271481,-22.88063,-3.409538,-37.002411,-11.182823,-45.842285,-15.852985,-50.464897,-27.6194,0.0,-3.351596,-37.792302,-4.667868,-25.369323,5.565349,-8.863222,16.439226,8.54882,22.750118,-0.847263,297.456026,-120.777397,133.256339
63,-0.271568,0.36229,0.718174,-1.311332,0.0,-61.918774,-30.390129,-86.089096,-21.94828,-83.827057,-11.724586,-68.679256,-0.876045,-46.520004,0.0,27.058784,31.120417,63.689869,48.082144,80.528218,60.057092,90.232666,67.206802,93.689392,0.0,-3.894825,-25.285664,-4.225788,-38.863792,-9.764957,-47.015705,-14.959373,-50.751572,-28.144341,0.0,-4.636344,-37.135123,-4.716219,-23.64096,8.614213,-6.858248,17.490403,10.503529,23.547624,-0.399456,297.796055,-119.339848,131.922747
64,-0.328789,0.792999,0.541306,-1.508192,0.0,-62.225189,-29.742966,-85.693474,-21.10405,-84.290028,-11.111183,-68.693218,-0.886459,-47.947712,0.0,27.767246,31.208535,63.439533,48.492784,80.416882,60.723194,89.365875,68.093785,93.068183,0.0,-3.518887,-24.430161,-5.638905,-37.437057,-11.309166,-45.929832,-16.556683,-50.485268,-28.983078,0.0,-1.713203,-34.468802,-1.456075,-21.575995,8.558514,-5.272559,18.052455,11.514383,24.482278,0.901995,298.503298,-117.168303,130.328799
65,0.105743,0.055143,0.860538,7.098179,0.0,-61.769886,-30.333366,-86.697521,-21.595116,-84.510269,-11.345444,-68.872089,-0.751534,-47.083626,0.0,27.260337,31.470974,64.102053,48.594857,79.918186,60.67719,89.906686,67.836594,93.121042,0.0,-7.869587,-28.408585,-4.449177,-45.351791,-14.502583,-54.336147,-21.783543,-57.007656,-29.688435,0.0,-8.801101,-42.147805,-19.066273,-30.898795,-9.64316,-14.637318,0.515739,3.131549,8.720949,2.21735,298.474136,-115.098152,137.342673
66,0.365753,0.991712,2.06686,-2.857902,0.0,-61.416435,-30.688362,-86.003208,-22.239304,-84.45322,-12.187843,-69.008732,-1.452484,-47.314739,0.0,26.301168,30.997287,63.102808,48.331677,78.699295,60.411293,88.416401,67.634176,92.621481,0.0,-2.070351,-30.07822,-3.079491,-43.89164,-13.048611,-50.572815,-19.928055,-51.787777,-29.045048,0.0,-11.566964,-37.897216,-11.433459,-24.828637,-1.587541,-8.361253,9.436976,8.711964,17.690412,4.044113,299.141442,-111.570282,134.160365
67,0.818367,0.480418,-3.2131,2.264789,0.0,-61.839294,-30.531693,-86.54623,-21.956062,-84.538307,-11.866951,-69.015942,-1.408768,-47.044659,0.0,26.016498,30.644321,62.677409,47.902512,78.430001,59.981263,88.460553,67.016672,92.163972,0.0,4.632854,-29.444218,6.375961,-42.623234,-5.058117,-47.675686,-13.852615,-48.044415,-23.108654,0.0,-12.936588,-39.883171,-6.881188,-26.072012,1.762851,-8.819039,9.690245,9.182533,18.795467,6.803141,299.448604,-112.842722,136.251898
68,1.021729,0.109792,-2.81353,5.809849,0.0,-62.676773,-30.459366,-87.296047,-21.659889,-84.811821,-11.528435,-69.748936,-1.19751,-47.673855,0.0,26.404785,31.022481,62.056632,48.645863,77.953967,60.923265,88.424614,68.105085,93.112458,0.0,14.90942,-23.873177,11.06472,-34.852066,-1.508732,-39.862804,-9.056911,-40.833263,-17.069321,0.0,-14.936282,-38.148664,-12.2184,-24.901317,-1.458668,-7.610862,7.935978,10.185298,18.878027,9.527121,299.534144,-113.954,142.037495
69,0.742378,0.287139,-2.949543,6.824964,0.0,-63.474083,-30.00721,-87.39893,-21.107368,-86.047096,-11.014023,-71.023979,-1.10939,-49.525623,0.0,26.613995,31.125357,61.430236,49.115043,77.386728,61.602087,87.210724,68.65911,92.272467,0.0,24.270859,-22.788849,14.089394,-32.89341,4.111633,-36.92482,-2.620811,-35.929356,-10.112629,0.0,-13.313265,-34.579984,-17.388607,-20.387176,-4.779235,-3.259063,6.27236,14.164989,18.153201,12.903357,298.434971,-114.269686,147.476147
70,1.668892,-0.24552,-2.631111,7.515643,0.0,-64.051609,-30.058022,-87.922325,-21.859016,-86.382866,-12.235565,-71.886578,-2.418137,-50.048962,0.0,24.534612,31.503825,61.403251,48.96573,76.104357,61.066341,86.744447,67.940891,92.01645,0.0,34.401283,-19.327755,24.550209,-28.671455,11.931896,-31.308403,2.381859,-28.764896,-7.273464,0.0,-14.040809,-35.266031,-14.252674,-20.772345,-0.86148,-2.717327,7.822357,15.04345,16.793086,17.033358,296.795621,-114.439688,153.597959
71,1.723938,0.021427,0.004978,7.918194,0.0,-65.001068,-31.115112,-89.035149,-22.712288,-87.85223,-13.064461,-74.107933,-3.327599,-52.752972,0.0,22.544767,31.543778,60.587034,48.901016,75.15056,61.091967,85.666902,68.165477,92.06548,0.0,43.591862,-7.993183,36.467972,-21.250305,5.917568,-26.964111,-1.371288,-27.638969,-5.652924,0.0,-6.474222,-31.239873,-5.35796,-16.166937,6.551904,1.675906,16.141002,18.851228,24.83404,21.640778,295.547753,-111.551228,160.246858
72,2.904854,-1.032899,1.948471,14.400937,0.0,-65.493622,-32.207451,-91.126099,-24.22348,-90.066776,-14.663086,-75.901451,-4.953003,-54.200649,0.0,21.311796,31.649062,60.225486,48.871437,73.754136,61.020831,86.28805,68.032158,93.022426,0.0,48.424358,-3.831024,47.455559,-14.984608,20.61676,-21.1306,10.259514,-23.425827,4.977608,0.0,-17.891935,-28.40451,-3.569297,-17.57392,13.146971,-3.46284,19.831207,11.922955,25.647972,28.006554,293.06886,-106.141834,173.201801
73,1.234474,-0.987266,-2.299919,7.457103,0.0,-66.375446,-31.891708,-91.810226,-24.318008,-90.909176,-15.156555,-77.04483,-5.633926,-54.443264,0.0,20.872442,30.669762,59.300341,48.014218,73.618409,60.470388,86.31806,68.037592,93.321854,0.0,66.190109,4.710217,45.203934,-6.923161,28.697433,-12.558002,17.042885,-14.1572,10.369835,0.0,-0.696977,-11.732208,8.739536,5.97781,17.081708,24.183684,29.272906,40.722976,40.123318,30.833101,290.74476,-106.84968,179.322069
74,-0.318604,-0.619727,4.527798,12.272092,0.0,-65.277901,-32.986107,-91.384392,-25.838699,-91.201572,-17.060738,-77.437305,-7.430534,-55.976887,0.0,21.805058,31.563414,58.526546,48.479446,71.975045,60.405797,84.965047,67.47838,92.384359,0.0,71.313057,7.986259,61.693954,-3.978767,44.038067,-11.922455,23.236027,-15.553207,13.261642,0.0,1.674362,-6.937288,14.373829,7.413816,27.952682,23.914144,33.645144,41.177645,42.980016,31.444416,289.352427,-101.391964,190.821555
75,-0.585938,-1.014559,10.583038,12.462468,0.0,-65.049992,-33.138657,-91.50856,-25.84671,-90.594349,-16.798782,-77.087231,-7.134361,-55.653763,0.0,20.667492,31.301284,57.064729,49.142769,70.789746,61.599,83.670511,68.857514,92.243568,0.0,60.861397,2.764378,55.131397,-8.644352,51.299057,-16.473541,40.855408,-21.59586,15.975151,0.0,2.145889,8.146361,40.143819,22.82005,44.228547,35.064107,44.806408,45.286394,46.560737,31.494684,287.586303,-90.17272,202.532459
76,-0.351219,-1.351037,8.984413,19.957239,0.0,-64.803944,-32.289162,-91.500206,-25.101585,-90.568886,-16.170845,-77.520618,-6.581955,-56.275234,0.0,20.594997,31.606022,56.989949,49.018836,70.82303,61.022683,83.879537,67.917364,91.51127,0.0,61.953163,15.019054,53.658314,5.536709,49.758396,-0.995235,39.601421,-4.740887,24.60228,0.0,7.737141,20.284146,37.120951,41.805955,44.997155,57.95622,51.211654,68.862022,59.339614,31.847448,285.31361,-80.484324,221.568043
77,0.068321,0.89606,4.007607,13.439298,0.0,-61.024647,-34.521103,-90.349731,-28.548546,-91.964493,-20.075912,-79.101219,-10.24189,-56.605797,0.0,-9.573105,29.139772,54.639235,45.03649,69.192325,57.085477,79.721943,65.157367,89.266704,0.0,66.396561,7.614326,75.248108,-2.4547,70.963669,-7.985916,59.5471,-9.642334,41.149006,0.0,7.145634,17.306541,54.610335,36.393655,61.788018,51.514602,69.036961,61.713732,70.788696,32.045946,286.099462,-76.34654,234.897132
78,-1.590157,-2.469522,2.738285,13.018592,0.0,-43.551178,-31.676903,-91.273499,-26.928177,-92.485943,-19.758682,-79.680862,-10.607758,-56.883774,0.0,10.010853,30.395467,45.931006,44.562123,67.736497,55.363073,82.58074,63.505235,90.173756,0.0,69.790592,16.353378,77.806149,5.157337,72.295818,-3.57439,56.206741,-9.438057,34.761314,0.0,7.747824,20.785312,55.569566,37.181652,68.09113,50.076064,74.965679,58.218474,76.632385,30.592375,283.546082,-73.47167,247.831867
79,2.161331,-0.685491,11.161709,9.492088,0.0,-63.420982,-22.137794,-86.31237,-21.965218,-96.819248,-19.204102,-90.858192,-14.209442,-67.97121,0.0,-2.983965,27.512402,4.502964,44.866923,30.363789,57.856925,70.103205,65.853171,95.029623,0.0,68.420792,27.968445,80.50415,17.644157,73.864174,8.849487,58.093872,0.612659,39.144745,0.0,12.032932,40.931816,58.47412,60.714858,69.038751,73.662066,87.265991,80.953493,95.256124,32.738314,283.055413,-62.325354,257.518777
80,-1.703911,1.479108,-4.251938,6.567403,0.0,-62.706814,-23.002052,-79.883595,-21.2463,-88.175812,-17.47261,-83.135204,-11.739578,-63.350487,0.0,-9.88797,31.980044,16.760544,46.624155,34.305071,57.480309,61.744113,64.03104,90.473616,0.0,73.787041,23.702888,90.40638,12.50536,87.140465,3.407192,70.988274,-4.186535,46.146469,0.0,14.055505,32.107806,66.026319,51.2182,82.192824,63.896177,90.960271,70.617092,92.98198,31.236477,284.697156,-66.375217,264.248816
81,-1.634674,0.486346,2.821655,5.661463,0.0,-63.136883,-29.308319,-71.964855,-25.169563,-74.15205,-19.323921,-68.275738,-12.128792,-55.760765,0.0,-5.8314,33.108657,39.928496,46.733762,50.932481,56.856074,64.524673,62.869329,81.714876,0.0,73.588486,25.501041,87.518349,14.185009,89.232559,4.508801,74.103928,-3.211555,47.717743,0.0,10.036603,29.538557,65.696819,46.896721,81.504801,59.255201,89.971771,67.081819,94.199265,29.970303,285.599716,-63.185062,270.326492
82,-3.291092,18.544297,3.475056,4.466654,0.0,-63.02064,-40.125246,-35.292978,-40.317164,-32.420969,-36.88365,-32.245989,-31.485872,-56.214209,0.0,16.413445,15.514421,39.394726,23.380312,44.148797,29.099326,49.354295,33.234751,55.942045,0.0,72.249584,27.17268,88.15218,16.028366,88.229313,5.876141,73.250256,-3.12109,48.251553,0.0,6.223948,29.126496,66.303702,45.728774,83.260242,57.826359,91.366774,65.551026,94.233599,26.903601,304.39705,-59.485617,275.046184
83,-3.291092,18.544298,3.911018,2.817733,0.0,-62.904396,-50.942173,1.378899,-55.464764,9.310112,-54.443378,3.78376,-50.842953,-56.667652,0.0,38.65829,-2.079816,38.860955,0.026861,37.365113,1.342577,34.183917,3.600173,30.169214,0.0,69.448414,27.535114,88.56966,16.797295,88.241215,6.393414,71.799831,-3.345108,48.236675,0.0,4.23472,29.125138,65.227639,45.942368,82.230307,57.994258,91.640081,66.050525,93.069912,23.906279,323.117599,-55.280828,278.040168
84,-7.801323,7.236778,3.397465,0.557977,0.0,-44.682426,-45.014648,4.947968,-46.014118,19.640694,-41.429329,18.069534,-33.978024,-18.248978,0.0,33.617851,8.023602,36.149494,1.236923,31.850183,-6.418153,25.960244,-13.43689,17.783563,0.0,69.412193,28.503857,89.607124,18.491764,90.210915,8.273563,74.886818,-1.825676,52.362785,0.0,4.648509,29.737825,62.070835,46.529182,79.281663,58.344136,90.477383,66.60171,93.423001,16.821213,330.523048,-51.167107,278.766816
85,-22.391853,-40.36291,2.395763,1.188325,0.0,6.13678,-9.045639,43.944283,-17.20293,47.051125,-25.052319,34.457474,-30.75016,-24.433308,0.0,-10.84504,20.370658,45.143256,41.851095,62.40157,55.956741,71.265162,66.183351,84.569597,0.0,68.841991,28.964252,90.281124,20.451221,92.6441,11.052361,78.828564,1.072884,56.658955,0.0,3.37219,30.862362,58.586012,47.259196,75.210149,58.637697,86.750252,66.629374,91.837744,-4.680834,290.311056,-47.881536,280.106059
86,-7.597847,-0.842955,1.528187,2.616674,0.0,18.933678,-0.915871,49.761887,-10.113945,53.811836,-20.193558,36.311073,-28.652287,-37.758408,0.0,-10.569324,22.010564,47.718372,42.081918,64.98317,55.292307,73.923765,65.365775,84.775288,0.0,67.974701,28.018799,89.249153,19.634056,91.317673,10.843678,77.845917,1.927528,55.554314,0.0,0.807695,29.813655,57.146301,47.073636,73.588645,59.083597,85.315048,66.886009,89.147773,-11.664104,289.559322,-45.738773,282.813954
87,2.396164,4.612138,1.740646,1.057661,0.0,14.323769,-3.407364,51.453667,-12.567101,55.385742,-21.539497,42.027168,-29.768887,7.981567,0.0,-9.423236,19.600075,42.538068,39.012614,60.374242,53.345749,70.019224,64.067411,73.858433,0.0,68.043365,27.708721,89.123154,18.762474,89.24675,9.458199,75.727959,0.250511,54.30027,0.0,3.54435,30.258011,58.398291,47.852309,74.007869,60.316382,85.667829,68.409391,89.994803,-8.670444,294.288647,-43.400631,283.988802
88,17.717171,1.233032,0.622787,2.398942,0.0,-3.104897,-24.779148,28.946686,-34.839878,31.592903,-41.597214,18.126869,-45.370216,-52.792683,0.0,-9.727357,21.709716,47.424872,40.60139,60.5569,52.754612,67.983313,62.498703,82.48478,0.0,69.390793,27.729321,88.334885,18.745251,88.520622,9.336147,74.754868,-0.031815,52.808876,0.0,2.481564,29.230299,56.681259,46.698317,72.232483,58.96658,83.561584,66.90651,87.648473,9.195356,295.534724,-42.629213,286.400788
89,-20.576534,5.379572,0.107918,0.465845,0.0,27.892399,-6.51495,59.713039,-15.695,58.845005,-21.014385,43.577442,-23.016644,9.578304,0.0,-5.533331,16.38998,48.146796,35.738051,55.914875,49.669932,63.708765,59.41001,67.05292,0.0,69.063721,27.603092,88.848724,18.564262,88.475533,9.090214,74.637794,-0.374107,52.831879,0.0,2.657738,30.58325,56.531514,47.574926,71.997337,59.241307,83.732509,66.439368,87.566777,-11.408329,300.898133,-42.548447,286.85047
90,26.973782,-0.057428,0.128288,1.471945,0.0,-13.817596,-30.468006,22.613297,-41.154385,26.528893,-46.843987,12.479897,-49.120903,-52.780838,0.0,-3.402633,19.404326,45.401743,37.802738,57.829508,50.095083,64.669045,59.773967,75.883599,0.0,69.821205,27.096405,87.906647,18.149529,87.8825,9.029903,73.904915,0.458794,52.94838,0.0,2.698925,29.888867,56.437777,47.387575,71.601579,59.431437,81.58977,66.995924,86.57735,15.553751,300.809321,-42.43186,288.29103
91,-22.764473,5.63806,0.402775,0.155982,0.0,23.827286,-9.668026,57.023964,-18.587666,53.384056,-23.815098,40.784111,-25.734844,-1.965408,0.0,-18.386185,12.594182,44.249851,32.380249,52.818338,46.622981,58.214769,55.931732,59.02407,0.0,69.270687,26.801033,87.12038,17.505398,86.509838,8.236427,72.497234,-0.398827,52.046757,0.0,3.013852,29.65156,56.891149,47.304953,72.689991,59.386483,82.825828,66.722679,86.04006,-7.233667,306.367367,-42.052031,288.366998
92,3.079262,-5.033647,-0.26556,-0.302948,0.0,23.023224,-8.295937,47.75116,-18.5182,51.918068,-23.974915,35.479317,-25.790462,-13.104858,0.0,-4.910949,14.633674,40.308878,32.451015,56.892075,45.533025,66.048179,55.963719,70.467038,0.0,69.059944,26.665306,87.04834,17.215405,86.46698,7.763615,72.587013,-1.068649,51.902046,0.0,3.332731,29.853607,57.431712,47.510026,73.269828,59.550986,83.607773,66.79468,86.500162,-4.286385,301.000253,-42.44957,287.730583
93,-0.698891,-1.194562,-0.519619,0.39792,0.0,22.167091,-8.606243,46.099777,-19.007835,51.966591,-25.425911,34.980583,-28.424835,-23.263435,0.0,-0.186671,13.72971,41.154982,32.696226,54.712347,46.179552,64.735736,56.117292,71.303139,0.0,69.043179,26.030159,86.505833,16.656189,86.085491,7.358265,72.085934,-1.330318,51.571941,0.0,2.956301,29.518673,56.481867,47.290256,72.777307,59.430881,82.232097,66.797582,86.356716,-5.222311,299.502527,-43.206224,287.825339
94,-4.621925,-2.161758,-1.570015,0.084413,0.0,29.48925,-5.325394,51.810493,-16.587524,54.634438,-23.541813,38.2267,-26.663532,-10.067654,0.0,2.153793,13.842528,45.654179,33.222463,60.512748,47.425366,68.315469,57.974807,73.124776,0.0,69.545803,25.592079,87.3353,16.138973,86.748791,6.960068,72.971249,-1.491909,52.12286,0.0,3.462284,29.037884,56.733191,46.785508,71.905267,58.866359,82.004362,66.204222,86.527456,-10.161324,296.907374,-45.093327,287.476357
95,28.119278,6.146513,-0.291023,-0.272196,0.0,-17.771187,-33.879604,21.872749,-45.13916,22.904549,-50.54575,7.638931,-52.455425,-47.860279,0.0,-13.151109,16.668536,38.685769,35.874643,51.982608,49.232245,58.261637,59.450333,65.274199,0.0,69.308453,24.951324,87.14613,15.202503,85.783253,5.735435,72.274761,-2.840195,51.485996,0.0,4.656537,29.189173,57.847045,46.739443,73.429638,58.864012,83.263082,66.169271,86.645029,17.603302,302.699825,-45.739002,286.8501
96,-26.796684,9.898282,-0.87038,0.504686,0.0,22.742043,-6.215401,52.940941,-15.80492,52.185516,-21.848259,37.54715,-23.937149,-21.023483,0.0,-24.488423,6.623473,28.553391,25.471057,45.965401,39.567564,52.252272,49.650789,55.432727,0.0,68.957176,25.164986,86.777458,15.765553,85.993652,6.477242,73.18531,-2.089806,52.2995,0.0,4.283997,28.578276,57.609244,46.211847,72.502394,58.694075,82.669784,66.481173,86.688563,-9.496307,312.306306,-46.912308,287.062984
97,4.938698,-3.241773,-1.08902,-0.470168,0.0,21.432037,-12.589588,45.174408,-20.572872,48.959198,-23.752327,34.369125,-23.096466,-29.076176,0.0,-17.012115,10.138183,27.692775,28.574015,44.997155,42.606117,55.126569,53.866984,61.489146,0.0,68.893433,25.985641,87.270813,16.400814,86.360092,6.831379,73.561935,-2.059536,53.057098,0.0,5.215069,29.707444,58.284855,47.0992,73.028013,59.227043,84.178038,66.610849,86.891536,-4.749956,308.98895,-48.193674,286.517234
98,1.975136,4.049469,-0.18219,0.132208,0.0,13.276405,-11.944885,39.374084,-20.038605,44.654045,-24.312229,32.350273,-25.563927,-31.73172,0.0,-19.3251,8.418434,20.642175,25.666065,41.522027,38.949319,51.432165,49.556743,57.458758,0.0,68.911171,24.587574,87.358017,14.937973,86.164627,5.499973,73.682098,-3.24194,52.843323,0.0,5.701724,28.608472,57.802461,46.000228,72.964472,58.344136,83.605612,65.92968,86.923091,-2.960472,312.908804,-48.561516,286.519828
99,9.895134,-11.210849,-0.48048,0.085957,0.0,-9.244537,-24.463234,24.211922,-33.077431,25.381851,-38.297253,16.365623,-41.015053,-10.03521,0.0,-11.889177,15.032829,37.596738,33.10032,52.534163,47.024668,59.281754,58.030505,66.617826,0.0,68.516178,25.39999,87.497349,15.727844,85.785427,6.139698,73.365269,-2.812958,52.860661,0.0,6.033139,29.426665,57.996666,46.936365,72.797622,59.191907,83.846994,66.549778,86.824229,6.838961,301.513708,-49.137697,286.421536
100,-23.755703,18.395015,-0.553837,0.252189,0.0,29.251156,5.182171,60.176868,-3.653469,57.724056,-11.156902,41.869068,-17.108116,8.391209,0.0,-30.990185,-3.964623,3.014223,12.990064,33.10279,28.923399,45.378649,42.258709,48.981168,0.0,68.082848,24.953156,86.527977,15.26001,85.290756,5.677128,72.211761,-3.191013,51.656456,0.0,5.682582,29.679162,58.014759,47.033622,72.76156,59.085635,83.819021,66.164517,86.445637,-17.008352,319.820188,-49.783144,286.58519
101,25.306721,-19.47151,-0.024548,-0.065949,0.0,-12.837868,-27.183151,22.082863,-37.545891,24.75071,-44.216595,11.279526,-48.379612,-55.98444,0.0,-13.392121,17.203233,40.628313,36.263856,55.412411,49.320239,61.223928,59.813116,70.248627,0.0,68.517551,25.928936,86.339436,16.496944,85.211277,6.744003,72.085476,-2.651825,51.965504,0.0,5.971388,29.610187,58.341542,46.972921,72.322268,59.301452,82.755988,66.894839,86.707458,8.219748,300.294523,-49.886312,286.465086
102,-23.803768,5.181354,-0.090866,0.796951,0.0,23.190479,-6.416874,57.603092,-16.789112,53.282146,-23.180351,36.901417,-25.727291,-12.001076,0.0,-12.036143,9.59058,38.650386,30.985739,51.833913,47.060792,56.768389,58.026615,56.337309,0.0,68.314419,25.693474,86.581364,16.376381,85.255795,6.788235,71.744442,-2.340202,51.732044,0.0,5.660784,29.1859,57.889406,46.538692,71.669998,58.925948,81.96231,66.58973,85.938295,-15.693083,305.404138,-50.086241,287.190298
103,-0.1894,-5.360553,0.083942,0.488446,0.0,20.058575,-5.235958,50.956364,-15.551491,52.239361,-21.003227,34.570713,-22.483749,-20.000496,0.0,7.641243,14.450276,43.923068,31.481286,58.016365,44.274922,66.927258,55.381968,71.002044,0.0,68.310814,25.483875,86.469727,16.203289,85.076637,6.758766,71.501312,-2.156811,51.546364,0.0,5.545002,28.931118,57.672106,46.321948,71.396938,58.778056,81.675973,66.58374,85.712289,-15.900106,299.922585,-50.019922,287.557744
104,5.792141,0.615837,-0.028553,0.823689,0.0,6.828575,-8.785515,44.304085,-20.13937,45.652199,-30.293369,27.293243,-38.940239,-18.087788,0.0,-16.503724,14.553214,38.359479,33.982301,52.889104,48.724904,61.752697,59.917907,67.519321,0.0,68.050976,25.328064,86.442776,16.128674,84.99773,6.806717,71.346989,-1.932335,51.305866,0.0,5.297568,28.519798,56.693177,46.013505,70.938132,58.650603,81.300531,66.623878,85.191856,-10.162468,300.462252,-50.102978,288.305264
105,3.346939,-0.375751,-0.159702,0.100715,0.0,0.67646,-13.160706,40.772324,-24.655323,41.613808,-34.194202,24.747505,-41.954556,-17.928314,0.0,-15.7282,15.598648,39.381943,34.933752,53.863526,49.345619,62.178342,60.239379,67.101764,0.0,68.134232,26.053791,86.293716,16.991329,84.625168,7.458229,70.971565,-1.670609,50.78968,0.0,5.56118,28.75198,56.475074,45.920015,71.225766,58.240704,81.924086,65.914057,85.395694,-6.83836,300.071635,-50.285511,288.391112
106,-0.95089,0.589408,-0.087719,0.451334,0.0,4.086571,-12.587643,44.549675,-23.810806,45.576439,-30.011444,28.148804,-33.127899,-19.270878,0.0,6.619706,18.062984,42.399994,34.407947,56.793089,45.377599,63.876479,55.056791,67.576255,0.0,68.301601,25.762882,86.695576,16.676159,85.358105,7.210808,71.414852,-1.73727,50.639248,0.0,5.193086,28.90191,56.497243,45.912111,71.240339,58.094047,81.741367,65.604379,85.496039,-7.85531,300.64156,-50.439291,288.822964
107,-9.699326,4.919902,0.366211,-0.226007,0.0,27.442589,-1.748486,52.025871,-13.071384,52.864723,-19.55761,36.314163,-22.242794,-12.489223,0.0,-0.853514,9.507896,36.167402,26.256213,52.03769,39.131607,59.857453,50.162762,64.265259,0.0,68.154316,25.900898,85.680828,16.892796,84.773655,7.404671,70.943127,-1.612816,50.815945,0.0,6.099829,28.924757,56.124332,46.059447,71.064844,58.39508,81.575629,66.097456,85.524753,-17.591257,305.515072,-50.109701,288.550567
108,2.112064,-6.991814,0.209312,0.077744,0.0,11.16045,-6.111031,49.050007,-16.455746,52.044468,-26.164913,33.077717,-34.368153,-16.00153,0.0,-13.86692,15.438406,41.145905,35.264487,55.200237,50.069951,64.277918,61.392507,72.449844,0.0,68.060932,24.950752,85.934086,15.991688,85.028629,6.77845,71.260128,-1.942177,50.930729,0.0,6.336025,29.023373,56.344163,46.174118,71.391504,58.491596,82.112919,66.161306,85.544636,-15.510063,298.493248,-49.931259,288.5983
109,15.121479,1.6136,-0.029297,0.091699,0.0,-9.259987,-19.368553,32.614288,-30.530148,34.101562,-39.131012,19.037704,-45.560932,-23.623867,0.0,-14.180982,16.697744,39.430108,35.593802,54.845851,49.678268,61.728552,60.876829,67.179323,0.0,68.195171,25.58218,86.610889,16.229267,84.921627,6.641006,71.234951,-2.401772,51.422367,0.0,6.381535,29.314773,56.663907,46.649534,71.103932,58.899704,81.701661,66.451965,86.211911,-0.482798,300.042334,-50.05477,288.625486
110,-13.573723,6.433714,0.205021,0.059404,0.0,16.51062,-11.935558,50.247231,-20.464153,52.560883,-24.577217,37.125206,-24.666939,-12.680969,0.0,-1.390743,13.959854,44.393483,30.357799,52.350764,42.605129,61.371388,51.729617,62.240957,0.0,68.185844,24.892216,86.180191,15.38126,84.721184,5.927639,70.9021,-2.816048,51.075897,0.0,6.5172,28.545857,57.300307,46.106624,71.543101,58.615776,81.589708,66.358783,86.035861,-14.115858,306.466415,-49.909086,288.675257
111,-2.631683,7.471491,-0.030384,0.292141,0.0,27.570534,-2.902451,55.902328,-13.084545,60.852127,-19.071293,43.244591,-21.111717,1.127186,0.0,8.970112,5.394701,28.959523,19.939023,44.884337,33.524422,55.836081,45.523947,59.160908,0.0,67.977848,24.424782,86.30991,15.109406,84.589634,6.036987,70.885677,-2.308559,51.116352,0.0,6.188997,28.552217,57.06158,46.205302,71.290295,58.84981,81.334432,66.72768,85.94552,-16.774921,313.935204,-49.96685,288.964696
112,28.583794,-12.828092,0.196781,0.403909,0.0,-25.012321,-34.231682,19.189682,-45.884571,23.016586,-52.420464,9.614983,-55.793667,-55.545273,0.0,-12.571458,17.718601,41.293983,36.852214,55.020482,50.105396,60.862873,60.708436,68.723022,0.0,67.771683,24.021549,86.209145,14.807339,84.5755,5.846844,71.075706,-2.363491,51.301918,0.0,5.970153,28.28669,56.86793,45.905195,70.945048,58.584468,81.073166,66.487842,85.570448,11.761208,301.079154,-49.817734,289.340648
113,-27.836781,7.118279,0.166397,0.263613,0.0,20.277615,-7.182026,52.627888,-18.049564,52.2682,-25.457268,40.207958,-29.486675,3.101635,0.0,-14.242362,8.490558,36.681041,28.053953,50.838126,43.380405,55.460947,54.626205,58.558533,0.0,67.094994,24.444809,85.61657,15.331364,84.066811,6.26667,70.706863,-2.209797,50.853996,0.0,5.219021,28.732096,56.576901,46.236238,70.936156,58.704635,81.229147,66.449371,85.696357,-16.110821,308.190563,-49.686584,289.597391
114,1.124325,2.683982,-0.308533,0.099542,0.0,3.412056,-9.674835,48.516769,-16.803703,54.250031,-19.68401,40.257568,-18.396664,-11.658211,0.0,1.722095,12.543855,39.41924,26.103937,47.046404,36.018768,56.057271,43.906889,58.716429,0.0,67.137909,24.921284,86.203308,15.979214,84.338722,6.903648,70.839272,-1.696301,51.146965,0.0,4.915827,28.560368,56.585731,45.883397,70.627281,58.356486,80.942872,66.283139,85.752427,-15.003748,310.858799,-50.012369,289.681186
115,27.615852,-10.9255,0.221844,0.304368,0.0,-25.210533,-34.668159,17.979355,-46.421986,20.450706,-53.158665,7.719841,-56.666393,-53.159695,0.0,-10.67467,19.279528,43.562878,38.327801,57.801905,51.47008,63.164435,61.927142,69.304587,0.0,67.321072,24.454079,86.467266,15.4846,84.491329,6.340027,71.125889,-2.21386,51.203899,0.0,5.288367,28.304475,56.267593,45.409524,70.012123,57.826359,80.512472,65.654211,85.323632,12.588186,299.889209,-49.814444,289.941464
116,-24.961624,7.309335,0.07473,0.163083,0.0,14.096031,-11.006699,48.357811,-22.827644,48.426247,-29.956226,35.811768,-33.52232,-2.37608,0.0,-17.766582,8.797458,37.508621,29.798279,50.082733,45.69549,56.13483,56.94376,58.323696,0.0,67.714977,24.42255,86.359234,15.397739,84.400692,6.298428,70.875034,-2.173119,50.940914,0.0,5.22038,28.052718,56.144277,45.217357,70.036638,57.622953,80.530256,65.359662,85.279295,-12.400188,307.192661,-49.766464,290.098665
117,-1.64669,4.831784,-0.077991,-0.125045,0.0,-0.805264,-11.089897,50.544662,-17.900047,54.917107,-20.506897,39.344673,-19.169369,-23.562641,0.0,-1.582231,13.50747,40.525869,27.860057,45.790092,38.255739,54.676902,46.404014,59.062664,0.0,67.699814,24.837914,86.863289,15.698662,84.425011,6.445999,70.851746,-2.14222,50.744705,0.0,5.583596,27.938171,56.502924,45.191545,70.388554,57.67118,80.951641,65.41357,85.511971,-14.088621,312.003559,-49.886198,289.952734
118,26.867523,-11.184482,0.182362,-0.018155,0.0,-24.423065,-34.699059,17.173462,-46.944008,19.616318,-54.022751,6.003799,-57.987556,-64.459591,0.0,-12.605112,18.556369,42.583331,37.874306,56.295628,50.786441,61.9666,60.917275,69.051781,0.0,67.67149,24.213924,86.970234,15.010529,84.779606,5.881062,71.104488,-2.44297,50.853481,0.0,5.549757,27.97553,56.08617,45.251566,70.126794,57.75127,80.808565,65.489091,85.366178,12.762365,300.805507,-49.720373,289.921009
119,-27.921925,4.977824,0.354767,-0.006854,0.0,19.188824,-7.989178,50.782413,-19.611511,50.561886,-27.141094,38.860073,-31.785507,9.639988,0.0,-16.500328,8.933432,41.280274,29.359727,52.710275,45.242119,58.022354,57.00267,61.425667,0.0,67.14529,23.871117,85.736561,14.810829,83.915577,5.78825,70.274334,-2.568684,50.048275,0.0,5.453179,28.160967,55.859114,45.417366,70.430173,57.739599,81.090209,65.314522,85.568163,-15.184135,305.76794,-49.390182,289.898764
120,3.918858,-1.148928,-0.020943,-0.052982,0.0,5.539398,-11.233406,47.067947,-20.718269,49.676285,-25.169334,32.025604,-25.752468,-13.065662,0.0,4.126904,15.436306,43.06202,30.218552,54.520921,40.752308,61.887127,50.319608,64.423834,0.0,67.172756,23.954487,86.117992,14.979343,84.092503,6.108913,70.692158,-1.973419,50.679417,0.0,5.505111,28.302499,55.857941,45.553279,70.056892,58.005002,80.845368,65.732634,85.576808,-11.278582,304.589773,-49.424429,289.816543
