takenoko1/special-research/HandMotion_SimilarSearch_自分用/NewProject/handData/test_key/d4_feature_d2/144.csv
frame,vel_0x_L,vel_0y_L,vel_0x_R,vel_0y_R,posFromWrist_0x_L,posFromWrist_1x_L,posFromWrist_2x_L,posFromWrist_3x_L,posFromWrist_4x_L,posFromWrist_5x_L,posFromWrist_6x_L,posFromWrist_7x_L,posFromWrist_8x_L,posFromWrist_9x_L,posFromWrist_0y_L,posFromWrist_1y_L,posFromWrist_2y_L,posFromWrist_3y_L,posFromWrist_4y_L,posFromWrist_5y_L,posFromWrist_6y_L,posFromWrist_7y_L,posFromWrist_8y_L,posFromWrist_9y_L,posFromWrist_0x_R,posFromWrist_1x_R,posFromWrist_2x_R,posFromWrist_3x_R,posFromWrist_4x_R,posFromWrist_5x_R,posFromWrist_6x_R,posFromWrist_7x_R,posFromWrist_8x_R,posFromWrist_9x_R,posFromWrist_0y_R,posFromWrist_1y_R,posFromWrist_2y_R,posFromWrist_3y_R,posFromWrist_4y_R,posFromWrist_5y_R,posFromWrist_6y_R,posFromWrist_7y_R,posFromWrist_8y_R,posFromWrist_9y_R,posFromBody_0x_L,posFromBody_0y_L,posFromBody_0x_R,posFromBody_0y_R
2,38.719368,-17.265539,-0.26722,-0.066073,0.0,-20.668602,-28.031273,20.600281,-38.808689,19.499931,-45.005722,6.019135,-48.991928,-33.009396,0.0,-20.05499,14.130841,31.665303,34.612958,48.081279,49.057615,55.844664,60.070369,59.660778,0.0,67.733574,25.848598,87.881584,17.343578,85.266495,8.280716,71.109238,-0.333138,49.134407,0.0,3.359099,28.24612,51.65916,45.414464,64.855964,57.721321,76.12387,65.198802,82.786554,18.954077,304.459634,-43.051729,291.436967
3,-31.266689,13.337163,0.565567,0.380197,0.0,33.259106,2.915668,59.021816,-6.220379,56.013622,-13.728733,37.896366,-18.4342,-2.557755,0.0,-29.264261,-1.396115,8.503032,15.126566,37.650893,29.451735,47.877441,40.520991,55.434333,0.0,67.654953,25.323372,86.925316,16.717701,84.870872,7.69043,70.334587,-0.79319,48.532219,0.0,3.314947,28.363014,52.39683,45.661342,65.293959,58.11393,75.798754,65.736031,82.248461,-11.921597,317.845318,-42.095146,291.865684
4,29.76408,-14.669428,-0.379601,-0.029764,0.0,-6.836128,-26.667252,22.419662,-38.443222,19.414558,-45.252228,3.88195,-49.734879,-40.62252,0.0,-17.869087,14.256379,30.985245,34.969938,48.551508,49.381063,57.061827,59.969901,59.932048,0.0,67.40593,25.727291,87.667923,16.996708,85.317307,7.790394,70.898781,-0.882568,49.517899,0.0,3.220099,28.286135,52.286544,45.542781,64.852259,57.963506,75.945041,65.662918,82.212646,17.990284,303.124081,-42.326946,291.784112
5,-31.281853,7.693978,-0.144882,-0.150301,0.0,35.300102,-0.637894,58.505287,-9.957218,59.465675,-16.717072,46.073685,-20.187263,16.446648,0.0,-16.922206,1.241183,12.644076,20.762403,41.578837,37.454898,51.507501,50.385063,58.385879,0.0,67.209435,25.782509,87.569962,17.015018,85.277481,7.718296,70.590134,-0.948544,49.159584,0.0,3.080605,28.094091,53.059968,45.151469,66.389844,57.439369,76.194821,65.109696,82.335344,-13.204336,310.691857,-42.384596,291.507609
6,29.715385,-8.80635,0.460739,0.36902,0.0,-3.025818,-25.857353,23.610878,-37.471218,21.013641,-44.076176,7.574272,-48.41423,-31.887589,0.0,-16.670326,12.607273,31.104794,33.580183,49.124305,48.801659,57.865261,60.044248,61.199722,0.0,66.488228,25.423622,86.989174,16.389027,84.492531,7.072906,69.832993,-1.495228,48.272209,0.0,2.300512,27.299054,52.077272,44.620848,66.018724,57.159269,75.914474,65.201149,82.142436,16.698446,301.785131,-41.73646,291.776254
7,-26.675835,11.75487,0.873699,-0.817637,0.0,27.120323,-0.341663,57.422791,-9.384327,54.573441,-16.34285,39.607315,-19.913063,0.250397,0.0,-24.691211,1.076433,12.107218,19.293854,40.119675,34.202997,49.29097,45.24076,55.905674,0.0,66.023083,25.21471,86.720295,16.211014,84.076366,6.838531,69.571323,-1.885529,47.836361,0.0,3.368053,28.244268,52.725898,45.30004,66.137779,57.621718,76.4798,65.369295,82.851886,-9.886179,313.471999,-40.771551,290.890614
8,22.623711,-11.332991,-0.94614,-0.398722,0.0,0.838394,-19.39991,28.641014,-30.274143,25.68924,-37.360096,14.540062,-43.29031,-9.763412,0.0,-20.054311,10.143123,27.768605,31.097693,47.590919,47.27593,57.584359,59.986017,62.072008,0.0,66.184845,25.932541,87.346687,17.030869,85.006256,7.640533,70.559235,-1.259823,49.354477,0.0,3.570162,27.88803,52.900652,45.132018,66.412321,57.624867,76.898035,65.572515,83.250856,12.758131,302.11034,-41.697092,290.463224
9,-25.233936,5.53259,0.633373,0.108125,0.0,33.171444,0.74192,55.189419,-9.255581,55.434666,-16.960602,43.318462,-21.633396,14.430943,0.0,-15.684234,7.688791,24.781058,26.574907,48.11975,41.387905,55.870785,51.958217,60.639522,0.0,66.439304,25.401821,86.369534,16.458206,84.17387,7.014999,69.563198,-1.909161,47.826977,0.0,3.48507,28.085014,52.839766,45.123928,66.70613,57.439616,76.670423,65.215228,83.03652,-12.445049,307.619527,-41.032963,290.547946
10,32.657375,-4.507657,-0.896988,0.069778,0.0,-14.83017,-29.879951,21.568336,-41.04578,19.533577,-47.037735,6.833038,-50.922203,-18.79406,0.0,-18.524259,13.702725,31.679073,33.733941,47.527193,48.537182,56.169286,59.942854,60.806125,0.0,66.621609,26.491528,87.0294,17.90657,85.226154,8.665237,70.710011,-0.242214,49.585934,0.0,3.08363,27.623862,52.592517,44.829749,66.010449,57.466477,76.014325,65.784505,82.351893,20.22254,303.095074,-41.919737,290.600928
11,-22.920113,10.631136,1.106014,-0.393041,0.0,18.901062,-7.578621,49.796677,-17.385406,50.141258,-23.645096,34.239922,-25.915375,-14.436836,0.0,-26.871803,0.093984,13.029399,18.369636,40.672465,33.293043,50.478492,44.746016,56.731586,0.0,66.697769,25.815754,86.059341,17.263699,84.279327,7.980995,69.659958,-0.883198,48.378754,0.0,4.073304,28.019002,52.760478,45.074898,67.131034,57.532982,76.611204,65.662918,82.562956,-2.704897,313.712038,-40.821047,290.193715
12,26.600418,-11.152927,0.376282,0.089044,0.0,-18.848076,-32.75631,18.143349,-44.279766,15.834274,-49.78466,2.222328,-52.748795,-30.26722,0.0,-16.89553,14.025062,32.548766,33.984339,48.528352,48.33884,56.589498,59.46892,60.68744,0.0,65.794945,25.101929,85.5439,16.345482,84.016685,7.039833,69.273262,-1.731148,48.062096,0.0,3.64031,27.554763,52.677609,44.690502,66.811229,57.170075,76.413109,65.307791,82.50349,23.869228,302.56541,-40.471058,290.289057
13,-31.12175,13.75052,0.473442,-0.352595,0.0,24.211006,-2.458878,54.08638,-10.557346,53.647041,-16.557999,40.658684,-19.624672,-3.541088,0.0,-28.199993,-1.386606,6.806933,15.902645,34.659703,30.625981,45.955089,42.0947,54.501346,0.0,66.033897,24.222622,85.863762,15.089378,83.42411,5.796604,69.240189,-2.527885,48.344421,0.0,4.14407,27.907419,52.813275,45.137266,67.036309,57.462402,77.638669,64.956061,82.698931,-7.26182,316.265186,-40.006914,289.885719
14,37.335663,-13.693771,-0.908489,-0.345741,0.0,-24.820061,-39.879913,12.644806,-51.258316,10.968704,-56.110497,-0.367241,-58.248882,-28.100166,0.0,-18.59027,13.047677,31.074969,33.076546,47.214797,48.474382,56.097532,60.721033,62.997276,0.0,66.094608,24.988976,86.292057,15.93401,84.222393,6.586418,70.227413,-1.864128,49.87215,0.0,4.353219,27.702532,53.08473,44.933367,66.892554,57.33853,77.4302,65.04103,83.105866,30.047007,302.515948,-40.94224,289.484511
15,-25.209846,9.455532,1.448021,-0.273246,0.0,12.740021,-14.358444,39.427299,-25.307579,40.435638,-31.102123,28.410187,-32.816277,-2.764206,0.0,-25.312605,3.982037,21.804873,21.520574,41.785145,35.408489,50.473428,45.395136,57.45104,0.0,65.468845,23.839531,85.321941,14.804077,82.828274,5.471478,68.852406,-3.082581,48.277416,0.0,4.922002,28.075504,53.047679,45.090707,67.515307,57.323216,78.28075,64.811256,83.756283,4.801226,311.910161,-39.530153,289.149947
16,-12.819786,-4.23756,-0.741863,0.586197,0.0,24.992294,-1.625748,54.278984,-12.795067,50.092621,-21.053352,36.531601,-25.53669,-9.39537,0.0,-16.791975,10.718266,32.492943,27.209516,48.509271,39.579791,56.375656,47.859657,61.992968,0.0,65.77858,24.722786,85.796013,15.859737,83.591423,6.535778,69.839973,-2.093582,49.076614,0.0,4.256209,27.832022,52.930292,44.96523,66.163652,57.268567,77.121201,64.8756,82.93173,-8.071833,307.608828,-40.325289,289.672371
17,37.983398,-4.92583,0.745583,-0.688826,0.0,-25.744057,-39.74762,12.573166,-50.992985,10.911255,-55.740452,-1.095886,-57.800446,-28.765526,0.0,-18.392669,13.011244,31.585336,32.888578,48.397503,47.907822,56.691942,60.003493,61.66779,0.0,65.890846,24.160023,85.512772,15.312881,83.497124,6.004772,69.230576,-2.570744,48.115883,0.0,4.54341,27.711238,52.420357,44.646906,67.519938,56.862929,78.38023,64.442606,83.707376,29.79146,302.634462,-39.699812,288.93501
18,-19.589996,8.026936,-0.798054,-0.028035,0.0,5.229836,-20.499687,32.029839,-31.907902,32.518501,-36.857929,21.277199,-37.383556,-10.157776,0.0,-22.259542,4.371065,24.010289,22.283315,43.170825,36.084718,51.703496,46.101746,58.411999,0.0,65.925465,25.294762,86.673717,16.333752,84.046726,7.062149,70.045338,-1.281796,49.813442,0.0,4.17124,27.824489,52.893427,45.064401,67.256758,57.555027,77.647191,65.385165,83.537069,9.892101,310.607598,-40.807228,288.853175
19,-3.826561,-1.223152,-0.681438,-0.145793,0.0,3.62812,-18.945408,38.960838,-30.119476,34.572716,-35.478916,24.430733,-36.567936,-6.257973,0.0,-17.049783,7.247769,33.773709,23.601069,47.191147,36.3395,54.163633,46.134783,59.117374,0.0,65.873795,25.298367,87.935143,16.391087,85.58567,7.213211,71.156273,-1.150761,50.551186,0.0,3.773815,27.965835,52.826983,45.234523,67.799544,57.711688,77.723268,65.597154,82.992554,5.725565,309.3666,-41.828642,288.689536
20,-13.473816,7.722815,0.044689,0.149621,0.0,20.407677,-2.790985,52.456856,-11.468296,51.741486,-17.830925,37.971611,-21.250763,-27.441616,0.0,-32.006041,3.823586,27.000121,20.937589,44.751203,33.427412,47.507494,42.873064,50.377406,0.0,65.16798,25.186272,88.519993,16.586609,86.548176,7.574329,71.850071,-0.921364,50.976391,0.0,1.628852,27.593295,56.671132,44.772445,69.567397,57.305247,78.102662,65.556769,83.504588,-8.17277,317.035723,-42.208471,288.785466
21,-3.149929,-13.582312,-1.200771,-1.173505,0.0,26.992779,-1.335869,57.744312,-11.293144,51.629162,-17.705612,40.397015,-19.965305,-7.610321,0.0,-11.979024,14.999237,46.132745,31.634613,61.81173,43.443761,65.262158,51.453593,67.504748,0.0,61.233559,24.774399,85.779076,16.016178,84.840546,6.88139,70.279541,-1.989269,49.510002,0.0,-0.406812,27.364942,60.132489,44.611956,76.992575,56.717383,84.595903,64.773959,87.621797,-11.608486,303.358501,-43.69503,287.51705
22,26.454906,-5.732908,-2.365036,-1.82491,0.0,-31.669693,-37.19965,14.945412,-49.737568,18.930016,-55.722542,6.280861,-57.902756,-35.912762,0.0,30.036141,12.4784,60.553874,29.4392,70.432829,42.324906,73.722458,53.772259,73.343373,0.0,60.550804,21.707096,81.088257,12.38451,79.358826,3.857231,67.566032,-3.749599,48.202972,0.0,1.825466,25.851872,64.438901,43.429127,84.924107,56.135138,92.562015,64.729067,93.657097,14.388456,297.486685,-46.51803,285.553233
23,-13.315315,6.349857,-1.629581,-4.206562,0.0,-8.784027,-34.324436,13.481827,-44.194393,19.107742,-47.905998,6.57692,-47.079105,-45.981846,0.0,26.004148,7.014229,56.143907,18.264352,66.917872,27.808804,72.372471,36.31974,71.559033,0.0,54.802723,16.944065,68.725491,6.867828,70.123386,-2.35033,58.83688,-10.608673,39.348164,0.0,-1.250878,21.878294,64.370914,39.061273,85.339996,52.533175,93.559222,62.323518,95.023016,0.728416,303.826029,-48.492336,281.336158
24,28.619843,18.391434,-2.979069,-11.331077,0.0,-82.806301,-29.295616,-76.845417,-32.192116,-72.14304,-33.748741,-74.247894,-35.328369,-67.273808,0.0,22.601021,29.532258,-27.879014,29.555353,-37.759636,20.108651,-39.371136,6.339853,-30.835809,0.0,49.769897,14.78096,60.048866,4.528885,54.548721,-4.321747,43.467064,-11.909237,25.48851,0.0,0.918167,16.668659,58.568166,34.351692,79.396827,49.759408,89.271336,61.982841,92.809572,29.083271,322.081596,-51.736393,269.869215
25,0.034561,-36.593665,-8.267326,-16.413136,0.0,-49.273167,-32.068405,-89.325428,-26.577301,-95.285397,-18.623657,-78.092651,-8.815155,-53.787689,0.0,15.86331,29.7955,51.930676,45.530925,72.926002,57.41967,83.361636,66.094677,84.017734,0.0,43.994865,28.859882,41.717091,22.859116,32.120304,12.755241,19.20948,0.353622,7.013054,0.0,-1.222658,20.019298,46.708938,37.238092,70.331743,51.812054,85.540129,63.408905,93.98493,28.86466,285.471259,-60.256891,253.439406
26,-1.389999,0.9391,-9.192524,-24.65694,0.0,-60.006351,-31.484184,-89.936256,-25.313644,-91.642513,-16.763306,-76.372375,-7.096939,-53.170509,0.0,26.626716,28.998055,55.62366,46.397284,70.679954,58.836595,80.753854,66.487842,84.208605,0.0,39.763184,21.349411,26.207943,11.716461,16.074486,0.887032,3.868504,-10.002937,-6.342087,0.0,-16.55615,3.787523,12.395469,18.691726,28.428346,33.480024,39.035399,46.78909,49.046623,27.394667,286.504622,-69.529409,228.876729
27,0.202103,0.493633,-12.241459,-16.404429,0.0,-61.734524,-31.702538,-89.88802,-25.476494,-91.926327,-16.969414,-76.027393,-7.459602,-53.525848,0.0,26.602757,28.563394,53.795539,46.358196,69.004171,59.034814,80.193531,66.819133,83.679404,0.0,34.571629,24.184055,21.132374,12.799358,7.432995,-0.328674,-1.911278,-14.312553,-14.561749,0.0,-38.879418,1.068282,-26.39719,5.797931,-16.63939,8.734719,-9.77262,10.07989,-7.016885,27.242889,287.03566,-82.124748,212.509705
28,-0.830498,-0.964541,-7.928638,-19.648611,0.0,-61.015491,-31.061783,-88.827152,-24.755173,-90.588627,-16.07357,-75.992374,-6.327324,-53.577576,0.0,27.197537,29.153728,54.370064,47.109698,69.328793,59.777486,80.64857,67.413172,84.539957,0.0,26.541882,12.143269,14.792805,-2.658405,-1.976109,-16.835346,-13.469982,-31.4641,-26.122742,0.0,-52.830194,-45.574027,-65.244436,-50.645033,-71.604543,-49.230886,-67.826714,-43.310566,-52.984694,25.678997,286.125026,-90.786781,192.915002
29,0.249481,-1.23896,-11.757832,-39.397874,0.0,-59.547558,-30.762405,-89.334927,-24.478226,-91.387024,-15.915871,-75.997009,-6.197662,-52.740955,0.0,28.240069,29.34534,54.756746,47.037388,70.239426,59.505723,81.747974,67.102938,85.252866,0.0,18.331318,1.637249,-0.864086,-13.073845,-16.043987,-26.765156,-28.863831,-40.540867,-38.080044,0.0,-58.024361,-53.607787,-91.106558,-56.556276,-96.660637,-53.569378,-88.830005,-46.101592,-69.597932,25.340652,285.228596,-103.132439,153.859658
30,1.357498,-0.065826,-6.965961,-39.006377,0.0,-59.87154,-31.38485,-89.844189,-25.069313,-92.500477,-16.529045,-77.47118,-6.905823,-53.847313,0.0,27.279974,28.990275,54.323752,46.392838,69.777472,58.643255,81.41304,66.2112,85.328263,0.0,8.336334,-6.566105,-12.100182,-21.853352,-26.809101,-35.349541,-39.56749,-48.173275,-48.790741,0.0,-66.522237,-51.925983,-109.444454,-50.838991,-113.527021,-45.741556,-104.950661,-37.23979,-84.842473,26.455278,285.354258,-110.341272,115.044769
31,0.761147,-0.694877,-10.16407,-32.71614,0.0,-60.105114,-31.243858,-90.140705,-24.731941,-91.890564,-16.078033,-77.136383,-6.330757,-53.57048,0.0,27.380565,28.996758,54.663688,46.244698,69.74425,58.393104,81.41199,65.840759,85.540314,0.0,9.769135,-6.602039,-14.031544,-22.355518,-27.552624,-36.283836,-39.530525,-49.469376,-49.535465,0.0,-72.335513,-57.766893,-117.946591,-57.996851,-123.8859,-54.264255,-115.135033,-47.814548,-96.959416,26.617699,285.249714,-121.104069,82.918963
32,0.070724,-0.052426,-9.179821,-22.483634,0.0,-60.043602,-31.007195,-89.884872,-24.638443,-91.828709,-16.166954,-76.408195,-6.570511,-52.911186,0.0,27.650785,28.885052,54.822325,46.25958,70.120248,58.562115,81.60885,66.086649,85.69364,0.0,15.550747,-3.226891,-12.098064,-20.109444,-21.774216,-34.6031,-34.219723,-47.696457,-44.605236,0.0,-74.978647,-47.983713,-123.561556,-48.289995,-127.254045,-45.274383,-119.691719,-39.013385,-98.088214,26.133299,288.162373,-130.839014,63.400414
33,0.708961,-0.202912,-4.97057,-31.721063,0.0,-60.142593,-31.10321,-89.299393,-24.591408,-91.383076,-16.023903,-76.12009,-6.363602,-53.235397,0.0,27.742052,29.30971,55.301816,46.454403,70.168105,58.572983,81.435332,65.98013,85.514564,0.0,9.452934,-8.240089,-8.898354,-22.540398,-22.986374,-36.435242,-34.893665,-51.017704,-49.263496,0.0,-68.711196,-63.343109,-127.455598,-65.100187,-137.495042,-62.349545,-129.062097,-54.97315,-107.296157,25.107851,290.086037,-137.543993,33.805927
34,0.606537,0.047363,-5.443153,-15.602291,0.0,-59.770203,-31.000671,-88.738861,-24.489899,-90.99884,-15.983047,-75.912552,-6.466827,-52.792854,0.0,27.543216,29.471928,55.587412,46.910368,69.916719,58.966765,81.112439,66.141607,85.691479,0.0,14.360332,-4.187279,-5.922775,-19.359341,-20.186634,-32.633629,-31.508331,-45.377197,-45.173092,0.0,-71.653943,-60.971245,-132.113277,-62.350657,-140.708904,-59.553425,-132.19309,-52.024506,-109.36177,22.507954,290.477195,-146.193581,18.547431
35,1.366997,0.310913,-3.540344,-12.927696,0.0,-60.151806,-31.111794,-89.859009,-24.648743,-91.966724,-16.299477,-76.478119,-7.191582,-53.670559,0.0,27.361299,29.924867,55.395739,47.34367,70.071712,59.369501,81.059334,66.433995,85.188337,0.0,16.462555,-1.408539,-0.869808,-16.521835,-16.256332,-29.872341,-27.501698,-42.976799,-40.42511,0.0,-71.294741,-61.612184,-133.34296,-63.398685,-141.215674,-60.896713,-134.033607,-53.709026,-112.053378,21.612167,290.740823,-151.996708,5.57245
36,0.650597,0.480295,-1.044559,-11.118347,0.0,-59.362621,-30.950317,-89.978199,-24.672546,-92.369328,-16.401443,-77.037792,-7.210579,-53.676624,0.0,27.387975,29.033006,54.481153,46.387403,69.925055,58.470415,81.527834,65.78821,85.474303,0.0,18.707485,-0.110435,1.478634,-15.200043,-13.510666,-28.885002,-24.994526,-42.787399,-38.875294,0.0,-69.381343,-60.685001,-130.099319,-62.924905,-139.299451,-61.157948,-130.850312,-54.701355,-111.030236,21.292934,291.158982,-154.011097,-5.608033
37,0.77282,-0.227118,0.422573,-6.581205,0.0,-60.685616,-31.428108,-90.67749,-24.988289,-92.973289,-16.616592,-78.006477,-7.539253,-55.043163,0.0,28.070379,29.49175,55.292863,47.513978,70.483279,60.008001,81.344867,67.584344,85.030997,0.0,20.088558,0.927773,3.634129,-14.267979,-11.420517,-27.796669,-23.293476,-41.548233,-37.96629,0.0,-68.128581,-62.300608,-130.538302,-64.610043,-139.493471,-62.338122,-131.48824,-55.172388,-112.53429,21.287184,290.866316,-154.367094,-12.254786
38,-0.059395,0.071013,-1.189842,-3.743866,0.0,-59.994221,-30.730476,-89.977684,-24.514961,-92.109261,-16.3797,-76.984806,-7.754517,-54.817314,0.0,27.84604,29.30409,54.742543,47.201336,69.823784,59.753218,80.653201,67.470229,84.75701,0.0,22.067699,3.204861,9.13147,-11.605568,-3.800411,-25.498695,-17.651482,-39.986916,-32.93026,0.0,-64.659381,-60.780251,-126.15603,-64.157505,-138.788867,-62.892486,-132.161952,-56.607776,-111.495402,20.235186,290.990866,-156.54954,-15.945114
39,1.131248,-0.675303,-2.076817,-0.52247,0.0,-59.988785,-30.968857,-90.181274,-24.673805,-92.560043,-16.363678,-77.337284,-7.512589,-54.637127,0.0,28.130153,29.255863,55.233582,46.839664,70.762576,59.323127,81.292503,67.215076,85.385197,0.0,24.593925,4.64241,14.666119,-9.973927,2.183647,-23.608017,-11.688309,-37.762985,-27.283916,0.0,-64.698006,-62.918761,-125.951173,-67.107785,-139.308806,-66.28033,-132.58786,-60.222552,-112.570553,20.627489,290.312322,-159.365301,-16.470826
40,0.993805,-0.409776,-1.932449,-0.874386,0.0,-61.145382,-31.137886,-90.721951,-24.620934,-93.062153,-16.267776,-78.061581,-7.438431,-55.373096,0.0,28.067477,29.511572,55.444275,47.259072,70.989262,59.803483,81.417301,67.585579,85.780153,0.0,26.383095,7.934189,18.552303,-5.945721,9.114819,-19.347382,-5.004501,-33.865414,-21.919785,0.0,-62.401848,-61.625614,-122.726011,-66.310711,-136.39431,-66.570371,-130.053469,-61.896544,-112.66375,20.891962,289.813486,-162.027082,-17.434272
41,-0.475044,-0.307023,-2.023487,-1.836951,0.0,-61.233902,-30.323868,-90.493069,-23.657341,-92.636719,-15.404549,-77.815132,-6.727753,-54.876137,0.0,28.910184,29.784941,55.860781,47.693425,70.775605,60.285198,82.252475,68.025798,86.173811,0.0,26.485004,9.858055,23.00211,-3.907471,12.259884,-17.191658,-1.18475,-31.648693,-17.468948,0.0,-59.783908,-59.410473,-119.009562,-64.320279,-132.373339,-65.011451,-126.754638,-60.870561,-110.541913,19.523563,289.490238,-164.943924,-19.287448
42,-0.467491,0.720566,-1.806507,-0.939687,0.0,-60.917702,-30.455132,-89.956799,-23.869514,-91.994934,-15.599556,-77.481709,-6.846657,-54.416142,0.0,27.737606,29.084938,54.926065,46.93161,70.059918,59.524063,81.89846,67.266947,85.263425,0.0,25.999718,10.006599,25.139236,-3.104496,14.269295,-15.844688,0.745754,-29.828739,-16.064415,0.0,-58.322801,-57.639749,-116.440745,-62.837898,-129.992552,-63.944064,-124.906912,-60.337563,-109.215607,18.278332,290.254709,-167.528172,-20.18323
43,0.17395,-0.594101,-0.665703,0.033561,0.0,-60.932579,-30.615807,-89.903069,-24.09565,-91.897202,-15.723839,-77.147427,-6.712303,-54.299412,0.0,28.242909,29.44414,55.336335,47.170399,70.8121,59.746488,82.248955,67.673944,86.000169,0.0,22.849731,9.56171,23.956833,-3.416691,13.47496,-16.157227,0.590286,-29.925156,-17.534122,0.0,-57.667012,-56.697592,-115.28064,-61.556114,-128.076499,-62.231015,-122.786526,-58.177904,-107.042672,18.076973,289.529712,-168.569183,-20.280564
44,-0.64064,0.216126,-1.278191,0.541952,0.0,-61.681595,-30.410728,-90.395565,-23.68412,-92.206135,-15.327187,-77.494183,-6.561356,-54.894047,0.0,28.319048,29.45649,55.584016,47.619448,70.261348,60.3932,81.821519,68.11021,85.452814,0.0,22.161942,8.139954,21.494923,-4.690933,11.088409,-17.163105,-1.632614,-30.637264,-18.407593,0.0,-60.085683,-57.379872,-115.613953,-62.323795,-128.534023,-62.937101,-123.678974,-58.928109,-108.428753,16.991501,289.731343,-170.292206,-19.753108
45,-0.614204,-0.467759,2.384548,1.183014,0.0,-61.562576,-30.697289,-90.53009,-23.831291,-92.194576,-15.255089,-77.374935,-6.420937,-55.271645,0.0,28.479352,30.497787,55.723448,48.738859,70.787276,61.365213,81.92668,68.873384,85.045137,0.0,13.431816,3.202572,12.379875,-9.769707,1.204205,-22.213497,-10.048599,-35.485039,-25.724602,0.0,-61.388308,-58.094571,-117.036359,-61.823185,-128.982315,-61.423166,-122.957112,-56.618366,-106.46546,16.346998,289.164289,-167.937956,-18.669388
46,-0.571632,-0.450037,3.399296,-2.601699,0.0,-61.374893,-30.673599,-90.782776,-23.373184,-91.894054,-14.527473,-77.825546,-5.706024,-55.2071,0.0,28.79891,30.29185,56.41882,48.392995,70.924732,61.120002,82.104212,68.888142,85.44738,0.0,-1.235676,-5.854855,-0.90374,-17.552204,-10.840073,-28.45705,-21.035671,-39.851017,-35.772686,0.0,-60.788618,-57.507232,-118.736085,-59.383457,-128.771592,-57.046667,-121.690642,-50.057261,-102.845558,15.850582,288.653459,-164.463444,-21.331881
47,-0.542793,-0.276024,-2.480679,0.389583,0.0,-61.28088,-31.004677,-90.53318,-24.071274,-92.061138,-15.501251,-77.863026,-6.776047,-55.252705,0.0,27.945334,29.950679,55.9941,47.843355,70.864649,60.509846,81.967126,68.404883,84.955723,0.0,-15.846405,-30.368099,-18.232269,-32.977009,-18.511906,-32.695312,-22.034855,-29.431,-28.035336,0.0,-49.238791,-45.692279,-117.347859,-48.722495,-124.116846,-47.605307,-116.414501,-43.016387,-98.594166,15.722837,288.132717,-166.529074,-21.187014
48,-0.825806,-0.048906,-33.883038,-9.38949,0.0,-62.699718,-30.750504,-91.224289,-23.677254,-92.15704,-14.994392,-77.614346,-6.183357,-56.092243,0.0,28.065068,30.018419,56.919122,48.069299,71.399037,60.846324,82.543752,68.642869,85.488814,0.0,-13.840027,-18.840866,6.75539,-10.454235,13.277607,3.311577,20.095825,21.385059,26.404095,0.0,-56.195715,-34.577822,-100.209973,-29.431327,-105.508946,-23.174837,-95.665529,-16.524225,-75.848463,14.076033,287.762416,-201.23311,-30.897899
49,-0.240555,-1.247173,-7.930584,10.47994,0.0,-61.479492,-31.268692,-91.146469,-23.910484,-92.095642,-14.920464,-78.109303,-5.94841,-56.239529,0.0,28.770073,30.464504,56.879848,48.232382,72.107623,60.799888,83.164776,68.660839,86.160041,0.0,-14.245892,-10.112686,12.644634,6.168709,24.074535,24.373856,33.053455,42.522697,42.232189,0.0,-59.9138,-30.856557,-107.713868,-26.593741,-113.607837,-22.789731,-105.026089,-19.626164,-85.84851,11.923828,286.28178,-211.075344,-20.651422
50,-1.782074,0.058107,3.316326,7.122354,0.0,-62.112637,-31.235275,-90.526142,-24.055138,-91.324482,-15.279465,-77.353878,-6.472893,-57.062073,0.0,28.858623,29.634887,57.618383,47.908007,71.824436,60.964144,82.821073,68.953042,85.661283,0.0,-13.609085,-10.700111,11.763039,5.545177,19.677486,23.949337,30.625248,41.779804,40.658054,0.0,-59.751335,-29.579096,-106.385339,-25.807689,-112.404615,-22.454364,-104.130245,-19.849269,-86.136236,9.648142,286.005493,-208.25263,-13.863461
51,0.025749,0.207481,3.12109,5.26132,0.0,-61.718445,-31.653099,-91.357841,-24.560509,-91.73624,-15.804863,-77.154694,-7.049446,-56.657639,0.0,28.950878,29.925546,56.554856,48.006746,71.671974,60.812053,81.72982,68.688009,85.219706,0.0,-12.886276,-7.573185,10.145817,9.887466,22.274265,28.334885,32.836533,45.595608,44.24881,0.0,-58.722851,-26.895299,-104.38055,-22.997953,-111.023381,-20.010098,-102.454524,-17.909781,-83.844987,9.207401,286.046295,-205.59803,-8.768821
52,-0.321465,0.048536,5.908413,3.970212,0.0,-61.931248,-31.669579,-91.458321,-24.444122,-92.152004,-15.60379,-77.497787,-6.78772,-56.531467,0.0,28.685722,29.61136,56.924988,47.681013,71.783434,60.551219,82.18881,68.481454,85.5384,0.0,-14.296646,-8.055725,10.815468,8.381081,22.412682,26.577358,32.658691,44.373894,43.501797,0.0,-58.984518,-26.522605,-105.40502,-22.866116,-112.17549,-19.227751,-104.043547,-16.298311,-84.905026,8.715191,286.015821,-199.860363,-4.877619
53,0.737801,0.882722,1.093769,1.69261,0.0,-61.682224,-31.853485,-91.637192,-25.070343,-92.878418,-16.604462,-77.932205,-7.94838,-56.345787,0.0,27.805593,29.019483,55.771799,47.232273,71.27214,60.152373,81.298493,68.273293,85.071875,0.0,-13.449955,-5.588837,12.863159,10.204239,25.267696,27.54427,35.558338,44.737415,44.286633,0.0,-57.063679,-27.463712,-105.647576,-23.960457,-112.616264,-20.097104,-104.136265,-16.40412,-84.298729,9.115877,286.857803,-199.103708,-3.225749
54,-0.10643,1.136455,-0.351963,0.715626,0.0,-60.850983,-32.67952,-91.696701,-25.478096,-92.962132,-16.497345,-77.994404,-7.352829,-56.128807,0.0,27.471585,29.206092,55.899313,47.319711,71.075589,59.929392,80.792695,67.341665,84.672474,0.0,-11.10466,-5.402927,15.055847,10.533714,27.383938,28.081913,38.193169,45.249939,46.17588,0.0,-58.662706,-29.003088,-106.905555,-25.846592,-112.751621,-22.263123,-104.491268,-18.219706,-84.11073,9.1539,287.972475,-199.311218,-2.531906
55,0.237694,0.553037,0.307274,0.131158,0.0,-60.61924,-32.43187,-91.445789,-25.496063,-92.758369,-16.787338,-77.210999,-8.034554,-56.061745,0.0,27.916312,29.219307,54.951383,47.45266,70.379785,60.382146,80.181984,68.490469,84.136048,0.0,-12.317276,-5.895653,14.655132,9.532127,26.725445,26.933613,37.704964,44.208927,45.496559,0.0,-58.453527,-29.099172,-107.03026,-25.681965,-112.931253,-21.832013,-104.451162,-17.639499,-83.917853,9.7225,288.516589,-198.673038,-2.409671
56,0.010185,0.116214,-0.629368,-0.227828,0.0,-60.601845,-32.992287,-91.484642,-25.835724,-92.817307,-16.781273,-77.690735,-7.502403,-56.210918,0.0,27.787253,29.8851,55.160779,47.979144,70.912135,60.636743,80.995854,68.356595,84.77782,0.0,-12.136974,-6.208649,15.628223,9.501686,27.198715,27.06665,37.978306,44.468594,46.023273,0.0,-59.16486,-29.405515,-107.818597,-25.928103,-113.134535,-22.069813,-104.892306,-17.949178,-84.662841,10.024939,288.634594,-199.010153,-2.635708
57,0.208397,0.198528,-0.00967,-1.23649,0.0,-61.437149,-32.094154,-90.997639,-25.014496,-92.315712,-16.021729,-77.758369,-6.897926,-55.840816,0.0,27.795034,29.797229,54.657204,47.902203,70.775729,60.476563,81.040932,68.124228,85.236564,0.0,-12.238083,-7.208462,16.366653,8.715534,28.456306,26.40707,39.282818,43.940392,46.320305,0.0,-58.003706,-29.01479,-106.29753,-24.941794,-111.936639,-20.672,-104.031382,-16.460499,-83.42882,10.77075,288.919479,-198.482409,-3.785841
58,0.162277,-0.147583,-0.092239,0.185869,0.0,-61.831398,-32.271309,-91.648521,-25.147247,-93.06284,-16.054115,-78.10112,-6.775932,-55.51466,0.0,27.643622,29.65193,56.052393,47.903067,70.983889,60.720539,81.9168,68.444836,85.723033,0.0,-12.778816,-5.987492,16.503468,10.208359,28.969116,27.747173,39.552898,45.179501,46.416893,0.0,-58.179417,-28.464346,-106.226023,-24.679108,-112.014722,-20.646034,-104.356467,-16.698361,-83.37624,11.132898,288.898407,-198.374777,-3.473461
59,0.197411,-0.401872,-0.531063,-0.826344,0.0,-61.795692,-32.255859,-91.559601,-25.10994,-92.631111,-16.021385,-77.852669,-6.669159,-55.401249,0.0,27.943543,30.209907,56.242954,48.408556,71.402125,61.087089,82.063951,68.672263,86.045371,0.0,-12.150135,-5.537167,16.682396,10.899582,29.319992,28.464432,40.047913,45.611115,46.981373,0.0,-58.866174,-28.594455,-106.387654,-24.506917,-111.141325,-20.224495,-103.536453,-15.991103,-82.560455,11.514759,288.728393,-198.72139,-4.067947
60,0.041656,-0.388595,0.418968,-0.032759,0.0,-61.96249,-32.153091,-91.861439,-24.902115,-93.003159,-15.707245,-78.216534,-6.312332,-55.421791,0.0,28.605076,30.354341,56.804019,48.683037,71.840368,61.312972,83.132974,68.751118,86.469164,0.0,-11.701641,-5.839806,15.926857,10.827026,28.723125,28.582649,39.422321,45.703869,46.753864,0.0,-58.801583,-28.326334,-106.316672,-24.14824,-111.56274,-19.903393,-103.542844,-15.819313,-82.629554,11.611061,288.466633,-198.247776,-3.973871
61,-0.49221,-0.676229,-1.37701,0.038718,0.0,-63.537884,-31.371574,-91.467991,-24.178162,-92.96133,-15.166054,-78.213444,-5.99247,-55.281658,0.0,29.328914,30.136486,57.23621,48.503652,72.148008,61.441969,83.715589,69.121867,87.718127,0.0,-10.620861,-4.273739,18.136768,12.146015,30.849323,29.542065,41.331654,46.321964,48.806019,0.0,-59.074057,-28.14837,-105.71686,-24.198443,-111.309996,-20.048877,-102.809897,-15.92926,-82.882206,11.129208,287.855551,-199.614429,-3.870006
62,0.465546,0.098739,-0.003204,-0.726617,0.0,-63.220482,-31.878891,-91.68314,-24.717407,-92.546253,-15.7901,-77.996521,-6.517639,-55.149422,0.0,29.178799,29.993101,56.975376,48.248499,72.005426,61.040344,83.496437,68.551047,87.861759,0.0,-9.764042,-4.659176,18.310776,11.687393,31.041412,29.227123,41.806412,46.023159,49.689445,0.0,-58.009263,-27.881824,-104.855843,-23.992196,-110.444811,-20.010067,-102.032552,-15.826075,-82.757748,11.639671,288.03191,-199.572716,-4.519003
63,0.359573,0.231749,0.274887,0.571407,0.0,-63.482151,-31.979713,-92.370701,-24.766846,-93.419151,-15.715141,-78.484554,-6.263123,-54.938793,0.0,29.043071,29.812914,56.9106,47.990876,72.331036,60.601669,83.754677,67.818378,87.819089,0.0,-10.747948,-4.154205,18.33744,11.789989,30.964966,29.135342,41.677094,46.106987,49.75153,0.0,-58.632572,-27.906802,-105.293622,-24.28724,-110.819883,-20.276334,-102.848677,-15.993017,-82.53699,12.180319,288.361688,-199.116755,-3.849567
64,-0.200615,0.249657,-0.160446,-0.732453,0.0,-63.101006,-32.299461,-92.22971,-25.1754,-93.342476,-16.176338,-78.55402,-6.753044,-55.314102,0.0,28.633728,29.508237,56.824952,47.64847,72.129606,60.403697,83.348483,67.936321,87.431791,0.0,-9.699154,-4.355907,19.671192,11.066036,31.719131,28.24173,42.360191,45.284157,49.667473,0.0,-59.093631,-28.925159,-106.011934,-24.931667,-110.748901,-20.38094,-102.887857,-15.494135,-82.177634,12.056808,288.741067,-199.200096,-4.452297
65,-0.531349,-0.194514,0.35511,0.118993,0.0,-62.889748,-32.054787,-91.816349,-24.907722,-93.183174,-15.90271,-78.56987,-6.41716,-55.454979,0.0,28.818485,29.623896,57.556015,47.848295,72.248106,60.709856,83.388003,68.417048,87.898253,0.0,-10.732613,-5.182915,19.968281,10.049858,31.467476,27.368603,42.480755,44.850483,49.42606,0.0,-57.533878,-28.522052,-105.865246,-24.318918,-110.629136,-19.821172,-102.874766,-15.186958,-82.265998,11.564798,288.651436,-198.805647,-4.228421
66,0.33783,0.212421,-0.304413,-0.546399,0.0,-62.856674,-32.298546,-91.622543,-25.266609,-92.978039,-16.342163,-78.332233,-6.981583,-55.758133,0.0,28.332201,29.432037,57.015823,47.611852,71.813259,60.514724,83.021885,68.399635,87.679719,0.0,-10.239258,-4.846344,20.226974,10.427685,31.939087,27.70792,42.602978,45.074329,49.902077,0.0,-57.624249,-27.78327,-105.305231,-23.64519,-109.849568,-19.208361,-102.348375,-14.743189,-81.478897,11.948833,288.934624,-199.063854,-4.704054
67,-0.059509,-0.08571,-0.251198,-0.370688,0.0,-62.748642,-32.048492,-91.976566,-24.852333,-93.063126,-15.797882,-78.306942,-6.293793,-55.468826,0.0,28.755747,29.63816,57.123639,47.827053,72.313931,60.7361,83.550283,68.443601,88.067511,0.0,-10.247498,-4.192715,20.789223,11.263962,32.606564,28.407898,43.191319,45.553265,50.114937,0.0,-58.310142,-27.651155,-104.75519,-23.259775,-109.136227,-18.602806,-101.75767,-13.87822,-80.331265,11.956043,288.867516,-199.248333,-5.056139
68,0.418968,0.425584,0.413189,0.748631,0.0,-63.22443,-31.941833,-92.136383,-24.908066,-93.413143,-16.044502,-78.934536,-6.834984,-56.160736,0.0,28.67121,29.443646,56.723558,47.650446,71.61257,60.554862,83.075052,68.341404,87.539237,0.0,-11.640759,-4.816246,20.361671,10.696106,32.724323,27.993965,43.241215,45.224304,50.265026,0.0,-57.691094,-28.207959,-105.568875,-23.943383,-110.045286,-19.392871,-102.075932,-14.821704,-81.433479,12.498293,289.299831,-198.711863,-4.300777
69,-0.793419,0.619171,0.671196,-0.267997,0.0,-63.286228,-30.889893,-91.708832,-23.911057,-93.376694,-15.130234,-78.464069,-5.914192,-55.599804,0.0,27.57829,28.863563,55.904686,46.679112,70.945789,59.517949,82.733819,67.332279,87.368188,0.0,-10.972595,-4.211941,19.992714,11.345444,32.334824,28.597126,42.97205,45.840912,50.089474,0.0,-57.61264,-26.644624,-104.544312,-22.666322,-109.787015,-18.297295,-102.110944,-14.04297,-81.120003,11.884003,289.91275,-197.861538,-4.575026
70,-0.787697,1.112372,0.437737,1.517887,0.0,-63.100891,-31.121635,-91.366425,-24.349136,-93.386993,-15.83313,-78.79034,-6.910286,-56.391621,0.0,27.01173,28.988607,55.01091,47.428392,69.939072,60.536769,81.392662,68.544563,86.544808,0.0,-9.735088,-4.025574,20.836029,11.605854,32.609367,28.748875,43.636436,45.930119,51.144104,0.0,-58.819583,-27.715962,-105.628711,-23.79302,-110.813245,-19.294688,-103.497087,-14.816517,-81.979785,11.328993,291.014933,-197.191114,-3.067328
71,0.721436,0.380691,1.021614,1.346221,0.0,-63.338013,-31.926155,-92.687588,-24.975243,-93.57336,-16.208382,-78.647804,-7.083893,-55.813351,0.0,26.502783,29.493726,54.622438,47.920049,69.089819,61.060475,81.316956,69.092721,87.131128,0.0,-9.938393,-4.965305,21.056442,10.489769,32.853241,27.660713,43.647022,44.927902,50.866585,0.0,-59.380555,-27.447564,-105.490081,-23.089591,-110.396646,-18.355094,-102.872512,-13.78757,-82.047217,12.368002,291.410753,-195.851927,-1.705979
72,0.959473,0.308443,2.194004,2.237773,0.0,-64.74884,-31.910934,-93.988323,-25.012207,-94.473381,-16.592903,-80.468273,-7.995529,-58.618813,0.0,24.753888,30.185701,53.812026,48.918368,67.612996,62.13487,80.797574,69.985138,86.328867,0.0,-11.532555,-5.426102,20.999966,9.583855,33.978882,26.434307,43.824062,43.608799,50.692806,0.0,-59.205245,-27.243695,-104.965141,-22.859015,-111.113383,-17.76195,-103.230016,-13.045763,-81.477322,13.559017,291.77329,-193.42638,0.585888
73,2.43084,0.611206,1.821384,-0.78034,0.0,-64.979725,-31.744423,-95.054684,-25.184097,-94.894753,-16.968155,-80.720387,-8.673363,-58.769588,0.0,23.681345,28.746978,52.228869,47.301495,66.211015,60.438216,80.849876,68.447862,86.594949,0.0,-7.714291,-5.964661,26.091042,9.322701,39.035797,26.198158,47.110863,43.230686,53.446941,0.0,-57.237538,-25.876479,-100.165035,-19.192707,-105.857527,-12.734571,-96.960003,-7.735351,-75.985549,16.920805,292.435255,-190.674047,-0.143693
74,0.399628,-0.512528,4.070663,2.572491,0.0,-64.910431,-31.548958,-94.539356,-25.10479,-95.311546,-17.088203,-81.734676,-8.783913,-59.896202,0.0,22.583731,29.481129,52.028365,48.022184,65.334715,60.920548,79.206512,68.346961,85.435956,0.0,-5.942745,-8.928852,30.989571,4.625473,42.545872,21.19091,50.431023,38.781967,55.864391,0.0,-58.716799,-26.899745,-95.700264,-18.503202,-100.205388,-10.604769,-90.987194,-4.44958,-70.1062,19.214087,292.850264,-184.70973,3.356336
75,2.10537,-1.101566,5.342789,3.674983,0.0,-65.673008,-31.36734,-96.569366,-24.835968,-96.355362,-16.86264,-83.237858,-8.827744,-61.598282,0.0,21.871996,28.752103,50.899938,47.550534,64.113539,60.827861,79.53274,68.852759,85.608363,0.0,-1.423244,-9.886436,35.665283,2.964706,44.098778,18.90913,53.030777,36.741199,57.782421,0.0,-59.628205,-24.312712,-89.421111,-14.046335,-93.136078,-5.102375,-84.583306,1.082052,-62.721221,23.62401,291.89412,-177.062387,7.176741
76,0.351562,-0.783366,5.047531,4.418983,0.0,-65.112591,-31.143265,-95.723991,-24.975128,-96.17197,-17.410698,-84.132156,-9.624252,-62.566967,0.0,19.8359,28.914322,49.79967,47.549114,62.226446,60.36992,76.743659,67.744524,83.746217,0.0,2.123795,-8.15443,39.492416,3.542633,48.394489,18.381786,56.282215,34.893322,58.804836,0.0,-57.304074,-19.546692,-80.952104,-9.178736,-83.873609,0.422805,-74.532716,7.899329,-51.243981,27.501554,291.166531,-168.488874,11.6515
77,1.578255,-0.889268,8.524303,1.991451,0.0,-65.841122,-31.491737,-96.675224,-25.466423,-97.304478,-18.104439,-84.907322,-10.750694,-63.605633,0.0,18.633063,28.280948,48.30463,47.080058,61.985681,60.015102,76.947744,67.5087,82.43291,0.0,5.082207,-6.925335,40.915031,1.869965,54.543228,14.020157,61.611671,27.724514,58.859196,0.0,-50.745161,-16.497086,-63.007589,-2.89631,-64.697173,9.61562,-52.766499,19.596987,-29.067092,30.967798,289.702305,-158.076582,13.067993
78,0.230484,-1.326028,4.826546,3.074275,0.0,-65.047817,-32.545853,-96.974087,-26.831245,-97.838173,-19.497757,-85.71516,-11.658783,-64.625301,0.0,17.231638,28.698627,47.600614,47.032634,60.601175,59.75081,75.047931,67.091143,83.468711,0.0,12.095032,3.096085,46.164093,10.346031,61.215305,18.756123,68.109741,27.311668,62.312279,0.0,-41.177305,-8.210644,-46.51004,4.758641,-37.853033,17.061052,-28.447705,26.334698,-5.54318,32.010927,286.758755,-152.437391,14.524747
79,-0.809898,-0.740326,16.492023,31.393199,0.0,-64.612598,-32.85965,-96.082363,-27.062645,-97.484665,-19.321404,-84.729481,-10.905762,-63.445473,0.0,18.251261,28.588959,47.603207,47.209857,61.157238,60.041778,76.096638,67.375566,84.008842,0.0,14.73381,19.49255,39.927979,23.495121,44.7785,27.038441,44.621143,30.235348,44.678879,0.0,-48.615791,-30.747969,-40.275687,-14.253724,-29.222888,1.928064,-16.363983,18.451455,-5.034604,31.793833,283.840246,-135.352564,43.739762
80,-0.960274,-0.357597,5.358925,12.449871,0.0,-64.932518,-32.988052,-96.518097,-27.476807,-97.232952,-20.215988,-85.417385,-12.308693,-64.423084,0.0,18.018894,28.486391,47.258331,47.144093,60.048879,60.177999,75.050092,67.869569,83.540218,0.0,16.597881,36.774387,37.357979,43.946629,39.972095,46.361446,36.741199,43.977242,32.786579,0.0,-40.794823,-25.557384,-28.257421,-9.621363,-17.620171,7.499927,-5.72099,24.984217,8.800545,31.797638,283.203105,-129.02956,55.910089
81,-1.137428,-0.083054,9.554186,27.811814,0.0,-64.591541,-32.954521,-95.52824,-27.179832,-96.303349,-19.532318,-83.352928,-11.486206,-62.356339,0.0,17.685812,28.056547,46.208019,46.567529,60.31101,59.585751,75.982091,67.306344,82.467305,0.0,22.049017,42.291813,43.132439,46.985836,49.543676,47.046604,46.102724,42.282457,42.876921,0.0,-39.04619,-19.579435,-26.705339,-2.511574,-14.700457,15.362082,-1.252051,32.861424,13.503071,31.274443,282.90255,-118.861141,83.504403
82,0.50251,0.127453,9.554186,27.811815,0.0,-65.196304,-33.42659,-96.687813,-27.918549,-97.542458,-20.474281,-84.817715,-12.348404,-64.350815,0.0,16.921157,27.648562,45.555193,46.33788,60.106616,59.463671,75.24615,67.320978,82.869732,0.0,27.500153,47.809238,48.906898,50.025043,59.115257,47.731762,55.464249,40.587673,52.967262,0.0,-37.297558,-13.601485,-25.153258,4.598214,-11.780744,23.224237,3.216888,40.73863,18.205596,31.798983,282.477692,-109.284925,110.763906
83,-0.721207,-0.210137,6.92482,26.459603,0.0,-65.615559,-33.753204,-96.915894,-28.106003,-97.904549,-20.534019,-85.216999,-12.034378,-64.019394,0.0,18.547971,27.901862,46.585684,46.532332,60.336142,59.703695,75.519704,67.618677,83.321375,0.0,31.721763,55.175171,58.316803,57.940435,69.428444,54.657612,66.490802,45.929575,61.235733,0.0,-30.093229,-8.536114,-15.361603,9.82497,-1.996174,28.113064,13.602381,45.358009,29.329053,30.902796,281.618991,-102.535085,136.574945
84,-0.022545,0.612255,6.92482,26.459604,0.0,-65.109215,-33.889961,-96.933632,-28.368645,-98.064537,-20.956306,-85.96487,-12.690811,-65.587177,0.0,18.30276,28.106565,46.325406,47.048627,60.162315,60.446614,75.553482,68.609462,84.224042,0.0,35.943375,62.541103,67.726707,65.855827,79.741631,61.583462,77.517357,51.271477,69.504204,0.0,-22.888902,-3.470744,-5.569949,15.051725,7.788394,33.00189,23.987874,49.977387,40.45251,30.908833,281.729833,-95.581684,162.533136
85,-0.375137,0.352595,8.115292,11.180097,0.0,-64.273338,-33.417091,-96.302547,-27.889938,-97.740211,-20.394402,-85.790291,-11.96743,-65.493279,0.0,19.279528,28.865415,45.640038,47.148663,59.789466,59.859491,75.473391,67.39477,84.239789,0.0,40.726032,20.195503,81.934834,24.603138,91.804104,29.508476,93.554707,34.405117,83.690128,0.0,-15.09143,9.438797,11.177689,25.749798,25.942336,38.962534,36.160733,49.337406,40.324748,30.589943,281.6061,-87.410145,173.236906
86,-1.545067,0.429227,4.990711,30.471173,0.0,-64.427204,-32.020798,-96.08963,-26.6605,-97.546692,-19.512405,-86.634464,-11.32164,-66.111946,0.0,19.856895,29.57394,46.434149,47.76771,59.297686,60.245925,74.83693,67.43287,84.976039,0.0,55.644207,21.718197,96.62899,20.80719,98.494492,20.890846,91.680679,21.58247,77.503853,0.0,-2.902763,12.922385,24.499167,36.171107,37.392962,54.579831,45.586315,67.397302,54.842887,29.093056,281.771082,-82.371254,203.443834
87,4.728584,5.551918,4.232197,14.263666,0.0,-39.241219,-35.718727,-97.871017,-32.569542,-102.833118,-26.353683,-91.757698,-18.312836,-69.526463,0.0,-17.011436,24.332194,39.934732,39.863164,54.384514,51.72233,67.937865,60.311195,79.324764,0.0,54.560909,19.959755,92.225246,16.188469,93.385677,13.598957,85.589504,11.33749,67.852764,0.0,3.584056,23.385375,37.23062,41.719134,59.045867,55.030979,71.79424,63.454847,75.096837,33.85849,287.164054,-78.102207,217.548554
88,-8.999977,2.361768,0.891552,19.428038,0.0,-67.90844,-18.006821,-90.052013,-12.754097,-91.928215,-8.410034,-80.2775,-4.310989,-56.720695,0.0,7.757457,13.900203,32.190922,29.490515,43.060971,42.920982,55.807861,53.347539,71.438619,0.0,59.398499,23.297653,91.782074,18.061123,90.294685,13.852158,79.369583,9.976044,57.787056,0.0,5.326961,26.046756,45.310044,39.667847,59.154363,49.097691,70.383058,54.482265,73.700907,24.3433,289.352705,-77.725868,236.803475
89,4.995804,22.345313,13.450813,16.076288,0.0,-63.905582,-17.448578,-84.104919,-12.884903,-91.317043,-9.138908,-81.108856,-6.329155,-61.988811,0.0,23.797189,14.463614,4.547733,13.442818,-1.155968,11.357568,4.628008,8.433748,13.679569,0.0,60.938988,25.002594,87.933197,21.713219,81.479301,19.525623,70.992279,16.891022,52.25029,0.0,9.301773,34.181817,47.133163,58.233047,57.938065,75.695075,80.256578,86.696714,99.544381,29.004164,311.333088,-64.609995,252.514833
90,-2.84729,-19.989164,-5.366936,9.045324,0.0,-58.845234,-10.579834,-68.065224,-7.005272,-73.882999,-3.97316,-67.167034,-1.390343,-48.441525,0.0,-5.087431,28.270388,20.41481,37.720918,26.979125,43.988462,42.487,47.320329,59.422051,0.0,69.672089,24.108009,97.077942,17.325897,97.217445,12.619171,86.793137,8.59148,66.631966,0.0,20.468841,34.538796,55.24056,55.301446,70.774926,68.573092,83.938323,75.694087,89.850554,25.839872,291.09084,-70.293932,261.307073
91,-5.840378,18.729456,3.256187,8.373479,0.0,-70.936489,-31.963005,-61.65699,-29.475861,-54.71386,-25.536346,-53.018475,-21.721573,-56.969833,0.0,42.725419,12.626292,26.331611,15.625262,19.39,16.40165,17.183472,14.616817,23.961012,0.0,69.75174,26.991062,94.362488,17.559185,93.934479,9.433079,80.235786,2.66819,55.932655,0.0,18.449788,34.126056,61.720401,52.422704,78.911592,64.078094,90.001534,70.313465,91.618901,19.738598,309.506727,-67.298641,269.366983
92,10.225639,-12.779618,5.702133,6.271989,0.0,-52.969208,-49.036617,-11.010475,-53.235397,-3.316154,-52.886696,-13.698235,-49.596577,-42.588043,0.0,12.431778,12.335942,50.469847,26.702113,61.982779,38.794079,66.302714,49.521546,63.334001,0.0,68.578949,26.514416,90.202789,15.831127,89.538002,5.917854,74.542007,-2.840652,51.745834,0.0,15.555238,32.251561,62.376252,49.572119,81.627931,60.928638,93.455852,67.499128,92.25141,29.863644,296.617332,-61.697102,275.529196
93,-4.57077,40.087194,2.609711,2.787475,0.0,-60.526829,-54.603596,-9.169121,-52.237072,6.989937,-44.54298,9.193726,-34.236259,-34.616776,0.0,34.434932,1.205677,32.678195,-11.39326,22.13215,-24.421979,8.907188,-37.261063,-23.365059,0.0,69.578819,28.374653,92.584534,18.463154,92.194176,8.751869,76.720505,-0.409126,55.305061,0.0,12.931771,32.932915,61.883052,50.258537,80.547423,61.422085,91.844722,68.143803,93.120671,25.231819,336.677248,-59.148445,278.289393
94,3.843956,-34.609315,3.785992,2.354852,0.0,-40.110512,-48.652267,3.9711,-54.963684,10.604553,-54.364185,5.45517,-50.902977,-22.085266,0.0,-9.99344,13.999683,39.023173,30.417018,51.347814,42.9082,60.308293,52.033491,67.118993,0.0,68.868198,28.305416,93.76894,19.029694,93.731747,9.846725,78.585262,1.21336,56.614437,0.0,12.894042,33.04882,59.42131,49.942869,76.030071,60.775496,86.064143,67.300971,89.59744,29.251528,302.099657,-55.186701,280.675969
95,-40.505447,-14.379818,4.043255,3.32773,0.0,13.540649,-7.596188,50.76828,-16.343021,50.791969,-25.119324,36.124878,-32.795963,-8.6166,0.0,10.37586,22.829374,49.866175,39.886752,65.637971,51.640943,73.183007,60.436795,78.020905,0.0,70.815353,26.997013,90.283241,17.634144,89.783707,8.533745,75.774193,0.037766,53.689842,0.0,12.559787,32.622743,60.608215,48.915033,74.12396,59.679427,83.979325,66.154143,89.022852,-10.962667,287.781003,-50.852194,284.064863
96,19.674568,6.716592,1.236248,1.126142,0.0,0.936012,-28.513126,28.238869,-39.036541,26.378059,-45.4842,16.459923,-48.89883,-16.459236,0.0,8.622889,22.111032,48.134137,37.71567,62.541991,48.91139,69.099205,57.234296,72.701045,0.0,69.559193,25.994225,87.276478,17.278404,88.887005,8.539639,75.17149,0.22253,53.02763,0.0,14.576988,33.743266,62.6545,50.194316,75.552555,61.027253,84.749723,67.402983,89.566132,9.191551,294.51646,-49.136295,285.20987
97,-11.373024,3.82445,0.363064,1.392966,0.0,8.241234,-22.342644,34.134865,-29.828968,44.576111,-31.785049,32.509689,-30.206509,7.848129,0.0,28.654167,19.420628,48.189281,34.943632,62.116283,47.312672,69.791489,57.404047,72.952554,0.0,70.924988,25.487995,88.13942,15.833988,86.56105,6.898384,72.848282,-1.018295,51.646957,0.0,13.59917,32.993924,61.349405,49.541429,74.935607,60.27538,83.793642,66.463759,88.682113,-1.891365,298.337791,-48.483124,286.599717
98,3.47683,-2.889672,0.530205,-0.213656,0.0,3.529243,-25.311527,32.828979,-34.690933,34.601784,-40.189018,25.001564,-42.608986,-5.31395,0.0,18.927428,21.631293,47.031646,35.722243,59.683317,45.771875,64.03246,53.106713,68.174246,0.0,71.820145,25.368004,86.585655,15.809784,85.428085,6.893406,71.819916,-0.87925,51.513977,0.0,12.598443,32.779959,60.608215,49.698708,75.106841,60.758515,83.38084,67.276209,88.219541,1.878548,295.454927,-47.659836,286.392869
99,-15.466232,8.12234,-0.006065,-0.109236,0.0,30.95787,-3.456631,49.888687,-11.683674,58.677635,-16.805363,42.657738,-19.344406,17.326355,0.0,8.783687,8.354398,37.097672,25.638524,56.164655,41.133864,63.461145,54.333941,68.470709,0.0,71.316032,25.600605,86.731911,15.786724,85.714188,6.494751,71.720352,-1.584435,51.302147,0.0,13.681792,32.274717,60.64193,49.243237,74.876821,60.440192,83.151438,66.943004,87.549425,-13.171549,303.622222,-47.249765,286.328587
100,1.191788,5.754891,-0.227737,0.031369,0.0,29.283142,-5.3825,48.939857,-13.205795,56.309166,-18.370285,38.713074,-21.287098,13.707848,0.0,5.730747,7.922825,37.536346,23.693818,52.523048,38.139957,59.054204,50.221116,62.603864,0.0,70.876122,24.592667,86.841202,14.915257,85.92556,5.98114,72.607498,-1.568928,52.674522,0.0,14.270397,31.988566,60.445317,49.394525,74.796977,61.01373,82.84108,67.751194,87.36263,-11.768446,309.411307,-47.266188,286.39415
101,-0.550804,7.338419,-0.255947,-0.196428,0.0,31.567612,-2.218323,50.209465,-10.169106,54.8283,-15.798798,39.434509,-19.856701,10.739479,0.0,2.2232,5.433604,31.520621,19.809162,45.461518,33.383384,52.566088,44.668149,51.988475,0.0,71.023121,25.122528,87.256565,15.291481,85.801907,6.08551,72.158375,-1.69899,52.367191,0.0,14.338569,31.925148,60.058018,49.388968,75.33118,60.880719,83.805807,67.404959,87.537261,-12.058754,316.760332,-47.261639,286.208328
102,33.529129,-9.962194,-0.096645,0.001667,0.0,-38.040276,-45.51487,10.837784,-53.632278,13.731422,-55.727921,5.862236,-53.754673,-18.918343,0.0,17.267823,10.597729,36.878025,23.360366,47.51089,32.879871,50.921551,40.39854,55.13262,0.0,71.25206,24.76553,87.655106,15.119877,86.430473,6.206818,72.723656,-1.273499,53.140984,0.0,14.625276,31.901436,60.43309,49.360748,74.991985,60.941852,83.295439,67.527225,86.755253,21.794872,306.805378,-47.033787,286.217235
103,-18.806419,12.414797,0.267792,0.103802,0.0,15.266304,-17.914581,30.728989,-26.620674,34.622726,-30.603962,21.952629,-31.508904,-13.785553,0.0,-24.908572,-0.868211,22.629673,15.203878,38.463899,29.323603,47.841379,40.719827,46.731045,0.0,70.848312,24.513302,87.650642,14.755039,85.721741,5.716438,72.274475,-1.868477,52.733688,0.0,14.854185,31.932929,59.948658,49.385386,74.916279,60.869419,83.280249,67.309555,86.560863,3.256531,319.279363,-46.497917,286.380225
104,-14.592247,-13.106093,0.043144,0.321967,0.0,30.797539,-3.973961,48.808937,-12.392178,46.836319,-17.50803,41.325645,-18.580971,-5.714893,0.0,-6.061235,14.21865,40.644615,30.179464,55.843429,41.445271,60.687379,49.659311,66.687851,0.0,70.312386,24.049816,87.189789,13.970089,85.353699,4.815731,72.146072,-2.800083,52.365074,0.0,15.023628,32.195677,60.245678,49.50407,75.151857,60.863491,83.539477,67.032542,86.038763,-10.97085,306.232504,-46.089907,286.761426
105,27.41169,9.486716,-0.971489,-0.199577,0.0,-44.275932,-44.9053,11.203423,-49.086971,19.737167,-48.389053,16.118202,-44.358501,-3.603859,0.0,28.185543,7.653778,34.759183,13.345005,41.137692,17.020143,39.830992,19.389321,38.98816,0.0,70.35965,24.561653,86.602249,14.595509,84.702759,5.482864,71.687164,-2.209797,51.890373,0.0,14.587732,31.952936,60.103837,49.167531,74.668166,60.533929,83.28945,66.828272,86.42001,16.892624,315.843832,-46.609612,286.686461
106,-2.340546,-20.929005,0.008812,-0.193341,0.0,-1.957855,-31.84164,23.90934,-44.56913,21.852264,-52.144547,10.648842,-55.781765,-21.773186,0.0,8.310247,16.605056,42.941051,34.073877,58.989181,47.654151,66.516247,58.076942,71.186245,0.0,69.715233,24.875965,87.029457,14.988041,85.545616,5.596561,71.897507,-2.500763,51.822052,0.0,14.861657,32.191231,60.194796,49.333145,75.302713,60.674411,83.541638,67.024206,86.712707,14.845591,294.973629,-46.307287,286.551922
107,-12.435036,7.437281,-0.765896,0.171543,0.0,5.580711,-26.548119,28.223419,-34.369526,35.758553,-36.659088,25.802422,-35.611954,-0.215263,0.0,11.680214,16.745044,46.120518,32.711478,57.856616,45.353331,62.323826,55.620387,63.620214,0.0,70.14101,25.174713,87.44482,15.408897,85.821018,6.159897,72.066021,-1.876488,51.885395,0.0,13.673332,31.726559,60.232834,48.845996,75.350508,60.341947,83.708982,66.947759,86.622428,2.710619,302.482371,-46.773119,286.794926
108,8.884621,-6.760497,0.377655,-0.032419,0.0,-3.112221,-25.550652,29.333382,-37.343845,28.292542,-45.956726,15.764809,-51.686554,-18.537254,0.0,4.419168,17.223054,43.019907,33.795383,58.329377,46.296692,65.253266,55.884061,69.547143,0.0,69.852505,24.628258,86.410046,14.922695,85.030117,5.805302,71.480312,-2.075386,51.538754,0.0,14.153071,32.08644,59.583961,49.263861,74.936163,60.673176,83.252338,67.160674,86.296386,11.818628,295.815627,-46.172075,286.856259
109,-14.740105,8.205395,-0.036507,0.30338,0.0,17.188225,-16.594791,38.689499,-24.834194,43.091698,-28.29998,28.091469,-28.738976,-1.793518,0.0,2.34491,13.499319,40.937744,31.687347,54.814853,45.792932,59.033394,57.277336,56.358119,0.0,68.615284,24.900455,86.45422,15.10397,84.923,5.703106,70.505962,-2.637806,49.838276,0.0,13.61683,30.87607,59.58217,47.866326,74.707995,59.294783,82.636007,66.000816,86.014125,-2.770901,304.030006,-46.058006,287.168624
110,-5.349312,8.92559,0.213032,0.158019,0.0,27.221718,-6.993027,47.128029,-15.152378,51.606674,-20.275154,32.052727,-22.498112,-20.297642,0.0,-1.285458,6.112118,29.310883,23.084218,44.970417,37.105452,54.439595,48.260232,52.299264,0.0,68.83873,24.242363,86.295891,14.820328,85.474777,5.778866,71.156731,-2.217236,51.190453,0.0,13.783186,30.797833,59.329858,47.913133,74.304209,59.590321,81.995346,66.590286,85.270094,-7.921343,313.050753,-45.646105,287.4218
111,18.319359,-19.290767,-0.328503,-0.464363,0.0,3.630867,-26.323128,29.946327,-37.987633,27.398872,-45.497875,13.787613,-49.996891,-47.181416,0.0,4.520315,18.240763,44.930279,35.861058,58.687962,48.400405,66.518408,58.293624,78.005837,0.0,69.008274,24.851246,86.69981,15.315399,85.651188,5.989552,71.376286,-2.406006,50.7197,0.0,13.555389,30.467715,59.468734,47.712938,74.439442,59.427361,82.130086,66.451286,85.381492,10.803967,293.861411,-45.568657,287.058862
112,-16.692352,8.501735,-0.277519,0.317768,0.0,3.949242,-15.119247,41.700096,-23.599319,43.841515,-26.592407,30.686531,-26.325989,-7.463379,0.0,15.031718,16.379482,44.147407,33.81187,57.336925,46.610878,62.091521,57.085292,57.682789,0.0,68.775501,24.835339,86.458912,15.695,85.692844,6.671162,71.309452,-1.52956,51.275654,0.0,13.512904,30.598317,58.824369,47.787409,73.4812,59.457125,81.593783,66.456781,84.924292,-5.528955,302.451696,-45.486746,287.46518
113,22.389107,-7.798027,0.273228,-0.182719,0.0,-3.133507,-32.402287,23.904076,-44.189072,21.680603,-51.037159,7.670059,-54.369335,-53.55154,0.0,-0.582986,18.855056,43.687181,37.366903,58.24021,50.08014,65.35818,59.401673,76.114237,0.0,68.437843,24.67226,86.446609,15.373421,85.441246,6.209221,71.296463,-2.176094,51.128769,0.0,13.699514,30.355268,58.778426,47.572332,73.268346,59.273726,81.666217,66.299627,84.974927,17.105055,294.682753,-44.968615,287.311545
114,-17.892609,7.689038,-0.289307,-0.157896,0.0,12.230759,-22.096882,35.836258,-31.024933,38.964729,-33.876514,28.448296,-33.38728,1.766624,0.0,2.110753,13.353712,41.359067,32.801881,55.379869,47.416227,60.844842,59.050437,57.659447,0.0,68.494606,25.084133,86.689568,15.778885,85.645638,6.55798,71.414108,-1.870136,51.081276,0.0,13.477336,30.593068,58.42577,47.770427,72.852457,59.44706,81.470344,66.489756,85.106394,-0.532751,302.401046,-45.003119,287.182903
115,-3.111877,11.288963,-0.218582,0.0402,0.0,21.073265,-11.707706,45.202675,-21.273537,44.846878,-26.985397,28.975525,-29.87566,2.303696,0.0,-13.511114,6.96168,32.321401,23.402665,44.820055,36.746744,51.888809,46.77816,55.327752,0.0,67.345505,25.320911,86.538963,16.277561,85.806885,7.050762,71.539307,-1.507874,51.025314,0.0,14.175486,30.900956,58.123872,47.935054,72.680297,59.419149,81.169929,66.258007,84.854514,-3.383474,313.697326,-44.960546,287.23042
116,4.800453,9.38563,-0.399342,0.074594,0.0,-0.772705,-18.9505,34.861336,-26.656837,35.023842,-30.110321,26.922569,-30.306358,-16.069736,0.0,-30.639072,-1.850289,24.35708,14.21408,36.810409,27.401004,42.883006,37.020236,45.42243,0.0,66.659374,25.068569,86.992664,16.011028,86.387615,7.093105,72.840214,-0.93338,52.178249,0.0,15.250623,30.504148,57.55725,47.939068,71.543286,59.675042,80.653325,66.553915,84.646847,1.736956,323.06173,-45.039911,287.283788
117,3.48999,-5.85468,-0.240097,-0.508947,0.0,5.672379,-21.600952,33.752403,-31.62323,32.27211,-35.796604,25.582809,-34.68132,-24.215755,0.0,-17.648021,1.410132,29.986185,16.927764,42.564744,29.932092,48.531069,40.654866,54.8779,0.0,66.106968,25.774956,87.158489,16.684856,86.112499,7.55682,72.700367,-0.754337,52.08395,0.0,16.045104,30.865079,57.712614,48.208053,71.584536,59.855045,80.94738,66.677045,85.185002,5.413027,317.197062,-45.093927,286.764853
118,-2.981873,6.449831,-0.259094,0.098492,0.0,5.384216,-15.798054,32.959328,-24.679012,34.47876,-29.414177,27.372437,-31.064186,-30.468922,0.0,-28.039751,-2.08068,20.416168,13.226444,35.028909,26.142963,41.211607,36.401991,44.030823,0.0,66.109142,25.851402,87.261829,17.000713,86.307392,7.938366,72.776241,-0.45393,52.246342,0.0,15.97335,30.658956,57.189835,47.973278,71.862783,59.640524,80.624611,66.586457,84.8392,2.537899,323.632875,-45.246277,286.849328
119,8.492661,-4.732181,0.34687,-0.439972,0.0,-8.954086,-27.130566,27.21714,-35.57888,27.097664,-38.346519,21.65863,-36.129398,-22.070389,0.0,-18.57687,0.581565,27.357594,14.869499,39.301173,27.776015,45.170673,38.92184,53.90706,0.0,64.985676,26.059284,86.753941,17.212143,85.985241,7.971497,72.52882,-0.563908,52.112217,0.0,16.781601,30.389477,57.444926,47.880528,71.661847,59.816698,80.670244,67.008892,85.167712,11.142769,318.88504,-44.787197,286.393702
120,-6.972885,4.023348,0.452099,-0.089229,0.0,-2.048035,-18.610153,31.344681,-26.44083,32.991486,-29.705029,27.3246,-29.552193,-35.208836,0.0,-25.419866,-0.482271,20.29452,14.721236,33.381038,27.425025,40.124368,37.563702,43.536016,0.0,64.976692,26.070271,86.335144,16.989498,85.485649,7.522888,72.080498,-1.106415,51.762543,0.0,17.028726,30.087085,57.884651,47.697006,71.663761,59.652812,80.55897,66.731818,84.9154,4.279547,322.900376,-44.225435,286.296461
