takenoko1/special-research/HandMotion_SimilarSearch_自分用/NewProject/handData/test_key/d4_feature_d2/148.csv
frame,vel_0x_L,vel_0y_L,vel_0x_R,vel_0y_R,posFromWrist_0x_L,posFromWrist_1x_L,posFromWrist_2x_L,posFromWrist_3x_L,posFromWrist_4x_L,posFromWrist_5x_L,posFromWrist_6x_L,posFromWrist_7x_L,posFromWrist_8x_L,posFromWrist_9x_L,posFromWrist_0y_L,posFromWrist_1y_L,posFromWrist_2y_L,posFromWrist_3y_L,posFromWrist_4y_L,posFromWrist_5y_L,posFromWrist_6y_L,posFromWrist_7y_L,posFromWrist_8y_L,posFromWrist_9y_L,posFromWrist_0x_R,posFromWrist_1x_R,posFromWrist_2x_R,posFromWrist_3x_R,posFromWrist_4x_R,posFromWrist_5x_R,posFromWrist_6x_R,posFromWrist_7x_R,posFromWrist_8x_R,posFromWrist_9x_R,posFromWrist_0y_R,posFromWrist_1y_R,posFromWrist_2y_R,posFromWrist_3y_R,posFromWrist_4y_R,posFromWrist_5y_R,posFromWrist_6y_R,posFromWrist_7y_R,posFromWrist_8y_R,posFromWrist_9y_R,posFromBody_0x_L,posFromBody_0y_L,posFromBody_0x_R,posFromBody_0y_R
2,52.273064,-2.095438,0.147572,0.143261,0.0,-50.378151,-48.651123,-1.816177,-57.009258,1.939087,-60.241585,-11.178246,-59.699364,-48.20034,0.0,-11.522503,14.892717,29.774196,33.267664,39.910897,47.383067,48.608813,58.876671,58.220758,0.0,67.762642,27.478065,92.669563,19.738255,92.430267,11.642361,80.23407,4.13538,60.503311,0.0,4.553414,27.117199,47.771477,45.242674,62.965845,58.169444,72.77459,66.36255,76.00321,39.831419,285.708041,-46.498919,273.267371
3,-9.637299,1.564014,0.765667,-0.564275,0.0,-36.385574,-40.073891,12.998199,-49.810925,16.560745,-52.359066,1.992531,-51.708698,-40.001221,0.0,-13.128755,15.186402,35.875878,32.915934,45.382477,45.093856,53.395581,54.13109,53.825302,0.0,67.071133,26.148605,91.434917,18.403416,92.254543,10.481987,80.001354,3.311405,60.475788,0.0,5.573036,28.025671,48.708478,45.954965,63.76718,58.634548,73.318117,66.603994,76.72816,29.550247,287.373079,-46.377125,272.804119
4,13.765526,-0.652455,-0.111065,0.15697,0.0,-56.14254,-49.281578,-6.711044,-57.100067,-3.933449,-60.295944,-17.397308,-60.509548,-77.047977,0.0,-13.076144,16.278644,30.231458,34.655504,40.555139,48.329269,50.023515,59.495657,60.045977,0.0,67.476654,27.463646,92.352676,19.512749,91.958313,11.166916,79.815216,3.526554,60.071182,0.0,5.205621,28.338561,48.195332,46.147627,63.393899,58.665547,73.276929,66.543047,76.598113,42.878122,286.763417,-46.92584,273.003882
5,-13.281097,-0.008954,0.499134,-0.053723,0.0,-37.270317,-41.050415,11.938705,-50.23241,13.867722,-53.482132,-0.752678,-53.434582,-42.210503,0.0,-11.210911,15.734437,33.482,33.558694,43.440365,46.392158,51.255559,56.475568,56.717198,0.0,67.888813,26.869354,91.81097,18.818493,91.350002,10.583954,79.224529,3.188496,59.945354,0.0,5.675172,28.561418,48.708478,46.399815,63.740875,58.866174,73.338927,66.601216,76.824737,29.281254,286.764575,-46.742477,272.960271
6,-19.397163,13.641963,0.58033,0.127021,0.0,-6.650734,-19.904938,30.775337,-28.173122,33.160858,-30.570087,26.009789,-30.778542,4.227791,0.0,-26.053116,4.344882,18.135787,19.993672,31.961272,32.514741,39.473889,42.269948,44.396879,0.0,67.118397,27.126675,91.276073,19.016933,90.655804,10.598259,78.53548,3.008366,59.476719,0.0,5.702898,28.116939,49.030383,46.003192,63.647138,58.572921,73.286686,66.427265,76.873335,9.63521,300.400672,-46.411028,273.081425
7,-5.857773,-2.196215,-0.384693,-0.101085,0.0,1.936455,-16.329689,36.052666,-23.36134,40.373039,-25.799103,34.413414,-25.330009,4.224129,0.0,-21.427949,5.476212,21.507298,21.412202,35.428743,33.534549,42.825084,42.49299,47.543495,0.0,67.831764,27.064705,91.784935,18.967495,91.279793,10.544243,79.175034,2.923737,60.018082,0.0,5.683508,28.322876,49.026307,46.270263,63.555253,58.872102,73.240249,66.677724,77.178011,3.591986,298.194129,-46.981173,272.970012
8,-2.16465,3.03917,-0.011616,0.273431,0.0,-0.030556,-13.294945,39.415398,-20.343819,42.154541,-23.724575,34.45816,-24.989319,-3.793945,0.0,-26.016931,3.494456,21.222752,19.869492,33.022144,32.492017,38.375658,41.315719,44.883966,0.0,67.925434,26.949749,91.761074,19.018192,91.590786,10.708237,79.673481,3.263512,60.618153,0.0,5.733094,28.718449,49.153266,46.678248,63.308004,59.2234,73.313053,66.777822,77.148001,1.355925,301.228853,-47.064199,273.238997
9,4.220581,-4.055088,-0.204964,0.226933,0.0,-3.026505,-21.127052,35.053368,-27.444191,37.771912,-29.098263,33.899345,-27.426109,-5.912704,0.0,-21.407077,6.85411,22.498454,23.065014,35.921573,35.447206,43.156622,44.661603,50.767237,0.0,67.94363,26.959019,92.086315,19.092464,91.872883,10.910854,80.14967,3.516083,60.996952,0.0,5.780703,28.449835,49.096703,46.42328,63.314426,58.986649,73.065063,66.575589,76.834803,5.495052,297.167621,-47.350616,273.459785
10,-5.741844,4.913851,0.531635,0.058169,0.0,4.347153,-10.313988,41.652718,-17.576523,44.228554,-21.002941,36.005745,-22.995758,-0.671883,0.0,-28.112122,4.41182,19.597049,20.143911,33.156575,32.519434,38.260494,41.656704,43.977161,0.0,67.856712,26.611862,91.752663,18.624744,91.300049,10.219345,79.349556,2.458191,59.830513,0.0,5.82609,28.375735,48.939857,46.203017,63.39958,58.646281,73.006401,66.146547,76.688145,-0.302782,302.080808,-46.874971,273.51729
11,-3.461151,-7.005831,-0.089607,0.006669,0.0,12.36248,-9.244766,44.368172,-14.583607,47.634315,-16.656132,44.033089,-16.198425,6.192513,0.0,-19.667074,8.877424,23.433787,25.378555,37.643298,37.830093,44.845619,46.834662,53.57262,0.0,68.197746,27.657108,92.067375,19.77705,91.29467,11.299725,79.584274,3.431625,60.589256,0.0,6.014367,28.34313,48.651544,46.336953,62.962881,58.972508,72.981947,66.643021,76.819427,-3.806248,295.082942,-47.006893,273.531925
12,-2.988281,3.631603,-0.263615,-0.071692,0.0,20.246429,-6.139297,43.619728,-10.560551,51.058273,-11.913185,41.466408,-11.243019,22.784843,0.0,-15.153675,5.121332,16.387448,22.232804,31.118564,36.18111,37.631442,48.053985,41.297749,0.0,67.783871,27.040844,92.383289,19.29039,92.170429,11.111584,80.45454,3.63905,61.772747,0.0,6.284031,28.891104,48.842044,46.999782,63.166781,59.603659,72.743529,67.131405,76.851969,-6.84248,298.711891,-47.318459,273.457578
13,41.579475,-12.849581,-0.2215,0.394585,0.0,-45.842056,-46.632156,2.434502,-54.914017,6.718483,-57.954369,-3.429565,-57.668724,-30.762405,0.0,-16.330946,14.804044,26.767939,34.366019,42.404008,49.095406,50.3038,60.612969,57.317844,0.0,68.492661,25.923615,92.49218,18.698788,92.896843,11.414909,81.877441,4.888115,63.67218,0.0,5.092865,28.479846,47.835574,46.823608,61.598259,59.8062,72.045255,67.728593,76.801643,34.707041,285.867033,-47.569914,273.856887
14,-23.776016,7.935545,-0.054245,0.288621,0.0,-9.472618,-20.261993,29.707947,-28.562222,32.831612,-30.736027,24.848442,-30.596523,7.368507,0.0,-19.734258,8.778686,25.495263,25.826369,38.411165,38.957717,46.520414,49.230084,51.368006,0.0,68.745804,25.672474,92.366295,18.206234,92.498817,10.746689,81.044884,4.057789,62.466545,0.0,4.881308,27.645227,47.489278,46.008379,61.96024,58.99832,71.992891,66.89101,76.367167,10.915489,293.800217,-47.639694,274.143146
15,-8.818817,3.910221,-0.240154,-0.250274,0.0,3.370399,-15.500107,37.464523,-22.139339,42.16095,-23.991566,36.439133,-23.823738,10.009117,0.0,-25.827974,7.518113,21.066956,23.68894,34.668966,35.790848,41.857455,44.545512,47.971857,0.0,68.765202,25.835094,92.285671,18.338127,92.386379,10.784054,80.725651,3.922062,62.344151,0.0,5.191481,28.01116,47.577643,46.392776,62.503582,59.346839,72.473865,67.261389,76.792442,2.082853,297.719947,-47.893667,273.902381
16,-4.941559,-0.076509,0.327644,0.330735,0.0,10.26329,-11.055908,43.357658,-17.502594,47.538528,-20.098629,40.37281,-20.548153,16.781273,0.0,-25.282039,7.617716,22.09862,24.087662,37.023571,36.305969,44.065156,45.120903,49.133074,0.0,68.383312,25.627499,92.026005,18.392372,92.010555,11.026783,80.737896,4.307327,62.815876,0.0,4.760339,27.675053,46.839231,45.922855,61.265239,58.895567,71.955532,66.933186,76.771447,-2.882137,297.639394,-47.589455,274.229072
17,0.050125,3.16051,-0.105858,-0.409282,0.0,10.486794,-11.10157,42.214279,-17.81702,46.337471,-20.212269,38.191681,-20.916538,13.957672,0.0,-29.950061,5.413597,18.707349,21.374967,33.313359,33.829346,40.456832,43.064182,45.595393,0.0,68.702831,25.596313,91.859951,18.105927,91.989269,10.511684,80.627575,3.638992,62.179813,0.0,5.461824,28.106503,47.480324,46.438409,62.149752,59.30596,72.583534,67.02507,77.343317,-2.874584,300.761804,-47.737885,273.78169
18,-0.576782,-3.821609,-0.141735,0.030319,0.0,9.80793,-12.254562,43.102913,-18.741646,48.228607,-21.103935,42.656822,-20.715466,5.759811,0.0,-22.79393,9.736064,23.151464,25.901025,37.804528,37.564443,42.92302,45.271635,50.003569,0.0,68.633308,25.764885,92.481766,18.461952,92.334251,10.977173,81.132088,4.176006,62.98954,0.0,5.293184,28.558516,47.181267,46.704554,61.361014,59.481208,72.343386,67.187042,77.351036,-3.471136,296.928878,-47.899389,273.800694
19,40.469627,-10.105023,0.103683,-0.207728,0.0,-47.943306,-47.005005,1.001816,-55.273991,4.310074,-58.507462,-5.373802,-58.800659,-31.26812,0.0,-16.416594,15.282856,29.635258,34.882561,44.079297,49.394525,50.728828,60.482306,57.261898,0.0,68.337479,25.883274,92.206764,18.403873,92.224846,10.788689,80.872078,3.892422,62.456818,0.0,5.482387,28.562777,47.537258,46.770627,61.922263,59.565127,72.782988,67.310172,77.670965,36.986961,286.80885,-47.807236,273.57796
20,-21.661148,6.401109,-0.303383,0.035506,0.0,-16.373634,-25.538292,25.218086,-33.738327,29.100266,-35.728569,19.750214,-35.40905,-3.986778,0.0,-19.482131,9.514195,26.619615,27.089967,39.113575,40.099544,46.786929,49.634672,51.919438,0.0,68.682976,26.161137,92.805862,18.555508,92.417107,10.832005,80.812683,3.896828,62.363777,0.0,5.320168,28.57982,47.989147,46.721041,62.514388,59.467314,72.916986,67.209704,77.62459,15.28965,293.206888,-48.146782,273.610394
21,-14.766083,5.646828,0.214005,-0.098183,0.0,8.758392,-12.79232,40.354843,-19.735107,44.693413,-21.982555,38.608704,-22.190838,10.820389,0.0,-25.939804,5.65535,18.682525,21.485871,33.52294,33.849229,41.414272,43.446293,47.718372,0.0,68.742256,25.983868,92.559242,18.400726,92.348099,10.754585,80.971642,3.957767,62.867317,0.0,5.302261,28.783226,48.43375,47.130755,62.288196,59.957983,72.790151,67.650232,77.503621,0.49407,298.854025,-47.962275,273.51252
22,2.38369,-3.349713,-0.068035,0.029517,0.0,-1.458549,-17.837791,37.556648,-23.586159,40.361137,-25.043106,38.32901,-23.988533,5.484238,0.0,-19.768406,10.211357,25.045473,26.381258,38.208932,37.873751,45.190063,46.008626,51.67046,0.0,69.081287,25.871429,93.002872,18.215675,92.479534,10.626583,80.720043,3.992386,62.520733,0.0,5.307818,29.036464,48.617211,47.2805,62.627453,59.987376,72.765759,67.507032,77.554442,2.849951,295.506535,-48.058119,273.54426
23,31.912079,-9.560322,0.006294,-0.221252,0.0,-44.981918,-43.643646,2.142448,-51.968536,3.214302,-55.68449,-6.384201,-56.426983,-31.550102,0.0,-15.904127,15.623225,29.327988,35.291904,44.300301,49.633437,51.505525,60.46977,57.702919,0.0,69.079571,26.21315,93.479977,18.366623,92.537785,10.552654,80.519085,3.723221,62.077847,0.0,5.320848,29.145453,48.880515,47.318106,62.830612,59.946188,72.984603,67.373775,77.796195,34.676971,285.936796,-48.136883,273.313591
24,-21.13472,8.942262,-0.432243,-0.012597,0.0,-11.656952,-24.337921,25.874176,-32.231998,30.626335,-33.867245,23.249931,-33.231068,2.607422,0.0,-20.628713,8.065407,24.238519,25.47081,37.649782,38.74332,45.526664,49.011425,51.085807,0.0,68.891544,26.536961,93.215504,18.75967,92.870693,10.801163,80.866985,3.731117,62.3913,0.0,5.424527,29.499777,49.041683,47.505271,62.73669,59.983609,73.204558,67.284175,78.213566,13.525972,294.880355,-48.585405,273.302291
25,-7.347221,2.053448,0.389843,0.839929,0.0,-3.439407,-20.202484,30.940361,-26.366272,35.39669,-27.488995,31.765137,-26.1553,8.512459,0.0,-20.892634,8.885699,20.086236,24.995394,34.189783,37.397408,42.541156,46.609458,48.594363,0.0,68.733673,26.792965,92.358742,19.433327,92.36927,11.733055,80.168839,4.629021,61.768913,0.0,4.84963,29.104204,47.655386,46.990396,62.489626,59.503067,72.731241,67.204888,76.915016,6.118755,296.946323,-48.255558,274.15474
26,-7.116737,3.864464,-0.632172,-0.034765,0.0,7.159424,-14.57531,36.524734,-20.017147,42.985611,-21.404285,38.155632,-20.614128,18.021126,0.0,-27.562358,4.203042,13.682656,20.102723,30.485252,32.96768,39.800055,43.119695,45.231374,0.0,68.8908,26.419201,92.271996,19.010639,92.444458,11.354141,80.515823,4.3503,61.693954,0.0,5.349994,28.667814,47.938697,46.515536,62.710631,59.041174,72.642938,66.686122,76.863023,-1.081753,300.821346,-48.9715,274.130534
27,4.545593,-8.004335,-0.699577,-0.245458,0.0,-3.604431,-20.736694,34.590912,-26.911812,36.433411,-28.072186,33.3181,-26.109467,12.534256,0.0,-13.084604,10.399449,28.419022,25.996121,41.418904,37.668184,49.72736,46.528812,52.833838,0.0,68.976746,26.157875,91.687088,18.607578,92.027435,10.740509,79.870834,3.44965,60.659523,0.0,5.796202,28.007826,48.377805,45.926128,63.822138,58.526176,73.166272,66.293205,77.185854,3.40127,292.851684,-49.733648,273.919749
28,23.99334,-9.486901,-1.798439,0.071322,0.0,-37.442322,-38.007889,4.658089,-47.388325,2.787781,-52.79068,-6.902733,-55.16304,-34.166336,0.0,-12.047938,14.748221,30.29926,35.206133,43.873606,50.914697,52.784623,62.290913,62.182603,0.0,68.719826,25.449715,91.442986,17.886715,92.097015,10.407372,79.982986,3.824272,61.298561,0.0,5.567232,27.230635,48.687792,45.473683,63.864623,58.322955,72.891668,66.260971,76.953981,27.328234,283.406418,-51.598463,274.032706
29,-11.802979,12.20818,-1.923122,-4.754411,0.0,-29.286346,-28.703041,12.061043,-36.543217,10.093346,-39.585114,-3.08979,-39.762211,-24.530525,0.0,-26.778622,8.910337,24.378877,27.060636,39.910959,40.502033,46.836514,51.383691,49.449298,0.0,67.912617,23.343887,84.40321,13.32407,83.532314,4.044456,70.255451,-3.661423,48.056431,0.0,10.231858,26.887117,61.524344,45.643867,75.223302,58.685307,82.70949,66.417076,84.315309,15.332508,295.692481,-53.714333,269.356177
30,-0.596695,28.301202,-1.577568,-4.851298,0.0,-60.780659,-47.43885,-17.896156,-43.308163,-8.014755,-32.558498,-7.447472,-18.06221,-29.301453,0.0,39.137164,-3.880087,32.560004,-17.845622,22.288996,-32.019318,6.888505,-45.2076,-33.685652,0.0,60.790043,15.605221,71.569118,5.039749,69.800777,-3.966408,55.207386,-10.870457,33.403873,0.0,15.518249,19.392161,66.459004,37.013876,82.06284,51.187757,90.083477,61.243997,91.317621,14.519606,324.056544,-55.508108,264.567741
31,-10.95417,-49.540256,-2.620869,-16.513357,0.0,-44.329433,-27.620773,-61.164894,-18.46138,-50.653896,-6.150627,-33.278961,7.888298,-14.78199,0.0,12.766712,27.778299,62.815174,36.056436,77.763097,42.199614,84.592507,45.724019,84.602881,0.0,52.297096,44.674644,45.910606,29.020901,26.896591,9.668198,8.974915,-11.43774,2.600212,0.0,42.174852,35.563297,107.367232,42.424509,113.864796,48.208176,110.353359,53.446464,96.30514,3.305712,274.554373,-58.3887,248.092469
32,-10.463676,-5.935203,-11.116333,-3.323654,0.0,-25.764027,-27.270126,-58.687248,-18.953533,-29.523468,-8.328323,-13.311367,3.574104,-0.7901,0.0,38.799883,16.036211,57.06195,23.21482,71.66512,29.970995,70.027931,35.617823,67.338516,0.0,28.98634,45.638466,49.269218,39.713688,35.558681,28.146572,20.480919,12.522926,8.938293,0.0,47.345214,37.99614,90.621076,37.151209,92.71213,36.275527,86.133735,34.477972,75.147658,-6.809578,268.652068,-69.156647,244.801712
33,-0.806808,-67.032851,-51.031494,-63.852828,0.0,-49.237919,-41.981392,-75.418911,-32.62991,-35.602055,-20.282078,-17.797852,-6.425171,-5.867844,0.0,43.838161,9.364326,66.77492,18.867838,82.490091,30.557747,83.350336,41.221488,83.476059,0.0,41.201534,34.524994,37.496109,34.407177,31.639252,30.416164,27.314014,24.132557,24.277954,0.0,-1.744511,-13.238486,-6.143425,-17.175754,-9.792195,-18.871049,-10.313245,-18.884758,-13.287021,-8.247128,201.670099,-120.818882,180.999766
34,-3.135223,-50.337392,-6.218662,-57.338716,0.0,-71.765728,-33.397751,-84.037685,-25.73782,-47.465401,-16.545353,-30.30201,-6.05484,-21.60284,0.0,21.377869,-16.86305,6.778096,-7.679713,50.932666,6.365109,56.358798,21.943503,59.914572,0.0,20.842037,9.389763,3.921261,-7.359982,-9.495449,-22.477055,-15.496731,-34.895496,-24.292717,0.0,-27.537565,-32.413254,-53.239322,-38.018555,-75.726136,-38.573383,-48.941123,-36.144986,-41.134728,-13.03339,151.561431,-128.688583,123.889774
35,-5.182686,-61.471115,-5.823555,-64.189306,0.0,-55.652733,-31.508331,-59.312553,-25.276852,-43.467121,-18.431168,-28.559475,-11.1236,-19.472694,0.0,-29.013771,-27.922394,-6.959549,-14.678567,16.916494,1.152479,30.249674,17.870569,41.431254,0.0,1.53574,-10.35902,-16.095715,-27.173481,-20.148067,-40.110683,-18.107471,-49.836617,-25.86216,0.0,-58.897389,-50.68128,-105.743104,-46.899222,-80.210204,-37.288573,-25.604283,-24.13274,-13.197205,-19.272738,90.102558,-135.5688,59.71271
36,-16.085243,-30.076526,-6.673508,-44.478884,0.0,-27.581577,-4.337654,-31.03941,3.778839,-18.344765,9.977646,-10.166016,14.466591,-2.482052,0.0,-27.044704,-41.833125,-73.395366,-34.773602,-21.408466,-22.251143,0.425491,-7.360217,9.044243,0.0,1.461983,-6.973343,-17.252426,-23.303661,-10.935287,-36.826687,-8.423309,-48.280334,-19.163475,0.0,-62.8295,-56.290688,-123.289329,-53.238149,-95.660867,-44.277021,-24.469805,-32.618945,-16.70892,-36.937094,62.191063,-143.821421,17.398858
37,2.495708,-27.121111,-2.009811,-41.444376,0.0,-21.714535,2.437611,-20.537948,9.082623,-12.901249,12.811146,-10.024395,14.861775,-5.331783,0.0,-27.831168,-42.953514,-81.153863,-37.153638,-30.670225,-25.913972,-2.972387,-11.951504,1.957622,0.0,3.039379,-10.581551,-11.287994,-25.866451,-0.487404,-38.287125,-10.749779,-49.345379,-22.282562,0.0,-68.069949,-56.061501,-122.044718,-51.737181,-34.504617,-43.634508,-21.697736,-32.871875,-22.325244,-36.124067,37.742279,-147.513914,-21.373192
38,2.495709,-27.12111,-2.779198,-19.792489,0.0,-15.847493,9.212875,-10.036488,14.386406,-7.457734,15.644645,-9.882775,15.256958,-8.181515,0.0,-28.617631,-44.073904,-88.91236,-39.533674,-39.931984,-29.576801,-6.370265,-16.542791,-5.128999,0.0,7.330055,-8.039017,3.112907,-22.670918,2.252426,-35.448532,-7.383671,-47.555122,-20.499401,0.0,-74.594467,-54.811456,-110.881957,-52.501188,-38.466308,-46.678248,-29.249102,-37.222006,-27.305723,-37.967157,12.22407,-154.63191,-39.562779
39,2.495708,-27.12111,-3.348255,-13.079355,0.0,-9.98045,15.98814,0.464973,19.690189,-2.014217,18.478146,-9.741154,15.652142,-11.031246,0.0,-29.404095,-45.194293,-96.670857,-41.91371,-49.193744,-33.239629,-9.768143,-21.134079,-12.215621,0.0,15.711594,-1.430511,12.974224,-15.491467,7.89814,-28.658981,-4.526196,-42.065392,-18.212757,0.0,-75.467926,-50.842541,-99.099948,-50.679767,-40.53331,-46.991045,-32.846711,-39.738891,-31.898626,-40.852976,-14.306799,-163.361692,-52.051892
40,-12.942696,8.142687,-3.650208,-7.699103,0.0,-4.013615,23.645267,18.462524,30.763378,-5.422497,30.48975,-1.92627,26.62714,-2.351818,0.0,-39.859273,-46.200053,-107.127486,-40.141782,-21.774492,-30.67075,-17.249298,-19.681184,-20.032513,0.0,21.948967,4.513149,20.959568,-9.290199,10.691872,-23.09967,-3.602257,-38.238716,-17.421227,0.0,-67.156352,-46.926762,-91.147421,-48.712615,-40.63174,-47.595983,-33.796587,-43.306089,-37.020977,-55.21162,-6.203246,-168.427849,-59.79013
41,2.098446,11.290013,-6.301632,-9.933665,0.0,-24.141541,19.971428,1.202831,24.300728,-16.958656,21.46019,-14.222889,14.276333,-15.156898,0.0,-48.523844,-50.63858,-116.585519,-46.515134,-33.778031,-37.720548,-27.480878,-26.822465,-21.217256,0.0,18.455086,1.24752,16.798153,-11.324787,6.727753,-24.817371,-5.971184,-39.740067,-17.474556,0.0,-60.619283,-46.378882,-86.152477,-47.144464,-39.654602,-45.169346,-32.725464,-39.491457,-34.597027,-53.21497,5.069616,-174.831276,-69.740946
42,7.75383,7.029235,-10.284691,-7.252586,0.0,-40.028229,0.325928,-28.465576,2.286644,-45.227737,-1.246834,-40.019245,-8.856297,-37.36227,0.0,-47.722355,-48.198944,-117.169523,-44.402066,-22.567923,-35.157288,-14.5693,-23.425328,-9.771879,0.0,9.449272,-2.382145,2.104282,-14.819813,-2.054043,-27.782707,-14.08762,-42.345257,-23.761768,0.0,-60.562735,-47.189233,-100.122828,-46.472835,-42.058823,-43.18194,-32.182061,-36.494926,-33.917958,-45.595665,12.594274,-185.250492,-76.498109
43,-23.564415,4.871459,-10.24332,-11.375136,0.0,-39.520454,-0.630627,-21.377735,6.778908,-34.088402,8.444309,-25.397816,6.064339,-23.872375,0.0,-48.632062,-52.48995,-110.796912,-46.582072,-21.172858,-34.324924,-12.797279,-18.607684,-5.569455,0.0,-6.294823,-13.867321,-34.964848,-26.025982,-11.367817,-37.869186,-22.032108,-50.955048,-33.193359,0.0,-57.08875,-46.619832,-106.577321,-40.2211,-36.845915,-32.340235,-25.219054,-21.747322,-22.557364,-69.564915,17.482499,-195.898647,-87.856479
44,1.941833,2.41827,-11.377316,-2.698339,0.0,-23.992596,1.371346,-9.119511,10.180607,-28.487892,12.652931,-23.86734,10.600033,-20.139713,0.0,-44.962204,-55.879677,-117.255387,-51.851018,-28.006961,-41.975954,-19.255693,-28.779891,-11.684259,0.0,-14.071655,-20.114994,-51.854038,-31.888618,-12.340565,-42.502499,-18.76791,-52.731857,-28.207512,0.0,-58.504131,-47.050865,-111.286345,-39.255848,-35.035887,-28.935656,-19.253809,-15.6541,-16.031549,-67.465582,20.779477,-207.118464,-89.67611
45,-0.003204,-11.556065,3.112278,1.183231,0.0,-20.912991,15.409298,12.889538,24.669685,-18.094826,27.326317,-10.881157,24.816914,-6.212254,0.0,-50.622988,-53.503922,-115.393705,-48.834974,-24.410802,-38.247464,-15.527573,-24.509912,-11.590274,0.0,-10.115032,-18.853455,-38.673649,-30.789299,-8.671017,-41.081371,-16.104527,-50.605087,-26.901226,0.0,-60.560775,-49.40334,-111.936685,-42.919902,-40.454995,-34.086073,-23.828589,-22.778585,-21.358819,-67.657013,9.488368,-204.194412,-88.227923
46,8.00354,-4.944325,9.620476,2.553534,0.0,-14.707432,23.205357,25.971794,32.076759,-11.443291,33.20034,-7.505093,28.48217,-2.622757,0.0,-46.266187,-54.216429,-116.829124,-49.247374,-29.259939,-39.408094,-20.281182,-27.317456,-15.892024,0.0,5.031509,-9.392738,-14.48719,-22.123375,0.943508,-33.954849,-11.47459,-46.134453,-20.817032,0.0,-54.019754,-49.878062,-106.003721,-46.481449,-42.010951,-39.395096,-26.102764,-29.216158,-24.639649,-60.19455,4.734404,-195.115013,-85.484028
47,-0.828609,-1.114935,10.657768,4.651381,0.0,-3.113308,27.901554,35.509243,38.090229,-5.484009,39.487667,-1.008682,34.323635,-0.917187,0.0,-49.926999,-51.42741,-113.560706,-44.092511,-27.474148,-34.499924,-20.886274,-23.528945,-19.613876,0.0,14.40485,-3.046646,9.571209,-15.521793,9.435997,-27.926559,-3.85334,-40.920925,-13.126888,0.0,-52.80639,-46.403165,-91.505558,-46.274987,-35.210857,-41.897099,-23.914823,-34.49412,-25.970433,-61.779785,3.877972,-185.213871,-80.574145
48,-0.562649,4.561225,8.331871,6.156084,0.0,-4.999409,29.641457,37.791023,37.731056,-4.418049,37.930412,-0.808926,32.76123,0.452042,0.0,-51.280414,-50.225809,-112.250269,-43.342614,-29.502587,-34.988,-23.201019,-25.809881,-21.505198,0.0,22.341156,3.746109,24.990749,-7.148151,12.52224,-19.526367,0.222187,-33.301964,-8.546963,0.0,-53.100615,-39.517948,-59.312845,-41.206729,-28.655464,-40.527104,-21.571611,-37.602821,-29.835329,-62.320948,8.96704,-176.860514,-73.890219
49,-6.902618,10.175881,6.044197,8.479103,0.0,-2.745552,30.79874,38.902931,39.404182,-3.600483,40.056496,-1.046906,35.383415,2.855759,0.0,-48.030705,-51.075958,-116.184728,-44.9497,-36.782775,-36.210997,-26.919289,-26.772817,-20.955527,0.0,21.059246,7.116623,27.264519,-5.039921,6.434898,-18.391285,-5.725594,-33.575535,-14.452457,0.0,-56.231253,-40.567674,-62.658606,-42.524977,-29.779167,-42.330154,-24.863309,-39.976537,-33.085284,-69.179821,19.734228,-170.772572,-64.819809
50,-1.453228,9.479337,-4.549999,-0.66252,0.0,-11.423893,21.31216,14.189415,28.210316,-13.306274,27.805309,-8.665524,23.538151,-7.756405,0.0,-52.264931,-49.668481,-116.984241,-45.318967,-31.492957,-36.340056,-22.131471,-25.028152,-17.00523,0.0,18.336411,5.673466,18.552589,-6.241035,6.143131,-19.409866,-6.257915,-34.963703,-15.491467,0.0,-53.279213,-40.033934,-83.194539,-41.12704,-30.945077,-39.967923,-26.745709,-36.232703,-33.342598,-70.694103,29.280409,-175.383625,-65.415484
51,-5.988693,10.184588,-5.696239,-2.904678,0.0,-27.047882,4.717884,-4.45982,12.280312,-28.308563,13.186111,-22.193184,9.73074,-14.837723,0.0,-43.565564,-53.32111,-115.917565,-46.539279,-26.12663,-32.438016,-10.305001,-15.780441,-2.518923,0.0,7.070045,-4.803829,3.183517,-17.53315,-4.673824,-30.381088,-14.912338,-44.904499,-26.230431,0.0,-56.434998,-43.523327,-97.219602,-42.1035,-34.334248,-38.081232,-25.010955,-31.762868,-26.940748,-76.19173,39.594688,-180.588799,-68.190471
52,-7.78656,7.67888,-11.969662,0.916623,0.0,-38.951111,2.044315,-14.263515,9.803524,-24.737377,10.916233,-14.804077,9.160767,-8.986244,0.0,-38.527996,-46.579663,-100.517197,-39.078254,-14.42187,-24.510715,-3.264806,-6.513433,6.257015,0.0,-2.800198,-15.333595,-35.030651,-27.104588,-10.53297,-38.249416,-20.529957,-50.104065,-30.116444,0.0,-56.477791,-47.48443,-113.534184,-42.509231,-36.943789,-34.388774,-22.483171,-23.436257,-20.876826,-83.997402,47.402858,-192.577572,-67.144557
53,-3.309002,8.062288,-12.511539,0.013709,0.0,-33.523178,4.573002,-9.00919,14.062157,-21.014442,17.549915,-12.166615,17.554893,-7.657356,0.0,-42.751014,-50.913987,-108.70348,-45.240791,-18.423884,-32.999976,-7.275742,-17.760406,0.756257,0.0,-8.948193,-20.150585,-50.21925,-32.447262,-11.732712,-43.651199,-17.21323,-54.110069,-29.103012,0.0,-52.460371,-47.801951,-113.951061,-38.846381,-26.381042,-27.796207,-12.713329,-14.28605,-9.959353,-87.240286,55.675175,-205.022993,-66.92082
54,2.412987,-2.150705,-3.117027,1.37935,0.0,-32.819138,6.916637,-6.939754,16.703854,-19.812069,19.974976,-11.146603,18.325768,-7.094994,0.0,-42.981807,-50.360085,-111.37434,-44.560518,-21.864679,-33.111312,-9.90526,-18.367629,0.328759,0.0,-9.561024,-17.583504,-39.342842,-30.430069,-8.53054,-41.501656,-15.890465,-51.905651,-27.66346,0.0,-55.622919,-48.327262,-116.484433,-40.655267,-27.600983,-30.551263,-14.149551,-18.666501,-11.983655,-84.528093,53.544925,-207.840815,-65.521016
55,1.551476,-2.146166,6.196976,0.803157,0.0,-28.917847,7.739124,-4.45982,17.497044,-19.489517,20.570011,-11.837597,18.899803,-7.945061,0.0,-44.281714,-50.441843,-112.144645,-44.157874,-20.97328,-32.311459,-9.346882,-17.34427,-0.541798,0.0,-8.072948,-15.790215,-33.241081,-29.829769,-8.369923,-41.918621,-15.632801,-53.406029,-26.052189,0.0,-56.493383,-48.590782,-116.89424,-42.120481,-28.976535,-32.560591,-15.910241,-20.715874,-14.97429,-82.422037,51.369473,-201.089258,-64.747144
56,-1.204262,0.510645,4.201069,0.816865,0.0,-29.996109,9.353943,-3.563004,18.854599,-16.300049,21.261578,-9.729595,19.339828,-5.586491,0.0,-46.469346,-50.924639,-113.107797,-44.844662,-20.011857,-33.463691,-9.876021,-19.139571,-0.50095,0.0,-7.658329,-14.413948,-29.703999,-27.95248,-7.374859,-40.123444,-14.577141,-51.857643,-25.715618,0.0,-57.644133,-48.463977,-117.559724,-42.373812,-28.688346,-33.398513,-15.622947,-22.158981,-16.442961,-83.419619,51.8703,-196.681509,-63.940097
57,-0.399628,1.225283,1.670551,0.59759,0.0,-31.475372,7.973785,-4.291248,17.383003,-18.942375,20.155506,-10.505562,18.918228,-5.809765,0.0,-44.735364,-51.719891,-113.206011,-45.615554,-19.548081,-33.88736,-9.336724,-19.440419,-0.172315,0.0,-5.524292,-13.55587,-28.253288,-27.089825,-7.322044,-39.358006,-15.126114,-51.341572,-27.587128,0.0,-58.973125,-49.58095,-118.817426,-43.47192,-26.596551,-34.678661,-15.364892,-23.823741,-16.953329,-83.581009,53.083942,-194.77272,-63.354147
58,-0.552692,0.797815,-0.888691,-0.718929,0.0,-30.805779,8.42989,-4.499302,18.201027,-17.505741,21.283379,-9.8382,19.914837,-5.156708,0.0,-43.799042,-51.893008,-114.141561,-45.710959,-19.806074,-34.06199,-10.197401,-19.572071,-1.487629,0.0,-4.914207,-13.807812,-26.302643,-26.753082,-7.371311,-38.492718,-15.667934,-49.941273,-27.819843,0.0,-57.726446,-49.434292,-116.931182,-42.96288,-26.917653,-33.815822,-15.807241,-22.555974,-16.466797,-84.092817,53.893506,-195.620527,-64.061329
59,0.074158,0.486007,-1.412201,3.423999,0.0,-30.824432,8.327007,-3.860607,18.357296,-17.202473,21.739826,-9.221878,20.456486,-5.130672,0.0,-43.089623,-52.45645,-115.128518,-46.161582,-20.746718,-34.335359,-10.631074,-19.616994,-1.894317,0.0,-3.314552,-12.492886,-26.991348,-26.196556,-5.556793,-38.585873,-13.602104,-50.486927,-26.044922,0.0,-60.651594,-48.453912,-116.96692,-43.104782,-31.863861,-35.179271,-19.342329,-24.089484,-20.163887,-83.999834,54.367687,-197.013903,-60.649155
60,0.751534,0.447166,-0.903339,-2.968342,0.0,-31.373348,7.889099,-4.382858,18.112507,-17.985077,21.89415,-9.082375,20.971699,-5.02224,0.0,-42.991841,-53.070928,-115.722402,-46.782946,-21.021816,-34.821922,-10.552281,-20.079598,-2.415089,0.0,-5.326881,-14.667149,-27.728806,-27.618027,-5.112019,-39.472675,-14.068108,-50.910816,-26.805611,0.0,-59.588283,-49.454299,-118.705904,-42.847592,-26.239726,-33.78575,-14.897225,-22.509198,-16.300596,-82.828045,54.782959,-197.496986,-63.649392
61,-0.276489,-0.317613,-0.093899,3.082889,0.0,-30.146313,7.960052,-4.080105,18.851566,-20.108528,23.246899,-10.470371,22.896881,-6.323547,0.0,-43.967003,-51.961397,-114.339625,-45.793179,-18.556863,-33.807208,-9.375534,-19.008568,-2.86315,0.0,-6.266384,-12.698879,-28.670368,-26.604252,-5.056686,-39.149494,-13.067379,-51.210995,-25.557289,0.0,-60.483139,-48.5311,-116.761801,-42.922927,-31.520313,-34.919024,-17.857077,-23.705736,-18.962378,-82.582397,54.449198,-197.068748,-60.58265
62,0.955067,0.039273,0.415249,0.567486,0.0,-31.342278,8.166904,-3.628521,18.598022,-18.727741,22.455196,-10.821705,21.724148,-7.486782,0.0,-44.580216,-51.649249,-114.069869,-45.434564,-18.822205,-33.547393,-9.328048,-18.788211,-1.869772,0.0,-8.177319,-13.016224,-27.637825,-26.972179,-4.629307,-39.577675,-13.304386,-51.76815,-25.886135,0.0,-60.185379,-47.900721,-115.349569,-42.520346,-30.15109,-34.622036,-17.443967,-23.414923,-18.553004,-81.299858,54.562448,-196.326027,-59.941187
63,1.203632,0.495701,1.156654,-1.501461,0.0,-29.523983,8.491058,-4.343662,18.497829,-17.597408,22.040634,-9.56995,20.975647,-6.250992,0.0,-43.988956,-51.66481,-113.500407,-45.37976,-18.639022,-33.340869,-9.374299,-18.308812,-1.702768,0.0,-7.815857,-14.476662,-27.247066,-28.010044,-6.141644,-40.388889,-14.571705,-52.06152,-27.471485,0.0,-59.566238,-49.655143,-117.038798,-43.075667,-24.479037,-33.750305,-13.585801,-22.05839,-14.388834,-80.072079,55.641428,-195.145226,-60.859369
64,0.685101,-0.802724,0.444775,4.116282,0.0,-25.09861,8.977833,-3.831825,19.83284,-17.218723,24.146919,-8.483677,23.647728,-3.930073,0.0,-44.039375,-50.907503,-111.524424,-44.578147,-16.301121,-32.135594,-7.151223,-16.515456,-0.163762,0.0,-4.76778,-13.32407,-27.808056,-26.590691,-4.425316,-38.636913,-12.235222,-50.123177,-25.420589,0.0,-57.339827,-48.459037,-117.112991,-41.972743,-29.281397,-33.182973,-17.154635,-21.673468,-17.618041,-79.408035,55.275634,-194.721508,-56.306156
65,4.798737,3.335665,2.224274,3.586927,0.0,-28.566914,6.324692,-6.561012,17.052555,-18.546638,21.454124,-9.970322,21.198521,-5.682907,0.0,-45.609935,-52.652014,-112.772554,-46.467803,-17.564781,-34.015184,-7.88139,-18.545717,-1.197526,0.0,-3.760414,-13.060226,-26.414337,-26.296177,-5.282993,-38.265324,-12.698078,-49.921875,-23.723087,0.0,-57.993702,-50.397691,-119.6706,-44.12141,-31.033935,-35.273966,-16.927332,-24.296533,-15.597629,-74.615908,58.849501,-192.503843,-52.481027
66,1.436062,3.794316,3.40559,8.161892,0.0,-24.309311,8.234997,-5.622768,19.184475,-13.738003,23.519554,-5.710602,23.340969,-1.759644,0.0,-41.814353,-52.842174,-113.047004,-46.911788,-18.911928,-34.43274,-9.496596,-19.209473,-2.380818,0.0,-3.570614,-13.722439,-27.312012,-27.483959,-2.702465,-39.841633,-12.181435,-51.339512,-25.811119,0.0,-58.751194,-50.03145,-120.477616,-44.217525,-34.923285,-35.745739,-20.08534,-24.361093,-17.463171,-73.136015,63.602971,-189.054422,-43.359981
67,3.750973,2.633439,3.743706,7.813619,0.0,-22.027245,9.207859,-7.960739,19.929771,-12.764854,23.88073,-4.621696,23.452778,-2.043743,0.0,-38.900413,-50.412758,-108.515203,-44.114649,-17.020451,-31.151292,-5.07082,-15.010908,2.489591,0.0,-5.573616,-13.336773,-25.94244,-26.854763,-4.642124,-39.300957,-13.596039,-50.904236,-26.706562,0.0,-59.106568,-51.026064,-120.187019,-45.013426,-32.042381,-36.030285,-18.869506,-24.570273,-16.785861,-69.23667,66.525185,-185.162344,-35.257586
68,6.607533,5.83986,4.345264,8.832069,0.0,-21.681976,7.709656,-12.530823,18.155308,-13.876877,22.374058,-7.997017,22.76413,-2.086029,0.0,-36.889079,-48.216667,-104.987309,-41.884039,-17.011467,-29.421323,-0.760148,-13.530195,5.109044,0.0,-5.910645,-15.037937,-26.266823,-29.051857,-4.253769,-41.246624,-12.80714,-52.161369,-23.910942,0.0,-57.73327,-50.557594,-119.188113,-44.631901,-26.261462,-35.350289,-14.424587,-23.517583,-11.612628,-62.049208,72.351321,-180.23715,-26.439242
69,8.017788,5.651521,5.160656,13.832772,0.0,-22.206402,8.74157,-22.828903,17.221756,-16.235046,19.230423,-8.890228,18.445415,-4.828377,0.0,-31.384246,-44.175751,-91.829995,-36.833071,-3.22791,-22.516886,4.870749,-6.634217,12.323252,0.0,-2.256832,-16.712952,-27.818928,-31.477261,-3.347054,-43.370934,-12.230587,-53.632221,-21.669846,0.0,-55.367334,-51.796801,-120.756852,-46.310524,-25.22668,-36.705989,-13.953185,-24.149011,-12.453267,-52.603998,77.311794,-173.649073,-13.297519
70,15.22047,3.584364,7.279472,17.690412,0.0,-40.330696,2.198753,-46.531334,6.648502,-26.498909,6.684551,-17.321434,5.312634,-11.031647,0.0,-20.275161,-34.423076,-68.231581,-25.518142,5.20099,-9.154468,14.697246,7.428698,24.917711,0.0,-2.710819,-17.547913,-27.260113,-31.473541,-1.390343,-42.357044,-9.026012,-51.498299,-20.219936,0.0,-54.528269,-51.452882,-121.092218,-44.492314,-23.688106,-34.83245,-12.784589,-22.905574,-11.60176,-34.27228,79.540628,-163.258352,3.037364
71,11.304073,-1.910619,9.71283,21.331927,0.0,-63.322906,-4.252167,-64.242725,-1.686401,-37.173443,-2.071266,-28.488808,-4.405403,-24.065437,0.0,-24.981376,-12.720153,-24.193935,3.265578,9.743845,22.009236,24.558201,38.627013,41.135377,0.0,-5.809994,-18.555565,-30.335884,-33.375664,-1.870995,-44.016037,-9.896336,-52.908783,-18.26128,0.0,-54.587117,-53.004115,-122.196316,-46.50192,-21.954988,-36.876883,-12.077516,-24.647121,-12.399205,-19.344549,74.279277,-149.921865,21.018559
72,9.413166,29.122096,8.232136,24.910641,0.0,-69.846611,-12.211475,-72.65336,-9.716377,-41.949348,-9.035568,-33.756609,-9.468613,-27.967615,0.0,-16.204929,-17.314105,-15.917898,-2.281971,11.348089,15.615985,25.434285,32.821594,38.948285,0.0,-0.540333,-19.946995,-28.898964,-35.614185,-0.429382,-46.078606,-7.434425,-53.634281,-14.048481,0.0,-58.524509,-55.388205,-122.456902,-49.193219,-21.457682,-39.127871,-11.69559,-26.455389,-9.375225,-6.735163,100.542777,-138.493509,43.070604
73,9.413166,29.122096,6.129627,27.43506,0.0,-76.370316,-20.170784,-81.063995,-17.746353,-46.725254,-15.99987,-39.02441,-14.531822,-31.869793,0.0,-7.428482,-21.908058,-7.64186,-7.82952,12.952334,9.222733,26.310369,27.016176,36.761194,0.0,2.992973,-17.67437,-24.571095,-32.621441,3.736897,-42.003193,-3.436947,-47.748013,-8.879871,0.0,-55.069728,-54.266725,-117.883204,-48.110734,-23.175053,-37.257235,-10.390155,-23.498656,-6.343095,3.224173,126.084986,-131.817713,66.925776
74,-0.093384,15.056603,3.169212,23.544166,0.0,-69.857311,-26.017113,-59.659138,-23.292732,-44.982262,-19.473839,-36.730099,-16.129646,-28.454704,0.0,7.595733,-7.722754,12.110985,5.157394,22.459983,20.585364,32.102619,35.960785,43.381208,0.0,14.811802,-13.115215,-11.733513,-26.144772,21.207619,-31.992474,13.774796,-33.914852,9.708595,0.0,-50.74408,-48.674855,-106.633143,-42.647891,-17.826449,-29.85475,0.39721,-13.375757,4.884952,3.013802,140.237193,-128.765488,89.565545
75,12.724915,21.453143,-5.696983,20.592651,0.0,-71.542397,-27.977085,-73.605538,-25.972023,-66.831837,-23.054867,-58.972435,-19.770413,-50.502033,0.0,8.735831,-0.348118,15.345564,16.762366,26.266896,33.061788,37.935687,47.123592,48.439864,0.0,31.432113,2.078991,19.341831,1.055774,37.919054,3.238077,33.790197,6.527538,34.046344,0.0,-39.565048,-38.730985,-68.81699,-29.039351,-15.040177,-14.608835,4.317635,2.132612,12.100704,15.872355,161.469068,-134.328832,109.936929
76,12.724914,21.453143,-5.696984,20.592651,0.0,-73.227482,-29.937057,-87.551937,-28.651314,-88.681412,-26.635895,-81.214771,-23.411179,-72.549362,0.0,9.875929,7.026518,18.580143,28.367337,30.073809,45.538212,43.768754,58.286399,53.498519,0.0,48.052425,17.273197,50.417175,28.256321,54.630489,38.468628,53.805599,46.969929,58.384094,0.0,-28.386016,-28.787116,-31.000837,-15.43081,-12.253906,0.637079,8.238061,17.640981,19.316455,28.531322,182.848589,-140.091763,130.455958
77,7.271576,15.155095,20.559368,24.512011,0.0,-69.653835,-28.864059,-82.897453,-27.098351,-97.080917,-24.516449,-92.49155,-21.198235,-78.744507,0.0,1.621504,7.503725,17.822342,27.869999,36.917731,45.270153,48.931397,58.152401,62.225396,0.0,58.112755,15.375366,46.634159,16.281109,47.179413,18.276043,50.323677,21.518898,48.642712,0.0,-21.347797,-11.684104,-6.687817,6.580186,9.348333,25.004656,23.451386,41.617308,32.494611,35.985231,198.073416,-119.350061,155.037701
78,4.549255,16.767707,19.253883,10.666087,0.0,-65.679874,-30.479965,-83.417473,-28.469238,-98.950481,-25.688324,-91.688061,-22.602425,-78.411942,0.0,0.157649,5.818371,18.104542,25.974323,42.369181,43.878731,53.464803,57.696003,65.765671,0.0,54.066353,-0.698948,53.250675,-11.43568,59.706516,-18.804989,47.924709,-22.526436,20.013199,0.0,-10.303427,0.653319,3.475745,15.668179,42.520716,31.210202,52.356075,45.210811,59.87005,40.618601,214.816036,-100.012064,165.678702
79,-0.562248,13.542298,9.780807,31.786333,0.0,-59.207497,-30.337257,-91.398125,-25.805969,-91.918201,-20.844383,-83.922615,-15.767899,-69.756203,0.0,4.009269,17.968999,41.786751,36.712349,55.396727,52.077272,63.500172,63.268669,72.492946,0.0,51.773586,51.740742,81.786518,47.231541,68.742542,40.338364,62.347584,31.858177,55.420876,0.0,-1.87925,29.473163,55.977983,48.994444,78.341019,63.484302,91.863124,73.575492,96.218751,40.01461,228.315726,-90.272999,197.422427
80,4.849434,17.981102,7.601452,17.430227,0.0,-51.149368,-30.799599,-96.883049,-29.657707,-107.515812,-26.66153,-96.288128,-23.232536,-80.569668,0.0,11.078888,17.68223,22.40694,35.188534,38.804329,49.629362,58.866976,60.342626,75.041694,0.0,59.609013,19.664898,88.942795,15.910549,90.303497,13.126545,83.239632,11.263275,68.453979,0.0,-6.085194,22.008464,48.478396,44.062192,69.798837,61.52422,86.805518,74.033186,90.193393,44.704456,246.108073,-82.831135,214.663899
81,-2.12677,10.034689,1.087761,19.408772,0.0,-56.25824,-29.777756,-94.043827,-27.460213,-103.055363,-23.055954,-91.866188,-16.843071,-75.281982,0.0,14.929891,24.961616,23.30053,40.608738,42.467302,52.863293,64.837377,61.681746,78.018126,0.0,64.822998,11.839771,87.204323,4.853954,84.80484,1.82642,73.840942,1.413002,55.364685,0.0,-2.002072,21.580719,46.630206,40.806834,62.606952,55.540976,75.141606,65.254563,77.659912,42.468824,255.932224,-81.852236,233.862133
82,0.637321,11.45643,9.40733,19.282369,0.0,-59.592133,-30.906029,-94.021282,-28.897362,-99.268856,-26.333656,-87.917175,-22.217216,-71.66399,0.0,14.225628,28.259459,25.712563,44.309193,39.373359,55.095261,52.836246,62.036193,64.303174,0.0,68.935947,16.989727,98.468685,15.403633,99.409962,17.742977,91.592159,21.745491,81.888599,0.0,2.749622,37.472373,47.800006,60.868307,53.361433,75.727741,63.439842,83.383928,73.407408,42.988958,267.268673,-72.562094,253.024521
83,-3.376694,4.39984,-1.698132,8.052501,0.0,-69.575272,-27.386055,-92.512894,-24.898682,-97.275124,-22.30957,-87.819672,-18.867188,-69.853992,0.0,11.435991,30.504148,30.763314,46.509237,49.071879,56.776602,66.168345,61.895958,74.67996,0.0,67.751427,21.912632,95.013084,13.9575,94.525108,8.629532,83.335304,4.869518,65.805588,0.0,3.097524,35.394657,60.457605,55.392775,73.112117,67.676784,80.4422,73.399998,84.108754,39.527321,271.686252,-74.345169,261.094759
84,-2.321434,3.329582,2.511063,8.338652,0.0,-70.723743,-41.792679,-46.433716,-37.040291,-36.418991,-30.832901,-31.256905,-22.690887,-33.178825,0.0,1.553764,23.564513,49.262564,37.822313,61.288457,48.846243,66.866125,56.910723,70.971725,0.0,79.125938,24.821835,92.71328,15.633373,90.117531,8.574486,76.487846,3.833141,57.671356,0.0,6.520844,34.713982,59.626383,52.779559,74.962592,64.108845,84.092143,70.012061,86.306698,37.364273,274.9767,-71.67572,269.394277
85,-3.48381,-0.629792,2.100964,6.521893,0.0,-66.331902,-32.496643,-56.818371,-25.956116,-42.80571,-17.561302,-29.56089,-8.461761,-22.877083,0.0,7.673971,22.903104,32.15276,37.638914,50.947733,48.430107,63.631206,56.315635,71.358838,0.0,73.293171,24.974098,94.558926,17.138042,96.039906,10.765743,83.954372,6.381397,64.375134,0.0,-0.323449,34.279136,60.231908,51.751971,72.419586,63.32338,81.370432,70.359901,86.134662,34.063082,274.171752,-69.392138,275.741015
86,-1.220398,1.787921,2.675858,4.056261,0.0,-59.884872,-32.829094,-35.822296,-27.313271,-18.52066,-20.073624,-8.442535,-11.582909,-5.600624,0.0,4.981714,24.276804,38.272164,37.334546,58.047116,47.18386,66.058862,54.033587,69.649463,0.0,71.621189,28.584995,98.501415,20.547924,97.83823,13.753567,84.480457,8.399563,65.307369,0.0,-3.579857,32.931371,59.611748,50.705301,72.695426,62.569531,81.933102,69.681697,85.903715,33.105698,276.075147,-66.453266,279.91275
87,-27.309294,1.655775,3.152561,0.933728,0.0,-21.810408,-13.190317,9.069014,-11.990175,17.4228,-10.974827,19.011812,-9.641161,13.466406,0.0,-0.83468,19.841643,35.004518,37.170167,54.875091,51.090161,64.343189,61.546852,69.043414,0.0,70.553284,29.607639,97.453079,22.341728,97.481003,15.541706,84.281502,9.697037,65.745163,0.0,-4.839997,34.168417,56.465688,51.698742,68.145964,62.97449,79.08295,69.403264,83.329773,6.073608,277.976117,-63.0235,281.091673
88,-27.309294,1.655776,2.212143,0.417433,0.0,16.264057,6.44846,53.960323,3.33292,53.366261,-1.87603,46.46616,-7.699413,32.533436,0.0,-6.651075,15.406481,31.736871,37.005787,51.703064,54.996461,62.627515,69.060117,68.437364,0.0,70.148048,32.214203,100.180206,25.834751,98.836555,19.398251,86.357346,13.633289,69.90406,0.0,-6.6562,34.329586,50.666151,52.032256,62.442634,63.195557,73.452177,69.512501,78.016026,-20.777779,279.570961,-60.353451,281.448174
89,2.298031,0.304368,-0.388813,-0.713588,0.0,12.683487,5.496254,52.598648,1.302681,51.190796,-4.950485,42.907562,-11.402092,27.19677,0.0,-5.901116,13.25806,29.584622,34.56856,48.623818,52.375835,59.505908,66.464809,67.275098,0.0,69.999676,33.436203,100.030575,26.996555,95.819836,20.257187,80.989895,14.196625,66.745663,0.0,-5.387415,32.749578,50.038335,51.374243,56.219675,63.316155,66.621408,69.97038,76.083053,-18.046074,279.815045,-60.30859,280.674302
90,3.24543,2.054498,-0.594921,-1.408156,0.0,7.375832,3.209267,44.921494,-2.324638,42.541237,-9.872246,31.976967,-18.196449,17.558098,0.0,-9.125661,9.796271,26.265291,31.084416,43.614131,49.12801,53.899526,63.526724,61.531445,0.0,70.654678,33.654442,99.68399,26.956902,97.023468,19.902821,82.86541,13.405781,66.853294,0.0,-3.546758,33.212336,49.514506,51.5096,57.139632,63.165793,67.748971,69.591541,75.477899,-14.454288,281.935369,-60.557156,279.331972
91,7.972755,0.219708,0.2631,-0.225266,0.0,-2.948685,-4.921989,37.759781,-9.221878,40.448341,-15.960903,31.697159,-23.651047,15.657806,0.0,-8.401144,10.26792,25.449197,30.360022,43.981607,47.359108,53.848768,61.932514,61.258385,0.0,71.19381,33.072567,100.57972,26.467323,98.238487,19.551601,83.555031,13.429871,66.803055,0.0,-2.473413,33.676699,48.978636,52.073073,56.427897,63.603295,66.31352,69.57987,72.890619,-6.165819,282.310271,-59.978342,279.2619
92,-4.27597,-0.384952,0.653458,0.046004,0.0,5.37735,1.123352,41.232948,-3.641052,45.316086,-11.209488,36.458473,-20.123291,18.149872,0.0,-9.388224,8.152289,23.559449,29.054495,43.797221,47.133348,54.068969,62.490367,60.769939,0.0,71.384354,32.723751,98.955002,25.999432,96.514664,19.138927,81.902161,13.062229,65.81749,0.0,-1.915683,34.221708,49.336727,52.598075,55.930991,64.136324,65.39134,70.225594,72.274102,-10.186787,282.100505,-59.069881,279.48309
93,-1.491165,-0.160798,-0.080624,0.471032,0.0,6.104851,1.490135,43.708763,-3.133392,48.398552,-10.667152,41.133385,-19.516582,22.354774,0.0,-10.085016,8.389843,22.765648,28.783164,43.67162,47.001882,54.218838,62.936329,61.293088,0.0,71.827869,32.663326,99.270229,25.936432,95.651951,19.267788,81.842709,13.484402,66.46265,0.0,-0.893034,34.199045,49.296836,52.637101,55.970759,64.142685,65.17404,70.038923,71.703405,-11.215982,282.112253,-58.688536,280.126668
94,-2.751389,1.302007,0.676346,0.535808,0.0,12.043877,3.393402,44.214363,-1.111565,44.3153,-7.567291,35.156136,-15.61203,20.015602,0.0,-10.070566,7.810501,20.930673,29.624698,40.720012,48.337296,52.066095,63.775084,59.9988,0.0,71.458912,31.033173,98.503132,24.32848,93.644657,18.087502,80.411167,12.996025,65.959568,0.0,-1.110643,33.698744,49.571131,52.533731,54.781754,64.1919,63.821212,69.985694,70.930722,-13.395195,283.453642,-57.440014,280.701858
95,-10.482559,-0.112509,0.156269,0.465413,0.0,24.652863,11.750679,57.893143,6.768951,55.973167,-0.503712,44.877892,-9.309254,29.240112,0.0,-11.488417,4.429357,20.418885,26.993884,40.040326,46.847629,52.497977,63.07255,60.160895,0.0,71.889725,31.222572,98.169365,24.787045,91.528587,18.770256,79.142075,13.911552,66.123848,0.0,-1.173937,33.610873,50.420014,52.600236,54.001909,64.396726,62.469372,70.200956,69.979766,-23.405628,283.370742,-56.811619,281.19688
96,5.336037,-0.010806,-0.616264,-0.604537,0.0,20.428276,9.981422,50.646057,5.351143,49.531174,-1.939602,38.752213,-10.795155,23.999176,0.0,-9.394584,4.989063,19.910309,27.388654,40.161109,47.107907,51.758701,63.171721,59.447183,0.0,71.641617,32.413158,98.460045,25.719738,93.449936,19.259892,80.607491,13.88237,66.633568,0.0,-0.026182,33.540107,50.289474,52.376329,55.12027,64.204126,64.267791,70.234239,71.101153,-17.857304,283.354764,-57.215595,280.587172
97,2.339745,-0.026614,0.316601,-0.186054,0.0,21.352844,8.508453,51.269875,2.94548,45.955925,-4.672165,34.493408,-13.712654,19.815903,0.0,-11.932341,6.24167,20.546462,28.991695,39.585904,48.601156,51.204121,64.12348,59.234453,0.0,71.929379,30.166855,97.844181,23.472462,92.999668,17.405205,79.937611,12.582321,65.868244,0.0,0.847586,33.536278,50.860912,52.259312,55.476508,63.979417,64.083528,69.796985,70.467594,-15.008955,283.345609,-56.39039,280.418578
98,-6.136208,-1.436809,-0.489864,0.449049,0.0,28.219185,10.963211,58.108177,5.741386,53.162041,-1.379185,40.679283,-10.041332,26.81282,0.0,-8.92701,7.061715,22.390823,30.454809,41.300466,50.394573,52.848534,65.784072,59.707461,0.0,71.130867,31.423416,98.462563,24.791565,93.392372,18.649006,80.440979,13.768044,66.348724,0.0,1.18604,33.191279,51.079632,51.904926,55.709122,63.785088,63.960706,69.863984,70.18064,-20.797234,281.874344,-56.532326,280.83317
99,5.08152,0.224833,-0.274372,-0.329562,0.0,19.870491,6.361542,51.931572,1.552734,48.270493,-5.100517,37.054825,-12.990646,22.095222,0.0,-9.983745,9.744709,23.282128,32.403899,41.592052,51.639832,52.515514,66.598807,60.201712,0.0,71.266766,31.029854,97.592869,24.385242,91.987095,18.180771,79.001026,13.122597,65.064411,0.0,1.35079,32.999729,51.081485,51.945064,55.503308,64.067287,64.345597,70.326,70.824326,-15.389614,282.070865,-56.480598,280.475296
100,1.339531,0.144743,-0.417824,-0.141285,0.0,16.067047,5.00473,49.300346,0.484543,47.032585,-5.965118,37.06192,-13.74567,22.124863,0.0,-10.611253,9.471463,22.837093,31.627203,41.651085,50.551172,52.442587,65.504528,60.289582,0.0,70.865192,31.03569,97.850361,24.143772,92.153721,17.670479,79.19157,12.420216,64.941845,0.0,1.55327,33.18887,51.348555,52.272588,55.932844,64.322872,65.058505,70.34434,71.297087,-13.825321,282.245418,-56.67366,280.363821
101,1.53614,-0.733718,0.40987,0.59972,0.0,12.663116,3.095512,48.755836,-1.638794,48.721275,-8.99889,40.789604,-17.427578,23.883934,0.0,-10.077976,9.502092,24.629831,30.815864,44.31012,49.247559,55.04759,64.681828,62.978134,0.0,70.499611,29.717388,97.533531,23.086166,90.699348,17.061081,77.998238,12.343197,64.966507,0.0,0.754034,32.774772,52.188114,52.170824,54.656586,64.434455,62.697849,70.586649,69.753327,-11.871586,281.546604,-55.846195,280.998445
102,-3.523293,-0.334378,-0.624218,-0.062491,0.0,16.838951,6.132774,52.241707,1.431427,52.03022,-5.742874,43.799171,-14.312038,27.474174,0.0,-10.902406,8.493028,24.428833,30.182675,43.491309,49.228169,54.581066,65.013921,62.950963,0.0,70.906277,29.267178,97.684078,22.661362,91.745853,17.028179,79.201069,12.804565,65.838833,0.0,0.814673,32.797682,52.101787,52.398497,55.047714,64.723077,63.033586,70.835318,69.587527,-15.197897,281.274331,-56.273432,280.998059
103,0.525284,-0.310358,-0.414333,0.2307,0.0,18.534393,3.204575,51.380882,-1.341934,53.93898,-8.48259,47.978783,-16.72039,29.934769,0.0,-11.58413,8.577256,22.804057,29.709049,44.006925,48.505319,55.075872,64.645457,62.972453,0.0,71.150551,28.821716,98.170967,22.166405,92.755165,16.573963,80.131531,12.524872,66.286812,0.0,1.033578,32.985465,51.507933,52.496927,54.542472,64.762288,62.467581,70.778693,68.967553,-14.361792,281.052631,-56.376944,281.317417
104,-5.116539,0.149127,0.048122,0.397426,0.0,25.309639,6.291962,54.925919,2.054787,59.337387,-4.780941,54.422607,-12.802677,35.932159,0.0,-15.704303,6.838549,18.252681,28.282677,40.972016,47.625129,54.218344,64.310028,64.013194,0.0,70.992336,29.321194,98.227215,22.48106,92.968769,16.560516,80.064182,12.145729,65.664425,0.0,0.790899,33.385175,51.493422,52.65223,54.895746,64.610506,62.906627,70.41276,69.054806,-19.101419,281.372236,-55.95191,281.88532
105,1.976566,-0.314742,0.572491,-0.115041,0.0,22.472706,4.257259,50.958652,-0.235233,57.121754,-7.072964,51.549168,-15.31105,33.014774,0.0,-14.874871,6.71122,19.398213,28.398644,42.074508,47.992358,54.573347,64.93167,63.385378,0.0,71.479225,28.981762,97.852707,21.724663,93.215332,15.436935,79.404259,10.804939,64.729156,0.0,1.276813,33.468168,51.841076,52.500015,55.777295,64.306323,62.855683,70.01873,68.749018,-16.923981,281.176271,-55.178547,281.889056
106,-3.741302,1.584207,0.085487,0.133196,0.0,26.250858,5.548611,52.977619,2.283554,60.306873,-3.385963,55.939121,-10.349522,37.419262,0.0,-17.960663,6.220428,14.188886,28.803047,39.013725,48.937387,52.83075,65.968953,63.229581,0.0,71.040573,29.033432,97.486038,21.590939,91.771545,15.174065,78.356094,10.403938,63.730888,0.0,1.905618,34.149089,51.502499,52.943198,55.868685,64.433714,63.909145,69.820697,69.674287,-20.504436,282.908602,-54.932213,282.170376
107,-1.219082,0.300354,-0.542736,0.913783,0.0,29.035149,3.234615,52.850533,0.580158,61.588326,-4.128799,56.593094,-10.113201,38.48156,0.0,-15.153983,6.758459,16.443517,29.262964,39.920098,48.988207,54.045443,65.74023,63.639172,0.0,72.097034,29.360847,98.874149,22.077942,93.188839,16.001987,80.533047,11.676579,65.701733,0.0,1.209011,34.607771,51.005099,53.571508,55.214934,64.986257,62.730021,70.082519,68.465708,-21.543217,283.390903,-55.294647,283.266106
108,-1.072884,0.279544,0.331306,-0.393906,0.0,32.690392,4.790497,54.534988,0.812988,61.804504,-4.893379,56.983681,-11.290512,38.739738,0.0,-17.967888,5.53012,12.762081,28.129906,36.925326,48.272026,52.005209,65.152304,63.218528,0.0,71.488094,29.739475,96.116695,22.345333,91.94212,15.960331,79.453869,11.202736,64.593372,0.0,1.725368,34.572944,50.641451,53.386627,56.005462,64.86183,64.145525,70.127041,69.505461,-22.458944,283.763459,-54.806185,282.965211
109,0.639954,1.265513,-0.332909,1.050375,0.0,29.76059,6.836872,54.920883,2.005806,61.155739,-4.562531,55.718536,-11.920223,36.855583,0.0,-19.093968,4.481042,10.758466,27.444168,35.474685,48.058123,50.667448,65.20825,62.568543,0.0,71.539707,29.424076,97.157879,22.675495,93.016033,16.943264,80.681019,12.733784,66.228046,0.0,2.25352,34.688603,50.162144,53.422443,54.819237,64.821939,62.472583,70.147357,68.611994,-21.686354,285.095817,-55.006456,284.082431
110,-1.578999,0.136592,-0.186653,-0.084722,0.0,30.566998,5.64703,53.765888,1.801529,62.968082,-3.414059,57.859669,-9.574814,39.41843,0.0,-20.043504,5.405384,11.547142,28.271315,35.546563,48.728362,51.215298,65.911155,62.971279,0.0,71.269627,30.569744,96.95303,23.544674,93.009396,17.302551,80.214214,12.487278,65.587864,0.0,1.722836,35.147408,50.241555,53.592256,56.026272,64.722768,63.834921,69.867998,69.466867,-23.127279,285.338403,-55.055037,284.103704
111,-1.487789,0.331414,0.11055,0.315051,0.0,30.773277,5.962944,56.287994,2.528343,64.811096,-2.177753,59.209328,-8.250732,40.909081,0.0,-19.051855,5.868944,12.954989,29.527689,37.369806,50.125465,51.933764,66.8723,62.337844,0.0,71.047153,30.168171,96.71442,23.225498,92.994404,17.087231,80.599079,12.381592,65.758495,0.0,1.854982,35.048731,49.825913,53.393482,55.567528,64.486326,63.726055,69.666012,69.450503,-24.502516,285.808725,-54.831934,284.557662
112,-3.894653,0.460041,0.307617,0.105717,0.0,34.728241,8.102818,61.470451,5.16592,68.311844,0.54285,62.411041,-5.638905,44.017296,0.0,-18.478317,4.822584,12.729353,28.935811,37.056669,49.85154,52.010396,66.887429,62.050148,0.0,70.90868,29.642658,96.08717,22.675381,93.066158,16.675301,80.868587,12.148304,65.863781,0.0,2.096859,34.47402,49.600648,52.834641,55.280513,64.158369,63.3516,69.575856,69.127425,-28.317976,286.342588,-54.445124,284.737201
113,3.580513,-0.004693,0.027809,0.427498,0.0,31.18721,7.063751,56.695175,3.896599,63.892479,-0.805321,58.563309,-7.132359,41.094131,0.0,-18.91588,4.862474,13.103499,28.845779,37.003008,49.901743,51.878497,67.031739,61.5588,0.0,70.937862,29.358959,96.531773,22.540855,92.095242,16.677418,80.833111,12.311954,66.318455,0.0,2.374921,34.833963,49.562239,53.288444,54.85462,64.42649,63.294852,69.555047,68.901233,-24.673719,286.41743,-54.353571,285.244234
114,-0.434475,1.068406,-0.179043,0.092193,0.0,30.432301,7.077656,55.666065,4.373074,64.30006,-0.110607,59.628239,-6.181927,41.782322,0.0,-23.025988,4.85667,11.053385,28.46978,36.319863,49.201061,50.751737,66.450668,61.416589,0.0,70.99823,30.301208,96.651649,23.528194,92.858162,17.582474,81.521072,13.098793,67.38224,0.0,2.236538,34.967776,49.965222,53.442018,54.656833,64.732463,62.121161,69.965996,68.155597,-25.093489,287.572055,-54.517908,285.422646
115,0.244961,-0.526669,0.35511,0.308443,0.0,34.359856,6.604328,57.266922,3.79549,65.462494,-0.872269,60.395851,-6.707039,42.211761,0.0,-21.459874,4.894832,10.504301,28.726662,36.081815,49.47548,51.022513,66.616468,62.390455,0.0,70.936546,29.19857,96.955261,22.549953,91.944809,16.884956,80.262566,12.740936,66.560783,0.0,2.266178,35.097205,50.186721,53.854634,53.637952,65.074251,60.716772,70.053125,67.349075,-24.820433,287.128409,-54.134703,285.814113
116,1.86327,1.149237,-0.235577,-0.08114,0.0,29.546986,5.088902,54.263363,1.955395,62.868633,-3.036003,58.048267,-9.208603,39.377003,0.0,-24.342939,4.098498,9.71371,27.359755,35.682661,48.059605,50.1761,65.545778,61.270611,0.0,71.112843,29.986553,97.553387,23.218117,94.61832,17.381001,81.868,13.08506,67.219563,0.0,1.961317,34.884413,50.061244,53.43788,54.729884,64.712579,60.553813,69.819709,67.686417,-22.958765,288.340183,-54.371881,285.795511
117,1.084042,-0.083116,0.390015,-0.183275,0.0,28.332367,4.633999,53.410149,1.607437,62.185135,-3.298416,57.35424,-9.353657,38.769836,0.0,-23.416682,4.757622,9.968678,27.849189,35.921017,48.494822,50.546108,65.95191,61.780855,0.0,70.143986,29.41824,96.787663,22.589664,92.714939,16.69796,80.103207,12.364655,65.992985,0.0,2.554306,34.957093,50.6333,53.74373,54.686659,65.000954,61.200092,69.993783,67.631459,-21.892834,288.339936,-53.999977,285.695104
118,1.747971,-0.239715,0.02409,0.11041,0.0,26.583023,1.729088,52.642822,-1.4324,60.806694,-6.151829,55.691185,-12.152424,37.046242,0.0,-21.470989,5.431196,11.798095,28.553576,36.531235,49.139064,51.252286,66.497228,61.903368,0.0,70.632591,29.897633,96.69651,22.978992,94.073868,16.880608,81.228561,12.317505,66.621437,0.0,2.249938,35.062007,50.190179,53.575337,55.2702,64.800141,61.542992,69.938208,68.145161,-20.194101,288.133767,-54.025126,285.83906
119,-0.53524,-0.238851,0.13361,0.319682,0.0,28.151207,4.404373,54.476395,1.000156,61.737671,-4.259548,56.058197,-10.788803,37.306595,0.0,-19.913211,5.398715,11.212702,28.713324,35.945965,49.365996,50.453236,66.658643,61.670754,0.0,70.711956,29.46413,96.208935,22.753201,93.04327,16.858521,80.52721,12.456322,66.095409,0.0,2.236723,34.908311,49.705377,53.31018,54.677643,64.366283,61.894661,69.391161,68.774398,-20.776577,287.90773,-53.938751,286.171555
120,-0.365181,0.198713,0.537014,-0.069037,0.0,30.210342,2.578411,52.614899,0.372391,63.497658,-3.65284,57.168045,-8.710155,39.05159,0.0,-15.432107,7.629325,11.197387,30.626352,36.246257,50.497573,49.972447,66.981413,61.525455,0.0,70.900154,28.778172,96.604843,22.120571,93.317757,16.532822,81.006317,12.623234,66.681061,0.0,3.028858,35.452332,50.251744,54.025991,54.950951,65.219427,61.718611,70.247207,68.220682,-21.159925,288.11112,-53.419905,286.107196
