takenoko1/special-research/HandMotion_SimilarSearch_自分用/NewProject/handData/test_key/d4_feature_d2/149.csv
frame,vel_0x_L,vel_0y_L,vel_0x_R,vel_0y_R,posFromWrist_0x_L,posFromWrist_1x_L,posFromWrist_2x_L,posFromWrist_3x_L,posFromWrist_4x_L,posFromWrist_5x_L,posFromWrist_6x_L,posFromWrist_7x_L,posFromWrist_8x_L,posFromWrist_9x_L,posFromWrist_0y_L,posFromWrist_1y_L,posFromWrist_2y_L,posFromWrist_3y_L,posFromWrist_4y_L,posFromWrist_5y_L,posFromWrist_6y_L,posFromWrist_7y_L,posFromWrist_8y_L,posFromWrist_9y_L,posFromWrist_0x_R,posFromWrist_1x_R,posFromWrist_2x_R,posFromWrist_3x_R,posFromWrist_4x_R,posFromWrist_5x_R,posFromWrist_6x_R,posFromWrist_7x_R,posFromWrist_8x_R,posFromWrist_9x_R,posFromWrist_0y_R,posFromWrist_1y_R,posFromWrist_2y_R,posFromWrist_3y_R,posFromWrist_4y_R,posFromWrist_5y_R,posFromWrist_6y_R,posFromWrist_7y_R,posFromWrist_8y_R,posFromWrist_9y_R,posFromBody_0x_L,posFromBody_0y_L,posFromBody_0x_R,posFromBody_0y_R
2,4.032154,1.418036,0.31065,-0.121031,0.0,28.51078,6.485023,60.897217,2.813072,63.677216,-2.372646,55.2705,-8.80291,37.881088,0.0,-17.124624,4.230027,13.611952,28.364311,35.357607,49.820171,51.86553,67.552851,63.110403,0.0,68.227673,26.566887,95.207119,20.692348,93.820782,15.750732,81.397991,12.317677,65.560856,0.0,2.496569,34.963145,47.228382,53.979678,53.882298,65.758631,61.343786,71.313143,72.569702,-23.410864,290.537572,-52.729883,287.177917
3,-0.908375,0.597867,-0.215092,-0.207358,0.0,27.461872,3.518028,60.232029,0.323067,63.390141,-3.631268,56.000919,-8.570595,38.39304,0.0,-15.886775,6.399813,16.1473,29.977232,36.880742,50.411863,52.311368,67.132578,62.114245,0.0,69.036026,26.764469,96.131973,20.870991,94.272194,15.867004,81.65554,12.439041,65.434456,0.0,2.791119,35.303081,46.940317,54.470532,54.170364,66.387312,61.178233,72.01438,72.817938,-24.16955,291.092183,-52.795286,286.927303
4,0.188255,-0.235578,0.259438,0.068975,0.0,27.301884,2.727585,61.089306,-0.596752,63.98695,-4.621868,57.051258,-9.66711,39.696064,0.0,-15.372333,7.432156,16.633091,30.516313,37.437422,50.258722,52.683228,66.381755,62.092324,0.0,69.376488,26.592522,95.792885,20.531101,94.94236,15.570374,82.569351,12.258968,65.636559,0.0,2.182754,34.878547,46.730983,54.097066,54.880123,66.191378,62.247503,71.872046,73.61211,-23.876009,290.765215,-52.430563,286.904888
5,0.323296,0.646712,0.170059,-0.115906,0.0,28.908062,3.675671,61.988583,0.457764,64.094296,-3.526096,57.752323,-8.491344,40.679569,0.0,-15.946673,7.048439,14.777738,30.115305,36.404708,49.852837,51.761418,65.998532,61.312663,0.0,69.601936,27.028599,96.319656,20.874538,94.955292,15.730591,82.532272,12.073689,65.391312,0.0,2.124646,35.053609,46.688066,54.019754,54.742049,65.939807,62.382427,71.610224,74.408197,-23.420076,291.377362,-52.127867,286.754417
6,3.303108,-0.106149,0.384407,-0.105408,0.0,21.829548,0.308189,60.125713,-3.381157,61.467876,-7.309971,54.018459,-12.11031,36.951199,0.0,-13.701367,10.114779,18.726183,32.240322,38.849037,51.009237,53.559529,66.434798,61.779743,0.0,69.996185,26.88755,95.73452,20.571098,95.177422,15.267162,83.032265,11.557617,65.592728,0.0,2.251791,34.597274,46.940564,53.590836,54.924027,65.628461,63.177649,71.453501,74.843784,-20.073996,291.231075,-51.700487,286.608872
7,-1.425018,-1.487197,0.017109,0.075274,0.0,23.748035,1.867161,62.128086,-1.764965,62.504597,-5.696125,55.742855,-10.658112,39.965572,0.0,-12.748681,10.034812,19.980457,32.570317,38.533801,51.825639,53.769048,67.89958,62.027671,0.0,70.436726,27.23671,96.018505,20.948696,95.121632,15.730076,83.520069,12.164612,66.334362,0.0,2.035047,34.978274,47.120257,54.031302,54.69234,66.070471,62.75645,71.811592,74.516445,-21.485395,289.702104,-51.66976,286.642371
8,5.421066,0.420335,-0.301266,-0.05397,0.0,16.99316,-2.828922,57.043362,-7.129784,57.231388,-11.427326,49.723034,-16.406593,32.659092,0.0,-13.347352,10.66127,20.999463,32.733955,40.103929,51.390607,54.776629,66.886317,63.371546,0.0,70.403938,27.779388,96.305695,21.351929,94.9086,16.053829,83.316879,12.416553,66.440964,0.0,2.319222,35.195512,46.966561,54.130843,54.942429,66.034903,63.189011,71.695995,74.483964,-16.069164,290.077408,-51.975861,286.54337
9,-5.260506,-0.283249,-0.095673,0.24095,0.0,23.741856,3.818436,60.238438,-0.088749,61.301823,-4.524708,54.400349,-9.800549,38.068485,0.0,-12.323221,9.262624,18.957068,31.922863,37.672815,51.77877,53.661046,68.352519,62.695626,0.0,70.379105,27.849827,96.352959,21.468887,95.209236,16.136856,83.538322,12.41478,66.364517,0.0,1.799839,34.82575,46.565183,53.761761,54.457565,65.687124,62.619117,71.390516,74.047266,-21.380424,289.75487,-52.122288,286.745031
10,0.463028,0.20495,0.011673,-0.167158,0.0,21.020336,2.624416,58.565311,-0.762691,61.07729,-4.957409,54.498882,-10.175571,37.97945,0.0,-14.333567,9.746376,18.35778,32.189687,37.805455,51.900542,53.182851,68.54833,62.93886,0.0,70.187416,27.453232,96.153946,21.097412,95.699501,15.85413,84.366875,12.262917,67.107925,0.0,2.058944,34.868482,46.655277,53.749164,54.44682,65.727262,63.031486,71.5586,74.367935,-20.997648,289.900308,-52.190866,286.518361
11,5.053825,-0.221005,0.597668,-0.006299,0.0,15.961018,-1.408882,52.301044,-5.548267,56.086178,-9.674892,49.254398,-14.696903,32.271481,0.0,-16.642045,8.304257,17.905582,31.287575,38.482116,51.201219,54.046245,67.66289,64.005846,0.0,70.103245,27.556572,95.901432,21.104279,94.954319,15.677319,83.663006,11.844578,66.43713,0.0,2.577647,34.699841,45.981271,53.54829,54.642507,65.542937,63.565565,71.449179,74.886948,-16.107388,289.541985,-51.756763,286.374745
12,-1.263771,-0.320608,0.598526,0.075891,0.0,17.768612,-0.918846,53.612194,-4.884453,57.306461,-9.200878,49.946423,-14.663944,32.513294,0.0,-16.231899,8.466228,19.134785,31.542604,39.634378,51.553196,54.858943,68.144914,64.724621,0.0,70.053463,27.099724,95.141087,20.683365,94.618664,15.232487,83.246212,11.431675,65.905781,0.0,2.300697,34.184905,46.150961,53.095042,54.48597,65.264751,63.135288,71.447388,74.404739,-17.660494,289.143047,-51.447573,286.372306
13,-3.302879,-0.429845,-0.004177,-0.627322,0.0,24.746647,0.74976,58.607082,-2.764893,61.914654,-6.874809,54.477253,-11.614494,38.148823,0.0,-13.459737,8.927689,18.97442,31.50716,38.691944,51.095502,53.919286,67.442503,62.613744,0.0,69.726562,27.339249,95.400238,20.825958,94.576607,15.401974,84.348679,11.560707,67.172699,0.0,3.230596,33.821442,46.232101,52.75171,55.027089,65.077709,64.605689,71.38854,75.651418,-21.171942,288.66743,-51.660318,285.699211
14,2.051697,-0.205073,0.175724,-0.392115,0.0,22.858028,-3.286972,56.585598,-6.313534,61.082554,-9.783897,54.208431,-14.095173,36.492748,0.0,-15.78217,8.168777,18.517714,31.618249,38.954198,51.941544,53.907183,68.657443,62.589106,0.0,69.011936,27.548447,95.006962,21.016159,94.499416,15.53215,84.458485,11.414566,67.255611,0.0,3.08221,34.152486,46.983357,52.706694,55.488117,64.845837,65.246659,71.198843,75.794246,-19.447947,288.436252,-51.812296,285.280991
15,-1.993504,0.743166,0.404835,-0.500302,0.0,26.365814,-0.783176,57.175255,-3.366737,62.511292,-6.762085,55.779305,-10.857754,38.374786,0.0,-16.563992,7.313101,16.012499,30.472099,37.569321,50.911053,52.80994,67.739708,62.441955,0.0,68.867111,26.595955,94.295883,20.137882,93.895798,14.875546,84.437714,11.094761,67.712173,0.0,3.737135,34.011448,47.316932,52.638459,55.848616,64.898695,65.697066,71.28554,75.72595,-21.929798,289.1181,-51.895809,284.719371
16,0.967312,-0.317644,0.290852,-0.03174,0.0,24.367504,-1.675701,57.227383,-3.79755,63.68082,-6.910229,56.137333,-11.16972,37.955647,0.0,-14.724139,7.832546,16.047821,30.830066,37.832131,51.208752,52.092215,68.037098,61.151248,0.0,68.422108,26.493244,94.112034,20.094337,93.809452,14.979572,84.560795,11.429157,67.72459,0.0,4.044281,33.680774,47.257899,52.480255,55.411485,64.922222,65.41709,71.448438,75.893541,-21.351471,288.820308,-51.993942,284.707484
17,-1.780472,-0.519444,-0.207996,0.010498,0.0,27.486706,0.245991,59.303341,-2.627964,64.580212,-6.392155,57.01086,-11.113014,38.789234,0.0,-15.307865,6.667686,16.620494,29.766601,39.018356,50.23359,53.475425,67.232737,62.544152,0.0,68.833923,26.776428,93.498001,20.371399,93.065529,15.113869,83.575172,11.326561,66.715736,0.0,3.757698,34.123525,47.111365,52.927575,55.301878,65.255427,65.486929,71.693649,76.489927,-23.563843,288.241676,-52.633839,284.658794
18,5.952816,0.115103,0.338287,0.408602,0.0,18.958855,0.417709,53.085594,-3.421154,57.238655,-8.567963,50.540886,-14.580917,32.571945,0.0,-17.467524,6.555856,15.440629,29.286738,37.311637,49.777192,51.95655,67.043225,61.570101,0.0,69.217987,26.612835,93.442726,20.198936,92.87796,14.857006,82.952499,11.004581,66.135178,0.0,3.578683,33.8002,46.307313,52.43209,54.897598,64.697883,65.097778,71.157902,76.184941,-17.940674,288.332032,-52.625198,285.04265
19,-3.643112,0.447937,-0.376854,-0.274789,0.0,23.357048,4.247417,56.458626,0.72504,59.32663,-4.426861,53.332672,-10.796928,36.203957,0.0,-17.049536,5.600577,13.180996,28.372153,36.273365,48.963198,51.491631,66.340073,61.131982,0.0,68.638573,26.512642,93.806305,20.28059,93.309288,15.19146,83.734131,11.520653,66.969681,0.0,3.265671,34.097034,46.929263,52.697246,54.895869,64.842873,64.947663,71.143823,76.403352,-21.873178,288.687915,-53.291445,284.675806
20,1.978168,-0.575267,-0.099277,0.019637,0.0,21.848316,2.838821,55.034122,-0.922222,57.281628,-6.418591,50.8251,-12.94693,33.567181,0.0,-15.187452,6.067842,15.025419,28.623971,37.354862,49.005003,52.123338,66.279249,61.630369,0.0,68.373356,26.163311,93.69627,20.131817,93.331661,15.315285,84.137707,11.979961,67.944202,0.0,3.21522,33.711032,47.186886,52.546637,54.697527,64.905302,64.1898,71.27035,75.521865,-20.208435,288.067555,-53.704147,284.650349
21,0.008526,-0.558409,-0.452671,-0.351545,0.0,21.996346,2.047863,54.730682,-1.836948,57.221375,-7.03331,50.430679,-13.307419,33.021011,0.0,-14.46843,6.645641,16.426042,29.35522,38.49039,49.715998,53.53384,66.862976,62.414352,0.0,68.8274,26.808357,94.716225,20.751286,93.77449,15.760002,83.890572,12.234306,67.450905,0.0,3.745162,34.167429,47.355403,53.123138,54.57205,65.379854,63.193951,71.631651,75.728976,-20.442781,287.50876,-54.399691,284.298418
22,-0.004864,-0.444665,-0.192833,0.265589,0.0,22.437458,3.493423,53.32346,-0.494099,56.7029,-5.833454,50.431995,-12.20192,33.340588,0.0,-15.904436,6.822433,16.009968,29.540347,37.95909,49.996715,53.248801,67.075027,62.453626,0.0,69.148521,27.065277,94.215889,21.141014,93.387108,16.169243,83.796272,12.5354,67.570038,0.0,3.041887,34.412949,46.549498,53.017483,54.30535,64.953159,63.532158,71.167226,76.072864,-20.700874,287.081833,-54.845753,284.581745
23,-0.332737,-0.254226,0.270767,-0.086142,0.0,23.125305,4.24427,52.517509,-0.046692,57.931137,-5.61121,52.5,-12.247353,34.852982,0.0,-19.241305,4.884643,13.491292,28.405251,36.835973,49.958492,53.062623,67.912115,62.994806,0.0,69.755173,27.381077,93.962975,21.375732,93.45417,16.379642,83.521042,12.596855,67.540512,0.0,2.552206,34.071593,46.921421,52.64377,54.863203,64.681828,64.46601,71.052618,75.569537,-21.167736,286.930514,-54.70911,284.59851
24,-4.467144,-0.426387,-0.016651,-0.41311,0.0,29.182606,5.714207,57.528362,1.713467,63.143291,-3.395233,56.524143,-9.348392,38.655567,0.0,-18.752489,5.327393,14.373211,28.854856,36.878396,50.079708,53.375636,67.376616,63.145971,0.0,69.489613,26.837883,94.473782,20.487671,93.933849,15.35471,83.608646,11.576271,66.784916,0.0,3.33551,34.219238,46.94044,52.999514,55.470704,64.981873,65.98754,71.139006,76.389459,-25.771179,286.609844,-54.862061,284.291116
25,6.214828,2.367758,-0.318661,0.151227,0.0,18.377666,1.754894,55.182209,-2.920532,55.995998,-8.737507,49.37685,-15.429039,32.533779,0.0,-18.979236,5.185676,14.417795,27.051373,36.990041,47.009724,51.979583,64.399813,60.473228,0.0,69.588547,28.161449,96.065483,21.600666,94.267387,16.051655,83.690987,11.974583,67.296638,0.0,3.627651,34.311122,47.584806,53.182666,55.753335,65.375779,65.400355,71.676729,76.225203,-19.691563,288.913891,-55.315933,284.378632
26,-3.57605,-1.390681,0.679436,-0.149004,0.0,23.522816,3.359299,56.909122,-1.072426,59.38242,-6.652393,52.26614,-13.133526,34.969425,0.0,-15.078154,5.199508,15.15985,27.323755,37.490836,47.637232,52.463212,65.130012,60.821315,0.0,69.673233,27.649956,95.430222,21.040878,94.014244,15.30653,83.314018,10.967503,66.395187,0.0,3.871504,33.769077,47.071536,52.661801,55.644778,64.907217,65.210843,71.176427,75.799989,-23.344259,287.552588,-54.713144,284.259006
27,1.010685,0.952624,0.342236,-0.091761,0.0,22.948036,3.36525,56.775284,-0.94265,58.263588,-6.699715,51.084137,-13.394566,33.687172,0.0,-17.69032,5.007279,13.139314,26.96801,36.134859,47.137486,51.109704,64.470271,59.945941,0.0,69.553356,27.44957,95.026875,20.934505,93.021183,15.20977,82.422581,10.795784,65.657444,0.0,4.247502,33.630139,46.781309,52.459692,54.999116,64.607171,65.039115,70.876752,75.725456,-22.436399,288.550305,-54.473734,284.212338
28,2.71946,-1.252298,-0.011787,-0.080523,0.0,20.936508,-0.476246,51.510544,-5.009136,56.221504,-10.750465,49.590454,-16.963921,31.718102,0.0,-19.900058,5.562662,15.16411,27.625282,36.842025,47.896584,52.126981,65.39171,62.742371,0.0,69.073162,27.312069,94.88039,20.64085,92.544079,14.903927,81.811924,10.509052,64.956722,0.0,3.889967,33.476257,47.095434,52.345948,55.551103,64.503678,65.694102,70.680016,76.025996,-19.821711,287.34594,-54.590292,284.179749
29,4.045944,-0.479739,0.112782,-0.083857,0.0,15.018082,-3.235588,46.128273,-7.543831,50.862236,-13.300552,44.34803,-19.532547,26.665649,0.0,-18.998811,6.692942,16.3399,28.756858,37.620821,48.821913,51.913386,66.098876,62.149134,0.0,68.955574,26.603451,95.285454,20.102463,93.027191,14.737244,82.627487,10.929394,65.916595,0.0,3.543486,33.441121,46.83849,52.559481,54.789226,64.875106,64.744998,70.948074,74.39739,-15.829468,286.881268,-54.531212,284.110959
30,-1.984863,0.304121,-0.087948,-0.192908,0.0,18.132477,1.911392,49.832039,-2.514896,52.210464,-8.770809,45.534782,-15.728188,28.317146,0.0,-21.593008,5.647075,12.974564,28.074578,36.064217,48.622027,51.110075,66.038916,61.492851,0.0,69.489956,26.365929,94.368839,20.254955,92.974033,15.427208,83.737507,12.082958,67.283535,0.0,3.527863,33.717269,45.438053,52.728059,54.080085,65.029668,64.172572,71.093496,74.601722,-17.856073,287.190113,-54.660902,283.922775
31,-2.853928,-0.417248,0.440998,-0.165121,0.0,24.299011,4.091148,52.276497,-0.178871,54.385185,-6.271191,48.802071,-13.416367,31.7379,0.0,-21.982714,4.437199,11.802047,27.442624,35.255348,48.724904,50.995281,66.619185,61.36404,0.0,69.485435,26.767044,94.146538,20.4986,92.784348,15.408726,83.190536,11.679382,66.82972,0.0,3.506621,33.75648,44.874704,52.649636,54.298249,64.846701,65.219797,70.930043,75.654258,-20.735092,286.774116,-54.244995,283.758905
32,0.436535,-0.088056,0.457191,0.418853,0.0,22.874393,1.476917,49.558125,-2.177525,54.501972,-7.089844,49.372959,-13.029499,32.626247,0.0,-21.700021,4.777753,11.159102,27.997637,34.746092,49.487027,50.598349,67.491657,61.343909,0.0,69.467239,26.803379,94.384575,20.354691,93.483925,15.00658,83.554459,11.05402,66.363831,0.0,2.333116,33.430253,45.526541,52.010334,55.187578,64.094025,65.638156,70.346316,74.5346,-20.405245,286.72328,-53.894491,284.214978
33,-0.983963,-1.624221,2.032757,0.42367,0.0,22.949696,4.305668,51.989994,0.43745,58.609943,-4.502964,53.045254,-10.015469,35.640965,0.0,-18.772372,8.860628,17.35977,32.159244,40.592498,52.884967,55.899993,70.252517,65.696387,0.0,68.196888,23.681889,94.372845,17.414303,94.678974,12.450829,83.592052,8.952141,64.921246,0.0,2.574992,32.417978,46.059509,50.787367,58.598671,62.69013,70.16724,68.844052,77.965885,-21.412783,285.114851,-51.885309,284.65444
34,-1.273556,-2.1964,2.403145,-0.87136,0.0,29.293556,6.046371,62.019653,0.442657,68.422508,-6.03241,60.113411,-13.297577,41.669769,0.0,-12.98605,11.162004,32.879254,32.895679,56.584311,51.240862,70.298892,66.428932,74.732263,0.0,65.996761,21.546936,91.652012,13.95052,94.056759,7.686138,80.055141,2.970028,59.470882,0.0,3.935416,29.980998,52.91683,48.066521,69.812916,60.098218,77.886597,66.815119,80.693215,-22.856741,282.920365,-49.652567,283.784994
35,-7.782784,-7.117105,1.383877,-9.809609,0.0,47.725754,12.064075,66.746864,1.146412,63.044586,-9.053879,51.37413,-19.440536,31.503296,0.0,-0.263366,11.722328,32.431502,32.41557,54.203894,49.574528,66.598005,62.507781,72.846035,0.0,67.996445,20.592842,87.089424,12.917347,88.496704,5.395947,59.290695,-1.372261,45.173607,0.0,8.830556,22.870377,55.006711,41.786319,75.500067,56.165643,65.755482,66.122465,72.410571,-30.670738,275.79852,-48.299904,273.970646
36,38.620491,-6.983725,8.200722,-8.325777,0.0,-85.432034,-46.196651,-142.442665,-43.848267,-63.601112,-38.15918,-56.981449,-32.926483,-51.398563,0.0,-3.893487,18.759158,-13.275351,49.944227,17.128947,69.662863,37.549993,80.941699,54.507768,0.0,57.533684,28.824234,75.720864,23.900614,73.956413,16.355467,53.229962,7.291775,40.12825,0.0,5.594494,6.250963,25.66804,7.621668,27.429502,7.490355,15.959023,5.682643,11.844593,7.955704,268.794711,-40.093231,265.624785
37,13.354225,3.21732,8.200722,-8.325778,0.0,-63.625603,-38.900414,-94.556637,-31.239395,-90.314884,-21.529655,-80.696354,-11.680183,-62.361774,0.0,25.349594,28.147135,42.733014,44.918855,56.791916,56.857001,68.052289,65.097346,75.616158,0.0,47.070923,37.055626,64.352303,34.883881,59.416122,27.314987,47.169228,15.955811,35.082893,0.0,2.358433,-10.36845,-3.67063,-26.542982,-20.641063,-41.184931,-33.837435,-54.757178,-48.721384,21.39473,272.300684,-31.807709,257.58766
38,4.571228,-0.673018,-7.097511,-58.723654,0.0,-62.997379,-36.092148,-93.428364,-30.159416,-94.524136,-22.446899,-84.046555,-14.264603,-64.7822,0.0,23.791878,29.474892,44.285605,47.428515,59.284039,59.562657,71.571753,66.964185,77.825711,0.0,49.546165,46.181717,65.131416,38.468399,49.864769,26.535301,35.563087,10.622807,29.488335,0.0,-43.630927,-31.932991,-31.680184,-48.456104,-41.547591,-60.648723,-44.995426,-69.402091,-57.492474,25.490942,272.623793,-39.380236,199.860133
39,1.115685,-1.832258,3.08218,-68.362399,0.0,-63.53199,-35.559654,-95.395374,-30.205994,-96.894836,-23.149223,-86.321983,-15.612144,-67.89156,0.0,24.464155,31.314128,44.069911,49.218783,57.38719,61.166685,70.492665,68.360485,76.895565,0.0,28.656635,43.574009,59.528675,31.766796,42.91563,17.266788,27.803936,1.223316,18.187923,0.0,-58.446394,-44.261646,-61.845261,-56.207386,-67.211958,-63.087895,-67.581936,-65.806858,-72.001598,25.598431,271.566904,-37.306252,132.273103
40,-1.61602,-0.736435,3.656445,-75.008287,0.0,-62.293911,-35.040207,-94.440823,-29.449196,-95.194416,-22.040977,-84.607887,-14.293213,-66.132946,0.0,23.554201,30.72719,44.136045,48.85742,57.685568,60.917152,70.506188,68.035122,77.4436,0.0,22.517967,22.088699,43.068008,17.301979,36.130028,11.214695,25.13855,4.126453,19.152489,0.0,-58.070026,-65.3864,-113.992094,-66.199684,-112.317824,-61.331343,-84.847196,-52.057203,-67.949906,23.693819,271.452156,-33.938398,57.886503
41,-0.705643,-0.949351,4.330902,-108.443758,0.0,-61.720905,-35.087013,-94.310188,-29.131165,-95.391312,-21.298256,-83.944302,-13.289566,-64.830894,0.0,23.59545,30.252577,45.139428,48.279498,59.408713,60.456,71.365075,67.553098,77.675287,0.0,21.225586,48.053627,76.82373,47.876015,38.814011,40.713615,12.65831,28.508606,4.923363,0.0,-70.678904,-54.137729,-126.923124,-43.278208,-103.476802,-27.955616,-70.300837,-8.455268,-36.33243,22.827845,273.402141,-29.767828,-47.657918
42,-0.083885,-0.165923,16.876945,-0.298162,0.0,-61.460152,-35.032196,-93.873596,-29.338531,-96.057243,-21.703606,-84.3643,-13.850899,-65.230293,0.0,24.333182,30.166867,44.077691,47.866202,58.441516,60.023315,70.12136,67.545132,76.543155,0.0,40.385284,31.765366,50.659447,15.682182,32.179871,-3.053856,8.734474,-23.996429,-24.673462,0.0,-64.930836,-53.878161,-116.818843,-54.16564,-115.870248,-50.123334,-101.191481,-42.840182,-93.249297,23.291645,275.193644,-12.343197,-45.998654
43,-0.107117,-0.667275,-16.01223,-17.624648,0.0,-60.538044,-35.653496,-94.102993,-29.84848,-95.376663,-22.167778,-83.12851,-14.116974,-63.449879,0.0,24.519298,29.443461,44.842593,47.266482,58.228477,59.740251,69.983903,67.539822,76.314247,0.0,46.352119,35.629921,63.484154,19.364204,49.137955,-0.978355,21.292076,-24.05611,-20.28574,0.0,-59.412511,-36.085521,-93.311248,-38.651188,-96.675333,-40.260373,-90.244013,-40.68534,-94.708274,23.882217,276.939683,-27.657738,-61.209988
44,1.249695,-0.264848,20.877571,-37.31176,0.0,-60.87719,-35.286827,-93.964462,-29.797096,-95.274582,-22.137337,-83.766804,-14.079094,-65.325623,0.0,24.447297,29.240426,43.149088,47.298778,57.335011,59.778474,70.669641,67.510182,76.642944,0.0,62.043686,14.363365,39.516792,-7.866325,21.953201,-28.72427,0.222244,-47.212029,-30.915241,0.0,-72.616817,-44.148534,-56.613133,-42.18731,-51.164076,-37.589205,-47.38228,-30.559785,-80.228435,25.185671,278.044969,-6.726408,-97.151614
45,0.715599,0.027788,-38.981953,-7.856536,0.0,-61.655045,-34.850235,-94.215889,-29.173851,-95.26228,-21.590996,-83.699913,-13.781662,-64.794903,0.0,22.629241,29.280872,42.397956,47.389489,56.887814,59.751736,69.696393,67.199577,75.634436,0.0,51.665211,2.649708,37.287426,1.39389,46.877117,5.317898,40.139408,12.021503,40.581493,0.0,-56.125907,-44.502333,-81.539551,-38.340846,-69.572615,-28.657008,-42.849769,-16.82637,-38.291739,25.649843,278.263674,-45.959787,-104.817233
46,0.75737,-0.355991,-29.411716,-6.454647,0.0,-61.544437,-34.702492,-94.687157,-28.963394,-96.490459,-21.274223,-84.485836,-13.353081,-65.163174,0.0,23.526351,29.901278,41.733213,48.122961,56.835882,60.376157,69.291125,67.66042,75.365884,0.0,27.306976,11.042061,30.957813,28.093071,64.125366,44.164124,52.747879,58.454933,64.357567,0.0,-48.439015,-41.619932,-91.431257,-36.103382,-83.946814,-24.904898,-30.502465,-11.847311,-19.81103,26.054592,277.744739,-75.724125,-111.434824
47,1.359787,0.63924,-2.664814,-0.813376,0.0,-60.55933,-34.865227,-95.389938,-29.615707,-98.003883,-22.253952,-85.458298,-14.496574,-65.843582,0.0,22.390514,29.131992,40.562611,47.142426,55.712518,59.423101,68.244579,66.985735,74.870893,0.0,16.312695,14.978371,29.473228,30.012016,71.80933,43.776112,52.594128,55.931911,64.17532,0.0,-51.700996,-41.154967,-91.730716,-35.677165,-89.273975,-24.398576,-23.443312,-10.930518,-13.557565,27.06811,278.289069,-78.735209,-112.343111
48,0.812073,0.192414,0.37096,0.480603,0.0,-60.427151,-34.842567,-95.436859,-29.574738,-97.953415,-22.200508,-85.878296,-14.400787,-66.234684,0.0,23.180117,28.983729,39.808885,46.904563,55.631625,59.111323,68.17227,66.712552,74.779996,0.0,24.98703,15.829811,33.834858,32.412701,71.199646,46.658707,51.664925,58.411674,63.082466,0.0,-44.248755,-41.686283,-90.397864,-36.287738,-88.648367,-25.13234,-24.811871,-11.544255,-13.579487,27.354698,278.426849,-78.889732,-111.917141
49,0.97538,-0.079164,1.91946,1.433628,0.0,-62.238235,-35.982285,-97.491016,-30.400658,-99.797344,-23.010864,-87.516289,-15.495758,-68.340454,0.0,22.380449,29.576348,40.590213,47.815505,55.809652,60.121004,67.794851,67.494744,74.411099,0.0,20.878143,13.863316,34.310703,30.530376,67.716694,45.490265,49.09544,58.213863,59.783878,0.0,-49.411198,-41.842141,-92.605132,-35.800218,-87.053678,-24.275368,-26.950381,-10.387623,-14.775284,28.192205,278.309277,-77.108145,-110.521922
50,-0.376854,-0.030813,-0.433216,-0.128842,0.0,-61.942978,-35.65052,-96.307068,-30.086403,-98.557148,-22.80899,-85.645523,-15.549431,-66.946678,0.0,22.849443,29.455502,40.709947,47.602219,55.973167,59.861035,67.646341,67.251571,74.405418,0.0,20.79443,13.697262,36.894779,30.876045,69.506493,46.086044,49.09584,58.896217,60.646248,0.0,-52.713409,-37.795266,-88.947748,-31.046533,-85.524228,-19.526283,-28.044968,-6.414201,-16.622377,27.703142,278.168825,-77.65357,-110.760402
51,0.797653,0.272011,-1.807365,3.384633,0.0,-62.005463,-35.86544,-96.090603,-30.587311,-98.822651,-23.346062,-85.991821,-15.917358,-67.318153,0.0,22.703897,28.732775,40.937312,46.752719,55.817803,59.167145,67.635597,66.923306,74.678231,0.0,31.548328,12.36866,32.075329,26.614552,67.712402,40.1861,54.362354,52.48106,61.88736,0.0,-42.839472,-36.153199,-85.443304,-30.699835,-84.645334,-19.658846,-27.177699,-6.125764,-15.2172,28.250113,278.201924,-79.711618,-107.614681
52,0.494614,-0.21767,-2.226734,5.899326,0.0,-63.737926,-36.557579,-96.469002,-30.953522,-98.432007,-23.297195,-85.944157,-15.476875,-67.046986,0.0,22.868833,29.629885,41.801633,47.871945,57.544344,60.048077,69.841198,67.173827,75.211137,0.0,36.641407,3.966351,33.018208,13.573608,63.516483,26.16045,68.789806,40.104446,75.570431,0.0,-45.028555,-33.85349,-90.005764,-26.3443,-84.520413,-15.319382,-37.410298,-2.990881,-23.166995,28.736343,277.818392,-81.946735,-101.881217
53,1.111336,0.789417,20.559025,8.564875,0.0,-63.425846,-36.998749,-96.806946,-31.616249,-99.262791,-24.428101,-87.45512,-17.084885,-67.989178,0.0,23.683012,29.396037,41.139606,47.360343,55.92352,59.441441,68.37549,66.829692,74.998037,0.0,31.138115,-13.379002,13.687077,-18.379555,25.972137,-16.482182,44.264946,-8.30389,32.008209,0.0,-45.683896,-39.98881,-90.826612,-30.276798,-85.115811,-17.065251,-27.695554,-2.724243,-9.484863,29.615421,278.643192,-61.619968,-93.28096
54,0.309219,-0.071754,10.657196,23.457345,0.0,-63.393803,-36.760483,-96.388321,-31.453857,-98.558922,-24.429817,-87.652187,-17.141647,-68.372784,0.0,23.920257,29.646743,42.234997,47.625376,56.319463,59.739757,69.240119,67.129861,75.617887,0.0,13.915329,-15.067577,-3.81197,-26.365356,-10.333214,-33.550644,1.180401,-34.289703,-1.926956,0.0,-34.743005,-50.263014,-105.653473,-44.056387,-101.142574,-32.653556,-19.44397,-18.085553,-8.12972,29.782991,278.404048,-51.104422,-69.991004
55,-0.803261,0.006113,-0.420685,9.986894,0.0,-63.031197,-35.858803,-96.187134,-30.383949,-98.350925,-23.286896,-87.80159,-16.054573,-68.994198,0.0,23.856716,30.038364,42.333612,48.131359,55.794399,60.168799,68.76106,67.278309,75.423003,0.0,5.688858,-12.728462,-7.92326,-26.560307,-25.373268,-37.778664,-7.709541,-44.101238,-14.801102,0.0,-25.391831,-44.850405,-101.397696,-39.093445,-100.186369,-28.294687,-9.671411,-14.595914,-4.536463,29.04376,278.208809,-51.461077,-60.205463
56,0.332451,0.952562,-9.590378,5.024755,0.0,-63.763275,-36.03756,-97.293205,-30.981216,-99.688625,-24.254608,-88.551121,-17.221985,-69.534359,0.0,23.002461,29.741901,40.942129,47.798092,54.827265,59.771373,67.194699,66.846735,73.852566,0.0,8.904533,-2.643986,-0.126457,-17.517872,-24.993038,-29.689693,-5.752316,-36.24361,-13.229713,0.0,-4.776333,-35.410712,-93.163588,-28.924233,-82.541683,-17.39398,13.205418,-1.429584,23.575782,29.735899,279.298225,-60.691767,-55.043854
57,-0.990486,-0.303627,-1.370573,36.177251,0.0,-63.737812,-35.801353,-96.75602,-30.674057,-100.038528,-23.77121,-88.668365,-16.499863,-69.474964,0.0,24.050921,30.058557,41.047598,48.018849,54.652943,59.99139,67.342838,67.040385,74.438887,0.0,0.72195,-3.969326,-1.762276,-20.300388,-29.50407,-33.806162,-10.377245,-42.660856,-17.430439,0.0,-22.167425,-46.666546,-108.059192,-41.805723,-102.439256,-31.109363,-0.772868,-16.850637,6.486155,29.081268,278.839126,-61.726484,-19.022076
58,-2.072411,-0.323943,-1.370573,36.177251,0.0,-63.594589,-35.494881,-96.336308,-30.280952,-99.09359,-23.318253,-88.07642,-15.93029,-68.703346,0.0,24.624459,29.788213,41.511838,47.831005,55.802242,59.897714,67.974915,67.045695,74.330762,0.0,-7.460632,-5.294666,-3.398094,-23.082905,-34.015102,-37.92263,-15.002174,-49.078102,-21.631165,0.0,-39.558518,-57.92238,-122.954796,-54.687215,-122.336829,-44.824748,-14.751155,-32.271692,-10.603472,27.213478,278.534681,-62.892437,17.174673
59,-0.602989,0.366674,-5.493107,12.817842,0.0,-63.09597,-36.069832,-96.135349,-31.025963,-99.462948,-23.958664,-87.817211,-16.431541,-68.603954,0.0,24.024739,29.10019,39.91417,47.161321,54.43305,59.477812,67.307579,67.084907,74.429995,0.0,-10.634708,-4.810753,-3.851967,-22.414799,-34.335365,-36.86348,-14.970016,-47.352962,-24.131756,0.0,-30.892527,-56.373618,-118.079724,-52.85968,-115.304846,-43.435981,-12.230966,-30.730772,-9.042854,26.620846,278.834279,-68.375187,29.925438
60,-0.484314,-0.121216,-4.080276,18.612778,0.0,-64.286385,-36.316795,-96.228161,-31.075058,-99.485779,-23.944702,-87.878838,-16.476402,-68.715878,0.0,23.928408,29.49669,40.566069,47.827732,54.732601,60.127055,67.613243,67.387792,74.25203,0.0,-6.188278,-2.781544,-3.302765,-20.534077,-32.826862,-35.215359,-13.188858,-46.560917,-22.166519,0.0,-30.092581,-54.907386,-116.013278,-52.293892,-114.611358,-43.049331,-12.482012,-31.088492,-9.350371,26.225939,278.718466,-72.366056,48.54362
61,-0.866661,0.353151,-2.952232,11.848885,0.0,-61.651268,-37.015228,-96.21706,-31.904869,-99.268856,-24.738464,-87.795353,-17.086716,-68.124332,0.0,23.188823,29.080677,39.610543,46.939452,53.650796,59.091995,66.563116,66.56046,74.013673,0.0,-4.191914,-3.092937,-7.139225,-20.100861,-33.689861,-34.261608,-15.176811,-44.658108,-23.533115,0.0,-22.210728,-53.451187,-110.088696,-49.938948,-108.556669,-41.007646,-7.52259,-28.073158,-6.98144,25.473461,278.480896,-75.204105,59.801785
62,-0.9692,-0.0875,1.057892,11.925487,0.0,-62.147713,-36.131516,-95.475025,-30.90374,-98.032722,-23.559952,-86.808186,-15.804291,-67.88578,0.0,22.24256,28.952422,40.048662,46.895054,54.223901,59.031418,67.190315,66.330934,73.801993,0.0,-7.449989,-5.056,-11.210117,-22.57513,-36.212368,-37.440205,-22.220592,-48.334064,-31.957626,0.0,-8.644317,-47.152738,-103.883459,-43.211271,-99.161065,-34.488253,-1.351933,-20.697472,-0.927059,25.168962,277.563471,-73.481512,70.897346
63,-0.586624,-0.335552,-12.398071,48.180327,0.0,-61.1376,-36.406403,-96.192741,-31.309776,-98.838444,-24.036942,-87.454491,-16.139717,-67.875767,0.0,21.46327,29.263582,39.96709,46.921298,54.279477,59.022402,67.167467,66.535143,74.367441,0.0,-0.476074,7.867126,-2.757339,-9.565544,-14.998283,-25.477638,-20.792255,-38.157864,-27.178116,0.0,-32.777551,-52.299326,-116.137118,-55.16964,-115.570435,-51.669348,-19.088627,-43.70089,-15.747467,24.559937,277.111396,-85.901985,118.96115
64,-1.395378,-0.640908,-1.841812,39.904444,0.0,-61.603718,-36.740913,-96.546307,-31.58226,-99.178047,-24.304733,-88.185883,-16.447105,-68.604069,0.0,21.393554,28.688747,40.648135,46.66491,54.473496,59.052783,66.709155,66.724469,73.98144,0.0,8.31316,4.572887,-6.179924,-11.866093,-19.473896,-25.685463,-15.017395,-35.676727,-24.666882,0.0,-11.624083,-50.279223,-90.687983,-51.01183,-86.657842,-45.500204,-16.402144,-35.296011,-9.859441,21.820822,276.167942,-89.087534,158.563048
65,-0.962448,-0.651467,7.653522,-18.972814,0.0,-60.838966,-35.253296,-95.843868,-30.597153,-98.970966,-23.793983,-87.627754,-16.472626,-67.790165,0.0,21.653338,28.370054,39.861373,46.479226,54.575693,58.958676,67.552481,66.667844,74.455065,0.0,-8.495808,-2.326355,-16.894169,-18.352375,-30.438194,-32.799225,-31.829681,-43.022804,-40.427341,0.0,11.182938,-1.826392,0.943855,1.76458,-0.177224,5.49696,20.837924,8.544713,25.143471,19.909887,275.187392,-82.382498,139.26115
66,-0.063629,-0.133998,-4.853611,35.040457,0.0,-59.610329,-35.84404,-95.80925,-31.3377,-99.73177,-24.39045,-87.321396,-16.721306,-66.577034,0.0,22.719829,27.482206,40.370443,45.395013,55.212217,58.014944,67.758851,66.171988,74.755852,0.0,-20.238304,2.62373,-17.307472,-14.37521,-22.922802,-28.942966,-28.072701,-40.607071,-36.439419,0.0,7.994023,-30.558365,-42.635109,-33.769386,-39.556882,-31.848392,-5.373706,-24.048266,-1.690232,18.690977,274.79168,-88.39139,174.039893
67,0.644417,0.478566,-3.449192,4.434668,0.0,-60.390415,-36.945877,-95.793114,-32.111435,-99.317379,-24.571495,-86.355114,-16.188354,-66.469345,0.0,22.139066,27.310725,40.796089,45.700924,56.120936,58.353522,69.260312,66.064605,75.077448,0.0,-11.264935,13.051643,-8.498039,-4.263325,-17.529087,-21.714134,-19.564877,-37.964573,-31.718273,0.0,5.425206,-28.575621,-46.68325,-37.831637,-59.887464,-41.821455,-7.119946,-37.698503,-6.988109,18.817291,275.13072,-92.358685,178.335035
68,1.27739,0.70167,2.348785,-0.796333,0.0,-62.288189,-36.821251,-96.785831,-31.755753,-98.566933,-24.458771,-87.576084,-16.639252,-69.276695,0.0,22.626462,28.427914,41.956009,46.776802,55.60217,59.329549,68.909446,66.948623,74.883922,0.0,-11.014996,10.905704,-9.011822,-7.860432,-20.142117,-25.645523,-21.941528,-40.836411,-33.819294,0.0,5.684002,-33.766175,-53.250344,-42.729494,-59.963911,-45.677737,-3.469262,-40.191923,-4.294309,19.625187,275.639667,-90.479393,177.345979
69,-0.083656,-0.140359,-0.60173,-0.017414,0.0,-61.797123,-36.004601,-96.24527,-30.937843,-98.349495,-23.83049,-87.325115,-16.259193,-68.60075,0.0,22.436703,29.085864,42.230057,47.015961,56.157245,59.445146,69.25,67.304676,75.610786,0.0,-12.300339,9.294491,-10.193195,-9.27681,-23.260918,-26.308022,-22.077541,-40.595913,-33.048992,0.0,5.642259,-34.769496,-55.598712,-42.453099,-61.418534,-44.402436,-5.644296,-38.614509,-7.258082,19.313421,275.260257,-91.309233,177.089514
70,0.072327,0.376739,-2.28241,-1.7032,0.0,-61.345825,-36.027832,-96.619778,-31.211357,-98.99271,-24.357033,-87.886047,-16.837349,-68.912601,0.0,23.421993,28.671951,41.961319,46.492564,55.219688,58.864198,68.320224,66.750837,74.777094,0.0,-9.50243,10.203667,-8.282719,-8.034897,-20.840721,-25.058556,-21.98061,-39.670486,-33.404961,0.0,7.451854,-32.619038,-53.194244,-41.005423,-59.399203,-43.842237,-3.231461,-38.148849,-4.593737,19.325724,275.325651,-93.651667,175.074969
71,-0.393105,0.213101,1.832943,0.890379,0.0,-61.585579,-35.687485,-95.969696,-30.588684,-98.328495,-23.49369,-87.237225,-15.913124,-68.452835,0.0,22.811837,28.215986,42.84787,46.079886,56.319834,58.534451,68.742226,66.559287,74.714911,0.0,-12.297764,8.774357,-9.905949,-10.676708,-23.375473,-28.502941,-21.008091,-42.93045,-33.286686,0.0,6.970448,-35.523592,-54.012066,-44.12527,-61.027407,-46.229199,-3.784621,-40.093616,-4.07139,18.916426,275.25842,-91.834917,175.685017
72,-0.020142,-0.193711,0.256634,0.603302,0.0,-61.5485,-36.12648,-95.849133,-31.079521,-98.322315,-23.973198,-87.392578,-16.320648,-68.686867,0.0,23.020183,28.426185,43.024353,46.143304,56.135447,58.534265,68.529681,66.614183,74.842426,0.0,-12.384167,6.741428,-10.247898,-13.41053,-22.666283,-31.156483,-19.169083,-44.494686,-32.335796,0.0,7.760607,-34.702311,-52.700889,-43.863355,-59.249088,-45.45559,-7.826371,-39.457772,-5.299359,18.894768,274.750477,-91.5798,175.974086
73,-0.970459,-0.071507,0.281639,1.369439,0.0,-61.230583,-35.449562,-95.3936,-30.299377,-97.273178,-23.242149,-85.697422,-15.89035,-67.765617,0.0,21.717743,28.507201,43.044854,46.405373,56.506938,58.960096,68.771372,66.956898,75.313828,0.0,-12.516518,6.935005,-12.419872,-12.640457,-23.846283,-30.09716,-22.183685,-44.224606,-34.867344,0.0,5.050196,-36.527592,-55.184923,-43.496743,-61.762083,-44.086954,-7.425302,-37.14664,-6.67701,17.956181,274.411915,-91.266289,177.076469
74,0.193863,1.013448,-1.074028,-0.890688,0.0,-60.367069,-35.903664,-95.61739,-31.086388,-98.149738,-24.219131,-86.189632,-16.926956,-68.006516,0.0,21.454563,27.947001,41.934087,45.779965,55.393763,58.327957,67.707474,66.412074,74.19701,0.0,-11.594639,7.880974,-10.437355,-11.861458,-20.820637,-29.51231,-19.938183,-43.570576,-33.147869,0.0,5.895435,-35.12771,-51.696117,-42.207209,-60.006704,-42.88634,-6.811997,-35.864886,-4.695378,18.205891,275.11113,-92.28447,175.871549
75,-0.04406,-0.033901,0.205708,0.058478,0.0,-60.131721,-35.470161,-95.032539,-30.869064,-97.78347,-24.137421,-85.736732,-16.956825,-67.296638,0.0,20.945925,27.594962,42.193995,45.444228,55.925619,58.063665,68.046422,66.301232,74.694533,0.0,-10.525074,7.616329,-11.832848,-12.362194,-20.678787,-30.232029,-19.428864,-44.313183,-32.769299,0.0,6.071054,-36.040628,-51.212303,-42.805756,-59.40649,-42.946918,-7.0506,-35.988758,-5.13924,18.230124,274.897289,-92.010469,175.750086
76,-0.158958,0.214953,0.198212,-0.606821,0.0,-60.543194,-35.239449,-95.155334,-30.498848,-98.251076,-23.762169,-86.056366,-16.660767,-67.681618,0.0,21.503346,27.822142,41.786813,46.027831,55.935746,58.583789,68.203454,66.410098,74.653346,0.0,-10.155602,7.069416,-11.330223,-13.072128,-22.355976,-30.892239,-20.16243,-44.65004,-33.58366,0.0,6.501083,-35.559407,-51.174141,-42.588703,-59.370119,-42.818415,-6.212832,-35.802024,-3.584858,18.158855,274.896254,-91.724567,174.927277
77,-0.079193,0.067184,0.006237,0.170369,0.0,-60.671196,-35.135307,-95.119514,-30.361061,-98.007317,-23.612022,-86.005669,-16.565323,-68.122902,0.0,21.83192,27.968244,41.520298,45.997141,55.611124,58.500488,67.9772,66.439615,74.515828,0.0,-10.465221,7.055168,-10.41544,-13.115845,-22.164631,-30.985165,-20.112305,-44.708519,-33.848705,0.0,6.904067,-35.994994,-49.541429,-42.821996,-59.336619,-42.627359,-7.287475,-35.132032,-4.236325,18.141232,274.851562,-91.656761,174.98577
78,0.602646,-0.051129,-1.716728,0.672462,0.0,-61.053715,-35.431709,-95.297928,-30.685616,-98.978519,-23.806229,-86.480713,-16.498146,-68.032551,0.0,22.118195,27.95719,41.564079,46.003316,55.960693,58.50234,68.231612,66.390214,74.861074,0.0,-9.916592,9.631062,-9.902,-10.155544,-18.226662,-28.154182,-19.089603,-42.633877,-32.722492,0.0,6.131445,-35.833023,-48.714715,-42.818353,-60.035788,-43.353235,-8.542367,-36.476956,-6.042772,18.885412,274.677889,-93.231955,175.535689
79,-0.269852,0.07725,0.793476,-2.832183,0.0,-61.528416,-35.859375,-95.776291,-30.886803,-98.982525,-23.746376,-86.65329,-16.189384,-68.215656,0.0,21.925534,28.202216,41.915809,46.456193,56.740354,58.966209,68.996885,66.69804,74.720098,0.0,-10.421734,8.216228,-8.681774,-11.572838,-19.405689,-29.338303,-19.629078,-42.97411,-32.557125,0.0,5.915936,-34.542872,-51.206869,-42.377424,-55.64308,-42.971278,-4.017667,-36.416935,-1.996206,18.74671,274.639789,-92.307329,172.588156
80,-0.562477,0.385137,-1.213531,-1.114904,0.0,-61.181259,-35.446815,-95.286655,-30.33062,-98.163414,-23.249817,-85.655537,-15.910149,-67.095394,0.0,22.49654,28.068712,41.773536,46.328617,56.448954,58.868891,68.437796,66.613751,74.406344,0.0,-5.298386,10.365887,-4.082508,-9.031448,-15.094242,-26.867237,-16.593075,-40.909138,-28.990402,0.0,5.200311,-35.340317,-53.822987,-42.200077,-58.409622,-42.21959,-5.602738,-34.814635,-3.426592,18.582573,274.923733,-93.12252,171.372059
81,0.476761,0.463437,-3.270149,-3.71262,0.0,-61.497402,-35.729713,-95.764217,-30.435333,-98.377075,-23.202782,-85.54739,-15.702667,-66.766605,0.0,22.633873,28.368633,41.56624,46.590933,56.423513,58.914895,68.141086,66.36959,74.240297,0.0,7.270203,14.851513,4.654427,-2.449207,-3.454227,-18.732605,-12.345085,-33.263283,-25.451717,0.0,3.891017,-33.356091,-55.556753,-39.1677,-56.550873,-39.61468,-6.842316,-33.134654,-6.362454,19.463196,275.355862,-95.988808,167.628132
82,0.344696,0.41805,-2.813873,-2.582587,0.0,-60.830555,-35.63118,-96.281376,-30.89756,-99.006042,-24.001694,-86.48838,-16.665688,-67.525349,0.0,22.056691,28.020608,40.662338,46.040243,55.703873,58.408665,68.253286,66.094059,74.492424,0.0,22.176476,19.628735,17.252769,4.540386,7.814312,-10.471287,-2.036591,-24.51313,-13.326473,0.0,0.35031,-33.16028,-56.541579,-38.548683,-55.110112,-38.732668,-8.922935,-32.989046,-9.247927,19.909401,275.733127,-98.701172,165.004758
83,-0.578156,0.250892,3.775406,-1.912596,0.0,-61.084843,-36.209221,-95.907383,-30.736656,-98.038731,-23.200951,-84.793396,-15.440941,-65.839233,0.0,22.770464,28.603408,41.902903,46.902834,56.601045,59.301267,68.844114,66.662843,74.755234,0.0,29.618111,12.375355,24.520283,-0.444489,17.777081,-13.79837,4.082279,-25.529709,-4.303493,0.0,-0.981461,-30.057137,-51.858274,-33.367453,-44.20641,-30.827843,-6.281375,-22.806774,-0.401131,19.346838,275.919675,-94.910173,163.027818
84,1.184578,0.079164,1.317558,-0.842461,0.0,-62.423916,-36.983757,-96.249561,-31.382217,-97.062321,-23.834839,-84.866867,-16.07769,-66.888885,0.0,23.37673,28.745867,42.560607,46.836576,56.933201,59.388953,69.774693,67.116214,76.187905,0.0,36.351929,16.706257,29.951935,2.75322,27.782478,-11.33028,11.569748,-23.3848,6.947765,0.0,-0.648132,-31.146167,-46.625266,-34.709536,-31.207485,-30.031881,2.505461,-17.320003,11.019238,20.624571,275.763045,-93.49946,161.949564
85,1.166954,-0.187783,-1.176338,-11.654155,0.0,-64.209595,-35.958366,-96.892891,-30.179443,-96.178722,-22.783127,-85.718994,-15.18734,-67.771168,0.0,22.66623,29.492429,44.65234,47.797906,56.977908,60.237774,70.401336,67.579836,76.723528,0.0,45.558758,10.832977,44.932251,-3.625088,35.407104,-13.985081,36.701546,-20.308857,24.755688,0.0,14.015615,-24.333954,-15.113599,-18.257621,0.418421,-4.992706,35.181371,13.458873,39.390526,22.163486,274.76698,-94.303837,149.487126
86,-0.351791,1.311764,-2.628136,-1.188263,0.0,-63.049564,-35.169067,-95.679245,-29.702682,-96.73027,-22.533073,-84.975586,-15.148888,-66.534576,0.0,20.88294,27.83054,42.998232,46.182824,56.751037,58.803621,69.372698,66.486113,75.924169,0.0,47.710934,22.696896,60.043259,8.117523,56.350994,-4.244499,49.451294,-13.092728,30.518246,0.0,6.893013,-18.791947,18.797072,-9.119301,36.512957,4.22237,50.75464,19.996018,54.899389,22.30422,275.506317,-96.439447,147.726437
87,0.240326,0.438798,1.412487,5.163446,0.0,-63.119087,-34.40197,-95.539856,-29.087105,-97.397804,-22.010994,-85.291615,-14.822388,-67.051849,0.0,21.161187,27.871542,42.767718,46.16998,57.011747,58.748724,69.371277,66.411024,75.654752,0.0,52.755203,23.671761,68.465767,9.436741,61.591702,-3.935738,46.492996,-14.2729,25.217628,0.0,10.729072,-8.10468,29.058385,2.099699,48.015391,14.25675,57.663461,28.724007,61.13828,23.052349,275.598078,-94.519157,152.542845
88,0.23735,0.454483,3.923721,13.462084,0.0,-62.800655,-34.831467,-95.204144,-29.281654,-96.309528,-21.98513,-84.086323,-14.53331,-65.351772,0.0,20.173427,27.915385,42.737275,45.971144,58.081388,58.398353,70.398125,66.03515,76.446146,0.0,51.808777,22.100658,71.076107,8.956261,62.515812,-5.314522,43.111954,-18.049049,17.319717,0.0,16.455065,0.893343,38.72393,9.927058,49.50475,19.711596,56.746838,30.931708,60.447725,23.954916,275.819068,-89.93022,165.771436
89,-0.06649,0.043225,2.378998,16.609996,0.0,-61.01944,-33.505211,-94.606247,-27.886047,-95.549469,-20.505638,-83.191395,-12.800102,-64.283581,0.0,23.883763,28.163066,43.285866,46.153555,58.341974,58.296403,71.42312,65.635624,76.871544,0.0,49.328556,23.889599,74.282055,12.276421,72.616024,-0.53112,56.210461,-12.23465,30.305099,0.0,25.173852,5.242363,44.805481,15.678059,58.128442,26.548478,62.258,36.197104,59.415073,24.376631,275.650844,-87.063017,182.169983
90,3.80619,-0.095651,32.552376,40.922183,0.0,-49.1292,-36.502533,-95.023212,-33.435173,-98.314533,-27.094002,-89.283485,-19.203758,-70.189247,0.0,-8.744599,26.052252,41.728644,41.681219,57.212621,53.767998,69.228449,62.942442,77.894687,0.0,50.545979,16.187782,45.143909,-2.930717,39.169064,-19.626274,30.990658,-33.260136,18.737526,0.0,36.576251,1.284409,56.719359,8.49204,71.206685,18.808867,72.941192,29.856201,61.504337,28.716516,275.208264,-53.976946,222.745237
91,-0.138702,3.669827,-17.223587,-4.337472,0.0,-51.03075,-35.542946,-94.554005,-33.016319,-97.939167,-27.090225,-87.90596,-18.127556,-68.321571,0.0,-15.557584,26.503771,37.795204,37.997437,51.806187,46.760438,64.045798,53.835306,70.582388,0.0,68.325863,19.716454,81.023769,6.938953,74.215908,-4.065914,62.416706,-13.438511,40.470543,0.0,24.649282,16.873732,60.93932,34.309949,73.790631,49.878525,77.68949,62.197485,77.174306,29.340677,278.04693,-70.43767,217.576604
92,1.321564,-1.762851,35.601254,87.611608,0.0,-54.299812,-35.491104,-95.19413,-34.020195,-100.335674,-29.161263,-89.092083,-21.358223,-69.230576,0.0,-14.805835,27.696048,34.603449,39.901758,50.903643,48.91528,64.148921,55.469716,72.157703,0.0,7.32914,17.710533,-18.32016,13.523998,-15.357342,7.575188,-4.44706,-0.079708,26.96022,0.0,6.753828,-2.896959,34.409861,-21.417698,19.061364,-38.894053,1.460768,-54.454045,-40.649432,30.891724,275.725701,-34.606934,304.629834
93,-3.910904,46.429826,-18.077087,-54.470409,0.0,-69.476509,-28.156471,-87.997055,-22.686653,-81.13369,-16.161575,-69.229832,-8.921127,-56.22282,0.0,24.888627,7.208373,1.340478,-8.531622,-25.434501,-25.742635,-39.892433,-44.140553,-50.945448,0.0,63.790855,29.869938,77.795105,16.451855,67.11937,3.606262,48.682594,-10.213566,28.055019,0.0,25.565473,39.034103,49.347409,57.095234,56.43401,69.816621,71.735145,77.669051,81.379324,28.150349,321.146896,-51.514492,249.150794
94,4.153976,-43.244184,-14.298992,1.327757,0.0,-63.925209,-32.575722,-35.016975,-33.868103,-73.332481,-32.708244,-86.01717,-28.546944,-80.872765,0.0,-15.534489,18.583848,24.615196,33.886094,27.074036,46.72561,46.962362,57.78338,67.260092,0.0,80.48933,23.813381,96.690731,12.857094,91.793346,4.241238,77.60313,-2.976036,55.126362,0.0,22.698896,33.744748,62.095288,53.553909,72.764215,66.515753,81.275522,73.082354,84.577316,32.871037,277.428932,-65.246773,250.004771
95,-1.766167,0.533338,-0.806351,5.70191,0.0,-57.259197,-31.381989,-41.150665,-32.521362,-65.349197,-32.026749,-78.832798,-28.628311,-80.072079,0.0,-7.536885,21.168288,23.088726,37.473917,30.165323,49.949847,47.634453,59.057538,64.513002,0.0,79.380512,30.650997,96.342716,19.813328,93.916111,9.840775,77.274342,1.671867,53.564472,0.0,15.708934,32.679553,62.758179,50.956193,74.175521,62.904651,81.192653,69.681511,82.88801,31.748743,277.716426,-65.40925,255.460837
96,-0.029526,-0.528769,4.220695,4.469124,0.0,-55.473003,-23.270645,-47.956066,-27.037582,-67.07056,-29.435463,-78.978024,-29.295502,-78.632755,0.0,-7.511814,19.251,26.450295,37.109589,37.860351,50.474293,51.79921,59.52962,67.279729,0.0,78.517284,30.436878,96.825314,19.343834,95.333004,8.937092,78.524494,0.054245,52.213955,0.0,8.583246,32.275211,59.172826,50.133739,72.253354,61.578993,80.334631,67.944472,84.103814,31.976624,277.053119,-60.931149,259.795422
97,-2.003403,3.127844,1.343479,0.919278,0.0,-41.238327,-37.92675,2.104797,-43.15876,-0.76252,-44.102097,-11.768646,-42.123642,-56.968575,0.0,-8.164392,16.541206,34.333785,30.287033,45.636148,41.057293,55.156765,49.883959,63.670479,0.0,76.993561,32.111492,96.292877,22.034111,96.968193,12.378788,80.706711,3.76339,54.844093,0.0,4.875813,34.057946,56.440741,52.152113,73.563019,63.596749,81.917973,69.977543,84.568548,30.203447,280.051348,-59.357443,260.585087
98,-34.780655,-1.764456,2.559185,2.95593,0.0,1.175079,-9.289398,39.76078,-16.950188,41.285248,-25.225925,28.908005,-32.35508,-16.209011,0.0,-12.587945,14.47689,33.661323,34.782772,49.596696,48.965174,55.622548,59.970271,66.957701,0.0,74.70686,33.125324,95.837345,23.125362,96.639919,13.278809,81.124821,4.16502,55.794582,0.0,1.839977,33.648849,57.229294,51.388878,72.850604,62.673025,82.583334,68.882214,84.371379,-4.461679,278.273786,-56.68273,263.527911
99,-11.145916,8.296353,3.054142,1.766556,0.0,26.469326,-1.918602,52.693462,-8.585529,54.574299,-12.591534,43.261242,-14.482498,13.639355,0.0,-14.851159,11.783275,30.453698,29.583202,47.494588,42.882635,52.696875,54.137204,57.526375,0.0,73.850212,32.935524,97.467384,23.467083,97.479515,14.075775,83.492889,5.745621,62.060165,0.0,1.663988,34.460373,59.72716,51.833543,72.919024,63.028646,82.405369,69.269883,84.16365,-15.231171,286.53667,-53.252163,265.260998
100,50.879002,-1.401673,2.534122,2.138417,0.0,-39.997559,-46.299248,1.545639,-54.493446,4.246101,-57.431316,-6.642723,-57.060814,-66.25351,0.0,-8.386323,19.077852,33.89054,36.395446,45.587674,47.898189,50.092552,56.578568,61.403992,0.0,72.482586,32.733994,96.62859,23.221722,95.45763,13.671341,81.392612,5.334835,59.49995,0.0,0.954476,35.327349,59.708573,52.890648,71.811901,64.10514,80.735329,70.141614,82.397588,36.005001,285.208897,-50.36087,267.473314
101,-24.80381,3.16792,-0.030956,1.941556,0.0,-3.928413,-22.223167,26.823349,-29.887047,31.29158,-33.242741,21.93409,-34.115524,-5.165977,0.0,-10.043458,19.506399,37.225495,34.818093,48.488461,44.841729,53.648079,52.467967,56.048132,0.0,75.292397,33.735237,96.752129,24.486408,96.16848,14.978027,82.261047,6.461792,61.500206,0.0,1.070135,34.223931,58.784293,51.769199,70.995622,63.452994,79.604309,70.308155,80.389465,11.633234,288.461739,-49.959784,269.499793
102,20.263824,-4.536988,2.055531,-0.26775,0.0,-29.945984,-40.779533,3.681908,-49.72887,7.050018,-54.333973,-3.705139,-55.830288,-34.023285,0.0,-7.920972,15.707761,34.412023,34.442033,48.636292,47.42691,54.685486,57.368479,59.884932,0.0,73.734684,31.877632,93.573017,22.387047,93.161716,12.813892,79.190197,4.390125,58.309879,0.0,2.010099,34.789565,59.783538,52.466855,71.238857,63.993928,79.365705,70.43499,80.496726,32.247705,283.937549,-47.553606,269.244841
103,-28.046837,14.181167,0.516071,0.946387,0.0,19.377251,-9.439659,31.80954,-17.240181,35.888901,-21.919956,25.357361,-24.182281,-1.089935,0.0,-30.032436,7.983032,22.328393,24.118908,36.747114,36.096883,44.031378,45.530123,47.6975,0.0,73.573723,30.894012,92.645874,21.437874,91.6745,11.980247,78.180771,3.527355,56.915131,0.0,1.615885,33.740981,59.421063,51.236663,71.024212,62.673334,79.120432,69.108776,79.441041,4.450064,298.127222,-46.78834,270.199734
104,-5.571671,-7.678293,1.25948,0.182719,0.0,18.711548,-8.330956,39.728622,-13.865662,45.369644,-16.291237,37.65152,-16.675701,-2.832298,0.0,-18.875681,11.898872,29.653474,26.913608,43.621664,38.105747,48.950663,46.422231,56.349597,0.0,72.586613,29.943924,91.178341,20.366879,89.630756,10.739365,76.061039,2.12265,54.894733,0.0,2.847064,33.962233,59.51338,51.237343,70.809383,62.52433,79.037687,68.835593,79.57121,-0.912752,290.484327,-45.320005,270.417852
105,4.941788,-7.639205,0.548058,0.96485,0.0,3.343964,-4.043541,35.09697,-8.607101,37.271118,-16.04805,27.04525,-24.012451,0.298004,0.0,-15.782911,16.740351,30.137474,35.398732,47.41067,48.318462,53.246207,58.119179,58.150178,0.0,72.582493,29.776382,90.548,20.349541,89.720478,10.616798,75.981274,1.702881,55.264034,0.0,3.313651,32.61595,57.202062,49.740821,70.311304,61.330509,78.665147,68.366722,79.958941,4.164963,282.892006,-44.636021,271.429586
106,12.604866,2.129895,0.316029,0.456212,0.0,-12.34417,-16.44619,19.711647,-23.381767,19.578438,-31.147728,7.807503,-38.48877,-20.671349,0.0,-16.22807,15.601427,29.8604,34.418568,44.588923,47.33873,51.87473,57.040646,56.364726,0.0,72.509537,28.571949,90.34687,19.375076,89.161491,10.113602,75.530663,1.672039,54.789047,0.0,3.740408,32.168568,57.086836,49.57496,69.837863,61.366016,78.233264,68.489975,80.193037,16.864929,285.060511,-44.224892,271.924408
107,-15.122337,10.169058,-0.367012,0.335613,0.0,23.551369,-8.343315,39.452477,-16.503983,43.7463,-21.212883,29.478149,-22.863407,-11.390419,0.0,-14.409706,4.554587,20.100994,21.274437,40.671106,35.519269,49.734708,47.142673,51.840274,0.0,72.359619,28.406181,90.921478,19.249992,89.304657,10.084248,75.674171,1.684513,55.100441,0.0,4.391381,31.793064,56.306619,49.088922,69.791427,60.754316,78.054559,67.839991,80.076144,1.804247,295.239032,-44.530249,272.269484
108,-9.930267,2.169848,0.048981,0.221128,0.0,33.927498,5.117569,49.186592,-2.2435,53.050804,-8.046684,42.788658,-12.609158,1.276703,0.0,-23.043154,6.869363,23.701846,22.310794,38.01485,34.550591,44.503769,43.396646,51.671695,0.0,72.405167,28.257236,90.831299,19.344406,89.881439,10.306206,76.152992,2.086601,55.895691,0.0,4.748421,30.917629,56.131248,48.349152,69.905912,60.270378,77.967799,67.517777,79.856683,-8.054409,297.43588,-44.409657,272.517613
109,40.999947,-12.743927,-0.229568,-0.203035,0.0,-27.696419,-35.036201,4.176407,-43.827324,4.894638,-49.743862,-6.440392,-53.451004,-41.862602,0.0,-11.880285,15.777848,31.584656,34.517554,46.34671,47.584744,53.915458,57.383052,58.942497,0.0,72.794952,28.006496,90.712395,18.838463,90.057678,9.601192,75.745697,1.356983,54.868126,0.0,4.639864,31.787321,56.060235,49.313385,69.908753,60.89696,77.779399,67.677525,79.679706,33.01137,284.669693,-44.573393,272.292316
110,-20.475197,6.467738,0.455589,0.277321,0.0,12.373466,-21.145706,28.549232,-30.618324,31.364021,-34.60247,21.355362,-35.11425,-24.175301,0.0,-18.5497,7.596474,30.195396,26.060959,44.295423,39.916948,53.309933,49.97362,56.913132,0.0,72.227211,27.809772,90.585938,18.471794,89.37973,9.067039,75.229797,0.594749,54.530296,0.0,4.319071,31.785222,55.827251,49.104113,69.690836,60.611117,77.935627,67.381123,79.878974,12.565298,291.131904,-44.088678,272.564111
111,-3.741875,6.881157,0.369644,0.174877,0.0,19.046288,-15.799942,33.465614,-24.6171,35.232811,-29.076347,26.14563,-30.89962,-17.846375,0.0,-22.91564,6.423216,26.251644,21.71904,38.263272,33.779143,46.038637,42.86905,50.618356,0.0,72.370033,27.077808,90.437279,17.723465,89.012146,8.516922,75.03788,0.409527,54.425011,0.0,4.788621,31.672836,55.803168,49.030506,69.816127,60.569497,77.95477,67.244223,79.907071,8.841906,298.019329,-43.700552,272.745256
112,1.454201,2.539918,-0.055618,0.193896,0.0,19.894409,-19.213715,33.659592,-27.930737,34.163132,-31.496315,25.976143,-31.690578,-15.630913,0.0,-21.841306,3.808889,22.23126,18.465596,35.818079,30.952085,44.658454,41.02154,48.144882,0.0,72.144356,27.05452,90.549088,17.750645,88.724442,8.623753,75.010185,0.567169,54.326248,0.0,4.986469,31.622818,55.976316,48.901757,69.837987,60.291929,77.948286,66.750343,79.789498,10.326719,300.565947,-43.725557,272.945852
113,-10.426483,-0.352471,0.10437,0.045201,0.0,22.782555,-5.156021,44.086647,-12.668724,46.66523,-17.313824,35.326996,-20.006447,-4.2453,0.0,-23.320228,3.863785,18.946385,18.585454,35.562495,30.88558,42.895973,40.497587,49.990849,0.0,72.40345,27.197685,90.362778,17.958126,88.912239,8.769093,75.300751,0.66988,54.927979,0.0,5.846035,31.694757,55.913516,48.999137,69.459766,60.503486,77.911051,67.045572,79.722931,-0.058565,300.213738,-43.579988,272.991316
114,0.330048,-1.30034,0.129547,0.265465,0.0,16.362991,-6.28315,40.194626,-13.453732,43.595581,-17.799168,35.418091,-19.691048,-9.177589,0.0,-23.134607,6.790693,25.52231,21.653585,38.616793,33.186277,45.068785,41.678935,52.181136,0.0,72.291641,27.117462,90.26619,17.910519,88.941193,8.805885,75.369759,0.793819,55.312614,0.0,5.64689,31.466219,55.616497,48.813454,68.892279,60.40802,77.533941,67.04835,79.606779,0.325184,298.910696,-43.39674,273.254079
115,35.682678,-13.063238,-0.632801,-0.266206,0.0,-36.96579,-38.633766,0.004578,-45.07782,2.946854,-48.266258,-5.465012,-49.340458,-35.86132,0.0,-13.267447,15.88622,31.488388,33.93426,45.833441,46.716533,51.732025,56.108647,57.947266,0.0,71.930294,27.411289,90.140591,18.210926,89.228382,9.055195,75.667591,0.939674,55.668354,0.0,6.083651,31.962569,56.010711,49.123749,69.225299,60.53819,77.881596,67.061997,80.032239,36.058159,285.843599,-43.979244,272.984014
116,-10.945129,9.147212,-0.103226,0.211001,0.0,-7.805443,-31.289635,16.151047,-40.093231,19.569855,-42.171936,6.721001,-41.249256,-51.051407,0.0,-19.143492,7.755666,30.547991,23.618298,41.275396,35.947632,51.166021,45.10528,54.370003,0.0,71.775684,27.202091,90.167484,18.086643,88.998127,9.081173,75.612545,1.192932,55.764256,0.0,6.226726,32.009685,56.161814,49.012352,69.089942,60.258275,77.745806,66.601586,79.940848,25.179834,294.997634,-44.015665,273.201838
117,-5.333519,3.379724,0.173664,0.346482,0.0,-3.437004,-28.046494,22.796516,-36.171227,23.586044,-38.455524,17.358284,-37.620735,-32.112236,0.0,-19.731541,7.732201,28.564012,21.906391,38.582522,32.898952,44.603496,40.877044,51.724059,0.0,71.815453,27.535,89.995766,18.367081,88.790703,9.172382,75.643158,1.092567,56.052475,0.0,5.78799,31.793311,55.809775,48.955356,68.509674,60.361954,77.320655,66.889652,79.448883,19.898157,298.381016,-43.790159,273.551979
118,17.58625,-11.219247,-0.090923,-0.057922,0.0,-38.740883,-40.174599,2.544022,-49.344749,5.057487,-54.609489,-9.316177,-57.49094,-52.588177,0.0,-13.420649,14.969164,32.24094,33.804831,45.771073,47.110871,52.432831,57.145375,58.598177,0.0,71.703701,27.230644,89.75069,17.99984,89.029369,8.922901,75.726185,0.986538,55.843906,0.0,6.046168,32.011228,55.661142,49.321721,68.618849,60.756477,77.218396,67.27164,79.28086,37.529955,287.161708,-43.835535,273.493995
119,-13.154297,2.328855,0.174637,-0.211866,0.0,-14.503555,-31.463928,17.304268,-41.129036,18.280907,-44.616451,6.736336,-45.127487,-37.476654,0.0,-11.659836,13.635479,36.690366,30.684088,48.451843,42.793097,53.921448,51.684724,57.929111,0.0,71.553555,27.092171,89.766254,17.596836,89.037266,8.464279,75.697346,0.562534,55.356274,0.0,6.111994,31.818135,55.645519,49.402553,68.63725,61.128771,77.225744,67.84172,78.590861,24.436026,289.492909,-43.600531,273.284476
120,12.928505,-3.298337,0.215549,0.146842,0.0,-39.553299,-41.349792,3.315811,-49.321861,4.652824,-52.959366,-7.480202,-54.099026,-49.899731,0.0,-15.029927,17.31426,31.359267,36.286827,45.28343,49.447816,52.207318,58.683763,59.061305,0.0,71.744728,26.814079,89.432373,17.363491,88.206825,8.406773,75.135612,0.613174,54.69326,0.0,5.83634,31.764968,55.327937,49.175929,67.917611,60.809521,76.514874,67.421879,77.913459,37.426214,286.197907,-43.323298,273.434653
