takenoko1/special-research/HandMotion_SimilarSearch_自分用/NewProject/handData/test_key/d4_feature_d2/151.csv
frame,vel_0x_L,vel_0y_L,vel_0x_R,vel_0y_R,posFromWrist_0x_L,posFromWrist_1x_L,posFromWrist_2x_L,posFromWrist_3x_L,posFromWrist_4x_L,posFromWrist_5x_L,posFromWrist_6x_L,posFromWrist_7x_L,posFromWrist_8x_L,posFromWrist_9x_L,posFromWrist_0y_L,posFromWrist_1y_L,posFromWrist_2y_L,posFromWrist_3y_L,posFromWrist_4y_L,posFromWrist_5y_L,posFromWrist_6y_L,posFromWrist_7y_L,posFromWrist_8y_L,posFromWrist_9y_L,posFromWrist_0x_R,posFromWrist_1x_R,posFromWrist_2x_R,posFromWrist_3x_R,posFromWrist_4x_R,posFromWrist_5x_R,posFromWrist_6x_R,posFromWrist_7x_R,posFromWrist_8x_R,posFromWrist_9x_R,posFromWrist_0y_R,posFromWrist_1y_R,posFromWrist_2y_R,posFromWrist_3y_R,posFromWrist_4y_R,posFromWrist_5y_R,posFromWrist_6y_R,posFromWrist_7y_R,posFromWrist_8y_R,posFromWrist_9y_R,posFromBody_0x_L,posFromBody_0y_L,posFromBody_0x_R,posFromBody_0y_R
2,-10.151424,5.433851,0.299606,0.316286,0.0,41.391277,-11.529007,52.69289,-20.764675,53.882275,-24.902401,41.427898,-25.991192,17.614117,0.0,-4.068611,17.7362,46.995398,37.545362,60.027575,52.150075,65.888678,62.665862,69.258089,0.0,69.83202,19.859962,83.031178,9.284592,82.556477,0.43848,68.530483,-6.366405,49.059849,0.0,8.065715,29.883433,59.230069,47.389304,73.267543,59.261068,83.380964,66.105051,87.865896,-14.848366,300.782953,-44.644089,288.537044
3,0.598125,-5.431504,-0.186939,0.038903,0.0,30.186424,-8.035984,55.076866,-19.356136,59.271011,-25.357933,40.261574,-27.131367,3.264256,0.0,6.292429,17.756454,52.385098,37.141576,63.578842,51.238207,71.291406,62.498148,76.723528,0.0,68.813896,22.094193,84.431305,11.395512,82.450333,2.064629,66.88076,-5.650806,47.019997,0.0,8.272456,31.65604,59.163687,48.450979,73.913329,59.808485,83.25314,66.353226,87.824276,-14.56461,295.349087,-45.145397,288.573584
4,29.431229,2.256978,-0.004463,0.1658,0.0,-21.534348,-37.92778,19.935036,-51.092548,20.719986,-58.187542,8.545189,-60.843716,-36.661777,0.0,2.9852,14.484177,52.960797,34.400414,66.754171,48.83556,72.592796,60.409008,76.246692,0.0,68.618546,21.178093,84.110985,11.113243,82.455368,2.39748,67.403412,-4.735222,48.024445,0.0,8.377308,31.467145,59.435451,48.171002,73.603589,59.402229,83.386398,65.793335,87.511325,14.692211,297.600383,-45.324268,288.733703
5,-28.989487,10.2912,0.014248,-0.350248,0.0,38.301888,-8.153744,52.656898,-19.168911,52.777863,-25.250359,38.000565,-27.383881,0.914726,0.0,-18.418419,10.194314,43.631544,31.134805,55.179674,46.061361,60.619391,56.343731,61.292718,0.0,68.90871,20.930386,83.971424,10.526619,82.556591,1.599598,67.297153,-5.695782,47.444515,0.0,8.631534,31.791397,59.908829,48.485929,73.997803,59.480467,83.775919,65.623707,87.712632,-14.391603,307.891784,-45.404348,288.383656
6,7.753258,-9.934715,0.496731,0.01729,0.0,22.310829,-14.435978,46.658936,-24.957447,47.386093,-30.124397,29.330177,-31.412487,-16.272984,0.0,4.174328,18.563409,50.019624,37.980455,60.290941,51.815388,69.051225,62.615968,74.522929,0.0,68.238144,21.123562,83.80909,11.13596,82.908325,2.410812,67.847443,-4.746552,48.202057,0.0,8.371812,31.99999,59.790022,48.507851,73.062038,59.498498,83.355893,65.585298,87.939317,-6.741686,297.973062,-45.010958,288.416939
7,-8.658028,-1.976075,-0.11919,-0.413481,0.0,36.178436,-7.276783,56.760178,-18.304768,58.452988,-24.086723,39.715347,-26.096478,3.350029,0.0,2.7298,21.189592,53.416144,39.535022,65.03751,52.481675,70.943937,62.609113,77.445144,0.0,68.527966,21.579208,84.685764,11.157417,83.159237,2.197208,67.757092,-5.053997,47.858791,0.0,8.166739,32.202037,59.076866,49.238111,73.187268,60.498608,83.406899,66.631103,88.244797,-15.530777,295.998593,-45.261211,288.005064
8,36.786346,5.560439,-0.515957,0.20427,0.0,-37.909069,-43.716316,11.82415,-54.939537,15.365868,-59.3783,6.154289,-60.158787,-52.029705,0.0,13.079602,13.862659,48.755161,31.987516,60.332376,45.191298,65.370221,56.309151,71.461776,0.0,67.966003,22.16795,85.580177,11.687794,83.777161,2.540073,68.698311,-4.993458,48.832397,0.0,8.055897,32.068224,58.575144,48.833831,73.025481,59.99917,83.383002,66.19496,88.187739,21.17197,301.56689,-45.860767,288.217192
9,-26.198044,5.072982,0.376797,0.165862,0.0,19.115753,-17.146168,43.21804,-29.800415,42.73716,-35.832253,30.294914,-37.734947,-7.031422,0.0,-13.368161,10.843187,45.036057,31.17698,56.640874,45.626268,61.189595,55.684237,61.382812,0.0,68.072948,21.900272,84.823895,11.410217,83.048573,2.170086,67.756634,-5.52784,47.962017,0.0,8.094368,31.984305,58.692161,48.79252,72.92631,59.95928,83.069309,66.114808,87.976121,-5.132904,306.641122,-45.590801,288.384304
10,-2.940559,4.616523,0.251598,-0.108742,0.0,27.669411,-15.056591,45.897903,-25.217457,46.834373,-30.251827,32.943192,-31.966267,3.380814,0.0,-13.700317,8.878412,40.949415,28.070935,50.1761,42.476688,55.404322,52.917324,58.044029,0.0,67.899399,22.334805,85.139465,11.828899,82.902603,2.414875,67.409248,-5.635872,47.551346,0.0,8.444307,32.587668,58.510985,49.219957,73.179055,60.131995,83.264935,66.143954,87.94401,-8.149309,311.255298,-45.415049,288.273215
11,2.011757,6.711158,-0.589314,0.032481,0.0,27.230415,-16.735897,45.813446,-26.160736,42.784195,-30.716457,30.563164,-31.463757,-28.71191,0.0,-30.215156,4.859016,35.909347,22.825484,43.708732,36.133748,50.954279,45.514561,55.392528,0.0,68.359852,22.927551,85.66,12.497292,83.741627,3.109131,68.230648,-4.849319,48.115711,0.0,8.232874,32.247732,58.662274,48.890889,73.056295,59.936123,82.905424,66.079486,87.84027,-6.242781,318.009157,-46.109591,288.348396
12,32.713165,-11.670025,-0.176754,-0.228785,0.0,-46.221142,-49.032154,6.59626,-60.039482,10.457497,-64.021282,1.0849,-64.455757,-55.250072,0.0,9.53377,11.429446,45.241872,28.54419,56.096668,41.299046,60.188559,52.125993,64.410187,0.0,69.019203,22.632294,84.855766,12.259426,83.306465,3.005276,68.151627,-4.801083,47.88929,0.0,8.560583,31.594907,59.499115,48.412941,73.854295,59.603165,83.286671,65.834337,87.933945,26.396399,306.347453,-46.360331,288.127932
13,-34.36718,0.393782,-0.311966,0.137024,0.0,20.805702,-16.160202,42.824821,-27.83947,45.455132,-32.88969,33.508873,-34.569454,3.293839,0.0,-14.110401,11.55554,40.534823,31.767561,54.469977,46.476324,60.254941,56.505579,60.388321,0.0,69.167633,22.643852,83.849258,12.41003,83.298683,3.334694,68.598862,-4.405746,48.583145,0.0,8.601956,31.472641,59.484666,48.388858,74.105373,59.709437,83.628645,66.21015,87.825203,-8.159552,306.737221,-46.861067,288.260942
14,-4.534149,3.286604,-0.512524,0.140791,0.0,34.528084,-11.399117,50.180397,-20.894337,52.589378,-25.627041,39.25209,-27.000847,13.596382,0.0,-13.74206,8.637956,38.600121,28.534063,50.399945,43.964317,56.625313,55.450758,58.854997,0.0,69.047642,22.952728,84.681873,12.697563,83.958492,3.574162,69.072819,-4.267101,49.019909,0.0,8.357548,31.148143,59.039445,47.991123,73.816072,59.294475,83.198862,65.836128,87.562084,-12.750921,310.034817,-47.430811,288.412725
15,1.645203,-1.743091,-0.079651,-0.293376,0.0,32.743149,-14.460354,51.872406,-22.977676,52.596588,-26.44352,37.613525,-25.76889,-12.610245,0.0,-10.600508,11.806185,43.921648,31.407618,50.614466,45.570322,58.742241,55.287676,61.350763,0.0,69.160824,22.876511,84.847355,12.53603,83.911114,3.472595,69.184856,-4.12096,49.193974,0.0,8.719652,31.443125,59.359621,48.562685,74.058442,59.971136,83.738622,66.459251,87.972416,-11.163197,308.301266,-47.56794,288.128889
16,0.993805,-1.582478,-0.443802,-0.556803,0.0,28.24894,-15.943165,45.426636,-23.367119,47.806549,-26.124573,33.361931,-24.557018,-24.011478,0.0,-6.027025,13.752002,46.257913,32.571799,53.533779,45.862093,62.578485,55.560859,67.53482,0.0,70.081158,22.051735,85.232449,11.684875,84.545002,2.800083,69.862461,-4.414902,49.778309,0.0,9.636769,31.664191,59.976261,48.924851,74.251906,60.355532,83.955675,66.677292,88.630922,-10.22315,306.706207,-48.0655,287.559504
17,-2.229309,0.076694,0.078335,0.204703,0.0,33.358841,-13.608284,51.58493,-21.661892,52.498741,-25.175056,36.40686,-24.99321,-5.768509,0.0,-9.442441,13.383661,45.923658,32.545925,52.105862,46.319478,60.667619,55.540544,63.835168,0.0,69.849701,21.791897,84.717178,11.57444,84.089813,2.867088,69.56131,-4.182129,49.850464,0.0,8.919477,31.465478,60.005963,48.615544,74.009783,60.05067,83.548184,66.472281,88.286664,-12.466192,306.772975,-48.000898,287.75428
18,-1.843185,-3.014717,0.123768,-0.053908,0.0,33.033371,-10.793095,48.915482,-18.990898,51.806831,-22.900486,36.417961,-23.493118,6.541557,0.0,-2.903134,14.669613,47.186886,33.620444,58.041003,47.616298,64.757904,57.842414,66.520261,0.0,69.309483,21.939812,84.862576,11.776943,83.818417,3.036175,69.236698,-4.152203,49.605389,0.0,9.100467,31.639244,59.93989,48.64469,74.437405,59.960453,83.979202,66.385768,88.186566,-14.349403,303.768601,-47.917156,287.710715
19,-2.650108,-2.003739,-0.048523,-0.155364,0.0,34.362946,-8.321514,53.737106,-16.083584,57.276077,-19.521561,42.845879,-19.31139,11.327591,0.0,-1.565373,15.99737,48.543296,34.216521,59.352705,47.746715,68.291633,58.346421,71.637085,0.0,68.662777,22.318039,84.224339,11.862888,83.197575,2.759113,68.236713,-4.902821,48.568897,0.0,8.909782,30.92578,60.165464,47.896707,74.739117,59.369872,83.549851,66.10184,87.683547,-17.032614,301.77695,-47.998781,287.567439
20,-6.918011,-6.638169,0.353794,-0.188462,0.0,50.244656,-2.205219,61.274357,-11.989975,63.607578,-16.743565,48.515339,-16.911621,13.90131,0.0,5.411991,17.437637,53.82203,36.919522,65.352684,50.905311,72.794597,60.979026,82.245621,0.0,68.902817,22.191753,83.756104,11.78072,82.924347,2.634201,68.40374,-5.004501,48.541031,0.0,9.453185,31.147649,60.195104,48.091036,74.785245,59.535178,84.272331,66.220339,88.102092,-24.024611,295.152628,-47.718973,287.392824
21,47.550945,8.948499,-0.756683,0.146595,0.0,-42.677193,-46.195908,11.508408,-57.910309,13.940392,-62.039165,2.739944,-62.438793,-63.092079,0.0,1.028391,15.074634,44.00921,34.187622,54.363704,47.760609,59.622308,59.014807,68.298611,0.0,68.937492,22.701759,84.444809,12.218113,83.492203,2.970829,68.911514,-4.781628,48.626747,0.0,9.081633,31.333147,59.230995,48.288452,74.219734,59.582355,83.84051,66.053181,88.035339,23.452978,304.086909,-48.549013,287.525201
22,-39.802723,2.240367,-0.100422,-0.000371,0.0,29.306316,-7.199135,50.514736,-19.111176,51.914692,-25.646496,37.719555,-28.737202,-3.038692,0.0,-15.070497,11.616364,41.451014,31.853703,55.291936,46.28533,59.959156,56.08228,61.013853,0.0,68.757648,22.335205,84.791508,11.823292,83.717365,2.650967,69.11253,-4.928055,48.97665,0.0,9.093736,31.2567,58.763915,48.427637,73.310151,59.777301,83.176879,66.061764,87.904861,-16.358614,306.363369,-48.658304,287.560924
23,-0.703011,-8.612762,-0.011559,-0.275283,0.0,27.898808,-9.18314,56.718235,-19.831638,60.299664,-24.419689,45.003948,-25.345688,13.600445,0.0,-1.312196,15.417843,44.499817,36.275527,55.868315,51.553813,63.053716,63.021359,70.838467,0.0,69.002552,22.678356,85.254078,12.069912,83.799877,2.706413,68.925991,-5.123863,48.796062,0.0,9.440156,31.80492,59.007459,48.961902,73.801067,60.138232,83.449136,66.244669,87.99551,-17.070694,297.801473,-48.678932,287.336508
24,1.227264,-2.459642,-1.043129,-0.223413,0.0,28.723927,-7.812481,54.736233,-18.626118,57.560749,-24.457569,42.12038,-26.92749,8.006802,0.0,3.191014,14.113612,48.358971,35.513835,62.150863,51.406168,69.44334,63.760017,77.195178,0.0,69.435596,23.21228,85.333271,12.77195,84.293118,3.476257,69.073277,-4.428291,48.88567,0.0,9.44312,31.632204,58.609169,48.770969,74.301924,59.91062,83.50323,66.084179,87.823103,-15.811472,295.415191,-49.690104,287.186454
25,34.495754,7.017996,1.061897,0.894763,0.0,-36.56353,-42.506962,15.098877,-54.170609,17.55146,-58.848667,6.846542,-59.733295,-56.710339,0.0,3.791043,16.37553,46.122124,35.775533,57.089553,49.165616,62.304066,59.843683,69.665271,0.0,69.272747,21.227932,84.016056,11.121254,83.764515,2.468605,68.885593,-4.646988,48.803616,0.0,8.644193,31.177536,58.21977,48.025889,72.668996,59.189252,82.423832,65.653038,87.154223,18.678503,302.520563,-48.633986,288.168594
26,-36.687012,1.846955,-0.21349,0.056625,0.0,27.002106,-5.754433,54.749107,-17.439423,55.488968,-24.546089,42.706032,-28.766041,8.7117,0.0,-14.278795,11.874604,42.535475,31.876921,56.271483,46.756671,60.6846,57.19459,62.25763,0.0,69.085693,21.53183,84.54689,11.45525,83.797874,2.740345,68.879585,-4.461994,49.053612,0.0,8.308147,31.424044,58.132888,48.160752,72.494737,59.238652,82.284091,65.650939,87.282108,-18.019409,304.421118,-48.858376,288.278819
27,38.406143,-1.399697,0.217323,0.083116,0.0,-38.202324,-44.284115,14.434433,-55.470314,17.167969,-59.779415,6.13472,-60.493526,-60.962505,0.0,3.47556,16.9989,45.773172,35.69075,56.127234,48.615852,61.210034,59.068221,69.658726,0.0,68.715019,21.882763,84.315605,11.80521,83.269043,2.919445,68.673019,-4.630337,48.790283,0.0,8.605846,31.42497,58.136778,48.153651,72.459848,59.222041,82.457239,65.648407,87.533679,20.381155,303.067456,-48.646631,288.40797
28,-41.558304,3.160571,0.318604,-2.158424,0.0,30.529175,-1.09005,56.078339,-12.509422,58.548088,-20.373802,46.381531,-26.187572,12.730865,0.0,-16.501501,9.549825,40.275162,29.234189,55.771922,44.662035,61.637964,55.736539,62.263373,0.0,68.738937,22.241879,84.185028,12.109337,83.547707,2.854843,68.648758,-5.285912,47.490005,0.0,9.634979,32.912537,61.1171,49.334812,77.350913,60.007754,87.308043,66.018539,90.976079,-21.240807,306.262206,-48.391685,286.283725
29,38.675423,-9.303132,1.018009,-1.016103,0.0,-26.880569,-40.665836,10.952911,-53.677883,12.662659,-59.784622,2.313538,-62.214489,-60.991116,0.0,7.640872,17.67587,59.549257,34.351754,71.142217,46.102858,76.014201,55.607234,81.550929,0.0,67.672634,22.887497,82.196789,12.478008,81.896954,2.555809,67.518253,-6.826057,44.415264,0.0,9.10411,32.220068,63.327332,48.608875,80.621338,59.489544,91.433341,65.975437,94.134119,17.360344,296.969248,-47.447948,285.277795
30,-13.606911,42.61328,0.696259,-12.973947,0.0,-60.994034,-41.59853,-4.339142,-38.59251,14.847336,-31.586838,21.907539,-22.776089,-0.834389,0.0,26.101282,0.798001,23.141955,-11.003923,15.489782,-23.314115,4.06188,-34.236281,-11.729491,0.0,62.364063,28.375683,77.951031,18.466129,72.115803,6.107025,45.683155,-7.536736,11.588001,0.0,15.715912,28.697825,68.992994,45.596751,87.104143,58.419348,96.519414,67.287016,93.302094,3.631725,339.60448,-46.873398,272.325801
31,11.177559,-26.859885,3.482265,-8.225958,0.0,-63.563662,-39.856883,-48.318072,-34.333277,-39.089671,-25.925217,-28.654604,-16.539088,-29.938803,0.0,28.546104,15.251116,41.108144,18.033096,45.41045,18.095927,44.755154,16.827604,39.273848,0.0,57.627296,24.692688,71.198273,16.357327,52.662163,4.218292,8.691559,-9.88472,-12.389889,0.0,23.117069,21.785792,70.189656,36.49437,90.02642,49.889763,98.781764,59.62132,94.29325,14.7151,312.849571,-43.485317,264.204819
32,11.177558,-26.859886,-8.278427,-76.997083,0.0,-66.133289,-38.115234,-92.297001,-30.074043,-93.026676,-20.263596,-79.216747,-10.302086,-59.043217,0.0,30.990926,29.704233,59.074334,47.070116,75.331118,59.50597,85.448429,67.89149,90.277188,0.0,59.596596,34.03616,60.621872,18.708057,45.424919,3.734722,28.081512,-10.176945,16.461468,0.0,50.360734,29.135203,55.231791,45.562356,61.561764,58.712415,65.744058,69.074011,69.662307,25.984182,286.635733,-51.67222,187.853784
33,-0.778885,-1.421927,-16.620226,-53.533778,0.0,-63.133564,-33.217049,-89.37418,-25.428085,-91.046906,-16.125755,-78.099689,-6.940498,-57.466965,0.0,34.029849,29.460751,58.685122,47.14187,75.516987,59.903087,86.400621,67.894701,89.621893,0.0,74.796553,34.306669,75.782289,24.997101,67.716436,15.384951,42.692156,6.814213,29.995937,0.0,36.56901,14.216241,38.549501,33.326836,49.530067,50.466944,54.878069,65.483378,60.519386,25.244436,285.946074,-68.253307,135.052273
34,-1.7062,-0.159254,-16.620226,-53.533779,0.0,-62.787094,-31.931648,-89.613762,-24.101372,-90.319748,-14.834404,-75.865116,-5.616074,-55.421791,0.0,32.5655,30.321984,58.849872,48.261405,75.459312,61.010395,85.515243,68.825712,89.098249,0.0,89.99651,34.577179,90.942707,31.286144,90.007954,27.035179,57.302799,23.80537,43.530407,0.0,22.777288,-0.70272,21.86721,21.091316,37.49837,42.221474,44.012081,61.892747,51.376466,23.532772,287.635688,-84.878998,83.367363
35,-0.395737,0.430833,0.673267,-55.719978,0.0,-61.810398,-31.112938,-89.18478,-23.415642,-89.679108,-14.272957,-75.451126,-5.31292,-54.652634,0.0,31.657707,29.782594,57.906696,47.703922,74.510764,60.303785,85.137887,67.913041,88.455489,0.0,86.353867,35.665307,94.401558,33.10492,93.996506,29.625859,63.586396,26.938363,52.644173,0.0,16.140616,-5.941952,13.293212,14.063082,29.461955,35.140783,40.54035,56.030314,50.179249,21.711788,288.386079,-85.630978,27.966944
36,-0.100937,-0.348705,0.673268,-55.719978,0.0,-59.745655,-30.558128,-88.409443,-23.061218,-89.989529,-13.924026,-74.763222,-4.635544,-53.727665,0.0,32.393772,30.009774,58.53655,47.613643,74.883243,59.990896,85.170861,67.644427,88.756152,0.0,82.711223,36.753433,97.860409,34.923694,97.985058,32.216537,69.869991,30.071354,61.757938,0.0,9.503944,-11.181184,4.719214,7.034848,21.425541,28.060091,37.068618,50.167881,48.982033,17.322378,289.935135,-89.246183,-25.855274
37,1.488304,0.6498,0.673267,-55.719978,0.0,-60.894012,-31.665344,-89.737587,-24.066238,-90.02655,-14.870796,-74.849167,-5.51548,-53.665867,0.0,30.286107,29.161817,58.322523,46.787917,74.432526,59.181965,84.762074,66.779798,87.765675,0.0,79.068581,37.841561,101.31926,36.74247,101.97361,34.807217,76.153588,33.204346,70.871704,0.0,2.867273,-16.420416,-3.854785,0.006614,13.389126,20.9794,33.596887,44.305449,47.784816,15.103569,291.762669,-92.280029,-80.397518
38,-0.184135,-0.403848,0.673268,-55.719978,0.0,-60.899963,-30.524025,-88.783493,-22.992554,-88.897076,-14.04213,-74.286575,-4.937439,-53.081188,0.0,30.528663,29.573693,58.147399,47.242708,73.860718,59.516776,84.71434,66.7065,88.610297,0.0,75.425937,38.929687,104.77811,38.561244,105.962162,37.397895,82.437183,36.337337,79.985469,0.0,-3.769399,-21.659648,-12.428783,-7.02162,5.352711,13.898709,30.125155,38.443016,46.587599,12.403908,291.713562,-94.122287,-135.762755
39,0.235634,0.424719,0.673267,-55.719978,0.0,-59.904728,-30.481682,-88.174667,-23.163872,-88.783779,-14.469795,-74.095745,-5.799294,-54.094048,0.0,30.169708,29.52281,57.145807,47.433641,71.980417,59.832074,83.017192,67.289115,86.795576,0.0,71.783295,40.017815,108.236961,40.38002,109.950714,39.988575,88.720779,39.470329,89.099236,0.0,-10.406071,-26.898881,-21.002782,-14.049855,-2.683704,6.818017,26.653423,32.580583,45.390381,8.653193,292.232266,-97.435369,-191.388748
40,0.812645,-0.637697,1.896057,-13.525795,0.0,-60.076332,-30.249138,-88.51759,-22.954102,-89.422359,-14.359474,-74.582577,-5.901947,-54.781437,0.0,30.30525,30.159086,57.676799,47.881949,71.841356,60.21857,83.118463,67.638561,86.468052,0.0,84.060745,40.999432,116.999931,46.999969,104.670181,50.376205,72.708435,52.472591,72.144012,0.0,-11.259292,-20.294165,-15.308298,-2.285444,1.189251,18.92644,25.273209,38.937402,39.986556,10.127878,291.660364,-94.877272,-204.848748
41,-0.181618,-0.231688,16.934853,33.297196,0.0,-60.323296,-29.848251,-88.805065,-22.603798,-89.912167,-13.997383,-76.169186,-5.483093,-56.370449,0.0,29.352317,30.273263,57.516495,48.51736,71.295729,61.033181,83.144213,68.47108,86.909815,0.0,72.943039,41.307278,96.28933,42.28363,117.341194,41.010761,110.467758,36.508427,85.737991,0.0,35.108444,-26.775735,-26.487253,-44.005304,-47.687528,-56.417616,-62.674723,-65.738223,-72.475795,10.682802,291.805261,-77.205877,-171.174967
42,0.156555,0.198219,5.516911,-11.7949,0.0,-60.740089,-30.237923,-89.85775,-22.878227,-90.802975,-14.208298,-78.020267,-5.542831,-57.095604,0.0,28.880729,30.574605,56.761534,48.76992,70.037688,61.157546,82.178622,68.501338,86.534743,0.0,63.150387,45.074387,69.207859,47.339458,88.068523,46.404648,86.442661,40.844593,87.694645,0.0,40.951561,-20.43917,-8.020653,-34.809495,-26.479565,-45.012808,-43.093575,-52.728692,-57.244963,11.506491,292.462317,-71.021833,-182.511031
43,0.218468,-0.374763,35.045185,4.312325,0.0,-59.892426,-30.038109,-90.667648,-22.745705,-91.151905,-14.170532,-78.143463,-5.648804,-57.244377,0.0,29.268707,31.043105,55.974093,49.017354,69.933144,61.193423,82.364429,68.316148,87.728502,0.0,53.247871,-3.965836,57.616882,-11.498737,72.798157,-13.662071,52.966003,-14.058552,42.082787,0.0,0.482456,-49.849178,-30.399157,-58.936477,-25.039545,-55.948112,-12.663975,-46.059895,-11.206866,12.148361,292.432707,-35.553246,-177.853552
44,-0.483856,-0.612626,-13.188839,-15.300697,0.0,-60.535984,-30.081596,-90.758858,-23.11821,-91.52401,-14.79023,-78.256245,-6.490631,-57.620888,0.0,28.672816,30.82068,55.897461,49.000866,70.398063,61.415725,82.883935,68.746425,87.382823,0.0,62.514134,11.446076,74.369564,7.815914,83.160343,7.43269,67.536526,7.434311,57.568455,0.0,-6.246893,-43.062354,-22.853632,-43.253961,-9.748414,-33.270381,4.33702,-18.310623,9.540753,11.767101,291.958202,-48.639489,-193.016129
45,0.048981,-0.285225,-13.188839,-15.300697,0.0,-60.650997,-29.806595,-91.106701,-22.547836,-91.505871,-13.92437,-78.003788,-5.55542,-57.802448,0.0,29.596911,30.226888,56.545902,48.761892,71.125854,61.627714,84.062194,69.225855,87.345279,0.0,71.780396,26.857987,91.122246,27.130566,93.52253,28.527451,82.107048,28.927174,73.054123,0.0,-12.976242,-36.275532,-15.308107,-27.571446,5.542717,-10.59265,21.338014,9.438648,30.288371,11.436853,291.472967,-62.207556,-208.516836
46,1.620026,0.274357,-13.188839,-15.300697,0.0,-60.631599,-30.560646,-91.32843,-23.335304,-91.841927,-14.58847,-78.211384,-5.989838,-57.346287,0.0,29.980443,29.676136,55.808417,48.247202,70.508226,61.163289,83.236468,69.016274,87.48749,0.0,81.046658,42.269897,107.874928,46.445217,103.884716,49.622211,96.67757,50.420036,88.539791,0.0,-19.705591,-29.488709,-7.762583,-11.88893,20.833848,12.085081,38.339009,37.18792,51.03599,12.087822,290.983086,-76.365452,-224.581771
47,1.18515,-0.58774,-6.907883,-1.014513,0.0,-60.725269,-30.854988,-90.789585,-23.790894,-91.831799,-15.100822,-78.22752,-6.435242,-58.240814,0.0,28.804529,29.837984,55.977181,48.250846,70.742877,61.178603,83.411592,69.116619,87.202079,0.0,75.608311,44.311352,101.774654,48.839436,101.256924,52.118855,100.172138,52.381039,87.511539,0.0,3.493252,-28.31843,-0.116291,-15.054087,22.943474,6.31205,40.789312,30.81239,53.604174,12.818298,289.98506,-83.728008,-226.00657
48,1.609612,0.312766,-10.168705,-1.257439,0.0,-60.516586,-30.965881,-91.120777,-23.852577,-92.458591,-15.109634,-78.177738,-6.307297,-58.312054,0.0,28.815583,29.951296,56.17929,48.335073,70.682115,61.152544,82.917403,68.927045,87.128596,0.0,73.580475,46.737442,104.86908,49.26424,105.570831,47.897587,102.094917,43.866978,84.961166,0.0,11.333238,-18.560877,0.79286,-5.020602,22.409765,15.036411,40.797278,36.636041,52.427319,13.960104,290.374257,-94.364519,-227.187577
49,1.837463,-0.049586,-18.220539,-5.067254,0.0,-62.045231,-30.580902,-91.432686,-23.558578,-93.558083,-14.999542,-79.155064,-6.588593,-59.234619,0.0,28.95026,30.027558,56.491129,48.433133,70.820498,61.350516,84.158401,69.215481,88.366198,0.0,67.032166,49.946194,129.004269,48.365135,126.945705,43.074989,90.134525,36.310444,67.598934,0.0,13.982177,-10.071724,2.123597,4.128355,26.984544,22.75339,43.641147,42.045578,58.390232,15.006924,290.1715,-113.375702,-232.408003
50,1.304741,-0.069716,-33.052626,13.932992,0.0,-61.160088,-30.40741,-92.476902,-23.205299,-93.868103,-14.579086,-80.079918,-6.207047,-60.035992,0.0,28.748769,29.531826,56.519041,48.144017,71.027115,61.218123,83.989391,69.315578,88.061336,0.0,62.958412,43.962736,119.288635,45.983877,122.016592,44.833631,68.407316,41.85339,57.685261,0.0,6.653013,-16.245723,-14.383979,-1.856711,4.35281,15.684968,27.391001,33.89298,39.835345,15.870495,289.808438,-146.869497,-218.768356
51,0.659981,0.244285,-33.052626,13.932993,0.0,-61.226749,-30.992889,-92.646217,-23.70575,-93.931332,-14.935913,-80.228004,-6.228333,-59.482555,0.0,28.808358,29.870527,57.045339,48.18891,71.402187,61.058252,84.398796,69.055918,88.488896,0.0,58.884659,37.979279,109.573002,43.602619,117.087479,46.592274,46.680107,47.396336,47.771587,0.0,-0.676152,-22.419722,-30.891554,-7.841777,-18.278925,8.616544,11.140855,25.740381,21.280458,16.22735,288.73287,-180.225248,-206.155217
52,0.887604,0.16438,-14.686432,8.701034,0.0,-61.524067,-30.556641,-91.688004,-23.858185,-94.083252,-15.506516,-79.478703,-7.242279,-59.652214,0.0,29.922644,29.598454,56.662919,47.754928,71.004267,60.613772,83.818465,68.558889,87.859042,0.0,52.823753,35.712376,105.92926,40.935173,113.554974,44.050655,41.179104,45.491066,43.210258,0.0,-5.824422,-24.287826,-33.059303,-10.628589,-23.027948,5.497932,14.096986,23.146694,24.610858,18.428192,287.126757,-193.598442,-199.224675
53,1.106415,0.768978,-10.130424,6.918007,0.0,-60.372734,-31.164207,-91.566582,-24.224968,-93.645229,-15.639725,-78.615475,-7.09259,-58.804379,0.0,29.318663,29.670208,56.568811,47.397702,71.240339,59.965331,83.425054,67.730631,87.203561,0.0,49.364204,31.108418,97.627029,34.789925,107.351532,36.494923,37.137451,37.49794,39.787445,0.0,-4.813969,-21.735003,-35.939774,-8.865044,-23.779605,6.534892,16.364739,23.944155,25.929801,20.124378,287.25438,-203.139095,-192.948023
54,-0.150948,-0.121093,-7.858887,9.013383,0.0,-59.987354,-31.114082,-91.015434,-24.025497,-93.288689,-15.418968,-78.789711,-6.684952,-58.875332,0.0,29.847556,30.038488,58.12943,48.083996,71.204462,60.798529,83.426474,68.566546,88.97586,0.0,47.765522,27.026081,94.901791,28.651657,104.949703,28.875675,35.858116,29.036465,37.21447,0.0,-5.1031,-24.019058,-40.069688,-12.198485,-26.712781,2.808285,14.821859,20.143849,25.05858,21.315565,286.908469,-209.655848,-184.159458
55,-1.496429,0.080276,-7.787304,5.344514,0.0,-59.483013,-30.150375,-89.242001,-23.072205,-91.266518,-14.539032,-76.417065,-5.813942,-57.044449,0.0,31.468751,30.934919,58.938175,48.831855,72.704194,61.354901,84.123698,69.061784,89.600157,0.0,46.218567,27.652302,97.395458,29.703941,107.944107,30.620842,38.759422,31.471138,39.713287,0.0,-5.92381,-23.985188,-41.153192,-11.904769,-28.873242,3.021046,13.714149,20.098293,23.993956,20.829391,287.074099,-216.432896,-178.72959
56,-0.245132,0.91582,-4.247704,4.045007,0.0,-60.123425,-30.214005,-89.835777,-23.025856,-91.38525,-14.392548,-76.710892,-5.592613,-56.344929,0.0,30.672294,30.8397,58.228168,48.769302,72.439655,61.201142,84.392559,68.677697,88.19836,0.0,47.60376,29.142323,99.151039,32.417736,112.662449,34.365807,43.124142,35.612297,42.993393,0.0,-9.494249,-26.485107,-44.585063,-14.837837,-34.353993,-0.084228,10.159209,16.773897,21.758252,21.083164,287.976612,-220.181694,-174.69789
57,0.113411,0.602314,-0.315285,0.149143,0.0,-60.02449,-30.932236,-89.678307,-23.720741,-90.896988,-14.955254,-76.978283,-5.924835,-56.195297,0.0,30.067634,30.423316,58.079412,48.277522,71.825918,60.731592,84.53545,68.239516,88.472285,0.0,47.341747,29.889221,100.744286,32.955837,114.909554,34.726582,44.28194,35.821781,44.217911,0.0,-9.453988,-27.448429,-43.460635,-15.532112,-32.859,-0.465197,10.212854,16.724343,21.629348,21.53841,288.504378,-220.155144,-174.623295
58,-0.558243,-0.199701,-0.257263,-0.46495,0.0,-58.432102,-30.748558,-89.313469,-23.310127,-90.447407,-14.304657,-76.075058,-5.098,-55.773067,0.0,29.967598,30.664205,58.31641,48.485559,72.646581,60.997674,84.436402,68.631507,88.872551,0.0,47.067432,31.180115,101.192093,34.291019,115.271873,35.922375,45.633087,36.792698,45.886288,0.0,-8.986769,-27.304226,-43.233316,-15.411498,-32.621878,-0.272659,10.159348,17.033357,21.373408,21.514406,288.125107,-219.878168,-175.267815
59,0.213318,-0.132146,1.157513,-1.152695,0.0,-58.884888,-30.778656,-88.387413,-23.441048,-89.863758,-14.613419,-75.650482,-5.626259,-56.211777,0.0,30.587511,31.092012,58.996282,49.179201,72.939154,61.723859,84.254053,69.34102,89.626647,0.0,48.894253,31.039009,99.545975,33.345623,114.025726,34.466114,45.122337,35.046673,45.449467,0.0,-9.214119,-27.138658,-43.363717,-15.343295,-32.50517,-0.128009,10.014728,17.477281,21.261732,22.103004,287.950384,-218.345375,-176.463087
60,-0.38578,1.300402,0.466633,-0.855629,0.0,-58.095474,-29.866447,-87.964954,-22.310715,-88.492012,-13.524857,-74.292068,-4.725266,-54.862747,0.0,30.142043,30.167052,57.914229,48.174399,72.590079,60.647303,83.483037,68.341836,88.970426,0.0,48.095398,30.539017,99.756489,32.941704,114.75317,34.234085,44.205093,35.174217,43.782864,0.0,-9.445667,-27.26469,-43.214112,-15.407191,-32.714442,-0.172731,10.14885,17.445171,21.933206,22.232008,289.245938,-217.363958,-177.323564
61,-0.21492,-0.124242,-0.626335,0.71121,0.0,-58.980389,-30.07164,-88.560333,-22.723045,-89.541607,-13.876076,-75.748501,-4.720802,-56.12463,0.0,29.535284,31.073981,58.441207,49.13153,72.607555,61.528172,85.055573,69.033256,90.509493,0.0,46.367569,30.881882,100.500469,34.025459,116.262703,35.870762,45.747528,37.189693,45.249367,0.0,-9.185791,-27.421737,-44.797423,-15.972207,-34.122784,-1.094217,9.449511,16.256352,21.368854,22.366819,289.102739,-217.640562,-176.631311
62,0.587997,0.118561,-0.224419,-0.072402,0.0,-57.903957,-29.870453,-88.355598,-22.524834,-89.764595,-13.767929,-75.558929,-5.025902,-56.273117,0.0,31.377731,30.654634,58.001915,48.750839,72.488006,61.318283,84.495867,69.189422,89.76855,0.0,47.449093,31.210899,101.6819,33.945465,116.741295,35.383015,46.015377,36.2146,45.623074,0.0,-8.884232,-27.412227,-44.152131,-15.507535,-34.016604,-0.343595,9.46464,17.010108,21.661705,23.165846,289.213736,-217.653952,-176.711277
63,0.541077,-0.512343,0.060825,-0.617597,0.0,-58.438969,-31.006508,-88.482971,-23.715477,-90.174122,-14.719048,-76.07008,-5.344734,-56.412907,0.0,31.01433,31.287699,58.667214,49.394278,72.692214,61.911148,84.512478,69.567026,90.609961,0.0,47.468491,31.603546,102.365398,34.495182,117.13583,36.000423,46.62117,36.775475,46.399841,0.0,-8.885807,-27.214117,-42.956859,-15.272174,-33.334864,0.070658,9.747642,17.668892,22.118828,23.856211,288.695264,-217.443838,-177.335003
64,0.985794,0.809116,0.772476,-0.091977,0.0,-57.419186,-31.510048,-88.662071,-24.294205,-89.979401,-15.308533,-75.541878,-5.926437,-55.740108,0.0,31.489684,30.123024,58.105038,47.99983,72.514991,60.558567,84.212865,68.351902,89.957938,0.0,47.567768,31.458435,102.1138,34.137039,116.876793,35.490246,45.908546,36.266899,45.600586,0.0,-8.231531,-27.205209,-43.012836,-15.279244,-33.195447,0.052086,9.816494,17.689069,21.99667,24.886236,289.476329,-216.627131,-177.45503
65,0.069008,-0.496844,0.240326,-0.153481,0.0,-58.270168,-31.285973,-88.092213,-23.827858,-89.419842,-14.622459,-74.698219,-5.027733,-54.528637,0.0,30.540951,30.325874,58.528337,48.326243,72.989728,60.908754,84.757504,68.582231,89.891865,0.0,46.415348,31.114426,101.6078,34.094696,117.017155,35.757236,46.175709,36.744232,45.832729,0.0,-8.558885,-27.13838,-43.366172,-15.393884,-33.442865,-0.112756,10.601558,17.51464,22.539163,25.048285,288.946387,-216.293764,-177.641609
66,0.582619,0.253177,1.584435,-0.724996,0.0,-58.958588,-31.079979,-88.699665,-23.886452,-90.004578,-14.864273,-75.466518,-5.292091,-54.66116,0.0,29.420984,30.278388,58.579467,48.106041,73.333122,60.504289,85.252866,67.997886,90.23458,0.0,48.436832,31.217594,100.674305,34.318771,116.535473,35.865669,46.114483,36.532745,46.091995,0.0,-8.23238,-27.38481,-43.329569,-15.408766,-32.437461,0.025009,10.374069,17.71272,22.250958,25.675535,289.172903,-214.664698,-178.393266
67,0.263672,-0.12029,0.223103,0.442256,0.0,-58.484573,-30.514984,-88.946342,-23.132286,-89.966412,-14.088821,-76.049938,-4.632454,-55.54882,0.0,29.395728,30.369779,58.974546,48.349832,73.028939,60.761356,85.075395,68.237602,89.8169,0.0,47.68198,31.090164,100.931511,33.83337,116.014938,35.256386,45.9795,35.986748,45.699005,0.0,-9.151905,-27.544095,-43.635527,-15.99243,-33.160187,-0.913381,9.941477,16.522527,21.604648,25.96982,289.048136,-214.410982,-177.955487
68,-0.084,-0.080831,0.454044,-0.093922,0.0,-58.987827,-30.681381,-89.277534,-23.347549,-90.273285,-14.412804,-77.069836,-5.057487,-56.922054,0.0,28.809963,30.461849,58.588914,48.521374,72.59434,61.159399,84.577625,68.969838,90.076437,0.0,48.305969,31.32534,102.815666,34.498501,117.268124,36.16642,46.507473,37.013798,46.516342,0.0,-7.355462,-27.233352,-42.732304,-15.211519,-33.073351,-0.015962,10.15589,17.334004,21.690357,25.923929,288.938221,-213.918829,-178.078493
69,-0.297661,0.371058,0.201359,-0.195239,0.0,-58.479023,-30.341034,-88.806782,-23.007088,-89.877434,-14.173851,-76.099205,-5.036545,-55.854149,0.0,28.836516,30.059915,58.005002,48.132161,72.132571,60.751599,84.254238,68.507883,89.731253,0.0,47.890835,31.427479,102.327003,34.238377,116.821747,35.699158,47.263527,36.426659,47.175179,0.0,-9.244963,-27.384949,-43.25885,-15.494336,-32.977946,-0.179092,10.086559,17.394134,21.693074,25.630388,289.298195,-213.71335,-178.284817
70,0.754395,0.48999,0.430355,-0.465104,0.0,-58.431416,-30.389786,-89.242229,-23.259201,-90.484543,-14.500008,-76.478863,-5.310173,-55.848141,0.0,27.712535,29.749002,56.963211,47.934128,71.837218,60.589751,84.564719,68.397473,89.822705,0.0,48.739815,31.641769,102.901268,34.957867,117.904816,36.656742,47.106857,37.487469,46.71278,0.0,-9.261558,-27.243139,-41.888747,-15.177834,-32.676527,0.341264,11.173907,18.204624,22.92589,26.390362,289.719194,-213.277416,-178.818912
71,-0.19146,-0.406997,0.890179,-0.056301,0.0,-58.791275,-30.502396,-88.890324,-23.214912,-90.139503,-14.189758,-76.785336,-4.557152,-55.930309,0.0,28.154298,30.098077,57.900521,48.172114,72.124111,60.777349,85.044582,68.514799,90.432737,0.0,49.147511,31.500835,101.230831,34.469891,116.644306,35.796432,46.066704,36.321316,45.482426,0.0,-8.040151,-26.311079,-42.666509,-14.102142,-32.49935,1.318526,10.532212,18.808527,22.642363,26.19853,289.326708,-212.387609,-178.860701
72,0.186653,0.233417,0.253029,0.432793,0.0,-59.287891,-30.360603,-88.7677,-22.961769,-89.652214,-13.888893,-75.316601,-4.172974,-54.211407,0.0,28.835652,30.613384,58.011054,48.444001,72.50122,60.756786,85.425088,68.010731,90.332763,0.0,48.801327,31.444817,101.737175,34.389439,117.167187,35.824242,45.965424,36.518097,45.56757,0.0,-7.944654,-26.681782,-41.94193,-14.595852,-32.00246,0.786253,11.414471,18.327075,23.280152,26.387157,289.561313,-212.132607,-178.426719
73,0.203133,-0.022168,-0.024891,1.658662,0.0,-61.365395,-29.443932,-89.303284,-21.936836,-89.746857,-13.010674,-75.956726,-3.751945,-55.74131,0.0,27.314307,30.425416,57.392006,48.80944,72.081379,61.593751,85.113248,69.21721,90.220625,0.0,48.852825,31.55262,101.878681,35.4352,116.166344,37.520828,47.378368,38.394585,47.469406,0.0,-8.540252,-27.074931,-41.651656,-15.185229,-32.988429,0.113327,10.17883,17.730195,22.028086,26.556187,289.475665,-212.191601,-176.831536
74,0.505142,0.49919,0.984364,2.211823,0.0,-62.824402,-29.37561,-89.421616,-21.95343,-89.314384,-13.146858,-76.712093,-3.8974,-55.655365,0.0,24.193194,30.294814,56.547014,48.55898,70.169463,61.30797,85.207973,68.84714,91.225427,0.0,48.132362,31.605034,102.526932,36.202011,118.04266,38.708839,47.363205,39.951153,47.986565,0.0,-5.741939,-26.0931,-41.274655,-14.002276,-32.289754,1.17085,11.02745,18.478595,22.788681,27.063389,289.96249,-211.205177,-174.632079
75,2.292366,-0.161724,2.21077,4.077364,0.0,-63.432598,-29.996109,-91.28088,-22.885895,-91.44453,-14.290237,-77.757511,-5.180168,-56.737576,0.0,22.893965,29.672493,56.073264,48.126357,70.630739,61.161313,85.206182,68.931182,91.262292,0.0,49.843998,31.475372,102.438068,35.977821,116.999359,38.493004,46.852741,39.830704,46.547184,0.0,-5.631514,-26.636781,-40.719596,-14.17754,-33.039434,1.452848,11.359282,19.250027,23.177307,29.373608,289.814166,-208.976555,-170.541315
76,0.570831,-0.355188,4.42194,5.867802,0.0,-63.869362,-30.058937,-91.698418,-22.957077,-91.874084,-14.522095,-78.748569,-5.710716,-57.840157,0.0,21.396209,30.251589,55.153492,48.682666,69.633902,61.500014,84.57991,68.973358,90.337765,0.0,51.194572,32.008209,104.357586,35.889359,116.973953,38.062592,46.94355,39.030247,48.44038,0.0,-3.098203,-26.228534,-38.764006,-12.54898,-31.890429,3.953184,10.992175,22.468582,23.076422,29.957886,289.47636,-204.541168,-164.65613
77,1.282997,-1.228216,7.24617,16.216569,0.0,-65.056572,-30.38063,-93.036747,-23.536606,-93.091049,-15.374336,-80.059204,-6.868858,-60.000687,0.0,21.896387,29.924497,55.066794,48.617211,69.453714,61.768381,84.856552,69.579253,90.407234,0.0,51.694393,33.61845,105.233116,39.252777,118.410244,42.265892,49.797421,43.87207,49.126282,0.0,-5.294264,-26.366623,-34.687877,-12.367311,-28.638405,4.923438,12.311612,24.130795,24.789425,31.273012,288.607485,-197.262869,-148.08022
78,0.298576,0.259969,3.597393,10.433272,0.0,-64.291306,-31.241455,-93.688202,-24.589577,-94.480705,-16.24855,-80.587006,-7.366104,-60.039024,0.0,20.592651,29.611546,55.244574,47.940056,70.073071,60.937406,84.124254,68.768408,90.001225,0.0,53.861675,33.000984,105.797825,38.448544,114.357033,41.951809,48.396721,43.782463,50.000038,0.0,3.833852,-24.80494,-36.318551,-10.457556,-32.0656,6.456114,9.615388,24.902752,22.046672,31.562262,289.039105,-193.674803,-137.475297
79,0.050354,-0.664064,9.67329,23.200201,0.0,-64.583187,-31.720276,-93.65839,-25.539551,-94.341717,-17.615204,-81.678543,-8.818588,-61.149273,0.0,21.063374,29.497925,54.200313,47.566034,67.822824,60.358187,83.500019,68.026353,89.541123,0.0,56.50423,31.110363,102.558632,35.890846,112.684307,38.981953,46.582603,41.31134,47.128887,0.0,5.223653,-29.493664,-38.025333,-16.368954,-35.056573,0.735355,8.592168,19.306513,19.322908,31.772547,290.239317,-183.841581,-112.41082
80,-0.019226,-1.246247,8.509655,18.496564,0.0,-65.462608,-31.377525,-94.349556,-25.234337,-95.044727,-17.34787,-82.58028,-8.653679,-62.314167,0.0,21.050036,29.539174,54.100586,47.924309,68.202404,60.936789,82.696584,68.875607,89.099299,0.0,54.102173,34.05407,104.887447,38.775501,113.300629,40.893059,52.497826,41.29612,47.276344,0.0,-2.540999,-22.032207,-23.437986,-8.718726,-23.474975,8.11703,13.429109,26.336921,23.532773,31.908617,290.008494,-175.17663,-92.898833
81,-1.805763,-1.743523,13.288708,41.753267,0.0,-65.266113,-30.97641,-94.569111,-24.68914,-95.429077,-16.954308,-83.199635,-8.62278,-63.572788,0.0,20.231226,29.895227,53.308513,48.511741,67.223413,61.696874,82.513618,69.566717,89.570578,0.0,60.152235,40.827971,112.804527,44.901466,117.334757,45.035963,50.8461,42.877636,44.457178,0.0,0.447135,-18.712196,-17.73177,-2.891741,-8.73157,15.40151,19.36019,34.29252,29.648874,31.017466,287.215647,-160.973311,-52.194891
82,-0.265617,-0.146101,13.288708,41.753267,0.0,-65.377007,-31.261139,-95.007534,-25.573311,-96.707268,-18.314667,-84.98291,-10.119781,-64.395046,0.0,18.367104,28.828489,51.261055,46.997127,64.726844,59.961688,80.451586,67.903532,88.684521,0.0,66.202297,47.601871,120.721607,51.027431,121.368885,49.178867,49.194374,44.459152,41.638012,0.0,3.435268,-15.392186,-12.025553,2.935244,6.011835,22.68599,25.291271,42.248119,35.764974,31.848106,284.382816,-146.588345,-13.128354
83,-0.26413,-0.426695,2.39233,22.984121,0.0,-64.765778,-32.146568,-94.806805,-26.107521,-96.177292,-18.355637,-83.459759,-9.669342,-62.351017,0.0,18.920697,28.396421,51.748513,46.688684,66.475739,59.857453,81.316709,67.913721,88.794561,0.0,61.497517,44.446163,114.000893,48.107243,115.795898,47.876072,54.622021,44.818726,45.74976,0.0,-1.239609,-18.999676,-12.356196,-1.931831,-1.078903,17.833889,20.439325,38.853668,31.904894,33.098488,282.237298,-142.681503,8.136944
84,-1.301651,-0.773918,11.814137,37.264336,0.0,-65.007591,-31.710892,-94.62204,-25.512314,-96.463623,-17.774849,-84.207001,-9.118538,-62.858334,0.0,19.007147,28.288172,50.992132,46.60847,64.787359,59.81855,80.511669,67.839744,89.031868,0.0,69.72084,43.239326,116.230259,47.817936,123.701763,47.727413,51.575661,45.248165,46.046391,0.0,5.586591,-8.273752,-8.428345,10.6295,6.553139,30.035061,27.050169,48.994629,38.176204,33.630209,281.014948,-129.033995,44.952849
85,-1.47583,0.00636,21.681519,56.261078,0.0,-64.630966,-31.107101,-95.37014,-25.095406,-97.039146,-17.774963,-85.382309,-9.300957,-64.812984,0.0,17.713291,29.492367,49.854133,47.906958,63.610273,60.723811,79.161126,68.217533,89.836784,0.0,74.094601,45.699635,109.900761,44.714985,79.667473,41.379433,54.251175,37.136707,44.403477,0.0,6.033077,-8.962733,6.55811,6.919195,20.492553,24.838177,32.498439,43.74745,39.668897,32.732677,281.07412,-106.774178,101.266739
86,0.361061,-0.239036,16.762218,42.88949,0.0,-65.676098,-31.782646,-96.719398,-25.913429,-97.61404,-18.600998,-85.683117,-10.284004,-64.706268,0.0,18.312826,28.759205,49.52698,47.397764,64.090444,60.543006,79.963881,68.5981,89.240646,0.0,84.610176,42.322598,93.401184,34.394131,54.773312,26.108322,44.540863,18.928185,34.015675,0.0,-17.605475,-29.969698,-9.406132,-29.965839,-6.05259,-25.032413,-2.170465,-17.213483,-3.906949,33.362074,280.748418,-89.743624,144.069562
87,-0.559044,-0.272443,8.081846,26.511428,0.0,-65.356293,-31.889076,-96.434212,-25.794411,-97.847214,-18.105927,-85.559464,-9.500999,-63.953247,0.0,18.721181,28.861216,50.309357,47.354291,65.005894,60.389001,80.68914,68.314419,89.008773,0.0,78.163748,36.005287,98.524503,30.435133,80.019665,24.574728,68.415956,19.266786,54.623337,0.0,-6.700228,-5.926619,8.130306,1.50688,14.017189,10.036001,17.758338,18.551646,18.867931,33.341675,280.46858,-81.123132,170.573595
88,-0.992775,0.96448,8.081846,26.511428,0.0,-65.015717,-32.416191,-96.019592,-26.650772,-98.20919,-19.496727,-86.426697,-11.189804,-65.710373,0.0,19.527024,29.834588,50.376604,47.79908,63.998497,60.319778,79.200029,67.869693,88.855879,0.0,71.717319,29.687977,103.647823,26.476135,105.266018,23.041134,92.29105,19.605389,75.230999,0.0,4.205018,18.116459,25.666744,32.979598,34.086968,45.104415,37.687141,54.316774,41.642811,33.481264,281.393524,-71.908922,197.045487
89,-2.570343,5.642444,0.780315,17.330871,0.0,-62.399139,-30.527573,-94.914722,-25.941353,-96.187077,-19.326096,-85.775013,-11.242218,-64.868832,0.0,18.500979,26.213235,45.063536,43.511872,58.58169,55.672936,74.021454,62.636654,84.531312,0.0,70.880585,31.534996,104.729919,26.843777,107.263527,22.494793,98.561325,18.388882,79.136238,0.0,-2.583822,20.670395,38.00355,38.264075,50.603845,51.152868,61.677794,59.798173,64.917282,31.508045,286.949055,-70.531483,214.289444
90,-4.951057,7.942214,1.365967,10.680907,0.0,-43.304157,-27.266808,-89.301682,-23.292503,-91.655903,-16.672897,-80.430851,-8.346519,-58.341522,0.0,23.189009,17.672968,38.473162,31.752,51.677006,43.999824,63.72908,53.619797,73.781307,0.0,71.973038,31.810913,105.83931,26.766357,105.776596,21.920357,95.068703,17.152748,73.843346,0.0,1.043891,23.30689,41.435638,41.878512,54.078788,55.371286,64.260875,63.868451,68.54339,27.033548,294.618471,-68.688955,224.697554
91,-0.205994,23.306643,3.871937,15.53628,0.0,-56.495361,-29.676819,-88.790359,-26.025696,-91.344795,-19.19838,-74.232502,-10.102844,-49.076672,0.0,48.194776,6.092728,17.221758,8.975546,27.439413,12.038737,33.212953,13.73323,37.357888,0.0,76.278019,33.632011,106.469021,27.028999,100.215969,20.760555,87.609043,15.065117,66.249218,0.0,2.50435,29.730415,48.092024,47.195593,58.922058,58.394277,68.566546,63.861782,72.241807,27.25462,317.788569,-64.389954,240.097288
92,8.018761,16.743192,6.629276,15.450077,0.0,-65.276184,-45.372047,-93.486614,-48.789482,-52.267513,-46.588955,-6.682091,-40.490112,-22.48661,0.0,36.772803,5.306522,13.313018,-12.060596,-8.409048,-29.451612,-22.610346,-46.889311,-32.33301,0.0,76.955338,32.58482,100.706062,24.185772,95.620651,16.716957,83.545647,10.306435,62.015076,0.0,2.680894,29.144342,50.912844,47.032881,62.390332,58.884761,71.636715,65.017379,76.462324,35.367937,334.397052,-57.666121,255.412656
93,-9.077225,-36.715066,2.473354,2.73579,0.0,-47.015934,-36.868687,-64.907112,-34.767838,-55.109253,-28.664589,-30.28759,-19.634285,-55.469398,0.0,25.944003,14.783357,21.512794,25.703362,27.760824,35.661913,35.899158,45.119297,64.281129,0.0,74.590702,29.906502,97.337437,22.114277,95.782986,14.964924,83.325291,8.980637,62.144222,0.0,6.717025,29.508669,53.430223,48.623324,64.745677,61.734048,75.988204,69.064625,81.518571,26.414423,297.435695,-55.069056,257.902155
94,3.786278,34.641487,2.857304,6.848923,0.0,-58.474503,-36.99028,-62.188911,-36.054611,-13.945084,-30.635834,-2.279778,-21.642036,-26.833305,0.0,29.138661,6.392094,11.863551,-4.986593,-0.094972,-15.661078,-4.799921,-25.160144,-7.641552,0.0,74.826279,30.755424,97.945633,22.328396,96.245613,14.283142,83.577461,7.321873,63.900948,0.0,5.253108,27.288619,54.687029,45.203895,66.448507,58.362784,77.834665,66.52094,83.293278,30.235863,331.820424,-52.17659,264.49432
95,-1.391258,5.603665,5.374889,4.600838,0.0,-58.395252,-44.55534,-2.84008,-43.184509,12.663116,-36.813583,17.085686,-27.419472,9.273605,0.0,32.595758,0.17463,10.918276,-14.7263,0.372231,-29.881148,-10.12855,-42.909373,-25.481184,0.0,73.408298,30.363922,95.563831,21.85976,95.449276,13.403091,82.257328,5.548096,61.069622,0.0,4.169388,28.343377,53.550884,46.172203,67.611946,58.656963,78.293286,66.130307,82.753024,28.951836,337.2908,-46.694469,268.96187
96,-12.218285,-1.340107,1.09726,0.592248,0.0,-46.395035,-38.031292,9.439087,-34.186764,26.341209,-25.013695,31.926155,-13.833275,24.720154,0.0,34.237331,-0.690308,13.935215,-14.560994,3.589737,-27.360681,-3.988459,-37.201783,-20.841382,0.0,72.531796,30.545368,96.144161,22.239418,95.964146,13.519192,82.856998,5.329571,60.258923,0.0,2.324409,27.961575,52.349344,46.16362,67.013832,58.910819,78.01016,66.497228,83.635499,16.807165,335.829307,-45.523596,269.432732
97,-3.653984,-41.049883,3.346653,1.210061,0.0,-31.980343,-28.12912,25.675621,-28.962193,30.691109,-27.802505,20.993614,-25.106277,-49.488602,0.0,35.753489,23.067854,33.564745,33.293043,41.812068,38.491811,46.350353,42.328549,65.160208,0.0,72.683372,31.278419,93.984833,22.609062,93.79612,13.0093,80.028076,3.625088,58.845291,0.0,3.829081,26.647835,54.010307,44.524826,67.79553,57.546197,78.154038,66.061085,82.424388,13.39797,294.84244,-41.932154,270.705809
98,3.001785,-3.902564,1.54089,0.012535,0.0,-32.878532,-30.491695,19.754677,-31.929588,23.33107,-31.889477,13.314171,-30.75491,-56.283245,0.0,32.014501,24.96316,37.970514,36.531852,47.929991,42.946918,52.522307,48.151983,69.466496,0.0,72.533398,30.271683,92.087231,21.452007,92.272739,11.612549,78.044186,2.007122,55.445995,0.0,3.847545,27.10806,55.260258,45.072367,69.870035,58.012536,79.747137,66.237506,83.804325,16.704226,290.996995,-40.086794,270.775464
99,-12.845764,31.013156,-1.191273,-0.029455,0.0,-13.476963,-15.539875,32.197609,-19.556351,46.847763,-20.198193,41.451988,-17.628479,-15.443401,0.0,22.911317,2.348245,27.962316,-0.458497,24.885416,-2.169971,25.437156,-2.524851,18.39588,0.0,71.747932,30.960045,93.128586,22.48415,93.510933,12.894974,79.451637,3.444786,56.58989,0.0,5.553215,27.089165,54.180923,45.535927,70.062203,58.507589,79.953013,66.689827,83.257401,4.072466,322.152671,-41.064062,270.888529
100,7.810822,-25.471304,0.409813,0.214644,0.0,-37.266941,-28.180161,23.207703,-25.651646,29.049454,-22.602253,22.035027,-19.361115,-36.614685,0.0,44.132217,21.095546,35.226943,27.737606,42.358683,30.829264,43.493285,33.840276,55.588709,0.0,71.545258,30.379429,93.504868,21.778736,93.199196,12.275562,79.456558,2.981701,56.778603,0.0,5.747975,27.511291,53.321172,46.054075,69.755797,58.88439,79.511127,66.578491,82.718011,11.995897,296.885483,-40.541639,271.307289
101,-5.36705,5.617497,-0.306072,0.28609,0.0,-33.06181,-22.205544,27.60704,-20.468159,38.72097,-18.052597,31.897202,-15.467262,-24.999619,0.0,49.64764,17.313828,38.069561,16.142546,36.958054,12.485748,31.97813,10.131699,37.643545,0.0,72.335186,30.414391,93.836689,22.087097,94.470119,13.025036,81.01656,4.083195,58.111553,0.0,6.033756,27.085398,53.14154,45.632134,68.535733,58.521483,78.26346,66.461968,81.969226,6.711588,302.798641,-40.764971,271.88904
102,10.54493,19.445081,1.119518,-0.257808,0.0,-49.137268,-33.952904,10.155258,-32.38203,27.007141,-27.215824,30.151176,-19.539185,-5.534592,0.0,48.088689,10.459161,24.059443,-5.351661,17.014956,-21.594984,3.346131,-35.689577,-11.37634,0.0,72.014809,29.351635,92.189827,20.932388,92.936096,11.880169,79.742546,3.022556,57.747002,0.0,7.231776,26.199094,53.441585,44.926203,69.220051,58.155488,78.804085,66.288079,82.442296,17.297316,322.387693,-39.604654,271.775203
103,-7.379379,-13.391318,0.283756,0.27411,0.0,-12.890053,-23.25737,32.985878,-27.317848,42.74929,-26.728935,37.276039,-22.680473,-24.268169,0.0,27.898527,8.416149,35.331733,12.738616,36.176911,14.878391,39.613013,17.061886,39.904042,0.0,71.908665,28.610916,92.252598,19.901791,92.424259,10.758305,79.113522,2.033443,56.743298,0.0,7.377877,26.079916,53.9501,44.745584,69.206465,57.927259,78.658972,65.917824,82.103842,9.954128,309.139405,-39.284706,272.192343
104,14.083099,15.17467,-0.17704,0.602252,0.0,-54.875107,-39.563885,5.779037,-37.716579,23.328781,-31.866989,25.773354,-23.071404,-6.683464,0.0,45.582116,8.357733,22.618929,-6.279214,15.773649,-21.92436,2.399806,-35.483824,-10.197587,0.0,72.160778,28.614006,92.864628,19.985046,92.949543,10.822506,79.810925,2.030582,56.976528,0.0,7.621545,25.884167,53.763861,44.439363,68.780202,57.553977,78.138477,65.445804,81.431071,24.04664,324.399614,-39.452333,272.880134
105,-1.628036,-4.052865,0.930691,-0.351113,0.0,-41.190548,-38.004112,12.819786,-39.990749,28.010101,-35.868187,29.108391,-28.852959,-42.282715,0.0,33.262539,6.725052,26.44943,2.273959,20.338116,-3.024473,18.888648,-6.796497,21.030894,0.0,70.954399,28.371449,92.708244,19.541874,91.925011,10.202637,78.924179,1.207008,56.471329,0.0,7.42419,26.142346,53.258495,44.511735,68.338996,57.481606,77.428533,65.245794,81.142573,22.456999,320.435917,-38.483248,272.618189
106,10.376587,-1.273293,0.08955,-0.359202,0.0,-58.992405,-42.985497,-8.910255,-40.976028,10.538177,-36.50425,13.033676,-30.744896,-54.820004,0.0,43.164094,7.463587,21.75714,1.346097,19.840531,-6.058456,12.408004,-12.306054,17.329512,0.0,70.6814,28.143368,91.971188,19.377766,91.381474,10.211391,78.600712,1.487389,55.492229,0.0,7.855579,26.571573,53.431952,45.065636,68.46966,58.049772,78.203501,65.714418,81.951936,32.845659,319.147572,-38.381624,272.243935
107,1.338043,15.519793,-0.608253,-0.025441,0.0,-58.02372,-49.336052,-0.517044,-48.165321,17.051697,-41.03611,19.602242,-31.546669,6.300316,0.0,33.475331,1.04599,17.475922,-13.011121,6.134162,-27.636397,-3.349034,-40.61658,-17.118634,0.0,70.280857,28.820972,92.026806,20.203571,91.389484,10.712414,78.674526,1.436863,55.691357,0.0,7.614073,26.709832,53.498149,44.801035,67.975348,57.638143,77.825464,65.505269,81.692461,34.202185,334.667365,-38.971395,272.218494
108,-10.370407,-3.027623,-0.540276,-0.419409,0.0,-45.98053,-41.778774,8.815498,-38.712673,23.284149,-29.560318,28.509865,-17.69371,15.149689,0.0,37.493245,2.191954,20.907454,-9.962626,10.269958,-22.112267,2.985385,-32.516902,-10.388395,0.0,70.86771,29.070339,92.88763,20.438805,92.161388,11.005325,79.109287,1.957455,56.974926,0.0,7.616049,26.910459,53.557367,45.103427,68.258041,58.080091,78.219432,65.840574,81.567786,23.822193,331.663748,-39.521255,271.823091
109,3.084297,-13.837403,0.778656,-0.354139,0.0,-54.970036,-40.441189,5.4142,-40.186615,18.210754,-37.140884,18.33252,-32.023659,-56.976128,0.0,44.302771,10.347023,26.413368,2.887882,21.444807,-6.096062,13.184454,-13.401939,19.049385,0.0,70.154285,28.002949,91.788883,19.187622,90.587482,9.655094,77.975292,0.495129,54.381809,0.0,7.090306,26.880078,54.017223,44.829194,68.694431,57.595597,78.625441,65.137916,82.355228,26.930466,317.815693,-38.718624,271.4583
110,-0.686302,-1.400623,-0.472183,0.858392,0.0,-40.70549,-41.732883,12.816582,-41.843204,23.193283,-36.547222,24.241333,-28.797798,-10.695305,0.0,27.279294,5.390193,28.144665,4.065524,23.354068,1.922414,21.677359,-0.08713,20.688302,0.0,70.066395,27.89732,91.252728,19.031982,90.501652,9.482632,78.242741,0.311794,55.176258,0.0,6.35455,25.673043,52.921215,44.017237,67.269108,57.333035,77.444279,65.413446,81.230814,26.24691,316.392284,-39.188061,272.293907
111,-0.615349,-13.881246,-0.052013,-0.389522,0.0,-48.757095,-38.446655,12.458839,-39.042606,18.252525,-37.45451,13.19767,-34.51458,-65.169868,0.0,42.056724,17.314877,31.945526,22.389958,34.929862,24.489287,35.637089,26.894651,54.910381,0.0,70.325661,28.412189,91.628036,19.544506,90.631714,9.721298,77.962189,0.141964,55.25631,0.0,6.464157,26.242258,53.982272,44.333153,67.841781,57.54984,77.763097,65.666623,81.81769,25.668468,302.5067,-39.203167,271.900047
112,-9.156303,4.079664,0.101624,0.335366,0.0,-11.164627,-26.207542,24.603081,-32.237263,32.205963,-32.238979,26.471901,-29.377842,-51.031437,0.0,3.032871,3.858536,29.984395,15.583396,33.879364,25.180027,39.630673,33.326512,55.536839,0.0,70.056267,28.527374,91.888733,19.619122,90.867691,9.630146,77.618637,-0.017567,55.027084,0.0,6.31151,26.338033,53.365571,44.364583,67.537475,57.486484,77.537708,65.482545,81.82967,16.512079,306.579696,-39.101629,272.228744
113,10.681915,5.900128,-0.317345,0.16228,0.0,-59.477806,-43.131809,9.357147,-41.863461,18.258591,-38.133774,17.092438,-33.304939,-63.734207,0.0,43.053869,10.446811,27.400325,10.293238,26.454988,8.171864,23.314609,7.045352,37.855596,0.0,70.160408,27.662601,91.36013,18.882294,90.69294,9.147434,77.699089,-0.236435,55.06794,0.0,6.080563,25.854774,53.047371,43.782462,67.061318,56.921839,77.088535,65.035596,81.337334,27.196083,312.481245,-39.416885,272.392445
114,-1.734581,-2.947471,0.002747,-0.062862,0.0,-30.341949,-38.513203,16.040497,-41.883831,23.438759,-38.830948,20.116081,-32.714653,-21.085739,0.0,12.080295,4.738912,27.369141,12.485686,29.727451,18.30838,33.479036,22.487215,44.358161,0.0,70.228271,27.676735,91.250839,18.817692,90.536842,9.104919,77.275543,-0.173779,54.631004,0.0,6.205793,25.808338,53.190076,44.006431,67.442874,57.268197,77.738335,65.399614,81.803488,25.446882,309.55622,-39.428759,272.352029
115,-1.622086,-20.967538,-0.691166,0.235146,0.0,-28.792305,-34.729958,19.011497,-39.404526,16.851997,-40.629044,-1.91597,-38.843994,-73.482456,0.0,1.82139,21.033611,38.730538,37.032216,47.294332,47.290009,53.55428,56.044674,76.525927,0.0,70.136204,27.951164,91.816692,19.115982,90.997066,9.484005,77.62476,0.168056,54.747562,0.0,5.816518,25.600733,52.458642,43.954437,67.260154,57.326057,77.553763,65.531698,81.850727,23.790979,288.595876,-40.153742,272.594369
116,-26.02993,4.6771,-0.142937,-0.363525,0.0,26.331139,-8.256741,55.486565,-15.746155,52.440262,-20.506439,42.623291,-20.171127,-42.347374,0.0,-10.465028,11.954015,41.758346,29.219307,50.980584,42.6909,57.98129,53.153705,72.213711,0.0,70.550022,28.079281,91.750088,19.221325,91.208324,9.420319,77.768612,-0.069981,54.311428,0.0,6.451127,26.076828,52.707188,44.364213,67.652949,57.653272,77.881163,65.770487,82.425438,-2.247362,293.285913,-40.30509,272.243781
117,0.440254,3.442091,0.242844,-0.119672,0.0,16.295013,-9.939308,48.95256,-16.324425,54.345245,-18.553391,39.226456,-16.899033,-40.071201,0.0,12.035341,13.240338,40.921195,26.734532,46.038328,37.240377,53.484255,46.274894,66.441961,0.0,69.868984,27.781048,91.729374,18.675957,90.549488,8.921642,77.383747,-0.328617,54.680042,0.0,7.054799,25.994021,52.451479,44.328151,67.135851,57.602884,77.432855,65.608084,81.922728,-1.829424,296.750142,-40.084562,272.146246
118,24.260788,2.343366,-0.479736,0.226315,0.0,-48.739643,-37.844696,12.406654,-39.471531,18.956566,-38.430119,12.152481,-35.840435,-65.330715,0.0,41.778661,20.240056,35.259115,26.497719,38.471495,29.316502,40.376124,31.853394,59.161279,0.0,70.132885,27.645264,92.000141,18.698101,90.930233,9.184856,77.55827,0.209942,54.516506,0.0,6.756915,26.387927,52.771038,44.646536,67.259598,57.771833,77.386234,65.589991,81.916985,22.367163,299.121543,-40.6285,272.400596
119,-10.621719,-2.497187,-0.635433,-0.066752,0.0,5.069618,-22.953415,34.08062,-30.126972,38.846741,-31.31876,31.659508,-28.919163,-51.226273,0.0,-6.569132,9.06916,36.157521,26.036135,44.158831,39.894471,52.594925,51.241789,70.429247,0.0,70.652962,28.32098,92.246361,19.27557,91.459923,9.523029,77.72541,0.26453,54.258156,0.0,6.823174,26.526557,53.406264,44.773495,67.427374,57.88286,77.659109,65.657546,82.313917,11.709051,296.647435,-41.300325,272.356923
120,1.544266,2.177999,0.436592,0.110595,0.0,-39.369335,-31.929531,20.196648,-32.436104,30.403519,-31.528759,22.825356,-29.94072,-41.31197,0.0,40.110659,23.59792,38.448277,26.000875,39.247203,24.58605,37.612793,23.802746,49.868274,0.0,70.74955,28.15979,91.607895,19.128914,90.869064,9.403839,77.034988,0.107632,53.535919,0.0,7.04319,26.367549,53.358037,44.748918,67.615219,57.918984,77.715178,65.75437,82.4883,13.203478,298.845951,-40.913572,272.488034
121,6.003914,2.267166,0.855904,-0.526114,0.0,-43.576927,-37.37154,16.166153,-39.293404,23.412094,-39.066753,15.263214,-37.371426,-59.546471,0.0,42.274332,16.791481,30.889717,23.33616,35.197611,27.195375,39.0601,30.641048,58.312952,0.0,69.655151,26.349678,89.238968,17.527199,89.584808,8.382683,76.359673,-0.188427,53.516121,0.0,7.857184,27.087436,53.547549,45.302881,67.909522,58.009881,78.115012,65.384979,82.841759,19.201126,301.1619,-40.063934,272.010704
