takenoko1/special-research/HandMotion_SimilarSearch_自分用/NewProject/handData/test_key/d4_feature_d2/152.csv
frame,vel_0x_L,vel_0y_L,vel_0x_R,vel_0y_R,posFromWrist_0x_L,posFromWrist_1x_L,posFromWrist_2x_L,posFromWrist_3x_L,posFromWrist_4x_L,posFromWrist_5x_L,posFromWrist_6x_L,posFromWrist_7x_L,posFromWrist_8x_L,posFromWrist_9x_L,posFromWrist_0y_L,posFromWrist_1y_L,posFromWrist_2y_L,posFromWrist_3y_L,posFromWrist_4y_L,posFromWrist_5y_L,posFromWrist_6y_L,posFromWrist_7y_L,posFromWrist_8y_L,posFromWrist_9y_L,posFromWrist_0x_R,posFromWrist_1x_R,posFromWrist_2x_R,posFromWrist_3x_R,posFromWrist_4x_R,posFromWrist_5x_R,posFromWrist_6x_R,posFromWrist_7x_R,posFromWrist_8x_R,posFromWrist_9x_R,posFromWrist_0y_R,posFromWrist_1y_R,posFromWrist_2y_R,posFromWrist_3y_R,posFromWrist_4y_R,posFromWrist_5y_R,posFromWrist_6y_R,posFromWrist_7y_R,posFromWrist_8y_R,posFromWrist_9y_R,posFromBody_0x_L,posFromBody_0y_L,posFromBody_0x_R,posFromBody_0y_R
2,1.462555,-4.223419,56.343384,4.477831,0.0,-62.379456,-31.047935,-84.868069,-23.699799,-80.909443,-14.578514,-69.047356,-5.284996,-50.057716,0.0,2.207392,25.989452,43.516133,42.96254,54.477201,55.103165,63.211241,62.416761,67.943793,0.0,-21.670189,-1.553307,-67.530842,-0.428581,-62.595177,1.337471,-50.601139,4.614601,9.491386,0.0,3.767331,11.784325,41.461635,33.924812,52.21973,49.84413,60.42636,62.065648,61.030834,25.403481,289.880424,13.717117,286.382263
3,0.67234,-1.713389,0.57003,-1.138801,0.0,-64.662037,-31.509933,-86.639786,-24.05777,-82.396259,-15.343781,-70.52599,-6.603584,-52.559738,0.0,4.401322,28.821202,45.076442,45.918656,55.969771,57.684827,63.799044,64.675714,68.732531,0.0,-27.238197,-4.139786,-69.051704,-1.461411,-65.730858,1.557541,-56.518021,5.982056,-3.681107,0.0,2.4786,11.546648,39.683161,34.044361,52.634013,50.763717,61.394853,64.196161,62.901316,25.631046,288.320439,13.842373,285.396865
4,2.561073,-0.790838,2.555809,-0.57397,0.0,-67.55024,-33.810539,-88.556042,-26.34304,-83.600636,-17.597923,-72.287407,-8.830376,-54.003067,0.0,4.807764,29.718559,46.724005,46.500283,56.728807,57.867052,65.179598,64.748518,70.326618,0.0,-27.972393,-7.905235,-67.79583,-5.891991,-65.931358,-2.623558,-57.164555,2.360001,-2.663155,0.0,3.112962,11.521639,36.017966,33.942966,51.116312,50.941373,61.517428,64.948466,63.420452,27.72995,287.683792,15.936012,284.977086
5,1.054916,0.194452,0.941048,-0.321905,0.0,-68.152542,-34.540901,-89.686089,-27.244835,-85.739765,-18.430252,-73.071556,-9.269257,-53.85973,0.0,4.160372,30.442089,45.839554,47.348302,56.333542,58.695063,64.628969,65.459821,69.389308,0.0,-28.905945,-7.958221,-68.379021,-6.811752,-66.294651,-4.030266,-57.062244,0.584908,0.625763,0.0,3.891634,13.078552,38.549979,35.608005,52.546822,52.120497,62.178836,65.429255,62.947999,28.440771,287.994875,16.532965,284.771812
6,0.574608,0.369453,3.47477,-0.084166,0.0,-68.471603,-35.36911,-90.58548,-28.251915,-85.800934,-19.53186,-73.213234,-10.365486,-53.743286,0.0,3.692983,30.558612,45.382354,47.09494,56.056901,58.023466,64.350475,64.249575,70.047568,0.0,-33.316898,-13.076477,-68.59457,-12.676506,-68.623409,-9.536476,-60.673141,-4.226303,-14.955597,0.0,3.070477,13.032733,33.846389,35.289743,49.908721,52.232574,60.038382,66.193786,62.633875,28.82349,288.474058,19.815845,284.797377
7,0.181274,-0.208902,-4.629021,-0.487767,0.0,-68.566303,-36.30867,-90.862541,-29.147186,-85.999489,-20.252266,-73.363953,-10.756531,-53.805256,0.0,4.005811,30.422205,46.166955,47.036462,56.356143,58.145855,64.632489,64.568948,70.345699,0.0,-41.612778,-11.758347,-66.876984,-9.338264,-66.224499,-4.223442,-56.926918,2.69577,-8.969765,0.0,4.136722,12.636666,35.236514,35.285914,53.388603,52.26913,63.043342,66.72379,64.782666,28.830128,288.309138,15.012188,284.353592
8,0.841599,0.027788,-5.766449,2.076728,0.0,-70.295391,-36.566849,-92.029552,-29.386253,-86.173382,-20.652695,-73.641758,-11.434135,-53.819504,0.0,3.950483,29.920668,46.465209,46.013628,56.850085,56.717506,64.944884,62.984556,70.970675,0.0,-28.477249,-3.732719,-62.53046,-1.326485,-57.824364,2.791901,-47.944679,8.213425,24.556618,0.0,2.2747,13.767625,41.92291,36.469546,53.82592,52.507116,62.943059,65.409247,63.645964,29.531565,288.468315,9.105577,286.56171
9,-0.11364,-0.062553,10.374641,-0.781575,0.0,-69.563026,-37.208748,-92.168083,-29.624748,-85.837383,-20.59948,-73.174953,-11.188087,-53.862305,0.0,4.895326,29.707259,46.748458,45.927178,57.144572,56.788396,65.100125,63.031733,70.448081,0.0,-40.50333,-14.896774,-69.340267,-14.05941,-68.434525,-10.620117,-57.955513,-5.124664,-0.880394,0.0,6.201841,12.204043,34.084745,34.807534,49.891492,51.758454,61.430977,65.886146,62.265287,29.333239,288.540286,19.395533,285.914658
10,0.288391,0.002347,1.752434,0.594533,0.0,-70.800018,-37.424583,-92.038021,-29.963608,-86.51453,-20.955734,-73.979645,-11.509552,-54.352341,0.0,3.836553,30.495379,46.833488,46.747594,57.022245,57.594795,64.889618,63.879504,70.34255,0.0,-42.046795,-17.569427,-69.403553,-17.572632,-67.995586,-14.09008,-58.126259,-8.089943,-6.031609,0.0,4.098128,11.509783,31.585274,34.082831,48.275608,51.357324,60.059624,65.904609,61.790118,29.524612,288.612287,21.050949,286.578846
11,-0.143623,-0.17673,-4.452095,-0.908719,0.0,-70.565414,-37.775116,-92.177982,-30.108376,-86.063519,-20.984001,-73.752022,-11.40873,-54.035854,0.0,4.102636,30.729969,47.108587,46.800452,57.293823,57.403121,65.273335,63.593353,71.084604,0.0,-41.720009,-12.936745,-66.818733,-11.302757,-64.887829,-7.103119,-55.209961,-0.926056,-5.121002,0.0,5.733835,12.698787,35.119559,34.671436,50.756924,51.43303,61.168106,65.779565,63.031363,29.258108,288.50058,16.475973,285.73515
12,0.242844,-0.011609,1.043243,1.232723,0.0,-70.423794,-37.285652,-92.529488,-29.6101,-86.56002,-20.619621,-73.961449,-11.301727,-54.758434,0.0,4.498826,30.919666,47.178612,47.233322,56.950429,57.922072,65.000213,64.017887,70.61172,0.0,-43.397026,-13.553352,-67.48312,-12.611504,-65.443726,-8.818588,-56.840115,-2.839165,-12.315674,0.0,4.78788,10.913274,33.32114,33.113473,49.831718,50.454039,59.616688,65.453214,62.762439,29.385023,288.545874,17.403288,287.024776
13,-0.132294,0.290659,-5.596962,-1.215372,0.0,-71.070671,-36.779938,-93.15073,-29.284172,-86.241131,-20.572586,-74.117775,-11.583138,-55.15789,0.0,2.739866,31.635909,46.907218,48.454005,56.605121,59.176284,64.230864,64.859483,69.467546,0.0,-39.977188,-9.377403,-66.283607,-6.586304,-64.391212,-2.130547,-53.281059,3.970871,-0.12291,0.0,3.7338,12.9871,39.894656,34.838286,56.112476,50.986883,64.588646,64.720483,64.171646,29.037323,288.838694,11.590919,285.811566
14,0.697289,0.436452,-3.726082,0.357041,0.0,-71.041718,-36.518097,-92.44463,-29.284172,-86.691055,-20.807877,-74.743538,-12.066193,-55.588703,0.0,2.716771,31.553226,46.228952,48.31945,56.246227,58.9186,63.800834,64.638973,69.301191,0.0,-37.734203,-7.4263,-64.0452,-2.159157,-61.930676,3.780327,-52.299843,10.259743,1.396866,0.0,-1.870976,9.953364,37.797983,32.257427,56.331505,49.262441,65.584804,63.641271,66.624496,29.480038,289.269851,7.610264,286.163312
15,0.110664,-0.252868,-0.25589,-0.140914,0.0,-71.605053,-37.018661,-92.278748,-29.746857,-86.550636,-20.954819,-74.274387,-11.772881,-55.05827,0.0,2.755303,31.406445,46.420625,48.200951,56.68237,58.894764,64.231297,64.685965,69.42216,0.0,-38.240261,-6.537209,-63.557281,-0.72155,-61.396122,5.350342,-52.061291,11.816711,7.38636,0.0,1.842324,9.238356,38.253824,31.448497,57.029222,48.525265,66.06763,62.624242,66.088687,29.426794,289.009635,7.190466,286.015049
16,-0.033531,-0.216373,1.015663,-0.713897,0.0,-71.550922,-36.591568,-91.665916,-29.099464,-85.863647,-20.229034,-73.862572,-11.046867,-54.579678,0.0,3.120866,31.773736,46.892831,48.485868,56.852246,59.087178,64.379683,64.813356,69.768024,0.0,-38.755531,-6.229134,-65.749741,-0.799713,-63.407021,4.653397,-52.731056,10.469284,7.679558,0.0,3.065167,11.28427,40.367788,33.300762,57.709095,49.916625,66.651727,63.599466,66.366564,29.235992,288.789495,8.048859,285.297386
17,0.637436,0.170987,-1.669235,0.808004,0.0,-71.599731,-36.500931,-91.497631,-29.197769,-86.384239,-20.444641,-74.513226,-11.302071,-54.775486,0.0,3.367188,31.242744,46.57179,47.894855,57.246954,58.582801,64.680407,64.411546,69.826872,0.0,-32.134724,-4.40506,-64.386177,0.709534,-60.635777,6.238632,-48.284283,12.44236,18.846931,0.0,4.664194,13.131781,44.723477,34.291177,59.042162,49.852281,66.338715,62.68204,64.39827,29.768572,288.96167,6.274767,286.106578
18,-0.054474,-0.185436,0.989571,0.672709,0.0,-71.128349,-36.575546,-91.908016,-29.107361,-86.568661,-20.247231,-74.408569,-11.134987,-55.034409,0.0,3.554415,31.484868,46.933092,48.244424,57.228244,58.963863,64.555918,64.690349,69.625936,0.0,-35.283451,-6.506996,-64.126282,0.249481,-60.814705,6.954575,-49.140244,14.079666,10.99617,0.0,0.495609,9.586443,39.342916,31.457636,57.712429,48.32155,66.48426,62.419107,64.76834,29.610443,288.796334,7.160683,286.799387
19,0.436821,0.068481,1.236534,-0.737176,0.0,-71.099396,-37.27272,-91.61911,-29.827538,-86.562996,-20.83374,-74.045105,-11.421318,-54.794254,0.0,3.179096,31.441766,47.161136,48.141856,57.749541,58.985784,64.866585,65.05233,69.967107,0.0,-34.852982,-5.842667,-66.013756,-0.858192,-61.649895,4.900703,-49.993286,11.588974,14.894257,0.0,4.174513,12.632529,43.68607,34.243938,59.236059,50.230255,67.086759,63.589401,65.149957,30.018196,288.869971,8.368149,286.067367
20,0.873528,-0.286151,1.225319,0.870743,0.0,-71.746159,-37.975616,-92.541733,-30.57106,-87.378216,-21.515121,-75.06855,-11.980476,-55.537434,0.0,3.290432,31.524512,47.226098,47.898313,58.053353,58.536612,65.479643,64.51399,70.874591,0.0,-35.502491,-6.953316,-68.20507,-3.404388,-62.579784,1.532478,-51.000366,7.959137,19.656029,0.0,4.659871,14.567725,45.76181,35.910335,59.438291,51.020537,65.60654,63.414524,64.344917,30.832243,288.587664,9.533987,286.941953
21,-0.367012,-0.060021,5.187035,0.155673,0.0,-71.423264,-36.907883,-92.071266,-29.456863,-86.993866,-20.662766,-74.733868,-11.340981,-55.371208,0.0,3.296546,31.465663,47.287416,47.882257,57.731572,58.643193,65.350461,64.771057,70.533544,0.0,-40.993195,-12.552795,-71.402206,-9.407043,-67.358894,-3.950729,-55.813236,3.318558,10.919838,0.0,2.431237,13.402495,39.907748,35.291966,55.719064,51.250125,64.880293,64.66676,62.776333,30.369387,288.538248,14.625177,287.108232
22,-0.087547,0.183028,-1.582947,-0.639487,0.0,-70.722485,-36.843681,-92.634201,-29.391289,-87.150078,-20.530357,-74.556942,-11.240845,-55.157833,0.0,3.171748,31.065583,47.1775,47.831375,57.63907,58.795778,65.099384,64.944329,70.243872,0.0,-39.795742,-11.462631,-70.440445,-6.887856,-66.841164,-0.575294,-55.396042,7.085838,13.334312,0.0,0.949227,13.193593,41.271444,35.163216,57.242508,51.210666,67.175309,64.691708,63.822571,30.189056,288.721122,12.949448,286.46859
23,0.055618,0.103,-0.680466,-1.275455,0.0,-70.649357,-36.258202,-92.538872,-28.758888,-86.762524,-20.02018,-74.419556,-10.903702,-55.640602,0.0,2.902208,31.042797,46.873379,47.473964,57.390771,58.289178,64.818419,64.525105,70.197683,0.0,-41.363125,-8.486481,-69.921227,-3.8974,-67.458916,2.075615,-55.212765,9.283218,8.083992,0.0,2.590677,13.170375,41.376852,34.992909,57.067137,51.172752,66.634561,65.007931,63.832142,30.206738,288.836441,12.231045,285.205455
24,0.379944,-0.179755,-7.821693,-0.340801,0.0,-69.950809,-36.50219,-94.34515,-29.463387,-87.796097,-21.034813,-75.210743,-12.210274,-56.238041,0.0,1.612859,31.148884,45.016853,47.653102,55.570801,58.046622,63.134239,63.428047,68.22309,0.0,-19.131432,8.302689,-63.069477,9.9963,-56.488037,11.072502,-44.337902,12.644463,17.888832,0.0,4.175254,13.825855,48.577567,35.776521,54.547535,50.984351,61.425173,62.805541,63.982689,30.465231,288.660298,4.287901,284.868266
25,3.17894,-0.816958,-6.516838,-2.875346,0.0,-70.383911,-39.983253,-96.945992,-33.103409,-89.957256,-24.674606,-77.873383,-15.848694,-60.260353,0.0,1.096008,31.72094,42.920797,47.341077,51.82391,56.721644,60.71319,61.402078,65.865151,0.0,-9.004211,13.02784,-65.306053,18.699417,-58.305302,22.266884,-46.524353,25.163383,35.610924,0.0,-3.36089,12.050531,47.619633,35.113754,53.955966,51.320335,61.449749,64.119775,71.382797,33.513222,287.860954,-2.359886,282.010535
26,0.804176,-1.10632,-10.043793,-10.395991,0.0,-69.308853,-38.198891,-98.698597,-31.812172,-93.842297,-23.97789,-81.079845,-15.937958,-62.611542,0.0,0.022662,27.921684,41.298676,43.898738,51.252718,54.022657,59.760011,59.385433,65.863236,0.0,-7.894135,30.153809,-45.324612,39.79866,-49.164734,43.039055,-44.577198,43.764839,-21.305695,0.0,0.659124,18.171417,47.086603,37.214565,54.757795,52.566767,62.874022,65.579493,74.157243,34.25477,286.759944,-12.466307,271.619855
27,1.331635,-1.186781,22.600365,7.281053,0.0,-66.760139,-37.374573,-98.682003,-30.882568,-92.966995,-23.006744,-80.347824,-14.858894,-61.463013,0.0,-0.248607,30.091099,39.951405,47.0138,50.336775,57.756519,59.097059,63.31066,65.004226,0.0,-33.450623,18.004417,-42.123642,22.671776,-67.118683,18.782158,-68.629761,11.781006,-52.027931,0.0,1.83726,8.287399,22.50926,29.931351,48.393304,48.838277,58.396191,63.183639,66.258254,35.42593,285.56424,9.973583,278.891984
28,2.753448,0.870743,-67.530556,-47.766414,0.0,-65.479603,-36.838646,-99.774971,-31.44619,-96.519241,-24.810905,-84.239273,-18.065643,-66.789265,0.0,2.294707,32.225688,39.023111,48.646975,49.154316,58.183523,57.304259,62.462456,62.291963,0.0,50.638046,46.384048,27.090168,47.058105,17.173634,43.284187,12.230415,35.992012,17.187767,0.0,40.727237,48.418313,88.038118,56.314461,94.28337,58.785589,96.274512,55.69986,92.338108,37.591724,286.413123,-58.144627,231.103711
29,1.22303,1.378516,-12.580147,-56.103352,0.0,-66.878643,-35.396347,-98.583641,-30.44117,-95.114536,-24.663849,-84.052906,-18.943176,-68.873577,0.0,2.142554,33.715416,39.06257,50.795395,47.405668,60.664531,55.016097,65.117106,60.896651,0.0,61.409397,40.551395,58.724298,36.140871,51.698141,29.163895,41.538792,21.023827,35.429563,0.0,40.021322,30.272136,67.60165,44.546053,75.96988,55.027259,79.994154,60.609126,79.344571,37.984428,288.309339,-71.555099,175.518059
30,0.045776,0.549146,-12.580147,-56.103352,0.0,-69.194527,-34.79908,-96.803627,-28.383408,-94.159698,-21.336479,-82.22168,-14.628639,-64.957809,0.0,4.328272,34.152177,42.794579,50.62447,52.494519,60.218199,60.098835,64.7768,65.290995,0.0,72.180748,34.718742,90.358429,25.223637,86.222649,15.043602,70.847168,6.055641,53.67136,0.0,39.315407,12.125959,47.165181,32.777644,57.656391,51.268928,63.713797,65.518391,66.351034,37.583714,289.894194,-84.581738,120.450415
31,-0.191116,0.128009,-12.649155,-35.98777,0.0,-69.483204,-36.273193,-96.409035,-29.586525,-92.959728,-22.086296,-80.171299,-14.832802,-63.936424,0.0,4.16735,34.396214,42.013313,50.949586,52.507302,60.776176,60.267723,65.752641,65.881391,0.0,74.347343,28.982849,92.556725,22.588177,75.633717,15.381374,46.862755,8.018761,31.790543,0.0,11.295077,-5.236589,5.754336,10.9925,22.320119,27.066965,30.659512,42.399253,40.689477,37.422552,290.3262,-97.200937,84.766643
32,-0.276604,-0.693457,-12.196369,-43.775021,0.0,-70.563984,-35.500374,-96.398621,-29.389915,-93.14867,-22.646027,-80.987835,-16.269608,-65.51445,0.0,4.041441,34.303589,41.352831,51.243209,50.978547,61.132352,58.807387,65.930791,64.928767,0.0,79.591198,29.271641,85.932884,27.668839,43.734512,25.910797,34.051609,24.103832,30.281868,0.0,-11.210973,-18.993037,-10.844854,0.583017,5.683168,20.842215,25.837453,40.274329,38.363648,37.885695,289.63793,-108.65756,40.996809
33,-1.719818,-1.110828,-3.331661,-13.211933,0.0,-70.2285,-35.330086,-95.504608,-28.86898,-91.649666,-21.695824,-79.621582,-14.889793,-63.648491,0.0,4.853459,33.998418,42.063269,50.863629,50.985154,60.726775,58.95176,65.591226,65.454696,0.0,67.454453,28.008442,82.225342,32.52388,55.965843,35.197105,45.975437,38.232994,45.59063,0.0,-31.763764,-15.362237,-47.627475,-1.519863,-22.001764,11.402738,0.534419,24.278039,13.844381,35.826387,288.117897,-112.328711,27.375671
34,-1.983376,-1.379566,38.149166,-45.15079,0.0,-70.027084,-36.197548,-94.667244,-29.034805,-90.162964,-20.964317,-77.73531,-13.353539,-61.717072,0.0,5.196544,34.090179,42.605994,51.363499,53.042925,61.540584,61.293521,66.331181,66.962641,0.0,37.352371,25.437355,52.825642,14.330692,41.093788,2.954578,17.700233,-6.60799,8.384171,0.0,-39.365795,-39.497169,-48.519028,-37.798539,-30.193204,-30.936215,-13.950375,-21.007892,-10.055437,32.996378,286.981983,-75.026178,-17.531467
35,-0.556755,-0.290412,-32.831383,-18.215137,0.0,-69.739723,-35.628662,-95.031853,-28.836479,-90.538044,-21.079102,-78.222885,-13.582306,-62.021599,0.0,5.152825,34.16181,43.146495,51.288348,52.649081,61.509462,60.655886,66.633943,66.362859,0.0,58.196983,30.397339,85.66206,36.861134,69.300728,41.490726,47.858734,44.72929,45.122623,0.0,-26.223239,-32.685018,-45.513512,-18.889513,-23.807346,-2.296004,-0.631398,15.32954,12.820682,30.62582,287.329561,-109.671364,-35.108614
36,-0.608826,-0.123501,13.067894,-25.265829,0.0,-70.652733,-36.884995,-94.92548,-29.440842,-88.869553,-20.98526,-76.879864,-12.7145,-60.838566,0.0,4.933364,33.732459,43.780425,50.784527,52.731332,61.106293,61.271414,66.365267,66.894839,0.0,59.797211,35.396862,84.43285,35.660419,54.345245,35.171413,40.734787,33.964176,40.650902,0.0,-25.401588,-29.573291,-44.17572,-15.806346,-14.109907,1.593593,6.057808,21.211143,15.626837,28.560276,288.648719,-98.060188,-58.931784
37,-0.178185,0.23249,-1.407166,-4.006583,0.0,-69.964428,-34.853325,-93.063641,-27.535515,-88.451843,-19.479904,-76.823845,-11.993866,-60.544796,0.0,5.596687,32.819603,42.085129,49.978313,52.289693,60.45106,61.028056,65.63513,66.573984,0.0,52.228832,33.645229,96.185474,39.415913,55.62727,44.979458,52.780495,49.488888,56.395226,0.0,-23.879594,-38.071568,-52.654051,-26.256121,-16.805436,-10.512452,0.590982,6.647957,12.391795,26.162539,290.527784,-101.686907,-61.291792
38,-0.228996,0.519753,0.541592,-3.305808,0.0,-69.574757,-35.970955,-92.270966,-28.77182,-87.333183,-20.558624,-75.803375,-12.5354,-59.619598,0.0,4.334014,33.094392,42.005286,49.987885,52.085917,60.189917,60.811373,65.214857,66.244298,0.0,54.076138,32.440052,101.056595,38.74609,55.760021,44.77993,52.765675,49.930744,56.123543,0.0,-23.447743,-38.006483,-50.185424,-25.712964,-13.647644,-9.579372,2.149964,8.213422,12.926214,24.755116,291.704577,-102.323742,-63.94056
39,1.56292,0.156723,3.980427,-4.802638,0.0,-69.575787,-35.832138,-92.057934,-29.213905,-88.433762,-21.474838,-76.944008,-13.854218,-59.97076,0.0,3.76307,32.919083,41.387658,49.761693,51.833049,59.949955,60.267908,65.07845,65.502923,0.0,53.735218,32.949142,100.137806,39.668541,53.306694,45.48008,51.060905,50.067959,53.764629,0.0,-22.109673,-37.633789,-48.017398,-25.994423,-12.723209,-10.268507,2.557826,6.984002,13.973285,25.382738,291.934227,-99.278612,-68.670271
40,0.913353,-0.12912,0.502911,-1.985554,0.0,-69.425125,-35.794487,-93.044014,-29.139061,-89.365597,-21.35273,-77.662582,-13.821373,-60.534897,0.0,4.340313,32.506343,41.505478,49.494499,52.313899,59.748711,60.73857,64.74117,65.75684,0.0,53.276539,34.301834,101.208801,40.719166,52.951183,46.078548,51.126194,49.68401,53.381939,0.0,-22.493483,-37.639686,-46.750743,-26.393732,-11.835331,-10.947761,3.242329,6.052405,15.123911,25.459414,291.85125,-99.612379,-70.609682
41,1.406708,-0.286151,-0.857334,-0.871175,0.0,-69.831734,-35.965233,-93.853798,-29.248924,-89.632473,-21.347694,-77.826233,-13.685303,-60.76149,0.0,4.352787,32.77224,42.244754,49.834682,52.868109,60.188065,61.071466,65.330022,66.064172,0.0,50.535393,33.30162,100.196285,39.939995,51.974773,45.631542,51.360226,49.709759,54.253521,0.0,-22.57592,-38.703923,-46.93936,-27.343978,-12.081808,-11.82752,3.052879,5.280432,14.98948,26.160393,291.662309,-101.175442,-71.383646
42,1.732521,0.081202,-0.997124,0.355559,0.0,-70.462933,-36.238518,-95.717239,-29.673843,-90.989456,-22.029877,-78.978939,-14.739761,-62.068348,0.0,4.077688,33.293043,42.043324,50.379568,52.79759,60.522814,60.892822,65.34336,65.70954,0.0,50.249176,32.744179,99.647427,39.940739,50.039921,45.965366,50.360126,50.346622,53.773499,0.0,-22.898751,-38.376214,-46.129194,-27.419807,-11.643658,-12.448976,3.610454,4.111806,14.955548,26.481142,291.864573,-103.584337,-70.907026
43,0.190201,-0.137703,-4.120388,2.864756,0.0,-70.374298,-35.661507,-95.269146,-29.139519,-91.031799,-21.641006,-79.313679,-14.503441,-62.070694,0.0,4.269485,33.152623,42.214434,50.335107,53.225459,60.639213,61.235537,65.604132,65.866633,0.0,52.81374,31.635876,98.053207,38.109741,52.296581,44.109364,53.852177,49.422112,58.963909,0.0,-23.325477,-38.380382,-44.046229,-27.464391,-12.599647,-12.754208,4.146231,3.744854,15.172478,25.938463,291.844303,-108.437605,-67.924836
44,0.645103,0.155796,-6.665039,2.765122,0.0,-70.798588,-36.084251,-95.638676,-29.417038,-91.480007,-21.77639,-79.260349,-14.487991,-61.831284,0.0,4.26189,33.244199,42.199491,50.129478,53.145369,60.24716,61.108949,65.265184,65.711392,0.0,51.300716,29.302368,98.580437,36.07235,48.698502,42.649097,52.826786,48.26088,57.455635,0.0,-23.705427,-36.10948,-45.187099,-23.870425,-14.685792,-8.964153,1.792584,6.582409,12.152203,26.455908,292.3141,-115.230303,-64.845713
45,0.420914,-0.10584,-9.065323,1.068066,0.0,-70.657082,-35.318871,-96.452179,-28.851585,-92.098789,-21.483192,-80.183086,-14.590759,-62.845917,0.0,4.044281,32.662139,42.824652,49.873214,53.471905,60.274083,61.599741,65.353487,65.858173,0.0,52.657471,30.30304,105.601044,38.500671,44.464588,45.351048,46.263599,51.211338,49.126625,0.0,-22.973469,-35.243862,-44.712485,-21.980337,-12.596034,-6.514391,2.651347,8.675285,13.411294,25.519581,292.23861,-125.652866,-63.747297
46,0.529976,-2.520714,-9.73732,4.621277,0.0,-70.30941,-35.574074,-95.4986,-28.659096,-90.004635,-20.633926,-78.390484,-12.981606,-61.394577,0.0,5.880121,32.482631,46.245995,49.570514,57.186439,60.447972,65.548309,66.183598,69.56468,0.0,47.974262,26.810703,91.329517,33.628578,43.552036,39.625626,43.576756,44.170647,44.630642,0.0,-24.420497,-36.642571,-50.034969,-24.009919,-14.424773,-8.304134,0.532103,8.029097,12.184715,25.100555,290.898611,-136.339188,-57.945305
47,1.624947,-8.630732,-7.382412,3.790487,0.0,-69.982452,-35.541229,-92.916241,-27.874489,-90.278721,-18.511848,-78.749428,-9.84169,-60.812817,0.0,10.149174,31.913539,56.345769,48.892371,67.936754,60.724491,76.986832,67.464486,80.150615,0.0,53.77676,22.306538,91.49128,26.050701,40.021648,30.311394,38.46159,34.986649,39.836712,0.0,-25.486217,-36.841623,-52.310163,-23.368733,-12.727594,-7.147332,1.724319,9.786977,13.764383,26.558247,282.753763,-143.888855,-53.668935
48,-0.977325,-14.781258,-1.474342,1.139974,0.0,-65.65361,-30.847893,-85.180893,-25.019073,-85.939178,-17.53624,-77.190857,-9.297066,-60.207424,0.0,15.735919,28.015483,62.361494,44.304933,75.414914,57.627954,83.130134,67.972816,89.701551,0.0,60.778427,20.229778,89.375839,21.105137,37.539997,23.725433,35.58054,27.303486,35.694294,0.0,-25.705492,-36.35361,-45.864625,-22.950436,-10.391606,-7.170828,2.531396,9.005649,13.107667,25.285378,267.986661,-145.658741,-52.514804
49,-5.525894,-8.275049,2.538815,-0.97544,0.0,-52.850189,-24.572754,-72.290726,-18.971443,-71.455994,-11.478539,-62.758083,-1.831627,-42.926102,0.0,16.093516,21.807096,52.000578,33.591545,65.447841,42.938828,71.352725,50.067234,74.631918,0.0,76.34428,19.14711,88.530464,15.499706,36.066513,14.629154,30.227852,15.528717,27.116947,0.0,-22.058575,-37.37348,-31.616674,-24.701276,-9.732791,-7.878179,3.286264,9.619572,14.141678,19.279776,259.701346,-143.599634,-53.500511
50,17.945709,-28.600074,8.460674,0.909213,0.0,-58.312339,-43.39468,-71.45502,-41.074562,-69.766845,-34.483222,-61.685743,-24.493503,-49.435443,0.0,20.732022,21.613169,43.421902,25.110311,49.921472,26.452549,46.545546,24.91626,42.247008,0.0,71.972351,14.921379,78.329887,6.461506,29.729462,1.65659,20.420208,-0.900536,16.099606,0.0,-17.23278,-40.201278,-21.658648,-29.087717,-8.620203,-12.856189,1.899412,4.270813,10.346961,36.592769,231.33932,-135.771675,-52.35325
51,17.94571,-28.600074,5.801125,1.792892,0.0,-63.77449,-62.216606,-70.619316,-63.177681,-68.077698,-57.487907,-60.613403,-47.15538,-55.944786,0.0,25.370527,21.419242,34.843226,16.629077,34.395103,9.966269,21.738368,-0.234713,9.862097,0.0,67.752457,13.665791,76.25576,3.783131,25.007572,-2.092438,15.925941,-6.391068,9.764442,0.0,-17.6173,-44.326391,-14.637596,-34.467721,-9.508761,-19.173102,-0.705035,-2.167748,7.953577,53.668957,203.551681,-130.840073,-49.747923
52,0.757599,-10.092117,6.030293,-2.237526,0.0,-50.407677,-53.522987,-59.397583,-55.426483,-55.989761,-51.48571,-50.575562,-44.152679,-44.144211,0.0,25.89942,9.62232,11.6649,-4.379524,1.635892,-18.716673,-13.689634,-34.273516,-28.408648,0.0,64.071522,14.660339,73.672771,3.708401,23.315678,-3.663769,13.042889,-9.393368,4.750786,0.0,-18.271947,-45.679466,-11.810446,-37.032617,-9.536548,-22.201651,0.016642,-5.208091,8.712674,53.359509,193.905139,-125.876827,-51.539873
53,22.988777,-93.02539,5.940571,-1.555616,0.0,-61.131477,-56.630402,-69.14566,-54.887238,-66.819077,-47.41024,-58.590317,-35.816917,-50.87265,0.0,21.805614,13.356058,33.11335,27.91909,44.171737,40.661411,48.762077,50.506526,54.430148,0.0,64.362545,18.094254,76.208324,5.834255,21.448517,-3.252068,10.50951,-11.052818,0.096989,0.0,-16.015247,-47.339904,-4.183405,-39.968325,-8.81413,-26.361683,-0.277568,-10.415751,6.735272,75.937672,102.177619,-120.34687,-51.79762
54,9.729824,-26.382308,7.172184,-1.242881,0.0,-63.45068,-47.713852,-77.988854,-46.480465,-76.804047,-40.771351,-69.609375,-31.968956,-61.38176,0.0,11.763423,5.783143,24.402497,20.373283,35.530879,33.649961,42.202362,44.708194,48.920545,0.0,62.6861,16.538086,70.884075,3.549385,17.262669,-6.06514,6.981926,-14.092941,-2.804832,0.0,-10.355915,-47.309831,-2.55341,-41.507979,-8.177638,-28.702826,-1.099281,-13.307893,4.754411,85.446253,76.141005,-113.395929,-52.694807
55,9.729824,-26.382307,7.719383,-0.964943,0.0,-65.769882,-38.797302,-86.832047,-38.073692,-86.789017,-34.132462,-80.628433,-28.120995,-71.890869,0.0,1.721231,-1.789774,15.691644,12.827475,26.89002,26.63851,35.642647,38.909861,43.410941,0.0,59.897804,15.404205,64.519215,1.42067,14.611988,-9.40052,4.343662,-18.604603,-6.077557,0.0,-8.247972,-47.76311,-0.410054,-42.53566,-6.395428,-30.137042,-0.124149,-14.626542,4.549925,95.163031,51.144979,-105.689592,-52.273468
56,0.499191,-3.240507,4.59137,1.637374,0.0,-64.056358,-25.4916,-84.215126,-23.574142,-86.155815,-19.884109,-77.309875,-14.472427,-61.226349,0.0,-2.546494,-8.168622,-2.002504,1.373545,9.439724,11.635661,14.504987,22.968189,22.414936,0.0,58.906631,15.666504,65.159569,1.657047,13.939991,-9.689026,3.892593,-19.93927,-5.427933,0.0,-6.706589,-46.959058,-1.593871,-42.718256,-7.033125,-30.538419,-1.881473,-15.261429,3.85656,95.802584,48.529494,-100.957861,-50.011072
57,6.4888,-11.102415,2.701492,3.809414,0.0,-62.364349,-24.310455,-85.529709,-22.489243,-88.152466,-19.507256,-80.530701,-15.826263,-64.386177,0.0,-6.253402,-14.19571,-12.397198,-3.272895,3.10407,8.941429,10.816727,22.828695,20.919866,0.0,57.973766,17.045574,62.814445,3.502522,16.291294,-7.559338,5.662251,-17.695827,-3.369427,0.0,-9.515584,-45.402207,-0.971828,-41.683226,-4.751385,-29.834465,-0.321442,-15.105972,6.003468,102.681885,38.730275,-97.865868,-44.898462
58,7.049561,-14.067577,4.67886,8.023787,0.0,-62.617722,-29.391632,-92.458649,-27.681885,-97.677727,-24.478111,-89.738731,-20.356064,-71.935616,0.0,-6.525691,-12.891109,-9.208623,0.382112,6.828391,15.381256,16.819793,31.533064,27.221341,0.0,58.238239,20.405731,67.298069,6.464367,18.38768,-5.775032,6.174488,-17.339344,-2.691193,0.0,-2.160709,-44.114309,8.873689,-41.612615,-0.573044,-30.324454,-0.160798,-16.619753,5.008699,111.095409,24.817012,-91.823044,-36.720361
59,-0.661354,-4.455508,1.860123,4.40336,0.0,-60.857391,-33.21682,-92.815132,-32.54528,-98.597832,-29.780731,-92.394562,-25.089684,-75.652542,0.0,-2.83669,-12.253505,-6.668303,1.819599,10.216482,17.079701,20.010345,32.923683,29.339072,0.0,58.129063,27.669582,70.038815,13.833275,23.484707,0.253487,10.537949,-12.514973,0.598297,0.0,1.239732,-37.332045,18.378652,-35.074882,6.802364,-24.368719,7.031149,-11.600432,11.239532,114.51396,18.791638,-85.883017,-33.886866
60,-5.837517,-2.587034,2.097473,3.656983,0.0,-58.163223,-30.931664,-90.32856,-29.050941,-95.451851,-25.148849,-89.158859,-19.984474,-72.091827,0.0,-2.206435,-11.248548,-3.682764,3.057911,14.317914,18.845732,24.278039,34.89701,32.802529,0.0,61.490307,30.914555,69.595814,17.086143,21.564102,3.521061,9.029846,-9.550209,-2.508602,0.0,10.927631,-36.611603,20.256976,-34.878516,1.788415,-25.566245,4.264236,-13.897826,8.209069,111.512032,15.084993,-80.949955,-31.349495
61,-0.295372,1.870698,13.663845,-13.327808,0.0,-55.726662,-33.340416,-93.202972,-32.892838,-98.778534,-30.3899,-91.893196,-26.544571,-75.740776,0.0,4.485396,-10.992006,-1.386914,4.49509,16.339344,20.469953,26.700045,35.864053,35.82549,0.0,44.049454,31.699905,82.128639,14.013863,17.104626,-2.822342,2.836361,-16.999111,-7.998333,0.0,12.579022,-33.150338,-48.908858,-33.701306,9.765704,-25.523607,4.735299,-15.754815,5.569331,111.688299,17.097593,-66.81447,-44.535401
62,-3.470535,2.630166,32.797738,-33.857411,0.0,-54.843407,-32.734451,-91.928444,-32.217979,-97.613983,-29.385452,-90.87101,-25.044022,-73.952065,0.0,3.68051,-10.714345,0.277661,4.796741,18.623554,20.722512,28.798571,36.219581,37.765873,0.0,12.157287,16.13451,39.612178,-8.892832,-2.938357,-30.442973,-17.92574,-46.573191,-38.066855,0.0,12.973082,-28.999892,-35.499262,-31.678255,5.320323,-25.80214,11.474971,-15.612998,13.411495,108.263884,19.921501,-33.970613,-78.19907
63,-3.496056,2.570762,32.797737,-33.857411,0.0,-55.720596,-31.818008,-89.937401,-30.333366,-95.65567,-26.740837,-88.152008,-21.74057,-70.314217,0.0,3.538329,-9.84564,2.89594,5.651676,21.136209,21.553549,31.155244,37.136358,39.765938,0.0,-19.734879,0.569115,-2.904282,-31.799526,-22.981339,-58.063602,-38.68784,-76.14727,-68.135376,0.0,13.367143,-24.849446,-22.089666,-29.655203,0.874942,-26.080672,18.214643,-15.47118,21.253658,104.944696,21.811002,-0.996008,-112.737743
64,0.11879,3.237667,-12.302485,-19.121841,0.0,-58.583794,-31.119576,-89.647865,-28.925972,-96.581726,-24.833221,-88.380318,-19.78054,-70.63385,0.0,3.129573,-9.307609,2.273094,6.1764,21.057508,21.90531,30.625765,37.432667,39.587201,0.0,5.839663,0.861025,3.912821,-29.39352,-17.030353,-54.485893,-37.667827,-74.094171,-64.779682,0.0,22.379098,-28.406031,-9.747913,-31.96338,9.246468,-27.051335,13.964824,-16.793496,13.866695,104.830027,23.517706,-13.531952,-133.390546
65,-0.908203,1.707214,-12.302484,-19.121841,0.0,-59.43718,-30.359116,-88.377113,-27.964096,-94.820137,-23.83564,-87.729034,-18.574905,-69.400635,0.0,2.040295,-9.028034,2.474586,6.064014,20.734677,21.907379,30.570684,38.220232,40.573973,0.0,31.414204,1.152935,10.729923,-26.987514,-11.079369,-50.908184,-36.647816,-72.041073,-61.423988,0.0,31.391053,-31.962615,2.593841,-34.271556,17.617995,-28.021997,9.715007,-18.115811,6.479733,103.053932,24.494706,-26.702328,-153.242601
66,1.146812,1.85844,-36.440449,26.519178,0.0,-59.470367,-31.263885,-90.090294,-29.611702,-96.919899,-26.003952,-89.233131,-21.361885,-71.368675,0.0,2.644739,-8.646447,2.434109,6.755495,20.648072,22.448745,30.708881,38.162773,40.555756,0.0,68.641434,10.639057,33.802071,-10.448112,2.788353,-28.236923,-17.168655,-44.505215,-27.39933,0.0,6.680885,-61.08502,-29.099866,-67.800686,-12.563245,-61.293289,-14.195663,-49.444497,-19.216126,103.875303,25.865472,-63.468218,-127.211097
67,-3.518944,-0.422867,-13.076477,-2.889302,0.0,-58.071785,-29.771919,-87.207413,-27.239914,-92.812958,-22.877083,-85.12207,-17.500648,-67.43557,0.0,3.469231,-8.28743,5.074247,7.318782,22.831628,23.452467,33.124743,39.46756,42.11764,0.0,68.605042,20.339642,47.29414,3.393688,21.39164,-12.513485,3.867702,-26.150208,-5.033798,0.0,9.104774,-51.516485,-7.696679,-53.729728,-2.290014,-45.438485,-1.564061,-32.404393,-1.764734,100.20956,25.378617,-76.691494,-130.164388
68,-1.658134,1.134293,3.881321,19.042546,0.0,-61.884499,-26.663017,-84.641304,-22.55024,-90.156898,-17.45739,-82.324219,-12.084618,-64.583015,0.0,1.73037,-9.059804,4.855589,6.232315,22.552455,22.549707,32.523016,39.264277,42.188406,0.0,50.052967,22.297325,63.229465,6.443253,45.38166,-9.196701,9.098797,-23.982811,-5.484467,0.0,-7.17793,-40.646653,-46.268966,-42.519883,19.377372,-33.50301,12.007337,-21.731128,8.059942,98.473692,26.691415,-72.887907,-110.943337
69,-0.105629,0.140575,6.413612,-7.566185,0.0,-60.141335,-27.645721,-84.622421,-23.9431,-90.173607,-18.75103,-81.533089,-12.935143,-63.785706,0.0,2.721402,-8.404756,5.695796,7.057208,22.641807,23.217846,33.125268,39.453357,42.642673,0.0,45.808353,18.865128,62.487431,5.596046,46.509075,-8.081474,22.935276,-19.459362,3.282108,0.0,-7.325791,-12.500213,-13.628825,-6.152579,53.242903,4.557366,56.39906,14.433449,52.678535,96.918097,29.072758,-67.924261,-116.268755
70,-1.220398,1.711258,0.925427,32.634645,0.0,-56.689453,-27.109451,-83.434639,-23.917694,-89.026108,-19.344177,-80.947495,-14.174881,-63.883438,0.0,3.57186,-8.299502,4.689759,7.115562,22.291312,23.071621,32.290618,38.996744,40.751104,0.0,51.353302,25.983581,56.19215,10.695047,27.933483,-3.968869,9.609232,-16.426735,-4.983015,0.0,5.122552,-17.744282,14.310588,-15.064407,33.698604,-6.805143,32.856622,2.285043,31.683102,94.444628,31.139282,-68.251905,-83.278844
71,-0.119591,1.273046,0.925426,32.634645,0.0,-59.508247,-27.04834,-84.27887,-23.12851,-89.350891,-17.723694,-80.826187,-11.813164,-63.515167,0.0,2.541122,-8.455607,6.606306,7.016792,23.969133,23.433448,34.53892,40.038813,42.230242,0.0,56.898251,33.102036,49.89687,15.794048,9.357891,0.143738,-3.716812,-13.394108,-13.248138,0.0,17.570894,-22.988351,42.250002,-23.976234,14.154306,-18.16765,9.314185,-9.863362,10.687669,94.255629,33.085114,-67.395887,-49.971413
72,-2.037392,1.782981,0.428524,-3.319826,0.0,-59.874229,-26.825752,-82.150841,-22.785873,-86.807213,-17.054214,-78.966637,-10.581207,-61.774063,0.0,3.219759,-6.636903,8.074854,9.081787,25.810622,25.237363,35.819469,41.255203,44.216259,0.0,50.206375,27.115917,45.288734,10.623436,11.462288,-5.146351,1.205063,-18.795261,-8.574371,0.0,21.939273,-35.499139,26.354798,-35.997094,-0.352842,-29.096702,-0.020254,-18.707256,3.204816,92.092438,35.02207,-67.093163,-53.137264
73,1.013031,1.922784,21.276512,-20.199177,0.0,-58.589287,-26.957932,-84.19899,-23.601151,-89.718704,-18.827591,-80.667801,-13.415451,-62.978325,0.0,5.754799,-6.433559,6.423803,8.845345,25.380932,24.401138,35.859329,40.013495,43.973487,0.0,44.489708,22.7108,54.989433,4.185619,25.187073,-13.632259,1.978912,-29.670582,-16.181602,0.0,7.017533,-37.286875,-59.465122,-41.725093,10.953813,-35.762813,11.510215,-26.039222,6.01591,93.095284,37.30117,-45.826836,-72.980126
74,-1.096573,2.0842,-1.551876,-6.562957,0.0,-59.464073,-26.513901,-83.654251,-22.733459,-89.635506,-17.636375,-80.918312,-12.03495,-63.241882,0.0,4.08445,-7.103088,8.168375,8.636443,26.719465,24.697973,36.547506,40.584316,43.867277,0.0,27.643261,18.653927,44.926357,1.450539,3.12149,-16.274872,-12.61116,-32.515812,-27.372952,0.0,4.640821,-39.316163,-42.171904,-45.372999,-12.123983,-41.785794,-17.385149,-34.666558,-21.076743,92.62393,38.217469,-46.753492,-80.710984
75,-0.412102,1.169831,38.449688,-21.960176,0.0,-57.320023,-27.25502,-84.805756,-24.006729,-91.204605,-19.249763,-82.58194,-13.782005,-65.116882,0.0,5.464881,-7.055386,7.777681,8.836391,26.521555,25.025867,36.935453,40.923264,44.187205,0.0,16.152191,9.078026,19.82048,-17.85965,-9.148636,-43.298092,-35.688114,-64.754906,-62.192001,0.0,-16.557555,-49.382978,-42.519836,-52.993617,-15.301536,-47.600012,-9.843294,-37.960248,-13.395424,92.248077,37.167449,-8.267555,-104.89101
76,-3.179169,1.02339,-15.959244,1.569757,0.0,-55.466995,-28.154068,-84.534187,-25.190277,-90.268936,-20.557022,-82.20417,-15.042,-65.303078,0.0,6.769265,-5.642166,8.468359,10.448942,27.476896,26.470271,37.408122,41.780452,44.71795,0.0,33.083382,-1.895485,10.419388,-24.816914,-10.990906,-44.786453,-31.390285,-63.483639,-47.684441,0.0,-12.8414,-61.826473,-21.338441,-66.983373,-20.462743,-60.961797,-22.886571,-49.83408,-30.187661,89.141722,37.377123,-24.153986,-104.134969
77,-3.380699,1.488092,-9.419804,1.74766,0.0,-59.571762,-25.259171,-81.911774,-21.343575,-88.082428,-16.359215,-80.427818,-11.058083,-62.786636,0.0,6.151329,-7.074065,8.163775,8.714867,27.82489,24.976251,37.818608,41.151864,44.287951,0.0,36.551685,-4.033699,20.369625,-22.875881,-1.905727,-39.891644,-21.666527,-55.934658,-38.004513,0.0,-14.821149,-66.855303,-25.476337,-69.871502,-30.345125,-63.355892,-37.889404,-52.257923,-36.123065,85.810061,38.788182,-33.524752,-102.464342
78,-0.090523,0.6364,-14.353752,-6.677473,0.0,-61.066017,-25.908279,-82.085495,-22.174873,-89.357529,-17.234344,-81.72123,-11.719208,-63.89843,0.0,4.16948,-6.823081,6.906228,8.800144,27.350832,24.937472,37.925467,41.121267,44.957387,0.0,56.385326,2.879734,32.234631,-14.757328,6.69714,-30.680637,-13.758087,-45.825748,-28.700752,0.0,-8.128021,-59.203254,-13.733384,-62.032364,-16.269242,-55.398039,-21.018034,-44.869131,-23.691426,85.836296,39.098925,-47.761745,-109.467472
79,0.666161,0.392053,-7.366276,-3.968267,0.0,-59.863815,-25.869141,-82.92572,-22.572098,-90.651855,-17.932663,-83.069458,-12.676735,-64.924736,0.0,5.187189,-6.589294,6.068306,8.864704,26.506519,24.84568,37.461906,40.847126,44.522448,0.0,59.288864,7.076969,37.356148,-11.221504,16.023102,-27.290726,-4.240551,-41.015625,-17.420597,0.0,1.759207,-48.377064,2.3643,-47.993671,5.267681,-38.695232,-0.190469,-25.654332,-3.319239,87.307949,39.172115,-54.322529,-113.754602
80,0.398254,-0.576965,-10.510025,11.125572,0.0,-58.479424,-26.344299,-83.170509,-23.21228,-91.634102,-18.549042,-83.996429,-12.988129,-65.527496,0.0,6.750185,-6.864855,7.353579,8.688653,26.9133,24.93213,37.940719,41.245632,44.882731,0.0,55.621719,24.73074,54.408188,6.714306,32.314453,-10.646954,1.227036,-25.37796,-11.326389,0.0,-7.211831,-39.79936,-47.111196,-43.258263,19.897588,-33.760015,8.296044,-20.910866,5.315784,87.354927,38.600553,-65.18383,-102.623627
81,-0.281982,0.03106,2.514324,10.381418,0.0,-58.039055,-26.089783,-82.536507,-22.673836,-90.304413,-17.952576,-82.596016,-12.679138,-64.489174,0.0,5.643555,-7.398286,6.494569,8.021101,27.080581,24.226786,37.803602,40.650389,44.44347,0.0,44.526958,27.289639,61.035519,12.204323,42.615681,-3.572559,6.112404,-18.182831,-7.442493,0.0,-1.766309,-29.926442,-58.247697,-30.763453,40.702599,-19.988516,21.041515,-8.561201,14.390409,86.823778,40.413561,-62.918673,-90.460263
82,-0.304642,-0.542632,4.132748,4.975292,0.0,-63.311348,-25.496063,-81.723518,-21.677513,-89.083099,-16.602631,-81.11412,-10.954628,-62.697487,0.0,2.976493,-7.115963,7.691693,8.761642,28.378729,25.1117,38.592155,41.356597,46.004057,0.0,50.051537,21.893864,71.303215,6.72163,28.400459,-8.53569,-1.310005,-21.626244,-10.821819,0.0,-7.217357,-19.317443,-18.976241,-15.5959,49.059282,-4.604728,31.343151,6.299931,31.815541,86.221991,41.730558,-59.083071,-83.625341
83,0.070496,0.152246,-6.321831,13.163397,0.0,-61.173592,-25.51712,-81.844025,-21.511688,-88.3778,-16.257477,-80.399094,-10.589333,-62.175293,0.0,5.098701,-7.085273,7.262929,8.646077,28.412908,24.88378,39.061458,41.067729,45.965617,0.0,44.236107,30.794678,48.777008,17.549744,22.659645,3.897629,5.510387,-9.346161,-5.013657,0.0,18.225109,-13.661167,49.228602,-10.837475,34.246655,-2.530872,27.087528,6.798659,27.976271,86.170921,42.65368,-65.526466,-69.691067
84,-0.367241,-0.079071,3.04945,12.414642,0.0,-62.119217,-25.639114,-81.027489,-21.827431,-87.585983,-16.562233,-79.708443,-10.650215,-61.389771,0.0,3.572632,-6.10304,7.604965,9.463621,28.634901,25.388651,38.950585,41.336806,46.392961,0.0,44.924526,30.319405,47.957211,13.281841,11.164455,-3.68906,-1.033173,-19.277,-13.017654,0.0,37.381446,-18.191918,48.866343,-20.324376,15.671205,-14.445799,13.879115,-5.027842,13.867259,85.682516,43.841264,-62.598181,-56.009769
85,0.866547,1.141487,-0.0214,3.196232,0.0,-56.035194,-25.147018,-83.090515,-21.976662,-89.349403,-17.515755,-81.004372,-12.55909,-63.524323,0.0,5.825534,-5.896362,6.259794,9.600923,26.482621,25.519562,37.955014,41.411524,45.007344,0.0,43.873959,27.994709,46.711407,10.814724,9.580307,-6.367493,-1.67078,-22.971325,-13.425922,0.0,38.347037,-25.879999,45.602648,-25.911276,9.223752,-18.094106,8.252912,-7.499526,10.025087,86.515875,45.969924,-62.652769,-51.826364
86,0.383835,-0.076972,-2.556667,2.952689,0.0,-57.407112,-25.235023,-83.346634,-21.95549,-90.360947,-17.493324,-81.929283,-12.573853,-64.17778,0.0,5.081534,-5.72414,6.439673,10.08341,27.305353,26.110976,39.016164,41.911425,46.100418,0.0,46.88324,33.518143,74.754295,16.605091,16.783161,-0.455132,1.524982,-15.917816,-9.398689,0.0,18.95114,-26.936178,-26.452147,-31.380849,12.700145,-25.915814,9.51861,-17.549683,8.268442,86.709995,47.172792,-65.399151,-47.593837
87,-0.719604,0.363401,-1.064701,-1.227135,0.0,-58.903198,-25.07,-82.948723,-22.062149,-90.509949,-17.788696,-82.003212,-12.893372,-64.401398,0.0,4.81258,-5.85431,6.159758,10.05553,26.947849,26.098843,38.674962,41.740037,45.530308,0.0,51.502361,32.052555,48.743534,15.017738,9.641075,-1.007023,-3.885784,-16.054401,-12.880096,0.0,25.120716,-30.815987,28.309168,-31.576228,4.606087,-25.434161,2.425278,-16.313934,5.163971,85.822678,47.638174,-66.631565,-48.718991
88,-2.14222,-0.209674,-2.920303,-1.056426,0.0,-59.450569,-24.32373,-81.437874,-21.058044,-89.07589,-16.591873,-80.949326,-11.554527,-63.698158,0.0,4.284923,-5.749087,7.27741,10.317351,28.003472,26.495465,39.08162,42.166701,45.768911,0.0,49.687328,30.718861,53.580151,14.635334,12.508392,-1.729031,1.887989,-17.971001,-9.634323,0.0,34.830227,-35.171676,35.720761,-35.246394,1.563798,-27.154775,2.580704,-15.629863,5.389761,83.597174,47.577025,-69.635153,-49.626892
89,-0.479507,-0.0134,-0.114727,-1.769829,0.0,-59.702911,-25.118065,-81.165733,-21.785545,-89.102211,-17.000427,-80.93399,-11.431389,-63.436775,0.0,4.222154,-5.532528,7.691662,10.227968,28.395526,26.250687,39.413281,42.044096,45.687463,0.0,48.831024,31.904068,52.354431,15.640068,13.483372,-1.042728,2.94136,-17.628651,-8.173199,0.0,35.244634,-34.441231,37.8141,-34.198644,4.922805,-26.010416,4.710723,-14.138961,7.936533,83.085508,47.91091,-69.782038,-51.049436
90,-0.074844,0.039119,0.770702,0.09278,0.0,-58.205452,-25.228615,-81.64135,-21.947937,-89.534454,-17.106743,-81.286583,-11.539421,-63.61393,0.0,4.838361,-5.504123,7.74838,10.088906,28.316701,26.029775,38.970376,41.915562,45.254654,0.0,46.63496,31.435547,52.622395,15.366955,12.0191,-1.355209,1.644287,-18.240852,-9.04129,0.0,35.419666,-33.080128,36.491005,-33.566165,5.173666,-26.019802,5.530398,-14.935109,7.36562,82.913189,48.118468,-69.10881,-50.788216
91,-0.113297,-0.058509,0.87038,0.124581,0.0,-56.318893,-25.391579,-82.247429,-22.076912,-89.91909,-17.320175,-81.707153,-11.905174,-63.981171,0.0,5.908187,-5.377689,8.367243,10.138337,28.674946,26.002388,39.228709,41.77119,45.651802,0.0,46.466789,29.721508,51.492004,13.73497,9.716034,-2.700405,0.282154,-19.22533,-9.701271,0.0,35.858958,-31.366616,37.346618,-31.729739,5.118121,-24.102205,5.650533,-13.470482,8.204005,82.691545,48.20515,-68.346777,-50.518444
92,-0.141106,-0.019081,0.083027,0.628527,0.0,-56.674347,-25.231361,-82.455711,-21.665497,-89.811745,-16.706085,-81.478271,-11.1446,-63.332176,0.0,6.194585,-5.548522,8.691741,9.770984,29.155117,25.561027,39.337915,41.421744,45.896364,0.0,46.59914,29.706459,51.475468,13.24791,10.854435,-3.604259,0.261497,-20.574818,-9.838314,0.0,36.162616,-31.520405,37.551167,-32.007492,4.744593,-24.236203,4.839164,-13.164601,7.821709,82.461348,48.345077,-68.352842,-49.73091
93,-0.461426,-0.200349,-0.447006,1.745962,0.0,-57.00016,-25.291557,-82.208405,-21.622467,-89.531136,-16.5271,-81.267242,-10.757217,-62.479248,0.0,5.789101,-4.968376,9.205566,10.278727,29.497122,25.95657,39.548391,41.688012,46.182917,0.0,46.719418,28.983192,51.85358,12.589531,10.358963,-4.134007,0.188084,-20.919971,-10.268955,0.0,35.402036,-32.221581,36.217636,-32.941097,2.88254,-25.217911,3.054824,-14.338631,5.517801,81.965961,48.326984,-68.833809,-47.802692
94,0.147171,0.425862,-0.536728,-0.219615,0.0,-56.204224,-25.589218,-83.208275,-21.770782,-89.695816,-16.457863,-81.0252,-10.557632,-62.370758,0.0,7.053688,-5.987196,9.869229,9.275221,29.421015,25.135968,39.377404,41.165171,45.396155,0.0,47.598896,29.317703,52.435513,13.480854,10.31147,-3.112736,0.819511,-19.951973,-9.923801,0.0,36.83832,-30.949245,38.128502,-31.758299,4.378135,-24.175719,4.298415,-13.450506,6.41593,82.037258,48.833461,-69.446411,-47.941692
95,-1.029396,0.706857,1.052742,-0.089939,0.0,-56.6605,-25.758133,-82.238045,-21.919556,-89.109993,-16.631584,-80.857201,-10.656395,-62.247162,0.0,6.770964,-5.694345,9.568288,9.647051,29.576718,25.501654,39.57729,41.464815,46.753954,0.0,46.60841,28.474903,50.601482,12.18235,9.525204,-4.402485,-0.057335,-20.944462,-10.788174,0.0,36.358149,-30.728611,37.513221,-30.93461,5.419587,-23.075697,5.781845,-12.265762,8.228366,80.901947,49.588884,-68.499584,-47.983065
96,0.021515,2.25599,-0.18219,1.633792,0.0,-57.10865,-26.135216,-83.766975,-22.592239,-90.035362,-17.537498,-81.453323,-11.74118,-62.354736,0.0,6.327287,-6.230339,8.802676,9.255244,28.056022,25.156778,38.502308,41.052569,46.495868,0.0,47.896786,26.85585,49.271908,9.878197,9.467583,-6.95549,-0.537815,-23.708725,-11.372509,0.0,35.700476,-29.590581,39.231426,-29.480357,7.062209,-21.242481,7.07141,-10.197772,9.705806,80.874424,51.939213,-68.730812,-46.254933
97,-1.960716,2.49271,-3.091278,0.502617,0.0,-64.201584,-25.769348,-82.793427,-22.006531,-89.37458,-16.597252,-82.271118,-10.15995,-62.283325,0.0,0.660513,-5.105833,8.711686,10.869832,27.890623,27.196857,39.064854,43.307324,49.550723,0.0,48.315868,26.237583,50.653782,10.230846,8.074951,-5.664082,-1.61974,-21.339855,-12.130795,0.0,37.84621,-26.880294,42.718873,-26.820087,10.879774,-18.919338,9.325825,-7.941072,12.684183,78.953333,54.255425,-71.782465,-45.928814
98,-2.468605,5.783173,-1.481209,-3.13266,0.0,-64.975204,-27.122498,-85.094261,-23.624382,-91.137543,-18.110733,-84.030533,-11.074791,-63.856316,0.0,-0.12029,-4.15713,11.823444,11.426975,30.144884,27.804265,41.200709,44.125424,53.511394,0.0,48.148098,24.945774,51.638546,8.022194,11.913013,-8.00766,0.815849,-22.553558,-10.723228,0.0,39.378145,-18.657609,45.62562,-16.408412,19.312966,-7.278614,20.460999,4.950345,23.128462,76.958227,59.149855,-72.790174,-49.950217
99,-2.290077,6.317592,-1.021156,6.754476,0.0,-65.217133,-28.634377,-89.045563,-25.013924,-95.560455,-19.089317,-88.461685,-11.27758,-65.859375,0.0,-0.397086,-1.479694,16.585728,14.172924,34.991612,30.512515,46.740801,46.570926,59.993057,0.0,48.917255,21.997204,54.632778,5.407677,16.9063,-9.944172,3.313808,-23.239059,-6.290588,0.0,36.7586,-13.543749,42.992335,-11.488633,29.295785,-2.531798,28.345353,10.299722,29.290814,74.952192,63.427399,-73.527288,-45.235789
100,-3.707314,10.920499,-2.990971,5.744394,0.0,-66.267929,-30.552521,-89.831429,-27.087021,-96.818848,-21.119957,-89.021873,-12.936058,-66.953773,0.0,-2.968095,1.832104,23.325415,16.413877,39.966534,32.058838,52.773446,47.023803,66.460209,0.0,45.518246,20.273952,61.760902,4.872665,25.595055,-9.594898,8.590279,-21.885567,-2.433815,0.0,32.103792,-9.090062,43.686132,-4.37372,36.811983,6.477865,35.3087,20.080586,38.187844,71.620302,72.766485,-76.142836,-41.072808
101,-3.840065,14.94221,-10.530453,33.778,0.0,-66.96785,-32.951317,-90.3162,-29.415779,-98.166847,-23.055611,-87.41066,-14.226952,-63.924637,0.0,-2.449824,3.965148,26.582595,17.443256,44.033663,31.901158,58.003737,45.82461,68.761029,0.0,63.292294,34.702549,80.079861,18.279533,33.307743,3.372459,8.132,-9.438515,-2.917728,0.0,12.265515,-25.911276,6.825767,-21.682607,24.944758,-11.00346,21.653122,2.915484,22.924748,68.49987,85.315419,-85.953655,-9.688084
102,-3.43174,15.543598,-3.785191,10.064206,0.0,-65.966949,-34.25354,-93.852997,-30.323868,-99.157848,-23.414154,-86.693916,-13.719749,-60.655746,0.0,1.229945,7.504991,38.193124,20.917921,54.152456,34.190771,64.625202,45.907294,70.568865,0.0,64.011612,30.045834,74.065819,14.295273,24.684906,1.676102,9.585629,-8.698997,1.631413,0.0,19.86554,-19.660992,30.043119,-10.480897,23.816455,2.911532,28.673402,18.200378,33.92052,66.446285,98.504952,-88.360691,-1.977943
103,-6.524277,18.028496,-5.145321,18.633928,0.0,-62.890549,-32.862282,-91.384506,-27.325172,-91.892338,-19.259949,-80.110931,-8.799362,-54.182053,0.0,2.380015,7.905751,42.005316,20.551865,54.121488,32.473893,63.393127,42.379586,68.155504,0.0,73.977184,29.133568,79.894238,16.000214,32.408352,4.655628,18.342876,-5.093422,9.300613,0.0,23.904912,-14.318439,34.747358,-3.276353,28.779953,11.492369,35.041939,27.909859,42.18958,60.679035,115.692901,-92.748985,15.815438
104,-5.351715,22.22598,-1.16621,25.7975,0.0,-59.504013,-30.982933,-84.73978,-27.667809,-90.220013,-22.157021,-82.177906,-14.699593,-58.678894,0.0,1.955018,11.326755,39.30284,18.087992,49.090837,23.104225,47.611482,25.151066,31.975413,0.0,74.717674,28.800774,85.339394,19.235744,36.41264,9.91539,26.954727,1.440582,15.959873,0.0,16.924862,-14.45608,25.788114,-2.451646,24.298664,13.348587,32.804536,30.686805,41.240321,57.059183,137.296761,-92.183332,40.990819
105,-8.942299,18.952745,-6.289272,23.660133,0.0,-53.398933,-30.208969,-80.653839,-25.37487,-81.6675,-18.722191,-72.46273,-10.147362,-48.278961,0.0,-0.618677,12.303214,38.631366,14.276942,42.93926,14.626388,39.336371,11.497309,20.796736,0.0,61.234303,32.001514,94.134579,26.793308,59.835377,19.776192,46.130733,11.718349,31.32082,0.0,13.938704,-8.81799,26.00458,4.649158,36.444692,20.778026,41.894042,36.915415,45.121983,48.441181,154.452076,-98.148308,62.853521
106,-3.987122,19.331275,6.40646,30.419488,0.0,-51.905365,-29.513054,-76.824188,-25.680542,-78.919373,-19.792786,-73.744926,-12.893829,-54.421349,0.0,-4.049654,13.033165,37.776309,13.896251,41.628361,13.217614,35.047496,9.003581,13.471038,0.0,75.322723,27.437897,86.13533,17.739773,71.857796,7.943573,55.590763,-1.564751,34.979553,0.0,10.291046,-9.834371,24.23293,2.096396,35.466658,16.12717,40.397583,31.392921,45.310384,44.862957,171.840436,-91.332951,91.330094
107,-2.771759,17.802335,-3.439121,23.257737,0.0,-49.093895,-27.161522,-72.538433,-23.699455,-75.932522,-18.341331,-73.534584,-12.31041,-56.773567,0.0,-8.386262,13.3794,36.460531,15.407037,41.717961,14.685668,33.250374,10.075321,12.537248,0.0,64.736481,29.77335,91.61871,22.077885,90.781574,12.285404,72.094631,1.480007,43.199215,0.0,-0.502463,-4.623809,16.088885,6.659504,34.146341,18.781419,45.037447,31.264758,50.621784,42.273874,188.873191,-94.589396,113.818251
108,-0.243301,16.562943,-3.210812,22.826935,0.0,-67.222881,-44.761047,-92.767754,-38.676224,-90.018597,-28.931236,-80.825844,-16.904526,-61.423302,0.0,10.536843,18.863639,55.396665,36.337586,68.289534,51.33744,79.836367,62.88699,84.564966,0.0,51.675453,33.227463,90.150375,31.219597,96.156693,27.75547,90.663872,22.369881,68.828144,0.0,-2.362262,-0.555198,12.958386,8.142965,30.24492,16.592953,34.86138,24.030296,33.500278,42.528992,204.846741,-97.301788,136.055794
109,5.56881,10.520047,27.126961,37.034501,0.0,-69.36676,-40.42202,-100.371437,-35.259018,-101.490669,-27.389603,-93.201027,-17.881393,-71.335831,0.0,-12.844456,20.69528,60.332314,37.386231,74.776229,51.706337,81.699994,63.155975,88.871255,0.0,70.211563,23.898754,76.261826,13.659897,71.871872,4.92342,55.178032,-3.743076,36.826057,0.0,-2.93617,5.385562,29.080924,23.246745,40.345311,40.516915,46.473607,55.870847,53.246392,48.423586,214.875101,-69.849043,172.598607
110,-1.342278,9.775522,1.86945,14.123863,0.0,-71.243706,-33.733063,-96.48365,-27.570648,-99.423866,-19.900246,-86.835423,-12.066879,-65.565948,0.0,-19.906048,20.965129,38.394307,38.851136,67.047239,52.299697,81.59224,61.385282,93.002419,0.0,68.005428,22.594528,78.14043,12.037067,69.909611,0.285816,51.332188,-12.288551,26.500454,0.0,-0.382914,11.855338,37.977059,24.53597,52.296486,36.32326,65.612036,47.184046,73.306816,47.341404,223.686993,-67.719498,185.75884
111,-1.986237,11.562332,0.291481,24.715294,0.0,-70.504246,-31.500549,-84.661903,-23.928337,-104.250641,-15.117073,-89.323425,-5.953217,-65.790367,0.0,-14.905685,21.167609,11.082593,37.991817,51.686145,50.60403,78.028932,57.995555,94.029575,0.0,74.262371,34.239922,85.727291,27.944756,66.870632,21.50528,55.489025,14.670525,43.215809,0.0,2.693368,16.999271,51.786613,40.571256,77.284593,60.79044,99.298923,76.375874,108.221734,45.525742,234.520361,-67.257442,209.74517
112,-1.431198,13.018963,-3.221684,12.513289,0.0,-68.279629,-23.694191,-69.271259,-19.011612,-95.627403,-14.390144,-90.667419,-10.090714,-71.189346,0.0,-15.686025,19.539004,-6.652866,38.909552,37.389442,53.795045,70.784683,62.563171,95.499791,0.0,79.32003,31.269951,96.987305,22.590122,91.12175,14.111366,73.660583,6.442623,51.723976,0.0,4.500185,23.394205,54.130843,44.287334,70.748806,60.051288,83.760914,69.991931,88.598503,44.414549,247.273334,-70.159121,221.992469
113,-4.024658,12.78604,2.369556,13.767934,0.0,-62.977924,-22.827873,-63.718243,-18.827133,-85.437469,-14.528503,-80.742359,-10.369263,-67.516708,0.0,-16.762149,23.707033,1.278666,40.57354,39.056827,53.634864,65.895223,61.046951,89.757373,0.0,78.753719,32.842655,92.018337,24.191093,91.04845,15.119476,73.536472,5.954018,44.76511,0.0,3.575472,28.660219,59.168504,47.204979,73.022147,60.831195,85.825045,69.1223,91.98718,40.429802,259.84561,-67.749653,235.546638
114,-3.216248,9.700125,4.377766,12.345204,0.0,-59.21711,-20.773544,-77.175179,-14.067764,-81.002998,-7.958565,-73.902798,-3.514709,-56.968918,0.0,-16.940114,37.302127,18.273058,49.043165,40.512593,54.508077,58.718096,53.263188,77.884498,0.0,75.563965,30.787926,89.957886,20.570469,89.995193,10.508938,73.535271,0.688076,44.690323,0.0,0.638623,30.510076,63.637011,48.180327,80.960842,60.727825,89.797943,67.781451,93.018351,37.373171,269.092024,-63.212271,247.438131
115,-6.397533,27.989609,2.357483,10.808854,0.0,-65.070648,-40.172224,-49.169483,-34.664755,-44.516201,-26.86163,-36.550455,-18.417835,-42.01355,0.0,12.596343,19.548328,23.665351,20.503051,31.800474,18.597896,36.652575,14.282932,42.815821,0.0,75.113525,30.694771,92.386093,20.108128,89.941635,9.867439,73.369331,0.386868,45.315742,0.0,0.10053,30.278327,62.351861,47.925545,79.859647,60.385172,88.855323,67.425831,91.747342,31.154537,297.037822,-60.675888,258.203173
116,-6.397534,27.989609,2.745495,8.461721,0.0,-70.924187,-59.570904,-21.163788,-55.261745,-8.029404,-45.764694,0.801888,-33.320961,-27.058182,0.0,42.1328,1.794529,29.057644,-8.037063,23.088356,-17.312284,14.587053,-24.697324,7.747145,0.0,74.376469,30.495758,89.339046,19.577351,89.925785,9.503975,73.887005,0.587196,48.796177,0.0,-0.949907,30.530083,62.454305,48.308088,82.062284,60.87794,91.599388,68.322323,93.881436,25.027456,325.03058,-57.659941,266.668043
117,3.442039,16.446605,1.894169,6.17535,0.0,-73.123283,-58.26416,-25.094032,-54.578934,-5.263023,-46.819954,2.293968,-35.615044,-3.508301,0.0,35.321359,-1.870605,29.0603,-15.972547,19.072788,-31.37489,5.869871,-44.82271,-9.882104,0.0,72.042046,30.18671,87.451859,19.448833,88.135757,9.187546,71.540451,0.03994,46.548843,0.0,-1.072111,32.253969,63.399518,49.881489,83.978584,61.929673,93.698223,69.002072,95.568519,28.643246,341.475224,-55.592022,272.841432
118,-2.691078,0.216312,0.185966,4.743234,0.0,-60.836277,-52.244625,-27.678909,-50.607433,-7.699356,-45.089149,3.278847,-36.769066,2.156296,0.0,32.548395,4.984185,35.308268,-9.229896,27.886918,-24.775624,13.763549,-39.234668,-1.577476,0.0,72.222633,29.525013,88.326416,19.173489,88.399544,9.125462,73.110352,-0.20113,49.006691,0.0,-0.717849,31.606454,62.939231,48.797769,81.913157,60.804704,93.21484,68.325534,96.768762,26.172237,341.63258,-55.185986,277.52571
119,-7.997246,0.128503,2.462711,3.033859,0.0,-54.171524,-53.043079,-12.673759,-49.824829,7.000122,-42.452946,15.809212,-32.670593,12.718048,0.0,34.547071,7.585853,36.15925,-6.893692,27.257311,-22.619299,15.386227,-37.152012,0.329253,0.0,70.305233,28.708763,86.474934,17.950916,86.005497,7.270603,70.394039,-2.774448,46.418438,0.0,1.43792,33.95896,66.53928,50.472502,83.236344,61.926462,94.10559,69.010902,98.425711,18.305025,341.725823,-52.593241,280.52431
120,-11.713257,-4.590032,0.374165,4.069352,0.0,-35.289974,-43.023834,4.826546,-40.099125,22.575302,-32.933464,28.363495,-24.154129,20.37014,0.0,35.23954,11.200351,39.553424,-0.375196,33.379556,-12.80049,21.737812,-24.869114,8.634004,0.0,69.174957,28.945084,86.234779,18.689461,85.964699,8.333931,71.00647,-1.540604,47.93129,0.0,0.528028,33.546776,64.82163,50.064517,80.994372,61.629505,91.403948,69.000713,96.19121,6.498413,337.112882,-52.312431,284.570753
121,-13.761177,-25.011634,-1.382389,1.320224,0.0,26.234322,-14.18478,36.70166,-22.155933,40.027885,-26.650715,28.899765,-27.846336,3.935966,0.0,-12.256531,6.877823,33.049191,23.318746,52.439994,37.106317,63.816149,48.269988,72.3742,0.0,70.251331,29.183064,87.115688,19.943218,87.304859,10.051861,74.160061,0.216007,50.91711,0.0,0.293129,31.88853,63.64263,48.041265,78.890103,59.370613,87.902267,66.96085,93.785105,-7.401409,312.072951,-53.833466,285.86268
122,-4.848175,8.360388,1.085186,-0.431821,0.0,33.572159,-8.405228,43.507004,-16.793804,46.538658,-22.180195,33.525467,-24.165974,4.335938,0.0,-32.781441,1.239269,30.242758,17.316174,43.738496,30.827411,53.687105,41.169308,62.228854,0.0,69.522171,28.005466,86.717606,18.527527,86.675034,8.580666,73.251457,-1.160603,50.284538,0.0,0.658939,32.219142,63.122877,48.699092,77.859612,60.206405,86.168871,67.750576,92.379234,-12.40056,320.435562,-52.899256,285.433082
123,-8.289413,-8.916945,0.652428,0.205876,0.0,27.123184,-6.212139,53.674507,-13.553467,52.987289,-16.608696,44.580002,-15.633945,9.339638,0.0,-23.2536,9.93947,38.155888,26.696432,51.275443,39.181501,57.112647,48.399047,68.360114,0.0,68.123474,26.961136,85.731468,17.688904,85.590363,7.934933,72.145844,-1.757298,49.818764,0.0,0.73236,31.387426,62.03749,47.803834,77.066675,59.329919,85.479613,66.935656,91.566351,-20.767508,311.5249,-52.324362,285.645241
124,2.428551,-6.988726,1.016235,0.012165,0.0,38.863106,-4.218292,53.069115,-15.776711,54.929237,-23.199177,38.062477,-27.519321,1.578255,0.0,-13.944108,7.835016,41.644848,25.491558,55.795202,39.413559,62.556687,50.563522,72.569578,0.0,68.112488,25.498409,85.632706,16.081295,85.101357,6.379967,71.391563,-3.157654,48.8871,0.0,1.257671,32.391673,62.541435,48.837598,77.146889,60.162315,85.911002,67.55563,91.991812,-18.463125,304.547197,-51.432295,285.668428
125,21.973686,-7.080117,0.005951,0.959478,0.0,-9.053307,-30.657578,25.078697,-41.04229,28.141823,-46.725197,16.245461,-49.000854,-53.350639,0.0,-10.788538,20.940182,54.96682,40.062741,67.354385,51.95655,71.875874,61.465557,82.691459,0.0,67.575531,27.131767,85.994225,17.944336,86.466866,8.175945,72.0084,-1.767654,48.980598,0.0,1.518134,31.04502,61.635247,47.464516,75.476417,59.045435,85.733531,66.757876,90.915379,3.347969,297.466925,-51.588936,286.627752
126,-20.914536,4.065894,1.190586,-0.144002,0.0,23.29216,-11.178017,53.969193,-21.542072,52.882576,-27.409859,35.960655,-29.114513,-5.978279,0.0,-2.860711,15.012328,53.566877,33.975879,62.106897,47.787841,69.164475,57.811662,73.494167,0.0,66.994457,25.726204,85.811634,16.171017,84.936848,6.078186,70.781193,-4.174118,48.385792,0.0,2.515712,32.36407,62.212429,48.632772,76.282692,59.807806,86.164302,67.109051,91.965877,-17.82074,301.522816,-50.652523,286.473746
127,-4.540386,2.188435,0.02718,0.939224,0.0,21.470661,-6.02211,57.79501,-13.272743,63.945408,-16.690407,47.028751,-16.793976,10.335789,0.0,8.592693,14.77076,51.946917,27.206305,60.962971,36.390815,65.814207,44.159387,72.034387,0.0,67.410736,26.854591,85.856895,17.434731,85.274963,7.335835,70.714989,-3.055,48.273926,0.0,1.7526,30.959742,60.274948,47.274201,74.305691,58.691729,84.350507,66.264861,90.108671,-22.526236,303.712532,-50.790453,287.414251
128,29.171276,-6.604083,0.161362,-0.744216,0.0,-13.870468,-32.510204,20.850792,-43.02721,23.655396,-48.574448,13.791504,-50.870132,-49.882565,0.0,-0.290783,21.275919,55.641876,39.590289,68.83374,51.476687,73.11045,60.69448,82.075745,0.0,67.275238,26.420918,85.669098,16.697788,84.460144,6.340542,69.765015,-3.972073,46.935539,0.0,3.061338,32.220068,62.257753,48.993518,76.784106,60.518183,86.855289,67.953241,91.720542,6.546364,297.107414,-50.727768,286.669001
129,-23.041992,6.327194,0.111008,0.635165,0.0,29.171906,-8.5112,54.208374,-19.988308,50.683708,-27.608929,35.756493,-31.621284,6.844254,0.0,-14.055258,11.804641,48.967583,31.640047,59.688689,46.993978,64.363257,57.778378,69.122794,0.0,67.450562,26.427155,86.184425,16.905098,85.147705,6.670876,70.321541,-3.722191,47.77977,0.0,2.009235,31.530501,60.642239,47.805625,74.901706,58.999925,85.102751,66.230219,90.292687,-16.578684,303.443084,-50.699816,287.312641
130,0.365639,0.575637,-0.135326,0.031678,0.0,12.836723,-9.987774,50.200882,-18.25716,56.911926,-22.539425,38.260002,-23.647499,-8.899727,0.0,15.416237,13.201991,48.933311,25.393004,58.370503,33.538934,63.514498,41.317756,66.757506,0.0,67.560825,26.320896,86.452847,16.551647,84.63232,6.263065,69.485149,-3.879719,47.147083,0.0,2.573942,31.536862,62.119556,48.458204,75.686986,60.196586,85.135972,67.674747,90.40427,-16.283197,304.00475,-50.905294,287.330348
131,15.399055,-7.920293,0.80904,0.424411,0.0,1.212616,-25.013409,30.53215,-36.07235,31.674614,-43.404865,19.011269,-47.159328,-34.285412,0.0,-10.228462,18.789662,53.585279,39.418005,67.044151,53.225768,73.253093,63.230569,81.72383,0.0,66.896667,26.612663,86.174583,16.973476,84.00238,6.540012,68.71685,-3.954048,46.233559,0.0,2.047273,31.252501,60.418085,47.669898,74.850206,59.005791,84.507106,66.281842,89.593549,-0.930719,296.077989,-50.142832,287.74829
132,-16.849594,4.582375,0.236893,0.220264,0.0,21.870117,-10.793781,51.518097,-20.03231,53.550339,-24.53104,38.77739,-26.074791,9.810333,0.0,6.27483,18.198155,52.710831,34.690887,63.279908,46.985271,67.235948,56.400233,69.168798,0.0,66.690559,25.575371,85.643692,15.769444,83.741913,5.551929,68.214111,-4.399509,45.990486,0.0,2.513118,31.001239,61.298275,47.998472,75.216633,59.749637,84.27369,67.244346,89.702353,-17.869091,300.647334,-49.994717,287.955525
133,-1.274185,9.203034,-0.112839,0.005866,0.0,31.193047,-3.577709,62.162361,-14.095001,64.583244,-20.572071,41.254578,-23.068085,-5.121632,0.0,17.622518,9.324497,41.23532,22.29758,50.549196,33.162133,62.085223,43.400968,72.916183,0.0,66.682777,25.150337,85.241203,15.753651,85.11097,5.759869,69.290085,-4.203873,47.451897,0.0,3.073874,30.845566,59.67319,47.654645,73.773711,59.3109,83.094689,66.706253,89.413485,-19.167395,309.828462,-50.131674,287.939485
134,25.488853,-11.476376,0.002689,-0.155117,0.0,-19.309502,-33.28022,19.317513,-43.986111,20.570068,-48.953304,10.148964,-51.083736,-60.348988,0.0,13.657833,20.977726,58.619666,38.040971,69.202143,48.770599,71.57762,57.339518,80.720386,0.0,67.044582,25.517006,85.13483,16.007881,85.044765,6.013641,69.417057,-3.80064,47.518902,0.0,3.422702,30.794375,59.974285,47.667057,74.264689,59.29361,83.830816,66.540885,89.588177,6.269588,298.334549,-50.180855,287.766831
135,-23.259201,8.072261,-0.045033,0.37007,0.0,13.001633,-8.24049,51.37001,-18.719444,50.141258,-24.753056,37.758522,-27.330322,8.200378,0.0,-7.473652,11.394618,43.585973,30.177797,55.145279,45.005923,59.855477,55.709863,62.918236,0.0,66.472778,25.53812,85.060387,15.903397,84.662361,5.71661,69.43119,-4.191856,47.247391,0.0,3.48013,30.692919,60.018745,47.722818,74.037509,59.524927,83.393561,66.941152,89.646284,-16.988325,306.387019,-50.2246,288.11711
136,-1.387939,13.661846,-0.129776,0.449728,0.0,1.38279,-9.097881,51.464882,-15.904198,60.489922,-18.868675,42.858009,-17.767639,-17.641697,0.0,28.191471,3.98179,35.103133,15.362761,42.154969,24.941424,53.546932,33.928702,58.625779,0.0,66.714249,26.180248,85.17437,16.606979,84.537621,6.382828,69.158478,-3.764648,47.257462,0.0,2.950682,30.689399,59.15603,47.324404,73.362762,58.791888,82.875351,66.104434,89.306225,-18.36339,320.03897,-50.341501,288.556943
137,33.600197,-19.270636,0.052643,0.243111,0.0,-30.156212,-41.353226,12.790375,-52.250576,15.426178,-56.535358,5.427475,-57.984924,-65.207119,0.0,0.777993,19.443599,53.894895,36.994795,64.356403,47.940118,67.423978,56.570046,77.836147,0.0,66.980324,24.780006,84.639816,15.073414,84.395256,5.092449,69.165916,-4.274769,47.116814,0.0,4.000994,30.219664,60.075617,47.516386,73.82552,59.514491,82.816936,66.998641,88.718546,15.226679,300.767176,-50.298986,288.798896
138,-31.321907,5.707652,0.306587,0.162589,0.0,20.431137,-8.083763,50.776634,-20.934505,49.409523,-29.368057,32.927742,-33.75864,-8.111343,0.0,-18.374082,10.673188,45.668876,31.509074,55.765562,46.558329,60.958216,56.882874,62.235214,0.0,66.847115,24.533157,84.770737,15.079994,84.378777,5.299015,68.851204,-4.256001,47.107086,0.0,4.510929,30.190332,58.31746,46.940811,73.09915,58.484186,82.668426,65.84996,88.721016,-16.100006,306.449464,-49.997177,288.936121
139,-2.182503,0.574279,0.150547,-0.070951,0.0,10.861359,-12.430573,50.733833,-17.887917,57.296906,-18.896198,45.181503,-17.090721,7.360039,0.0,21.788201,18.577117,48.72688,27.154497,53.601581,32.02364,56.848109,36.563283,58.575515,0.0,66.214428,24.269714,84.972782,14.382648,83.713818,4.384689,68.429317,-5.096798,46.455746,0.0,4.407436,30.504827,59.975396,47.469641,74.02732,59.084029,82.882391,66.257698,88.680569,-18.289948,307.012335,-49.854069,288.853762
140,21.009178,-8.989934,0.131664,0.427066,0.0,-10.773468,-28.999901,25.106163,-40.244293,26.264648,-46.015205,13.883972,-48.555164,-46.454372,0.0,-2.618279,22.082935,55.077415,41.403095,66.78974,53.518465,70.640248,62.293322,79.577138,0.0,66.968651,23.857498,84.134674,14.487705,83.926964,5.085526,68.234253,-3.806648,47.049637,0.0,4.49333,30.179217,58.83252,46.962917,72.937425,58.502896,81.806699,65.664338,87.673297,2.702665,298.013478,-49.73897,289.271904
141,-20.368996,5.370495,0.167542,-0.323387,0.0,21.969223,-12.594223,50.745392,-22.462692,52.015915,-26.76384,38.992424,-27.329292,13.007927,0.0,3.422702,16.855948,52.561395,33.067469,60.33818,45.283553,65.421844,54.660044,68.079891,0.0,66.455841,24.197388,84.443092,14.546013,83.626213,4.780197,68.474007,-4.482365,46.65287,0.0,4.462332,30.589919,59.807559,47.643283,73.72604,59.316643,82.204557,66.519088,88.496491,-17.644787,303.385131,-49.549885,288.949675
142,0.400085,14.581125,-0.329075,-0.022724,0.0,14.82811,-10.425797,54.540253,-17.7915,58.936157,-21.242294,38.021965,-20.883808,-14.749146,0.0,33.584258,6.102917,40.339136,15.860285,45.525429,23.83356,55.623289,31.850307,65.336752,0.0,66.566219,24.463806,84.566288,15.011959,84.297123,5.360069,68.720913,-3.828278,47.226505,0.0,4.75015,30.668404,58.669993,47.581471,73.420314,59.085017,82.346212,66.169951,88.278636,-17.229338,317.957209,-49.863596,288.917905
143,21.173859,-21.435174,-0.063572,-0.044584,0.0,-14.724083,-31.535397,22.466469,-41.599159,24.732742,-46.262627,14.197311,-47.859936,-48.258533,0.0,11.882817,23.532588,57.541072,41.218153,68.642561,52.49878,71.592687,61.103576,81.13152,0.0,66.674881,24.974041,84.893303,15.496216,84.472389,5.73801,69.26857,-3.62812,47.595863,0.0,4.841603,31.022604,59.497201,48.142412,73.602169,59.764395,82.216907,66.921206,88.654017,3.94927,296.540005,-49.922419,288.89129
144,-21.386604,11.275255,-0.364094,-0.127329,0.0,8.512917,-8.914375,50.696297,-19.105968,52.987061,-24.213753,38.294334,-25.47718,5.660019,0.0,1.032282,11.273649,44.882978,28.458171,55.036104,42.093218,60.859539,52.617773,63.166534,0.0,66.953144,25.351238,85.230961,15.893097,84.806156,6.088314,69.57201,-3.410225,47.879734,0.0,5.117812,31.489808,58.825357,48.480434,73.572158,59.917907,82.718752,66.926146,89.073858,-17.436161,307.822052,-50.285339,288.770754
145,25.957832,-9.130292,-0.266361,0.374331,0.0,-19.839592,-34.479675,16.383133,-45.24107,20.227203,-50.225658,9.374542,-52.243595,-65.32299,0.0,7.579554,20.940861,58.156909,38.10198,67.929282,49.387177,70.993955,58.858023,82.06957,0.0,66.009865,24.592209,86.340523,14.950504,84.755859,5.703392,69.659958,-2.575321,48.81031,0.0,4.519327,29.934315,59.47139,47.503233,74.219364,59.577538,83.641427,66.917686,88.069734,8.532658,298.695913,-50.540714,289.149237
146,-31.873169,6.712146,-0.251369,-0.037668,0.0,33.746681,-0.544052,61.962318,-11.50629,60.67028,-19.796104,44.132309,-24.23996,7.673378,0.0,-12.467346,11.921349,49.878772,31.324996,59.500721,46.054692,63.030128,56.174535,66.596584,0.0,65.829334,24.820576,86.585026,15.296688,84.794025,5.948811,69.460087,-2.659836,48.907185,0.0,5.043033,30.369532,59.13343,47.688793,73.950626,59.544687,83.799817,66.849329,88.146799,-23.325262,305.412196,-50.776834,289.115707
147,24.904747,-7.611356,-0.066319,0.01834,0.0,-9.02195,-29.527245,23.460503,-39.511585,26.690941,-44.008884,16.406593,-45.376797,-54.407101,0.0,7.56776,21.997288,58.110596,39.303828,67.963121,50.562287,71.350069,59.814043,82.789951,0.0,66.466713,24.498768,85.946732,14.753609,84.679756,5.272293,69.501915,-3.445873,48.625374,0.0,5.080639,29.757956,59.278296,47.297852,74.066285,59.315161,83.688357,66.683405,88.196508,1.579428,297.79993,-50.84321,289.133136
148,-21.213226,10.144543,-0.245762,-0.329994,0.0,16.413231,-8.756332,55.34729,-17.757511,55.779991,-22.071133,42.011833,-22.790909,14.813805,0.0,-5.073043,13.044836,47.579001,29.556649,55.390367,42.44359,59.777363,52.173294,62.251764,0.0,66.165562,24.477539,86.017399,14.838524,84.561367,5.517139,69.262905,-2.968712,48.676243,0.0,5.402235,30.331679,59.884191,47.704849,74.514469,59.511404,83.70503,66.710761,88.005946,-19.603214,307.940274,-51.058388,288.798943
149,-0.327187,9.482023,-0.352764,-0.300416,0.0,28.493271,-4.344978,55.680428,-13.867035,58.927917,-19.467831,38.498726,-20.505924,-8.05624,0.0,23.289971,4.395827,37.287616,18.295659,47.172498,30.175142,59.355237,40.644245,66.106657,0.0,66.41407,23.411865,86.163712,13.59169,84.706306,4.49913,69.569664,-3.512592,48.590126,0.0,5.82751,30.507915,60.328547,47.944996,75.417445,59.809411,84.724591,66.909721,88.366754,-19.928713,317.408449,-51.409464,288.484679
150,0.276489,-20.099574,-0.837879,0.304615,0.0,18.916397,-7.858486,48.434944,-18.853168,51.21563,-28.162136,31.530991,-34.836502,-27.701683,0.0,-9.333451,17.218238,52.037628,37.99225,63.382228,52.231339,70.661367,62.620784,80.111403,0.0,66.145992,24.169178,85.273991,14.761963,85.652676,5.812225,69.945889,-2.118473,49.17429,0.0,5.764586,29.801366,60.019795,47.326319,74.885527,59.39272,83.915228,66.799373,87.634023,-19.722805,297.170569,-52.317924,288.650989
