takenoko1/special-research/HandMotion_SimilarSearch_自分用/NewProject/handData/test_key/d4_feature_d2/153.csv
frame,vel_0x_L,vel_0y_L,vel_0x_R,vel_0y_R,posFromWrist_0x_L,posFromWrist_1x_L,posFromWrist_2x_L,posFromWrist_3x_L,posFromWrist_4x_L,posFromWrist_5x_L,posFromWrist_6x_L,posFromWrist_7x_L,posFromWrist_8x_L,posFromWrist_9x_L,posFromWrist_0y_L,posFromWrist_1y_L,posFromWrist_2y_L,posFromWrist_3y_L,posFromWrist_4y_L,posFromWrist_5y_L,posFromWrist_6y_L,posFromWrist_7y_L,posFromWrist_8y_L,posFromWrist_9y_L,posFromWrist_0x_R,posFromWrist_1x_R,posFromWrist_2x_R,posFromWrist_3x_R,posFromWrist_4x_R,posFromWrist_5x_R,posFromWrist_6x_R,posFromWrist_7x_R,posFromWrist_8x_R,posFromWrist_9x_R,posFromWrist_0y_R,posFromWrist_1y_R,posFromWrist_2y_R,posFromWrist_3y_R,posFromWrist_4y_R,posFromWrist_5y_R,posFromWrist_6y_R,posFromWrist_7y_R,posFromWrist_8y_R,posFromWrist_9y_R,posFromBody_0x_L,posFromBody_0y_L,posFromBody_0x_R,posFromBody_0y_R
3,37.298183,-14.213525,-4.944706,-1.595816,0.0,-16.840668,-46.384506,15.610313,-54.115105,15.633888,-55.683632,3.302765,-53.610649,-44.35421,0.0,34.374108,12.958262,48.592078,33.739808,58.54359,50.437428,64.471012,63.899326,73.258589,0.0,73.105888,18.987179,82.424355,5.937366,75.341492,-3.016148,60.006409,-9.153786,37.543144,0.0,29.382266,50.233775,64.407594,66.408801,73.658423,73.46817,82.914995,74.026826,86.611004,11.992636,333.435737,-48.756609,321.070156
4,-31.34697,3.464198,-1.498833,1.281012,0.0,39.617615,-18.640823,40.871658,-27.167645,41.247368,-29.065132,28.359489,-26.773052,7.654953,0.0,11.279269,12.461418,37.901909,33.706709,53.540509,50.427054,61.566828,62.038107,65.139089,0.0,75.432014,20.0243,83.945618,7.935276,76.160889,-1.055946,59.651756,-7.68568,38.203812,0.0,28.534371,46.513868,62.426023,62.795846,72.244956,70.344773,81.115773,71.595218,84.334699,-18.581944,337.043474,-49.483051,322.494707
5,-4.275627,5.983368,0.352249,0.429968,0.0,43.826523,-9.373627,47.467346,-17.385406,47.031212,-20.16077,34.305496,-19.478588,14.782677,0.0,6.09316,11.762465,33.665769,31.827089,46.004242,47.607159,52.75103,59.112064,57.065532,0.0,74.382362,19.229507,83.795242,7.702904,75.487747,-0.950317,59.841728,-7.008591,39.730911,0.0,27.458185,46.820089,61.71577,62.262014,71.200201,69.375044,80.156604,70.450489,84.103752,-22.307024,343.060975,-48.580256,322.958807
6,-3.623714,1.532769,-0.022945,0.732854,0.0,47.096729,-5.982113,54.807186,-13.847065,52.271862,-16.75621,34.5928,-16.733265,6.43404,0.0,7.315448,11.543807,33.687567,32.961382,44.659565,48.804438,51.413023,59.923958,59.513874,0.0,73.670368,18.980541,83.296452,7.387047,75.152836,-1.149502,60.272884,-6.952457,40.706577,0.0,27.116335,46.113108,61.301054,62.064104,70.246342,69.839654,78.273155,71.421453,82.254513,-25.409231,344.637663,-48.081694,323.735581
7,-11.157646,-8.900025,0.012474,0.408664,0.0,52.587719,0.575523,75.483685,-9.490185,65.583286,-13.872986,45.298748,-14.808483,16.374836,0.0,13.373534,24.875845,43.684156,44.582871,54.683263,57.122157,64.211104,64.203879,80.43127,0.0,74.543438,18.95256,83.901615,7.64431,75.312481,-0.769672,60.135899,-6.463737,40.552082,0.0,25.273332,44.956214,59.587295,61.18836,69.602471,69.06481,78.39962,70.694897,82.893815,-36.149883,335.806135,-47.652225,324.212742
8,45.219898,-4.952136,1.166954,0.5581,0.0,-5.615616,-43.312626,17.360229,-52.397518,14.928589,-54.62122,3.283882,-53.129139,-30.124569,0.0,24.243829,15.687939,49.253425,38.050974,62.569346,55.245006,68.655343,67.928294,74.621606,0.0,73.497677,18.176422,82.502689,7.125492,74.665318,-0.953865,60.750904,-5.8778,42.058125,0.0,24.6767,44.513587,58.521668,60.883313,68.168565,69.071232,77.078779,71.016802,82.09143,9.189606,330.933487,-46.365681,324.850331
9,-32.222786,10.236428,-0.043488,0.386187,0.0,44.957085,-8.119698,46.079521,-16.656475,45.540504,-20.149498,28.693542,-20.456657,0.907288,0.0,10.904011,11.766603,30.296419,32.41804,46.437421,48.817714,55.194185,60.662864,60.164106,0.0,71.513157,17.69022,83.09824,6.396275,75.300121,-1.659851,61.65556,-6.317825,42.445278,0.0,24.311631,42.085623,58.479493,58.622568,67.670177,67.466401,76.556988,70.212935,81.692275,-22.854223,341.303218,-46.230211,325.369821
10,-11.197872,-2.56505,0.644131,0.124859,0.0,51.492176,-3.667889,70.418873,-12.988987,65.610981,-16.072655,50.211697,-15.721951,29.141636,0.0,11.195658,22.04675,37.197707,40.816158,47.230605,53.564036,54.366606,61.388184,67.441145,0.0,71.016312,17.548599,82.499886,6.311932,74.571075,-1.760559,61.293755,-6.459675,42.049713,0.0,23.881231,42.226475,58.38415,58.704326,67.250645,67.596509,76.293252,70.318158,81.72383,-33.884182,338.755072,-45.418167,325.511585
11,40.675106,-8.020638,0.742035,0.475849,0.0,-4.073982,-42.953854,20.709343,-50.861492,20.7938,-51.971169,10.96035,-49.2449,-26.186142,0.0,27.075024,17.061762,47.828288,39.232136,61.228374,56.08759,67.13054,68.392966,75.807091,0.0,70.943298,16.939945,81.267128,5.757008,73.893013,-2.32481,60.569572,-7.080231,41.304932,0.0,23.404641,41.906053,58.047734,58.302084,66.598252,67.199268,75.555272,69.945741,81.16468,6.803913,330.742277,-44.663143,325.995276
12,-26.819,12.453144,0.010242,-0.001297,0.0,42.963181,-8.625927,40.873146,-17.424946,39.402008,-21.498184,23.975601,-22.274151,-2.301922,0.0,8.643576,9.361795,28.262793,30.474693,45.573101,47.429997,53.586143,59.778227,59.06359,0.0,71.034107,17.097931,81.373272,6.170483,74.003735,-1.688976,61.268864,-6.21809,42.383137,0.0,23.43354,42.462362,58.454792,58.867841,66.252882,67.798988,74.698671,70.566333,80.960965,-19.954576,343.209917,-44.59239,326.008475
13,15.579129,-6.020974,1.226177,0.50907,0.0,22.886696,-26.74098,29.203491,-35.883036,27.82299,-39.007101,14.391918,-38.467055,-15.834475,0.0,15.795663,11.548902,38.575483,33.644959,53.987953,50.993985,60.970999,63.818557,67.356238,0.0,70.449486,17.041798,80.393257,6.534977,73.511696,-0.923424,60.527916,-5.331516,41.843262,0.0,22.603553,41.550802,57.821048,58.314125,66.199344,67.565201,74.846686,70.785238,81.474235,-4.210739,337.207298,-43.201504,326.535901
14,15.579128,-6.020973,-0.23695,-0.271764,0.0,2.810211,-44.856033,17.533836,-54.341125,16.243973,-56.516018,4.808235,-54.659958,-29.367027,0.0,22.94775,13.736009,48.888172,36.815225,62.402805,54.557971,68.355854,67.858886,75.648886,0.0,70.447483,17.419109,80.639477,6.464252,73.625164,-1.492081,60.3158,-6.305523,41.50423,0.0,23.067299,41.774586,57.676182,58.212793,66.246459,67.215509,75.57108,70.228929,82.27347,11.373367,331.216798,-43.433475,326.294611
15,-30.496845,13.257937,-0.291138,0.02081,0.0,40.890026,-8.080616,41.265507,-17.358913,38.334675,-22.045097,20.810108,-23.01733,-7.939281,0.0,6.300518,9.244407,30.156246,29.803651,47.196457,46.244143,54.937119,58.239716,58.29418,0.0,71.203251,17.833157,81.205845,7.058144,73.935986,-0.865746,60.593891,-5.613441,41.677494,0.0,23.362713,41.324425,57.914538,57.710824,66.070347,66.83278,75.143829,69.957474,82.213449,-19.106712,344.509377,-43.707848,326.350063
16,-2.982159,-4.080591,0.162392,-0.027911,0.0,42.441216,-8.905334,49.778824,-16.951561,49.236946,-19.594345,39.111328,-19.001026,20.469131,0.0,10.103911,11.578943,36.44886,33.583764,49.345619,50.913709,54.372843,63.414709,60.071912,0.0,71.197872,17.455158,81.241894,6.347122,73.475361,-1.743622,60.064831,-6.528625,40.922184,0.0,24.218882,40.937497,57.094678,57.518965,65.812416,66.827407,75.199034,70.065846,81.769587,-22.079973,340.436706,-43.536558,326.330071
17,17.984619,-3.868972,0.739632,-0.108495,0.0,18.209725,-27.886619,33.119431,-36.391783,32.177639,-38.550567,21.074753,-37.175388,-9.09934,0.0,15.943833,12.907071,42.430159,35.152595,55.0529,52.516903,60.895786,65.524504,67.909552,0.0,70.301456,16.60738,80.836658,5.547066,72.74683,-2.420082,59.238796,-7.025871,40.223293,0.0,24.831878,41.302257,57.311854,57.685012,66.171309,66.744538,75.08776,69.721834,81.360676,-4.086113,336.541567,-42.787685,326.195409
18,17.984619,-3.868972,-0.646591,0.102382,0.0,-6.021767,-46.867905,16.460037,-55.832005,15.118332,-57.50679,3.038177,-55.349751,-38.667812,0.0,21.783755,14.235199,48.411458,36.721426,60.760182,54.120099,67.418729,67.6343,75.747193,0.0,70.91692,17.024174,80.969067,6.042652,72.968845,-1.77515,59.751148,-6.24567,41.148434,0.0,23.937177,41.361167,57.84686,57.749912,66.104063,66.792518,75.064727,69.776978,81.234334,13.937101,332.66432,-43.395681,326.289517
19,-33.170643,9.753292,-0.147457,0.255523,0.0,40.026798,-11.750565,43.330936,-20.438633,41.189976,-23.847828,23.100071,-23.468399,-6.56559,0.0,7.844031,10.726973,33.49225,31.334753,49.378532,47.3567,57.738796,58.861789,61.733492,0.0,71.753998,17.153835,80.896111,6.139526,72.89875,-1.583748,59.755669,-5.96386,41.170807,0.0,24.596795,41.938533,58.168271,58.308876,66.023293,67.307949,74.611788,70.297163,80.83765,-19.217119,342.399304,-43.526716,326.526731
20,-2.828865,-3.018731,0.115414,0.139494,0.0,43.767414,-9.021378,52.475224,-17.188168,48.451481,-20.007019,35.103207,-19.614658,14.71899,0.0,10.500411,15.514359,40.56823,36.380811,50.980399,52.027686,57.173657,62.821843,62.883841,0.0,71.173267,17.574978,80.46484,6.584816,72.920208,-1.208439,59.94627,-5.670834,41.432133,0.0,24.284399,42.196033,58.095961,58.571069,65.871573,67.608612,74.735165,70.680077,80.696426,-22.016745,339.375741,-43.382063,326.661393
21,-12.603092,-4.938119,0.358143,0.003273,0.0,59.559517,-2.409611,74.684601,-11.274204,65.899086,-14.374123,45.795021,-14.078121,23.540783,0.0,16.092157,23.667821,47.79451,43.834641,56.844095,57.453942,64.943094,65.469145,76.797382,0.0,70.900269,17.404861,80.224915,6.147366,72.632561,-1.912594,59.623032,-6.624584,40.803223,0.0,24.197146,42.140889,58.235393,58.370688,65.907017,67.343826,74.965618,70.340265,80.972451,-34.583044,334.435291,-42.987127,326.662335
22,50.354233,-2.370598,-0.347843,0.146904,0.0,-10.631676,-46.434288,12.981377,-55.583897,12.86808,-57.972507,1.091652,-56.62817,-41.895161,0.0,28.784337,13.928238,49.25429,35.769235,61.744422,53.228979,67.978126,67.172283,76.234959,0.0,71.058826,17.725353,80.836315,6.759224,72.980747,-1.118946,60.170918,-5.797119,41.715603,0.0,24.415125,42.511577,58.205815,58.71118,65.79741,67.618677,74.594683,70.577139,81.069337,15.778599,332.066607,-43.32756,326.811153
23,-36.077328,9.844127,0.365582,-0.03668,0.0,42.040958,-11.525517,45.55212,-21.022911,43.960819,-24.401951,26.525173,-23.637657,-6.755562,0.0,8.934482,10.913274,32.041486,32.350856,47.646988,48.632772,57.084613,59.942669,62.121161,0.0,71.317177,16.917801,80.758667,5.982857,73.151436,-1.836548,60.186653,-6.509514,41.359749,0.0,24.312002,42.734126,58.369392,58.94929,65.643343,67.911868,74.263701,70.908492,80.868154,-20.260448,341.899897,-42.923698,326.763636
24,-2.410984,-5.192963,-0.403576,0.03069,0.0,43.912468,-9.517193,55.824051,-18.314381,50.369339,-21.195717,36.030121,-20.230007,10.773525,0.0,14.102127,19.122868,45.605396,39.853839,55.033758,54.47609,60.872012,63.940699,69.27155,0.0,71.545544,17.478218,81.100903,6.673107,73.319492,-1.020584,60.475559,-5.60154,41.932354,0.0,23.767857,42.659099,58.789665,58.922922,65.838166,67.940891,74.625249,71.023224,81.361108,-22.655268,336.692253,-43.31111,326.779645
25,-11.100197,-3.976294,0.14431,-1.307133,0.0,50.886955,0.263557,75.676117,-10.528221,60.411758,-16.323051,36.183929,-19.297485,4.113064,0.0,17.159884,34.171628,52.857612,51.735298,61.622033,61.162178,71.614979,65.391525,89.70859,0.0,71.308651,17.140102,79.904308,6.059189,72.966099,-1.991844,59.791546,-7.074566,41.251659,0.0,25.417705,43.63315,59.679859,59.656023,66.519273,68.378639,75.40491,71.039279,82.007017,-33.738241,332.747791,-43.149576,325.504345
26,48.274498,-1.735001,-0.014248,0.119981,0.0,-14.168358,-45.218353,14.224548,-54.393311,14.780731,-56.666393,2.842598,-55.071316,-42.192879,0.0,34.936037,11.591602,52.198241,33.881525,64.231358,51.786119,70.372375,66.224476,77.591863,0.0,71.752396,17.259579,80.052452,6.453552,73.53035,-1.46347,60.616722,-6.403484,41.79863,0.0,26.076026,43.987906,59.989661,59.899629,67.344752,68.439958,75.617702,71.04669,82.187514,14.531794,331.02477,-43.168287,325.636305
27,-33.871307,6.078525,-0.077705,0.332402,0.0,43.744011,-9.650688,45.840683,-19.595833,44.50985,-24.232121,27.004738,-24.609375,-6.177635,0.0,8.417199,11.824401,34.489705,33.997924,52.929304,51.2069,62.675557,63.30609,69.781053,0.0,71.366501,17.532578,80.32505,6.778049,73.892555,-1.150589,60.963707,-6.039219,41.960106,0.0,25.473342,43.526754,59.355052,59.491273,66.846365,68.144235,75.439552,70.908986,82.253401,-19.334078,337.119505,-43.240557,325.984917
28,-8.978405,-5.47967,0.355167,0.032913,0.0,36.394444,-7.436943,68.421993,-15.82283,61.547871,-18.238277,44.895458,-16.751118,17.634888,0.0,24.783837,28.06019,49.27016,46.033141,60.296437,57.41331,64.515719,64.361713,74.556583,0.0,70.902042,17.076302,79.976864,6.258945,73.639927,-1.66563,60.646305,-6.554317,41.720295,0.0,24.87498,43.506253,59.404267,59.351779,66.666177,68.000542,75.11388,70.805616,82.096679,-28.36381,331.652416,-42.936716,326.030412
29,35.1404,9.017289,-0.173206,-0.476713,0.0,-43.486519,-41.815338,17.154121,-45.45084,21.599808,-44.633789,14.204178,-41.397743,-31.080837,0.0,53.463939,9.041434,46.471322,24.078276,53.749164,36.941813,58.208038,47.367074,65.381768,0.0,70.492172,17.16259,79.921417,6.299229,73.661842,-1.656075,60.829582,-6.542015,41.759834,0.0,25.149214,43.826182,60.080557,59.709623,67.031307,68.466325,75.510071,71.392368,82.768029,6.708412,340.682164,-43.178101,325.566157
30,-21.885395,11.992177,-0.100307,-0.691975,0.0,-10.309868,-20.272923,33.621197,-20.149212,41.709652,-16.816349,38.106594,-10.431576,18.952847,0.0,35.017671,16.348607,35.72354,20.309711,39.734291,21.348908,34.762765,20.270561,37.804837,0.0,70.931225,16.844902,79.430752,5.700588,73.508434,-2.474041,60.345554,-7.679787,40.907192,0.0,24.952539,44.13975,60.770124,59.922229,67.433426,68.369933,75.908855,70.871565,82.319783,-15.230341,352.716362,-43.331766,324.916203
31,40.082989,-20.921472,-0.716572,-2.761355,0.0,-19.63028,-51.434155,4.586678,-62.739086,-1.756096,-66.150627,-15.762749,-65.702133,-81.187592,0.0,18.208467,14.841032,50.44527,33.635758,60.683056,47.872563,66.600783,59.773781,78.171143,0.0,70.496178,16.442242,80.233269,5.393028,73.948517,-2.043056,62.009583,-6.444454,43.206711,0.0,23.773168,42.895541,65.770981,58.956762,71.631034,68.112742,78.345156,71.325493,83.30958,24.709253,331.853275,-44.191732,322.213233
32,-16.441956,-0.684442,4.668961,-8.689888,0.0,-24.930782,-37.147179,20.264854,-46.748943,20.247231,-49.715824,3.875999,-48.697529,-50.218563,0.0,48.05979,16.255055,54.621265,32.103669,65.197382,44.679943,70.599987,55.15942,76.576933,0.0,61.479607,16.95425,73.026123,4.318943,67.114563,-5.413227,50.396233,-12.810574,28.505917,0.0,20.601049,40.093122,81.951195,55.182885,85.511044,64.454957,90.091628,68.597236,90.876105,7.749624,331.327161,-40.040445,313.681673
33,-16.6432,26.42541,0.682526,-14.270026,0.0,-43.375854,-24.110241,-15.701523,-17.366638,-1.491623,-8.739624,6.667843,0.577984,11.459713,0.0,19.988053,5.787496,24.388572,13.634923,33.458102,20.200165,35.117459,25.77598,40.631833,0.0,53.508911,17.850151,69.030418,6.792068,65.124893,-3.649578,39.664764,-14.147186,10.033379,0.0,14.404457,35.389161,88.263754,50.280458,100.156389,60.675276,103.713275,67.090711,99.6798,-9.512215,358.003417,-39.976559,299.662492
34,36.759968,-56.125999,3.90192,20.850706,0.0,-50.205288,-38.298512,-65.963173,-30.322266,-53.514919,-20.792198,-41.522141,-9.358292,-29.396095,0.0,38.178859,45.904639,53.915705,55.788595,63.528453,60.996316,65.039177,61.901083,72.174684,0.0,31.324024,24.970264,45.908375,18.258133,21.728439,7.820892,5.59576,-6.370525,-5.335865,0.0,45.531172,8.037372,59.426065,8.844697,68.867023,12.336374,62.108564,17.715576,49.27053,26.994123,302.049624,-36.328268,320.685404
35,15.076332,-16.495202,-30.092887,-50.135386,0.0,-47.219124,-40.357132,-73.335285,-30.915413,-65.26783,-19.058533,-53.016243,-6.328354,-37.764473,0.0,34.763815,35.393978,69.460877,51.85991,81.94539,62.78856,88.612953,68.796875,87.733195,0.0,18.996639,25.645465,49.042663,23.829078,40.460491,18.744564,33.193092,10.593433,24.951019,0.0,14.219371,5.508528,42.083853,10.229018,52.987247,15.95641,52.626542,22.51383,46.978499,42.275562,285.430766,-66.216049,270.426363
36,49.866257,-37.891597,-30.092888,-50.135386,0.0,-67.156219,-42.766228,-100.853176,-35.772972,-100.273705,-26.898079,-88.04615,-17.591515,-66.124191,0.0,29.872873,37.037094,79.685696,52.508104,94.721612,63.131398,102.147655,68.82775,100.71943,0.0,6.669254,26.320667,52.176952,29.400024,59.192543,29.668235,60.790424,27.557392,55.237903,0.0,-17.092431,2.979684,24.741641,11.613339,37.10747,19.576445,43.144519,27.312084,44.686468,92.227421,247.902262,-96.223335,220.654069
37,1.875114,-2.433892,-30.092888,-50.135386,0.0,-42.209129,-44.937744,-75.497589,-41.649513,-70.779305,-34.572372,-64.232254,-25.308037,-53.84388,0.0,15.558078,29.331878,54.878023,41.566981,65.143597,49.283374,73.334172,53.155187,75.400588,0.0,-5.658131,26.995869,55.311241,34.97097,77.924595,40.591908,88.387756,44.521351,85.524788,0.0,-48.404234,0.45084,7.399428,12.997659,21.227692,23.196481,33.662496,32.110338,42.394437,94.1294,246.206611,-126.289358,171.256925
38,56.968346,-30.076711,-20.043926,-33.957972,0.0,-30.948257,-39.860001,-97.735062,-44.235077,-106.486359,-44.620628,-101.925316,-41.459656,-85.287895,0.0,-17.907558,11.051842,37.573644,25.669214,54.824115,37.197892,64.158493,46.131325,68.381542,0.0,-27.917919,18.45892,18.704624,33.513165,37.408276,46.086674,56.811848,56.438255,83.883419,0.0,-52.48785,-9.131929,-4.695007,1.280148,4.608495,9.077681,10.735927,14.744393,2.845644,151.414719,216.108766,-146.016312,137.277819
39,-24.294777,-2.037393,16.77063,0.960836,0.0,-35.583229,-31.353607,-47.894325,-26.704216,-41.684189,-20.665512,-35.295753,-13.683586,-26.077995,0.0,14.062915,16.142731,18.548898,17.693778,20.3404,18.062057,20.632603,17.236084,19.686834,0.0,44.246693,14.394493,20.264339,-1.660194,4.291992,-17.8232,-19.946365,-32.308674,-44.000301,0.0,-17.623629,-5.651398,-22.113564,-12.806356,-31.919313,-19.715672,-37.604828,-25.85215,-56.041092,127.284565,214.905374,-129.081059,139.072657
40,62.516785,-40.180314,-32.141962,-36.233088,0.0,28.221016,-21.843224,-52.83783,-38.619804,-74.279938,-52.543716,-91.211815,-61.660881,-97.357292,0.0,-38.389922,-5.954963,-11.610559,2.050855,5.179686,9.556617,12.202499,16.556767,21.8418,0.0,5.021925,14.225035,18.403788,16.589814,18.96904,17.319518,16.027022,17.590371,12.209015,0.0,-33.694236,-15.977626,-26.801671,-17.118465,-24.744641,-16.823746,-26.307436,-15.274675,-34.768724,189.266109,175.631124,-161.758261,103.745633
41,27.6511,-19.558887,-32.141962,-36.233089,0.0,16.70002,-28.943481,-54.229774,-44.93866,-82.524719,-55.846024,-95.566635,-62.313881,-100.614853,0.0,-45.735227,-19.874,-32.251654,-11.042888,-23.365368,-1.405131,-13.820236,9.988129,4.09467,0.0,-34.202843,14.055576,16.543236,34.839821,33.646088,52.462234,52.000408,67.489414,68.418331,0.0,-49.764842,-26.303854,-31.489777,-21.430573,-17.569968,-13.931819,-15.010043,-4.697199,-13.496355,215.523691,156.935245,-195.293741,68.375552
42,-0.524025,-22.349574,-2.675686,-15.631962,0.0,25.540695,-24.250946,-37.533302,-43.247223,-70.133858,-55.777016,-85.395927,-62.848434,-93.899689,0.0,-44.442513,-19.287803,-42.84151,-12.924145,-42.342566,-5.081935,-30.816142,4.270535,-14.923222,0.0,-39.80341,0.989227,24.138737,19.521103,52.190609,36.006203,72.066822,50.029335,76.630669,0.0,-57.413032,-15.515378,-60.241108,-6.623133,-51.999065,1.407879,-41.618543,9.700928,-22.025322,214.80772,136.642778,-198.161373,54.800696
43,-3.596535,-7.73884,4.831924,-29.002409,0.0,25.129395,-21.81736,-50.503922,-37.480087,-74.427567,-49.473953,-86.536446,-58.995667,-98.520927,0.0,-53.568822,-29.920359,-69.705224,-22.190628,-66.843493,-13.487741,-55.758862,-3.488404,-33.355566,0.0,-40.707493,6.18679,36.456413,27.227211,58.874073,45.506287,77.439423,60.226994,87.933197,0.0,-53.420034,-23.508907,-69.685,-14.093297,-64.921141,-3.916335,-52.006351,6.358656,-29.741654,210.413733,130.765683,-194.126902,27.660032
44,-27.338104,-24.020818,13.364983,-10.185144,0.0,30.824661,-32.208481,-60.706558,-47.876129,-78.452911,-58.986282,-93.490677,-66.365891,-105.648766,0.0,-44.509265,-35.843799,-65.482823,-29.274975,-66.984686,-20.222334,-58.663756,-7.922393,-35.196037,0.0,-35.284138,13.240128,45.987911,29.606495,81.315022,43.750362,94.93372,55.270386,102.056522,0.0,-62.363655,-28.519243,-75.138241,-18.099602,-69.003832,-8.246737,-58.837985,1.134633,-38.919062,179.961977,109.011074,-183.87557,19.741097
45,-22.235985,-3.130622,34.597263,-34.963485,0.0,6.749039,-33.002014,-79.107513,-45.714455,-95.82756,-53.686867,-99.409218,-57.097206,-102.019157,0.0,-46.96832,-32.175948,-65.368708,-20.058047,-60.404932,-6.36372,-44.701802,6.967886,-26.718354,0.0,-35.650692,20.570126,38.098125,40.887966,66.76775,57.312527,86.393509,70.136032,103.015881,0.0,-46.655647,-27.526265,-43.550775,-18.788026,-44.897644,-8.556816,-38.954321,2.023438,-25.136586,159.062176,109.136134,-147.942123,-11.966705
46,-62.883911,-3.603322,40.875492,-9.947034,0.0,16.240883,-49.80629,-97.202225,-61.017609,-114.689884,-66.831665,-123.643799,-67.278786,-120.056705,0.0,-38.553098,-39.55225,-50.626137,-30.341466,-43.64692,-18.40224,-34.6317,-3.983519,-21.21704,0.0,-31.827049,44.68792,63.540974,59.736271,69.934273,69.886494,76.507702,76.680737,92.583504,0.0,-41.823431,-42.821163,-60.73542,-33.777938,-51.053419,-22.137214,-32.675138,-8.019403,-23.315165,97.939339,108.969578,-105.305557,-18.476974
47,-49.825287,10.63833,52.072792,-8.798631,0.0,-0.030785,-53.860474,-94.668102,-65.573158,-112.073536,-71.856194,-122.787437,-71.694374,-118.563995,0.0,-35.161611,-23.197777,-46.059138,-15.905795,-39.763375,-9.306003,-32.379909,-1.961965,-19.622861,0.0,-16.902523,47.576752,70.250359,61.029282,89.366112,68.558121,99.42421,72.420158,106.899261,0.0,-37.299997,-39.150595,-51.058699,-30.200243,-38.518703,-17.921143,-27.821216,-2.953985,-12.500074,48.190012,122.471599,-53.156805,-24.411914
48,3.603767,24.888226,34.599209,13.391812,0.0,-6.12989,-53.44741,-99.334934,-64.036102,-115.942199,-69.636177,-123.695068,-69.553276,-118.146343,0.0,-29.516685,-17.728012,-37.679608,-11.427556,-31.957567,-5.88479,-25.901136,-0.051302,-15.868621,0.0,-14.39641,47.609768,81.562614,63.676414,95.879516,73.202076,106.096401,78.618336,112.016544,0.0,-44.056495,-25.368181,-42.211069,-16.683695,-36.200206,-7.794862,-26.750078,1.45308,-14.478727,51.598886,150.485415,-18.752489,-7.894512
49,3.603768,24.888225,34.599209,13.391812,0.0,-12.228996,-53.034348,-104.001766,-62.499047,-119.810864,-67.416161,-124.602699,-67.412178,-117.728691,0.0,-23.871758,-12.258247,-29.300076,-6.949317,-24.151759,-2.463575,-19.422363,1.859361,-12.114381,0.0,-11.890297,47.642784,92.87487,66.323547,102.392921,77.846031,112.768593,84.816513,117.133827,0.0,-50.812994,-11.585767,-33.363439,-3.167148,-33.88171,2.331418,-25.67894,5.860145,-16.45738,54.97134,178.079805,15.615406,8.203465
50,3.603767,24.888226,21.494751,30.410719,0.0,-18.328102,-52.621284,-108.668598,-60.96199,-123.679527,-65.196144,-125.51033,-65.27108,-117.311039,0.0,-18.226832,-6.788482,-20.920545,-2.471078,-16.345951,0.957638,-12.94359,3.770023,-8.360141,0.0,11.789703,54.513931,79.839649,67.962341,86.126403,74.560547,90.117931,77.229023,93.362217,0.0,-38.097379,-7.050075,-35.195357,-3.81883,-37.181945,-3.891017,-33.652199,-5.821628,-27.889203,58.402216,202.174044,36.937266,37.820197
51,3.603768,24.888226,21.494751,30.41072,0.0,-24.427208,-52.208222,-113.335431,-59.424935,-127.548191,-62.976128,-126.417962,-63.129982,-116.893387,0.0,-12.581906,-1.318717,-12.541015,2.00716,-8.540144,4.378851,-6.464818,5.680686,-4.605902,0.0,35.469704,61.385078,66.804428,69.601135,69.859886,71.275063,67.46727,69.641533,69.590607,0.0,-25.381766,-2.514384,-37.027276,-4.470514,-40.482181,-10.113452,-41.625459,-17.503401,-39.321026,61.781308,225.826583,58.20734,66.99523
52,3.603767,24.888225,-38.248635,25.153958,0.0,-30.526314,-51.795158,-118.002262,-57.887878,-131.416855,-60.756111,-127.325592,-60.988884,-116.475735,0.0,-6.93698,4.151048,-4.161484,6.485399,-0.734336,7.800065,0.013956,7.591349,-0.851662,0.0,31.745529,58.401604,83.891068,66.097908,88.066521,68.320656,85.26352,67.881356,81.300431,0.0,-23.917674,-0.316574,-30.429831,0.053157,-30.629697,-3.187484,-29.183687,-8.032277,-26.09136,66.270933,248.435137,20.844564,89.869517
53,43.104057,2.553256,-38.248634,25.153958,0.0,-21.515694,-51.527367,-98.946648,-60.555954,-119.683342,-66.451492,-125.371628,-69.374428,-121.172619,0.0,-5.618917,6.678122,-1.059946,7.449137,0.699756,7.66125,0.684256,7.339777,1.423162,0.0,28.021355,55.418129,100.977707,62.594681,106.273155,65.366249,103.059769,66.121178,93.010254,0.0,-22.453582,1.881237,-23.832386,4.576828,-20.777212,3.738483,-16.741915,1.438847,-12.861695,109.438562,250.547387,-17.340498,114.582469
54,-21.400452,-9.521605,-38.248634,25.153959,0.0,-49.487114,-41.24073,-66.060791,-41.881371,-66.141357,-41.106262,-57.233047,-40.086136,-53.380737,0.0,7.886516,19.731109,16.068939,17.668769,12.60153,14.262122,9.553283,9.122635,5.238349,0.0,24.29718,52.434654,118.064346,59.091454,124.47979,62.411842,120.856018,64.361,104.720078,0.0,-20.98949,4.079047,-17.234941,9.100498,-10.924729,10.664451,-4.300144,10.90997,0.367971,88.342409,239.650308,-55.284834,138.360953
55,43.118934,-30.457588,-48.753262,24.723229,0.0,-13.782348,-39.217758,-61.079006,-49.520931,-68.867969,-55.691414,-70.291614,-58.214607,-73.653774,0.0,-15.458228,0.0046,-10.032976,1.927199,-9.478472,2.495951,-8.031012,1.879312,-6.353716,0.0,17.014961,55.821018,120.902081,61.101036,133.690968,61.80542,129.118481,59.796696,112.219791,0.0,-18.386,4.846913,-11.464828,6.331455,-13.69513,4.856979,-10.919202,1.310405,-9.815845,131.592149,207.25544,-103.90729,161.146901
56,43.118935,-30.457588,-0.251484,16.950488,0.0,21.922417,-37.194786,-56.097221,-57.160492,-71.594582,-70.276566,-83.350182,-76.343079,-93.926811,0.0,-38.802971,-19.721908,-36.13489,-13.81437,-31.558474,-9.270219,-25.615306,-5.364011,-17.945781,0.0,40.423565,31.899033,74.701881,32.110977,79.974518,30.589886,78.05191,27.750549,66.692905,0.0,-3.661676,-1.427052,-8.743735,-2.643597,-10.138615,-4.478819,-10.511958,-6.205422,-8.331489,173.825655,176.703991,-105.044203,178.003528
57,-4.773903,-15.272853,-28.89802,-22.669024,0.0,10.153885,-31.173706,-74.618568,-43.743324,-90.989914,-52.246399,-98.563271,-57.203979,-101.47831,0.0,-54.438299,-26.371995,-52.353358,-16.239926,-47.085924,-6.219378,-37.046758,4.099857,-20.72526,0.0,18.696485,28.99149,61.49005,34.052611,70.037656,36.724663,72.179132,37.579651,66.00842,0.0,-13.11669,-6.62365,-11.215449,-6.026253,-10.82849,-5.855359,-11.044609,-5.592449,-8.377369,167.747068,161.406669,-135.246907,155.310036
58,-31.94355,-30.953814,-28.898019,-22.669024,0.0,13.064461,-37.589951,-91.141548,-52.702332,-107.172661,-62.210312,-117.61837,-67.365074,-119.562607,0.0,-41.232356,-21.590661,-35.8689,-10.556326,-34.249866,-0.738381,-28.019466,8.789893,-14.956197,0.0,-3.030596,26.083946,48.278217,35.994243,60.100793,42.859439,66.306352,47.408752,65.323934,0.0,-22.571705,-11.820248,-13.687164,-9.40891,-11.518366,-7.231899,-11.57726,-4.979476,-8.42325,134.049082,130.581111,-165.899362,132.769267
59,-28.714256,1.868907,-28.89802,-22.669024,0.0,-5.399094,-36.693306,-91.163063,-42.390404,-100.00351,-44.205666,-91.499863,-42.412033,-81.588249,0.0,-46.279217,-23.196234,-44.565921,-10.915281,-36.025283,2.533496,-20.150611,14.6702,-3.550494,0.0,-24.757676,23.176403,35.066385,37.935877,50.163932,48.994217,60.433573,57.237854,64.639449,0.0,-32.02672,-17.016846,-16.158878,-12.791567,-12.208241,-8.608439,-12.109911,-4.366502,-8.46913,104.927216,132.741017,-195.204992,110.391242
60,-44.487419,2.042117,-28.89802,-22.669023,0.0,-21.207047,-65.65876,-122.289047,-69.722786,-131.723671,-68.831291,-132.824821,-61.743851,-118.511982,0.0,-39.929051,-20.277878,-33.236449,-10.244949,-19.868288,-1.149854,-15.058023,6.359057,-7.327119,0.0,-46.484756,20.26886,21.854553,39.87751,40.22707,55.128994,54.560795,67.066956,63.954964,0.0,-41.481735,-22.213445,-18.630593,-16.174224,-12.898117,-9.98498,-12.642563,-3.75353,-8.515011,60.36727,134.161832,-224.175539,87.100917
61,-22.212296,12.626354,13.08197,-21.699249,0.0,-23.919296,-57.357101,-136.688404,-56.432476,-136.38588,-51.183472,-126.580524,-42.757301,-105.677147,0.0,-29.362074,-17.911541,-17.343437,-6.121534,-8.65327,5.963546,-3.863044,16.363118,7.560288,0.0,-42.724571,6.254082,25.391235,26.564941,48.078461,44.283142,68.442879,59.374924,81.422539,0.0,-44.451899,-17.103536,-42.638073,-9.738102,-36.688421,-1.685138,-30.449221,6.414262,-21.113176,36.123676,143.135525,-213.124866,61.749007
62,-28.440628,28.882273,23.064137,-19.313028,0.0,-34.079876,-58.465347,-130.352898,-63.345222,-139.307785,-64.81184,-139.434757,-62.328014,-125.993385,0.0,-16.170766,1.206912,-0.993996,10.334919,7.979388,17.930899,14.742355,23.210189,20.604075,0.0,-40.36377,16.782188,28.449497,34.839706,59.021301,49.38755,81.56599,61.265774,94.841137,0.0,-43.054826,-25.859776,-34.792127,-16.922947,-40.944877,-6.131878,-33.072841,5.731951,-21.716972,6.535177,170.302974,-191.208601,40.721155
63,1.429253,32.641453,33.216934,-12.275828,0.0,-36.170598,-57.4086,-130.594311,-60.400286,-138.790799,-59.685345,-134.356814,-55.351696,-118.256579,0.0,-9.584066,6.618625,8.755344,14.610456,16.37235,20.77818,20.954076,24.497407,21.720707,0.0,-40.800133,29.63768,32.163734,48.758926,55.531597,63.120747,73.068295,72.88805,91.266518,0.0,-41.689093,-36.10031,-18.838476,-30.540179,-15.956553,-21.500073,-18.304644,-11.230053,-15.240527,8.387604,202.053307,-157.568493,27.554207
64,1.429252,32.641453,34.037762,0.213811,0.0,-38.261318,-56.351852,-130.835724,-57.455349,-138.273811,-54.558849,-129.27887,-48.375378,-110.519772,0.0,-2.997365,12.030339,18.504684,18.885993,24.765311,23.625461,27.165797,25.784626,22.83734,0.0,-37.221565,28.926144,38.55154,45.255775,74.39043,58.153439,92.332878,68.392239,102.237282,0.0,-43.054579,-25.58971,-23.070602,-17.126353,-33.418922,-8.32445,-28.741976,0.350248,-21.101968,10.745974,234.594261,-122.601614,27.667519
65,22.307053,26.340626,38.80434,2.317833,0.0,-37.823868,-49.696655,-130.230732,-48.708916,-131.891727,-44.062614,-114.903145,-37.692719,-79.702663,0.0,-6.802919,19.984595,20.224248,22.03582,25.503908,20.805937,24.490275,16.453583,16.300565,0.0,-31.464558,50.853081,97.178249,61.186924,84.931698,64.982243,92.841053,64.71159,100.873432,0.0,-41.106663,-47.111952,-95.578368,-35.045211,-44.006153,-18.910045,-27.431293,-0.25824,-14.442711,34.769611,260.940908,-82.080688,29.991372
66,28.374596,8.64654,17.043056,-1.824138,0.0,-41.537476,-50.539856,-117.109509,-51.799507,-123.171043,-50.192757,-114.653091,-46.219025,-96.524277,0.0,7.624076,22.098558,30.996052,23.791816,32.964161,23.310163,30.461046,20.545906,27.857463,0.0,-16.372547,46.601429,100.789375,54.086494,120.120049,55.601234,119.659996,52.104378,103.556557,0.0,-42.170283,-24.166796,-48.902313,-9.568288,-26.759634,4.080652,-15.855715,17.375763,-1.307719,63.451881,269.338239,-64.729958,27.918025
67,25.512886,10.705237,17.737513,15.455742,0.0,-52.470474,-38.80909,-100.252419,-37.264137,-107.265415,-33.790169,-100.343399,-27.943268,-80.974045,0.0,11.072466,17.026935,28.665468,16.342,27.093673,14.799227,24.522632,12.086593,20.02183,0.0,-4.841766,44.379902,101.211977,53.69153,120.441599,58.073816,123.098917,58.40827,110.308943,0.0,-48.970238,-15.492252,-38.714235,-3.141073,-22.293566,7.68521,-11.637698,17.579648,-0.198666,88.970232,280.825081,-46.98698,44.155373
68,14.259739,-17.57179,17.737513,15.455743,0.0,-46.582031,-36.513862,-75.035019,-35.922317,-77.443971,-33.776435,-71.546459,-30.041828,-62.73056,0.0,9.837242,15.493889,19.129537,15.234506,17.756054,13.906348,16.511073,11.293873,14.084528,0.0,6.689014,42.158375,101.634579,53.296566,120.763149,60.546398,126.537838,64.712162,117.061329,0.0,-55.770193,-6.817709,-28.526159,3.286141,-17.827498,11.289766,-7.419683,17.783532,0.910386,102.71244,263.287084,-29.766998,59.644908
69,14.259739,-17.571789,-2.846861,21.836072,0.0,-40.693588,-34.218636,-49.817619,-34.580498,-47.622528,-33.762703,-42.749519,-32.140388,-44.487076,0.0,8.602018,13.960842,9.593606,14.127012,8.418434,13.013467,8.499512,10.501152,8.147226,0.0,13.271513,45.774736,106.366338,57.524271,125.034113,65.005846,130.387087,69.064092,122.790842,0.0,-43.682735,-4.105692,-25.665941,5.029479,-18.246876,11.734616,-8.379083,17.162663,0.000494,116.996841,245.67176,-32.589197,81.437447
70,26.136589,-30.231057,-2.846861,21.836073,0.0,-15.226192,-32.022514,-63.819294,-40.472545,-73.957157,-46.184463,-77.99509,-48.798008,-77.086715,0.0,-14.209356,4.018748,-7.53426,8.300398,-5.38337,10.301235,-2.450133,10.888172,2.407926,0.0,19.854012,49.391098,111.098099,61.751976,129.305077,69.465294,134.236336,73.416023,128.520355,0.0,-31.595278,-1.393676,-22.805724,6.772816,-18.666254,12.179466,-9.338484,16.541793,-0.909398,143.524847,215.179515,-35.044641,103.012331
71,26.136589,-30.231057,-2.105885,9.314587,0.0,10.241203,-29.826393,-77.820969,-46.364594,-100.291786,-58.606224,-113.240662,-65.455627,-109.686356,0.0,-37.02073,-5.923347,-24.662127,2.473783,-19.185174,7.589002,-13.399778,11.275193,-3.331373,0.0,17.960644,47.906399,110.466785,56.03056,129.465122,60.729389,127.366161,62.378597,117.976055,0.0,-28.507757,0.478751,-17.29873,8.992373,-12.390591,14.09694,-2.575641,17.657499,3.219543,170.713205,184.844177,-36.098757,112.222636
72,-22.123947,-15.438097,-4.536324,9.674067,0.0,1.889076,-48.890305,-89.075775,-62.897644,-113.095665,-70.733871,-114.254494,-73.555756,-112.101173,0.0,-34.499183,-12.931216,-48.72867,-5.166163,-39.859582,-1.312876,-33.657587,-1.356471,-31.652335,0.0,15.913296,44.983349,109.185047,53.524303,124.107113,57.938404,120.249653,59.028683,108.302937,0.0,-25.831957,0.856849,-11.357908,8.645397,-6.824501,13.101245,-0.177625,15.659997,3.511561,148.700094,169.359119,-40.524244,121.849741
73,-18.839378,-15.363132,10.094593,7.835664,0.0,-11.443062,-51.109543,-121.827393,-56.945572,-135.041313,-58.057022,-130.255051,-56.082916,-114.38427,0.0,-25.879443,-20.218227,-24.410401,-7.88843,-17.031752,4.420465,-9.391497,14.880306,-1.235687,0.0,9.098854,30.263042,78.399513,37.30751,80.304062,41.375473,77.825683,43.194328,71.702133,0.0,-28.208749,-0.496621,-14.808169,9.738522,-4.943318,16.684937,1.888636,21.502728,7.276965,130.167131,153.900413,-30.123235,129.589831
74,-33.515968,-7.675576,10.094593,7.835664,0.0,-19.882393,-58.277664,-126.428719,-64.645386,-137.64061,-66.269302,-134.705257,-64.54216,-121.448879,0.0,-23.914977,-12.794778,-14.083077,-1.375429,-3.782645,9.223783,3.733059,18.74724,12.651424,0.0,2.284412,15.542736,47.613979,21.090717,36.501011,24.812542,35.401714,27.359974,35.10133,0.0,-30.585541,-1.850092,-18.25843,10.831646,-3.062135,20.268628,3.954898,27.34546,11.042369,97.228489,146.379969,-19.451317,137.580628
75,-23.688354,5.302137,10.094593,7.835664,0.0,-25.978775,-52.054367,-116.281414,-56.139221,-123.387165,-56.761894,-116.99461,-54.74968,-106.521778,0.0,-24.798718,-14.446725,-15.582222,-2.148482,-7.080734,9.931072,1.971073,20.726773,13.05027,0.0,-4.530029,0.82243,16.828445,4.873924,-7.30204,8.249611,-7.022255,11.525619,-1.499474,0.0,-32.962333,-3.203562,-21.70869,11.924771,-1.180952,23.85232,6.02116,33.188192,14.807774,73.890409,151.744783,-9.006449,145.478969
76,-22.897568,13.267632,10.094593,7.835664,0.0,-23.094521,-41.512299,-109.470177,-40.361595,-109.727955,-37.519226,-95.005589,-33.326797,-72.950363,0.0,-25.268886,-12.162299,-18.517652,-0.864506,-12.703542,10.979964,-5.330604,21.145996,0.495856,0.0,-11.344471,-13.897877,-13.957089,-11.342869,-51.105091,-8.31332,-49.446224,-4.308735,-38.100277,0.0,-35.339124,-4.557032,-25.158951,13.017895,0.700232,27.436011,8.087421,39.030923,18.573178,51.791182,165.004696,1.886484,153.306914
77,-14.357071,9.996218,10.094593,7.835665,0.0,-25.988388,-36.052895,-75.945168,-33.856659,-81.2887,-30.216064,-62.720318,-24.718094,-64.21875,0.0,-35.120176,-8.773807,-21.986234,1.810028,-19.364929,11.800812,-14.522771,19.12435,3.196881,0.0,-18.158913,-28.618183,-44.742622,-27.559662,-94.908142,-24.876251,-91.870193,-20.143089,-74.70108,0.0,-37.715917,-5.910502,-28.609213,14.111019,2.581414,31.019702,10.153682,44.873654,22.338582,38.684721,174.937713,13.231688,161.079377
78,-4.224586,1.181285,-89.711895,-4.005811,0.0,-34.924736,-52.17247,-110.981026,-58.874359,-120.091839,-60.067921,-125.251007,-56.981678,-117.203522,0.0,-38.564367,0.611638,0.85654,11.829588,6.694424,18.924031,12.324456,21.979071,17.441589,0.0,22.576618,53.020248,119.050541,57.845879,64.778652,52.856827,-7.660618,43.880539,-5.083179,0.0,-32.716881,-7.927765,-23.253044,14.937178,8.581764,33.150276,32.102557,46.117369,38.577397,35.244799,176.069212,-75.695543,157.02378
79,9.443779,10.004925,-0.701122,-13.895016,0.0,-37.297897,-54.139366,-127.70256,-61.332836,-135.186653,-64.277802,-131.24033,-64.671364,-121.402359,0.0,-27.180988,3.320073,0.117696,13.343955,10.144358,20.070736,12.942825,24.016896,18.319742,0.0,23.933659,45.167885,114.132156,53.558292,124.779053,57.462044,106.973534,58.389702,99.804039,0.0,-26.387155,3.255729,-13.894121,15.1835,-2.92098,23.941623,8.577997,30.505012,16.74807,45.463972,185.814477,-75.621271,142.869103
80,3.005905,5.034326,2.215748,-2.315455,0.0,-32.385635,-53.493576,-127.29269,-60.919189,-141.587963,-63.145924,-136.549015,-61.995735,-121.743107,0.0,-18.898405,6.10446,-0.584468,15.435009,7.185772,21.542928,12.23677,24.126133,16.490695,0.0,21.749268,43.534698,110.13525,52.663021,126.076641,57.674103,122.889118,59.762535,111.251621,0.0,-24.695472,5.489735,-12.820435,15.108165,-4.485673,20.916964,3.312354,24.145646,13.49018,49.165936,190.723388,-72.709465,140.428233
81,5.461349,2.611795,1.838207,-0.641402,0.0,-34.700661,-52.75074,-126.0993,-60.461769,-141.311646,-63.728313,-138.222313,-63.218021,-122.88105,0.0,-23.313374,3.921028,-2.848608,13.469926,4.540014,19.757538,10.551478,22.649866,13.004699,0.0,19.685955,44.20372,110.35984,53.442192,126.292534,58.120766,122.200699,59.549847,111.210594,0.0,-24.68658,5.269842,-12.428999,14.954221,-5.686781,20.990941,1.570375,24.452299,11.424382,55.296564,193.137057,-70.201979,139.588705
82,6.295967,-0.431635,0.106258,-1.309232,0.0,-38.604469,-52.200851,-125.864582,-59.497261,-137.177753,-62.300606,-133.165054,-61.392174,-118.831673,0.0,-21.045961,6.006277,-1.509427,15.902954,6.474284,22.218107,11.949075,25.171073,14.46244,0.0,24.264851,40.376186,111.368923,50.438576,128.772869,56.167717,124.273739,58.300266,110.624599,0.0,-30.866684,8.04682,-13.62881,19.687884,-7.243107,26.272948,-0.288868,29.166572,10.455209,61.812544,192.567919,-69.875708,138.14197
83,4.172516,1.27706,0.563393,-1.742535,0.0,-39.516563,-53.450546,-124.24015,-59.547958,-136.883125,-60.96508,-131.82375,-58.803406,-116.426811,0.0,-21.321738,4.63338,-3.152112,13.003711,5.602553,19.997006,12.730403,24.799459,20.08568,0.0,30.152321,38.499413,107.160015,48.744965,126.800022,55.352955,124.151859,58.364925,112.195301,0.0,-38.039643,8.817527,-13.579163,21.156988,-6.89573,28.393951,-0.072896,31.996655,11.023004,66.189709,193.548731,-69.107666,136.103188
84,2.935982,4.17723,1.542664,-3.742384,0.0,-47.759514,-51.410751,-125.430107,-57.233276,-135.034389,-59.143524,-129.012566,-57.444077,-114.047184,0.0,-18.925266,9.57576,3.601222,18.508019,10.063156,25.089439,16.673784,29.105069,23.116761,0.0,39.739494,35.32362,104.101238,44.816151,121.98103,50.99081,121.143208,53.572998,105.84692,0.0,-42.409195,10.128858,-14.3319,24.911042,-7.085242,34.191141,1.669361,38.822546,11.843853,69.366245,196.971989,-67.324448,131.606831
85,-1.041069,5.234274,1.337986,-1.324639,0.0,-55.017815,-49.698372,-124.128571,-54.005241,-131.441917,-54.875793,-124.722462,-52.613068,-109.681721,0.0,-15.063519,15.163802,15.105942,22.06194,17.012794,26.994007,21.1828,29.556279,23.479853,0.0,48.527584,27.324829,101.247826,34.735737,116.239586,40.737934,117.995682,44.904728,102.344513,0.0,-47.108247,10.501244,-15.520935,29.178644,-7.883119,41.143157,5.333877,47.09423,17.576792,68.784285,201.372524,-65.527353,129.448454
86,-2.936096,9.023464,2.777538,0.825449,0.0,-61.804962,-45.56385,-120.181789,-50.539055,-127.42075,-52.175446,-120.705414,-50.525665,-105.893955,0.0,-7.484088,19.435386,24.954576,28.739259,28.270265,35.005876,32.919021,38.091915,35.162661,0.0,55.39896,21.123619,93.82822,25.72403,105.87141,29.97036,106.705456,33.501091,95.376263,0.0,-43.902783,4.416698,-13.722979,25.55584,-3.77153,41.159614,10.988362,51.137183,24.248461,66.254454,209.117971,-62.34355,128.995885
87,-8.104935,10.105887,4.408779,6.664598,0.0,-65.894737,-40.214767,-114.046726,-41.139793,-118.245964,-39.492302,-108.670292,-35.174446,-87.853317,0.0,4.102327,24.053761,36.13702,34.443268,44.896563,41.055502,49.853331,43.519776,49.240149,0.0,57.625237,14.396496,83.867569,13.793392,91.999741,14.596024,89.740105,16.25639,77.611771,0.0,-38.252034,-6.78072,-9.187226,13.261642,4.344697,32.653556,20.038441,49.804795,33.558694,58.366728,217.981517,-57.717562,134.418142
88,-4.478302,8.944424,1.185322,15.002757,0.0,-68.666553,-35.738068,-111.792412,-34.979439,-111.829147,-34.194145,-103.975868,-32.541161,-85.272675,0.0,12.806665,29.579374,51.771916,42.337194,61.31007,50.26959,66.183412,53.590095,62.385391,0.0,62.127171,11.674976,83.257198,6.440907,86.933956,3.895397,83.322315,3.832111,66.300373,0.0,-32.087521,-12.064054,-7.443456,6.162568,8.328649,24.987736,23.14177,42.710475,36.525986,53.714247,225.88239,-56.706419,148.377348
89,-3.896713,9.291399,8.355446,9.499498,0.0,-70.695591,-35.593071,-103.123684,-32.384834,-104.317188,-28.689079,-93.370285,-23.593597,-73.345356,0.0,18.20538,31.783493,59.799037,44.613993,69.856697,53.007356,77.320902,56.841933,74.477604,0.0,64.851551,9.026184,80.191784,-1.947098,77.97678,-9.913216,66.045971,-14.001904,44.959087,0.0,-15.532513,-6.857754,13.363777,10.206849,32.320166,28.557775,41.125651,46.568209,51.15435,49.798708,233.925195,-48.369799,156.628253
90,-6.155663,8.291475,11.379662,10.190176,0.0,-66.293392,-30.03582,-97.499943,-24.485092,-100.121498,-18.481522,-88.949604,-12.099838,-66.618805,0.0,22.684384,28.643608,65.236284,44.334696,79.281416,55.367334,88.280365,61.795366,85.180803,0.0,59.925442,13.106918,64.741001,-2.753048,55.049114,-18.805904,36.925335,-32.587452,2.595177,0.0,0.307888,6.929322,37.289654,19.419393,55.571542,30.46858,62.454305,39.746888,63.012837,44.055433,241.047905,-36.577749,165.649664
91,-3.93116,15.654532,4.6451,51.980447,0.0,-51.21357,-31.5802,-94.918213,-25.656738,-90.892754,-18.047562,-79.218979,-9.344902,-58.140507,0.0,-2.589442,25.862493,51.812177,39.95369,69.197203,49.14882,82.244324,54.551611,85.958673,0.0,44.758186,23.52459,38.51429,26.148891,19.901276,24.293804,13.593407,19.554176,3.740845,0.0,0.209704,-2.219742,40.299863,15.022949,65.622966,34.880338,89.612754,53.445476,102.415652,40.507164,255.720003,-31.549759,216.647677
92,5.606918,51.79853,-10.075493,9.040754,0.0,-57.335529,-31.51371,-85.712643,-33.994217,-74.735756,-32.311821,-45.828667,-28.356514,-47.356567,0.0,38.913134,6.933151,19.090449,-11.128042,-14.518695,-30.335075,-40.787135,-48.644937,-61.61382,0.0,63.967438,23.919926,72.88353,13.645706,67.315178,1.724167,53.213425,-10.352154,23.97234,0.0,1.2954,18.108988,47.247772,33.687937,65.931409,46.587537,77.382961,56.768636,83.509219,46.196251,307.049848,-41.543083,225.219746
93,-24.252434,-31.873216,-4.005203,16.940546,0.0,-36.986046,-46.853199,-36.627674,-49.412498,-46.31979,-46.805363,-45.852871,-42.838783,-53.667755,0.0,26.763864,24.241359,28.651388,39.76461,43.829454,50.45268,55.076551,58.999616,72.685298,0.0,68.327522,22.38121,76.227837,12.354584,69.776802,1.249237,51.662292,-10.21225,25.596771,0.0,3.254802,26.348098,62.879024,36.93076,78.568939,44.119434,80.254479,47.426786,74.380718,22.000351,275.154016,-45.491753,242.137676
94,-3.642998,47.035289,3.12664,21.691191,0.0,-62.253799,-49.084282,-8.892517,-43.900108,2.350044,-33.962173,9.081116,-21.52771,-6.143303,0.0,44.42195,6.692139,40.447693,-8.345568,30.18638,-24.728385,17.625544,-39.942698,-6.671515,0.0,65.571899,32.132549,78.669777,18.947468,67.592468,6.343288,52.914047,-5.080318,31.737785,0.0,10.574943,42.744808,66.775722,62.055768,79.394234,74.126924,90.109906,79.915963,93.976408,18.354034,322.108767,-42.368431,263.748329
95,-3.586922,-17.827653,-7.257099,14.503011,0.0,-15.082283,-34.572029,5.762901,-36.642208,12.670555,-34.655342,8.968506,-30.217781,-7.365074,0.0,41.13763,13.584288,54.370559,14.427984,61.131241,15.467922,57.469812,15.318857,51.807422,0.0,72.572193,34.179153,88.799801,22.715378,84.053135,11.60511,67.068501,1.349602,46.300335,0.0,2.217643,39.492723,71.996843,56.477483,84.320805,67.453495,92.823775,73.328367,98.301839,14.581318,304.106113,-49.811325,278.076339
96,-35.941315,-13.566874,0.908203,14.570998,0.0,36.944275,5.494995,55.592766,-3.970871,57.67067,-12.22887,52.372856,-19.333706,34.107971,0.0,0.601017,25.550653,61.697245,44.12456,78.583327,57.838894,86.053213,67.809177,88.287281,0.0,72.78883,34.026604,91.701336,22.404156,85.962353,12.022076,69.335575,3.122177,46.660023,0.0,-5.076316,40.951947,66.083377,56.28124,79.22689,65.614012,89.531799,69.934688,95.244823,-21.678572,290.543407,-49.221697,292.651505
97,12.948875,11.094944,1.48756,8.8074,0.0,8.131371,-13.774395,39.566803,-23.331985,41.432877,-29.092484,36.955032,-32.346325,19.387436,0.0,37.064759,24.246299,60.817487,38.104821,74.376889,50.082795,77.749944,60.143605,80.001179,0.0,71.88446,30.573921,90.354767,19.291306,85.422478,9.423466,71.493645,1.533165,49.367752,0.0,-1.779894,41.362711,63.572975,57.332355,75.090786,66.703474,85.156165,70.90701,89.687657,-9.067926,301.655888,-48.072367,301.476441
98,24.541168,9.482085,1.518803,6.688743,0.0,-23.643837,-38.134174,20.899887,-51.817818,19.995575,-58.431244,8.83667,-59.923954,-20.054054,0.0,15.268839,16.859097,55.30793,38.761228,70.287653,55.706158,75.112028,68.735619,80.028349,0.0,70.468197,28.103943,89.659367,17.258205,85.298939,7.862549,71.242046,0.153522,49.733105,0.0,-1.086931,41.10058,61.550835,57.545271,72.036857,67.122327,81.428107,71.465728,86.850411,15.125313,311.157547,-46.901493,308.184759
99,-28.192348,12.948629,-3.311977,2.723008,0.0,2.919445,-9.479256,38.638859,-17.315197,38.068142,-21.589165,31.470051,-23.202724,8.443966,0.0,15.96174,16.686443,42.200293,36.447687,55.957791,51.116374,58.327834,61.592331,61.744484,0.0,70.285606,28.506031,90.283585,18.369827,86.045036,9.550781,72.71656,2.555752,53.254509,0.0,1.806632,42.633411,59.273912,59.270392,70.029413,68.591431,80.929966,72.565132,84.386693,-13.290424,324.145095,-50.436859,310.946685
100,37.138309,-7.395785,-1.073227,-0.310975,0.0,-38.974857,-47.05204,3.293037,-57.873459,4.773674,-61.590843,1.064873,-61.597366,-20.471535,0.0,17.826047,21.81605,52.587083,39.414732,66.257451,52.79722,69.206465,62.734281,71.453131,0.0,70.553169,28.735199,90.90374,18.361073,87.204895,9.279842,73.733139,2.31245,54.760094,0.0,2.246603,41.510541,57.484941,58.925639,67.580021,68.621195,80.029769,72.673257,84.784983,23.531256,316.866527,-51.826715,310.752928
101,-22.25544,32.990775,1.152191,-0.01624,0.0,-47.691422,-33.379555,14.268494,-29.849682,26.178932,-23.914661,29.410057,-16.241341,17.070351,0.0,35.630852,15.902831,31.89415,15.717703,29.919248,13.530689,24.117056,10.087794,21.489576,0.0,69.59919,26.501884,90.567856,16.105843,87.207527,7.388535,73.995895,0.955238,54.501114,0.0,2.88782,39.411089,56.083144,57.465119,65.759249,68.026292,78.517254,72.662821,84.344826,0.819769,350.021281,-51.130571,310.900666
102,24.9123,-32.069891,-0.376625,-0.04551,0.0,-39.98457,-45.789242,2.647705,-58.192062,1.785965,-63.392887,-5.221252,-65.385876,-27.825508,0.0,11.867071,18.522901,48.721137,38.16194,63.759709,53.258372,68.585689,65.08938,72.162766,0.0,69.597931,26.738605,89.874802,16.693726,86.823692,8.169308,73.735771,1.707401,54.869499,0.0,3.375031,40.239347,56.998841,58.014142,66.010017,68.649415,78.180468,73.530785,84.194402,25.325546,318.016304,-51.913719,310.920071
103,-21.023827,13.360072,0.143394,0.631151,0.0,-13.911495,-26.596355,21.979866,-36.889629,22.925034,-42.164612,9.968834,-44.499435,-13.420258,0.0,0.074656,16.607094,36.805345,36.161412,47.13551,49.873091,50.923959,59.040495,55.220615,0.0,68.739052,25.917892,89.308777,15.537357,85.461617,6.788635,72.679825,0.3265,53.273277,0.0,5.47016,39.516867,56.660202,57.621656,66.090601,68.550059,78.378563,73.534737,82.949884,4.056959,331.37545,-52.015085,311.550295
104,-16.619797,19.096747,0.20771,0.233725,0.0,11.002922,-5.592098,37.616272,-15.215263,31.456375,-21.98061,12.486992,-26.307907,-6.795845,0.0,-24.353807,2.491938,19.412107,20.357814,30.458205,34.289139,33.840831,44.855191,37.679607,0.0,68.81813,24.989147,88.603935,14.752693,84.98909,6.321945,72.136917,0.281754,53.677597,0.0,7.565969,39.635305,56.574307,57.91812,66.856121,68.959402,78.632851,73.951676,83.811735,-12.876177,350.494844,-52.120714,311.806668
105,36.164703,-33.173309,-0.523624,0.48085,0.0,-40.875893,-48.286171,1.212044,-60.530548,2.906113,-65.281219,-3.294067,-66.607704,-27.811432,0.0,16.385781,20.781545,51.249384,40.29659,65.17157,55.664909,69.495828,67.770583,73.374001,0.0,68.406544,26.090698,89.207211,15.76086,84.145947,6.993427,71.335888,0.519447,53.308468,0.0,8.940101,40.290724,57.208052,58.291092,67.308011,69.009729,78.17349,73.821877,83.075917,22.861576,317.408974,-53.071289,312.374957
106,-21.231766,14.221923,-0.71846,0.067308,0.0,-9.791451,-26.420918,23.162613,-37.732716,23.715591,-43.589573,9.899483,-46.538887,-11.007156,0.0,1.128859,15.189366,37.960881,35.204095,47.688979,50.209939,52.731332,60.842619,57.828829,0.0,67.379894,25.252075,88.898907,14.90221,84.229717,6.388149,71.86552,0.270424,53.650761,0.0,9.990908,40.220699,57.713849,58.1164,67.168146,68.746116,77.878817,73.44205,83.408381,1.240883,331.71781,-54.178677,312.529178
107,-14.261684,14.15517,-0.318718,-0.018587,0.0,10.734158,-11.561966,34.960155,-21.808662,28.914928,-27.33696,13.973751,-30.111408,-3.086128,0.0,-14.261628,4.221876,24.976251,22.858706,34.999269,37.45076,38.342807,48.94949,41.726421,0.0,67.789593,25.802593,88.707218,15.399055,84.291515,6.764374,71.405468,0.306416,53.29977,0.0,9.698273,39.969004,58.140421,57.628387,67.846783,68.236861,78.729429,73.099705,84.282335,-13.465977,345.841364,-54.94257,312.478975
108,27.869511,-28.945691,0.405178,0.609724,0.0,-32.229366,-46.540489,8.066597,-57.770462,11.42704,-61.615906,4.950027,-61.632156,-18.46756,0.0,19.181036,17.878535,55.255812,37.78977,68.054265,53.932439,72.516782,67.021242,75.02601,0.0,67.911301,24.153442,86.702156,14.057236,82.585602,5.842781,69.378777,-0.287361,50.781212,0.0,9.875126,39.419425,58.292142,57.152909,67.526607,67.82727,78.401534,72.815901,82.778959,14.107304,316.855489,-54.833622,313.048515
109,-31.314182,15.75006,1.150131,0.457324,0.0,21.458073,-12.224751,39.557934,-21.694508,40.117779,-26.390591,26.184254,-28.935699,6.486969,0.0,-14.880429,9.125229,31.049527,30.603381,43.334093,47.02967,51.313728,59.166404,55.524612,0.0,66.082993,22.083492,84.772224,12.109566,80.02224,4.241638,66.489487,-1.18475,48.450966,0.0,11.292977,39.315376,58.039212,56.935238,67.362536,67.463684,78.211343,72.2867,83.048006,-17.385893,332.564763,-53.862505,313.465052
110,-6.1936,10.28027,-0.882683,0.599288,0.0,20.783043,-4.365807,43.837738,-13.121967,43.970375,-18.666515,27.17514,-22.06152,7.358494,0.0,-21.707246,3.029166,21.290616,23.439098,35.063736,39.317105,39.941525,51.845461,45.470286,0.0,66.331329,21.872807,85.723801,12.279568,79.953003,4.681149,66.472435,-0.480652,49.122734,0.0,12.307969,39.059297,57.999754,56.830757,66.949673,67.51895,77.168193,72.413473,82.761607,-23.70698,342.785583,-54.872675,314.00489
111,33.539085,-23.967928,-0.789871,0.154191,0.0,-31.398468,-43.059769,9.04335,-51.718712,12.397156,-53.9538,6.382942,-53.193913,-13.359146,0.0,19.048767,18.821155,48.676121,39.371692,65.491437,55.795017,70.058004,68.943038,73.27131,0.0,67.365646,22.827187,87.028885,13.142509,80.775833,5.469875,66.938438,0.097618,49.273796,0.0,11.527937,39.182798,57.883045,56.705959,67.428609,67.241444,76.973865,72.08175,82.774575,9.769735,318.784634,-55.724916,314.126059
112,-29.960918,17.455977,0.955696,0.445961,0.0,23.983784,-7.391396,42.286091,-15.585365,41.429386,-20.24786,26.30373,-23.030777,5.251122,0.0,-16.586778,8.57528,23.011662,29.649213,37.801379,45.838936,45.984976,57.688532,51.02418,0.0,66.60656,21.194801,85.375214,11.579647,80.799751,4.262123,67.632751,-0.449581,49.767036,0.0,11.546771,38.398259,58.130171,56.226529,66.737128,67.187968,76.787193,72.401494,82.166457,-20.222054,336.239916,-54.800091,314.571326
113,-3.9604,6.669909,-0.915356,0.014203,0.0,28.69606,-3.6656,43.023148,-12.22784,36.845627,-17.652969,17.639465,-20.581055,1.931934,0.0,-15.205668,5.509866,24.841944,25.725777,35.174825,41.164739,39.498466,53.138514,45.58755,0.0,68.492718,22.255783,86.310253,12.782764,80.793285,5.699787,67.346363,1.083355,49.826145,0.0,11.554428,39.721261,58.049092,57.278138,67.712476,67.681786,76.917301,72.298679,82.841883,-24.205313,342.913947,-55.738306,314.589651
114,40.41378,-22.586695,0.246277,0.103802,0.0,-36.255627,-49.03038,5.139198,-58.598499,9.131355,-60.872669,1.400986,-59.772892,-19.232254,0.0,13.522167,16.464389,50.15177,37.622859,64.826324,54.940824,69.260621,69.154039,72.756805,0.0,68.408833,21.726265,86.478367,11.976471,80.813656,4.628048,67.826214,-0.06918,49.777164,0.0,12.760229,39.453203,56.5811,57.121416,66.964555,67.515245,76.827887,72.031176,82.617605,16.216021,320.313729,-55.484476,314.67993
115,-29.070797,13.39385,0.47636,0.25188,0.0,18.709316,-16.95116,36.353588,-26.764126,34.054241,-31.45895,20.894108,-33.164692,4.255543,0.0,-9.000123,11.517131,30.782025,31.012168,44.562679,46.372151,52.497669,57.61369,57.081957,0.0,68.183098,21.723633,86.20903,12.078609,80.280418,4.743004,67.059631,-0.007267,49.1716,0.0,12.732132,39.390341,56.272348,57.264121,66.682664,67.616886,76.514133,71.968376,82.718752,-12.844248,333.773883,-54.997587,314.998114
116,-7.101631,10.772545,0.017509,-0.028405,0.0,17.987194,-9.264278,43.830357,-18.677673,42.641201,-23.679142,24.352055,-26.028671,3.481121,0.0,-22.217366,3.904479,19.084768,23.409519,32.372777,38.291616,39.158036,49.646899,44.072566,0.0,67.927895,22.2686,86.057053,12.575226,80.396461,4.973316,67.025642,-0.050583,49.092522,0.0,13.216811,39.260541,55.916912,57.029778,66.529338,67.409714,76.716551,71.867661,82.801868,-19.92671,344.56716,-54.960909,314.990442
117,-18.520718,2.264264,0.99472,0.163762,0.0,35.873795,12.858925,66.012955,3.234386,56.211891,-4.449348,37.749138,-10.703545,22.134247,0.0,-24.230429,7.062395,24.614208,23.878823,37.027091,36.757612,44.696739,45.540929,48.67785,0.0,66.900673,21.976833,85.402336,12.258396,79.933319,4.538498,66.653252,-0.699062,48.828163,0.0,12.932759,39.477841,55.55135,57.010327,66.080351,67.260031,76.141593,71.74027,82.760002,-38.448887,346.835253,-53.967648,315.158032
118,47.09816,-22.56039,-0.065575,0.043102,0.0,-29.938889,-41.902027,13.77491,-52.047787,17.835274,-55.481472,10.114174,-55.983753,-11.189232,0.0,17.011806,13.571012,43.605671,35.380146,58.366057,53.246825,63.897597,67.940582,67.172839,0.0,67.486725,22.212639,85.468597,12.457409,80.11837,4.787521,66.605186,-0.349388,48.936424,0.0,12.676063,39.590597,55.578397,57.206261,66.315867,67.408417,76.197538,71.75367,82.595437,8.682947,324.264829,-53.999548,315.1911
119,-29.238167,14.450708,0.812588,0.105284,0.0,22.761154,-9.013081,40.242691,-18.432884,42.704544,-22.911758,30.841942,-25.48954,12.903099,0.0,-17.703843,9.789293,28.057967,28.936922,39.922753,43.613637,46.634714,54.540249,51.030046,0.0,67.263966,21.507454,84.614468,11.72945,79.527111,4.144306,66.229763,-0.74398,48.810139,0.0,12.863043,39.523475,55.688992,57.102211,66.29728,67.269108,76.771447,71.550882,82.588521,-20.520544,338.713468,-53.152285,315.294315
120,-0.6637,-1.52894,-0.823975,0.552913,0.0,23.328266,-7.686024,45.329189,-16.516857,43.898335,-20.945835,25.85535,-22.279758,5.891819,0.0,-9.384951,13.214835,30.546385,34.689467,40.651408,50.193452,48.199531,61.463334,56.602404,0.0,68.469601,22.394657,85.875378,12.707348,80.51096,5.177021,67.60397,0.339031,49.838963,0.0,12.991052,39.417758,55.451561,57.217685,66.222377,67.580083,76.612563,71.931326,82.949143,-21.146622,337.183339,-53.938637,315.84604
