takenoko1/special-research/HandMotion_SimilarSearch_自分用/NewProject/handData/test_key/d4_feature_d2/17.csv
frame,vel_0x_L,vel_0y_L,vel_0x_R,vel_0y_R,posFromWrist_0x_L,posFromWrist_1x_L,posFromWrist_2x_L,posFromWrist_3x_L,posFromWrist_4x_L,posFromWrist_5x_L,posFromWrist_6x_L,posFromWrist_7x_L,posFromWrist_8x_L,posFromWrist_9x_L,posFromWrist_0y_L,posFromWrist_1y_L,posFromWrist_2y_L,posFromWrist_3y_L,posFromWrist_4y_L,posFromWrist_5y_L,posFromWrist_6y_L,posFromWrist_7y_L,posFromWrist_8y_L,posFromWrist_9y_L,posFromWrist_0x_R,posFromWrist_1x_R,posFromWrist_2x_R,posFromWrist_3x_R,posFromWrist_4x_R,posFromWrist_5x_R,posFromWrist_6x_R,posFromWrist_7x_R,posFromWrist_8x_R,posFromWrist_9x_R,posFromWrist_0y_R,posFromWrist_1y_R,posFromWrist_2y_R,posFromWrist_3y_R,posFromWrist_4y_R,posFromWrist_5y_R,posFromWrist_6y_R,posFromWrist_7y_R,posFromWrist_8y_R,posFromWrist_9y_R,posFromBody_0x_L,posFromBody_0y_L,posFromBody_0x_R,posFromBody_0y_R
3,-26.84412,13.444917,0.432529,0.03952,0.0,11.180592,-21.074066,31.65453,-27.735443,40.344257,-28.392906,32.006779,-26.233063,15.152721,0.0,-8.62221,10.010051,30.269064,27.685982,46.684979,40.938053,52.959129,50.548455,53.80548,0.0,72.166672,25.859756,90.294914,16.675472,89.234161,8.657799,75.441742,2.361374,56.715832,0.0,8.454311,34.404242,63.118184,51.795505,72.704503,63.103364,80.881678,69.216469,86.407907,-11.210375,284.926374,-63.291349,262.366416
4,36.135693,-14.681778,0.300407,-0.119858,0.0,-36.278114,-47.843857,-7.947578,-56.263676,-0.924454,-59.204063,-3.560944,-59.267521,-18.795204,0.0,2.116989,18.415764,37.591428,37.851027,54.39038,53.889276,64.137745,66.900952,68.97873,0.0,71.733513,26.226368,90.130463,16.998882,89.023933,8.805771,75.113297,2.264957,56.612549,0.0,8.738795,34.42005,63.075144,51.827244,72.749766,63.197595,80.879887,69.42747,85.766814,25.119238,270.255248,-62.797022,262.257211
5,-20.981827,15.325526,0.449409,0.10794,0.0,-7.252407,-26.955872,19.95472,-35.33844,24.566116,-37.797375,15.739403,-37.01849,-0.767784,0.0,-8.532795,10.529372,27.986028,28.686277,44.808198,41.638241,50.65411,51.761789,53.387924,0.0,71.298294,26.323586,89.999428,16.879463,88.528519,8.46777,74.097748,1.733952,55.644093,0.0,8.551753,34.91782,63.035315,52.169712,73.127555,63.282007,80.952567,69.381281,85.740818,4.225416,285.596999,-62.259607,262.381375
6,23.361282,-15.305272,-0.774479,0.174692,0.0,-38.550739,-48.132191,-12.441216,-56.999989,-4.488029,-60.535583,-8.232536,-60.966454,-24.044609,0.0,2.480638,17.919908,40.737241,36.147456,57.54984,51.752094,66.457275,64.899621,69.68287,0.0,72.015438,25.80883,90.460224,16.620312,89.539089,8.665066,75.333881,2.495041,57.049313,0.0,8.242136,32.875858,63.092187,50.611811,72.667638,62.339326,80.345746,68.906729,85.859008,27.694073,270.347302,-62.926712,262.611643
7,-15.915642,15.888937,0.482998,-0.132146,0.0,-14.876919,-31.486244,10.967102,-40.104046,14.929161,-42.819901,8.809319,-41.901455,-7.043839,0.0,-9.008768,7.921837,23.273545,26.361066,41.358882,39.966719,48.085231,51.075618,52.169712,0.0,71.614609,25.449944,90.513268,16.298161,89.800072,8.289642,75.778999,2.052269,57.270412,0.0,8.821355,32.8209,62.866057,50.699558,73.057406,62.438003,80.396505,68.913522,85.68765,11.802063,286.278785,-62.420082,262.522043
8,-31.006222,10.412787,0.448151,-0.007966,0.0,21.942844,-2.616692,42.616825,-7.877884,49.275227,-10.408173,38.732243,-11.408501,21.460361,0.0,-23.986268,3.751523,10.918029,18.921005,32.091257,30.878294,37.351836,40.188033,40.598117,0.0,71.543083,24.050732,89.568443,15.148087,89.092026,7.78244,75.378113,2.400799,57.502785,0.0,8.883476,32.900434,63.392047,50.942176,72.718211,62.841974,79.797464,69.296992,84.931146,-19.177179,296.741281,-61.944952,262.563786
9,50.080547,-26.419667,-0.131721,-0.236442,0.0,-41.209259,-54.014168,-13.259354,-63.409882,-6.97998,-66.191998,-10.415497,-65.600395,-26.286621,0.0,3.748374,18.866233,45.803553,36.388345,60.31453,51.210481,67.554765,63.260024,69.782659,0.0,71.11908,24.802437,89.137001,15.925426,89.021988,8.36031,74.920349,2.533092,57.314014,0.0,9.765828,33.123291,63.504741,50.899568,72.738342,62.747249,80.51488,69.39326,86.14658,30.970087,270.382253,-62.009954,262.387983
10,-4.569054,10.992129,0.45433,0.429227,0.0,-31.114197,-43.198242,-2.070694,-53.642807,0.91404,-57.435894,-7.528725,-57.086048,-25.910225,0.0,-1.194376,8.934358,31.017788,28.131759,47.595489,42.935864,53.777075,55.168065,57.808204,0.0,70.78537,23.486023,88.626938,14.786282,88.600388,7.385101,74.330521,1.688404,56.869755,0.0,9.028157,32.077548,62.856053,49.867163,73.131877,61.819202,80.388539,68.603411,85.804173,26.419888,281.394543,-61.53677,262.837371
11,-26.598759,10.123733,0.215893,-0.204579,0.0,3.410053,-16.761246,22.783413,-23.658772,26.302357,-25.718536,17.903538,-24.936504,-0.425434,0.0,-16.859468,8.250102,22.273312,23.04828,36.864625,33.93463,42.015351,42.643847,46.202276,0.0,70.193539,23.737621,88.574352,15.179729,88.420429,7.782955,74.151478,1.973362,56.947746,0.0,9.571499,32.269283,63.497949,50.018945,73.419202,61.901515,80.285107,68.652626,86.071429,-0.159817,291.538438,-61.301823,262.652954
12,27.267551,-20.789511,0.34544,0.433735,0.0,-33.840179,-49.412041,-9.125061,-59.197998,-3.574219,-63.683624,-7.230377,-64.80463,-23.226929,0.0,2.3777,18.050633,45.35222,34.72201,59.794962,48.425352,66.080413,59.581861,68.342701,0.0,70.402451,23.407402,88.589516,14.955368,88.378029,7.729282,74.614449,2.12059,57.50576,0.0,9.063293,31.800042,63.017283,49.647208,72.935388,61.704161,79.907194,68.604893,85.681908,27.126102,270.772392,-60.938015,263.110154
13,-25.838985,12.932759,-0.151176,-0.097813,0.0,-4.282894,-27.023621,20.422611,-34.455128,25.229473,-36.292706,15.945225,-35.219707,-1.18166,0.0,-10.281135,10.085263,34.222758,29.080924,49.545752,42.682132,55.998114,53.179517,58.139495,0.0,70.03624,22.997131,89.581261,14.503555,89.490051,7.556419,75.956612,2.43187,58.189888,0.0,8.201937,33.033445,63.495108,50.551234,73.168434,62.166919,80.594785,68.539314,86.203143,1.272755,283.727443,-61.103554,263.034633
14,-17.603645,14.441878,-0.007496,-0.058045,0.0,16.056576,-5.656242,38.000393,-13.351765,41.692715,-17.833843,28.824406,-20.575333,5.658932,0.0,-34.969135,2.06302,23.269655,17.73373,38.10939,30.672109,42.883562,40.910698,41.969964,0.0,70.367832,23.384228,89.981403,14.854603,89.579029,7.814941,75.941906,2.528744,58.398972,0.0,7.882872,33.002384,62.972638,50.564634,72.676653,62.215393,80.177723,68.611686,86.290149,-16.355667,298.181485,-61.135826,262.988752
15,36.940556,-26.722923,0.321579,-0.322955,0.0,-29.445648,-39.052162,0.209198,-49.752331,1.927071,-56.914787,-3.548927,-61.349201,-20.509701,0.0,1.479849,13.284304,39.479385,31.48283,57.548111,47.111983,66.608255,60.08772,69.00732,0.0,69.817944,23.755245,89.864902,15.00412,89.447422,7.643223,75.529804,2.0961,57.813377,0.0,8.434242,33.519729,63.206981,50.972495,73.636502,62.516302,80.907428,68.839977,86.405375,20.582056,271.467362,-60.81708,262.674597
16,-30.539188,19.041419,0.027523,-0.279297,0.0,10.260315,-15.921421,31.447735,-23.254967,37.296124,-25.668468,27.100925,-25.535603,7.624054,0.0,-19.521652,7.035657,29.596417,23.929828,44.068676,36.537472,49.820541,46.11317,51.030849,0.0,70.531883,24.060631,89.982834,15.212574,89.64077,7.736206,75.639725,2.131748,58.308334,0.0,8.469625,32.913772,63.53364,50.583035,73.411298,62.448315,80.678828,69.039554,86.637248,-9.981508,290.522381,-60.813932,262.408901
17,-16.12999,3.884348,0.402031,-0.167776,0.0,33.400784,0.686646,48.455601,-6.292362,52.826672,-11.111927,43.249798,-14.15102,23.840561,0.0,-27.053288,4.044467,26.033418,19.148247,42.815883,31.911254,48.681864,42.446307,49.123749,0.0,70.440903,24.533386,89.975166,15.802002,89.632301,8.142185,75.541534,2.145023,58.078251,0.0,8.678835,33.3409,63.045565,50.798482,73.546593,62.437077,80.809306,69.00343,86.649907,-26.182079,294.405926,-60.482483,262.240322
18,43.424664,-22.235335,0.382004,0.021798,0.0,-25.173512,-35.109386,4.334679,-45.05127,6.001511,-51.923618,0.802231,-56.5765,-15.657692,0.0,-0.500858,13.473446,37.623229,31.680246,56.319587,47.079008,65.544851,59.791998,68.483492,0.0,70.118637,24.797974,89.815407,15.908546,89.241371,8.034039,74.401016,1.903038,57.10968,0.0,8.46135,33.74413,63.131089,51.097416,73.837499,62.595405,80.694883,69.061043,86.246121,17.180128,272.173524,-60.162935,262.265053
19,-26.646023,21.101598,0.036793,-0.496659,0.0,11.063461,-15.530262,32.146282,-23.302402,38.115063,-25.977058,26.945057,-26.064377,-0.365639,0.0,-24.736165,4.979924,27.974851,21.593069,42.446492,33.888194,48.16952,43.104937,48.557498,0.0,70.072689,25.670128,89.436092,16.507931,88.443317,8.160954,73.600101,1.47995,56.777229,0.0,9.070642,34.149275,63.695612,51.32509,73.793965,62.649992,81.062483,69.007506,86.441129,-9.500799,293.220226,-60.161047,261.713498
20,-8.877583,1.408095,0.449982,-0.064529,0.0,22.608376,-7.516937,42.402191,-15.216465,48.348312,-19.258633,37.782555,-20.509071,13.698635,0.0,-26.150805,3.310193,24.576849,18.662765,40.499563,31.337902,47.15632,41.689679,48.051145,0.0,69.844379,25.426483,89.124355,16.32803,88.987713,7.951355,73.678493,1.17033,56.61993,0.0,9.189141,33.706586,63.746,50.957737,74.137606,62.490429,80.900017,69.114396,86.206045,-18.428736,294.629864,-59.761419,261.650513
21,-7.586403,-5.324923,0.282383,-0.281335,0.0,29.655762,-1.78648,50.589981,-8.54496,53.811607,-12.387543,44.395523,-14.038181,25.564156,0.0,-17.467524,9.989302,31.313202,25.999702,47.530836,38.103092,52.821055,47.099015,55.12484,0.0,70.195427,25.163898,89.319191,16.079865,88.877907,7.840977,73.997612,1.248322,56.983852,0.0,9.347654,34.400475,63.567727,51.666693,73.996074,63.116825,80.83413,69.570422,86.133241,-26.101799,289.317137,-59.565697,261.381374
22,50.392113,-18.461459,-0.246391,0.356115,0.0,-30.248394,-39.573898,-2.56897,-49.525509,0.246849,-55.718422,-5.63015,-59.060783,-21.679344,0.0,1.431066,16.039052,39.87045,34.184411,58.421386,49.314558,66.283757,61.601717,69.77778,0.0,70.525475,26.12669,90.427322,16.792374,88.677864,8.487911,73.542023,1.969185,56.723156,0.0,8.400773,34.898184,63.748408,51.975569,73.612419,63.20062,80.51488,69.569311,85.989239,24.192581,270.856249,-59.909821,261.73806
23,-33.960171,19.56321,-0.111408,0.018587,0.0,9.275436,-9.062405,31.693897,-15.599899,35.992641,-19.214115,25.828915,-21.414242,4.467602,0.0,-22.190628,6.535602,25.917636,23.472381,40.776267,36.01,47.316871,45.654673,50.1493,0.0,70.996342,26.666794,90.744381,17.428322,88.811359,9.116421,73.914928,2.486401,57.050343,0.0,8.418495,34.643834,64.241979,51.81298,73.831818,63.199077,81.067238,69.711954,86.384874,-9.819746,290.411802,-60.073385,261.748989
24,-7.035141,4.713965,1.11557,-0.520988,0.0,21.756077,-7.589607,39.554958,-14.721107,46.327,-18.288403,37.534161,-19.864311,6.312218,0.0,-27.073851,4.211008,23.038893,19.851399,39.12784,32.261997,45.035378,41.739882,46.39469,0.0,70.284176,25.973396,89.576626,16.626606,88.197842,8.128223,72.742825,1.362305,55.672302,0.0,9.10411,35.298635,63.750878,52.398683,74.639143,63.468864,81.359749,69.682314,86.340723,-16.930161,295.091943,-59.033089,261.194177
25,-12.695332,-0.641957,-0.931435,0.456768,0.0,35.146408,8.100185,56.662216,0.836735,57.954025,-5.098972,46.527901,-9.620991,27.347832,0.0,-29.540656,3.997166,27.322581,19.619032,41.374999,32.172891,47.548311,42.549986,49.432563,0.0,71.023121,26.496964,90.696888,17.177982,88.553867,9.010906,73.860683,2.574177,56.76693,0.0,7.53108,33.831198,63.780148,50.880302,72.786816,62.08689,81.000424,68.424088,86.249147,-29.723053,294.399504,-60.062084,261.600464
26,57.086906,-25.322177,0.384808,0.100159,0.0,-34.515095,-46.982861,-7.83783,-55.397758,-0.521278,-58.772335,-4.46743,-58.900452,-18.949585,0.0,2.233451,19.145098,44.047248,37.17523,60.878928,51.576167,67.680489,62.923732,70.064364,0.0,70.890999,25.770378,90.868721,16.629581,89.909477,8.498211,74.817924,2.088146,56.659641,0.0,7.326069,33.9907,62.996103,50.905125,73.689113,61.853659,80.903784,67.995725,85.626703,27.281542,269.04443,-59.759588,261.667726
27,-33.043842,16.791419,-0.479393,-1.364746,0.0,2.250366,-13.280296,32.369442,-20.091534,36.453266,-23.616943,27.265148,-25.4389,10.177402,0.0,-19.021535,8.382001,31.9157,24.763212,47.686817,36.939714,54.359196,47.18701,58.10053,0.0,71.828384,26.013737,89.713326,17.294884,90.350647,9.211349,73.893013,2.209053,55.067196,0.0,7.113709,32.97614,63.14239,49.928296,77.361534,60.794269,84.036259,67.240271,88.107773,-5.837374,285.802365,-60.314054,260.269496
28,-8.659916,5.120838,0.625019,-3.01731,0.0,24.459343,-8.268242,38.882332,-15.246677,41.361008,-19.916725,29.362907,-22.352715,6.927853,0.0,-25.73362,5.477632,26.637399,20.230917,43.116855,32.998556,52.271353,42.902148,58.745143,0.0,70.589962,25.046539,85.337162,16.411343,87.189503,8.141098,71.826382,0.490437,51.19257,0.0,8.576947,31.638379,64.917405,49.090343,83.903928,60.286433,90.63108,67.296587,94.066008,-14.542236,290.91675,-59.733982,257.245733
29,35.430679,-11.368868,0.258121,-8.492411,0.0,-53.146362,-51.896267,-25.559406,-50.408077,-13.489037,-43.47662,-7.082863,-33.112278,-12.384338,0.0,27.6464,15.969336,48.418436,19.282184,56.279078,20.735541,50.968543,21.816853,45.682708,0.0,69.778976,23.939037,82.320213,13.619041,80.909386,3.881664,60.342178,-4.738483,40.712814,0.0,12.933686,29.306931,70.84915,45.870182,86.482008,57.738302,93.913917,65.858235,92.144335,20.760641,279.521175,-59.603662,248.726615
30,12.885017,-13.98301,-3.013573,-14.818308,0.0,-62.868519,-26.216812,-83.89595,-25.607643,-99.94154,-21.882019,-90.582161,-15.466347,-68.848972,0.0,-18.704694,18.811275,-2.637237,35.704706,29.313415,48.629993,60.937036,56.233939,75.809314,0.0,62.932663,24.827728,74.205894,17.856789,61.503181,10.231819,40.813179,2.315483,20.688457,0.0,12.087952,20.210107,53.718104,41.416989,86.389938,58.194947,94.244467,70.743989,91.233949,33.633041,265.537995,-62.629852,233.908137
31,-1.433029,-4.572248,1.693726,34.588197,0.0,-52.785015,-31.374092,-94.334106,-28.390617,-99.328537,-23.072777,-90.900249,-15.682755,-68.958378,0.0,4.198287,22.175499,41.875363,39.319019,53.536434,52.578623,70.470867,61.710212,80.848085,0.0,43.037167,42.125816,13.08609,41.222706,2.133751,33.929958,-0.938759,22.916336,10.994682,0.0,49.248177,13.676975,52.088819,2.194857,44.016373,-8.879339,30.228803,-19.533878,15.309594,32.235031,260.919527,-60.901108,268.450113
32,-1.121178,-0.66993,-18.129444,-72.95169,0.0,-62.10537,-33.720646,-93.57605,-29.695415,-98.390636,-23.141899,-87.671986,-14.254875,-66.30106,0.0,14.968238,26.061823,40.290662,44.494815,56.337062,57.530204,72.908711,65.77271,80.877787,0.0,63.09494,19.722633,51.820621,14.651699,49.145336,11.385441,41.050072,9.442177,37.914219,0.0,4.023842,-3.733862,7.625064,-11.013371,-0.262625,-15.641873,-7.91523,-17.127774,-17.152103,30.992117,260.702613,-79.152288,195.95144
33,0.337372,-0.884945,-5.059547,-19.542956,0.0,-62.56176,-34.212227,-94.708157,-30.168858,-98.027802,-23.4161,-87.975254,-14.617195,-67.923546,0.0,15.532328,26.634435,40.294923,45.062301,54.777185,58.173396,72.142574,66.460857,80.531059,0.0,45.786953,25.85392,50.669346,17.490578,37.303219,6.819363,25.829144,-5.232468,9.149895,0.0,-22.953678,-34.987722,-33.350286,-48.442581,-50.884809,-56.717815,-60.868122,-60.338674,-70.366941,30.643902,260.51128,-84.897423,177.102096
34,-1.521721,-0.40922,-10.222149,-60.331882,0.0,-61.7593,-35.078316,-93.562374,-31.012344,-97.391739,-24.194183,-86.887321,-15.352135,-67.332115,0.0,15.350597,26.957575,40.656718,45.422306,55.685225,58.63461,72.051863,67.256573,80.182354,0.0,33.659306,10.910225,37.877884,4.111118,29.719334,-3.3605,19.667587,-10.954399,6.995831,0.0,-22.131502,-29.93413,-40.516452,-36.534106,-47.461675,-39.671861,-54.10534,-40.786178,-60.462731,29.009371,260.994121,-95.232382,117.662276
35,0.054474,0.904829,-21.960211,-31.535673,0.0,-62.146397,-36.227932,-94.402428,-32.480335,-98.300457,-25.906448,-88.089809,-17.328758,-68.9534,0.0,14.014132,25.692432,39.912132,44.081581,53.647893,57.464254,70.623637,66.439615,78.992362,0.0,27.364769,4.736996,24.587632,10.085822,34.424229,13.889008,24.571209,15.624733,20.704623,0.0,-40.071865,-35.548971,-50.31649,-37.362426,-57.140466,-34.596672,-37.411858,-29.24941,-33.968855,28.685188,262.862658,-117.571249,87.090311
36,-0.296516,-1.530978,-21.96021,-31.535673,0.0,-63.559856,-36.081333,-95.483837,-31.838894,-99.461861,-24.697609,-88.838024,-15.941391,-68.395443,0.0,15.227281,26.392929,41.024751,45.033526,55.827312,58.356054,72.592117,66.745773,79.753251,0.0,21.070232,-1.436234,11.297379,16.060524,39.129124,31.138515,29.474831,42.203865,34.413414,0.0,-58.012227,-41.163813,-60.116527,-38.190746,-66.819256,-29.521483,-20.718375,-17.712643,-7.47498,28.098507,261.573665,-139.821625,55.796623
37,0.801544,-0.829308,-14.690266,-16.318256,0.0,-64.518414,-34.950714,-95.49511,-30.596294,-99.068527,-23.53981,-88.537159,-15.129089,-67.341442,0.0,15.607911,26.745462,41.343939,44.942629,55.500159,58.024269,71.777876,66.280978,79.284009,0.0,9.593925,-5.477257,13.305473,11.054192,39.525032,28.880768,31.033344,46.115341,42.189617,0.0,-69.437813,-18.321779,-49.425462,-10.248191,-76.807416,-3.326433,-18.572918,1.275362,-10.378608,26.49931,261.337608,-156.912632,40.071618
38,1.31321,-0.416074,-6.788635,-1.210679,0.0,-65.475655,-35.03397,-97.15868,-30.723724,-101.330795,-23.848343,-91.278419,-15.294571,-68.703518,0.0,13.636529,25.990748,41.381977,43.614872,55.419822,56.518855,72.489056,64.775812,80.446275,0.0,4.853954,-8.328037,8.200035,10.26289,35.812569,29.037437,27.179146,46.353149,38.890343,0.0,-67.975162,-17.871959,-54.208495,-12.214972,-94.877903,-8.18196,-25.0443,-6.837839,-21.216114,25.242205,261.286772,-166.271582,39.226177
39,-0.018082,-0.539019,-3.448048,1.4432,0.0,-65.116196,-35.460949,-96.663265,-31.08902,-101.254063,-24.107094,-90.31683,-15.419083,-67.850418,0.0,14.049083,25.492114,42.050302,43.147483,57.133828,56.223935,73.206348,64.762721,81.055073,0.0,-0.36541,-11.131783,6.183014,8.087826,26.865635,27.845707,27.096291,46.226463,38.323345,0.0,-66.340413,-16.880093,-39.094772,-9.287849,-90.289229,-4.721931,-25.246718,-4.460572,-22.080249,23.169594,261.276537,-171.774158,41.198161
40,0.182877,0.111645,0.609684,9.390046,0.0,-65.186863,-34.976406,-96.499386,-30.530148,-100.709782,-23.477325,-89.59425,-14.877319,-67.140255,0.0,14.476828,25.523421,42.45736,43.225103,57.256896,56.241534,72.792806,64.584756,80.993446,0.0,-10.337677,-11.598244,1.766567,8.168907,20.541229,27.568874,26.466351,45.067863,37.684765,0.0,-65.087806,-15.999995,-42.682626,-8.016068,-90.898706,-3.802374,-29.958984,-4.53177,-24.28406,22.106895,261.88007,-172.410049,51.080095
41,0.961876,0.126959,0.838451,7.101236,0.0,-65.110416,-34.930687,-96.785717,-30.684357,-101.169662,-23.832436,-90.189686,-15.488548,-67.814484,0.0,15.119835,25.378184,42.165034,43.17842,57.405406,56.270001,73.323921,64.667007,80.972512,0.0,-17.166367,-11.952724,1.707458,7.834854,19.408779,27.035351,26.969776,43.539276,36.575775,0.0,-63.023705,-12.402478,-45.055385,-5.558216,-85.201551,-1.563891,-31.041098,-1.469289,-24.789888,22.633266,262.240538,-172.007103,58.41484
42,0.802574,0.177965,0.089607,8.325376,0.0,-65.417004,-34.609909,-96.944733,-30.338974,-101.494617,-23.492661,-90.66576,-15.252342,-68.676453,0.0,15.011031,25.232083,41.397723,43.318655,57.057195,56.717136,73.075623,65.366331,80.894213,0.0,-19.506912,-12.300396,0.367126,7.926235,18.270378,27.567902,27.416725,44.118977,37.188663,0.0,-61.338845,-12.15526,-41.632529,-5.611445,-83.76042,-2.162098,-30.506957,-2.889919,-24.110819,23.534517,262.530626,-171.818819,66.852339
43,0.724297,0.348211,0.504684,0.605586,0.0,-65.295925,-34.968281,-97.481403,-30.633774,-102.023621,-23.777504,-90.970802,-15.44117,-68.940239,0.0,14.447497,25.135505,41.718702,43.29519,57.395835,56.62766,73.442235,65.106115,81.007525,0.0,-17.044315,-15.014992,-1.888847,5.181255,13.534927,25.334358,24.759979,42.243118,36.952572,0.0,-62.798471,-8.155562,-41.170235,-2.28986,-58.95954,-0.568413,-29.872781,-2.260034,-22.013775,24.441061,263.019504,-171.131887,67.598593
44,0.819855,-0.125786,-1.477833,1.308491,0.0,-65.580597,-35.435143,-98.548679,-31.228638,-102.986412,-24.490128,-91.808681,-16.284714,-69.653893,0.0,13.989371,25.549665,41.795952,43.851746,57.048489,57.20095,73.052466,65.725224,81.084528,0.0,-24.134102,-12.648411,1.376839,6.852951,16.476116,25.103073,25.805054,41.272774,36.982784,0.0,-62.518525,-13.609019,-52.455431,-9.146471,-91.93213,-7.424221,-35.40219,-8.748335,-31.232494,25.403223,263.062529,-172.467413,69.075894
45,0.07782,-0.165923,-2.957897,-9.012442,0.0,-65.637016,-35.667572,-98.572483,-31.523895,-102.980862,-24.872131,-91.634045,-16.816292,-69.899654,0.0,14.357774,25.402884,41.837448,44.03107,56.853296,57.541627,73.079513,66.058738,80.575519,0.0,-20.287571,-8.346691,-8.266296,9.717522,14.948502,27.062702,22.82135,43.497334,34.530087,0.0,-61.952645,-14.181167,-73.542147,-13.23404,-97.472192,-13.321262,-41.229886,-15.066607,-39.891106,25.494347,262.875456,-175.412006,60.042303
46,0.15461,-0.494991,-3.024673,-29.567301,0.0,-65.92844,-36.081448,-99.091644,-31.873283,-102.919235,-25.063705,-91.366653,-16.953506,-69.763355,0.0,14.347399,25.621296,42.043077,44.298943,57.648394,57.898113,73.97934,66.508034,80.613743,0.0,-18.208237,-11.147633,-5.571213,8.282318,9.447556,28.006325,24.799461,46.990929,35.958195,0.0,-59.223091,-19.076956,-35.511828,-15.905548,-93.578365,-14.869283,-32.339926,-15.943864,-30.99917,24.887152,263.899633,-179.198484,31.99417
47,-1.109619,-0.233911,-5.177765,-13.158395,0.0,-65.766621,-35.895996,-98.609562,-31.704826,-102.51709,-24.996758,-91.165295,-16.836548,-68.983269,0.0,13.682224,25.787837,41.72815,44.286099,57.408926,57.711626,73.975141,66.073744,80.890817,0.0,-15.732307,-4.266701,2.128658,14.130535,14.120293,31.97485,28.606968,48.352089,37.598019,0.0,-70.007924,-18.194296,-63.294111,-17.026256,-105.99168,-16.402608,-41.171377,-17.339794,-37.576886,22.148008,263.964085,-186.005774,19.134137
48,-1.247635,-0.748724,0.00864,-35.643789,0.0,-65.882893,-35.703506,-97.92984,-31.441383,-102.277279,-24.700127,-91.240997,-16.645088,-70.230045,0.0,14.604837,26.321978,41.850909,45.159867,57.62215,58.715688,73.749505,67.216867,81.664364,0.0,-17.0121,-10.255795,-0.344925,8.720512,15.208912,28.206825,27.894573,46.300106,36.750698,0.0,-65.07598,-21.9988,-44.919411,-17.48324,-101.720095,-15.533193,-33.945035,-17.021686,-30.359034,18.28105,263.29948,-188.616457,-16.425532
49,-0.053444,0.037977,-2.299118,-27.253668,0.0,-66.263638,-36.993885,-99.071617,-32.968884,-102.437382,-26.443977,-91.762161,-18.436661,-71.430244,0.0,13.883716,25.730223,42.00263,44.328892,56.040598,57.964988,72.565317,66.733547,81.181044,0.0,-17.022457,-10.847397,-3.224487,8.725262,14.1049,28.857307,25.620174,47.927856,37.456799,0.0,-67.452013,-23.622157,-42.902642,-18.708368,-106.320732,-15.843674,-35.253125,-16.231312,-32.172304,16.508331,263.033846,-192.63485,-43.982812
50,-1.184921,-0.41311,-0.813389,-25.063226,0.0,-66.200294,-36.48222,-98.785515,-32.098389,-101.981735,-25.251732,-90.818882,-16.966667,-69.79208,0.0,12.837602,25.619505,42.77451,44.358964,57.816046,58.100901,73.205299,66.956774,81.662697,0.0,-17.452984,-10.554771,-4.050465,7.67704,14.766083,27.024536,25.096035,45.985909,36.387463,0.0,-66.617085,-25.577299,-44.024524,-21.715798,-108.730465,-18.894545,-35.802271,-18.542969,-32.939738,12.836609,262.526257,-195.93504,-69.140516
51,-1.166611,-0.271702,-0.483284,-18.491006,0.0,-65.716324,-35.557423,-97.705822,-31.352348,-101.158619,-24.818459,-90.156212,-16.899948,-69.570408,0.0,12.571272,24.740303,41.747539,43.441909,57.193293,57.326736,73.185786,66.482161,81.670663,0.0,-17.80117,-9.182568,-0.355568,8.699398,14.184322,26.841774,26.138878,44.301682,36.265011,0.0,-71.573143,-23.252334,-54.857708,-21.451229,-108.70172,-19.15751,-40.21687,-18.421167,-36.951848,8.88402,261.932913,-199.204302,-87.953165
52,-0.213318,0.304553,-0.318146,-14.414646,0.0,-66.160583,-36.119156,-98.416901,-32.108688,-102.103558,-25.585098,-91.532536,-17.393532,-71.182365,0.0,12.063252,24.580986,41.171408,43.34422,55.704738,57.225836,71.658451,66.322165,80.516918,0.0,-15.586109,-8.469715,0.852528,8.630276,16.853256,26.107464,24.721584,43.466148,34.27248,0.0,-72.970832,-24.367083,-61.541603,-23.466299,-109.956272,-21.587296,-40.834853,-20.578325,-38.917672,7.237072,261.476454,-200.956078,-103.128823
53,-0.46463,0.067678,0.542965,-10.989134,0.0,-66.611309,-36.287041,-98.686581,-32.276173,-102.646694,-25.72094,-92.104969,-17.519188,-71.009846,0.0,11.898193,24.692755,40.766016,43.302723,55.771737,57.085539,72.102375,66.119007,81.002894,0.0,-15.444088,-9.859772,0.960388,7.292519,15.38681,25.25322,23.29834,43.527718,34.178295,0.0,-71.751107,-26.498275,-57.900845,-24.351831,-111.754059,-21.088846,-37.820939,-19.062105,-36.451608,5.558023,261.038597,-201.627531,-114.623492
54,-0.018997,-0.022662,-0.329475,-6.427539,0.0,-66.724434,-36.954174,-99.025898,-33.075199,-102.881298,-26.571465,-92.468719,-18.36525,-71.394768,0.0,11.568878,24.753147,39.984812,43.429065,55.528379,57.311731,71.856361,66.489756,81.094655,0.0,-14.299107,-8.278885,0.677433,10.149136,17.830067,28.43811,23.261375,45.708103,35.830135,0.0,-70.645559,-27.056252,-54.531418,-24.314811,-111.276944,-20.519863,-37.653163,-18.990042,-36.680347,4.865427,260.500782,-202.630606,-121.566184
55,-0.239067,-0.001297,0.779171,1.892434,0.0,-67.469845,-36.488514,-99.737892,-32.628994,-103.172722,-26.277809,-93.059349,-18.339043,-72.381592,0.0,11.465508,24.740426,39.654386,43.383925,55.08112,57.181314,71.617078,66.262885,80.721188,0.0,-14.841499,-11.316319,-0.753422,7.625313,17.734623,26.685963,24.705906,45.181618,36.452866,0.0,-71.231864,-28.464763,-51.284227,-25.1609,-110.191943,-21.662106,-38.027324,-20.888188,-36.903899,4.031582,260.161618,-202.446213,-120.011617
56,-0.124168,0.074965,-0.17767,2.940184,0.0,-67.068272,-36.723633,-99.661102,-32.900505,-103.359947,-26.51104,-93.157368,-18.472252,-71.909237,0.0,11.557392,24.674909,39.657164,43.088079,55.250008,56.736896,71.591637,65.777218,80.559587,0.0,-15.641842,-10.567875,0.056248,8.129025,19.780941,27.09486,25.661259,45.457535,36.867027,0.0,-70.25525,-29.142767,-52.742694,-25.396215,-111.231418,-21.290122,-39.101056,-19.844637,-37.226097,3.728456,260.14987,-202.802839,-117.158146
57,-0.521164,-0.074039,0.409412,2.835301,0.0,-67.050705,-36.836185,-99.71426,-32.934551,-103.195724,-26.365013,-92.880936,-18.098946,-70.926476,0.0,11.429816,24.331268,40.127826,42.697322,55.619337,56.43716,72.005488,65.525956,80.801279,0.0,-15.708675,-9.946575,0.196552,8.925648,19.348011,27.93108,25.690498,46.045017,35.857716,0.0,-69.214138,-28.394244,-52.710615,-24.809123,-111.22282,-20.93021,-40.007521,-19.602854,-38.550612,3.235044,260.30315,-202.365675,-114.095526
58,-0.295029,0.107754,0.238094,0.487427,0.0,-67.038174,-36.91824,-99.997787,-32.880936,-103.722782,-26.113586,-92.95126,-17.602043,-69.898682,0.0,11.117112,24.44458,40.057245,42.647366,56.209548,56.246474,72.90655,65.085119,80.909157,0.0,-14.713898,-10.450745,-0.25629,8.464451,18.649178,27.532711,24.998531,45.670052,35.633984,0.0,-70.54012,-27.576777,-52.629166,-24.070125,-110.998789,-20.454577,-38.629313,-19.568212,-36.936673,2.944736,260.447584,-202.12286,-113.571419
59,-1.098633,0.046313,-0.00206,0.033098,0.0,-65.960255,-36.520042,-98.839302,-32.599125,-102.645206,-25.868797,-91.956425,-17.370758,-69.085178,0.0,12.01132,23.779157,40.019886,41.795643,56.178055,55.353996,72.802439,64.259887,80.786335,0.0,-17.284298,-10.212879,0.26516,9.0168,19.205532,28.083172,24.622364,46.116428,35.904179,0.0,-70.155924,-27.754618,-52.018485,-23.826366,-110.19855,-20.21409,-38.523936,-19.615543,-37.316345,1.829338,260.575809,-202.141685,-113.456409
60,0.142021,0.15203,-0.141792,-1.267273,0.0,-66.557407,-36.625099,-98.520412,-32.764378,-102.836437,-26.121941,-91.838779,-17.659149,-69.664478,0.0,11.405178,23.788914,39.651298,41.859678,55.866524,55.557401,72.826522,64.559376,80.758486,0.0,-14.401245,-9.183254,0.965137,10.184498,19.001083,29.364452,25.133114,47.639694,36.327839,0.0,-71.586048,-27.501009,-52.363516,-23.621447,-110.922697,-19.877056,-37.890578,-18.795436,-36.673616,2.005005,260.751381,-202.249832,-114.70014
61,0.447235,-0.504007,-0.255146,-1.116756,0.0,-67.391109,-36.419163,-99.037285,-32.239151,-103.359776,-25.479012,-91.63765,-16.979828,-69.188633,0.0,12.223494,24.859419,41.229947,43.144642,57.835065,56.695091,74.364786,65.453275,81.606257,0.0,-16.343594,-9.259186,0.599842,9.863434,18.687172,28.922882,25.538006,47.183132,37.011395,0.0,-71.370586,-28.373002,-54.110605,-24.845217,-112.235635,-20.692316,-38.029593,-19.145283,-36.175059,2.317629,260.132533,-202.639589,-115.931736
62,-0.809326,-0.065455,-0.720806,-1.501616,0.0,-67.189922,-36.302376,-98.027,-31.70002,-102.351608,-24.684677,-91.011028,-16.227493,-69.715462,0.0,12.270857,25.50786,41.149795,44.142776,57.596338,57.805116,73.672873,66.578306,81.394824,0.0,-16.118145,-9.573154,0.575237,9.539795,19.123707,28.64193,25.596027,47.020397,37.435799,0.0,-71.594045,-28.695478,-52.365476,-25.012576,-111.319505,-20.906466,-38.233632,-19.409883,-37.216881,1.326971,260.124413,-203.541727,-117.376017
63,-0.419998,-0.023342,-0.522594,-0.532134,0.0,-66.165791,-35.919399,-97.903633,-31.594906,-101.830387,-24.758263,-90.211143,-16.52401,-68.887596,0.0,12.393061,25.255857,41.508442,43.917634,57.789247,57.596215,73.859791,66.379902,81.623238,0.0,-17.13089,-9.404011,0.94717,9.640045,19.694481,28.751965,25.494404,47.047462,37.449417,0.0,-70.54046,-29.801938,-52.33014,-25.850328,-111.779762,-21.440885,-38.42316,-19.521559,-37.629667,0.728388,260.173844,-204.242907,-117.835378
64,0.125999,0.138815,-0.548687,-0.216744,0.0,-66.477585,-36.210423,-97.867355,-32.007236,-101.871185,-25.18856,-90.031815,-16.812172,-68.43029,0.0,12.168227,24.993912,41.262243,43.554789,57.75584,57.245472,73.669724,66.094739,81.341842,0.0,-16.303082,-7.904034,1.261482,11.028099,20.371284,29.783878,25.605297,47.423058,36.781483,0.0,-69.868816,-28.947435,-51.966214,-25.089378,-110.496187,-20.937218,-39.019452,-19.295954,-38.189048,0.726757,260.405084,-204.919224,-117.959697
65,-0.147972,-0.062862,-0.126057,0.297236,0.0,-66.350327,-36.462536,-98.088627,-32.135811,-101.580162,-25.243263,-89.807224,-16.753693,-68.375931,0.0,12.233004,25.189166,41.523941,43.782709,57.970484,57.467033,73.561475,66.365144,81.526414,0.0,-15.381832,-8.407459,1.176395,10.633907,20.792141,29.578915,25.972881,47.488289,36.972427,0.0,-70.110661,-28.840129,-50.816683,-24.698868,-110.158351,-20.365749,-38.255415,-18.686045,-37.301757,0.5268,260.486348,-205.097265,-117.518336
66,0.010872,0.166232,0.723553,1.392719,0.0,-66.838017,-35.984459,-97.984657,-31.701393,-101.569405,-24.885292,-90.063229,-16.557999,-68.809605,0.0,12.003477,25.012128,41.112745,43.62716,57.517606,57.373049,73.4029,66.286597,81.444039,0.0,-14.89397,-10.307865,-0.137215,8.778019,20.13113,28.084888,24.409733,46.472797,36.051521,0.0,-70.965472,-29.423593,-51.750242,-25.39251,-110.781752,-20.997764,-38.102088,-19.518626,-37.12532,0.552664,260.667246,-204.358721,-116.110951
67,-0.462227,-0.153018,-0.246048,2.323174,0.0,-66.67551,-35.924721,-98.070431,-31.447105,-101.798286,-24.429474,-90.088062,-15.929489,-68.529568,0.0,12.7317,25.333848,41.765447,44.055276,58.298749,57.767696,73.968472,66.564845,81.259652,0.0,-16.037979,-8.795242,1.525841,10.293503,20.619106,29.419785,26.334801,47.347183,37.057228,0.0,-70.575596,-29.200257,-51.677407,-25.46624,-111.633599,-21.49007,-39.872133,-20.141533,-38.715841,0.251141,260.583342,-204.444065,-113.718663
68,-0.376053,0.374949,1.837521,1.917474,0.0,-66.856899,-35.098858,-97.949753,-30.640182,-101.506519,-23.726463,-89.867992,-15.518646,-69.210892,0.0,13.330123,25.357868,41.488867,43.996798,57.761274,57.737994,73.803784,66.587569,81.295591,0.0,-16.946754,-10.214424,0.64333,8.596172,20.647202,27.81292,25.021305,46.153679,35.664597,0.0,-70.316707,-29.180095,-51.162949,-25.114047,-110.691936,-20.730138,-39.494128,-19.26582,-37.443783,-0.023489,261.028316,-202.505121,-111.731165
69,0.604477,0.440589,-0.473328,3.656582,0.0,-67.58955,-34.956894,-98.429317,-30.609055,-101.868095,-23.8591,-90.33308,-16.008224,-69.379234,0.0,13.205079,25.045288,41.228959,43.769557,57.388672,57.505195,73.825149,66.291537,80.74595,0.0,-14.70583,-8.693333,2.684898,10.540524,22.823067,29.97385,27.787514,48.310375,37.974873,0.0,-71.184717,-29.391529,-52.117672,-25.205191,-110.446663,-20.849378,-40.522905,-19.13954,-37.845037,1.158657,261.761432,-202.40078,-107.782056
70,0.337715,0.271023,1.838894,3.552903,0.0,-69.446583,-34.831867,-98.318195,-30.332451,-101.537933,-23.55938,-90.582047,-15.729675,-70.437527,0.0,14.197531,25.216213,41.197281,44.038171,56.862435,57.890579,73.159974,66.818639,81.002585,0.0,-13.064919,-7.349682,1.965981,12.337704,22.939453,31.640453,26.466236,49.503765,36.219177,0.0,-70.961196,-28.234264,-51.725526,-23.829453,-110.249309,-19.404851,-39.847016,-17.573488,-36.94027,2.95063,262.221859,-199.107628,-104.039749
71,1.297302,0.523767,2.370014,7.66267,0.0,-68.510742,-34.645157,-99.075794,-30.704041,-102.238655,-24.31675,-91.61459,-16.728745,-71.419716,0.0,13.932931,24.836448,39.951035,43.431103,55.404137,57.083254,72.685113,65.912946,80.890323,0.0,-9.20248,-8.814411,1.246548,10.937748,23.215485,30.841427,26.520653,49.346981,37.543373,0.0,-70.879855,-29.316502,-50.246403,-24.973935,-110.382381,-20.830513,-39.280981,-19.392316,-35.745584,6.619635,263.045254,-194.365911,-96.077451
72,1.198997,0.811215,2.114124,10.317351,0.0,-68.845825,-34.488945,-99.628372,-30.199013,-102.969532,-23.674736,-92.422085,-16.127815,-71.591549,0.0,13.419044,24.277483,40.139929,42.796926,55.857817,56.471987,72.807441,65.252957,80.742554,0.0,-12.11935,-8.050804,3.389454,11.039028,25.959435,30.521622,28.648338,49.047375,38.97234,0.0,-69.460862,-29.732268,-50.161867,-24.395087,-107.03415,-19.708879,-41.329983,-17.502969,-36.32999,11.232347,264.320817,-188.838072,-85.295751
73,1.448822,1.08971,0.733166,8.549098,0.0,-68.08548,-34.615517,-98.484421,-31.362877,-102.750549,-25.770836,-92.226162,-18.837891,-71.017399,0.0,12.12741,24.215795,38.573383,42.576847,53.257137,56.091234,70.65124,64.884986,80.092384,0.0,-5.750084,-5.654297,5.517025,14.012432,29.808025,33.460865,31.805706,50.727825,42.027855,0.0,-66.882273,-24.219407,-45.459974,-17.269799,-95.472559,-11.855091,-34.598663,-9.521636,-28.156891,15.045805,265.657883,-185.740271,-76.499297
74,1.360359,0.132455,4.369755,15.292088,0.0,-68.040848,-35.756435,-98.296223,-32.699547,-102.972221,-27.095375,-92.363605,-19.754448,-71.434708,0.0,11.579808,24.349299,38.331568,42.652306,52.705273,56.122665,70.33409,64.915553,80.09967,0.0,2.925911,-5.486698,3.731976,13.947258,32.73468,33.299274,31.936054,50.428333,42.233047,0.0,-62.257136,-18.501442,-41.219234,-12.031605,-87.061813,-7.258823,-28.774179,-5.163847,-21.587851,18.98243,265.968287,-178.79425,-61.02926
75,1.858063,-0.516542,3.590527,7.678942,0.0,-67.953758,-35.314064,-99.22657,-32.053185,-103.527718,-26.141052,-92.6647,-18.504524,-70.615768,0.0,11.691823,24.611121,38.211402,42.702633,53.262509,56.026828,71.445844,64.414263,80.937129,0.0,24.701385,-4.006577,12.224178,10.978374,35.38559,26.849499,31.875801,41.574726,40.096321,0.0,-48.749851,-10.593901,-26.304842,-2.897669,-41.713453,1.828399,-14.144951,3.663528,-6.179981,24.977875,266.247353,-171.066341,-52.55471
76,0.793533,-1.034443,6.185818,55.07547,0.0,-68.190479,-34.864483,-99.468727,-31.294899,-103.710938,-25.359192,-92.971802,-17.965279,-71.963654,0.0,11.383935,25.108088,38.747643,43.306737,54.485414,56.601539,72.178328,64.852567,81.539196,0.0,15.322437,-2.124367,7.753315,17.475986,42.205753,36.402054,32.582016,52.605629,40.908909,0.0,-66.313428,-27.656682,-48.987188,-20.524139,-79.495103,-13.718626,-29.2688,-8.406145,-22.871395,29.79867,265.416516,-160.853262,2.724366
77,0.333023,-0.699941,28.753795,38.661454,0.0,-69.528809,-35.148525,-100.330124,-31.49437,-104.214649,-25.56324,-93.843498,-18.317413,-73.019943,0.0,11.1181,24.690593,39.073499,43.009471,54.623426,56.443952,72.56575,64.922963,80.935153,0.0,9.701472,-1.06307,11.733485,4.070492,19.976979,9.505463,10.702343,14.064989,11.616726,0.0,-58.854456,-38.25174,-63.93369,-38.153109,-72.436274,-35.202104,-45.473667,-30.967739,-45.354581,35.417032,262.449671,-126.814127,39.118917
78,-0.189629,-0.207975,28.753796,38.661455,0.0,-69.417858,-34.779625,-99.447784,-30.927086,-103.059711,-24.888954,-92.697086,-17.679863,-71.723557,0.0,10.358817,24.836571,39.184527,43.33366,54.892473,56.944377,72.514312,65.586842,81.556671,0.0,4.080505,-0.001774,15.713654,-9.335003,-2.251797,-17.391129,-11.17733,-24.475651,-17.675457,0.0,-51.395485,-48.846799,-78.880192,-55.78208,-65.377446,-56.685581,-61.678535,-53.529333,-67.837768,39.044981,261.420987,-94.242754,76.959662
79,-0.193748,6.2e-05,-5.933075,28.536501,0.0,-68.846512,-35.242996,-99.717178,-31.405106,-103.362808,-25.324402,-92.922249,-17.896385,-71.743412,0.0,9.505611,24.677008,39.006685,43.303403,54.421935,56.913749,71.912369,65.536638,81.50653,0.0,21.472635,8.041191,32.909803,4.808092,28.558931,1.660108,12.82731,-1.249065,7.751398,0.0,-46.811505,-28.720394,-59.530361,-26.041337,-50.215882,-20.817731,-37.04049,-13.382271,-35.865596,40.75264,259.751564,-98.274422,103.826679
80,0.283241,-0.457385,-5.933075,28.536502,0.0,-69.091301,-35.163975,-99.756031,-31.137314,-103.909035,-25.135231,-93.773403,-18.194275,-73.357773,0.0,9.922982,25.311123,38.601479,43.918869,54.556427,57.406765,71.807516,65.915045,81.014503,0.0,38.864765,16.084156,50.105953,18.951187,59.369659,20.711346,36.831951,21.97752,33.178253,0.0,-42.227525,-8.59399,-40.18053,3.699405,-35.05432,15.050119,-12.402447,26.76479,-3.893425,41.734028,257.464314,-103.50935,130.533316
81,-0.974121,-0.597003,0.841198,29.581689,0.0,-68.513947,-34.718456,-99.557419,-30.727844,-103.130379,-24.869156,-93.000641,-18.168411,-72.810917,0.0,11.797293,25.577329,39.179093,44.312404,54.965153,57.900274,72.293122,66.542491,81.997322,0.0,49.330158,23.787432,70.153942,26.70825,71.853676,27.991333,53.319769,28.178959,46.996994,0.0,-30.802248,-1.93359,-24.62997,15.329725,-16.897398,29.960837,1.686188,42.779265,14.078415,41.081657,256.170812,-102.346401,159.418507
82,-0.537643,-0.054958,0.841198,29.58169,0.0,-68.023109,-34.554634,-99.106636,-30.711594,-102.754898,-24.895821,-93.048248,-18.20446,-73.283615,0.0,12.769182,25.552567,39.085109,43.965552,54.012468,57.522732,71.466098,66.360821,81.768475,0.0,59.795551,31.490707,90.201931,34.465313,84.337692,35.27132,69.807587,34.380398,60.815735,0.0,-19.376971,4.726809,-9.07941,26.960045,1.259523,44.871554,15.774822,58.793741,32.050255,41.130238,255.623642,-100.91898,188.507984
83,0.178185,0.673018,6.68993,16.128775,0.0,-61.580486,-35.651836,-100.015068,-32.279205,-102.930794,-26.510468,-93.65593,-19.357452,-73.768616,0.0,3.99025,24.906102,38.675456,42.915734,53.937688,56.438456,70.901206,65.499032,81.685421,0.0,61.680565,30.70776,102.23917,28.258839,109.078159,25.895634,103.809299,22.749939,83.012924,0.0,-16.195219,16.47291,10.966441,34.722195,27.231314,48.113266,42.960688,56.64001,48.684395,41.773481,256.830739,-93.76399,205.170838
84,-6.101646,0.279606,21.012783,31.56854,0.0,-78.359985,-31.830368,-99.709568,-26.827354,-100.103531,-21.061249,-90.517788,-15.018196,-70.568676,0.0,0.41311,12.714101,19.282369,32.705612,45.42984,49.923541,67.635103,62.237561,79.094559,0.0,53.501186,30.740833,73.416653,39.895248,71.950665,46.192303,68.195686,47.89278,62.207336,0.0,-17.193291,14.585509,17.597509,43.015399,36.926191,66.412136,64.987369,83.500142,89.055147,35.839577,256.889695,-72.583466,236.518728
85,0.306358,-0.476837,-3.423157,5.785705,0.0,-67.272606,-28.846264,-94.451523,-24.467926,-98.791695,-19.579811,-91.589584,-13.327332,-70.156345,0.0,6.706836,16.724914,19.487627,35.281654,41.314978,50.90741,62.929598,62.100352,79.539285,0.0,66.255512,23.58736,97.942772,20.523148,96.901817,18.608723,88.779716,17.406521,71.679497,0.0,0.26281,25.086228,28.363631,46.750928,43.035962,61.565902,58.340554,70.366694,70.88725,36.534176,256.024603,-75.618382,241.916177
86,2.773361,1.695419,4.549713,9.317087,0.0,-71.925144,-25.86216,-94.456329,-23.618431,-98.324089,-20.887527,-91.597939,-17.259636,-73.155441,0.0,0.450593,21.681681,19.156645,40.335369,36.143319,53.858586,57.013353,62.696243,75.091033,0.0,72.944412,22.182541,96.884308,16.991215,100.243149,13.707218,91.844673,11.712914,70.665836,0.0,6.285266,28.763712,33.980943,48.292527,53.382922,60.69695,69.521207,66.627707,75.57318,40.154457,257.560212,-70.221748,251.073455
87,-2.158928,-1.669114,1.236706,9.132392,0.0,-54.401836,-27.739506,-77.105598,-23.328209,-76.431885,-18.804588,-67.957706,-13.723183,-53.71273,0.0,11.124769,24.696892,40.966273,40.953738,52.420974,53.187421,62.22058,62.836293,70.295805,0.0,71.777115,26.574612,100.337505,21.847973,103.266277,17.881966,94.075871,15.116158,74.136486,0.0,3.021571,29.437286,35.242627,47.841317,51.102665,59.654294,64.626623,65.846008,76.619973,38.425083,256.006927,-68.555489,260.321675
88,4.855957,5.365246,4.868145,3.091102,0.0,-49.630795,-43.862114,-26.880455,-42.556229,-13.399658,-38.64893,-13.55175,-32.146397,-24.174271,0.0,4.752188,15.395921,31.898596,32.906115,50.852514,48.332294,60.551836,61.845569,69.885905,0.0,71.54274,28.719406,100.208817,23.026428,101.765785,17.632599,90.280037,13.136044,71.750851,0.0,1.262796,29.579065,39.705453,47.432159,56.364603,59.111138,67.991094,65.880774,78.064871,43.823204,261.526456,-63.14518,263.56706
89,-2.976608,0.24799,5.177135,2.51318,0.0,-52.898083,-37.166805,-24.84066,-35.259705,-6.655769,-30.865574,-0.601044,-24.166031,-6.617889,0.0,13.648632,17.12975,24.225551,34.781599,44.67031,48.852789,53.990114,60.078705,62.045455,0.0,70.652561,29.870796,100.340481,23.769321,101.360836,17.524223,88.028469,12.169075,70.287266,0.0,-1.763407,29.297483,42.245989,46.163805,58.035569,57.353659,67.806584,64.071239,74.352436,40.967474,262.101384,-57.847166,266.407178
90,-10.681286,2.62007,3.028393,-0.000803,0.0,-38.019905,-30.840283,-7.549782,-31.912079,7.620105,-31.372376,9.183998,-29.721365,-0.796395,0.0,8.156087,14.735872,25.072428,33.934414,45.55612,49.610189,54.755017,62.278872,62.707822,0.0,69.107437,29.047623,99.264336,22.175617,100.712585,15.473099,87.218056,9.742699,67.385216,0.0,1.295709,30.139944,46.457243,47.730722,60.347998,58.881858,69.916904,64.721348,73.453721,30.348873,264.928904,-54.756088,266.613826
91,-10.681286,2.62007,-0.117702,-0.056502,0.0,-23.141727,-24.51376,9.741096,-28.564453,21.895981,-31.879177,18.96904,-35.276699,5.025101,0.0,2.663542,12.341993,25.919303,33.087229,46.441929,50.367588,55.519919,64.479039,63.370187,0.0,69.511585,29.050083,99.678097,21.834068,101.380291,14.954109,88.552608,9.050446,67.722988,0.0,6.724743,31.501973,47.421785,49.446889,60.839223,60.427533,69.774693,65.527808,71.67747,19.882593,267.557326,-54.658785,266.565676
92,-12.887192,7.494339,-0.578156,-0.337157,0.0,-0.529346,-15.536842,25.27153,-22.194099,40.917892,-23.842449,35.737267,-24.002495,23.662262,0.0,0.853452,12.270301,24.761421,32.307816,45.043591,47.556709,51.941915,58.449482,55.83182,0.0,69.51273,30.362949,100.684719,23.086853,101.914158,16.075459,88.167286,9.874592,67.061405,0.0,7.341259,31.310546,48.814503,49.420707,63.875799,60.690096,71.127706,66.18897,71.830981,7.14426,274.87282,-55.088081,266.049674
93,-13.080368,8.061084,0.458736,-0.004137,0.0,16.309319,-5.485325,36.383629,-9.612007,50.997734,-10.778503,48.235359,-10.643406,34.587936,0.0,-9.762678,8.482222,20.823103,26.012979,36.753104,39.50637,43.81272,50.127749,47.763141,0.0,69.009476,30.834732,99.687309,23.454952,101.492157,16.007538,87.540436,9.261131,66.283207,0.0,8.150252,31.956764,49.111585,49.934038,64.04444,61.054979,71.156049,66.497104,71.48981,-5.744934,282.849028,-54.438171,265.960661
94,-6.724377,10.667322,0.255089,-0.419224,0.0,21.888771,2.542248,47.118816,-2.133751,58.289051,-5.227261,50.919056,-7.529411,33.679562,0.0,-23.141461,3.470311,13.733415,18.889019,29.344475,30.757077,34.771101,40.254476,38.958397,0.0,68.889427,30.989571,99.790993,23.397732,101.506805,15.651226,87.60601,8.568764,65.833225,0.0,8.459806,32.040436,49.727113,50.091502,64.544927,61.269438,72.071252,66.698781,72.023828,-12.585125,293.529873,-54.298897,265.554961
95,41.513157,-24.830335,0.428467,0.351051,0.0,-31.495628,-37.734318,-1.752663,-40.928364,14.068336,-40.852547,12.930565,-39.171867,-1.518517,0.0,4.156852,14.721422,27.156905,34.444812,48.104003,51.075371,56.089937,64.580866,63.097744,0.0,69.404755,30.167713,99.533958,22.823296,101.922226,15.579987,88.59993,9.17593,67.47139,0.0,9.458496,32.339741,49.986897,50.591619,64.409323,61.839086,72.355798,67.057428,72.405816,28.776255,268.56835,-54.022207,265.774823
96,1.105957,5.244524,0.674114,0.060577,0.0,-27.290611,-35.773487,-5.537567,-41.010876,12.903099,-40.645237,11.646194,-37.767162,2.116814,0.0,4.680249,7.100001,20.181455,27.488381,43.491,44.285728,51.282791,56.775799,54.62392,0.0,69.373226,30.476532,99.259243,22.744331,101.232777,15.047836,87.700253,8.229504,66.679173,0.0,9.221498,31.464861,50.220807,49.663386,64.78773,61.026388,72.053592,66.548666,72.396183,29.696703,273.732753,-53.533602,265.755279
97,4.289474,-1.474291,-0.511379,-0.222425,0.0,-34.50016,-35.611782,-8.868942,-39.160366,5.883865,-37.657299,5.214272,-34.29594,-1.647835,0.0,4.780779,8.772943,23.947427,27.988189,45.555193,44.22194,52.736951,56.23116,57.567501,0.0,69.86515,29.606152,99.975929,21.946507,101.857338,14.646435,88.348732,8.316135,67.491074,0.0,10.923463,31.682593,50.768533,49.965284,65.061963,61.359717,72.637689,66.852231,73.565489,33.854685,272.275057,-54.176474,265.549449
98,2.562218,-4.140489,-0.057392,0.064097,0.0,-36.391125,-29.049225,-25.440788,-28.340778,-9.386215,-24.721413,0.073586,-19.581528,-1.654472,0.0,12.378488,9.212297,23.837512,28.142318,43.837235,44.714955,52.293089,57.435911,57.708786,0.0,70.586987,29.637508,99.958706,21.712589,100.8074,14.222031,87.256908,7.866211,66.43507,0.0,10.427792,32.053898,50.580997,50.50171,65.186884,61.947643,72.419463,67.297513,73.172509,36.270761,268.066072,-54.380007,265.54505
99,4.441109,-0.493818,0.18013,-0.36124,0.0,-42.163639,-20.350456,-38.728466,-18.311348,-23.343658,-14.561462,-7.853279,-10.401764,-6.247902,0.0,7.695707,7.10704,16.06369,25.178607,35.381134,41.062295,48.426958,53.852843,56.528674,0.0,70.162754,29.776154,99.653835,21.682663,100.455952,13.925858,86.978703,7.13047,65.618935,0.0,10.858686,32.303061,51.239072,50.521408,65.744984,61.742014,73.402653,66.941275,74.084501,40.653105,267.545269,-54.258642,265.156825
100,-0.506744,1.087579,0.1688,0.225327,0.0,-41.473818,-35.807619,-26.322985,-35.684567,-10.080471,-32.591944,-2.543793,-27.84914,-8.316422,0.0,7.140355,11.484064,25.456916,29.613923,43.409737,45.045258,52.754427,57.237105,59.390898,0.0,70.237026,29.996452,99.498653,21.960583,100.386486,14.180431,86.801205,7.436714,66.266384,0.0,10.98194,31.652644,50.899197,50.150103,65.393748,61.736395,72.843318,67.200503,74.130629,39.947462,268.601186,-54.28874,265.35049
101,-0.506745,1.087579,0.130806,-0.055205,0.0,-40.783997,-51.264782,-13.917503,-53.057785,3.182716,-50.622425,2.765694,-45.296516,-10.384941,0.0,6.585002,15.861087,34.850142,34.049239,51.43834,49.028222,57.081896,60.621367,62.253122,0.0,70.094433,30.202274,99.053364,22.064152,100.426769,14.104958,86.477909,7.035599,65.207977,0.0,10.561852,31.891124,51.456371,49.968866,66.299133,61.233376,73.828854,66.693224,74.777526,39.218359,269.663463,-54.380293,265.269982
102,-1.943207,1.169738,0.109863,0.073606,0.0,-39.437771,-31.740017,-26.80109,-31.30846,-8.533516,-27.683258,1.225548,-22.046471,-1.29261,0.0,10.794775,10.582292,16.104446,29.057953,38.731896,44.634556,48.247943,57.234049,54.859437,0.0,70.486736,29.714584,99.223995,21.439934,100.492115,13.428783,86.343899,6.454639,64.557438,0.0,10.55753,31.769414,51.384432,49.908968,66.24436,61.281047,74.047266,66.813143,74.639761,36.924877,270.823413,-54.620705,265.333802
103,3.127441,-2.870777,0.39711,-0.103061,0.0,-39.202766,-24.429817,-34.898415,-22.840691,-18.163147,-18.579597,-3.397064,-13.192177,-3.006134,0.0,8.285732,11.433521,20.361519,28.819967,39.982898,43.522184,50.953599,55.349241,57.462278,0.0,69.631176,29.848881,98.516407,21.517353,99.859943,13.276806,85.4389,5.990696,63.549213,0.0,10.787365,32.048773,52.174652,50.000605,66.572008,61.270117,73.990517,66.754048,74.454942,39.786959,267.931765,-54.488955,265.209868
104,0.868092,1.210308,0.295486,0.076138,0.0,-41.932211,-38.024111,-26.737919,-37.592183,-11.098366,-33.968869,-3.817063,-28.244133,-10.27771,0.0,7.759155,13.244629,28.130184,30.849857,45.779192,45.63377,53.639804,57.419608,59.880918,0.0,69.114819,29.95657,97.716122,21.365891,98.838787,12.873974,84.356518,5.44281,62.333965,0.0,10.142443,32.579456,52.794688,50.460893,67.060824,61.673903,74.309396,67.122451,74.001941,40.250731,269.122082,-54.597788,265.266015
105,0.868091,1.210308,-0.382118,-0.339133,0.0,-44.661655,-51.618404,-18.577423,-52.343674,-4.033585,-49.358139,-4.237061,-43.296089,-17.549286,0.0,7.232579,15.055738,35.898849,32.879748,51.575488,47.745357,56.326009,59.489976,62.299558,0.0,68.822422,30.08131,98.296452,21.630764,99.020176,13.308506,84.479656,6.00872,62.871952,0.0,10.946557,32.727533,53.344143,50.628051,67.837088,61.749918,74.833781,67.071692,74.662238,40.903444,270.182181,-55.195284,264.776674
106,-1.803131,-0.309493,-0.619926,0.042484,0.0,-40.40308,-31.039982,-30.34687,-30.02718,-15.383034,-26.491585,-4.84211,-21.021423,-6.699142,0.0,13.663822,8.654629,21.321985,27.494927,41.278607,44.011556,51.262228,57.602637,58.590088,0.0,68.937092,30.430984,98.379536,22.018204,99.67535,13.627281,85.099468,6.154232,62.870979,0.0,10.879805,32.301517,53.194213,50.222104,67.982078,61.431656,75.24757,66.970174,75.084858,38.927765,269.702334,-55.987759,264.648804
107,-0.31168,0.602406,0.564022,0.105161,0.0,-41.591549,-41.481113,-22.903862,-42.287779,-7.852649,-39.448871,-3.374576,-34.017048,-10.64106,0.0,10.651359,11.303814,28.049877,29.99165,46.562805,45.967408,54.21751,58.930301,60.229746,0.0,68.361053,29.660053,97.829132,20.984516,98.789291,12.471142,84.051018,4.86866,61.652985,0.0,11.677744,32.720185,53.357111,50.592545,68.333006,61.715338,75.478949,67.190315,75.241086,38.424082,269.976074,-55.61574,264.425299
108,-0.31168,0.602406,-0.468006,0.199454,0.0,-42.780018,-51.922245,-15.460854,-54.548378,-0.322266,-52.406158,-1.907043,-47.012672,-14.582977,0.0,7.638896,13.953,34.77777,32.488374,51.847004,47.92326,57.172792,60.257966,61.869405,0.0,68.173313,29.315643,97.49033,20.808849,98.63863,12.510281,84.05302,5.143948,62.04689,0.0,11.419627,32.727965,53.670618,50.787491,68.244456,62.019212,75.078003,67.537846,75.013165,37.985544,270.360764,-56.210604,264.407036
109,-0.743752,1.735989,-0.464745,1.219138,0.0,-42.369804,-34.054298,-24.750252,-34.807434,-9.718552,-32.383232,-3.061867,-27.908707,-8.120956,0.0,9.936012,10.961871,19.010358,28.936737,39.830312,44.069602,49.64517,56.368864,56.377817,0.0,69.605198,28.877678,98.193798,20.749512,99.524288,12.869167,85.161724,5.925121,64.166222,0.0,11.351084,32.576615,51.939939,50.579268,66.860814,61.512117,73.84034,66.651419,73.756977,37.212553,271.942902,-56.704588,265.472323
110,0.487003,-0.536456,-0.126457,-0.014388,0.0,-44.010315,-43.400202,-21.191711,-44.910793,-5.430507,-42.703285,-3.078975,-38.030004,-13.077965,0.0,7.828038,12.022372,26.578365,30.464565,45.559237,45.974385,53.413396,58.322368,59.638053,0.0,69.175587,29.236221,97.65398,21.169624,99.176502,13.165226,84.745274,5.969009,63.955994,0.0,11.545598,32.824049,51.941606,50.700299,66.685937,61.547315,73.938153,66.723543,74.057948,37.589235,271.242035,-56.941366,265.293525
111,0.487004,-0.536457,-0.183735,-0.360931,0.0,-45.650826,-52.746105,-17.633171,-55.014153,-1.142464,-53.023338,-3.096085,-48.151302,-18.034973,0.0,5.720064,13.082875,34.146372,31.992394,51.288163,47.87917,57.181623,60.275874,62.89829,0.0,68.689499,29.118977,97.739182,20.90189,98.605042,12.74271,84.402122,5.38353,62.908802,0.0,11.287234,33.249324,52.227449,51.094699,67.588913,61.761033,75.181065,66.731324,74.753196,38.004599,270.615114,-57.196741,264.842129
112,0.410843,0.838385,-0.048809,0.021366,0.0,-41.266651,-34.965992,-24.065323,-35.833111,-12.75135,-33.689003,-6.196976,-29.404564,-11.778374,0.0,9.362412,11.058758,24.04913,29.087717,42.959082,44.24664,52.517058,56.588201,58.935643,0.0,68.882618,29.121094,97.657299,20.856972,98.352985,12.688236,84.292774,5.323448,62.892036,0.0,10.94946,33.145213,52.547872,51.094637,67.699076,61.914051,75.283756,66.996233,74.634882,38.341141,271.416835,-57.319851,264.826831
113,-1.486873,-0.347408,-0.058823,0.209951,0.0,-41.825352,-43.603563,-18.640595,-45.335341,-5.654755,-43.451729,-3.446617,-39.049072,-14.006825,0.0,7.27213,13.315396,30.046084,31.250556,47.480633,46.226081,54.663842,58.200536,60.541463,0.0,68.736019,28.81937,97.751484,20.377407,98.23122,12.220058,84.025211,4.994087,62.386093,0.0,11.434941,32.593226,52.675139,50.552531,67.318447,61.573682,74.705278,66.885453,74.221957,36.632996,271.131439,-57.599945,265.098795
114,-1.486874,-0.347407,-0.040398,-0.008645,0.0,-42.384052,-52.241135,-13.215866,-54.83757,1.441841,-53.214455,-0.696259,-48.693581,-16.235275,0.0,5.181848,15.572034,36.043036,33.413395,52.002183,48.205521,56.810626,59.812869,62.147282,0.0,69.172382,28.70779,97.682133,20.271263,98.004971,12.14653,83.932858,5.01915,63.001499,0.0,11.386776,33.157069,53.059042,51.102788,67.674747,62.063487,74.831805,67.204579,74.55084,34.911919,270.786764,-57.874546,265.092882
115,-0.31929,1.412108,0.037994,-0.18451,0.0,-40.894375,-35.244484,-19.594231,-36.274052,-4.622269,-33.92458,0.81974,-29.705086,-6.226044,0.0,7.292106,11.51145,22.766451,30.108945,43.423075,45.428481,52.355396,57.675255,58.55878,0.0,68.614597,29.438095,97.419605,21.036587,98.060932,12.790947,84.004841,5.466614,62.820568,0.0,11.467793,32.957677,53.181801,50.998863,67.39866,62.208662,74.666746,67.685615,74.621668,34.313879,272.186584,-58.115301,264.896084
116,-3.272896,-0.84879,0.360432,0.548467,0.0,-37.728052,-41.421346,-12.564468,-42.92058,2.114868,-41.088609,3.701992,-37.167034,-7.499828,0.0,6.836758,16.616819,30.850845,33.997337,47.889389,47.782685,54.024138,58.419564,59.538296,0.0,68.600807,29.39146,97.662163,20.934277,97.989464,12.588501,83.664093,5.096283,62.531548,0.0,11.902515,32.570502,53.217123,50.541601,67.614108,61.711077,74.729484,67.108433,74.378989,30.777769,271.273065,-58.018084,265.379821
117,-3.272896,-0.848791,-0.021,-0.517962,0.0,-34.561729,-47.598209,-5.534706,-49.567108,8.852005,-48.25264,6.584244,-44.628983,-8.773613,0.0,6.381411,21.722189,38.93524,37.88573,52.355704,50.136889,55.692882,59.163872,60.517812,0.0,68.490429,29.335327,97.395,20.747452,97.962284,12.247009,83.420734,4.649677,61.421814,0.0,12.314761,33.22271,53.497161,51.261117,68.173319,62.285356,75.658704,67.501475,75.226204,27.329779,270.406366,-58.214178,264.843951
118,-7.191467,1.530731,-0.340691,0.082313,0.0,-24.25787,-30.969944,2.189598,-33.277302,11.406326,-31.552849,12.953911,-27.644005,2.282066,0.0,5.723584,15.501823,34.31563,32.62299,50.133307,45.804912,56.313412,56.168236,60.185904,0.0,68.588505,29.294758,97.798977,20.980167,98.421764,12.775497,84.241276,5.488815,62.591114,0.0,11.395606,33.4912,53.750708,51.497868,67.956761,62.597628,74.984822,67.87278,75.318398,19.954405,271.989045,-58.738775,264.978212
119,9.084892,-2.288779,0.340805,0.277136,0.0,-36.94788,-48.351116,-9.776344,-48.931274,6.410408,-46.342506,6.017647,-41.334171,-8.36174,0.0,6.333246,21.650621,37.141576,38.824275,51.606054,52.516935,56.317117,63.112132,62.436953,0.0,68.652248,29.141521,97.987232,20.696182,98.583698,12.501297,84.485493,5.227032,62.639866,0.0,11.486873,33.057836,53.566074,51.068455,67.896677,62.275908,75.09622,67.618492,75.04472,28.922195,269.674655,-58.515072,265.229737
