takenoko1/special-research/HandMotion_SimilarSearch_自分用/NewProject/handData/test_key/d4_feature_d2/18.csv
frame,vel_0x_L,vel_0y_L,vel_0x_R,vel_0y_R,posFromWrist_0x_L,posFromWrist_1x_L,posFromWrist_2x_L,posFromWrist_3x_L,posFromWrist_4x_L,posFromWrist_5x_L,posFromWrist_6x_L,posFromWrist_7x_L,posFromWrist_8x_L,posFromWrist_9x_L,posFromWrist_0y_L,posFromWrist_1y_L,posFromWrist_2y_L,posFromWrist_3y_L,posFromWrist_4y_L,posFromWrist_5y_L,posFromWrist_6y_L,posFromWrist_7y_L,posFromWrist_8y_L,posFromWrist_9y_L,posFromWrist_0x_R,posFromWrist_1x_R,posFromWrist_2x_R,posFromWrist_3x_R,posFromWrist_4x_R,posFromWrist_5x_R,posFromWrist_6x_R,posFromWrist_7x_R,posFromWrist_8x_R,posFromWrist_9x_R,posFromWrist_0y_R,posFromWrist_1y_R,posFromWrist_2y_R,posFromWrist_3y_R,posFromWrist_4y_R,posFromWrist_5y_R,posFromWrist_6y_R,posFromWrist_7y_R,posFromWrist_8y_R,posFromWrist_9y_R,posFromBody_0x_L,posFromBody_0y_L,posFromBody_0x_R,posFromBody_0y_R
2,-18.95668,10.351592,-0.238895,-0.479801,0.0,22.375946,-10.113487,34.217033,-13.771477,47.564621,-13.106575,43.525429,-10.453033,33.839378,0.0,-3.425481,8.079053,20.398755,26.699396,40.733783,41.293736,47.301433,52.36719,50.551728,0.0,70.005856,26.266022,95.327854,18.155594,95.089703,11.175556,80.977421,5.664196,61.295986,0.0,11.960746,34.617651,53.246392,53.080098,67.08398,64.012947,73.252908,68.555431,72.437432,-13.509178,281.178293,-56.431904,266.132867
3,5.467415,8.26801,-0.199585,0.104976,0.0,14.998741,-15.985622,26.952782,-17.887917,42.317276,-15.359116,43.455849,-10.114517,31.791115,0.0,-12.961103,1.202157,6.884306,18.828503,30.672973,33.746538,41.119291,45.970526,44.479378,0.0,70.037556,26.814766,96.093578,18.726025,96.113148,11.669312,82.464352,6.157551,62.565823,0.0,11.655329,34.324275,52.369598,52.990437,66.329267,64.142438,73.357266,68.78681,73.267234,-9.10203,289.673313,-57.691755,266.464853
4,17.062798,-19.080136,-0.274029,-0.091082,0.0,-10.389061,-25.165501,13.54557,-29.248009,25.232048,-32.522449,22.380981,-35.460835,5.535393,0.0,0.735756,12.417637,21.81074,33.388201,44.992894,51.160278,56.826558,65.957468,65.495019,0.0,70.011406,27.074718,96.471634,18.940544,96.001625,11.862659,82.61055,6.422081,62.832756,0.0,10.834233,34.192685,52.690947,52.85755,66.100729,64.144228,73.176338,68.932602,73.060432,7.186861,270.797463,-58.739691,266.578057
5,-12.45203,8.767756,-0.269909,-0.13264,0.0,10.7337,-22.699242,27.800961,-28.344612,40.851345,-27.167301,34.842281,-23.170853,25.004597,0.0,-1.031664,9.012411,24.689482,28.605693,43.162179,43.648711,50.712526,54.878147,53.245034,0.0,69.94669,27.807655,97.316608,19.512577,96.360455,12.018642,82.770596,6.098728,62.561703,0.0,10.808977,33.779328,51.613403,52.529099,65.799572,63.928658,73.346645,68.830467,73.631006,-5.711288,279.703987,-59.455719,266.584186
6,-2.735023,10.004246,-0.277519,0.268244,0.0,14.08041,-21.983643,29.364681,-25.381165,45.729847,-22.972927,43.638096,-17.282181,29.61462,0.0,-11.857314,3.463272,13.528466,21.940971,33.884859,36.396681,42.510898,47.892446,44.733666,0.0,70.362911,28.021317,97.000294,19.725838,96.222668,12.249126,82.558079,6.235428,61.96043,0.0,10.322446,33.592965,51.603893,52.310256,66.210953,63.677766,73.59939,68.605078,73.572034,-8.741198,289.780265,-60.028124,266.924461
7,-14.359875,2.060549,0.342579,-0.134801,0.0,22.67149,-2.068176,52.696724,-5.183144,62.67746,-6.338997,56.452446,-6.543159,38.410034,0.0,-17.520012,5.666959,15.53838,22.297024,35.352358,34.988216,41.264466,45.151716,46.193322,0.0,71.042175,28.332367,96.937408,19.730301,95.37838,11.843491,81.92379,5.372143,61.121693,0.0,9.870186,33.995393,51.238392,52.576647,65.8683,63.929461,73.83682,68.897096,74.349657,-23.243294,291.871597,-59.827766,266.820443
8,27.890053,-22.084356,-0.145683,-0.130726,0.0,-10.214195,-26.022835,14.930878,-30.235405,27.541008,-33.566551,24.530296,-36.543732,6.845856,0.0,2.998291,12.527985,25.319645,33.582838,47.664464,51.554246,58.818564,66.559164,67.041496,0.0,70.273476,28.198929,96.748924,19.683895,95.406303,11.911354,81.716194,5.632038,60.693626,0.0,10.891229,33.787479,51.765617,52.297844,66.601463,63.666342,74.074374,68.7886,74.214424,4.514151,269.813995,-60.106058,266.71647
9,-23.28289,10.075259,0.124168,0.2688,0.0,24.189835,-9.387646,38.129539,-14.166069,52.34333,-13.739491,49.476814,-11.338005,39.803238,0.0,-2.543685,6.640269,20.129276,26.905334,41.770572,42.947226,51.018931,55.496701,54.223284,0.0,70.686607,27.670326,96.372185,19.379368,95.324707,11.986084,81.909943,6.028805,61.58844,0.0,10.632248,33.796062,51.906161,52.414429,66.268813,63.8603,73.847132,68.952486,74.42382,-18.870277,279.86937,-60.083427,266.965386
10,25.968475,-10.840902,-0.091667,0.344567,0.0,-15.074444,-33.18861,10.686722,-36.954975,24.913559,-39.190292,22.971954,-40.639973,4.144135,0.0,5.194012,14.339681,29.470261,34.655875,50.074027,51.711215,59.808547,65.774933,67.00778,0.0,70.410347,28.198528,96.484566,19.586449,94.739571,11.702499,80.866127,5.174561,60.035648,0.0,10.839359,33.227217,52.282777,51.533992,66.319819,62.892054,73.847256,68.072666,74.252153,7.035227,268.994412,-60.238066,267.275898
11,-15.47081,10.027217,0.071812,0.275592,0.0,12.208672,-22.607517,26.579475,-28.007183,41.422119,-26.2607,40.338936,-21.441765,29.218025,0.0,-0.607068,6.190294,23.711355,26.440415,45.189507,42.883315,53.80968,55.805947,56.135138,0.0,70.54945,26.929436,96.572285,18.42104,95.45042,10.968533,81.677456,4.960499,60.833073,0.0,11.889486,33.056045,52.533298,51.395238,66.831236,62.804739,74.019354,67.973186,74.51027,-8.521843,279.025319,-60.252514,267.55518
12,-0.490322,7.858172,0.316486,0.083672,0.0,12.76125,-23.905106,27.81641,-27.279339,43.146,-24.537621,43.001118,-18.541203,30.678349,0.0,-6.143548,4.655611,18.308441,23.437986,37.671827,38.109205,46.728081,49.554026,48.630611,0.0,70.633049,26.97052,96.032867,18.464813,94.930344,10.833035,81.429176,4.682121,60.278778,0.0,11.358433,32.953972,51.422532,51.304959,65.748998,62.693773,73.643974,67.712785,74.537996,-9.083605,286.892538,-60.007467,267.647898
13,17.758083,-14.703267,-0.32198,1.64429,0.0,-14.126358,-32.109203,10.601807,-35.889587,22.682076,-38.01281,21.49189,-39.089584,4.9506,0.0,0.812141,15.484966,27.833504,35.227066,48.625856,51.433709,58.011733,64.450696,64.698377,0.0,70.45927,25.724487,96.35107,18.130074,97.106152,11.996727,85.162868,7.761726,66.31216,0.0,10.455209,31.964113,51.085313,50.762482,64.230494,62.549462,70.806727,68.052289,72.491526,8.658657,272.272819,-60.345268,269.375736
14,-17.968769,12.725216,-0.583935,-0.79726,0.0,9.198761,-21.765862,28.571491,-25.125103,46.313953,-22.398033,45.60442,-16.748085,34.363232,0.0,-1.222658,7.978338,24.027024,27.41249,41.77613,41.904077,46.732094,52.581464,48.738365,0.0,69.747276,26.794567,97.09465,19.026546,97.772484,12.40654,85.154457,7.558193,65.111961,0.0,9.639857,32.641021,50.727469,51.428337,64.72635,63.034327,72.039451,68.176963,73.593585,-9.330053,285.05923,-60.949144,268.639672
15,-3.657703,5.284477,-0.570202,0.130911,0.0,13.390217,-18.356838,32.436218,-21.71917,47.648277,-20.105438,46.618652,-15.580215,33.058891,0.0,-8.912807,6.614766,20.423393,24.513617,37.850718,38.028497,44.313763,48.201507,46.704307,0.0,70.507679,26.701813,96.785374,19.370899,98.101902,13.211288,85.827084,8.690014,66.496754,0.0,10.002393,32.825408,51.042026,51.717761,64.736785,63.408225,71.641284,68.616996,72.918839,-12.997856,290.399035,-61.529446,268.825911
16,-1.175938,4.496789,0.145283,-0.244038,0.0,8.582039,-15.954781,35.459003,-18.274326,50.027905,-16.92255,48.307743,-13.044033,35.516109,0.0,-18.879756,5.928657,16.181572,22.346671,33.720603,34.602893,40.011365,44.286469,42.661322,0.0,69.904175,26.810417,96.352043,19.250679,98.107796,12.773209,85.405426,7.888813,65.403557,0.0,9.763543,33.132739,51.671201,51.711462,65.16626,63.189382,72.158197,68.214507,73.186774,-14.176826,294.918686,-61.387196,268.604736
17,2.072983,-0.40675,-0.031471,-0.171296,0.0,9.203224,-19.50325,33.917942,-22.538681,47.521191,-20.847301,45.617809,-15.867405,32.003345,0.0,-16.232701,5.551115,15.615506,22.457452,34.499646,35.009149,41.144053,44.94195,43.556518,0.0,70.746689,26.657982,96.405144,18.999138,97.57267,12.569504,85.078697,7.740498,65.58094,0.0,11.132241,32.992689,51.943953,51.679599,65.230418,63.28775,72.357466,68.504549,73.86115,-12.12101,294.519099,-61.435833,268.440604
18,28.01405,-23.264035,-0.356827,-0.200751,0.0,-24.113617,-40.246296,3.493881,-43.769016,16.827507,-44.324455,16.946068,-43.183308,0.941849,0.0,1.652997,16.264009,31.090406,36.004257,50.751984,51.802482,59.474477,64.341459,65.336258,0.0,70.8181,26.616669,97.208061,19.068661,98.36483,12.675419,85.835609,7.95433,66.145592,0.0,10.690725,33.372269,51.733939,52.109011,65.474209,63.693636,72.492143,68.848251,73.943401,15.877104,271.257534,-61.808596,268.242323
19,-13.0933,10.132255,0.320606,0.004755,0.0,-7.382355,-28.467751,16.797867,-32.668533,35.083008,-30.608997,32.976952,-26.285248,21.180725,0.0,1.226425,8.830988,25.249249,28.389011,44.41948,43.231957,50.020674,54.746495,51.300205,0.0,70.386486,26.560879,96.863308,19.019451,98.013554,12.622948,85.720539,7.862492,66.098614,0.0,11.691576,33.152314,51.546218,51.879485,65.337617,63.477695,72.554943,68.609895,73.976808,2.777452,281.389711,-61.494341,268.247001
20,-15.956726,6.096865,0.426006,-0.042423,0.0,9.961739,-16.606636,32.616005,-20.089703,47.683296,-18.425846,45.832329,-14.022102,34.139328,0.0,-8.007855,6.390241,18.417616,24.533686,37.563331,38.656931,44.313825,49.261638,47.143723,0.0,69.90818,27.001019,96.688385,19.212685,97.654953,12.429199,85.048256,7.202282,65.017776,0.0,11.789574,33.093837,51.253768,51.825577,65.176016,63.379079,72.849308,68.499485,74.44605,-13.185682,287.466322,-61.074743,268.184324
21,-10.074978,6.654657,-0.007439,-0.351545,0.0,22.908955,-6.244011,43.936787,-8.270016,58.327732,-7.597504,55.425854,-5.027103,41.877422,0.0,-15.811131,5.97003,16.81192,22.961582,35.644067,35.490432,41.875857,44.738791,44.666728,0.0,69.842033,27.194881,96.59935,19.345608,97.708855,12.394695,84.978561,6.946793,64.876213,0.0,12.175761,33.193378,51.682995,51.932282,65.62735,63.535987,73.293602,68.70357,74.870707,-23.261461,294.115252,-61.082983,267.827052
22,36.317654,-22.526674,-0.135498,-0.065394,0.0,-20.194874,-36.149654,5.885811,-39.99836,18.117142,-41.530151,17.535782,-41.542568,1.06842,0.0,1.931491,15.294404,29.05289,34.829085,49.66246,50.955884,58.91718,64.116194,65.633895,0.0,70.22953,27.392521,96.528969,19.634972,97.524719,12.815437,85.041847,7.484264,65.344276,0.0,11.924375,33.578145,52.035652,52.241157,65.55257,63.834365,73.015169,69.072961,74.721951,13.051386,271.577864,-61.223288,267.750944
23,-17.426605,10.668742,0.070152,-0.010559,0.0,2.921276,-24.34742,25.59906,-27.925358,42.250786,-25.578747,39.654579,-20.808678,27.276306,0.0,1.291572,8.771646,25.405231,28.009061,44.107949,42.754689,49.704883,54.090891,51.419753,0.0,70.0811,27.481441,96.628876,19.630795,97.500801,12.677422,84.895592,7.211781,64.770355,0.0,11.98594,33.420496,51.99712,52.132909,65.69651,63.749088,73.307372,68.982188,74.784195,-4.379597,282.244584,-61.157513,267.738363
24,-9.852448,3.069798,-0.152206,-0.17074,0.0,17.569084,-19.412556,31.675301,-22.784157,47.833557,-20.465412,47.290993,-14.973392,34.691048,0.0,-2.885103,6.867881,20.659218,25.501809,40.406814,40.068052,48.005017,50.97583,50.668251,0.0,69.919968,27.529964,96.967163,19.713879,97.894821,12.704372,85.218086,7.209549,64.936295,0.0,11.848854,33.536772,51.693925,52.233685,65.641614,63.81689,73.148859,69.029674,74.846192,-14.238081,285.314784,-61.315756,267.568024
25,-2.432499,5.476212,-0.601559,0.190438,0.0,15.585423,-16.440468,34.819622,-18.320389,51.083393,-15.562077,50.880833,-10.677395,38.073521,0.0,-13.491848,8.77813,19.819906,26.499881,36.442623,39.267519,42.513738,48.607146,46.874367,0.0,71.511669,27.128048,97.091045,19.279518,98.013096,12.385025,85.108967,7.126122,64.436474,0.0,9.529509,34.566275,50.99065,52.974258,65.845576,63.901673,73.366961,68.263475,74.956046,-16.671124,290.794577,-61.917858,267.762044
26,-0.333767,2.456617,-0.166683,-0.358461,0.0,16.457863,-16.444016,34.77253,-19.133492,52.222137,-16.961918,50.647888,-12.17577,36.434441,0.0,-17.27653,5.48004,16.502921,22.82357,35.165131,35.953869,41.511035,46.11354,44.388604,0.0,70.969734,27.01498,97.433167,19.113007,98.681717,12.369633,85.829773,7.426243,64.934349,0.0,10.140591,34.660136,50.784095,53.319443,66.010079,64.389686,73.55178,68.899813,75.184893,-17.007952,293.287271,-62.087603,267.43966
27,-14.246464,-2.089263,-0.08709,0.221005,0.0,32.273769,0.642014,59.624004,-1.337986,70.929623,-1.34697,65.640621,0.450096,50.817661,0.0,-13.539766,6.350845,21.454501,24.427845,41.726606,37.803232,46.19925,48.057135,49.72983,0.0,70.887222,26.838055,97.331429,18.922806,98.74752,12.192249,85.930595,7.288456,65.000496,0.0,10.193141,34.464881,50.907719,53.202055,66.047067,64.307929,73.605071,68.808484,75.106223,-31.24855,291.203272,-62.168827,267.665929
28,35.526409,-19.607608,0.185108,-0.124057,0.0,-8.924847,-28.127232,16.64772,-32.678432,28.027153,-36.086197,26.015282,-38.883305,8.076668,0.0,-0.409714,12.832415,26.707547,32.869991,48.744046,49.876981,58.311779,63.978058,65.378557,0.0,71.092129,27.326202,97.260303,19.363747,98.705463,12.371235,85.781422,7.091732,64.708614,0.0,10.87363,34.709227,50.823615,53.331176,66.279372,64.395182,73.667315,68.892032,74.86867,4.280491,271.589211,-61.981087,267.53542
29,-32.734795,7.840079,0.024548,0.130911,0.0,35.661736,-6.861362,48.267174,-8.442593,66.253281,-5.698586,66.94725,-1.050339,53.845024,0.0,-1.041174,8.646478,20.622291,28.857758,44.11116,45.074528,52.04405,57.686556,55.844417,0.0,71.020317,27.515488,97.555733,19.46497,98.653107,12.392693,85.543556,6.954746,64.158554,0.0,10.748091,33.714119,50.999665,52.520887,66.272703,63.902599,73.925,68.731173,75.127651,-28.443975,279.419179,-61.946211,267.656219
30,32.008781,-6.569132,0.117817,-0.050821,0.0,-7.608604,-21.316738,17.1698,-25.968876,27.919121,-30.45393,24.228859,-34.798679,7.959023,0.0,-1.130341,10.812559,21.434433,31.545136,44.570089,49.713713,56.168175,64.998854,65.633587,0.0,71.013508,27.565498,97.969608,19.457474,98.805485,12.338047,85.607243,6.821194,64.386005,0.0,10.064576,33.498302,50.992934,52.500571,66.091589,64.087233,73.895236,69.039986,74.991368,3.571529,272.841463,-61.821671,267.596815
31,-31.700935,6.672441,0.188255,0.124057,0.0,36.01696,-2.188854,51.868629,-4.434929,67.76001,-2.821369,67.01683,0.322781,55.667038,0.0,-0.990909,10.099836,23.056986,29.807603,42.72264,45.152828,50.531782,57.05843,54.270893,0.0,71.570263,28.475819,98.506794,20.161686,98.690929,12.527103,85.040417,6.421509,63.307056,0.0,8.999814,33.511208,50.57896,52.315011,65.842859,63.780333,73.699858,68.762851,74.995814,-28.155355,279.501955,-61.659365,267.708923
32,37.874794,-7.551026,1.02602,0.557483,0.0,-12.855663,-22.896595,8.196373,-26.873531,19.281578,-30.716286,15.231628,-34.245358,0.70015,0.0,-0.203282,10.488801,22.465911,32.019997,42.765865,50.557656,55.272053,65.477049,65.976054,0.0,71.122398,27.979088,97.330284,19.854355,96.980896,12.423534,83.834152,6.408463,62.601814,0.0,9.107383,32.675972,49.41021,51.604017,64.951245,63.318749,73.177696,68.639658,74.247399,9.716835,271.926553,-60.635948,268.24203
33,-30.903568,9.948609,-0.004463,-0.765273,0.0,24.2803,-2.573147,46.848392,-6.092892,60.039883,-5.696239,55.340595,-3.805676,46.942806,0.0,-4.403051,7.701079,19.347763,27.462137,39.233865,42.980633,47.127112,55.069017,50.01487,0.0,70.977745,28.241158,97.704849,20.191555,97.915878,12.652988,84.490471,6.430721,62.495499,0.0,8.538106,33.012573,49.395945,51.660518,65.682678,63.153134,74.21393,68.310899,74.700461,-21.193142,281.83044,-60.64682,267.432034
34,14.235878,-9.170801,0.049953,-0.937248,0.0,9.023495,-8.062191,31.584949,-11.791935,40.471745,-17.214317,38.159237,-23.414326,21.441708,0.0,-4.899092,9.404835,22.157839,29.526021,45.631949,46.898759,55.959026,61.379477,64.761239,0.0,71.063633,28.601875,97.9426,20.371742,97.798061,12.627869,83.912487,6.113262,62.141361,0.0,9.052178,32.803363,51.222028,51.133849,69.778213,62.356184,76.628371,67.611576,75.6642,-6.967077,272.638227,-60.60668,266.473374
35,1.631756,12.642594,-0.479507,0.509997,0.0,9.261818,-21.394215,29.283943,-27.488365,36.088257,-27.645035,33.306656,-24.799118,17.966881,0.0,-12.663898,6.017269,21.694155,23.890246,40.97782,38.84422,51.046349,50.541601,55.114527,0.0,71.234264,27.977943,96.582012,20.496826,95.951443,13.532238,82.05534,7.659588,63.343334,0.0,6.357575,31.17451,49.395945,49.622384,71.563911,60.8257,79.899352,66.670438,81.324305,-5.362616,285.253589,-61.113482,266.956139
36,-1.302681,-2.563754,-3.221226,-5.273423,0.0,11.119881,-19.026031,28.441429,-27.610016,32.458305,-29.857063,25.540466,-29.022217,13.224907,0.0,-11.348367,9.725628,30.83124,25.546207,47.058075,38.1415,53.595035,48.153404,55.858064,0.0,71.473274,27.556973,94.133034,19.802856,93.931618,12.487793,79.575348,5.891705,61.45792,0.0,5.298865,29.238944,51.468413,47.280314,72.858817,58.735942,82.613591,65.603823,84.996663,-6.712246,282.708376,-64.381657,261.701256
37,3.867016,18.228845,-0.561447,-13.920828,0.0,-40.875378,-21.758423,-24.474449,-19.110031,-14.950905,-16.570301,-17.579556,-14.485588,-23.178234,0.0,31.417251,4.64641,10.653428,-7.892135,1.452617,-20.75703,-13.20267,-33.718504,-33.7353,0.0,66.896553,21.726208,87.059784,14.526043,85.095978,8.607216,72.293015,3.473854,53.339882,0.0,14.596315,22.890692,46.868748,41.273296,68.929577,55.203263,78.647671,65.863051,81.770575,-2.828522,300.92061,-64.926395,247.763818
38,5.632496,-47.851629,7.614956,14.052665,0.0,-45.902309,-25.652962,-42.353954,-24.660702,-47.526455,-23.634167,-52.234497,-22.225971,-49.954948,0.0,-2.281307,24.308482,2.885535,45.840851,27.941073,60.616119,39.270483,68.449097,56.955492,0.0,45.801601,12.273502,38.135777,6.518497,27.870541,1.156712,19.356937,-2.817936,14.610386,0.0,30.525205,9.08151,40.596759,10.536349,40.835486,11.066044,34.757084,10.849424,27.283185,2.772045,253.07917,-57.343369,261.826671
39,17.369499,11.684475,-15.363522,-16.579986,0.0,-54.761124,-31.13863,-86.021633,-28.616467,-90.407982,-24.127579,-82.325249,-18.981056,-64.387035,0.0,6.438777,19.429458,28.626132,36.464606,43.733865,49.484681,59.958909,57.666795,69.356766,0.0,60.207424,21.106625,39.437199,17.220039,39.815769,13.202248,31.445217,8.49638,25.913887,0.0,-11.364422,-10.546106,-8.656667,-33.873003,-29.759561,-54.456947,-43.48322,-71.46474,-58.846846,20.020752,264.712824,-72.827682,245.195865
40,8.234596,-0.0515,-10.326462,-53.553415,0.0,-58.907547,-32.050266,-91.489906,-29.852314,-96.804371,-24.515762,-88.026981,-17.377052,-68.826199,0.0,11.31391,22.508396,30.622215,40.336975,44.189398,53.939294,63.745938,63.332272,73.396046,0.0,49.306583,20.483265,31.573792,15.493755,26.148777,9.198647,19.905567,1.646347,15.220184,0.0,-7.710465,-16.867681,-23.670291,-35.98036,-34.871446,-51.80452,-48.915465,-64.0261,-61.122966,27.804565,265.133668,-83.604927,192.114794
41,3.142776,-1.00048,-39.682217,-88.977002,0.0,-62.166309,-34.391899,-94.712791,-31.702938,-99.504433,-26.212921,-91.466045,-18.78376,-72.747688,0.0,9.21063,24.814465,29.435248,42.673919,43.11352,55.608901,62.285973,64.04586,72.485104,0.0,34.628906,19.790154,29.182034,34.395161,38.563786,46.373863,48.2024,55.893574,58.843288,0.0,-46.521618,-17.369187,-22.785562,-3.311119,-2.75024,12.525978,11.789358,28.362613,27.394798,30.445719,265.590189,-123.788767,104.594793
42,-1.337128,-1.23402,-15.070152,-37.018044,0.0,-62.098217,-33.611012,-94.572716,-30.49633,-98.195114,-24.853134,-89.997826,-17.366638,-71.901798,0.0,11.870837,25.860579,30.86193,43.81482,45.139736,56.620805,63.681903,64.788903,73.609332,0.0,22.770481,15.836334,19.357853,28.444347,27.494087,40.235252,37.935047,51.239262,66.299801,0.0,-53.830304,-24.487651,-35.488178,-12.858844,-14.246407,0.195008,-1.501708,13.655764,-15.577406,29.121981,264.78694,-138.84553,68.007519
43,-0.347672,-1.196661,30.506229,-25.926096,0.0,-62.613773,-33.416805,-93.826504,-30.22562,-98.091831,-24.36985,-89.561863,-16.776352,-70.222893,0.0,13.342597,26.073247,31.414534,44.20959,46.191161,57.215153,64.305829,65.559424,73.940129,0.0,18.423271,-15.861168,-14.058723,-25.080299,-23.824539,-32.10331,-29.162178,-37.714577,-38.365746,0.0,-51.216934,-51.817488,-77.698969,-50.104408,-78.426666,-44.565272,-73.055863,-35.71616,-65.650784,27.982264,263.786521,-109.131346,42.277667
44,0.352592,-1.094711,-44.163494,-43.007989,0.0,-63.068504,-33.617363,-93.70348,-30.439224,-97.823696,-24.539108,-89.749317,-16.848907,-70.18261,0.0,13.582929,26.792948,33.064073,44.903047,47.081108,57.6994,64.065003,65.83971,74.224736,0.0,13.882713,-0.556068,1.897545,9.570236,5.145035,20.173874,18.256245,31.614933,35.111332,0.0,-55.863189,-44.668797,-57.04006,-40.644152,-55.913701,-32.603168,-45.360679,-23.753716,-43.485474,26.63744,265.228625,-154.992256,1.806493
45,1.554451,-0.187104,-16.701736,-12.338628,0.0,-64.332619,-34.733963,-94.918556,-31.724854,-98.98344,-26.053963,-91.180801,-18.513222,-71.609287,0.0,12.978702,26.403426,33.336516,44.545944,46.19678,57.400651,63.293246,65.662362,74.253882,0.0,7.968407,-1.734066,11.026497,12.874832,22.524204,28.871384,32.112522,44.453316,55.969906,0.0,-71.47746,-21.161187,-65.426754,-16.37201,-46.995676,-12.329828,-36.439319,-10.110518,-72.958915,23.741341,267.137608,-176.144543,-8.436048
46,0.373192,-1.263413,-7.580452,-28.529802,0.0,-64.729671,-34.868259,-95.102863,-31.526527,-99.454079,-25.599403,-91.605778,-17.982674,-72.754841,0.0,13.900265,26.653516,34.262895,44.899589,47.241844,57.79184,64.301939,66.076214,74.916217,0.0,13.917103,-7.15662,7.649002,8.497181,24.183025,25.675564,36.965733,43.30759,57.184525,0.0,-63.808028,-26.891378,-43.309948,-17.164299,-35.347943,-9.358429,-28.022615,-4.609143,-68.601157,20.362587,266.570878,-187.47694,-36.269166
47,1.512566,0.121772,-3.621712,-2.860619,0.0,-65.422554,-35.196018,-96.144676,-31.956367,-100.463963,-26.201134,-92.843113,-18.985176,-73.837337,0.0,13.525378,26.439736,33.503057,44.828329,46.541224,57.799806,64.067843,66.172729,75.37422,0.0,0.872841,-11.774769,7.016087,5.196877,22.813454,24.123917,35.347595,42.763653,49.959698,0.0,-76.258949,-28.987372,-48.876069,-20.70587,-39.185731,-14.517769,-30.798913,-11.851201,-79.649664,17.821655,266.808031,-195.152149,-39.014404
48,1.740303,-0.093552,-3.981571,0.759283,0.0,-66.589794,-36.224327,-97.271919,-33.20137,-101.961651,-27.612419,-94.625015,-20.367622,-75.362949,0.0,13.839132,26.661852,33.223204,44.846669,46.692142,57.675255,64.682939,65.857802,75.803385,0.0,-6.867657,-11.631546,7.329311,5.402527,22.813625,24.346046,37.327137,42.911625,47.321949,0.0,-75.468112,-29.736004,-49.872936,-22.392521,-41.991423,-17.020544,-34.752329,-14.663839,-83.067333,17.889175,267.040351,-200.806503,-37.929249
49,1.539001,-0.006113,-0.355682,3.42687,0.0,-67.647114,-37.354088,-99.640045,-34.187622,-104.394779,-28.502541,-96.664295,-21.137009,-77.122993,0.0,13.301965,26.469561,34.28494,44.765405,47.258208,57.685629,64.554869,65.968027,75.771522,0.0,-7.059574,-14.296303,5.786877,1.868877,20.673752,20.812054,35.644283,39.42215,45.276432,0.0,-74.721796,-26.843244,-47.396837,-19.60307,-41.73627,-14.915719,-34.91816,-13.599972,-82.766918,17.770786,267.290163,-202.819576,-34.246454
50,0.175896,0.153326,-1.021729,9.067801,0.0,-67.15313,-36.907482,-99.274521,-33.687172,-104.309464,-28.073959,-96.393471,-21.13781,-77.10577,0.0,12.972588,26.094057,33.180905,44.447391,46.667627,57.39003,64.020789,65.633463,75.019217,0.0,-9.509068,-13.516159,3.089504,3.758869,17.931805,22.58028,32.232742,40.065937,42.321911,0.0,-74.414032,-24.624428,-46.781433,-18.56486,-41.155507,-15.382614,-35.719402,-15.407129,-83.314767,17.933722,267.609721,-203.854265,-25.012421
51,1.188698,0.320361,-0.227337,6.473234,0.0,-68.288097,-37.489014,-100.294132,-34.169426,-105.078392,-28.464088,-97.37051,-21.449203,-77.573833,0.0,12.135376,25.547072,33.40864,43.761467,47.013676,56.685087,64.018443,64.936795,74.587458,0.0,-10.59288,-13.458824,3.316956,3.284798,17.579098,21.591797,31.671581,38.688526,41.063576,0.0,-73.6135,-22.039309,-44.911816,-15.144906,-40.636557,-11.6201,-35.533719,-11.857376,-81.09589,17.56485,268.040214,-205.639172,-18.429055
52,0.046806,-0.243729,-2.040138,3.902842,0.0,-67.573986,-37.51997,-100.488453,-34.093552,-105.522251,-28.282013,-97.652721,-21.048889,-77.683296,0.0,12.262891,25.30958,33.178064,43.571091,46.628477,56.594808,64.010539,64.947478,74.762274,0.0,-12.076836,-15.131092,2.986679,1.79615,16.382961,20.444927,31.131248,38.252678,38.654423,0.0,-74.604223,-22.062187,-44.730918,-15.797855,-39.856093,-12.753467,-34.432369,-13.693216,-81.226399,17.404146,267.786126,-207.88682,-14.536572
53,0.222359,0.162589,-1.642685,-1.32186,0.0,-67.824726,-37.888412,-100.405197,-34.616547,-105.682869,-28.860054,-97.816658,-21.501503,-77.635403,0.0,12.222074,24.950933,33.01986,43.243937,46.136635,56.314708,63.717163,64.690658,74.821863,0.0,-12.665005,-13.676376,2.583904,3.299618,15.165367,21.732388,31.395435,39.276066,37.346935,0.0,-73.059784,-21.095145,-44.227714,-15.574257,-39.789804,-13.380141,-35.253959,-15.050274,-81.140412,17.335453,267.903499,-209.820557,-15.903649
54,-0.136642,0.040138,-1.652184,-11.148358,0.0,-68.276939,-37.648258,-100.39587,-34.536209,-105.387096,-28.99086,-97.929668,-21.868057,-78.013573,0.0,12.49359,25.361882,33.066481,43.73794,45.891177,56.651866,63.09089,64.86924,74.304703,0.0,-17.825546,-10.294361,2.129345,6.18124,13.554211,23.974113,28.02103,40.899982,37.260475,0.0,-71.645391,-19.285086,-44.568236,-14.421716,-40.30823,-12.443665,-36.311095,-14.268853,-80.870902,16.594019,267.941784,-212.077532,-27.053859
55,-1.100349,-0.302886,-1.13903,-13.788033,0.0,-68.07375,-37.291088,-100.064106,-34.142189,-104.923897,-28.537102,-96.806316,-21.466599,-77.071495,0.0,11.980136,25.46624,33.16979,43.790428,47.298901,56.761534,64.732648,65.057826,74.883798,0.0,-17.262325,-6.839561,-1.760216,8.224239,11.367474,24.873619,23.987503,40.92104,36.581898,0.0,-69.061136,-18.985195,-55.728327,-17.247137,-51.842898,-16.821028,-48.610727,-18.651187,-85.56239,15.470781,267.504699,-213.23945,-40.976091
56,-1.15036,0.233972,-1.761017,-25.551919,0.0,-67.500401,-37.358437,-100.067425,-34.17263,-105.04549,-28.591919,-96.701431,-21.557007,-77.243214,0.0,11.390604,25.061652,32.809229,43.293029,46.163002,56.238694,62.831662,64.708751,73.767104,0.0,-14.706173,-13.667908,0.778027,3.675041,15.282784,22.604027,30.798855,40.608101,34.609108,0.0,-70.905188,-24.286684,-43.487265,-17.373787,-41.652351,-13.326634,-35.612728,-13.449456,-85.046589,13.938618,267.658797,-215.382271,-66.607885
57,-0.295944,-0.053908,1.818695,-19.987466,0.0,-67.808418,-37.283306,-100.927677,-34.291534,-105.184422,-28.99704,-96.624298,-22.290802,-77.42466,0.0,11.363496,25.084252,33.336145,43.445429,46.04969,56.469579,62.494937,64.821507,73.587842,0.0,-18.757267,-8.747921,3.395462,5.749111,13.747158,22.070789,28.321495,39.005814,37.286224,0.0,-72.821813,-27.659862,-49.728996,-24.141972,-46.650121,-21.121667,-43.32554,-20.825234,-89.901715,12.593079,267.302405,-214.613171,-86.897835
58,-0.974121,-0.371614,-1.696072,-29.718034,0.0,-68.481846,-36.769009,-100.59763,-33.767967,-105.239868,-28.502769,-96.527424,-21.821938,-77.137928,0.0,11.448341,25.137975,33.275136,43.420111,46.463109,56.407149,62.870132,64.740367,73.943216,0.0,-9.557762,-11.178188,2.151489,6.001053,17.594891,24.291058,32.389584,41.407471,36.238403,0.0,-71.622929,-26.919042,-45.656634,-21.608044,-41.680015,-18.250767,-35.944791,-17.378048,-88.82627,10.103159,266.953947,-217.825041,-116.592713
59,-0.983047,0.055081,0.240669,-24.500665,0.0,-67.641735,-37.416,-100.793266,-34.701977,-105.02924,-29.42791,-96.729813,-22.622566,-77.568455,0.0,11.243083,25.154339,32.670846,43.430917,45.777433,56.434813,62.780471,64.780566,74.033742,0.0,-5.065155,-12.152481,1.340904,5.41832,15.853558,24.1535,32.51564,41.420231,38.437843,0.0,-69.764813,-28.296432,-47.133472,-24.097126,-43.261767,-21.528679,-37.577426,-21.455042,-90.490304,8.326178,266.49508,-218.378305,-141.607326
60,-0.595551,-0.162095,2.301121,-14.677533,0.0,-67.517052,-37.564144,-100.304146,-34.865856,-104.194508,-29.607925,-96.00523,-23.113976,-76.658764,0.0,11.402522,24.823851,33.526089,43.197995,46.116504,56.404185,62.131227,65.067027,72.773293,0.0,-9.594097,-9.376945,4.974461,6.626701,15.898018,24.580479,32.473869,42.683887,36.755447,0.0,-72.703669,-32.884302,-47.869691,-30.00735,-46.134088,-26.971052,-42.197221,-25.505699,-94.652514,6.638718,265.733435,-217.169094,-156.884409
61,-0.661469,0.24978,0.973778,-10.707383,0.0,-67.303104,-38.468113,-100.432549,-35.598507,-104.737358,-30.1054,-95.704479,-23.276711,-76.696815,0.0,10.901418,23.730869,33.024429,41.55599,46.131263,54.699009,62.304066,63.471149,72.05248,0.0,-6.590824,-11.221676,2.061596,4.999237,13.728447,23.412151,31.558514,42.055664,36.260033,0.0,-67.121061,-34.538873,-54.814652,-32.350917,-49.718885,-30.214646,-44.010646,-29.391328,-100.993277,5.28265,265.42388,-216.889915,-168.151127
62,-0.890923,-0.354694,-0.726299,-8.570633,0.0,-68.051205,-37.813225,-100.437641,-34.814186,-104.11211,-29.341736,-95.381413,-22.682076,-76.869221,0.0,11.547945,24.377272,33.603401,42.524359,46.728204,55.651633,62.566258,64.152009,72.422921,0.0,-7.823982,-12.360878,4.326839,3.900719,15.680122,22.707195,30.713425,42.131481,37.242851,0.0,-70.15611,-35.73731,-49.783985,-33.080221,-47.242708,-30.13735,-43.070727,-28.605431,-98.182754,3.937082,264.4973,-218.07086,-177.293646
63,-0.016708,0.015438,0.563278,-2.762621,0.0,-67.770081,-38.328781,-101.095734,-35.667915,-104.989986,-30.384636,-96.434784,-23.805885,-77.937469,0.0,11.174416,24.12144,33.027887,42.253213,45.776445,55.515596,61.883484,64.351216,72.331283,0.0,-6.073608,-14.692497,3.340702,3.425331,17.168884,23.089714,31.637592,41.98122,36.928711,0.0,-66.590193,-33.666433,-48.435973,-31.086022,-47.15669,-28.251601,-41.790888,-26.897723,-96.179972,3.398752,264.064445,-218.029203,-180.504559
64,-0.226021,0.15734,0.503082,3.186507,0.0,-68.071175,-38.312302,-100.998516,-35.654926,-105.664444,-30.391045,-97.23381,-23.750839,-78.164062,0.0,10.626134,24.136939,32.174743,42.148299,44.920955,55.321144,61.212257,64.002017,72.012713,0.0,-3.464298,-16.574993,1.939373,1.030655,16.817093,20.412312,33.78336,39.576645,37.593842,0.0,-63.114124,-34.497964,-51.009051,-31.471468,-48.182179,-28.847631,-43.367253,-28.007486,-97.762681,2.912321,264.140614,-217.786531,-177.399223
65,-0.241814,0.038903,-2.156353,1.371508,0.0,-67.945175,-38.02145,-100.318336,-35.346165,-105.814991,-29.96624,-96.914749,-23.243637,-77.64576,0.0,10.799406,24.172137,32.754765,42.228822,45.55933,55.488303,61.925968,64.212771,72.386673,0.0,-6.46265,-12.778301,2.237148,5.128841,18.111076,24.292145,34.55286,42.321568,39.336777,0.0,-69.82522,-31.362201,-49.305558,-27.931888,-46.064356,-25.520473,-41.926368,-25.03337,-91.779545,2.454529,264.248646,-220.158863,-175.958586
66,-0.438652,-0.364574,-0.693741,3.254339,0.0,-68.498154,-38.124504,-100.650501,-35.321102,-105.447578,-29.938202,-96.830235,-23.248901,-77.997894,0.0,11.273032,24.737277,33.574564,43.008174,45.924584,56.245919,61.909172,64.894558,72.66029,0.0,-8.472576,-11.614323,2.797966,5.967293,18.278961,24.847584,34.690876,42.671242,38.552742,0.0,-70.33497,-30.926845,-48.6477,-27.848139,-45.443456,-25.768879,-41.801571,-25.406867,-92.336117,1.899376,264.016835,-220.969105,-172.571484
67,-0.244102,-0.159007,0.713253,1.620485,0.0,-68.880272,-38.553715,-101.065063,-35.687599,-105.518475,-30.09985,-96.922874,-23.197289,-78.231926,0.0,11.426358,24.623286,33.460449,43.171133,46.308054,56.638095,62.766824,65.391463,73.221045,0.0,-6.989479,-13.81588,1.793289,3.08733,16.895256,21.759911,32.720661,40.170422,38.232136,0.0,-69.5056,-31.114566,-49.560294,-27.965542,-46.047992,-25.610844,-42.123213,-25.268454,-94.187162,1.666775,264.233872,-220.24435,-170.574954
68,-0.97435,-0.020686,-1.319904,-1.24955,0.0,-68.792782,-38.113289,-100.296421,-35.250263,-104.95491,-29.705772,-96.22982,-22.844696,-77.402229,0.0,11.790438,24.509233,33.480332,42.994651,46.365235,56.428638,62.656229,65.167001,72.80318,0.0,-4.300346,-13.150406,1.824131,4.556637,17.841568,23.636627,33.972359,41.958447,39.475594,0.0,-68.783491,-30.798913,-47.972043,-27.218377,-44.621496,-24.594695,-40.458407,-23.933672,-93.575447,0.738287,264.445939,-221.518393,-171.591752
69,-0.185623,0.129985,0.015621,-0.505226,0.0,-68.942928,-38.59663,-99.752655,-35.63776,-104.556484,-30.012875,-95.824871,-23.058701,-76.936855,0.0,11.063266,24.400428,33.219066,42.812549,46.444152,56.127481,62.848334,64.766364,72.895559,0.0,-7.883892,-14.096947,2.450924,3.524952,18.583431,22.807045,34.905109,41.810818,39.237556,0.0,-70.867305,-31.586663,-47.815845,-27.860196,-45.025483,-24.938768,-39.824616,-24.06006,-94.026256,0.914841,264.670386,-221.140594,-172.002515
70,0.239639,-0.153944,-0.154381,-0.199778,0.0,-68.971024,-38.944931,-100.45435,-36.144047,-105.523396,-30.592861,-96.472378,-23.70163,-78.128471,0.0,11.783522,24.299219,33.278779,42.882697,46.896289,56.30594,63.233533,64.990641,73.541777,0.0,-6.884823,-13.646793,2.361832,3.717899,18.351402,22.79417,35.018463,41.470127,40.218658,0.0,-69.525067,-31.987022,-48.226547,-28.329592,-45.22699,-25.503291,-40.351347,-24.59735,-94.68714,1.439352,264.510005,-221.010103,-172.208731
71,-0.222816,0.5066,0.609055,-0.940428,0.0,-68.714046,-38.914261,-100.084591,-36.084023,-104.880638,-30.60133,-95.921173,-23.924789,-77.939816,0.0,11.376587,24.412161,32.583161,43.142419,46.217466,56.603762,62.585463,65.314028,73.097359,0.0,-6.687584,-14.571533,2.294827,2.817249,18.147469,21.894035,34.864941,40.64661,39.364071,0.0,-69.049836,-32.23353,-48.922582,-28.638436,-45.491204,-25.637428,-40.014962,-24.564654,-94.987201,1.418123,264.992275,-220.199461,-173.173488
72,-0.151176,-0.28998,0.004349,-0.27059,0.0,-68.921356,-38.642979,-100.396557,-35.987892,-105.194778,-30.640125,-96.725922,-24.081573,-78.42968,0.0,11.452293,24.949513,32.138311,43.631421,44.987707,56.991369,61.520515,65.504899,73.187206,0.0,-6.176605,-14.709606,1.936569,2.979298,18.117313,22.312088,35.371456,41.145172,39.125748,0.0,-69.305544,-33.061217,-50.061152,-29.068188,-46.167232,-25.852381,-40.079722,-24.693449,-94.417491,1.296759,264.673628,-220.1653,-173.472746
73,0.170631,0.119364,0.670166,-0.204378,0.0,-69.602566,-39.245682,-101.495934,-36.466198,-105.981102,-30.969143,-96.688042,-24.151497,-77.989197,0.0,12.372189,24.502687,33.178558,43.355829,46.043948,56.831436,62.522663,65.428328,73.900855,0.0,-8.705807,-15.036507,1.797867,2.625561,17.27005,21.832008,34.528713,40.358791,37.880859,0.0,-68.153173,-31.95837,-49.582725,-28.365685,-45.130458,-25.629138,-39.789712,-25.002665,-93.81013,1.520348,264.737848,-219.442177,-173.732268
74,0.312424,0.230329,0.023003,0.151134,0.0,-69.872131,-38.963985,-101.448669,-36.292248,-105.894699,-30.963478,-96.809406,-24.413223,-77.733765,0.0,12.261409,24.619087,33.144842,43.376515,46.159421,56.728992,62.608434,65.224367,73.257972,0.0,-11.533356,-15.973835,2.448978,1.398697,17.811413,20.637589,34.81739,39.505062,38.434467,0.0,-67.801026,-32.935555,-50.376326,-29.097828,-45.350166,-26.047852,-39.493973,-25.114371,-93.944298,1.937571,264.966742,-219.314375,-173.582569
75,0.283928,0.147522,0.418797,1.311131,0.0,-69.956245,-39.291859,-101.840343,-36.344604,-106.311264,-30.781116,-97.363758,-23.979149,-77.566738,0.0,11.744373,24.439825,32.829854,42.957786,46.134103,56.114637,62.40546,64.448164,73.470331,0.0,-9.466152,-15.361519,2.832813,2.40366,18.015289,21.629391,34.950657,40.181923,38.044796,0.0,-70.453453,-33.054594,-52.295745,-28.980009,-46.420316,-26.065482,-40.575964,-25.445508,-93.722413,2.573347,265.17146,-218.54373,-172.214242
76,-0.161819,0.32561,-0.142021,1.047086,0.0,-69.616184,-39.232521,-101.7663,-36.148281,-105.930805,-30.504284,-97.034512,-23.733444,-77.233543,0.0,11.73758,23.808612,32.788419,42.349235,46.616745,55.605505,63.079837,64.018752,73.856889,0.0,-12.785625,-14.556427,2.74229,2.678032,18.398037,21.690216,35.104866,40.257626,39.71981,0.0,-70.001363,-32.764522,-51.74226,-29.022647,-46.455962,-26.070005,-41.068933,-25.089146,-92.507134,2.708731,265.498166,-218.388548,-171.16606
77,0.141792,0.107569,0.087948,2.170203,0.0,-70.262489,-39.492702,-101.873474,-36.241608,-105.879307,-30.396824,-96.770897,-23.531685,-77.18565,0.0,12.470804,24.053453,33.449951,42.666632,47.499961,55.963781,63.984912,64.356032,73.441,0.0,-9.672146,-12.6717,2.786636,5.333576,18.77655,24.452419,35.841866,42.601318,40.05146,0.0,-71.562398,-31.854676,-51.226444,-28.371613,-46.265709,-25.822741,-40.811388,-25.274366,-93.32085,3.442955,265.596704,-217.708168,-169.004888
78,-0.776367,0.316162,-0.083141,2.759688,0.0,-69.729538,-39.141026,-101.096077,-35.739098,-104.927673,-29.800358,-96.399822,-22.964516,-77.105656,0.0,12.156927,24.261675,33.140643,43.193796,47.082528,56.547508,63.1858,64.85831,73.944883,0.0,-8.267555,-12.636623,3.219738,5.367451,19.000969,24.536018,36.350498,42.729321,42.526474,0.0,-72.339836,-32.632345,-50.092583,-28.638452,-45.25785,-25.571062,-40.079089,-24.530598,-91.907908,3.439693,265.970448,-217.018204,-166.187618
79,0.621643,0.121648,-0.056419,7.500545,0.0,-69.574986,-39.106808,-101.328964,-35.935707,-104.730835,-30.21904,-96.194344,-23.411865,-76.905727,0.0,13.090655,24.901224,33.84466,43.500633,47.751902,56.59098,64.242473,64.703996,74.356759,0.0,-6.256256,-12.465019,4.79353,4.960842,19.36861,23.929482,36.941757,42.178802,43.479366,0.0,-71.704223,-32.251777,-50.982421,-28.244006,-47.345986,-25.153058,-42.637224,-24.025295,-92.70384,4.487829,266.188937,-216.64813,-158.590233
80,-0.297318,0.217114,0.39402,9.044907,0.0,-69.766388,-38.549309,-100.603237,-35.411739,-104.515057,-29.90015,-95.8885,-23.270187,-76.810913,0.0,13.685003,24.885231,34.756281,43.403438,47.892014,56.439506,64.28823,64.590807,75.202986,0.0,-4.842968,-10.874405,4.577579,6.924877,18.622227,25.770035,36.154861,43.276234,43.794651,0.0,-71.659022,-29.87417,-49.264417,-25.917451,-45.389085,-23.201065,-41.209894,-22.588378,-90.775992,4.769268,266.557108,-215.675354,-149.394269
81,0.062256,0.876238,1.800041,10.838849,0.0,-69.693089,-37.961998,-100.055866,-34.989681,-103.933067,-29.891624,-95.266685,-23.739853,-76.52916,0.0,13.791522,25.27432,34.389484,43.867801,47.654337,56.806365,63.966511,64.856272,75.092144,0.0,-5.846672,-8.483276,4.104481,9.539394,18.653469,28.054733,35.033512,44.991016,46.396809,0.0,-70.337625,-27.257465,-44.926188,-22.510495,-40.801091,-19.156089,-35.800311,-18.006976,-84.980315,5.640392,267.638327,-213.066444,-138.35044
82,0.2425,0.567857,3.090191,12.510726,0.0,-70.059643,-36.952343,-100.452862,-33.987064,-104.257851,-29.005051,-95.49448,-23.152657,-76.716499,0.0,13.152467,24.93284,33.906472,43.269131,47.118158,56.274571,63.458243,64.530848,74.895284,0.0,2.899933,-7.395859,3.624516,9.970493,19.057446,27.809544,35.117855,45.089722,49.721146,0.0,-64.063027,-21.055146,-38.821774,-15.923563,-34.577359,-13.072284,-29.524122,-13.14092,-79.052136,8.856497,268.43852,-207.002649,-125.607378
83,0.432472,0.435526,2.763977,5.248631,0.0,-70.313187,-37.285423,-100.309525,-34.061909,-103.720436,-28.907547,-95.476456,-22.892532,-76.713123,0.0,13.603925,25.435736,33.416729,43.80321,46.878258,56.659708,63.141464,64.74401,75.222808,0.0,9.291515,-5.167236,6.900902,10.700626,21.447887,27.951221,36.110687,45.071583,56.780319,0.0,-38.782531,-8.988483,-21.558906,-5.565812,-21.245121,-3.500199,-17.666144,-4.443745,-59.189067,13.339663,269.126867,-200.187979,-120.105925
84,0.527916,0.509503,5.299416,52.370061,0.0,-69.795856,-37.260532,-100.13031,-34.163933,-104.048424,-29.007111,-96.192398,-22.950325,-77.801743,0.0,13.379338,26.191375,32.755753,44.546315,46.355787,57.254488,63.204264,65.110252,75.876745,0.0,15.299892,-4.35751,10.959377,12.795467,25.5867,31.378269,40.959663,49.653282,60.55481,0.0,-69.272415,-24.691612,-42.733076,-14.566675,-36.691138,-8.153957,-28.362798,-5.012744,-76.836408,17.369671,269.215355,-191.386471,-68.156878
85,-0.082283,0.041188,5.71867,6.428866,0.0,-68.803196,-37.92841,-99.063492,-34.787407,-103.799973,-29.422989,-95.278416,-22.824211,-76.52916,0.0,13.457823,26.624184,31.29091,44.843767,45.688204,57.399107,63.669306,65.076474,75.965604,0.0,7.234154,-1.701164,10.154057,14.262829,24.196758,32.698288,41.18557,50.88232,69.802094,0.0,-39.85952,-18.790805,-24.900082,-15.327409,-20.887262,-9.84635,-16.600981,-4.087075,-44.853091,21.091661,269.531965,-181.863527,-61.45259
86,0.496674,0.151042,9.241676,45.845822,0.0,-69.574585,-37.810249,-99.513988,-34.688244,-103.580017,-29.387627,-95.401211,-22.807159,-76.624832,0.0,13.123815,26.591086,32.62052,44.754352,46.275203,57.322537,63.792436,65.044673,76.836346,0.0,8.468113,6.269417,15.24456,22.205687,28.68845,39.251518,43.913155,56.103859,76.264973,0.0,-53.412717,-29.52156,-32.469988,-22.953508,-25.644267,-13.271352,-18.010789,-2.766465,-42.960564,27.932224,270.059653,-166.277962,-15.230122
87,0.044289,0.190191,9.241677,45.845821,0.0,-69.460087,-37.301044,-99.543858,-34.119816,-102.584152,-28.839111,-94.612312,-22.313232,-75.952034,0.0,13.210821,26.363165,33.4058,44.489999,46.651139,57.190082,64.036783,65.116242,77.584885,0.0,9.702072,14.239998,20.335064,30.148544,33.180141,45.804749,46.640739,61.325397,82.727852,0.0,-66.965914,-40.252315,-40.039893,-30.579607,-30.401272,-16.696354,-19.420597,-1.445855,-41.068038,34.078388,269.174646,-150.93441,29.540502
88,0.387611,0.392239,10.291757,35.223748,0.0,-68.995342,-37.110958,-100.086021,-33.906155,-102.341537,-28.607941,-94.5084,-22.088814,-76.020699,0.0,12.85693,26.621838,32.994974,44.748301,46.153493,57.353042,64.164544,65.094197,77.386728,0.0,16.585322,34.129944,31.493912,50.596962,45.620184,63.313522,57.337761,74.076948,78.177195,0.0,-61.9865,-38.011624,-36.237041,-25.608313,-26.226728,-10.05783,-12.259865,6.850806,-15.931576,36.294365,267.381491,-138.814287,62.578856
89,0.00618,-0.281211,10.291758,35.223747,0.0,-68.089542,-36.675682,-99.176731,-33.352661,-101.530838,-27.885704,-93.388538,-21.107941,-74.187813,0.0,13.033474,26.244481,33.465265,44.303698,46.878505,57.084057,64.802117,65.081661,77.989103,0.0,23.468571,54.01989,42.65276,71.04538,58.060226,80.822296,68.034782,86.828499,73.626537,0.0,-57.007085,-35.770933,-32.434188,-20.637019,-22.052184,-3.419306,-5.099133,15.147469,9.204887,37.481632,266.383281,-127.341442,97.085603
90,-0.665016,-0.153203,10.065279,45.978291,0.0,-68.486881,-36.198635,-99.436226,-32.489948,-102.030373,-26.783981,-93.997135,-20.042038,-74.298306,0.0,13.205758,26.038111,34.15545,44.634865,47.471741,57.68248,65.791421,65.623151,78.822054,0.0,36.816358,43.805895,62.479477,52.48681,71.895904,56.220846,74.378357,56.956758,71.522627,0.0,-58.821451,-13.202809,-41.006117,-2.992193,-35.470363,5.372533,-22.563122,12.54949,-11.576627,37.800694,264.491927,-116.292085,141.325744
91,0.962563,0.375257,10.065279,45.978292,0.0,-67.94323,-36.57629,-99.31366,-33.230839,-102.322254,-27.671356,-93.593616,-20.845985,-73.733025,0.0,12.509707,25.721023,34.689776,43.848474,47.853358,56.807045,65.38535,64.944267,77.751364,0.0,50.164146,33.5919,82.306194,33.928242,85.731583,31.619396,80.721931,27.085018,69.418716,0.0,-60.635817,9.365314,-49.578047,14.652632,-48.888542,14.164371,-40.027111,9.951511,-32.358142,40.420847,264.328536,-104.569216,186.765387
92,-0.429497,-0.826035,0.774136,-5.438421,0.0,-67.357979,-36.453094,-98.985558,-32.934952,-101.866093,-27.130623,-93.145409,-20.003242,-73.770332,0.0,14.728461,26.196316,35.544896,44.612944,48.759916,57.52125,66.562189,65.396033,78.875221,0.0,49.819336,30.765839,98.017502,33.817806,106.480923,36.238174,105.522366,38.084106,95.660305,0.0,-32.088663,10.263165,-10.833554,26.1492,1.784772,38.036587,18.649489,46.305769,33.520285,40.837841,262.431285,-102.948589,180.255751
93,2.681122,0.238542,22.010565,31.268402,0.0,-47.167568,-39.508839,-101.920395,-37.349911,-104.629326,-31.694641,-95.571556,-24.501915,-76.128788,0.0,-4.924287,24.936978,35.432201,42.225179,49.446148,55.258097,65.961543,63.877528,78.076356,0.0,41.788731,23.540526,77.073956,29.538689,82.637444,35.147581,82.828674,38.777933,74.962206,0.0,-32.270796,10.417326,-4.80764,32.874592,11.207268,50.867427,34.840293,64.25328,56.656096,44.095831,262.405906,-80.361157,211.260231
94,-8.599205,0.067431,22.010565,31.268402,0.0,-76.064758,-29.120693,-94.039249,-25.883904,-96.853695,-20.956879,-87.631187,-15.211372,-68.340626,0.0,-8.65642,17.495621,22.234533,36.273365,47.270496,51.606363,63.620461,61.731949,75.175013,0.0,33.758125,16.315212,56.130409,25.259571,58.793964,34.056988,60.134983,39.47176,54.264107,0.0,-32.452929,10.571485,1.218274,39.599983,20.629763,63.698267,51.031096,82.20079,79.791906,35.634127,262.523185,-58.213091,242.578481
95,1.084442,50.346222,-18.743935,4.685807,0.0,-71.990089,-27.501297,-86.664906,-25.624466,-93.214817,-23.040848,-81.815586,-19.874496,-70.974255,0.0,23.321525,-6.302618,-6.85831,-23.037844,-32.963111,-37.657501,-41.634413,-50.139606,-49.932989,0.0,62.27932,34.817505,93.941517,40.632076,102.245579,44.493942,102.354298,45.444374,91.684513,0.0,-20.690278,25.526756,8.794494,49.405208,23.458488,64.844046,44.299313,72.915689,67.562608,36.612196,313.072026,-77.063398,247.466906
96,-1.406479,-51.39777,1.777725,5.414585,0.0,-63.151302,-20.880432,-81.069431,-18.670921,-89.027538,-17.558784,-84.492531,-15.727959,-71.240616,0.0,2.612166,16.122971,16.396155,36.237488,35.773125,52.523851,53.340006,64.909748,73.213697,0.0,69.572239,32.217579,103.816509,28.107491,105.587597,24.257812,96.391582,20.336323,76.159744,0.0,-9.116893,27.025994,37.215244,47.287477,53.496173,60.611549,68.782796,67.71192,75.457707,34.94874,261.887696,-75.54265,253.094932
97,-2.018623,1.09113,9.529037,6.100076,0.0,-67.785301,-33.234901,-33.728313,-29.331779,-32.648277,-24.513817,-36.536751,-17.718887,-56.488609,0.0,0.990291,19.30923,22.970474,37.47861,38.597713,51.851697,56.137238,63.41934,69.978099,0.0,71.180363,30.012703,102.661457,23.489685,103.841457,17.220554,91.445217,11.67532,71.654148,0.0,-3.678904,31.833943,42.735793,49.941078,58.235332,61.33582,70.90664,67.07867,76.121771,32.640781,263.188253,-66.302948,259.404434
98,1.976509,1.931491,4.451752,3.21732,0.0,-55.016155,-28.04575,-29.59631,-26.31815,-9.075966,-22.883606,-0.118675,-18.108215,-5.758209,0.0,0.122822,17.734965,22.492032,33.910609,44.296782,46.735305,54.362099,56.823161,60.618403,0.0,71.196041,32.106514,102.756557,25.017643,101.881428,17.896214,89.041958,11.403751,67.819977,0.0,-3.009962,29.870033,45.492208,47.880405,62.796896,59.544255,73.089887,66.238555,76.154622,34.440279,265.429885,-62.028208,262.931896
99,-2.191543,3.883205,6.619034,1.172764,0.0,-41.750679,-32.813044,-13.75577,-35.285511,0.768299,-35.359268,3.191299,-33.639679,-10.667095,0.0,-0.567054,19.242293,28.422171,36.051682,47.170461,48.800147,54.389763,58.55029,60.277264,0.0,70.118694,31.624603,100.810375,24.302101,100.211735,16.72102,87.42754,9.404125,66.540813,0.0,-2.058265,28.96576,47.292294,47.339101,63.302509,59.584084,73.350844,66.859147,74.325883,32.041712,269.448355,-55.616198,264.239924
100,-2.191544,3.883206,2.532177,1.420383,0.0,-28.485203,-37.580338,2.08477,-44.252872,10.612564,-47.83493,6.501274,-49.171143,-15.575981,0.0,-1.25693,20.74962,34.35231,38.192753,50.044139,50.864988,54.417427,60.277418,59.936123,0.0,71.364326,30.983963,100.214539,23.75267,101.373825,16.452885,88.158188,9.80999,67.227173,0.0,-0.317582,29.631244,50.529189,47.399369,64.815888,58.965345,73.682815,65.678726,75.392622,29.86639,273.331267,-53.067799,265.660013
101,-13.528061,12.563739,-0.082054,-1.015486,0.0,-1.549988,-25.948219,26.520195,-31.606293,31.124153,-32.118759,24.729538,-30.259323,-5.812912,0.0,-17.436958,10.478119,25.671622,24.768893,39.139819,35.96628,47.786915,44.54119,49.805227,0.0,70.88768,32.568626,99.259872,25.020905,100.53566,17.0224,86.949692,9.563999,65.02018,0.0,3.433755,31.008093,53.945036,49.071509,66.866804,60.374983,75.434242,66.625298,76.623925,16.251183,285.931176,-53.237,264.680698
102,17.262955,-10.155967,-0.351334,-0.395635,0.0,-40.276909,-41.48695,-4.68132,-45.95026,6.103134,-47.578411,5.67009,-46.956997,-15.749016,0.0,-2.096859,17.294067,34.665138,34.344406,48.384535,47.3186,54.102068,57.758804,59.325412,0.0,70.998802,32.126255,98.723717,23.960438,99.730797,15.449467,85.452232,7.366676,61.746025,0.0,5.631329,31.31598,53.729095,49.692594,68.134787,61.09172,76.706485,67.265218,76.612254,33.479605,275.851873,-53.622866,264.361727
103,-10.531311,8.213052,0.085087,-0.006052,0.0,-4.382286,-25.855236,15.582275,-32.301121,17.251625,-33.941231,10.764427,-32.464314,-8.218575,0.0,-8.879894,11.586353,24.526955,25.621296,38.943268,36.469299,47.533306,45.162461,52.562259,0.0,70.782337,31.607323,98.071003,23.382225,99.434452,14.756241,84.485264,6.452637,60.42057,0.0,6.479347,31.964977,54.221802,49.978437,68.798295,60.992673,76.907112,66.722926,76.028774,22.997103,284.06724,-53.48897,264.357991
104,16.410484,-5.439594,-0.432072,0.12912,0.0,-45.777798,-48.766994,-9.296951,-52.519398,-1.911392,-52.545376,-3.049622,-49.844742,-27.233391,0.0,3.280491,15.085564,36.709694,29.629577,48.316919,41.15807,51.234502,50.657012,55.088345,0.0,70.725288,32.260437,99.249916,23.974514,99.912758,15.215549,84.676208,6.73027,60.556812,0.0,7.892814,32.618544,55.036104,50.51054,68.985029,61.419059,76.798061,67.097071,75.885699,39.630661,278.544191,-53.697968,264.403655
105,1.564407,0.476528,-0.339203,0.394215,0.0,-38.454666,-42.357101,-3.604431,-46.78854,0.217667,-46.051426,-2.725754,-42.250271,-14.558716,0.0,-0.839991,13.040761,27.52716,29.102784,43.861071,42.301193,51.753329,53.020015,56.715839,0.0,71.135902,32.57206,98.502388,24.430332,99.819374,15.758286,84.916763,7.381897,61.501293,0.0,8.39997,33.16065,55.397344,50.844486,69.017941,61.765664,76.558531,67.632509,75.943744,41.316347,278.971781,-53.915892,264.748932
106,-0.001202,0.731063,-0.256748,-0.480974,0.0,-40.64435,-46.326685,-6.154346,-50.760012,-0.691109,-50.565147,-4.402656,-47.395391,-29.746256,0.0,0.048443,13.197483,31.679196,28.245565,45.122817,40.430403,50.509676,50.252609,55.320342,0.0,71.025524,32.433815,98.4062,24.22411,99.731541,15.522194,84.809704,7.010193,60.949001,0.0,9.186547,32.869003,54.91106,50.732718,69.225979,61.799195,76.772743,67.757924,76.202787,41.592007,279.719996,-53.895779,264.28511
107,-0.001202,0.731063,-0.206223,-0.038471,0.0,-42.834034,-50.296268,-8.704262,-54.731483,-1.599884,-55.078869,-6.079559,-52.540512,-44.933796,0.0,0.936877,13.354206,35.831232,27.388345,46.384563,38.559613,49.266022,47.485202,53.924844,0.0,71.333828,31.860523,98.394413,23.642006,100.137463,15.118332,84.956074,6.927395,60.734768,0.0,10.001714,33.127367,54.950395,51.308973,69.50509,62.473942,77.196969,68.368698,76.422186,41.791191,280.39255,-53.901615,264.188131
108,-0.341377,-2.684476,-0.016251,-0.054649,0.0,-39.574757,-45.356312,-2.792244,-52.305679,1.969414,-53.326836,-2.232513,-51.13987,-17.334824,0.0,-0.824244,9.934098,30.770539,27.845793,47.222022,42.709919,55.196409,54.709754,58.245397,0.0,71.082745,32.337627,98.541126,23.957062,100.555744,15.148945,85.047512,6.705494,60.92617,0.0,10.086312,32.322636,55.369371,50.626693,69.709361,62.00822,77.074394,68.125895,76.364882,41.588402,277.670438,-53.779278,264.095845
109,-14.386139,4.689326,0.679264,0.242494,0.0,-12.304459,-26.93922,10.439644,-32.176781,15.7584,-32.206764,12.312584,-29.529877,1.567726,0.0,-8.272888,9.834494,22.139499,25.382507,37.465827,37.375548,46.471569,46.614089,50.998122,0.0,71.056023,31.546612,97.860832,23.221607,99.830475,14.622173,84.687195,6.527939,61.325626,0.0,10.354124,32.210003,54.514313,50.536537,68.372464,62.142959,76.066628,68.524679,75.634436,27.286749,282.339294,-53.015528,264.317868
110,5.638847,-4.14018,-0.526428,0.040447,0.0,-36.79739,-45.539818,-1.62529,-47.933178,8.067627,-46.58987,7.731972,-42.6614,-8.486137,0.0,5.490106,18.180186,38.286305,31.578543,49.10189,41.067791,50.601005,47.640813,52.854215,0.0,71.098022,31.368942,98.249702,23.346806,100.619087,15.171719,85.538406,7.589321,63.078461,0.0,10.004493,32.35172,54.78793,50.666522,68.918709,62.230089,76.255399,68.53425,76.246939,32.966223,278.15223,-53.501329,264.311431
111,-15.887489,5.831832,0.021286,-0.032604,0.0,-2.459679,-17.669678,19.361229,-22.069645,23.704262,-22.935905,19.649506,-21.733189,8.984413,0.0,-10.257114,9.630162,23.073165,24.993294,37.79187,36.729454,46.701466,45.717288,49.34142,0.0,71.039429,32.006607,97.918739,23.781567,100.165215,15.211773,85.053978,7.204571,62.303238,0.0,10.49862,32.473121,55.288231,50.572785,69.184297,61.96765,76.516788,68.181347,76.62269,17.128801,283.893474,-53.429976,264.188239
112,18.592644,-6.311448,-0.150719,0.191612,0.0,-36.721287,-47.121391,-4.309387,-51.209793,4.21257,-50.946293,3.148727,-47.979927,-11.970749,0.0,3.509091,17.134196,35.413676,32.730497,48.474444,44.383541,52.253631,52.718982,55.984653,0.0,71.053391,31.501923,98.548622,23.320255,100.464478,14.951019,85.101128,7.165146,62.252426,0.0,10.380121,32.563956,54.664552,50.753713,69.090745,62.094362,76.32425,68.184496,76.550504,35.745392,277.486066,-53.556747,264.28389
113,-15.197754,8.032185,-0.252914,0.232984,0.0,-6.530228,-23.513203,17.636375,-28.6516,20.696297,-29.485073,14.788284,-27.827225,-4.009895,0.0,-11.326631,8.086525,23.278485,23.606009,38.259567,35.954671,47.373928,45.591317,50.46997,0.0,71.024437,31.420269,98.602066,23.41238,100.175514,15.153465,85.217514,7.476597,62.682209,0.0,9.55847,32.366293,53.659935,50.550863,68.478613,61.968391,76.16302,68.166156,76.949658,20.571413,285.427169,-53.785887,264.425793
114,9.985199,-8.738918,0.056305,-0.148571,0.0,-26.564941,-38.973999,3.909073,-44.625778,11.400719,-47.19389,8.356361,-47.707729,-9.902,0.0,-6.126629,14.67622,31.015935,32.767239,47.541766,46.788164,54.662576,57.387622,59.62805,0.0,70.983353,31.363449,97.900314,23.291302,99.735718,14.876804,84.318924,7.015228,61.556396,0.0,10.053091,32.475962,54.087062,50.580009,69.048631,61.987472,76.385383,68.293239,77.027279,30.554352,276.637415,-53.731842,264.226385
115,-15.97126,9.089228,-0.336742,0.276765,0.0,2.771301,-26.332054,24.117393,-32.852669,26.289024,-33.596592,20.352631,-30.974636,-8.922501,0.0,-12.666121,6.070436,22.832215,22.077687,39.6831,35.05503,48.498588,45.21643,50.85906,0.0,71.266651,31.583405,98.205585,23.559723,100.075207,15.162106,84.962368,7.269115,62.270565,0.0,9.881301,31.853641,53.301041,50.039076,68.291016,61.642658,75.816847,68.081064,76.567423,14.615078,285.641011,-54.036598,264.417518
116,-13.718834,5.151837,-0.315285,-0.234034,0.0,13.689079,-12.421989,35.759354,-17.376595,42.26635,-18.168182,37.167778,-16.1903,18.338814,0.0,-21.389478,5.127445,17.299748,19.546661,33.520717,31.324872,41.490349,40.826347,45.505114,0.0,70.911655,30.874844,98.111401,23.012581,100.56776,14.920235,85.414524,7.371655,62.719803,0.0,10.333993,32.015983,53.185815,50.325351,68.52505,61.916212,75.971594,68.298734,76.816957,0.946455,290.710288,-54.301672,264.100924
117,-6.021309,2.682747,0.044918,-0.151227,0.0,21.011353,-4.854813,42.098579,-9.705162,49.515724,-11.648769,42.524986,-11.482658,21.724663,0.0,-24.418953,2.458654,16.774499,16.996863,31.881923,29.197633,39.820803,39.200026,44.380021,0.0,70.716591,30.937214,98.21743,22.934704,100.566216,14.70211,85.090599,7.048244,61.597195,0.0,10.671583,32.115216,53.715757,50.600758,69.046717,62.25022,76.418667,68.620084,76.636399,-4.992256,293.286499,-54.174156,263.843162
118,-3.644943,-3.532247,0.085773,0.312519,0.0,28.313828,-1.287346,51.562042,-6.58144,53.677711,-9.48555,47.377052,-10.419674,19.498158,0.0,-16.589001,4.478943,19.657379,19.241737,37.100759,31.433244,41.789715,41.313557,45.548277,0.0,70.646496,31.088734,98.135891,23.205128,100.422993,14.941807,85.169849,7.165432,62.430096,0.0,10.062971,32.184623,53.358902,50.496832,68.294844,62.032735,75.663274,68.320718,75.96758,-8.53363,289.631354,-53.984814,264.032782
119,13.639812,-15.428834,-0.230484,-0.480974,0.0,4.080734,-9.960136,33.742619,-15.820713,37.57616,-22.429733,32.770214,-29.26569,13.452702,0.0,-8.295489,12.490009,27.723774,31.54032,47.833351,46.823794,55.70023,59.266872,61.699653,0.0,70.995426,31.008568,98.008289,23.058815,100.235424,14.784336,85.357876,7.027245,62.410297,0.0,10.535547,32.62299,53.030019,51.048263,68.324176,62.576632,75.949672,68.739756,76.419655,5.140171,274.074634,-54.181309,263.423923
120,-5.315666,12.537557,0.00515,0.295908,0.0,7.536392,-12.750607,39.572811,-18.801327,46.359272,-20.88232,33.918629,-20.666771,6.700745,0.0,-18.922673,9.900567,24.613838,25.777339,37.873998,37.828241,46.312191,46.959398,47.541889,0.0,70.116634,31.426678,98.051205,23.330612,100.059872,14.771805,84.691601,6.644611,61.39492,0.0,9.856292,31.908599,52.336191,50.26323,68.424335,61.778385,76.050325,68.098231,76.532596,-0.161018,286.47898,-54.161682,263.58662
