takenoko1/special-research/HandMotion_SimilarSearch_自分用/NewProject/handData/test_key/d4_feature_d2/2.csv
frame,vel_0x_L,vel_0y_L,vel_0x_R,vel_0y_R,posFromWrist_0x_L,posFromWrist_1x_L,posFromWrist_2x_L,posFromWrist_3x_L,posFromWrist_4x_L,posFromWrist_5x_L,posFromWrist_6x_L,posFromWrist_7x_L,posFromWrist_8x_L,posFromWrist_9x_L,posFromWrist_0y_L,posFromWrist_1y_L,posFromWrist_2y_L,posFromWrist_3y_L,posFromWrist_4y_L,posFromWrist_5y_L,posFromWrist_6y_L,posFromWrist_7y_L,posFromWrist_8y_L,posFromWrist_9y_L,posFromWrist_0x_R,posFromWrist_1x_R,posFromWrist_2x_R,posFromWrist_3x_R,posFromWrist_4x_R,posFromWrist_5x_R,posFromWrist_6x_R,posFromWrist_7x_R,posFromWrist_8x_R,posFromWrist_9x_R,posFromWrist_0y_R,posFromWrist_1y_R,posFromWrist_2y_R,posFromWrist_3y_R,posFromWrist_4y_R,posFromWrist_5y_R,posFromWrist_6y_R,posFromWrist_7y_R,posFromWrist_8y_R,posFromWrist_9y_R,posFromBody_0x_L,posFromBody_0y_L,posFromBody_0x_R,posFromBody_0y_R
2,14.99176,39.032497,1.606121,1.665038,0.0,-68.763371,-53.459415,-2.343063,-50.728855,17.36618,-42.937489,23.593369,-32.532978,2.430038,0.0,37.858807,7.638526,27.275713,-11.092721,14.161037,-30.070969,0.923539,-48.042623,-20.415365,0.0,63.103695,22.745018,84.665165,12.254391,82.233067,2.620068,68.907337,-5.552044,49.15472,0.0,27.491592,30.509891,60.287853,47.391218,74.755172,58.95917,83.999888,65.604934,85.659739,18.972301,348.900047,-42.161522,290.701334
3,-4.392586,-13.595465,0.143223,0.403971,0.0,-31.650524,-41.205997,9.905777,-40.379105,21.96476,-35.661049,20.446243,-28.305874,-28.886833,0.0,38.699415,10.30602,32.577541,6.462675,30.508532,1.200675,25.018365,-3.930722,30.613693,0.0,61.602631,24.143887,83.288727,13.883514,81.900558,3.588753,68.66993,-5.728283,47.684898,0.0,26.013658,30.186195,59.313247,47.190838,74.651246,58.799792,84.183781,65.37547,85.845237,12.926273,335.033591,-43.671741,290.834313
4,-8.942413,4.092015,0.317287,0.460967,0.0,-61.574249,-40.520153,21.033096,-36.2784,33.542976,-31.026821,32.367554,-25.665035,-44.781189,0.0,37.630948,14.881232,27.581069,5.447066,21.689832,-4.812827,13.981343,-13.593921,21.664206,0.0,61.421757,22.738895,82.72562,12.487335,81.659031,2.525253,68.724003,-6.251049,47.275715,0.0,25.907818,30.194902,58.793802,47.123221,74.288092,58.546924,83.480876,64.781925,84.467215,3.034859,339.013482,-44.303455,291.183157
5,1.737328,-26.973691,0.197697,0.135974,0.0,8.329239,-25.436039,33.956795,-33.621311,37.75589,-35.742588,26.662674,-33.280106,-53.118496,0.0,12.938687,17.31778,42.005903,32.285956,48.889592,43.796418,56.408137,53.667345,71.397247,0.0,61.662254,22.704678,82.469788,12.454433,81.316681,2.513237,68.349609,-6.276684,47.280464,0.0,24.951242,29.94895,58.947931,46.801131,74.015835,58.245088,83.355523,64.639158,84.610229,4.308786,311.915657,-44.569159,291.194998
6,-5.218735,9.461213,0.433617,0.222363,0.0,2.374306,-15.587368,41.687622,-24.104347,36.902962,-28.094101,20.918198,-28.175869,-47.078419,0.0,-17.564905,9.76132,33.446246,25.643896,42.510836,38.105685,52.336747,47.656498,65.891271,0.0,60.417938,22.634239,82.057571,12.239513,80.81749,2.023029,67.828102,-7.031307,46.261139,0.0,25.567017,29.802787,58.757246,46.620017,73.735117,58.046067,83.299206,64.419944,84.779425,-1.107473,321.267587,-44.333067,291.308078
7,-9.182167,-5.502332,-0.126858,0.013585,0.0,-51.892548,-27.639599,42.941551,-22.747593,45.154037,-17.382774,39.478226,-11.312027,-37.616558,0.0,49.28041,23.312386,38.728376,32.40427,44.255965,39.192245,45.261879,45.273241,64.409693,0.0,60.510693,23.036957,82.012196,12.863674,80.966892,2.812157,68.259487,-6.16745,47.236691,0.0,25.302972,29.683794,58.710501,46.601554,73.744009,58.082499,83.51737,64.518127,84.994626,-10.45495,315.692559,-44.625235,291.248967
8,9.433136,18.364326,0.482826,-0.113374,0.0,-62.838993,-40.103931,25.634651,-34.831352,35.870361,-28.249454,36.930885,-21.715336,-43.544369,0.0,37.475275,15.074758,28.56926,11.36399,27.164562,7.31977,23.904943,4.547794,34.63099,0.0,59.829655,23.433666,81.878414,13.022175,80.585575,2.593575,67.736378,-6.698799,46.225605,0.0,25.676871,29.433334,58.903718,46.436248,73.940808,57.980982,83.50749,64.480398,85.468375,-1.048765,334.006388,-44.169359,291.085097
9,4.929314,-16.353609,-0.056648,-0.280347,0.0,9.543114,-27.41724,30.171089,-34.927826,33.627434,-36.683407,24.572639,-33.968639,-54.754658,0.0,10.588775,11.795687,35.370759,26.768248,44.232005,38.805997,52.206207,49.066816,69.214802,0.0,60.023289,23.713245,81.892719,13.496475,80.786533,3.169842,67.79829,-6.157093,46.610012,0.0,25.944374,29.680521,58.91755,46.803848,74.272037,58.384027,83.79957,64.912465,85.509315,3.847275,317.579467,-44.259281,290.731437
10,0.141792,23.701908,0.64888,0.401501,0.0,-64.862938,-45.32032,16.774635,-41.040344,31.660194,-34.494381,35.761299,-26.949463,-38.164501,0.0,36.374574,13.022791,29.028807,-0.563164,20.99372,-13.603925,12.130189,-24.963901,10.856402,0.0,59.353237,23.469486,81.39616,13.241386,80.326481,2.878075,67.355633,-6.466827,46.068821,0.0,25.524903,29.591785,58.144744,46.569073,73.187885,58.044152,82.995209,64.530169,84.762753,3.97027,341.249434,-43.629198,291.100998
11,-0.116386,-33.504168,-0.09264,-0.411505,0.0,12.802277,-25.931568,34.929657,-35.246143,37.518539,-38.079185,25.484047,-35.91259,-58.209286,0.0,25.94919,18.24348,47.351451,34.300687,53.820115,46.013813,60.362077,55.718261,76.011237,0.0,59.631157,23.459816,81.823311,13.168144,80.910759,2.819309,68.180809,-6.532173,46.943893,0.0,25.891639,29.74295,58.875683,46.828672,74.095431,58.387732,83.447098,64.942476,85.373464,3.808479,307.720519,-43.767242,290.664747
12,-8.502502,4.985605,0.409012,0.336848,0.0,17.481079,-18.780499,40.25219,-26.710682,41.290512,-29.064274,30.880852,-26.980476,-43.442059,0.0,14.938289,13.564651,43.45784,29.964202,53.198906,42.884797,59.89827,53.070836,73.007759,0.0,58.674088,23.415356,81.528397,13.039227,80.331001,2.608337,67.064209,-6.863136,46.251526,0.0,25.734978,29.197324,58.911931,46.404385,74.185463,58.061134,83.014413,64.727523,84.670374,-4.689989,312.68905,-43.354197,290.984521
13,-2.222214,6.563698,-1.556053,0.130293,0.0,19.727554,-13.060913,45.779228,-20.661736,41.939621,-23.921642,22.438431,-23.306808,-41.945171,0.0,9.801766,10.866961,36.022041,26.235712,46.026102,38.869661,56.249068,49.341728,66.564289,0.0,59.989929,23.915062,83.632278,13.39119,81.854782,2.900906,68.420563,-6.410522,47.484398,0.0,25.247891,29.520031,58.556001,46.62224,74.140076,57.945228,82.819714,64.111933,84.649935,-6.916809,319.164569,-44.914856,291.026635
14,9.75174,17.882425,0.075417,-0.382544,0.0,-58.621788,-42.00182,21.616287,-39.322758,33.089333,-34.010811,33.388252,-27.571907,-48.197765,0.0,40.799423,14.542901,31.021987,5.138746,24.472491,-4.842406,17.475181,-12.868292,23.432552,0.0,59.730606,24.168949,83.474579,13.381691,81.631737,2.678661,68.019447,-6.853867,46.989098,0.0,25.661804,29.369669,59.32924,46.648114,74.880896,58.120908,83.34274,64.493304,85.457445,2.837133,336.998551,-44.837236,290.595648
15,-2.951546,-20.005466,-0.148373,0.101394,0.0,13.482056,-21.768551,36.18084,-29.966583,38.623123,-32.629566,20.154991,-30.165939,-53.05624,0.0,6.175844,8.6014,36.229831,24.900915,45.084346,37.308302,54.644854,47.887877,67.21909,0.0,59.886189,23.485622,83.344517,12.967129,81.984615,2.681179,68.325863,-6.401882,47.223415,0.0,25.227699,28.794526,58.845549,46.143736,75.082264,57.931273,83.495573,64.714432,85.386061,-0.135441,316.964062,-45.006638,290.66802
16,8.834038,24.09359,-0.269508,-0.177409,0.0,-64.617233,-45.285473,10.430717,-41.424923,25.106163,-35.787048,26.680984,-29.599056,-46.092453,0.0,39.375397,12.392134,30.208116,-0.66215,20.479215,-14.372779,10.781931,-26.374095,8.747008,0.0,59.265461,23.987675,83.138409,13.785267,82.260647,3.587952,68.872318,-5.631065,48.008823,0.0,24.61921,28.840221,58.783181,46.151949,74.62951,57.987095,83.506873,64.844478,85.451517,8.688183,341.007357,-45.28656,290.440315
17,-1.801186,-30.828708,0.498791,-0.260957,0.0,4.225731,-27.676506,29.053574,-36.271992,30.771103,-39.116306,10.190735,-37.310028,-63.357754,0.0,26.989191,14.910501,44.27591,30.37194,51.813103,41.457189,58.632016,51.055796,75.730644,0.0,59.392548,24.086208,83.216743,13.690739,82.160339,3.304367,68.376503,-6.123161,47.281952,0.0,24.751109,28.885669,58.754097,46.191778,74.454942,58.016859,83.203308,64.898757,85.264598,6.851063,310.142834,-44.823704,290.143542
18,-13.476677,8.716009,0.055618,0.356979,0.0,17.704124,-15.836735,43.240013,-23.726635,42.476006,-27.195225,28.180275,-26.103115,-43.285446,0.0,-2.441488,7.478592,35.863713,23.693324,46.742283,36.751499,56.673972,47.440433,68.636941,0.0,59.647064,24.046497,83.039474,13.686047,82.196388,3.326225,68.320999,-6.083965,47.110519,0.0,24.801127,28.354801,58.209273,45.614782,74.467354,57.433935,82.879056,64.358379,85.026118,-6.626844,318.819816,-44.769316,290.461495
19,11.646996,18.581502,0.035133,-0.217794,0.0,-58.224392,-42.710953,18.69175,-40.831375,30.56385,-36.103821,28.350105,-30.107002,-56.126347,0.0,41.122502,11.777965,29.713434,3.359222,23.356846,-5.501035,17.09659,-12.497851,23.348819,0.0,60.149345,24.053478,83.365974,13.608055,81.999893,3.241596,67.888069,-6.070404,46.58638,0.0,25.087216,28.306451,58.223475,45.54908,74.747021,57.255105,82.901534,64.046539,85.009693,4.985991,337.304648,-44.768343,290.147031
20,-2.543793,-19.301697,-0.159302,-0.028282,0.0,11.097794,-24.109268,27.961807,-32.45573,36.997261,-35.681248,28.151436,-34.229507,-59.267178,0.0,11.531951,4.092262,34.895899,19.805395,47.03708,32.364626,54.600332,43.503165,67.827394,0.0,60.708046,24.502316,83.622322,14.37315,82.446098,4.134235,68.701286,-5.185204,47.631111,0.0,24.448655,28.600568,57.942388,45.794291,74.403812,57.421708,82.720667,64.209499,84.717984,2.446489,317.897049,-44.923353,290.012848
21,1.313438,21.121605,-0.516701,-0.464178,0.0,-60.001373,-43.179703,16.713181,-41.787643,32.66098,-36.011467,36.534462,-27.619743,-22.136364,0.0,40.705872,15.529611,32.587977,0.188092,22.645111,-15.271556,12.354467,-29.158545,4.030017,0.0,60.829239,24.70665,84.563141,14.653702,83.437614,4.405403,69.549637,-4.964905,48.02948,0.0,24.311137,28.820276,58.22576,46.115393,74.806116,57.810303,83.025467,64.617731,85.091635,3.755379,338.964005,-45.444603,289.494021
22,-7.451019,-29.451365,-0.251942,-0.160057,0.0,23.543587,-17.940903,39.402695,-26.373882,41.859512,-29.482327,24.936562,-27.239113,-47.694855,0.0,17.607698,10.904505,43.02003,28.545672,53.570582,41.954588,62.667529,53.027425,75.038854,0.0,60.188656,25.041561,84.540424,15.072041,83.525906,4.847145,69.862461,-4.502506,48.503437,0.0,24.310273,28.484662,58.098493,45.781385,74.761656,57.623138,83.018674,64.654781,84.987895,-3.70923,309.46483,-45.710135,289.286153
23,-3.263168,4.137216,0.30344,-0.411813,0.0,22.144547,-13.67815,46.948357,-22.025013,43.101997,-25.701714,21.218719,-24.375343,-40.345974,0.0,8.880141,11.783399,38.999831,28.193509,50.126453,40.860927,60.892761,50.837323,74.41184,0.0,60.308647,24.40876,84.432106,14.645061,84.011307,4.680119,70.006828,-4.448719,48.684425,0.0,24.223699,28.092856,58.080276,45.442869,75.005755,57.350942,82.798163,64.525043,84.174642,-6.912575,313.592351,-45.34687,288.864645
24,0.070038,0.925268,-0.023403,-2.729739,0.0,14.875259,-11.073647,49.46331,-18.29052,43.815765,-21.459217,26.284676,-20.589008,-35.793343,0.0,11.818473,11.89103,39.684335,26.922994,50.192217,39.426897,58.536056,49.821838,69.834652,0.0,61.729832,24.215298,85.954685,14.381504,85.021191,4.835644,71.330509,-3.434944,49.901104,0.0,24.572712,29.87028,62.025942,46.913208,78.656008,58.22045,84.943434,64.717581,84.82475,-6.716537,314.527684,-45.244274,286.144972
25,19.81041,20.275501,-1.421127,-5.584893,0.0,-48.199425,-45.531292,-16.341705,-44.07423,14.597511,-38.499584,21.447601,-31.172104,-10.5336,0.0,44.067749,13.146724,37.035118,-1.611995,28.190175,-17.269861,12.534469,-32.65794,-6.030236,0.0,61.144581,23.297424,83.60384,13.012161,83.777332,3.174419,67.296467,-5.406303,43.848438,0.0,25.625927,30.143525,65.593819,47.334284,84.170937,58.414531,89.900881,64.66392,86.591368,13.152008,334.833921,-46.607265,280.590815
26,25.383339,-19.968725,-2.620869,-11.007875,0.0,-49.041081,-41.977415,-48.49946,-47.376223,-33.473768,-48.241282,-21.997776,-47.056904,-36.547165,0.0,52.491617,25.385903,56.6238,11.960129,40.447045,-4.150091,13.640913,-20.863179,-3.764181,0.0,55.43232,19.595032,77.995377,10.301399,75.683098,1.773548,57.259598,-5.767994,35.280476,0.0,24.84886,27.255335,76.61139,43.610796,90.521102,55.699613,96.416105,64.14639,90.975091,38.720198,314.909193,-49.043283,269.626937
27,25.383339,-19.968724,-0.899277,-10.719439,0.0,-49.882736,-38.423538,-80.657215,-50.678215,-81.545048,-57.982979,-65.443153,-62.941704,-62.56073,0.0,60.915485,37.625082,76.212482,25.532252,52.703915,8.96968,14.747357,-9.068419,-1.498127,0.0,42.410316,16.931534,49.496841,12.786942,43.580246,6.630535,32.701435,-0.287533,21.767521,0.0,13.660488,20.984396,69.702877,36.989423,96.195595,50.00289,100.738881,61.466854,94.175492,64.370356,294.950812,-49.675741,258.917841
28,-9.963112,-73.092048,-14.853001,-39.416307,0.0,-52.015915,-30.495644,-65.499973,-17.136497,-63.366966,-2.722321,-46.276703,10.675278,-27.369576,0.0,56.447657,34.912016,93.851672,48.756643,111.423431,58.688888,116.335183,63.916184,110.631297,0.0,37.339096,12.702227,31.500779,9.206343,30.02904,5.63427,26.903687,2.178955,22.577706,0.0,-5.799012,15.572311,46.402686,31.83314,71.784113,45.335855,82.011803,56.729084,83.565042,54.479885,222.08619,-64.456101,219.728961
29,15.784607,-37.913333,-14.853,-39.416307,0.0,-55.695534,-34.19735,-62.7808,-22.146034,-53.975029,-8.415642,-38.967819,5.761642,-21.781769,0.0,32.863816,41.586803,76.968616,55.772849,91.065926,65.006882,98.358464,69.774508,98.810354,0.0,32.267876,8.472919,13.504715,5.625744,16.477833,4.638004,21.105938,4.645443,23.38789,0.0,-25.258512,10.160228,23.102496,26.676857,47.372631,40.668821,63.284724,51.991315,72.954592,70.264378,184.492169,-79.309216,180.631966
30,29.483185,-37.010233,-33.393173,-34.163971,0.0,-53.546333,-35.395546,-48.985291,-28.426781,-44.270554,-18.612442,-34.939156,-6.626244,-22.381783,0.0,-9.847709,25.808461,41.356289,39.604615,57.455486,50.227785,67.577922,57.513407,77.396423,0.0,41.448383,20.300274,26.088352,15.197468,25.746517,9.047012,25.760765,2.733364,30.735397,0.0,-48.06297,-1.330351,1.020734,11.743693,29.708494,24.414199,47.418265,36.665419,60.759194,99.730024,148.994389,-112.719927,147.980447
31,18.015518,-14.362034,-2.053128,-31.100611,0.0,-43.870697,-8.251305,-28.99086,2.756424,-21.888771,11.565285,-13.683472,20.638962,-7.836571,0.0,-58.065117,-28.383855,-5.442187,-15.898385,12.527677,-1.752662,25.433945,13.341794,34.372317,0.0,29.727888,18.70102,15.58116,11.778689,7.406016,3.827076,4.791298,-4.025802,4.120274,0.0,-56.799387,-6.588089,-11.16449,8.304782,13.79461,22.268511,28.871436,35.40764,41.78811,117.840471,138.031421,-114.678126,120.278903
32,7.201653,1.37864,-2.053127,-31.10061,0.0,-28.385239,-20.768166,-40.672188,-14.515915,-35.813255,-4.089775,-23.319168,9.706879,-8.132172,0.0,-47.78923,-26.499572,-83.627626,-23.486769,-87.016766,-19.406734,-80.627204,-13.505124,-56.802444,0.0,18.007393,17.101765,5.073967,8.359909,-10.934486,-1.39286,-16.178169,-10.784969,-22.49485,0.0,-65.535805,-11.845829,-23.349714,4.865871,-2.119274,20.122823,10.324607,34.149861,22.817024,125.630007,143.901369,-116.14337,93.669601
33,-12.930336,-72.366913,-11.466351,-8.103754,0.0,-7.154846,-1.020241,3.851051,9.722328,12.419014,18.912506,17.526627,27.133484,25.450745,0.0,-55.718385,-28.923739,-48.776805,-23.796509,-22.807793,-17.072569,-15.690471,-9.280778,-13.401476,0.0,13.079109,20.192299,7.379894,11.701469,-2.536068,2.032242,-14.748573,-8.063736,-19.738197,0.0,-57.243002,-15.390858,-48.508654,-1.919728,-32.489454,10.51943,-13.971586,21.637684,1.144266,114.700813,72.236095,-125.608578,86.267487
34,2.621498,-20.998073,5.023041,-28.140002,0.0,-3.408394,13.654518,10.83046,26.262817,20.369911,34.247932,24.130898,38.586273,28.199272,0.0,-60.568756,-41.354745,-62.05444,-34.680143,-46.350384,-24.778989,-32.717499,-13.270411,-16.252091,0.0,4.208164,10.280285,-7.000866,3.183403,-26.442318,-4.265385,-35.773087,-11.290112,-30.84137,0.0,-66.321795,-13.645328,-42.715909,-1.54305,-27.053627,9.687405,-19.945229,20.011302,-2.195876,119.188614,50.982514,-118.719234,57.871977
35,4.927254,-3.547314,-5.535793,3.671865,0.0,1.19957,6.397018,27.702942,13.026466,31.970558,18.350029,36.93306,22.910728,38.332214,0.0,-66.449433,-26.903389,-60.296746,-14.7912,-53.166765,-0.178891,-37.20629,16.148288,-9.946386,0.0,3.84573,7.791424,-9.375629,1.038265,-29.392948,-5.658932,-35.021381,-12.571964,-31.195679,0.0,-68.825651,-22.998663,-64.792886,-10.789372,-45.267869,2.407957,-34.961107,16.586593,-10.128303,124.157667,47.663862,-124.213228,61.772503
36,-2.461853,4.963529,0.238266,5.495385,0.0,9.459801,14.677505,34.816818,22.734604,39.063148,27.376785,44.067421,29.744339,41.819916,0.0,-60.334691,-25.459324,-62.258093,-10.90537,-43.825472,6.594759,-22.207239,24.33488,9.369915,0.0,-1.005192,2.42712,-15.089436,-6.399536,-34.757595,-14.893456,-40.952339,-23.110199,-39.775143,0.0,-69.535966,-24.019336,-60.343799,-11.013032,-41.684863,4.1123,-30.013263,19.838308,-7.121335,121.744823,52.475485,-123.925953,67.115982
37,9.469815,37.439985,-2.077274,-1.890705,0.0,14.971447,3.723106,27.951221,13.875846,31.663227,23.157291,37.678928,31.073684,39.915332,0.0,-63.586607,-28.065825,-53.544585,-13.427272,-28.764392,2.816128,-9.966702,18.679484,11.605203,0.0,-3.481922,-7.330341,-20.220337,-15.886402,-36.370182,-23.669758,-40.436611,-31.080952,-44.172878,0.0,-53.549309,-6.117613,-3.907041,4.977886,30.336742,14.512211,38.579712,21.760351,37.266435,130.962983,89.649341,-126.254883,64.959149
38,9.469814,37.439985,-9.100971,39.7999,0.0,20.483093,-7.231293,21.085625,5.01709,24.263306,18.937798,31.290436,32.40303,38.01075,0.0,-66.838522,-30.672325,-44.831077,-15.949174,-13.703312,-0.962504,2.273835,13.024088,13.84049,0.0,-8.899498,-1.808567,-19.732533,-13.23555,-28.762379,-23.326664,-32.562389,-31.607265,-35.218391,0.0,-63.939618,-4.347383,1.183045,9.611421,22.474093,20.144683,30.419889,28.870139,35.585682,140.040493,127.271428,-135.748158,104.941151
39,4.516869,-15.585958,-4.026775,-9.426509,0.0,13.735085,-4.396362,25.478897,3.085098,38.24604,11.605568,36.900787,19.489288,36.336708,0.0,-43.089931,9.34997,3.575534,27.053257,28.392006,39.46194,39.540549,47.808805,44.986935,0.0,-15.760403,-2.194519,-25.574055,-6.490803,-41.559334,-12.351494,-45.841255,-18.147297,-48.0019,0.0,-46.6621,12.561145,17.941119,29.886675,42.884827,41.87317,52.728522,48.474598,57.207527,143.600206,111.799491,-140.732088,95.628664
40,-6.091919,10.018665,-4.185104,20.45717,0.0,12.299309,12.913971,35.14183,22.458801,44.717102,28.301468,45.737572,30.103912,36.218376,0.0,-63.004254,-16.034081,-10.79567,1.074982,1.159457,16.082771,12.912999,29.194422,25.286485,0.0,-9.632492,3.640652,-35.367107,0.412731,-42.463303,-3.677788,-41.353397,-6.175461,-32.986107,0.0,-67.586968,-9.154313,-4.915086,11.418053,10.969868,28.66519,26.075624,43.904018,39.4189,137.2649,122.407703,-145.16058,116.675381
41,0.618439,-6.761763,-0.592575,0.510089,0.0,15.126457,20.41111,33.953018,25.766716,41.593666,26.805954,42.804909,24.468269,36.290131,0.0,-62.802639,-16.283398,-9.236163,1.587665,6.808446,19.370271,17.925064,36.025159,33.340499,0.0,-5.327225,8.547764,-29.073544,4.939156,-37.512646,-0.35368,-36.14748,-5.601196,-31.804848,0.0,-67.135511,-12.274006,-12.703449,7.313163,3.430729,24.349669,21.974687,40.201618,32.785146,137.913694,116.495996,-145.722799,118.035527
42,1.181374,-5.194074,5.877686,-11.265035,0.0,15.776825,14.463158,46.677933,16.76136,53.501472,15.495987,50.149384,12.105675,37.354202,0.0,-61.596345,-12.28614,-12.892004,7.143473,3.299263,25.131337,14.443298,40.918818,34.310474,0.0,-5.967865,-0.043144,-35.836601,-3.021069,-46.902294,-5.801926,-44.104958,-8.932285,-34.252396,0.0,-58.067525,-3.33057,-1.20861,16.549574,15.997463,33.089915,33.906318,46.63456,47.368154,139.059391,111.983322,-139.880791,107.451892
43,3.685112,3.032532,-5.222626,7.635377,0.0,13.973122,6.666183,37.29229,9.983368,45.900078,11.261902,45.598183,11.292458,35.412483,0.0,-67.137827,-14.987381,-14.608635,3.596961,-0.999554,22.178834,10.943748,38.920667,29.707012,0.0,-3.666115,8.586559,-20.754089,5.889187,-33.869019,1.625519,-37.033367,-3.33601,-30.214577,0.0,-66.838739,-12.493559,-20.450563,5.623981,-1.217193,22.550849,17.10014,38.933048,30.803174,142.75157,115.345787,-145.09635,115.417201
44,0.193748,-0.899981,0.911922,-1.781067,0.0,8.960724,4.606018,28.123055,9.026527,35.503807,12.109108,34.599495,13.867149,29.035721,0.0,-69.01226,-15.475024,-11.258829,3.492171,-1.135003,21.563028,15.685562,37.938311,27.634019,0.0,-4.713135,8.610077,-22.128754,6.115551,-38.395157,1.587925,-39.312286,-4.026089,-32.273426,0.0,-63.42814,-13.963991,-22.711832,4.216318,-0.685337,21.919575,18.580359,38.129243,32.809692,143.046484,114.625499,-144.083261,113.815828
45,-4.850922,-0.448123,2.569542,-6.975543,0.0,14.047279,12.645035,27.832718,19.83078,34.388924,23.526421,36.092033,24.830933,33.801727,0.0,-65.057208,-12.554168,-4.980479,2.981217,5.422829,18.221651,16.992447,32.746089,27.540715,0.0,-5.433025,3.381958,-29.590988,1.259193,-41.333313,-1.833172,-39.767017,-6.043911,-32.083626,0.0,-57.805549,-4.449611,-3.75495,14.623424,13.437939,31.357106,30.237077,45.322579,44.663641,138.371058,114.1978,-141.338224,106.860709
46,-1.474571,1.289843,-1.210098,8.580992,0.0,14.860268,8.770981,29.297447,14.035263,38.123932,16.73481,39.549522,17.646332,35.673409,0.0,-64.467584,-14.309392,-10.632618,3.387628,5.450801,21.652813,20.301096,37.818206,34.592365,0.0,-3.900433,8.167076,-25.38723,4.897671,-37.811565,0.712166,-38.419247,-4.027691,-29.020214,0.0,-65.731121,-11.91292,-20.010777,6.307249,1.020086,23.268945,19.103941,39.408526,33.999808,136.906872,115.535947,-142.537937,115.490005
47,-0.902023,3.232109,0.898018,-3.501835,0.0,15.898132,6.915207,31.312523,10.762711,38.706779,12.889938,39.931526,14.252357,34.254227,0.0,-63.408565,-12.586154,-10.530884,5.449721,3.823061,23.217167,18.720317,39.042315,31.779047,0.0,-1.333351,7.551155,-27.487221,6.483479,-40.240231,2.806835,-40.891571,-3.027248,-33.434372,0.0,-61.034786,-10.070103,-14.41409,9.585486,10.306082,28.060807,28.488738,43.442588,45.568778,136.054688,118.809197,-141.59008,112.029311
48,0.053558,2.126437,-2.091465,3.27694,0.0,10.248184,3.721161,28.822746,9.935417,39.529037,14.127731,39.53167,16.899834,37.716751,0.0,-66.145004,-9.270805,-10.045742,7.923875,5.762857,23.592918,19.300338,37.460579,30.95647,0.0,0.548859,10.242691,-21.363487,7.616329,-36.954746,3.596706,-37.455025,-1.715126,-28.879395,0.0,-63.856502,-10.19243,-16.773388,8.648855,6.527852,25.624908,24.050952,40.760675,37.846797,136.168041,120.797298,-143.62175,115.167915
49,2.185364,-7.604193,2.942677,-7.796514,0.0,9.548836,-2.90966,22.317238,3.605232,37.924004,9.532585,39.170265,14.441986,39.704132,0.0,-54.736306,2.886245,1.610204,20.888065,18.354939,35.296535,30.179094,45.47924,38.272597,0.0,-1.598282,6.884766,-28.076878,5.2351,-38.971081,1.658363,-38.15815,-3.34568,-30.404205,0.0,-53.795724,-3.639353,-7.635655,17.188783,17.84766,35.737866,33.664596,50.729816,49.873646,138.351974,112.962977,-140.680504,107.141272
50,2.707558,-3.607119,-5.298615,9.585208,0.0,4.121819,-6.00769,20.869331,-1.982803,36.559868,2.737656,38.490944,7.961311,39.340439,0.0,-49.131345,8.633356,6.941981,26.792053,24.010197,40.965686,36.451731,51.690807,44.303852,0.0,8.314133,12.723141,-15.69397,9.934788,-30.729904,5.58363,-32.850151,0.236034,-25.923042,0.0,-65.527252,-11.404344,-21.031449,7.301739,2.893563,24.556348,21.1179,39.987776,33.294402,141.137896,109.063701,-145.900755,116.434323
51,-11.326675,-12.802312,10.910683,-15.010661,0.0,13.856049,14.040527,45.920906,16.274986,54.05262,16.748428,53.717079,15.680695,47.457047,0.0,-34.823867,19.310898,28.526436,38.666935,40.732671,52.735778,53.247751,63.684435,66.626595,0.0,-3.945122,-0.44632,-34.743061,-3.720875,-44.384079,-7.240791,-43.138733,-11.186028,-34.848804,0.0,-50.352181,5.947337,5.118615,26.227191,26.176432,42.748884,41.0794,55.535851,57.606218,129.93619,95.992945,-134.865103,101.155218
52,14.302711,17.813543,-8.132801,16.263731,0.0,-3.059006,-11.196327,16.861267,-7.836227,31.997795,-1.52607,33.243599,5.887299,35.157051,0.0,-54.111886,-1.062694,-16.801176,16.076936,20.819615,30.899567,33.824622,43.870858,42.449919,0.0,0.401802,9.410763,-19.913006,4.710217,-29.580803,-1.207523,-31.047993,-6.604557,-24.997387,0.0,-67.70837,-11.189607,-15.686241,7.709817,3.378952,24.2622,17.77112,40.251975,30.290213,144.261389,113.689455,-142.975416,117.301916
53,-13.904457,-20.246879,-0.619125,-1.537616,0.0,11.177559,8.621521,40.861588,12.280655,52.516251,14.347801,52.465439,15.456161,45.49015,0.0,-37.795544,20.28146,31.756631,41.038027,43.572943,55.112119,55.773775,65.168853,68.272985,0.0,3.314953,11.658669,-22.275982,7.923317,-32.862167,3.029194,-34.127369,-2.978439,-26.083775,0.0,-64.304903,-10.242911,-17.797488,8.047098,5.287811,24.586235,21.670566,39.244733,34.411096,130.425568,93.393037,-143.525906,115.714761
54,9.924889,16.221555,4.377766,-2.049836,0.0,0.313225,-9.256439,18.014259,-6.01078,33.587036,0.239983,34.414673,7.180023,37.002068,0.0,-47.762925,1.496984,-19.26724,19.455177,19.751765,34.466517,33.339881,47.190375,41.30377,0.0,0.206108,6.597462,-29.048767,2.748585,-41.104488,-2.62579,-42.103043,-9.415855,-35.958424,0.0,-60.791335,-8.580374,-14.629043,10.165939,6.427477,27.661869,24.063734,42.809615,41.242452,140.497084,109.546574,-139.001513,113.596907
55,-11.069183,-12.911888,-3.474197,6.364028,0.0,9.186516,5.376205,35.969353,8.706779,48.780327,11.455078,48.963432,13.791733,45.82695,0.0,-39.685261,17.59331,26.408583,37.130183,36.970867,50.688783,48.967984,60.705688,59.645124,0.0,1.801357,9.041061,-18.324108,4.476242,-29.375896,-1.276932,-32.712021,-8.206158,-29.125843,0.0,-66.234665,-13.232527,-21.491644,4.073026,-0.048011,20.63637,16.884106,36.088114,30.451104,129.499283,96.425599,-142.404327,119.751848
56,15.319862,20.029086,5.904064,-9.391311,0.0,-4.649963,-8.979721,9.500542,-2.758827,24.499283,4.67823,26.076393,12.615166,32.150116,0.0,-62.100722,-7.188211,-5.878794,8.244359,13.160618,21.605419,24.93105,33.885415,30.76881,0.0,-2.409039,-0.165653,-32.589512,-4.126339,-43.223476,-8.31316,-42.31699,-13.362751,-35.885983,0.0,-56.609104,-0.651714,-2.09692,18.43009,18.298376,34.483406,34.791108,47.612717,52.099564,144.893017,116.26681,-136.426392,110.172661
57,-13.205452,-15.191682,-6.49332,9.002685,0.0,8.449402,2.554436,27.887993,8.38932,43.496819,13.428612,44.571533,18.147125,44.127274,0.0,-48.473302,11.543776,15.201315,30.036419,28.10604,43.542469,39.095884,53.460388,49.251048,0.0,0.976295,10.203838,-18.726025,4.171085,-28.067665,-2.742405,-31.082726,-9.377689,-27.054348,0.0,-66.467835,-10.248222,-23.995407,8.367088,0.90415,24.897179,17.373201,40.245491,32.606101,131.750307,100.796432,-142.85697,118.896652
58,14.114571,15.417534,0.880222,-1.227567,0.0,-7.775688,-12.159691,4.114838,-7.550583,22.507668,-0.842972,24.967117,7.305107,30.825806,0.0,-64.582564,-9.207172,-14.667544,6.385919,3.529993,20.371615,18.748506,33.00822,25.246255,0.0,2.247505,8.419933,-22.829189,3.308887,-32.479362,-3.317642,-32.919903,-10.679398,-28.93713,0.0,-64.209807,-9.788367,-20.088706,8.751021,2.90369,26.089858,20.32558,41.72074,38.650756,146.033478,115.983097,-141.808147,117.438215
59,-11.351624,-4.946826,-5.224514,2.388352,0.0,-1.551933,-6.008034,18.558426,-0.534782,36.16848,5.75386,38.660431,12.902184,39.80484,0.0,-55.935715,-2.334227,-10.826545,13.439082,5.292566,27.158974,20.633808,39.75791,31.063205,0.0,11.793938,16.328773,-7.692833,10.926075,-22.095966,4.173431,-25.103931,-3.214073,-23.635254,0.0,-65.242089,-14.129081,-37.194002,1.810584,-3.346008,17.387527,12.476146,32.475252,23.187187,134.971161,110.658869,-146.743355,119.449163
60,-4.875526,0.974823,5.596275,-1.804532,0.0,-2.063484,-3.533707,14.37458,3.133392,21.079445,9.827843,22.901688,16.842499,24.011421,0.0,-51.727054,-7.714942,-15.26322,7.054954,4.133665,21.08017,19.863749,33.945128,33.92617,0.0,9.450359,10.481873,-12.236767,1.978283,-19.100933,-5.750084,-21.963558,-12.962379,-19.60247,0.0,-63.315939,-12.051859,-32.279596,2.850183,-3.138187,16.612003,11.999186,29.484926,27.952343,130.319309,111.523097,-140.923405,117.534036
61,2.950287,7.418694,5.959167,-3.265794,0.0,-20.827789,-2.440796,-8.13446,2.827606,3.261108,8.075294,6.905365,13.304901,12.063675,0.0,-53.446834,-14.91044,-22.994835,-0.203715,-2.380324,15.997062,15.550297,31.547544,33.833051,0.0,9.769306,5.599251,-8.580837,-4.237232,-16.000729,-12.920837,-18.548069,-20.522747,-21.257343,0.0,-62.021064,-14.113551,-16.181448,1.016443,3.111634,15.106713,14.413812,29.669004,33.275537,133.80352,119.036362,-134.430313,114.362813
62,4.580727,2.896218,1.782532,-0.665639,0.0,-38.83667,4.02317,-35.366821,10.214081,-38.660889,14.294357,-32.726669,17.157211,-18.865128,0.0,-47.323231,-20.371461,-5.515022,-4.709426,9.883092,12.694958,25.395721,29.605185,35.886375,0.0,14.047794,-4.219265,1.433315,-11.116219,-4.606419,-16.78545,-8.258915,-19.778023,-5.963287,0.0,-59.347333,-15.611523,-19.671551,-1.725399,-2.23765,13.053667,15.24593,29.618215,32.753036,138.665686,122.120888,-132.366343,113.885482
63,4.399796,3.792093,-5.449562,0.64063,0.0,-56.114044,-6.847687,-63.232613,0.316544,-65.259819,4.882393,-58.652802,7.12841,-45.121078,0.0,-37.771492,-22.62072,-12.177089,-7.485755,9.533461,10.99991,25.986549,28.956682,37.695786,0.0,28.462887,-10.469971,15.312653,-17.611485,8.753757,-19.317284,4.584503,-15.495472,7.580738,0.0,-55.004766,-20.301127,-12.69641,-3.423288,3.193114,14.236712,19.918367,31.58759,32.63006,142.638645,125.838695,-138.242741,114.451826
64,-1.952133,2.502003,5.166893,3.893981,0.0,-64.966164,-14.595222,-78.408394,-6.195602,-83.654137,-0.124283,-73.805466,2.815132,-56.876221,0.0,-25.209791,-18.703057,-0.896678,-2.882077,20.447043,14.411805,36.258669,30.76245,45.067797,0.0,35.009422,-4.908943,36.01347,-11.300526,33.811455,-14.271183,30.830727,-13.864517,24.174099,0.0,-53.705229,-20.570513,-20.51747,-5.830134,-0.774566,11.811341,16.622563,29.768175,29.389398,140.978622,127.660779,-132.783737,117.665889
65,-3.272209,3.385034,-0.166969,4.612447,0.0,-70.530052,-19.748611,-86.732025,-13.108749,-95.897484,-7.56546,-82.909126,-4.29142,-66.89518,0.0,-17.843121,-16.385966,7.311249,-0.488137,26.164144,17.504451,41.43502,34.798333,50.942731,0.0,46.007195,1.734524,55.660114,-5.256729,54.527092,-9.279842,49.89624,-9.368076,39.131355,0.0,-51.612909,-22.534176,-18.653534,-7.179628,1.050652,11.420214,15.251086,30.37969,31.067836,137.804174,129.876045,-132.852945,121.108567
66,-6.037445,4.16698,0.432701,3.294971,0.0,-72.772408,-24.238586,-91.341476,-17.89238,-100.742226,-12.176514,-89.336128,-8.297882,-70.574684,0.0,-9.358769,-9.502277,15.796496,7.119514,34.847425,25.111237,46.655277,42.994898,57.705945,0.0,56.002007,7.82999,72.923241,-0.088577,72.969818,-5.639133,66.229362,-6.347923,49.630795,0.0,-47.584312,-19.051793,-10.349832,-2.945526,10.311269,14.740564,21.877739,32.563215,34.103888,132.21056,132.809467,-131.976414,123.169981
67,-10.411377,8.274864,5.511074,7.470997,0.0,-72.28775,-26.015396,-96.221466,-18.613472,-102.640228,-12.389259,-91.394119,-7.004356,-69.292374,0.0,-4.16877,-4.069599,24.201345,12.541385,45.511659,29.789263,56.335704,46.805824,63.754707,0.0,62.884941,11.123543,75.439968,2.559586,80.128269,-3.873768,73.509521,-5.767136,55.71516,0.0,-43.502887,-18.135602,-8.164886,-2.902825,13.611026,14.33542,26.418432,33.108163,38.598515,122.002459,139.879241,-126.262064,129.435888
68,-5.055084,10.747165,3.135109,4.979985,0.0,-71.775055,-26.463089,-93.369827,-20.697784,-103.70636,-15.348816,-95.926781,-9.914703,-76.76342,0.0,1.104036,2.662554,25.1854,19.505658,47.181205,36.694688,60.643906,52.276108,70.197313,0.0,71.454449,14.067478,83.025284,7.230091,84.683304,1.971245,76.89497,-0.407124,60.910492,0.0,-37.814563,-13.895325,1.868382,2.865219,21.510015,21.191074,35.697296,40.680369,46.474719,116.916075,149.895065,-123.158255,133.684532
69,-27.519379,15.079018,8.378677,8.382495,0.0,-66.452065,-28.323212,-87.982864,-20.669632,-89.021873,-12.225037,-81.651878,-3.136253,-59.978828,0.0,6.445817,8.195762,41.297811,24.996999,55.815148,40.270716,69.613524,53.336795,74.806796,0.0,75.300865,16.301308,84.041805,8.852634,86.327076,3.108845,76.508675,-0.635548,57.265778,0.0,-26.697636,-9.17043,8.043917,7.788085,31.56996,26.105357,44.920399,44.859451,54.133807,89.240341,164.075275,-114.935932,141.168219
70,1.687889,10.185669,9.288826,10.034195,0.0,-69.891472,-28.122597,-92.887688,-22.008133,-94.465599,-15.330391,-83.934631,-8.079987,-64.783859,0.0,11.079938,12.643335,48.269186,31.975351,64.697327,48.809255,76.047855,62.366125,81.781813,0.0,75.882454,18.124924,81.706867,10.362339,84.514103,4.074383,75.941963,-0.676804,57.306633,0.0,-19.169921,-0.332835,22.785099,16.782836,44.243553,34.267156,56.289267,52.396336,64.137436,90.975466,173.551987,-105.599871,150.493457
71,-4.992714,13.908848,10.626125,14.428169,0.0,-70.640602,-27.661057,-91.395836,-21.474953,-95.552559,-15.346756,-86.453018,-8.968849,-67.601395,0.0,13.805354,12.620611,55.360109,31.422562,68.869802,47.9416,79.438015,61.129326,85.409897,0.0,68.668671,21.911716,80.550327,11.144314,82.2052,1.558228,70.494576,-7.05431,50.391712,0.0,-16.647294,6.315153,35.416146,20.685091,52.090239,34.755602,62.109923,49.530314,69.838172,85.860929,186.651149,-95.095568,164.11194
72,-6.733818,12.617523,5.718155,16.680021,0.0,-67.556877,-26.983452,-81.268845,-20.946808,-84.855709,-14.74308,-76.867332,-8.712502,-63.228035,0.0,17.091279,15.412594,54.197472,33.187697,72.933967,49.328946,84.205641,61.248752,90.462316,0.0,66.257572,24.956017,85.829201,13.553295,77.996407,2.133293,61.366081,-9.203281,39.077396,0.0,-13.045701,6.503121,38.84669,19.143183,53.796835,31.303877,60.537943,42.989464,66.841116,79.122591,198.456932,-89.381933,179.980221
73,-6.550255,11.746596,15.204849,14.703699,0.0,-62.865028,-27.641029,-67.442551,-22.834854,-75.479851,-16.441383,-68.421249,-9.459572,-57.070656,0.0,20.672371,22.739651,45.195868,39.113452,75.095108,53.143825,85.314554,62.882359,90.641392,0.0,63.627777,43.427525,79.982071,33.078804,70.00946,19.390011,60.303497,4.187965,45.940933,0.0,5.472383,24.852874,70.094869,43.141987,89.843206,57.951033,97.072142,69.456678,91.32429,72.652044,208.935992,-74.097376,193.416385
74,-3.633156,65.538553,-3.265457,12.764489,0.0,-84.511814,-56.751137,-130.21019,-59.81266,-136.723537,-58.864403,-126.206417,-55.991592,-103.16597,0.0,41.446074,21.598133,0.118561,7.831434,-17.899221,-10.646697,-35.552923,-31.346176,-42.043571,0.0,76.437149,33.092995,91.444702,22.419376,88.051643,10.670471,75.531006,-1.538372,54.567719,0.0,3.878482,22.286403,58.768855,39.929298,76.100034,53.802146,82.093097,64.2413,84.445417,68.998203,273.46965,-77.383518,205.175979
75,-20.65258,-9.244531,1.954708,11.318233,0.0,-70.724201,-45.278549,-87.983437,-41.206055,-83.896637,-33.954048,-78.855686,-24.880829,-68.855095,0.0,54.250577,21.112713,16.301368,17.21583,6.575678,9.364944,0.80856,-2.47051,4.474126,0.0,77.065372,32.852898,89.56953,20.680962,84.147778,8.067741,69.902401,-4.166279,44.104328,0.0,5.253787,22.556746,61.84137,38.382265,80.189209,51.490519,88.060904,61.62722,87.121742,48.215475,263.666201,-75.558958,215.935294
76,-7.735863,-22.648013,1.606464,11.431298,0.0,-77.642384,-27.452431,-100.442333,-20.327225,-101.601906,-12.700424,-94.57283,-5.043983,-67.082634,0.0,32.105336,50.252732,24.271802,58.925145,28.02598,60.569991,41.723827,55.602541,71.423676,0.0,76.724281,33.612442,91.523323,22.432022,89.032745,10.974998,72.824821,-0.314884,49.362831,0.0,3.992967,23.446384,64.360355,40.470109,85.818994,54.342277,90.204631,64.420438,88.953197,40.304289,240.87559,-74.127817,227.223994
77,-9.123802,49.807018,4.917068,10.460026,0.0,-63.190784,-59.024734,-40.469227,-57.822762,-22.399406,-51.137638,-18.780441,-40.248928,-30.74707,0.0,44.086583,2.531273,33.045115,-4.918606,29.556279,-13.679384,18.518516,-22.178895,3.606101,0.0,77.675285,32.465973,89.567528,20.830536,87.102928,9.703274,70.982666,-0.768986,46.937485,0.0,3.617463,26.42331,64.339236,43.280061,86.669358,56.588633,93.357793,65.517434,92.936099,30.981503,290.640803,-69.409733,237.642215
78,4.911232,-23.551051,5.733318,9.24626,0.0,-63.254929,-52.061405,-23.328896,-53.393383,-16.468964,-50.017033,-22.525063,-44.160633,-73.069839,0.0,30.78258,11.488355,61.783448,20.79334,69.570237,29.060794,70.118828,36.718462,65.189972,0.0,74.109821,31.959515,87.170277,19.442253,84.447727,7.829475,66.376133,-3.335552,44.152222,0.0,3.205958,27.216926,65.938201,43.35762,86.818424,56.040722,93.778251,64.691152,92.785181,35.804729,267.015975,-63.76442,246.814699
79,-1.952591,30.154517,2.691994,7.27284,0.0,-66.919613,-55.089397,-28.96843,-52.940083,-12.476807,-46.37392,-10.123558,-36.28727,-16.806793,0.0,42.042212,1.79175,51.168614,-6.111253,50.939953,-14.114539,39.042192,-21.373979,20.772468,0.0,71.322041,30.896931,86.119022,19.133263,84.972897,7.868958,67.287769,-3.376579,44.191074,0.0,2.728195,27.672212,66.687913,44.104738,87.773518,56.839772,95.074516,65.659892,94.366424,33.768682,297.17148,-61.155882,254.088527
80,2.393761,-12.562257,1.684113,7.533921,0.0,-57.29393,-50.02367,-30.177727,-47.561646,-14.185066,-41.579361,-9.442177,-33.357239,-12.768059,0.0,26.164267,14.682581,63.238906,12.226582,68.454778,8.981289,58.542787,5.187467,43.726949,0.0,70.539036,30.760975,86.093616,19.468231,85.319195,8.386173,69.593639,-2.688618,47.104511,0.0,-0.617319,27.617069,64.822495,44.121904,83.257216,56.841625,91.562399,65.721025,92.896394,36.140442,284.71264,-59.493771,261.725864
81,-0.34584,-5.250452,1.173763,4.289492,0.0,-55.459557,-46.978569,-36.817818,-42.14098,-19.731789,-34.029236,-10.576744,-24.074707,-10.026283,0.0,20.660576,19.846953,67.739152,22.207301,75.276778,23.221428,68.510909,22.751692,58.291648,0.0,68.993225,30.137558,86.658096,19.15575,86.044922,7.885323,71.135559,-3.721046,49.127197,0.0,-0.283681,27.324804,66.220648,43.86422,83.317546,56.445928,91.174051,65.426352,92.96154,35.707684,279.514892,-58.406925,266.06806
82,1.182632,14.244153,0.865059,4.550573,0.0,-56.070557,-48.139744,-29.614677,-45.840626,-15.877304,-40.42099,-9.269829,-33.111191,-11.547203,0.0,21.104377,12.216763,57.729904,10.713573,64.089888,9.695864,57.673218,8.156859,44.365942,0.0,69.105377,30.759373,86.697693,20.250492,86.19873,9.455223,71.323814,-1.445103,49.562702,0.0,-0.013215,29.480079,66.747873,45.94385,83.206334,58.060948,91.320894,66.240778,93.153461,36.788635,293.825472,-57.643547,270.685061
83,-0.142479,3.991485,1.720448,3.829267,0.0,-53.596001,-44.969215,-27.611618,-42.258224,-12.150307,-36.787834,-6.900444,-29.291496,-8.809891,0.0,30.655992,13.769354,57.35687,11.665764,63.737787,9.695062,56.566527,7.106484,44.513772,0.0,68.359051,30.030098,86.168003,20.058403,85.80946,9.550381,71.485004,-1.206264,49.711876,0.0,-0.479677,30.93955,66.728113,47.323787,83.240914,59.342331,91.901656,67.501413,94.153508,36.590796,297.833182,-55.97846,274.530553
84,2.33448,1.628914,1.755466,4.130485,0.0,-53.674564,-46.078434,-26.974411,-44.336357,-11.695862,-39.504204,-7.035484,-32.856903,-9.198303,0.0,22.3752,16.173174,58.640846,14.869623,63.447499,13.305794,57.680195,11.283097,45.494554,0.0,68.329468,30.469322,85.744171,20.461063,84.677696,9.541512,68.579521,-1.466904,45.983391,0.0,0.184572,32.580197,66.635981,48.521621,81.88469,59.807435,89.429849,67.218102,91.536032,38.902674,299.491227,-54.245596,278.690169
85,1.766968,0.768422,2.442284,2.993104,0.0,-53.24461,-44.749031,-31.933022,-42.950478,-15.248451,-38.075867,-8.609848,-31.764336,-10.131798,0.0,21.579237,15.966187,57.491363,15.502503,63.491341,15.276867,58.529202,14.892347,48.088566,0.0,68.71479,30.089035,84.742699,19.126053,83.336678,7.427502,67.117996,-3.705826,44.221573,0.0,1.52295,34.14205,68.504796,50.163565,82.984711,61.082087,90.358699,67.726432,91.118105,40.651674,300.188513,-51.82128,281.612136
86,0.613289,-1.192339,0.563679,3.470003,0.0,-51.995945,-44.230156,-25.368919,-42.110939,-12.008743,-36.867256,-6.767807,-30.080452,-8.573456,0.0,17.849265,19.052843,60.047521,20.888868,66.78622,22.309683,62.668455,22.706367,54.315292,0.0,68.845539,30.242901,86.311741,19.360256,84.060116,7.700787,67.250576,-3.523979,44.475174,0.0,2.163364,33.463104,67.405823,49.525806,81.38834,60.65181,90.060135,67.64665,91.050303,41.205626,299.029797,-51.316938,285.115762
87,0.220642,-0.090526,1.67284,2.033194,0.0,-49.117699,-42.03083,-24.512444,-39.434395,-13.140335,-33.876457,-7.091446,-26.496048,-7.028847,0.0,17.313457,21.002118,62.201869,23.982131,69.864787,26.15451,66.127775,27.167897,58.501291,0.0,68.908768,29.127045,84.813652,18.178711,82.623596,6.603928,66.573029,-4.26899,44.947929,0.0,5.535554,33.922712,68.160969,50.20537,82.58426,61.331435,90.46423,68.126142,91.960319,41.305447,298.991141,-49.764919,287.200827
88,1.022186,-2.817733,-0.400543,3.039911,0.0,-53.176003,-40.532112,-25.181694,-37.225113,-13.744698,-30.965195,-7.407532,-22.565804,-5.881691,0.0,10.034133,23.148253,62.329693,28.684981,71.238672,32.825037,69.434633,35.347233,63.757547,0.0,70.548363,28.520622,86.045036,18.175621,84.524345,7.308826,69.592094,-3.111191,48.376923,0.0,2.116928,31.298443,64.373816,47.437531,78.208194,58.691791,86.41118,66.07819,90.182525,42.043447,296.18406,-50.449648,290.25139
89,-1.277161,-4.122828,0.666504,-0.665669,0.0,-53.281403,-38.347092,-22.347336,-33.930359,-11.290627,-26.403923,-5.353889,-16.545982,-3.454971,0.0,5.207289,26.595161,63.611693,34.006199,72.713765,39.484695,72.559636,42.735484,70.475128,0.0,70.051575,28.664188,85.872231,18.714752,85.035324,8.02597,70.379677,-2.556553,49.14711,0.0,4.7667,31.52834,63.760758,47.861509,77.265944,59.279902,85.603114,66.660928,89.453376,40.519409,292.015522,-50.030022,289.540009
90,-0.575409,0.339627,0.709648,-0.995108,0.0,-51.053925,-36.558952,-18.593903,-32.586594,-8.740425,-25.438042,-4.197464,-15.949059,-2.141647,0.0,4.594786,25.926837,59.375553,33.217955,68.953721,38.820076,69.814275,42.128416,67.938421,0.0,69.594498,28.2197,85.436325,18.393688,84.525604,7.666225,70.165787,-3.094654,48.986778,0.0,5.318563,30.549287,63.757362,47.140759,77.813979,58.824616,86.268598,66.510257,89.536307,39.624166,292.287856,-49.640207,288.477609
91,-10.921211,9.853143,1.13903,-0.579342,0.0,-48.514709,-49.496498,2.542992,-59.356785,8.254967,-62.901134,-2.8965,-64.333591,-91.132851,0.0,11.274946,17.170443,57.437578,33.579689,63.034265,45.329619,68.277431,56.437283,77.520294,0.0,69.333,27.284832,85.00042,16.96146,83.271217,6.152287,69.441032,-4.141388,48.438377,0.0,7.168235,30.84711,64.372767,47.888494,79.006565,59.758344,87.823782,67.15839,89.784914,28.501396,302.048404,-48.702736,287.805672
92,-22.271461,-0.224463,-0.071354,0.716737,0.0,-18.362789,-30.278091,29.683914,-42.560005,34.29966,-47.379227,18.915482,-48.532963,-61.065273,0.0,8.561448,18.835728,56.13625,37.582906,64.355168,49.816651,69.400979,59.300588,76.464918,0.0,69.141369,27.119007,85.904217,17.039165,84.19241,6.444111,70.726376,-3.769913,49.70644,0.0,6.180352,30.550522,63.314673,47.321008,78.075615,59.040125,87.118037,66.394043,88.997534,6.149225,301.770188,-48.854799,288.468655
93,-15.397224,14.83955,0.442142,-0.171049,0.0,-13.979301,-14.379616,48.839722,-23.083477,48.576279,-27.851543,35.157852,-28.76009,-31.869793,0.0,9.861232,9.890008,47.190406,23.625769,54.173575,34.63278,57.917811,43.92418,58.052118,0.0,68.486595,26.366901,84.70047,16.180573,83.321915,5.573273,69.576187,-4.56562,48.617821,0.0,6.78705,30.369594,63.908095,47.325763,78.480575,59.199749,87.442227,66.655124,89.310115,-9.266825,316.585717,-48.431482,288.273586
94,32.622185,-11.164351,0.374393,0.643995,0.0,-47.962017,-46.86533,7.667084,-55.936203,13.576126,-58.657207,4.38446,-59.147243,-85.828972,0.0,29.760241,16.316867,56.208683,30.956964,60.23481,41.886354,64.83466,52.23702,73.884244,0.0,68.536777,26.19936,85.495205,15.964394,83.425655,5.35778,69.879169,-4.766636,48.911076,0.0,6.978476,30.112033,63.379635,47.099694,78.000218,59.058156,87.10155,66.570093,88.985802,23.332157,305.384548,-48.080292,288.880762
95,-18.215103,-2.990634,-0.617867,0.207667,0.0,-17.265816,-29.446678,31.298218,-39.183311,34.845085,-42.082615,23.53466,-41.720295,-49.580154,0.0,26.294869,18.413479,50.959095,36.059894,61.719784,49.41058,67.695803,59.995959,75.546998,0.0,68.936405,27.460213,86.43568,17.589111,84.726849,7.030964,70.618343,-3.254242,49.590397,0.0,7.12995,29.83113,62.826042,46.926299,77.389754,58.860801,86.825587,66.270233,88.665749,5.061178,302.347045,-48.754034,289.04156
96,15.570374,-1.624962,1.061497,-0.421694,0.0,-37.367363,-41.481628,13.319321,-52.76619,15.672798,-57.518635,2.5177,-59.367886,-76.893883,0.0,11.030167,20.441918,56.736526,37.656883,63.452809,49.210324,69.319592,59.553703,79.503408,0.0,68.878212,27.025166,85.995483,17.063599,84.321671,6.342888,69.790421,-4.102478,48.088303,0.0,7.621977,29.561281,63.602924,46.63527,78.301066,58.651468,87.355159,66.160009,88.898054,20.490875,300.688413,-47.833214,288.586197
97,-24.294662,4.291777,0.132065,-0.371861,0.0,2.38575,-19.909229,42.004395,-30.408325,45.314598,-34.418449,29.827766,-33.971672,-47.53355,0.0,13.352106,13.785779,53.894525,33.477492,62.231695,47.713061,68.588714,58.884267,73.033633,0.0,68.575401,25.848827,85.592079,15.629082,84.350739,5.086498,70.552139,-4.970913,48.462067,0.0,8.69205,29.672987,64.012947,46.975329,78.574929,59.169554,87.505768,66.845377,89.287885,-3.957825,304.992695,-47.855186,288.22684
98,-17.238235,20.930611,0.58897,0.893775,0.0,-14.064674,-6.771126,56.893044,-11.899109,58.084946,-14.40794,45.813675,-14.045734,-16.156311,0.0,25.777895,7.358241,42.227957,16.384175,44.845681,24.403207,46.56154,31.209646,49.482766,0.0,67.891331,25.752239,86.774769,15.710506,84.578648,5.347652,70.702801,-4.671421,49.758968,0.0,8.889898,29.830266,63.410634,46.502939,76.984053,58.48999,86.401609,66.293143,88.482906,-21.422281,325.93615,-47.492437,289.13346
99,47.23011,3.368979,0.418625,0.992514,0.0,-64.866371,-53.619804,2.343979,-56.214237,10.080299,-53.085136,7.61055,-48.490047,-73.588543,0.0,44.854326,5.729821,38.056347,7.061468,35.548539,7.304518,33.651566,8.018414,42.353928,0.0,67.997875,26.589546,87.297306,16.736412,84.715633,6.447372,70.46442,-3.44799,49.472523,0.0,8.788072,29.721338,62.508522,46.475151,76.33728,58.485791,85.719699,66.28388,88.336311,25.590649,329.317741,-47.290993,290.138587
100,-16.749458,9.178643,0.322437,0.086142,0.0,-45.964508,-41.051674,15.434189,-39.893589,29.706459,-34.05407,29.26712,-24.928207,-1.981544,0.0,42.956304,7.96747,35.350567,0.520309,29.576471,-8.295797,22.23268,-17.146175,11.045543,0.0,67.96669,26.870499,87.270813,17.260494,84.963684,6.877155,70.380135,-3.402729,49.403801,0.0,9.502894,29.262594,61.858043,46.139229,75.836175,58.315237,84.942014,66.320622,87.920731,8.568134,338.490703,-47.241611,290.219048
101,16.692238,-19.580129,0.2421,-0.544947,0.0,-65.006905,-49.967422,2.722435,-52.489128,10.992393,-49.623528,9.196472,-46.347542,-71.453419,0.0,42.371404,12.144268,44.898539,18.515058,45.777186,22.676604,45.733467,26.91861,57.117587,0.0,68.058071,27.293472,87.159634,17.493839,84.991436,6.892147,70.360394,-3.526039,49.138699,0.0,10.159795,30.176994,62.774913,47.13835,76.598546,59.228772,85.641893,66.908486,88.473026,24.952269,318.85611,-47.307615,289.619636
102,-14.86393,21.219726,-0.063858,-0.299675,0.0,-51.11515,-42.024879,11.605339,-40.307293,26.223564,-33.577995,29.090538,-24.085064,-3.178139,0.0,42.837681,6.780936,36.563777,-3.079431,28.793538,-14.651397,19.565495,-25.752392,6.01344,0.0,67.871304,27.532883,87.569904,17.745495,85.26289,7.283192,70.109997,-2.877159,48.977566,0.0,10.592295,29.867007,63.110403,46.969586,76.993378,59.171715,85.874198,66.858036,88.474941,9.767733,340.040037,-47.69208,289.284162
103,-4.937096,-2.142925,0.627594,0.094293,0.0,-28.488579,-26.827927,18.655701,-27.679825,28.719635,-25.247097,25.90519,-20.662651,-18.274956,0.0,30.130434,3.042813,30.43048,2.112914,31.045884,0.430215,30.72083,-1.175357,25.100987,0.0,67.094364,27.94939,86.643734,18.362331,84.726048,7.834511,70.123272,-2.530975,49.127026,0.0,11.042147,29.664527,63.122506,46.6688,77.322878,58.918847,85.615835,66.868163,88.637776,4.462538,337.893021,-47.432585,289.374364
104,23.822021,-19.055066,-0.068092,-0.075459,0.0,-59.526329,-50.845985,2.65995,-57.077923,8.552628,-56.903744,2.592659,-54.249229,-71.072903,0.0,38.19121,9.0226,45.348329,16.428882,46.986135,21.847605,48.093691,26.840805,56.92505,0.0,68.176517,27.851486,86.573009,18.283138,84.738293,7.716522,69.608059,-2.784576,48.374577,0.0,10.742102,29.71226,63.148688,46.741542,77.582168,58.933235,86.202587,66.909165,88.904229,27.886534,318.823058,-47.898703,289.284008
105,-18.245773,18.056006,1.033516,0.234158,0.0,-53.751984,-43.2728,12.376442,-41.606483,25.730896,-34.996834,26.610031,-26.224823,-39.607887,0.0,45.788239,6.239817,38.379116,-1.33245,29.978034,-10.16597,23.935756,-18.355433,17.303824,0.0,68.156376,27.416553,86.369877,17.456703,83.260632,6.665096,68.172626,-3.882637,46.812,0.0,10.607424,29.989211,63.737231,46.863931,77.786685,58.957626,86.094647,66.82185,88.808331,9.144144,336.873722,-47.361803,289.512824
106,-7.191467,0.146534,-0.20422,0.500734,0.0,-24.719982,-24.219303,20.732918,-25.098324,31.196022,-23.051033,27.588844,-18.743191,-18.703022,0.0,29.909491,3.020954,31.756446,2.739125,32.905066,1.808608,33.545541,1.09397,27.962192,0.0,68.047943,27.975426,86.606255,18.414116,84.479141,7.834167,69.465294,-2.725067,48.658676,0.0,10.015238,29.613028,62.842468,46.399074,76.66363,58.460968,85.180556,66.451409,88.302039,1.446762,337.026601,-48.071938,290.019903
107,24.163055,-4.731625,0.243073,-0.133319,0.0,-69.224911,-55.815639,-1.19545,-55.292702,10.102844,-48.814201,11.565857,-39.850388,-48.059978,0.0,41.697213,5.641332,40.065396,2.180284,35.402684,-2.221533,30.594797,-6.665339,26.355138,0.0,67.821007,27.306004,86.04126,17.697144,84.248085,7.212582,69.181709,-3.122692,47.925682,0.0,10.07705,29.489033,62.954236,46.535357,76.899641,58.756629,85.33697,66.756394,88.272584,25.136604,332.29408,-48.302078,289.885688
108,2.403488,15.860408,0.377197,0.063171,0.0,-56.585941,-50.087185,-11.270943,-48.575134,5.741959,-42.323055,8.266869,-33.514366,-5.02533,0.0,37.526528,3.056831,30.55151,-12.407881,20.913815,-29.272536,5.033708,-46.58025,-19.098847,0.0,67.54818,26.763096,85.717621,17.341461,84.291916,7.041149,69.459572,-3.229809,48.456573,0.0,9.865802,29.688981,62.546251,46.377894,76.625963,58.387176,85.235452,66.331119,88.392689,27.159576,348.142524,-48.305397,289.936895
109,-4.25869,-1.69122,-0.241127,-0.174445,0.0,-48.210354,-45.7267,-9.054451,-43.660069,8.23082,-37.18895,12.793007,-28.451157,2.696228,0.0,37.558021,4.560453,30.117775,-9.412307,23.922233,-24.522077,10.51943,-39.350265,-10.000911,0.0,66.969223,27.622318,85.96859,18.278103,84.61441,7.833424,69.686737,-2.851067,48.800468,0.0,9.7846,29.196336,62.915704,45.86024,77.144296,57.95906,85.131341,66.284498,88.608692,22.433395,346.452246,-49.014015,289.763391
110,-10.480499,-19.336709,-0.073242,-0.371861,0.0,-13.284988,-30.084915,14.376068,-32.087803,22.312431,-30.28101,20.301132,-25.899868,3.566093,0.0,23.101508,8.781156,33.599325,12.167054,41.23075,14.349499,40.315856,15.685469,38.554734,0.0,67.391853,27.519951,86.303558,18.014774,84.250603,7.456684,69.498482,-3.221912,48.156166,0.0,10.730801,29.229002,63.117257,46.1467,78.033625,58.445098,86.192831,66.874646,89.204028,11.634092,327.0982,-49.406061,289.374194
111,13.725586,-2.2634,-0.18259,0.080461,0.0,-62.230968,-52.925777,1.60675,-55.457153,9.075508,-52.138538,6.894379,-46.721649,-61.028709,0.0,40.535008,8.724716,42.645329,11.762774,42.369736,13.577372,41.442739,14.885246,47.301186,0.0,67.776318,27.250957,86.560192,18.05912,85.146732,7.909412,70.195827,-2.393646,49.330273,0.0,10.416059,28.929389,62.60899,45.932673,77.14022,58.248361,85.830479,66.687666,89.106956,25.156803,324.789012,-49.791527,289.408867
112,-9.561424,11.719734,0.005665,-0.267441,0.0,-48.632641,-47.075157,5.88501,-45.686989,18.911591,-39.456768,16.872597,-30.58651,-23.825912,0.0,40.32092,4.60269,38.025595,-0.121278,34.328413,-4.931203,30.329456,-9.666039,20.370596,0.0,67.7314,27.577686,86.570435,18.203087,84.728394,7.815285,70.064621,-2.711906,48.669777,0.0,10.687638,29.471372,62.820917,46.510657,77.858501,58.760272,86.48633,67.15876,89.692597,15.377054,336.483197,-50.004187,289.115877
113,-8.165245,-0.157711,-0.020828,0.27763,0.0,-23.928852,-29.643631,11.760406,-29.16378,23.783913,-25.101242,24.605713,-18.914909,6.578064,0.0,19.955078,5.239708,30.437272,6.434763,32.007647,6.225368,31.270903,5.310782,26.649934,0.0,67.483177,28.049755,86.45359,18.891792,84.964027,8.535862,70.242348,-2.119274,49.3927,0.0,10.54765,29.701331,62.570087,46.499542,77.24711,58.617011,86.021967,67.006545,89.31913,7.052393,336.234065,-50.184431,289.302085
114,17.294884,-12.179713,-0.212746,-0.061133,0.0,-60.115356,-53.933945,0.979042,-55.793781,9.283905,-51.642609,5.969009,-45.639381,-62.383747,0.0,38.903007,9.127514,42.100628,12.841616,42.136999,14.92316,41.682207,16.317238,49.554644,0.0,67.611351,27.986927,86.332512,18.598766,85.04528,8.051262,70.254936,-2.688503,49.090347,0.0,10.229203,29.700219,62.762378,46.595317,77.367647,58.763298,85.974111,67.093675,89.346671,24.217873,323.998129,-50.526581,289.184728
115,-11.52729,6.620447,0.044346,0.016364,0.0,-40.702114,-43.570805,10.822563,-43.7253,20.856171,-39.0909,18.039436,-32.229996,-27.029629,0.0,40.791643,6.451436,37.824536,7.181635,37.730984,7.023615,35.869085,6.360231,37.017581,0.0,67.139454,28.30925,86.484203,19.15741,85.260487,8.691673,70.170422,-2.160015,49.331303,0.0,10.319791,29.9345,62.707482,46.683991,77.354679,58.737795,86.020856,67.074286,89.393478,12.582808,330.487989,-50.59001,289.070505
116,11.512527,-14.735686,0.2211,0.068111,0.0,-52.845097,-51.153603,3.924065,-55.216255,9.71386,-52.915649,4.214401,-48.898029,-67.389507,0.0,34.139395,12.742198,45.839924,21.432086,49.189267,27.395262,51.096305,32.401429,63.533085,0.0,67.586346,27.80777,86.084576,18.560886,85.147648,8.178577,70.372982,-2.38884,49.583073,0.0,10.20018,29.659279,62.752868,46.565306,77.169984,58.781699,85.749771,67.112077,89.291034,24.019861,315.657362,-50.444384,289.043675
117,-20.47348,19.688131,0.090294,-0.45226,0.0,-42.46748,-39.185715,17.118874,-39.313831,30.617294,-33.950787,29.792976,-25.627155,-7.200394,0.0,45.299114,6.313486,38.398382,0.714514,33.195848,-6.05154,26.839323,-12.558058,20.745545,0.0,67.451878,27.773781,86.197643,18.388939,85.240803,7.944489,70.498524,-2.565308,49.580555,0.0,10.910063,29.955742,63.648496,46.782112,77.803667,58.909276,86.015298,67.042855,89.78195,3.475227,335.32564,-50.425243,288.571562
118,19.985962,-10.35505,0.056992,0.327771,0.0,-60.151463,-53.250961,1.916313,-55.40102,10.078125,-51.625214,6.699715,-46.01778,-61.439095,0.0,41.357215,7.472541,41.493189,10.45453,41.080017,12.148529,40.092319,13.232249,47.335087,0.0,67.652607,27.618484,85.700855,18.339329,85.136318,8.013382,70.703373,-2.452641,49.798336,0.0,10.410934,29.31397,62.967266,46.224629,77.313677,58.403725,85.558283,66.650122,89.306225,23.424768,324.941027,-50.404673,288.86977
119,-14.457436,1.724442,0.078163,0.042855,0.0,-34.313564,-41.512413,14.581947,-42.133312,23.97274,-37.930069,19.974403,-31.08633,-22.105179,0.0,40.207052,8.431401,40.663634,10.630333,41.332391,11.783522,41.041115,12.169586,42.635634,0.0,67.631664,27.359619,85.678768,17.948742,84.684734,7.659645,70.306034,-2.627048,49.593716,0.0,10.2397,28.812557,62.964363,45.894944,77.447058,58.304368,85.647204,66.779242,89.174202,8.931255,326.646434,-50.362587,288.893591
120,12.87014,0.205876,-0.07988,-0.06243,0.0,-61.178741,-53.340282,3.258476,-55.279198,11.582794,-51.0989,8.83873,-44.517689,-54.906578,0.0,42.29718,6.656077,41.124601,7.97451,40.00556,7.935916,37.795883,7.42876,41.36339,0.0,67.705364,26.884174,85.305576,17.501907,84.305477,7.422752,70.238285,-2.733421,49.466228,0.0,10.024562,29.372016,62.277637,46.540915,76.737237,58.950957,85.421506,67.362413,89.295727,21.768522,326.813469,-50.47534,288.79232
