takenoko1/special-research/HandMotion_SimilarSearch_自分用/NewProject/handData/test_key/d4_feature_d2/20.csv
frame,vel_0x_L,vel_0y_L,vel_0x_R,vel_0y_R,posFromWrist_0x_L,posFromWrist_1x_L,posFromWrist_2x_L,posFromWrist_3x_L,posFromWrist_4x_L,posFromWrist_5x_L,posFromWrist_6x_L,posFromWrist_7x_L,posFromWrist_8x_L,posFromWrist_9x_L,posFromWrist_0y_L,posFromWrist_1y_L,posFromWrist_2y_L,posFromWrist_3y_L,posFromWrist_4y_L,posFromWrist_5y_L,posFromWrist_6y_L,posFromWrist_7y_L,posFromWrist_8y_L,posFromWrist_9y_L,posFromWrist_0x_R,posFromWrist_1x_R,posFromWrist_2x_R,posFromWrist_3x_R,posFromWrist_4x_R,posFromWrist_5x_R,posFromWrist_6x_R,posFromWrist_7x_R,posFromWrist_8x_R,posFromWrist_9x_R,posFromWrist_0y_R,posFromWrist_1y_R,posFromWrist_2y_R,posFromWrist_3y_R,posFromWrist_4y_R,posFromWrist_5y_R,posFromWrist_6y_R,posFromWrist_7y_R,posFromWrist_8y_R,posFromWrist_9y_R,posFromBody_0x_L,posFromBody_0y_L,posFromBody_0x_R,posFromBody_0y_R
3,-15.852757,-0.655419,-0.910034,-0.317088,0.0,24.906406,-0.284328,60.042686,-9.054451,53.916664,-18.355522,37.207718,-25.690327,-18.807335,0.0,-11.665579,18.594222,46.474904,38.875281,62.15957,52.122535,70.385281,62.019397,78.805505,0.0,69.429359,23.294506,87.544556,13.640671,84.876938,5.610008,71.173439,-0.499763,50.743961,0.0,9.891551,32.629473,57.173533,50.418964,69.73968,61.936034,77.519059,67.743166,78.471621,-23.259573,271.953399,-49.368925,270.106074
4,-2.342548,-0.195131,-0.237694,0.196119,0.0,28.779774,2.458134,63.145809,-6.43198,55.057583,-15.957813,37.216358,-23.434067,-18.976994,0.0,-12.382254,19.718697,45.75792,40.231196,61.986484,53.43504,70.590539,62.898105,77.003505,0.0,70.986328,23.222466,87.275391,13.51181,84.534531,5.650291,70.802879,-0.127201,51.419106,0.0,10.413342,32.466329,57.623076,50.48726,69.584316,62.055336,77.162018,67.668818,77.912965,-24.031191,271.674534,-48.035688,270.21846
5,4.123135,0.248484,-0.779514,-0.858207,0.0,23.834038,-1.420555,57.308693,-9.761238,50.736237,-18.665771,33.990555,-25.623379,-25.383396,0.0,-12.369966,21.071958,47.311066,40.787012,62.642767,52.997909,70.775543,61.859216,77.676584,0.0,70.929852,23.416615,88.189259,13.260784,85.047626,5.019722,70.993938,-1.170444,51.004143,0.0,10.566916,33.262168,58.400637,51.531583,70.380032,62.985173,77.936862,68.49121,78.822425,-19.387894,271.885242,-48.29504,269.322477
6,-0.907688,0.901,-0.586452,0.063232,0.0,28.046665,-0.317917,58.956242,-9.801922,53.1534,-19.60041,34.895153,-27.471886,-21.467342,0.0,-13.381129,18.652144,46.423404,38.7017,61.874222,51.702817,70.547808,61.269438,77.038826,0.0,71.186142,25.254993,89.094658,14.828739,85.701828,5.942459,71.262131,-0.986195,51.291847,0.0,10.64046,33.267046,58.762124,51.20233,70.177923,62.658514,78.08883,68.398214,78.8265,-20.094137,272.741427,-48.680048,269.340894
7,20.734863,-1.275084,0.611916,0.218905,0.0,0.049896,-22.234612,30.089436,-30.094471,25.854092,-37.149525,7.538395,-41.018314,-56.454506,0.0,-10.903455,25.202813,48.957641,43.804384,62.939293,54.434594,70.407449,61.739853,78.129153,0.0,71.632118,24.380264,87.69619,14.113827,84.916763,5.28986,70.687637,-1.820412,50.238762,0.0,11.166512,33.095133,58.073545,51.050054,69.561777,62.342351,77.663864,67.844931,78.724921,0.936813,271.448065,-47.772045,269.541521
8,-12.35733,19.914755,-0.87656,-0.553284,0.0,-39.990864,-22.422752,30.818195,-21.603756,34.380512,-16.986351,33.105869,-9.321442,16.656818,0.0,47.423699,24.837312,33.018625,31.074783,38.738627,35.203478,39.098447,38.186764,41.426993,0.0,71.8717,25.396328,88.112812,15.299721,85.245037,6.482105,71.23003,-0.843544,50.76004,0.0,11.433027,33.986192,58.471897,51.559433,70.152729,62.628688,78.696207,68.058958,79.637963,-11.445951,291.309992,-48.67404,268.93541
9,2.198296,-19.943222,-0.147972,0.189327,0.0,14.141235,-12.604351,45.613575,-21.381054,42.951679,-29.49091,22.962055,-35.095367,-38.267841,0.0,-9.075767,20.163733,45.776136,40.555633,60.066417,54.035377,70.241896,63.361233,80.714025,0.0,71.586628,25.142784,88.71397,15.085258,85.897923,6.219521,71.036167,-1.194534,50.196877,0.0,11.038195,33.685467,58.376678,51.352013,70.057633,62.52044,78.173119,68.127377,79.235103,-9.220333,271.332329,-48.794689,269.090295
10,-0.940304,1.02376,-0.120564,-0.121587,0.0,15.799084,-6.929626,47.826691,-15.551434,42.981148,-24.363613,23.410263,-31.106129,-34.158955,0.0,-12.559663,18.707596,45.961017,39.424489,61.466298,52.867615,70.230596,62.22941,78.337499,0.0,72.027168,25.283833,88.63987,15.347843,86.108551,6.55426,71.622734,-0.865803,50.65012,0.0,11.119705,33.61606,58.129615,51.203195,69.664036,62.418119,78.661318,68.087548,79.87601,-10.098639,272.310625,-48.853254,268.923245
11,5.340672,0.790158,-0.430698,-0.276951,0.0,8.703918,-12.916431,41.75005,-21.832924,35.258274,-29.967613,16.869335,-35.381184,-37.693577,0.0,-11.942159,18.350185,47.19479,38.153665,60.817796,51.198069,69.863737,60.510402,77.697518,0.0,72.018528,25.301628,89.454288,15.472183,86.899052,6.936321,72.59531,-0.035191,52.117367,0.0,11.717573,33.874424,58.988748,51.581601,70.195769,62.834934,78.587835,68.481824,79.739851,-4.756794,273.072224,-49.28278,268.617735
12,-5.169525,1.187337,-0.051556,-0.190994,0.0,16.251469,-6.936779,48.143177,-16.152077,42.92181,-24.902344,23.205128,-31.48138,-28.16637,0.0,-13.155925,16.609379,42.766977,37.342388,57.651728,51.198316,66.802275,60.949386,75.13537,0.0,71.811562,25.366631,88.693886,15.537872,86.248512,6.980152,71.984596,-0.141678,51.681633,0.0,12.107033,34.126242,59.281816,51.852191,70.487601,62.991163,79.13939,68.570621,80.394467,-9.914474,274.238767,-49.322491,268.405946
13,13.108234,0.342715,-0.486031,0.439231,0.0,-5.810509,-18.804703,32.365837,-28.723984,26.505089,-36.505051,5.712662,-41.209946,-43.669167,0.0,-10.018819,22.582681,44.960598,42.357325,58.437008,54.023521,66.158959,61.550835,71.627884,0.0,72.826653,25.207787,89.619026,15.815678,88.292542,7.372169,74.037209,0.44569,54.162254,0.0,11.360717,33.480888,59.014375,51.380974,70.435052,62.855868,77.966935,68.780326,79.798267,3.206806,274.56115,-49.795475,268.824846
14,-14.436607,19.92587,-0.277061,-0.547973,0.0,-21.37104,-10.611305,44.746742,-14.425106,44.675789,-15.134296,31.956482,-12.193394,-16.595535,0.0,34.303342,14.279351,28.639224,26.837532,37.880173,35.37817,43.542747,42.354546,49.468255,0.0,73.278809,26.595669,89.653015,16.937199,87.898521,8.165131,73.440628,0.752048,53.428288,0.0,11.958338,34.387322,59.86863,52.136861,70.853287,63.407731,78.40703,69.056103,80.064967,-11.251431,294.482775,-50.094166,268.272627
15,-4.741344,-19.204502,0.316887,-0.17111,0.0,21.250134,1.375008,55.751667,-8.403625,50.17828,-18.478832,26.550007,-26.869812,-22.38018,0.0,-13.241388,17.160131,39.399048,38.648471,56.704477,52.58486,66.325438,61.725959,72.046799,0.0,72.981377,26.385956,89.576683,16.580029,87.732697,7.637615,72.968102,0.04509,52.595329,0.0,12.388553,34.45568,59.765136,52.280616,71.119246,63.448363,78.584562,68.89549,79.946221,-15.982847,275.260412,-49.767351,268.083655
16,-0.177784,0.167467,-0.190887,-0.044213,0.0,21.407089,1.661911,54.580536,-9.13393,48.110733,-19.733505,23.981438,-28.290825,-22.585945,0.0,-12.355702,18.324311,38.947467,39.741824,55.730056,53.113999,64.558018,61.609559,69.446675,0.0,73.250198,26.811905,89.881096,16.925411,87.687721,7.865524,73.134384,0.101566,52.563286,0.0,12.116542,34.391645,59.624839,52.243874,71.161545,63.43027,78.795193,68.94909,80.385328,-16.166611,275.417026,-49.964218,268.028589
17,-4.193401,-0.400143,0.087776,0.106272,0.0,26.980648,8.646698,60.81934,-3.040066,54.393482,-15.031471,32.159557,-25.699196,-7.54406,0.0,-13.566751,15.706588,38.802662,36.996339,56.26821,51.306935,66.081154,61.109937,70.807221,0.0,72.671814,26.87748,89.546127,17.117672,87.533455,8.144989,72.906532,0.489407,52.882519,0.0,12.105242,33.841387,59.803113,51.696457,71.020075,63.136215,78.726712,69.07327,80.298074,-20.35778,275.008686,-49.87421,268.126665
18,0.473728,-0.514875,0.420799,-0.326351,0.0,25.62624,5.459518,60.196724,-5.497856,55.31662,-16.577797,33.311119,-26.131725,-8.273048,0.0,-11.601235,16.212818,38.863733,37.615572,56.560043,51.890847,66.229972,61.737012,70.616536,0.0,72.612419,26.485634,89.28463,17.007008,87.703171,8.193855,73.248711,0.508518,52.621536,0.0,12.468458,34.028244,59.512145,51.790503,71.411387,63.164373,79.491182,69.088399,81.211919,-19.885855,274.485521,-49.455214,267.792024
19,0.466576,0.342159,-0.336113,0.22718,0.0,24.529266,3.591385,58.94371,-7.12944,53.730354,-17.871323,32.721748,-26.962795,-8.355846,0.0,-11.36399,16.95901,39.993457,38.141809,56.322242,51.940309,65.556152,61.481489,69.986929,0.0,72.088509,26.505089,89.07177,17.251511,87.593651,8.613739,73.445778,1.036777,53.184299,0.0,12.65303,33.909683,59.186967,51.75407,71.317403,63.184998,79.424615,69.252717,80.663019,-19.420366,274.824346,-49.792414,268.015869
20,14.677277,-0.491163,0.198669,-0.418483,0.0,2.485828,-9.812107,41.010475,-21.164017,36.085854,-31.333637,13.812103,-39.269829,-37.897511,0.0,-11.847496,20.794945,42.994898,40.898842,57.617642,53.294002,65.999273,61.733554,71.23861,0.0,72.135315,26.26585,89.1045,16.9174,87.209702,8.275509,72.73716,0.841084,52.659931,0.0,12.616906,34.702435,59.597978,52.270489,71.237992,63.34419,78.997055,69.048446,79.974996,-4.719028,274.329293,-49.569683,267.593496
21,-9.090843,-1.287373,0.312366,-0.773609,0.0,11.581535,-1.113968,50.346336,-11.717262,47.197609,-22.380352,23.799133,-31.196651,-30.966454,0.0,-8.54212,19.799776,43.803149,40.148698,58.920638,53.009641,66.634684,61.507115,72.610333,0.0,72.367802,26.667366,88.785152,16.608925,85.75819,7.243423,71.037312,-0.987167,49.794102,0.0,12.432828,33.918946,60.256793,51.479836,71.423491,62.670123,79.554291,68.539191,80.695747,-13.781948,273.043834,-49.229393,266.821801
22,2.988625,-1.335908,0.660324,-0.15981,0.0,8.915806,-6.030006,46.323051,-15.574951,44.682426,-25.035896,22.114334,-32.471066,-40.562611,0.0,-8.271838,22.674875,45.942492,42.161267,60.740608,54.045937,68.743831,61.849398,76.184571,0.0,71.260586,25.474663,88.037624,15.752392,85.531826,6.665154,71.459484,-1.160488,50.411568,0.0,12.350515,33.369737,60.960439,51.062404,72.544508,62.442634,79.987408,68.358262,80.7964,-10.72855,271.695669,-48.504295,266.649734
23,13.622017,1.321521,-0.337715,-0.473811,0.0,-11.58989,-20.242252,29.279594,-30.315342,29.174652,-38.420334,8.704605,-43.376198,-56.182194,0.0,-10.101503,25.277222,47.080243,43.466609,61.31606,53.961647,67.635226,60.911039,74.583753,0.0,71.800861,25.843506,88.564739,16.012459,86.11227,6.837101,71.722584,-1.207409,50.268745,0.0,12.180207,33.514357,60.711091,51.108902,72.841403,62.353034,80.884209,68.166033,81.929273,2.967482,272.994141,-48.767996,266.152874
24,-12.018013,13.696921,-0.17355,-0.165429,0.0,-15.710621,-15.287361,46.773376,-22.690659,46.165695,-25.233078,31.844444,-23.853035,-18.700504,0.0,27.545871,17.796777,36.684253,30.707183,44.798133,39.651792,50.680416,47.622782,56.315696,0.0,71.756859,25.877781,88.71666,16.111851,86.614609,6.907654,72.622948,-1.091022,51.327324,0.0,12.639198,33.809215,61.419862,51.59568,73.472246,62.915766,81.273669,68.740682,82.294898,-8.993139,286.68765,-48.884153,265.984033
25,2.382488,-12.720461,-0.091324,0.429351,0.0,3.815403,-7.010994,43.120594,-17.54425,37.896595,-28.115616,21.052151,-36.779251,-18.609467,0.0,-10.985522,21.813827,42.247162,41.54296,58.656902,53.724711,66.301726,61.877309,69.181827,0.0,72.289352,25.766773,87.771492,15.901623,85.68821,6.719227,71.50898,-1.172562,51.112747,0.0,11.620748,33.11829,60.303847,50.553333,72.359565,62.077072,80.25454,68.436808,81.307632,-6.576891,273.951195,-48.941717,266.397391
26,1.166096,-0.195502,-0.518246,-0.111027,0.0,3.104382,-9.742184,42.413521,-20.365562,37.890129,-30.388756,21.451263,-38.303547,-15.290508,0.0,-8.50334,21.118579,42.087167,40.957505,58.404466,53.576633,66.867669,62.023905,69.140454,0.0,72.513142,25.867939,88.516102,16.164665,86.163654,7.002525,72.097378,-0.954208,51.915035,0.0,11.63458,32.934335,60.047953,50.496523,72.474421,62.107082,80.544335,68.525358,82.003806,-5.332375,273.688972,-49.381542,266.219642
27,1.659794,-0.987698,0.177441,-0.083734,0.0,0.495586,-12.8195,39.888668,-23.658428,36.72369,-33.295269,20.578136,-40.386372,-21.409779,0.0,-7.56319,22.426268,43.456852,42.069938,58.714021,54.368644,67.127391,62.713471,70.398928,0.0,71.964111,26.107349,88.413734,16.351547,86.003723,7.024555,71.515045,-1.130791,51.143932,0.0,11.534483,33.190661,60.080928,50.601128,72.381425,62.054039,80.164755,68.394633,81.716234,-3.607807,272.695778,-49.139328,266.130413
28,-4.057674,0.811153,-0.063744,0.316533,0.0,6.158409,-8.170967,45.307159,-18.773403,40.71476,-28.846035,25.18261,-36.770611,-9.437599,0.0,-9.841287,20.321011,41.190304,40.286031,56.62451,53.300362,66.331984,62.292395,68.210493,0.0,72.59079,26.245022,88.635292,16.555252,86.172523,7.284679,71.286507,-0.834789,51.098614,0.0,10.72969,32.747911,59.861158,50.07625,71.986037,61.576338,79.331742,68.132564,81.131026,-7.536736,273.488638,-49.074326,266.428652
29,11.844006,-1.285458,0.143337,-0.440219,0.0,-8.904419,-21.617432,30.58794,-33.468361,26.091671,-42.308064,8.820362,-47.655716,-36.740055,0.0,-5.513139,23.698882,43.766778,43.256349,58.214089,54.925262,66.570526,62.670246,71.298137,0.0,72.946873,26.676006,88.244991,17.053986,85.772953,7.757435,71.153812,-0.403404,51.203041,0.0,11.191953,33.677748,59.955698,50.931061,72.1724,62.16908,79.529344,68.46756,81.140659,4.407578,272.192111,-48.830681,265.977364
30,-15.763206,22.460045,-0.327587,0.080461,0.0,-33.361416,-14.875946,42.664204,-17.136326,48.173847,-16.226177,41.304188,-12.136688,16.921749,0.0,38.946973,15.091183,34.109384,20.568383,38.654152,23.454535,37.645583,26.233366,34.488964,0.0,73.383636,27.135315,88.954124,17.592888,86.678352,8.199635,71.608543,-0.230484,51.359882,0.0,11.080679,33.299095,59.687948,50.510417,71.655549,61.846681,78.775618,68.360423,80.772997,-11.287708,294.642832,-49.090347,266.048501
31,11.945572,-25.045164,0.531063,0.0402,0.0,-5.996418,-18.163948,33.234158,-27.879009,30.017452,-35.873966,12.239857,-40.69273,-46.572876,0.0,-4.69828,26.417691,45.805097,45.601321,61.319826,56.702439,68.856032,63.865117,76.919895,0.0,72.761822,26.513786,88.498821,17.140732,86.286678,7.950554,71.873302,-0.259666,51.641464,0.0,10.104714,32.915007,58.964172,50.204505,71.36279,61.614314,78.975566,68.102306,80.734218,0.753479,269.608443,-48.463669,266.099476
32,-5.322475,16.971113,-0.041656,-0.294055,0.0,-39.655209,-20.845985,30.816765,-23.596573,36.648102,-22.463665,31.4328,-18.645401,8.642864,0.0,38.008737,22.941266,36.078975,32.878204,42.305207,38.955494,43.232019,43.181322,44.873716,0.0,72.677937,26.66256,89.039669,17.039852,86.743069,7.722073,71.864948,-0.539875,51.552086,0.0,10.457556,33.683059,58.935766,51.11835,71.379401,62.314564,79.040404,68.39099,80.586819,-4.417362,286.566109,-48.353691,265.791974
33,10.259056,-15.836202,-0.202274,0.14252,0.0,-15.767269,-25.210018,27.495461,-34.292393,24.981651,-40.704918,9.109726,-43.976727,-46.929131,0.0,2.38937,24.843426,45.044209,43.346134,60.738878,54.351786,67.227921,61.437831,74.941103,0.0,72.214622,27.284203,88.698463,17.57967,86.054306,8.132286,71.706161,-0.347099,51.299629,0.0,10.20901,33.040175,58.356301,50.540304,70.096104,61.838715,78.272476,68.036974,80.342041,5.973816,270.733026,-48.423843,265.937612
34,-19.503193,15.369431,0.716743,-0.22224,0.0,2.497387,-10.823536,48.788052,-17.6437,51.988392,-19.508629,40.340481,-17.623844,-3.068619,0.0,19.052225,13.169757,38.689227,27.385011,47.045848,38.169473,52.544599,47.102782,54.261013,0.0,71.655922,26.382294,87.854919,16.683083,85.218544,7.449818,70.682945,-0.653629,50.874882,0.0,10.455271,33.041349,58.229095,50.82133,70.335757,62.158088,78.115136,68.166959,79.89997,-13.323326,286.092515,-47.501049,265.705431
35,19.348927,-17.110916,-0.591946,-0.450469,0.0,-14.131565,-28.689308,26.93161,-36.948967,27.3349,-42.413578,13.604736,-44.74062,-44.197769,0.0,9.07163,23.719939,47.813344,42.299156,62.085717,53.921201,67.988253,61.628702,78.00874,0.0,72.707119,26.502628,88.732967,16.454315,86.090641,7.21035,71.846523,-0.775681,51.708584,0.0,10.917226,33.471255,58.383903,51.373749,70.050902,62.692168,78.036651,68.558951,79.77406,6.20018,268.940211,-47.918415,265.213573
36,-16.905842,18.722169,0.091095,0.052488,0.0,7.040863,-11.685505,44.19611,-19.587135,45.160389,-22.429733,34.059505,-21.203384,-9.468956,0.0,13.912368,10.611006,35.598495,25.970062,45.150666,37.778655,50.472749,47.132299,53.037614,0.0,72.475834,26.764011,89.234905,16.504784,85.486622,7.008762,71.299496,-1.173134,50.789738,0.0,10.331585,33.262971,57.894408,50.991699,69.241293,62.268313,78.121187,68.146334,80.132892,-10.521526,287.645815,-47.643185,265.249497
37,23.213482,-15.657558,-0.029125,-0.402736,0.0,-27.446079,-33.362904,21.560669,-41.880798,21.406174,-45.3475,6.898613,-45.773106,-55.67625,0.0,10.789526,25.134208,44.382244,42.127181,56.68941,52.904048,62.719585,60.203996,74.533735,0.0,71.510925,24.91333,89.066963,14.832001,86.793251,5.94944,72.152481,-1.482983,51.144962,0.0,11.326569,33.508738,58.346976,51.806743,70.655686,63.385625,78.437041,69.374303,79.421095,12.790403,271.965688,-47.573862,264.824191
38,-19.13332,18.407551,0.245647,0.130726,0.0,-1.79615,-12.989731,43.833904,-22.23381,44.210644,-26.193867,29.466877,-26.138077,-33.240051,0.0,8.347668,9.301094,34.504154,23.40143,40.686914,34.07468,47.890532,43.188053,54.175859,0.0,71.665821,25.90456,91.233616,15.276604,87.215252,5.691605,71.358547,-2.482738,48.810081,0.0,9.836902,33.329538,57.916576,50.938903,70.230226,62.234844,77.929329,68.022031,78.810569,-6.237545,290.371587,-47.222843,264.953265
39,14.571991,-19.872641,0.261497,-0.355929,0.0,-13.003006,-29.569359,28.746357,-39.300842,27.340908,-44.768829,10.616055,-46.584148,-42.756386,0.0,-4.645236,22.595217,43.414121,41.490472,56.58357,53.242749,64.158369,61.068687,73.475518,0.0,71.686306,26.040802,92.089176,15.221672,87.22784,5.220394,70.749836,-3.556824,46.615162,0.0,10.104467,34.054982,55.920432,51.383321,70.739975,62.282577,78.336511,67.820107,79.617029,8.428688,270.537154,-46.867104,264.635543
40,-17.139816,10.774768,-0.159359,-0.039459,0.0,9.795055,-12.085533,46.923122,-21.644955,47.954121,-26.064949,32.740002,-26.520023,-7.064381,0.0,15.329231,14.828435,39.377497,29.423516,50.260451,40.133075,56.058444,49.016489,58.416198,0.0,70.933113,25.998802,93.653526,15.600529,88.560791,5.959396,72.247009,-2.226562,49.237804,0.0,10.52332,33.534117,51.450876,51.452728,69.270254,62.794241,76.899641,68.592358,78.589194,-8.608475,281.313619,-46.923809,264.597783
41,9.506893,-13.099424,-0.271797,-1.923402,0.0,-3.227348,-21.12545,39.082718,-29.704399,35.210152,-35.78825,15.008812,-38.664608,-50.772114,0.0,-6.819468,23.088047,41.417113,42.322806,57.047254,54.389948,67.705498,62.289308,77.085509,0.0,70.675049,26.352081,95.266342,15.857906,89.304543,5.88541,73.082085,-2.654686,47.342377,0.0,12.324085,32.307692,51.934258,50.822565,71.150245,62.763674,79.679335,68.80058,80.515498,0.954666,268.192969,-47.139359,262.653154
42,-9.696636,6.046292,0.607567,-0.835792,0.0,26.250858,-9.919224,49.688473,-21.488686,50.361614,-25.955658,34.124622,-25.932541,-2.416477,0.0,12.303276,10.771742,34.282532,33.594756,50.89012,51.348308,58.72915,65.56103,62.122705,0.0,67.6894,25.761623,93.281136,17.201614,90.149574,8.753471,77.462769,1.172905,55.598145,0.0,14.719384,30.020519,49.017415,49.136841,69.26272,61.954806,81.163445,68.887463,84.126477,-8.698797,274.220211,-46.488619,261.798313
43,-3.865871,10.119658,-0.969028,-2.670767,0.0,19.595146,-15.953865,51.000481,-23.683662,62.227478,-26.432476,48.872566,-24.23996,-4.134979,0.0,37.398334,9.15067,40.292576,17.686121,43.996983,24.322746,52.855944,30.74942,64.071857,0.0,65.100002,25.017071,91.184177,16.25948,90.784321,7.536564,76.292553,-0.643845,54.234982,0.0,16.087032,26.250718,49.550383,45.158879,71.770404,58.318324,84.291782,66.451471,89.43942,-12.468195,284.310629,-47.361174,259.098307
44,41.381836,36.081383,3.060837,-3.097524,0.0,-70.9758,-54.428272,-18.014832,-51.314793,-6.981697,-42.568302,-3.695755,-30.426464,-14.642487,0.0,25.559792,-1.623418,18.587368,-17.1287,10.512699,-33.750429,-10.208702,-50.651578,-35.109987,0.0,63.339558,19.459305,80.547695,8.604183,79.30727,-1.570644,63.488445,-10.536232,40.942039,0.0,16.189908,19.1459,47.8365,36.344934,70.502545,49.888837,82.961864,59.520975,87.275439,29.025993,320.381608,-44.187984,255.990378
45,9.703102,0.231873,-0.411015,-4.156791,0.0,-59.897118,-28.147202,-75.021343,-28.809814,-74.146042,-27.864532,-65.433998,-26.040688,-54.943943,0.0,29.334842,1.84115,5.408101,-15.886714,-18.24243,-34.183917,-40.185933,-51.669163,-53.072688,0.0,64.0448,9.58374,68.018532,0.175095,66.033211,-7.252178,54.74659,-12.865791,35.493965,0.0,15.618655,6.105201,39.304075,23.143993,57.919849,38.530343,70.836615,51.446121,77.768592,38.803911,320.636683,-44.524183,251.85679
46,-8.134232,-41.080388,-4.629879,-3.935539,0.0,-43.747673,-17.525482,-65.83992,-10.758476,-62.477989,-2.50145,-52.520599,6.222954,-34.274368,0.0,-22.900387,11.873863,25.876881,26.638819,48.649445,38.823225,62.801713,48.163963,72.545372,0.0,51.134777,8.174572,62.730274,-0.147514,56.638412,-6.027946,45.711823,-9.923344,31.982861,0.0,12.419552,6.083033,28.250319,20.838479,43.857366,33.992799,52.002245,44.811903,58.659927,30.870895,279.552343,-48.952847,247.917298
47,18.080177,-10.208455,-6.333046,-31.441921,0.0,-47.926483,-16.694756,-62.823143,-10.402107,-57.697048,-4.264069,-51.971054,0.383606,-36.700058,0.0,15.444334,18.345245,37.344611,34.904914,52.4889,47.800562,66.029407,56.015898,74.855208,0.0,48.609495,27.096062,44.008026,19.368954,36.732245,10.5021,26.904287,1.177282,16.694784,0.0,3.024844,13.981158,20.623773,29.673235,32.641361,42.968469,42.564034,53.814342,51.417284,49.23955,269.940737,-54.997416,217.072226
48,-10.446396,10.017522,-6.333046,-31.44192,0.0,-6.09066,-14.993248,-6.804314,-7.302589,2.433014,2.354736,11.625137,12.536545,19.422455,0.0,-20.512869,7.696386,1.530299,25.17626,14.323132,38.364111,27.332276,47.706022,36.818189,0.0,46.084213,46.017551,25.285778,38.885422,16.826077,27.032146,8.096752,12.277908,1.406708,0.0,-6.369864,21.879282,12.997227,38.507989,21.425355,51.944138,33.125823,62.81678,44.174639,39.499311,281.422192,-60.624304,187.094239
49,66.292534,-65.819949,4.137096,0.246446,0.0,-61.483154,-26.172523,-59.128532,-21.112289,-56.881714,-16.179657,-50.174675,-11.218872,-42.873688,0.0,20.775432,26.449924,35.116904,44.881681,46.719188,58.99338,58.24021,67.612008,69.369548,0.0,33.768311,8.446255,24.018459,2.585392,22.856312,-2.468491,16.19236,-7.171669,8.792095,0.0,-0.530498,4.696551,-14.693572,18.526112,-4.464617,28.89802,5.309115,36.656712,16.452595,106.58864,217.718244,-55.690413,189.456686
50,7.066956,28.987866,-9.052792,-49.24972,0.0,-48.309059,-22.597389,-37.50927,-23.28083,-35.431595,-21.643295,-36.429405,-18.445129,-33.019409,0.0,9.632756,16.220475,2.459457,3.057016,-9.809732,-13.379894,-23.732968,-30.501184,-37.152321,0.0,45.444202,19.764748,24.477482,17.254486,24.612007,15.262299,21.337681,14.409428,15.089378,0.0,-41.069088,-5.789533,-2.903813,13.145489,13.972698,30.510632,30.601899,45.730688,43.142975,114.202881,250.679132,-64.195919,144.179987
51,9.842834,-92.262834,9.493332,-29.985352,0.0,-30.203362,-26.31237,-28.41774,-23.004227,-25.065193,-17.906456,-21.820564,-11.298637,-14.056435,0.0,-38.226654,15.063025,16.208866,35.570399,33.138791,51.941668,47.925421,64.932225,61.022436,0.0,34.125137,13.074703,29.67556,8.576431,26.938362,5.410938,22.864037,3.973045,14.417896,0.0,-55.032245,-9.902759,-0.239869,8.623476,16.855362,26.019184,31.131686,41.325877,42.504321,125.122433,162.907405,-53.62587,118.685743
52,17.415161,-38.083393,9.19384,-23.573158,0.0,-30.136757,-40.174599,-33.412399,-39.382896,-26.320152,-35.160027,-25.365601,-28.08815,-22.267227,0.0,-45.920447,7.619939,9.607623,26.529644,25.819391,43.226276,40.598673,58.504563,55.885111,0.0,26.509151,23.671417,26.377487,27.554569,29.084473,28.395023,26.325703,27.823105,25.06176,0.0,-60.667155,-20.662151,-12.066154,-2.053479,8.920773,15.744811,23.456481,33.043417,36.143473,144.837198,128.394868,-42.132425,98.683441
53,4.64344,-16.524163,5.936737,-30.126868,0.0,-49.869576,-27.169533,-34.402313,-26.96125,-35.074768,-26.4608,-33.166008,-25.470085,-31.695671,0.0,-1.809318,8.631997,-1.615391,22.485116,12.157359,34.195896,17.869581,42.324165,26.694394,0.0,23.288469,26.143913,23.599663,27.269983,24.7439,26.011791,22.49362,23.6273,20.772629,0.0,-61.159986,-13.067592,-9.281257,5.767874,9.624172,23.768428,24.745582,40.574682,37.026319,152.044744,114.642897,-33.631582,71.328766
54,9.652634,-49.068205,5.936737,-30.126869,0.0,-20.357323,-40.12928,-34.806175,-43.364525,-37.672234,-42.672386,-38.633537,-39.32373,-37.478256,0.0,-63.645532,-1.892125,-6.113785,17.364463,11.924468,35.323644,27.007191,50.271412,43.049114,0.0,20.067787,28.616409,20.821838,26.985397,20.403328,23.628559,18.661537,19.431496,16.483498,0.0,-61.652815,-5.473032,-6.496359,13.589228,10.327571,31.792045,26.034684,48.105948,37.909165,163.52108,69.486689,-25.871143,45.113894
55,10.145988,-15.978969,-1.86264,-18.120689,0.0,-27.370949,-33.564835,-45.370216,-38.21434,-49.720573,-41.23455,-46.94664,-43.136902,-45.500107,0.0,-60.615347,-14.760324,-10.807341,3.854553,6.574443,21.797093,19.049879,38.470074,34.259067,0.0,27.423592,26.728821,29.501724,25.63797,27.961235,24.305019,24.860401,22.176075,21.850605,0.0,-55.248989,-6.648142,-7.166753,13.587345,8.190513,31.370753,23.127721,46.132899,36.804264,174.168692,58.599736,-27.232161,32.085221
56,-8.15197,-32.276261,15.562248,-20.842215,0.0,-15.958672,-25.036354,-34.649506,-27.004738,-38.472862,-28.466377,-39.371452,-29.645348,-39.551239,0.0,-63.403872,-8.029591,-4.986716,12.07659,12.472472,31.0394,28.160998,47.878583,42.864975,0.0,21.229362,13.865948,22.565231,8.756104,23.547249,5.085411,21.684437,3.136139,17.664127,0.0,-67.185035,-4.267941,-4.687906,17.668491,13.500709,37.018384,26.686676,52.823927,40.843884,167.51421,28.478688,-10.172424,13.398218
57,7.308426,-6.56975,-3.143864,-7.536669,0.0,-20.545464,-30.30407,-43.856621,-32.437592,-47.910004,-34.021454,-46.423874,-35.48584,-45.133209,0.0,-69.495797,-16.927177,-11.217148,3.009684,6.055245,22.087134,21.41742,39.934732,37.180757,0.0,20.640335,13.867207,29.309635,9.053421,28.169117,6.66647,24.503174,6.735077,19.795761,0.0,-67.766291,-10.467714,-6.872852,10.948904,10.623726,30.71237,28.273538,47.681322,41.425696,176.181822,23.285895,-11.957102,7.238507
58,-0.948029,-8.413092,-1.060581,-5.304268,0.0,-19.739342,-30.602875,-44.750061,-32.088203,-48.213615,-32.944107,-46.117859,-34.161644,-46.006508,0.0,-73.140646,-17.602511,-12.126237,3.142201,4.293475,22.312369,19.759977,39.512298,34.786786,0.0,26.488323,16.107044,32.567654,11.477509,31.423759,8.9324,26.746788,8.730412,22.285709,0.0,-67.926194,-12.189686,-6.114341,9.207789,12.175143,29.56653,29.900105,47.429905,42.19381,175.466423,16.716392,-12.785053,3.777828
59,-0.978241,-5.249927,-0.035706,-3.768751,0.0,-21.334648,-30.560303,-46.146584,-31.946754,-48.089561,-32.285728,-45.482025,-32.917442,-45.815048,0.0,-73.635421,-16.271604,-11.546401,5.01577,5.601658,24.534735,21.691499,42.029893,36.790031,0.0,29.449997,16.531792,33.592529,11.594696,31.593933,9.169979,27.790775,9.054852,23.540726,0.0,-70.71617,-12.507484,-8.375733,9.869352,11.007598,30.809226,28.904874,48.824847,42.418303,175.4284,12.542759,-11.880541,1.085372
60,-1.576881,-3.0614,0.546627,-3.726452,0.0,-21.5839,-29.874458,-45.499878,-30.967255,-47.31514,-31.180115,-45.444145,-31.992302,-45.217323,0.0,-72.834395,-16.187654,-10.491364,5.29269,7.515427,25.158384,23.91825,43.111668,39.091716,0.0,26.573753,17.105484,34.345951,13.058739,31.979656,10.986614,28.558903,11.111298,24.749393,0.0,-69.830206,-12.161311,-6.976963,10.133212,11.453436,30.789743,29.16157,48.648889,42.665984,175.045795,10.152092,-10.139637,-1.970348
61,-0.356941,0.824337,-0.184536,-2.81023,0.0,-21.196747,-29.164238,-45.233231,-30.316887,-46.768913,-30.684471,-45.44323,-31.564178,-44.708405,0.0,-73.048947,-16.933599,-10.642313,4.432784,7.376056,24.414168,23.96938,42.620536,38.76589,0.0,27.349777,18.480835,33.270321,14.967728,32.129402,13.064289,28.195152,13.116932,24.258327,0.0,-70.930722,-10.451628,-7.176973,11.894056,10.054511,32.716109,27.943358,50.420539,41.846741,174.945345,12.065351,-10.067682,-3.691656
62,-0.598755,2.239965,1.554394,-0.263211,0.0,-19.778824,-27.949448,-43.895645,-28.731766,-45.785294,-28.686333,-43.054276,-29.262085,-42.710609,0.0,-73.314535,-18.521172,-11.313818,2.449515,6.40537,22.485455,22.36708,41.164554,37.640365,0.0,26.36507,17.864227,31.743507,13.801403,32.050896,11.83651,27.768974,11.853848,23.930397,0.0,-70.61808,-10.173226,-7.11269,11.26099,9.790528,31.414905,27.960772,48.693998,41.431068,174.589491,14.40421,-8.270388,-3.855974
63,1.070251,3.682424,0.375824,1.444435,0.0,-18.031082,-27.986069,-42.247925,-29.547844,-44.98455,-30.244217,-44.244461,-31.366539,-44.076347,0.0,-73.001214,-17.768249,-11.706705,2.847281,5.752267,22.568108,22.195475,40.491505,37.206383,0.0,27.425079,19.83799,30.965595,15.817623,31.548786,13.551464,27.01601,12.73922,22.438488,0.0,-68.366259,-9.591383,-7.368924,11.657027,9.875589,31.885751,27.076228,49.304555,41.006071,175.532627,17.859269,-8.021679,-2.638904
64,0.283241,4.61433,1.028194,6.056758,0.0,-16.818123,-27.78923,-41.168518,-29.101868,-44.480209,-30.053558,-44.15657,-31.86985,-44.553566,0.0,-72.828837,-15.901626,-10.358014,5.362128,7.809636,25.353422,23.853381,42.995608,37.56327,0.0,32.191086,20.053997,29.566727,16.413059,30.443745,14.652443,26.785755,14.250183,21.623039,0.0,-64.333246,-5.785334,-7.1917,15.037275,10.655497,34.27046,26.897399,50.537062,40.223199,175.533428,22.690004,-7.275925,3.634259
65,0.410042,7.484767,2.088661,10.507728,0.0,-16.969643,-29.178543,-42.607956,-30.380974,-45.066605,-30.772133,-44.486504,-31.810341,-44.519119,0.0,-72.835414,-14.915874,-9.830141,6.85269,8.575341,27.237273,24.010968,44.865503,38.672832,0.0,28.132153,24.886322,28.547115,23.316936,25.258026,21.264553,23.608246,19.02832,20.656872,0.0,-60.641961,-1.716661,-3.607953,17.927472,13.39033,35.62477,28.490529,50.683164,41.156464,175.310297,30.194902,-5.820436,14.162117
66,0.173721,7.875308,2.590714,9.769687,0.0,-17.203217,-28.993492,-42.230873,-30.268021,-45.06031,-31.004219,-44.755554,-32.33139,-45.085258,0.0,-73.854728,-14.728863,-9.763481,7.368615,8.969618,28.044413,24.533809,45.892289,38.984208,0.0,34.655972,19.704609,26.65123,17.420197,27.361279,16.101608,26.33709,15.245018,22.799034,0.0,-52.482663,1.666057,0.238202,21.364253,15.440042,38.896091,32.290464,54.407454,44.475333,174.965858,38.145283,-3.747883,24.006877
67,0.219955,8.165967,4.086685,12.28404,0.0,-18.524666,-30.288277,-42.331009,-31.876717,-44.343796,-32.93335,-44.675446,-34.435272,-46.213417,0.0,-73.637922,-13.521364,-9.470136,8.225587,9.536888,28.493925,24.869237,45.805221,38.662211,0.0,32.898502,21.02623,24.594784,19.456444,24.383183,18.041039,23.335648,17.355881,20.582943,0.0,-49.366027,1.629933,0.899457,21.756862,15.619118,39.415905,31.469029,54.435273,45.121335,175.085649,46.38146,0.238638,36.361128
68,0.626678,7.548401,-1.050453,6.984651,0.0,-18.851051,-30.957642,-44.129562,-32.769814,-45.932808,-34.011841,-45.868492,-35.815086,-46.90979,0.0,-73.304068,-14.410539,-9.742548,7.205192,9.36587,27.393625,24.818571,44.956924,39.147013,0.0,34.606876,17.581959,28.204021,14.801216,29.047565,13.491154,27.61694,13.606625,23.647213,0.0,-45.861599,0.890873,-0.977386,21.12108,16.031426,40.112512,34.260703,56.415362,47.265402,175.682802,53.775547,-0.841341,43.191465
69,-1.138573,5.494737,0.279179,5.492298,0.0,-19.490891,-30.94162,-41.986198,-32.6334,-44.162292,-33.864899,-44.77272,-35.396805,-47.900047,0.0,-71.29999,-13.764723,-8.510164,7.450311,10.284685,27.582427,25.231157,45.194108,38.9077,0.0,36.15406,16.4641,29.183693,13.249454,30.350761,11.960735,27.618599,12.881126,23.868084,0.0,-47.391589,-1.341836,-3.008079,19.084119,13.55721,38.166324,31.711801,53.87566,45.615029,174.627256,57.793029,-0.479136,47.206507
70,0.988197,5.100399,0.446949,1.562409,0.0,-22.003899,-31.359901,-42.505531,-33.32428,-45.000572,-34.886513,-45.292625,-36.680603,-48.25779,0.0,-72.049578,-14.378553,-9.26991,6.564378,8.78307,26.600379,24.531802,44.568792,38.543619,0.0,36.380024,15.151119,28.25964,11.27964,29.492283,9.999275,26.395626,11.362495,23.916607,0.0,-47.53664,-1.854056,-2.723749,18.854994,13.827523,38.300878,31.325459,54.664367,45.824888,175.895691,62.301751,0.248051,48.177239
71,0.187798,2.449083,-1.055431,-0.340492,0.0,-20.696182,-30.0317,-44.455948,-31.976738,-47.42981,-33.594704,-47.300262,-35.831566,-47.873726,0.0,-73.205113,-15.501638,-10.678962,6.401573,7.895963,26.881282,24.632085,45.25839,39.526994,0.0,37.510071,16.629925,30.0737,13.04615,30.946083,11.831989,27.790833,13.201103,25.556259,0.0,-47.297728,-0.110317,-2.786024,20.824493,14.171812,39.962551,31.30187,55.616311,46.0906,176.125116,64.247707,-0.765753,47.33362
72,-0.263443,0.067277,-1.817379,-0.845363,0.0,-19.535637,-29.027596,-43.415909,-30.994492,-46.187668,-32.513237,-45.867805,-34.372787,-46.710663,0.0,-72.188362,-14.370309,-9.862961,7.38149,8.425134,27.602156,25.238351,45.797903,40.533341,0.0,39.354229,17.875385,32.928028,14.769802,32.641811,13.83894,30.11095,15.253315,27.487965,0.0,-49.217487,-1.034968,-3.590262,20.00525,13.55579,39.202033,29.934099,54.972471,44.072072,175.943041,64.199202,-2.501764,46.372475
73,1.013832,-1.466078,1.640797,-1.405254,0.0,-18.175278,-29.01844,-43.712425,-31.115913,-45.834503,-32.85759,-45.548515,-34.887772,-46.967354,0.0,-71.596052,-13.216379,-10.33989,8.817959,8.821046,29.042022,25.930881,47.000956,41.8527,0.0,37.590866,15.967712,31.645432,13.057079,31.54335,12.147102,28.820686,13.714886,25.281143,0.0,-49.200166,-1.278048,-3.405597,19.523319,12.733522,38.455162,29.011671,53.987335,44.537763,177.064705,63.401958,-0.753136,45.636055
74,1.649666,-0.610835,-0.849323,-1.714346,0.0,-18.768768,-28.947601,-44.719391,-31.232986,-46.359444,-33.235931,-45.328789,-35.501633,-46.705742,0.0,-72.684002,-15.080439,-10.183971,6.63607,7.563005,26.799988,24.06852,44.937843,39.827966,0.0,37.054195,15.493355,30.915012,12.911968,30.895557,12.52367,28.637638,14.182377,25.005283,0.0,-50.51619,-2.844841,-3.901515,17.67269,13.511639,36.80868,29.698274,52.894415,43.574394,178.953552,62.909714,-1.363277,44.040301
75,1.514053,-2.603583,-1.2006,-2.787167,0.0,-17.253571,-28.24276,-44.902725,-30.241585,-46.870193,-31.799698,-44.983292,-33.789711,-46.673241,0.0,-73.980081,-15.444673,-11.090034,6.443933,6.237718,26.38132,22.363961,44.290267,38.239684,0.0,38.002682,15.439911,32.483997,12.970276,32.676144,12.57288,29.981861,14.753838,26.23003,0.0,-49.240458,-2.129062,-4.821719,19.406765,12.045962,38.822268,29.204857,54.390597,43.948077,180.597239,61.103669,-2.434244,42.050672
76,1.965294,-2.079383,0.157242,-2.294831,0.0,-17.74292,-28.645477,-44.85981,-31.211472,-47.506027,-33.14209,-45.737915,-35.398865,-47.698402,0.0,-74.77027,-16.964629,-12.522026,4.609668,4.920674,24.478882,21.436964,42.449641,37.177577,0.0,36.932659,14.458523,30.909748,12.343769,31.382275,12.392578,29.512768,15.030499,26.067581,0.0,-50.49359,-1.973018,-4.38431,19.361132,12.471021,38.576254,28.866033,54.099412,43.972685,182.847748,60.822149,-1.991787,41.553705
77,-0.063744,-4.362975,-2.350159,-2.02563,0.0,-15.482025,-27.530594,-42.905846,-30.298462,-46.053543,-32.445831,-44.810944,-34.893265,-46.474457,0.0,-74.505423,-15.847008,-12.481827,5.942921,5.038093,25.744148,21.803947,43.317482,37.727124,0.0,37.312489,15.704212,31.706142,13.08197,32.154636,12.806511,29.788799,15.189114,26.465263,0.0,-52.242022,-4.035513,-5.369939,16.83591,11.763947,36.147394,28.637711,52.280214,43.399116,182.968884,57.10922,-4.157066,40.178122
78,1.331749,-2.817085,-0.177898,-2.388074,0.0,-16.71627,-28.455276,-44.397583,-31.069107,-47.293053,-32.964478,-45.714912,-35.285568,-47.505455,0.0,-74.516476,-16.210471,-12.62271,5.227605,5.125747,25.007991,21.647595,42.857873,37.474503,0.0,37.734261,14.671955,31.936226,11.92297,32.141991,11.483231,29.839783,13.818169,27.078381,0.0,-49.445562,-4.371435,-5.457193,17.705665,11.807173,37.756209,28.953502,53.869454,43.992383,184.603615,54.974709,-4.031982,38.472622
79,-0.364265,-2.470974,-2.229881,-0.002532,0.0,-15.998268,-27.647667,-43.778229,-30.195923,-46.830482,-32.239494,-46.027794,-34.918327,-47.536697,0.0,-74.625249,-16.531697,-12.816391,5.055691,5.23239,25.144181,21.839762,43.318192,37.013691,0.0,39.478912,15.664043,33.520889,13.36607,33.789711,13.32716,31.512966,15.912838,28.411789,0.0,-51.116096,-5.466795,-7.240452,16.583752,10.16844,36.660818,27.270526,52.771532,42.235182,184.630995,52.786058,-5.870218,38.752413
80,0.289764,-1.302748,1.579514,0.017784,0.0,-17.01828,-27.043877,-43.52623,-29.55265,-46.872711,-31.581345,-45.883942,-34.428177,-47.289734,0.0,-75.633325,-17.940625,-14.235569,3.94403,3.472349,24.25056,20.295354,42.600282,36.226713,0.0,37.163887,14.311638,31.690865,11.992779,32.428551,12.060642,30.612831,14.911766,27.693214,0.0,-51.602936,-6.763152,-7.668351,14.740256,9.561032,34.728123,26.976625,51.066664,42.072285,185.45022,51.651904,-3.761244,38.938791
81,-0.393219,-1.860386,-0.351791,-1.43897,0.0,-17.515297,-27.722397,-43.071327,-29.83017,-46.0009,-31.445961,-45.125771,-34.101334,-46.584892,0.0,-75.017859,-17.938896,-13.946886,3.773012,3.606903,23.972004,20.452817,42.056353,35.917529,0.0,37.391167,16.14006,32.415504,12.856121,33.061295,11.860142,30.334854,13.639526,27.552052,0.0,-50.676031,-6.878224,-6.796991,15.120793,10.793602,35.435844,28.527054,51.649094,42.509755,185.669203,50.351224,-3.500834,38.059527
82,0.151062,-0.278525,0.604534,-0.414654,0.0,-17.302437,-27.681084,-43.448181,-30.497704,-47.245216,-32.581444,-46.481552,-35.301933,-47.591972,0.0,-77.075969,-19.231023,-14.983892,2.930428,3.133401,23.400566,19.982001,41.74368,35.375947,0.0,36.884251,15.400486,32.633801,12.367802,33.555622,11.621933,31.300106,13.786411,28.27549,0.0,-50.561052,-6.673799,-7.41817,15.60578,10.233958,36.122787,27.885035,52.451232,42.320583,186.254568,50.512671,-2.461996,38.084844
83,-0.717316,-1.722342,1.105213,-0.753417,0.0,-17.264671,-27.962494,-43.634148,-30.43602,-47.227821,-32.213516,-46.659737,-34.706268,-47.242813,0.0,-75.519889,-17.483981,-13.362573,4.794209,4.731718,25.372627,21.678841,43.669428,37.393518,0.0,35.931244,14.509621,31.891823,11.015282,32.831268,9.93885,30.210228,11.888065,27.349892,0.0,-50.446845,-5.811239,-6.547087,16.46618,10.835777,36.893092,28.475245,52.960086,42.89196,186.052179,49.25043,-0.841856,37.79153
84,-0.584335,0.350094,-0.317345,0.147985,0.0,-16.691093,-28.066635,-43.421173,-30.379028,-46.774635,-32.15023,-46.380615,-34.807091,-47.222557,0.0,-74.826463,-18.946416,-13.625445,2.931693,4.766885,23.542622,21.805089,42.268898,36.635068,0.0,36.73336,14.785995,31.342506,11.317863,32.342262,10.307922,29.908562,12.174854,26.928234,0.0,-50.474385,-5.887747,-6.786031,16.079653,11.166636,36.493691,29.019112,52.835536,42.804027,185.862494,49.546601,-0.764551,37.885591
85,-0.824203,-0.472082,-1.398582,1.728147,0.0,-17.10434,-27.970734,-42.964439,-29.891052,-46.242371,-31.276016,-45.751076,-33.552589,-46.032372,0.0,-75.026596,-17.260599,-12.797989,4.800693,5.675388,25.106019,22.747617,43.226307,37.878042,0.0,37.989693,16.764393,32.665787,13.704815,33.837204,12.893486,30.922623,14.84396,28.500767,0.0,-51.321725,-6.313609,-7.561925,15.700351,10.14022,36.275527,27.897014,52.934398,42.330834,185.350399,49.120986,-1.851025,39.660206
86,0.113525,0.825603,-1.923695,2.061754,0.0,-16.423759,-27.308922,-42.244492,-29.286346,-45.889778,-30.969315,-45.650024,-33.772202,-45.918274,0.0,-74.928537,-17.886038,-13.112885,3.928252,5.256072,24.27631,22.498114,42.596083,37.18017,0.0,40.719509,18.58778,34.979153,15.258808,35.296726,14.010429,32.316456,15.428238,29.549618,0.0,-52.264159,-8.313365,-8.934636,13.466808,8.821602,34.276758,26.630205,51.463442,41.546974,185.741701,49.646745,-3.496943,41.422115
87,-1.292038,-0.231255,1.327972,0.828845,0.0,-15.46154,-26.468124,-41.019745,-28.041801,-44.157715,-29.353065,-44.13208,-31.883926,-44.474258,0.0,-73.523529,-16.598233,-12.364779,5.332117,6.022394,25.589865,23.197561,43.559976,37.992713,0.0,39.219532,15.782604,34.554577,12.632732,34.214001,11.734257,31.296787,13.394222,29.027195,0.0,-52.030681,-7.721766,-7.886052,14.274534,9.383006,34.776072,26.591456,51.183867,41.10904,184.698629,49.194531,-1.920004,42.030001
88,0.936699,1.419549,2.175522,-0.037606,0.0,-15.665474,-26.636124,-41.503143,-28.528748,-45.067863,-30.144653,-44.713554,-32.794304,-45.510406,0.0,-74.960369,-17.714341,-13.245,4.257938,5.378121,24.652524,22.43692,42.975693,37.225371,0.0,36.69405,14.579086,32.242069,11.007786,32.579212,9.814568,29.476604,11.43877,27.122555,0.0,-51.84861,-7.801362,-6.202304,14.079279,10.814411,34.586962,28.285301,51.205418,42.94383,185.700645,50.360379,0.320835,41.738694
89,0.194893,0.983715,-0.576382,2.012168,0.0,-17.11647,-27.24369,-42.208672,-29.300423,-45.749016,-30.607109,-44.709091,-32.661324,-45.377541,0.0,-73.926482,-17.710296,-13.205696,4.213663,4.893195,24.63684,21.881907,43.000177,37.595225,0.0,36.184616,15.107689,32.291794,11.57032,33.491135,10.761623,30.136757,12.781677,28.134212,0.0,-52.097835,-9.059125,-7.578968,12.913987,10.235223,33.653604,27.800591,50.571241,42.30425,185.86338,50.641605,-0.287704,43.048373
90,-0.579529,1.429306,0.827522,0.914277,0.0,-17.032928,-27.858353,-42.659111,-29.394722,-45.326042,-30.037079,-44.073715,-31.394234,-44.133568,0.0,-74.786356,-17.980763,-13.128415,4.02906,5.492236,24.386473,22.375169,42.496417,37.873504,0.0,36.612968,14.421787,30.987854,10.680599,32.298088,9.683361,29.048653,11.543484,27.248497,0.0,-51.112298,-7.248788,-6.37573,15.256304,11.860062,35.994994,29.812389,52.673009,43.589461,185.32382,51.77965,0.579786,43.671389
91,-1.644974,2.321538,0.943966,1.758899,0.0,-19.93824,-27.030945,-42.414665,-28.19046,-44.820786,-28.705101,-43.932152,-29.964409,-43.130608,0.0,-74.505484,-17.132683,-12.394666,5.253447,5.638646,25.843134,22.681204,43.563712,38.692654,0.0,35.642338,13.930149,29.089336,10.682487,29.946957,9.667854,26.635895,10.983696,24.058971,0.0,-51.586202,-3.281633,-3.398218,18.416165,13.744067,38.504871,31.102571,54.952525,44.866923,183.893337,54.074496,1.738243,45.403596
92,-4.596062,3.841215,1.752262,4.888811,0.0,-24.928665,-26.77494,-44.025764,-27.069626,-46.794205,-26.996841,-44.873772,-27.830086,-43.191833,0.0,-72.655072,-16.135815,-11.579746,6.784487,8.05812,27.623059,23.79617,45.044548,38.743135,0.0,34.68338,12.866535,25.966187,10.204811,26.891212,9.456024,23.804684,10.633049,21.267357,0.0,-55.073186,-3.562752,-4.916506,17.324541,12.360086,37.16254,30.467159,54.337522,45.580387,179.433489,56.630284,3.626719,49.006979
93,-5.973015,5.592333,-2.318916,7.275125,0.0,-29.23542,-27.361565,-45.481453,-27.04834,-48.819923,-26.316605,-45.216293,-26.26236,-42.580261,0.0,-70.649295,-11.966952,-6.880848,10.931737,13.895788,31.468195,28.307222,48.265697,42.35328,0.0,37.490501,13.483257,28.281727,8.981266,28.440514,7.041149,23.992023,7.603283,20.565434,0.0,-58.664343,-4.384094,-3.816793,17.092298,12.746211,37.223704,30.859274,54.410727,44.494043,173.683577,60.533466,1.530905,54.592953
94,-7.748337,9.089599,-4.404659,9.548312,0.0,-38.973427,-30.006409,-58.558159,-28.078995,-56.684418,-24.705505,-49.981041,-21.594543,-49.572258,0.0,-64.817771,-9.391404,4.185474,11.460568,21.965795,30.795918,33.680867,47.540098,49.154841,0.0,39.39188,18.542919,30.706787,14.114513,32.120762,11.799488,27.495289,11.662159,22.990952,0.0,-60.003153,-5.901579,-4.014827,15.117427,12.396241,34.905748,29.531424,52.311491,43.910224,166.019039,67.938699,-2.789955,62.456898
95,-8.246727,11.766263,-3.442383,10.990832,0.0,-48.795891,-33.142891,-90.250053,-30.436249,-84.108582,-25.216255,-73.249283,-19.53598,-63.226776,0.0,-58.825851,-7.151902,12.108052,11.821746,31.30116,30.28867,45.080549,47.634947,55.366778,0.0,45.900593,20.538025,34.662895,15.765381,34.786835,12.804852,29.479065,12.094002,25.003052,0.0,-54.792715,-7.848724,-4.532326,12.249028,11.830823,31.576691,29.462357,49.223723,43.008606,157.549925,77.110611,-6.454725,70.85338
96,-6.589737,11.578357,-0.756798,8.119037,0.0,-54.938278,-35.768394,-99.847069,-32.5383,-97.577705,-26.901283,-88.013878,-19.412956,-71.461372,0.0,-48.015731,-1.441965,18.331876,17.232224,36.741125,34.655937,48.4168,50.113516,61.014131,0.0,52.57513,21.978493,48.304424,16.635361,48.708515,11.801777,41.019459,8.012238,31.453972,0.0,-41.849057,-2.784666,2.743756,15.95183,17.071056,33.95544,31.460909,49.805258,42.603987,150.095673,85.573628,-8.076038,75.857077
97,-11.596642,13.469648,-1.773834,14.106079,0.0,-56.769104,-38.00663,-107.834816,-32.787094,-101.610718,-23.961639,-88.790016,-12.282715,-64.08886,0.0,-40.808223,2.838883,29.597713,19.689983,45.878086,34.710277,55.956062,46.802181,62.550512,0.0,58.469868,18.291893,81.290073,14.308147,79.272251,11.270885,67.636814,9.212894,52.525234,0.0,-33.503427,-2.170095,6.141665,16.189106,19.36002,33.154445,30.780296,47.186176,44.212708,138.087301,95.629112,-10.261602,86.548992
98,-10.109253,18.681692,-1.751804,22.970227,0.0,-60.153236,-38.872604,-109.773846,-34.164963,-103.049927,-25.562553,-90.480652,-13.791962,-61.643829,0.0,-35.958778,-1.787335,19.597358,13.529978,36.642972,27.69824,48.937232,38.908471,55.082757,0.0,61.482468,36.010838,78.21476,45.081482,72.6511,51.904449,74.121666,56.65432,75.09922,0.0,-31.630074,-1.008693,0.182225,23.918127,20.779168,44.877143,43.970647,61.799967,63.492298,126.76815,111.557708,-13.223305,106.766123
99,-10.420303,17.886285,-4.631367,16.347279,0.0,-60.639038,-37.835884,-106.428852,-32.383804,-102.829342,-22.547836,-87.986641,-9.839287,-55.028915,0.0,-33.428153,0.892479,20.00806,15.011216,33.104952,26.909224,36.144677,35.542611,47.319341,0.0,74.704342,37.119198,85.271702,41.262188,63.459835,43.11018,58.880482,43.320694,58.216038,0.0,-16.630343,-4.671141,-2.714702,18.109729,27.416998,38.916653,48.180018,56.838908,64.078835,114.558907,125.444603,-19.643612,119.114013
100,-7.8899,16.318967,3.834229,15.509419,0.0,-64.558754,-39.18354,-102.711582,-33.735924,-101.318378,-24.453621,-87.537804,-12.301025,-54.324875,0.0,-26.331425,6.000288,26.411454,18.232612,35.304378,27.569027,34.293894,33.084944,43.449628,0.0,61.037464,36.371098,67.220707,35.299072,45.742779,31.62735,36.003342,26.35397,32.055817,0.0,-2.915113,-7.815873,10.991018,10.798542,37.883878,30.568924,54.691846,49.334689,65.151995,104.637165,137.374135,-17.841225,130.233996
101,-6.730728,19.099248,-1.827106,19.477624,0.0,-68.078671,-43.490295,-103.514357,-38.613567,-105.90168,-30.133267,-95.353518,-19.439678,-68.833351,0.0,-20.865495,10.440605,28.747966,27.13909,46.441744,40.798127,54.415327,50.34931,63.944034,0.0,58.740807,38.295994,61.950531,35.037518,42.548561,29.980545,28.896961,23.668957,21.464939,0.0,2.767159,-4.8274,12.592515,12.64599,38.981121,30.08196,52.76548,45.99004,62.874269,96.071863,153.061287,-21.502905,146.299524
102,-6.730728,19.099248,2.035275,19.723452,0.0,-71.598587,-47.79705,-104.317131,-43.491211,-110.484982,-35.812912,-103.169231,-26.578331,-83.341827,0.0,-15.399565,14.880923,31.084478,36.045568,57.57911,54.027226,74.536761,67.613675,84.43844,0.0,50.20689,40.761738,50.398808,36.100159,32.349873,29.060497,19.862595,20.485611,13.204536,0.0,5.395998,-3.973022,11.965316,10.21957,41.400749,24.97094,55.404075,38.844467,62.923423,88.258467,168.267171,-20.550299,162.129612
103,-3.729401,13.465418,15.988398,21.531998,0.0,-67.393169,-48.456917,-110.314636,-44.673843,-111.059761,-37.801666,-100.206013,-28.569717,-79.151802,0.0,-14.636577,22.613124,47.555721,41.725927,67.833754,57.531747,81.492574,69.396657,88.908305,0.0,27.377729,27.26655,9.369621,24.694748,-1.526184,22.345362,-7.055912,19.877014,-4.526653,0.0,-0.783427,5.472415,20.805999,23.141183,46.151703,39.583929,59.545521,54.371948,70.969317,83.905907,179.761702,-5.18506,181.690722
104,-5.088959,15.788345,15.988398,21.531999,0.0,-68.628731,-44.822617,-108.162346,-40.87429,-110.352573,-34.634285,-98.066025,-27.184982,-78.926353,0.0,-9.801705,22.667712,49.36896,41.203209,68.049263,56.599872,81.637688,67.934407,88.264125,0.0,4.548569,13.771362,-31.659565,13.289337,-35.402241,15.630226,-33.974419,19.268417,-22.257843,0.0,-6.962853,14.91785,29.646682,36.062796,50.902655,54.196916,63.686967,69.899429,79.01521,78.61413,194.092228,10.600519,201.764902
105,-6.539841,16.029604,-1.483097,4.84784,0.0,-70.117149,-43.283844,-107.014904,-39.048157,-107.81004,-32.36721,-96.128654,-24.201393,-76.029396,0.0,-6.265938,26.017548,54.241932,44.55107,70.765725,59.163378,83.215164,68.557654,88.708604,0.0,-0.401859,28.857365,-16.488705,31.084614,-29.10902,29.375324,-29.05014,23.707867,-17.405548,0.0,22.748296,21.63049,55.158741,38.057458,66.093627,50.697644,75.669264,58.565696,84.149262,71.964712,209.268997,9.007845,205.759906
106,-4.862137,16.439256,-5.055084,29.036155,0.0,-72.02877,-42.087822,-107.202015,-36.73439,-105.199184,-28.829269,-91.822872,-19.297028,-67.3419,0.0,-6.652557,27.716178,54.301892,45.970897,73.146142,59.206233,86.334301,66.459313,88.691499,0.0,6.685867,16.493511,-42.992592,23.555202,-44.187469,30.443401,-41.690884,38.343258,-18.87846,0.0,-4.307956,14.600206,38.74542,35.081088,53.057065,51.500893,66.127034,65.009043,74.829026,66.032124,225.698234,2.882309,234.786043
107,-6.997604,13.863091,-10.221176,41.205988,0.0,-71.803436,-38.910713,-105.98568,-32.987938,-103.34404,-24.643707,-88.226852,-14.450455,-58.949947,0.0,-2.997488,29.2219,55.286564,46.726969,72.664489,58.682158,87.255987,64.881405,86.741236,0.0,3.498917,21.13781,-40.218658,31.303997,-37.514477,40.803165,-31.64978,50.129528,-1.331635,0.0,27.494124,4.049654,32.433231,3.780113,26.238121,2.479897,22.82746,-1.015794,17.262019,57.579203,239.650246,-8.794184,276.080951
108,-6.012039,11.925425,-7.804813,28.70789,0.0,-73.7257,-38.061733,-103.255806,-30.880394,-98.28907,-21.046486,-80.954876,-9.174957,-49.443569,0.0,3.928808,32.881662,58.221376,48.579605,75.177175,58.507898,86.998426,62.624427,83.642724,0.0,24.745159,29.635677,-28.784409,35.224686,-33.510361,39.62883,-28.722382,44.19136,1.601257,0.0,29.299582,-0.143631,30.43684,-9.149929,16.847303,-19.059265,4.225519,-31.634489,-9.588357,49.994802,251.524696,-18.171358,304.737866
109,-3.857231,11.887078,-6.596432,5.627871,0.0,-71.478996,-39.078312,-104.686661,-32.29248,-99.587917,-22.4049,-80.759926,-10.247841,-49.65374,0.0,1.470586,32.658002,57.254056,47.442224,73.121256,56.654459,84.385026,60.310084,81.758966,0.0,36.211109,33.737011,-21.886883,36.390152,-30.04303,37.027874,-28.658352,37.523003,3.661709,0.0,33.846512,0.213965,37.685227,-8.647466,23.211486,-18.323385,12.994324,-30.439927,-1.484727,43.721237,263.30087,-27.184124,310.254833
110,-3.097916,7.090244,-3.837776,-16.079005,0.0,-71.205254,-41.594067,-102.062473,-34.427891,-99.72971,-24.351997,-83.346806,-11.939163,-55.916119,0.0,1.343504,31.640108,56.295813,45.627256,71.764415,54.889632,81.289601,59.504982,81.481027,0.0,29.148788,33.258305,-28.261127,40.427456,-32.883339,45.183849,-25.70858,49.2663,17.367268,0.0,24.259576,12.588377,49.106583,15.552335,41.019625,15.481878,38.646866,12.099931,36.576189,38.878241,270.396378,-32.766981,294.181093
111,-6.2883,6.216537,14.057922,-16.484334,0.0,-73.027954,-40.16098,-99.092331,-33.197079,-98.429089,-24.483948,-83.71891,-14.286346,-63.081665,0.0,0.211927,31.033411,55.654844,47.059618,71.054161,58.126589,79.964931,64.455512,82.442852,0.0,-8.870602,16.149788,-51.862793,25.469284,-52.178764,32.363262,-44.280167,39.329395,-14.590244,0.0,-2.706088,17.123821,54.769096,37.513005,61.498841,52.918436,71.056755,64.725609,76.027169,31.516857,276.62471,-19.782143,277.708553
112,-1.676102,0.624791,0.047436,1.83269,0.0,-73.61515,-38.102932,-97.420921,-31.224689,-99.184628,-22.801208,-86.728306,-13.515358,-65.90395,0.0,1.416307,30.668651,55.370853,47.343423,71.410091,59.248718,80.111032,66.166184,83.697435,0.0,-6.502247,12.921124,-51.615772,23.991795,-54.298038,32.274857,-46.914425,39.940567,-17.048149,0.0,1.657875,14.393404,55.167324,34.101789,61.890091,49.990355,71.076453,62.544831,75.802274,28.597097,277.117895,-20.978365,279.409638
113,-0.71331,-1.472377,4.539242,-2.237588,0.0,-73.832874,-37.692261,-98.54702,-30.736942,-97.403984,-21.771469,-84.688568,-12.300682,-63.102894,0.0,0.613614,30.842787,53.255593,48.00687,69.557887,60.007198,79.537186,66.967457,83.389732,0.0,-15.59269,7.1731,-57.831573,17.455959,-57.25668,25.902729,-50.27607,33.99416,-22.058544,0.0,0.692593,13.231508,46.913888,35.059476,57.834571,52.697369,68.364499,67.20674,76.383345,26.697979,275.570615,-17.624931,277.097147
114,-0.648308,-0.259352,-5.328197,-0.587493,0.0,-73.943596,-38.450031,-98.349037,-30.980072,-95.807762,-21.561871,-82.700272,-11.778717,-61.623917,0.0,-0.15203,30.48624,51.933455,47.586411,67.480974,59.459657,76.294981,66.265973,81.153565,0.0,-6.882076,14.788513,-52.217617,25.644436,-51.349125,33.497543,-44.157543,40.938034,-15.08543,0.0,-0.488693,12.566641,47.036956,34.382815,56.214302,52.10086,67.401007,66.359277,75.779982,25.002651,275.339452,-24.000149,276.537843
115,0.433502,-0.785033,0.165482,0.240827,0.0,-73.259525,-39.139366,-97.387218,-32.131119,-95.835915,-23.027058,-82.615814,-13.238297,-62.60519,0.0,0.441515,30.490871,52.316122,47.513052,67.599905,59.568523,77.060871,66.910832,81.835536,0.0,-4.696827,14.557228,-51.958008,26.504803,-50.943947,35.227318,-42.894402,43.066063,-12.583523,0.0,-0.156846,11.443278,46.916234,33.237036,56.152799,51.142,67.432191,65.30526,75.098381,24.193668,274.743051,-25.077152,276.967301
116,-1.094513,-0.144866,-0.831242,0.805905,0.0,-73.662186,-38.146877,-96.508884,-30.363235,-94.353333,-20.663681,-81.112804,-10.496063,-60.597439,0.0,0.221684,30.501184,52.901207,47.553004,68.144544,59.401612,76.696296,66.213608,81.688756,0.0,-5.197334,13.334827,-50.352573,26.267223,-49.992714,36.227703,-40.612049,45.157757,-7.791824,0.0,0.020563,11.410612,46.867328,32.279657,56.022814,49.142954,66.638513,62.123014,73.612666,22.054024,274.853538,-26.953526,278.028559
117,0.087776,-0.627075,-3.777008,0.816402,0.0,-72.497807,-38.144817,-95.887184,-30.592232,-93.784504,-20.981026,-80.336666,-10.764542,-60.40741,0.0,1.137504,31.229283,53.129869,47.926903,68.390804,59.490903,77.020918,66.274062,81.583718,0.0,4.779568,16.276073,-45.728245,28.251514,-45.764751,37.488613,-34.990654,45.694256,2.942848,0.0,-1.314913,9.856045,47.44136,30.656548,55.756176,47.486561,66.575898,60.658973,72.303434,21.390896,274.339559,-31.481438,278.958057
118,-0.163307,-0.318015,4.307499,2.17485,0.0,-72.82093,-38.228416,-95.235672,-30.491238,-93.607063,-20.781097,-81.035843,-10.425224,-60.442715,0.0,0.94861,31.14981,53.095165,47.814579,68.011101,59.654294,77.104837,66.818207,81.311028,0.0,-8.362083,21.955433,-46.655731,28.86898,-51.476898,29.655762,-44.434719,27.957287,-20.85743,0.0,3.55176,12.023361,45.64714,33.011029,56.513915,49.42608,62.911258,62.170562,69.062278,20.433054,274.08084,-27.968473,281.192203
119,0.470352,-0.705437,-2.054729,-3.639508,0.0,-72.040844,-37.612553,-95.545864,-30.08749,-93.359184,-20.457573,-80.821037,-10.198174,-60.443802,0.0,1.680537,30.804564,53.598802,47.436419,68.625765,59.293548,78.239069,66.546072,82.036287,0.0,-3.830338,15.355225,-47.41436,27.605782,-47.553921,36.851177,-39.023037,44.809628,-7.708054,0.0,-1.464596,10.530483,48.198296,31.771204,56.544235,49.152772,66.580406,62.736875,73.720853,20.353403,273.640374,-30.573206,277.817666
120,0.140419,0.097319,5.411968,5.470037,0.0,-72.060986,-37.950211,-95.401039,-30.269737,-93.500061,-20.591183,-81.206417,-10.310898,-60.418224,0.0,1.49578,31.119491,53.66753,47.749865,68.170417,59.562348,77.619342,66.566512,81.738526,0.0,18.072567,25.251675,-43.331795,31.485786,-48.384075,31.004562,-47.055473,26.471901,-28.405495,0.0,26.974865,14.449349,44.854079,30.008168,51.450196,41.168567,55.955815,49.666227,58.320671,19.995117,273.876014,-25.659943,283.426024
121,0.027351,-0.43991,-2.48354,-8.442763,0.0,-72.52224,-37.154789,-95.89262,-29.726772,-93.848705,-20.046844,-81.262207,-9.735374,-59.649467,0.0,1.33807,31.186366,53.208477,48.26474,68.035739,60.076667,78.66175,66.853837,82.816009,0.0,-3.980083,13.93507,-48.524265,23.34343,-48.531761,30.107918,-41.996613,36.103764,-14.643974,0.0,2.394434,13.446214,51.131132,35.28542,59.209197,53.543473,69.768579,67.938174,77.830158,19.54442,273.462595,-28.621531,275.009751
122,0.709648,-0.283002,-7.03846,0.291462,0.0,-73.711395,-38.286152,-95.114136,-30.780087,-93.624916,-20.986748,-81.289387,-10.335159,-59.98724,0.0,1.129786,31.43732,53.929846,48.110487,68.528569,59.868753,78.84058,66.772388,83.097282,0.0,8.283863,20.247917,-38.382511,29.208527,-38.322258,35.503521,-31.650867,40.550709,-0.922737,0.0,3.969193,13.62776,54.18364,34.615861,60.230796,51.812548,70.574299,64.998545,76.854872,19.977808,273.208152,-35.936251,275.329773
123,0.36129,-0.028282,12.811375,4.92441,0.0,-73.033447,-37.75486,-94.843884,-29.843216,-93.197708,-19.653168,-80.73658,-8.435555,-58.443489,0.0,1.415752,31.837895,54.093793,48.260602,69.340526,59.640153,79.527923,66.194836,83.548925,0.0,-22.553272,17.243729,-46.399841,24.546261,-57.179317,26.056938,-50.850277,24.871445,-25.865593,0.0,3.403621,10.497385,41.784651,31.261146,57.132901,48.153465,63.538457,60.630939,67.882351,20.083351,273.203459,-23.380623,280.277772
124,0.772133,-0.457262,0.415707,11.68219,0.0,-73.056965,-37.134762,-95.01915,-29.52467,-93.88916,-19.788094,-81.4151,-9.159966,-59.67905,0.0,1.696778,31.822149,54.555439,48.081094,69.281924,59.510972,79.303399,66.215955,83.33039,0.0,-17.266903,7.099342,-56.504803,13.898792,-58.786068,17.702065,-45.02409,19.331818,-15.693569,0.0,-17.351187,6.620941,30.969128,24.602784,48.2196,40.438122,55.740368,52.448639,59.305837,20.625601,272.763488,-23.194799,291.977252
125,0.411186,0.037915,-7.035999,-0.146657,0.0,-72.361622,-35.943203,-94.471664,-28.215637,-93.138027,-18.559227,-80.31332,-8.247414,-58.657436,0.0,1.950572,32.148623,54.734824,48.648024,70.177923,60.121807,79.964684,66.771585,83.638401,0.0,8.752327,25.667953,-19.514809,26.820946,-42.113686,22.515163,-45.428066,15.298634,-22.261906,0.0,12.871565,16.821306,40.328762,27.310108,45.836713,35.437018,49.108003,40.727978,51.584874,20.922689,272.81454,-30.344896,291.843732
126,0.695343,0.153512,-2.72707,-16.414495,0.0,-72.027397,-35.710373,-94.721546,-28.141766,-92.833843,-18.691978,-80.058346,-8.65139,-58.793621,0.0,2.946544,31.86241,54.98584,48.272088,70.25085,59.673128,79.713854,66.30432,82.845464,0.0,9.752598,22.21653,-37.120914,30.460052,-40.811291,35.330944,-34.142761,38.484936,-5.455799,0.0,4.823139,15.191898,53.894092,34.967529,59.437303,51.417963,68.937172,63.882345,75.954427,21.545334,272.968653,-33.144665,275.429839
127,1.56292,-0.20001,9.832821,11.371215,0.0,-72.506847,-35.457458,-94.765091,-28.150578,-93.755035,-19.086227,-81.402111,-9.497223,-60.200558,0.0,2.916904,32.810649,55.099831,49.12307,69.701519,60.412095,79.126793,66.885885,82.642985,0.0,-14.297619,12.691326,-50.479088,19.580441,-55.393009,22.1838,-46.255016,22.488041,-11.315632,0.0,-6.725361,9.761876,36.312947,28.639656,52.966231,44.34223,61.72954,56.407396,65.371518,23.110628,272.79072,-23.309469,286.82313
128,0.428467,-0.022477,-16.134624,-11.826254,0.0,-72.19408,-35.622082,-94.614716,-28.422146,-93.494167,-19.520988,-80.895023,-10.082359,-60.201702,0.0,3.142478,32.298059,55.231853,48.61999,69.859908,59.835408,79.176008,66.363168,82.194491,0.0,20.660534,32.1698,-27.144585,41.266422,-30.386467,45.433445,-25.845337,46.839237,-2.432041,0.0,3.34891,15.253216,54.174933,35.570893,59.445269,52.657046,68.754699,65.633957,76.833568,23.553228,272.804721,-39.42996,275.033356
129,0.784035,-0.138568,22.458229,16.114696,0.0,-72.144413,-35.020123,-93.6763,-27.844563,-93.910561,-18.9814,-81.580353,-9.613495,-60.777855,0.0,3.022621,32.456758,55.526156,49.095468,70.846186,60.653539,79.812284,67.41663,83.133221,0.0,-14.679966,5.168667,-61.223431,12.858868,-61.109219,17.547626,-46.348457,19.698429,-25.34935,0.0,-14.107005,8.781094,38.198064,25.386459,52.605114,40.629425,58.424905,53.109739,61.973948,24.354572,272.71665,-16.954422,291.198548
130,0.217438,0.004755,-15.553608,-15.908635,0.0,-72.06316,-34.663582,-93.414116,-27.523956,-93.612843,-18.781471,-81.247272,-9.457741,-60.455704,0.0,3.50378,32.389573,55.499603,48.697919,70.527677,60.033442,79.610978,66.800114,82.636316,0.0,10.228271,26.354427,-33.371716,36.460075,-36.180553,41.846352,-30.33205,44.619598,-5.017262,0.0,4.800045,14.156035,55.311141,34.38936,60.785315,51.539364,69.656194,64.525105,77.109468,24.576473,272.76094,-32.503567,275.329449
131,1.112366,0.04057,14.385395,7.521015,0.0,-71.961479,-35.331802,-93.192215,-28.374138,-93.655872,-19.537354,-81.214256,-9.813881,-60.073299,0.0,3.396705,31.865436,55.86745,48.001127,71.331174,59.281631,80.301841,66.083932,83.391894,0.0,-19.480476,15.528431,-48.95113,22.033596,-57.030888,24.163113,-48.501778,23.207989,-25.726719,0.0,0.955094,14.286946,43.723305,32.170853,57.157169,46.896289,64.498614,57.618383,70.991732,25.702829,272.800198,-18.104181,282.849151
132,0.564537,-0.452754,-6.959324,4.95862,0.0,-73.345184,-35.039177,-93.269062,-27.865391,-94.16954,-19.022141,-82.160568,-9.504662,-61.103382,0.0,4.035204,31.928421,56.512619,48.395095,71.684201,59.865728,80.638258,66.522669,83.694903,0.0,0.72504,22.669201,-34.041424,26.551895,-44.448051,24.798546,-44.234276,20.464325,-18.537254,0.0,0.409837,14.252366,36.888091,30.403989,49.02816,42.444207,56.436172,51.231909,60.08136,26.28808,272.314207,-25.042791,287.774534
133,-0.930977,0.212607,7.796116,-10.945569,0.0,-72.777672,-35.587921,-92.211971,-28.194408,-93.006706,-18.9925,-80.580482,-8.92662,-59.103642,0.0,4.01884,32.568464,56.215105,48.562068,71.803873,59.494916,80.625846,65.633216,83.505638,0.0,-11.932812,8.787003,-51.670647,16.755352,-52.716293,22.996044,-45.336285,28.736515,-4.736996,0.0,0.250892,14.76193,50.444529,35.541685,60.229932,52.30229,70.486305,64.976007,74.878179,25.444107,272.530086,-17.159672,276.832238
134,-0.081139,0.040632,-0.379372,-0.445714,0.0,-72.524185,-35.797977,-92.793274,-28.341579,-92.517242,-19.000969,-79.927425,-9.103088,-58.993607,0.0,3.440362,32.242422,56.19553,48.727806,72.018641,59.971321,80.73996,66.202431,83.442282,0.0,-12.048912,10.121613,-50.829277,17.760715,-52.10289,23.641148,-44.848824,29.040813,-4.735336,0.0,0.230453,14.619842,50.521038,35.477464,60.301809,52.511624,70.509337,65.595919,75.153215,25.438156,272.571428,-17.463856,276.387233
135,-0.245819,0.01198,-2.849693,-0.091823,0.0,-72.493229,-35.037632,-92.381344,-27.438755,-92.599468,-18.082695,-80.113506,-8.376503,-59.214134,0.0,3.451972,32.394637,56.34509,49.159009,71.656969,60.652243,80.302829,66.954675,82.960135,0.0,-7.015457,12.356358,-48.309002,20.514507,-49.125023,26.651745,-41.623764,32.188396,-2.367668,0.0,1.062045,14.588844,51.869049,35.081088,60.426607,52.007555,70.35175,64.988295,75.233491,25.423479,272.612817,-20.082407,276.324819
136,0.001831,0.113065,-1.464901,0.380259,0.0,-72.057724,-35.26062,-92.952633,-27.857952,-92.75877,-18.82164,-80.21204,-9.387817,-59.811573,0.0,3.360149,32.49918,56.366023,49.154007,71.328148,60.48527,80.011985,66.838399,82.659781,0.0,-3.875198,13.276062,-47.352791,22.748795,-48.262825,29.577599,-40.708866,35.467529,-6.07069,0.0,1.61959,13.753546,51.7629,34.299513,60.455197,51.257164,70.311921,64.410496,75.772387,25.77673,272.771453,-21.195889,276.75065
137,0.074959,0.072001,4.553204,-0.756566,0.0,-72.009602,-35.302505,-93.106956,-28.025379,-92.99469,-19.005775,-80.325851,-9.466553,-59.666233,0.0,3.049112,31.879144,56.43469,48.686927,71.559465,60.253582,80.584843,66.887861,82.711095,0.0,-10.818958,22.838001,-47.572231,30.311451,-54.309368,31.083126,-49.265728,27.694759,-28.461628,0.0,9.838508,25.416284,53.096895,43.70478,58.584715,55.19999,67.091699,62.621772,71.395456,26.127777,272.84736,-16.366596,275.99799
138,-0.242615,-0.171728,7.330856,16.287597,0.0,-72.120209,-36.68375,-92.664013,-29.46167,-92.7808,-19.913864,-80.11797,-9.351311,-58.530235,0.0,2.512069,31.690682,55.901969,47.932646,71.857719,59.177087,81.19963,65.578258,83.960862,0.0,-23.792839,2.514668,-53.951683,7.601738,-63.91983,9.860744,-57.804279,10.518494,-26.88715,0.0,-15.843303,1.655776,17.137592,19.913458,43.764369,36.914829,56.094136,51.384803,63.386427,26.079397,272.657987,-8.841505,292.267942
139,-0.56694,-0.06916,-7.276382,-16.645256,0.0,-72.936745,-36.077557,-92.885227,-28.617611,-92.970715,-19.00074,-80.26926,-8.563385,-58.667393,0.0,3.156002,31.453869,56.329837,47.973154,72.244401,59.331154,81.302074,65.634081,83.837176,0.0,-11.356945,11.25967,-49.03513,18.483753,-53.892288,23.093891,-47.901478,27.188587,-14.737072,0.0,4.819373,14.733154,50.818181,35.743485,61.28716,52.981421,71.919779,66.081339,78.465261,25.73885,272.565114,-15.891495,275.598974
140,-0.380173,0.044337,-9.542255,1.198575,0.0,-72.603493,-34.909286,-93.093166,-27.721996,-93.625317,-18.628349,-81.052666,-8.963585,-59.852371,0.0,3.141861,30.792522,55.96304,47.82026,71.768305,59.569696,80.742492,66.177608,83.280125,0.0,2.156582,18.817177,-40.706692,28.096046,-43.709507,33.694267,-37.387276,37.896194,-4.422798,0.0,12.045344,13.293443,52.641547,33.29786,59.80725,50.251559,69.745917,62.824869,76.800778,25.674162,272.600158,-25.118265,276.788256
141,-0.618782,-0.148633,11.359291,7.581469,0.0,-72.835064,-35.530643,-93.523693,-28.172264,-93.368568,-18.876801,-80.846729,-8.954315,-59.696503,0.0,3.422949,30.63969,56.389488,47.681569,73.107671,59.510478,81.431503,66.10641,83.933815,0.0,-21.304665,11.650028,-53.814297,17.553749,-62.539158,19.205246,-54.059143,18.493881,-22.629433,0.0,-3.918558,11.15163,38.851568,30.596712,54.199633,46.824843,62.514018,59.25656,66.726075,25.222836,272.441042,-13.591518,284.359242
142,-1.229668,0.521544,-0.577869,2.768888,0.0,-72.186928,-35.616932,-93.193188,-28.326759,-92.85387,-18.915138,-80.222569,-8.630791,-58.466835,0.0,2.668853,30.773133,56.192381,47.829646,73.066731,59.661334,81.282067,66.256834,83.658902,0.0,-23.215714,9.12569,-52.875881,14.108448,-61.334038,14.834118,-55.318565,13.589458,-22.949409,0.0,-8.795729,7.93431,31.27751,27.672274,49.775402,43.910162,60.320519,56.729362,65.849096,24.192781,272.927759,-13.969774,287.093304
143,-0.47184,-0.210569,-15.977955,-10.072418,0.0,-71.89167,-35.378895,-92.663212,-28.378086,-92.725811,-19.12159,-80.010624,-8.984528,-58.579731,0.0,3.511993,30.693536,56.252032,47.525402,73.559005,59.155721,82.111375,65.691323,84.385026,0.0,6.550941,21.815529,-39.954872,33.205833,-40.917549,40.115547,-33.283081,44.858208,-1.596336,0.0,8.070902,11.463593,52.158659,31.592561,59.184312,48.484077,69.338303,61.080605,76.209394,23.894978,272.636776,-29.773693,276.940471
144,-0.594521,0.550567,17.270336,8.62116,0.0,-71.129494,-35.893993,-92.354393,-28.73806,-92.354107,-19.287186,-79.386578,-8.820992,-58.070984,0.0,2.989708,30.144884,55.9334,47.030596,73.307187,58.870126,81.813677,65.668599,84.34532,0.0,-23.91695,3.932819,-62.598038,11.608028,-65.578709,16.511593,-52.288456,19.064312,-13.691769,0.0,-3.832539,10.913459,42.098343,29.423639,56.97198,44.803814,64.075191,56.625622,66.162664,23.488712,273.120034,-12.315102,285.494323
145,-1.341019,0.259166,-11.195869,-9.183645,0.0,-71.02169,-35.454826,-92.772675,-28.020344,-91.37804,-18.678818,-78.545094,-8.522301,-58.706474,0.0,2.863984,30.162483,55.971253,47.393626,73.215117,59.60582,81.721545,66.86242,84.082819,0.0,-8.934574,12.764454,-48.750229,24.713345,-50.173302,33.341618,-42.063274,40.208187,-11.561623,0.0,1.370118,10.141826,50.0731,31.342533,59.572784,49.120909,69.673607,62.450847,76.597125,22.459373,273.325571,-23.199291,276.257048
146,-0.794334,-0.056378,-2.195148,1.381974,0.0,-71.089668,-35.200939,-93.060493,-27.59634,-91.436691,-18.077488,-78.433399,-7.964745,-58.368244,0.0,2.169354,30.53916,55.812122,48.097952,72.864807,60.558012,81.333999,67.953241,83.962406,0.0,-6.799107,13.888378,-46.008282,24.663506,-47.847748,32.355423,-39.804382,38.18985,-6.633282,0.0,0.544453,10.467065,49.944351,31.137275,58.312952,48.938375,68.966936,62.361,75.645057,21.916065,273.25692,-25.143414,277.626749
147,-0.576096,0.465104,15.750389,2.303661,0.0,-71.836224,-35.544548,-93.160629,-28.003349,-91.967125,-18.578453,-78.832855,-8.552971,-58.878651,0.0,2.314961,30.29469,55.66602,47.894361,72.495848,60.307675,80.691486,67.632077,83.245298,0.0,-34.874496,8.395786,-59.948387,16.507187,-70.859184,19.476471,-62.63792,19.397507,-34.142075,0.0,5.616015,8.873287,43.978705,30.289812,57.361872,47.598453,66.665621,62.043603,73.827125,21.587477,273.637673,-9.145517,279.846059
148,-0.164566,-0.015932,4.084282,3.263262,0.0,-71.802177,-35.422153,-93.02393,-28.107662,-92.075844,-18.817005,-79.144478,-8.97377,-59.444218,0.0,1.641511,30.490007,55.835464,47.79908,72.450029,59.998738,81.304668,67.223969,83.806362,0.0,-39.498768,4.428806,-61.46965,10.85289,-72.289581,12.895546,-67.483177,12.206841,-42.909622,0.0,-0.461646,7.421906,40.601822,28.82219,52.887314,46.394628,62.962573,61.172984,70.660996,21.739511,273.536309,-4.744635,283.02389
149,-0.585594,-0.197416,-25.12104,-5.386735,0.0,-71.289368,-35.835686,-91.518574,-28.392448,-91.251011,-18.38007,-77.44463,-7.080803,-55.440044,0.0,2.034182,30.606345,55.194247,47.251724,72.458674,58.865803,81.868326,65.792717,85.303686,0.0,-0.374565,18.674355,-40.853405,29.575195,-42.083759,36.792984,-34.04892,41.732254,-2.355595,0.0,-0.07268,9.987882,50.213336,31.203965,58.59935,49.412309,68.681896,63.385439,75.818823,21.389694,273.27458,-29.629898,277.572841
150,-0.61821,-0.099789,29.142208,8.458942,0.0,-70.991364,-35.27544,-91.895199,-27.803192,-90.852184,-18.337498,-78.438663,-8.152657,-58.381691,0.0,2.962229,29.976058,55.81595,47.841996,73.46218,60.477859,82.281374,67.836286,84.421952,0.0,-41.004982,-5.913906,-75.717087,1.754608,-79.273167,7.771969,-65.599709,12.081127,-37.765045,0.0,-6.462736,7.470256,42.169418,26.552368,57.492227,43.132786,62.652524,56.874846,68.266809,20.972929,273.079897,-0.286245,285.936888
