takenoko1/special-research/HandMotion_SimilarSearch_自分用/NewProject/handData/test_key/d4_feature_d2/21.csv
frame,vel_0x_L,vel_0y_L,vel_0x_R,vel_0y_R,posFromWrist_0x_L,posFromWrist_1x_L,posFromWrist_2x_L,posFromWrist_3x_L,posFromWrist_4x_L,posFromWrist_5x_L,posFromWrist_6x_L,posFromWrist_7x_L,posFromWrist_8x_L,posFromWrist_9x_L,posFromWrist_0y_L,posFromWrist_1y_L,posFromWrist_2y_L,posFromWrist_3y_L,posFromWrist_4y_L,posFromWrist_5y_L,posFromWrist_6y_L,posFromWrist_7y_L,posFromWrist_8y_L,posFromWrist_9y_L,posFromWrist_0x_R,posFromWrist_1x_R,posFromWrist_2x_R,posFromWrist_3x_R,posFromWrist_4x_R,posFromWrist_5x_R,posFromWrist_6x_R,posFromWrist_7x_R,posFromWrist_8x_R,posFromWrist_9x_R,posFromWrist_0y_R,posFromWrist_1y_R,posFromWrist_2y_R,posFromWrist_3y_R,posFromWrist_4y_R,posFromWrist_5y_R,posFromWrist_6y_R,posFromWrist_7y_R,posFromWrist_8y_R,posFromWrist_9y_R,posFromBody_0x_L,posFromBody_0y_L,posFromBody_0x_R,posFromBody_0y_R
3,5.79071,2.027451,-1.346684,2.109024,0.0,-11.303101,-33.248806,9.472504,-42.067623,9.718552,-45.403175,-2.335052,-45.925255,-28.298321,0.0,-6.28119,10.034257,29.603271,26.628877,42.760123,39.998521,51.113842,50.288733,56.853049,0.0,71.023235,22.323189,83.511715,12.455978,82.742558,3.713093,68.706837,-3.705025,48.865356,0.0,9.841101,34.183237,61.071034,50.657877,73.385301,61.369721,84.902185,67.530621,88.618387,16.919632,323.83801,-51.168995,297.19493
4,0.48317,-7.397638,1.17382,0.603302,0.0,-47.354221,-44.965038,6.582985,-53.453236,9.960365,-55.576916,2.979813,-54.384212,-28.975468,0.0,22.153887,13.693833,46.648608,28.911481,56.978031,40.538898,59.168257,49.322833,58.930765,0.0,70.537319,20.645313,82.397633,11.22385,81.557064,3.057575,68.59354,-3.6973,49.563732,0.0,10.218705,33.591051,61.280677,50.193761,74.123219,61.325569,84.096836,67.931011,87.943393,17.645187,316.597419,-49.752789,297.955278
5,-9.021721,9.167528,0.576153,0.509811,0.0,-2.093468,-27.189903,20.972557,-38.022938,21.341743,-42.848911,5.658989,-45.00824,-16.449051,0.0,-24.629769,5.692029,29.327,23.859186,43.205714,38.272597,51.219126,49.810352,53.730824,0.0,70.211105,20.418262,81.666985,10.98793,81.542816,2.924137,68.392639,-3.520718,50.265198,0.0,9.669744,32.728645,61.088015,49.774043,72.592055,61.313281,83.137358,68.117003,86.983298,8.760538,325.83457,-49.039564,298.534713
6,-8.822937,2.029489,-0.001431,-0.011856,0.0,7.579422,-19.092693,30.431213,-29.479694,31.186409,-34.907455,20.047188,-36.686382,-28.475132,0.0,-22.215328,7.576961,30.377374,22.841477,42.745735,34.311863,48.272335,42.338676,54.136833,0.0,69.071674,21.354561,82.059689,11.747189,81.438847,3.319759,67.965603,-3.64603,49.102306,0.0,9.046744,32.449409,61.344403,49.240273,73.021097,60.46378,83.697311,67.024638,87.289518,0.011959,327.945308,-48.966637,298.604105
7,15.922737,-3.167858,0.688477,0.278186,0.0,-58.429928,-45.608253,7.038689,-51.094723,13.108177,-50.793285,8.059959,-47.773933,-42.609673,0.0,23.932669,8.879894,43.57319,19.705853,48.740959,27.707225,48.886381,33.77093,49.446334,0.0,69.037342,21.013241,82.105579,11.410503,80.572071,3.044529,67.39706,-3.823185,48.752975,0.0,9.553715,32.801942,61.142911,49.460227,73.507196,60.539116,83.210841,66.999506,86.822623,15.988483,324.823562,-48.224373,298.928403
8,-0.77877,-5.806329,0.059624,-0.390139,0.0,-10.375385,-36.30352,11.052246,-46.01944,13.640785,-49.803944,0.005264,-50.476513,-25.332642,0.0,-10.476266,14.301519,36.564642,30.933313,50.95397,43.591036,58.063357,52.792774,63.158013,0.0,68.077984,21.117954,81.618404,11.368961,80.783443,2.973061,67.444439,-3.937283,48.845387,0.0,9.412615,32.56797,61.726144,49.421325,73.519732,60.607782,83.953637,67.059527,87.353738,15.248823,319.062773,-48.125639,298.583805
9,7.402725,-0.471526,0.580044,0.351607,0.0,-49.923649,-48.052082,2.667389,-56.57547,5.943947,-58.508835,-2.395706,-57.278881,-65.799065,0.0,11.900539,10.836024,45.499741,26.457273,53.732306,38.117727,56.393255,47.453216,62.151543,0.0,68.10482,21.095467,81.38031,11.2187,79.879761,2.69022,66.786346,-4.378796,48.112965,0.0,9.722541,32.677515,61.201019,49.500736,73.676454,60.5703,83.859838,66.94109,87.098647,22.692604,318.62294,-47.504539,298.967105
10,-22.382183,-1.4972,0.279236,0.207049,0.0,1.562977,-24.475021,27.412205,-35.131016,29.332294,-39.864407,17.10783,-41.806183,-7.753201,0.0,-6.016898,13.873095,38.826066,31.578975,54.202968,45.182962,58.586259,54.77595,61.98389,0.0,67.376862,21.210079,80.83889,11.166458,79.220924,2.405548,66.146278,-4.842281,47.243385,0.0,9.919401,32.005486,60.989523,48.916206,73.498428,60.054869,83.73819,66.357857,87.082407,0.335999,317.154593,-47.199726,299.203007
11,18.277416,2.233327,-0.238953,-0.388904,0.0,-50.549641,-46.124039,7.931671,-54.416943,10.885391,-55.806084,5.565834,-53.939896,-29.128819,0.0,19.965699,11.122731,45.726118,24.977856,55.151145,35.262326,56.059494,42.919439,55.964337,0.0,67.717094,21.915607,81.936035,12.021904,79.870949,3.352203,66.999664,-3.787537,48.531475,0.0,10.265018,32.451818,61.377748,49.56897,73.685038,60.817116,83.90683,67.065764,87.398878,18.67547,319.399575,-47.376623,298.825758
12,-5.118027,0.820972,-0.718803,-0.735756,0.0,-6.783485,-32.176552,14.947243,-42.961807,17.231483,-47.685757,2.932434,-49.293137,-20.773659,0.0,-13.96714,11.884978,35.637213,29.12452,50.055934,42.428152,57.632215,52.290619,62.247626,0.0,67.589951,22.482777,82.252235,12.573738,80.531845,3.793259,67.469101,-3.480663,48.870735,0.0,9.958551,33.471996,61.517983,50.549258,74.095554,61.660627,84.853711,67.779846,88.264063,13.563023,320.221952,-48.089848,298.091407
13,2.916985,6.152379,-0.523167,1.182829,0.0,-56.894474,-48.768425,7.375946,-53.15094,13.303757,-51.36755,9.30027,-47.039909,-47.841625,0.0,29.302114,6.270075,43.768013,15.046723,48.236273,21.662415,47.741528,27.046927,50.17505,0.0,67.587719,21.534748,83.569393,11.608028,80.963116,2.965851,67.179852,-3.969784,48.427963,0.0,8.965913,32.225502,59.362832,49.333763,72.781012,60.510772,83.718677,66.864272,87.230855,16.48962,326.375998,-48.603401,299.275903
14,-7.335892,-7.303098,0.32753,0.923416,0.0,-17.256374,-35.41563,12.70752,-41.414509,17.30999,-41.236897,8.491287,-37.959652,-40.183754,0.0,16.031086,16.707685,42.700595,29.038872,53.012173,37.37524,55.678679,42.520901,64.23105,0.0,68.054638,20.772457,83.616428,10.810032,80.873966,2.326584,67.420292,-4.288044,49.015846,0.0,8.287338,30.924236,58.690309,48.143709,71.851297,59.64145,82.394933,66.278384,85.687959,9.144258,319.075231,-48.285341,300.20165
15,5.079918,6.540912,-0.143509,0.038779,0.0,-54.783726,-45.803204,9.59507,-50.358353,15.537186,-49.093552,11.371193,-45.375481,-34.203529,0.0,33.980943,6.131013,45.134858,15.455634,50.046609,22.730265,49.590027,28.667629,49.461771,0.0,67.733402,20.94429,83.558865,11.256065,81.259861,2.914753,67.981968,-3.75206,49.594116,0.0,8.392931,30.965917,58.68049,48.11728,71.424293,59.573092,81.883331,66.197553,85.690244,14.264374,325.62607,-48.388653,300.250356
16,-8.990765,1.606684,0.324726,-0.072371,0.0,-23.797646,-33.944836,13.635464,-37.107868,20.004101,-34.908428,14.663715,-30.174637,-37.956619,0.0,24.165159,14.033831,40.264603,20.866452,45.004194,25.013054,46.104834,27.141406,52.643832,0.0,67.63504,21.870575,83.071861,11.896076,80.539513,3.024788,66.963615,-4.281063,48.238735,0.0,8.918797,30.914603,59.049449,47.970561,71.701985,59.305096,81.990036,65.80161,85.543093,5.291805,327.234607,-48.045731,300.179837
17,15.028553,-10.826576,-0.113754,-0.417556,0.0,-45.906487,-44.384995,7.150726,-53.172512,7.512589,-55.740509,-0.921593,-55.187531,-60.497761,0.0,21.846555,9.766136,45.190434,25.034358,56.268581,36.527036,58.81029,46.22747,64.532639,0.0,68.002052,22.158566,83.22155,12.271214,80.848389,3.421097,67.265739,-3.904552,48.350258,0.0,8.99969,30.948318,59.162514,48.097643,72.285526,59.486395,82.300023,65.896211,85.767247,20.323706,316.405823,-48.156137,299.760073
18,-27.51852,-2.049743,0.929146,0.1905,0.0,22.211094,-13.230629,36.901073,-25.022106,38.262348,-31.896458,24.985142,-35.688629,-5.024071,0.0,-12.657414,10.616501,38.503667,30.324886,54.418106,45.581128,61.384726,55.973723,64.908699,0.0,68.102646,21.549625,82.53788,11.731968,79.768295,3.051624,66.106224,-4.109287,48.007507,0.0,8.83704,31.093061,59.000543,48.223614,71.739653,59.56914,82.034311,66.056145,85.711857,-7.201653,314.369433,-47.233829,299.963927
19,-0.751762,3.000206,-0.494957,-0.601326,0.0,7.611408,-16.496372,38.620777,-25.748978,39.912357,-29.420757,25.613422,-27.990475,-25.617428,0.0,18.405945,12.424677,48.807402,28.777977,55.620881,40.931693,62.653203,50.849241,62.112763,0.0,68.389435,21.577892,83.165588,11.406555,80.022583,2.631111,66.652794,-4.373417,48.530788,0.0,9.416567,30.984875,59.285521,48.434059,72.244215,59.939952,82.362638,66.42992,85.991277,-7.980909,317.35312,-47.756281,299.346083
20,27.637653,-4.487341,-0.261784,-0.424966,0.0,-38.039188,-40.926704,6.647186,-49.856987,6.679802,-53.06488,-0.158386,-54.003754,-68.77224,0.0,24.597783,9.415271,50.304664,24.775994,60.428397,36.778545,63.077305,47.225851,70.079493,0.0,68.654766,22.232265,83.219204,12.334213,80.155849,3.67178,66.944218,-3.410625,48.805561,0.0,9.671597,31.657275,59.521654,48.898299,72.473742,60.138109,82.771178,66.274,86.033762,19.639492,312.809108,-48.035316,298.864445
21,-23.550797,-0.500672,-0.205879,-0.344444,0.0,4.566078,-18.370914,32.313766,-28.768845,34.414902,-33.791027,24.230003,-35.873737,-2.388153,0.0,3.837356,11.910419,42.14163,30.691993,59.603597,45.666529,64.17708,56.178981,68.136516,0.0,69.160595,22.313347,83.009777,12.381592,80.408993,3.600082,67.24268,-3.65181,48.74897,0.0,9.652207,32.027592,59.391176,49.374147,72.777924,60.697567,83.509528,66.931333,86.700234,-3.926811,312.286021,-48.256702,298.497586
22,23.381767,3.458949,0.60997,-0.259969,0.0,-44.057579,-41.683388,7.986717,-50.865154,8.832664,-54.037685,1.305313,-54.75832,-61.203632,0.0,26.824935,8.520384,47.304212,23.227726,57.017119,34.709042,60.215544,44.684204,65.82878,0.0,68.572369,22.20583,82.661533,12.237167,80.114079,3.335152,66.877041,-4.053326,48.083382,0.0,10.27743,32.47732,59.950573,49.575516,73.091493,60.600249,83.8331,66.578862,86.993857,19.448462,315.719699,-47.653227,298.212345
23,-23.454208,-4.095843,0.28656,0.204641,0.0,17.615089,-17.651482,34.189453,-29.006252,36.43261,-34.954433,25.774384,-38.077812,-0.243244,0.0,-5.866968,12.262582,39.977525,32.075572,57.646294,47.814332,63.504,58.763298,66.751887,0.0,68.872433,22.822208,83.160725,12.821617,79.698544,3.748684,66.332989,-3.943577,47.787094,0.0,9.679933,32.423227,59.853439,49.294366,72.778356,60.177135,83.506441,66.188044,87.219061,-4.068804,311.622157,-47.429724,298.415288
24,-0.574894,5.037537,0.273342,-0.142335,0.0,11.947002,-18.656445,38.043652,-28.598099,40.640545,-33.514252,26.089268,-34.813328,-9.358749,0.0,3.471979,11.123843,45.951569,28.500162,56.183242,42.095688,61.423629,52.627962,63.033956,0.0,68.664551,22.614212,82.673035,12.656708,79.915237,3.670692,66.314621,-3.887959,47.678261,0.0,9.935333,32.795706,59.040866,49.819491,72.44052,60.727393,83.582888,66.667783,87.331632,-4.723291,316.64983,-47.235975,298.263089
25,18.318844,-3.2653,-0.246391,-0.126959,0.0,-40.55872,-37.304707,14.739418,-47.405834,17.158928,-51.653481,10.010147,-52.819862,-37.436943,0.0,26.866863,10.777361,49.439109,26.524148,60.17343,38.276919,63.81337,48.15223,66.951526,0.0,69.05262,23.394871,82.954788,13.301983,79.705467,4.150829,65.947151,-3.514252,47.704296,0.0,9.736002,32.965581,60.221534,49.827889,73.574504,60.580118,83.862308,66.383669,87.840702,13.469181,313.38172,-47.608738,298.13332
26,-22.412052,4.134869,-0.646248,-0.046189,0.0,24.334087,-11.909008,44.338245,-22.564602,44.522953,-29.002991,31.287746,-32.104797,-2.214317,0.0,-11.272229,11.878,40.656904,30.731822,53.375698,44.847533,58.456398,54.65776,61.293397,0.0,69.88575,23.752098,84.140282,13.775883,80.946922,4.7616,66.719055,-2.742691,48.488617,0.0,9.755083,33.030851,60.33571,49.934532,73.793348,60.774508,83.808771,66.66346,87.983284,-9.069386,317.512977,-48.3815,298.083518
27,2.071095,-4.282144,0.463142,-0.254535,0.0,21.029778,-16.398697,42.130852,-26.148548,46.064415,-30.804234,28.682671,-31.313438,-1.994133,0.0,11.788339,17.201442,48.021875,32.903213,57.208299,44.718475,63.904884,54.361913,67.737423,0.0,69.824409,24.166546,84.638443,14.29184,81.188393,5.157166,66.88591,-2.647362,48.446503,0.0,10.126018,32.877463,59.981695,49.712848,73.085873,60.529298,83.302294,66.480741,87.775926,-7.107582,313.22455,-48.027649,297.8227
28,-4.83696,4.914715,0.60173,-0.344753,0.0,31.081352,-5.540657,49.346123,-16.271496,52.664108,-22.511444,34.031296,-25.545444,1.867676,0.0,2.544549,9.142272,38.771663,25.325326,51.759381,39.239855,58.845302,51.074322,60.679969,0.0,69.406815,24.140911,83.995743,14.068451,80.521431,4.832268,66.220322,-3.092022,47.164822,0.0,9.927058,33.371219,59.578959,50.139297,73.672317,60.772409,83.618332,66.644317,87.876888,-12.046967,318.11864,-47.528343,297.457323
29,0.074215,-0.611267,0.633316,-0.521606,0.0,33.819408,-3.839779,46.296902,-14.430599,49.327641,-20.952702,31.036892,-24.460144,-8.481331,0.0,-2.726898,8.268257,36.717165,25.989205,51.966615,40.020689,60.208875,51.387828,66.526745,0.0,68.912315,23.786659,83.361511,13.567772,80.317039,4.252968,65.663795,-3.708115,46.461754,0.0,9.754774,32.018268,59.900617,49.016242,73.597043,60.032022,83.551271,66.120674,87.010591,-12.082758,317.479925,-47.005033,296.908269
30,2.539902,-6.566662,0.457535,-1.834172,0.0,22.373486,-10.889568,41.364498,-22.070332,41.749134,-27.312183,29.122982,-29.045391,1.405163,0.0,-3.453207,13.006489,39.309263,31.832399,55.959644,46.012084,61.070293,57.260416,66.957639,0.0,66.808548,22.455196,82.425385,12.3983,79.035759,3.237877,65.687141,-4.689503,45.533237,0.0,9.958736,32.150661,60.066972,49.121341,74.789382,60.168058,84.175321,66.460733,87.337436,-9.624767,310.927774,-46.62941,295.088608
31,6.038418,3.033983,0.785751,-4.90255,0.0,2.471123,-16.154823,33.308945,-25.268726,36.888771,-28.685017,22.238503,-27.329807,-14.885902,0.0,1.533016,8.961529,38.264816,25.029974,48.840747,36.987509,57.303271,47.116614,59.451135,0.0,66.86142,22.337494,82.086411,11.985512,78.827248,2.40057,64.623756,-6.054955,43.785152,0.0,11.768579,32.981883,62.681979,49.831718,76.485172,60.905111,85.196796,66.971039,87.275933,-3.918858,313.941873,-46.176167,290.166174
32,12.650871,-14.54673,1.345997,-7.124824,0.0,-29.18478,-34.439735,18.560143,-45.681267,17.087746,-51.309013,1.759987,-53.119411,-53.384686,0.0,22.577618,13.814555,49.319992,31.413052,58.552852,44.217124,65.292601,54.99115,75.642896,0.0,65.055828,22.497368,79.41267,11.362553,77.086773,0.880051,62.14159,-8.40414,41.447296,0.0,10.237107,31.908105,63.590204,49.114178,77.177517,61.007925,85.623554,68.052289,86.879619,7.945862,299.398169,-45.616322,283.044375
33,-22.752514,3.205834,2.497559,-13.389898,0.0,15.38681,-6.401539,40.783939,-15.660439,40.179005,-22.283134,25.061359,-26.396198,-33.690891,0.0,-15.45761,4.547547,39.34514,20.734245,51.583948,34.744302,56.830324,47.310819,68.1409,0.0,61.294613,24.237041,75.005894,12.180347,71.534557,-0.777168,54.401836,-13.468494,25.451889,0.0,16.353238,30.999201,67.408664,48.14834,82.345965,60.163365,92.800248,66.883168,93.350259,-15.297346,302.610781,-43.609457,269.661255
34,-1.568298,18.470474,3.678303,-12.888299,0.0,-27.532368,-25.203495,-37.78038,-20.730515,12.676506,-11.110153,41.884975,0.335884,39.878254,0.0,34.003791,2.318975,28.782546,-9.493447,33.236974,-18.753353,20.24691,-24.289401,12.675322,0.0,55.853462,23.945847,73.254089,11.501427,63.800125,-3.346252,36.654854,-18.599854,-5.137424,0.0,18.040568,27.400881,70.582079,43.215779,90.391179,54.361358,99.468552,60.415615,92.29124,-17.122107,321.28832,-40.187616,256.980021
35,8.381081,-73.117675,15.415592,6.534243,0.0,-58.920479,-27.006683,-61.463642,-11.607113,-48.365993,5.04015,-26.464634,21.839962,14.194279,0.0,0.20989,39.762078,75.220462,50.266256,88.236707,55.693005,89.627512,55.05957,79.196447,0.0,28.480568,14.567585,21.578522,2.620583,-6.50013,-12.324772,-32.084713,-28.8624,-43.420887,0.0,61.389172,16.644577,66.272703,14.792188,73.598402,14.208276,69.218383,15.280263,59.64781,-9.169865,248.739814,-25.200863,264.083433
36,8.300972,1.738892,-5.72216,-68.832011,0.0,-43.553009,-31.119804,-69.086895,-21.661777,-64.357624,-9.722786,-48.579483,5.189266,-23.784885,0.0,23.726052,16.032259,53.621403,24.709427,60.041161,31.81233,63.767736,37.503557,64.62477,0.0,55.22398,40.249271,39.096851,27.769775,12.596054,11.589146,-11.789074,-6.1936,-25.098896,0.0,-5.031918,37.746915,90.557535,49.781515,111.80437,57.549346,116.473812,61.016138,114.700217,-0.769815,252.224714,-30.823946,196.99743
37,7.758808,14.580693,-1.55405,-30.332729,0.0,-46.239395,-31.406937,-73.020287,-25.113716,-68.495579,-15.25177,-55.728264,-2.242241,-28.292255,0.0,22.299062,0.445591,15.820517,-0.565078,15.181277,-1.450888,12.912629,-1.07526,11.198869,0.0,50.005989,30.447922,44.993706,25.273247,38.242722,18.034172,32.385349,10.280113,33.56781,0.0,-5.240387,9.269663,37.776926,20.151629,50.140038,30.894163,56.480941,40.458808,57.655804,7.420177,269.696808,-31.946812,169.556103
38,5.533047,-42.947072,-9.640102,-47.82483,0.0,-64.201298,-43.628655,-85.025254,-36.35356,-79.47218,-26.779404,-65.882006,-14.919605,-41.088925,0.0,19.689088,6.713937,17.367551,5.727814,16.771536,4.765156,14.265025,4.425282,13.987364,0.0,54.090672,37.190323,47.49052,34.678631,40.88459,28.495789,34.886341,20.477657,25.043736,0.0,-45.86836,-3.040004,5.379078,15.684234,24.713318,34.257523,41.605575,52.208615,51.231106,12.915573,229.5857,-41.624565,124.567238
39,5.533046,-42.947072,0.330534,-29.315298,0.0,-82.1632,-55.850372,-97.03022,-47.593403,-90.44878,-38.307037,-76.035748,-27.59697,-53.885593,0.0,17.079114,12.982283,18.914583,12.020706,18.361794,10.981199,15.61742,9.925823,16.775858,0.0,48.726654,34.797191,48.6345,32.734022,42.235221,28.53012,39.690256,23.155632,30.856733,0.0,-45.938849,-7.704908,-13.554463,8.196533,2.906113,24.781366,20.653367,42.083322,36.255056,18.353748,188.883102,-41.388902,97.496413
40,-10.32795,-26.691122,0.330533,-29.315298,0.0,-79.18087,-41.199017,-79.193001,-31.252384,-66.848316,-22.164688,-53.482819,-13.761292,-40.107365,0.0,21.346623,33.536402,22.354637,30.932263,15.034435,26.317532,12.812408,20.454577,15.293848,0.0,43.362637,32.40406,49.778481,30.789413,43.585854,28.564453,44.494171,25.833607,36.669731,0.0,-46.009337,-12.369812,-32.488003,0.708833,-18.901091,15.30521,-0.298841,31.95803,21.279007,7.852964,164.777115,-41.231203,70.76625
41,0.179758,-19.414461,3.022785,28.200456,0.0,-74.721794,-43.163967,-84.358706,-34.023299,-74.221744,-24.537978,-62.642584,-14.390173,-47.594447,0.0,14.002276,28.494874,15.6115,26.636804,9.339665,22.587907,7.541871,16.800249,10.458552,0.0,45.263042,23.988247,50.85268,21.024399,55.907421,16.6646,50.615101,11.718693,37.510357,0.0,-21.911177,-23.696443,-52.953973,-36.645597,-73.642214,-47.291954,-82.063858,-55.547737,-89.525161,8.214426,150.101551,-38.026714,103.705602
42,0.179758,-19.414461,8.271503,-58.180652,0.0,-70.262718,-45.128918,-89.524412,-36.794214,-81.595173,-26.911268,-71.802349,-15.019054,-55.08153,0.0,6.65793,23.453347,8.868363,22.341346,3.644896,18.858283,2.271335,13.145922,5.623255,0.0,39.656067,15.345955,36.039963,16.454544,36.658745,18.504009,38.06797,22.478771,34.208679,0.0,-53.16763,-21.089587,-52.605732,-6.979186,-35.516923,9.7398,-14.162025,29.097226,11.04295,8.591022,135.271857,-29.558372,50.109718
43,0.179758,-19.41446,-7.876968,-1.528076,0.0,-65.803642,-47.093868,-94.690118,-39.565129,-88.968601,-29.284558,-80.962114,-15.647936,-62.568612,0.0,-0.686418,18.411819,2.125225,18.045886,-2.049875,15.128658,-2.999203,9.491594,0.787958,0.0,47.932663,16.415062,42.40448,16.901035,50.351028,18.626747,50.348282,21.563702,46.336899,0.0,-46.96795,-17.285515,-63.204634,-3.643213,-42.219652,12.539841,-17.844819,30.522025,6.269365,9.15739,119.011778,-37.048731,51.736023
44,0.179758,-19.414461,-1.96312,0.368835,0.0,-61.344566,-49.058819,-99.855824,-42.336044,-96.34203,-31.657848,-90.12188,-16.276817,-70.055695,0.0,-8.030765,13.370292,-4.617912,13.750427,-7.744644,11.399033,-8.269739,5.837266,-4.047338,0.0,50.087929,19.851093,44.144554,16.552734,47.418022,12.147732,45.953293,8.535004,34.463539,0.0,-54.674895,-16.384175,-57.556942,0.769595,-27.829213,19.856339,0.23953,37.625051,30.474971,9.567289,101.715618,-38.78171,54.22316
45,7.463608,3.94826,0.621815,5.375404,0.0,-60.216465,-45.36953,-100.968933,-39.559364,-103.23,-30.48563,-93.697357,-16.747055,-68.627014,0.0,-4.234998,18.055296,0.668356,18.487301,-2.918849,15.310706,-4.923978,8.084765,-0.840948,0.0,47.76701,17.648277,41.920166,15.206966,47.019939,12.577457,48.258419,10.322971,41.969719,0.0,-56.965558,-16.915074,-60.147742,-1.021444,-32.198857,17.386693,-5.500665,35.956493,24.102266,17.382431,106.044322,-37.808361,59.979009
46,7.492447,13.395548,2.234917,6.327719,0.0,-63.663425,-44.983521,-98.054638,-39.812565,-97.627258,-31.957569,-88.864632,-19.987621,-71.375771,0.0,-6.057715,12.810864,-4.821256,11.107818,-8.289715,6.816875,-11.925981,-0.667275,-7.281763,0.0,43.456707,14.522953,34.673481,14.128304,41.774769,14.197884,43.154354,15.007896,38.530827,0.0,-57.13673,-17.668028,-59.98117,-3.546573,-37.247231,12.651023,-14.553738,29.804114,11.133754,25.233107,119.484979,-35.215216,66.351837
47,4.095955,3.48192,3.403416,1.724843,0.0,-58.868351,-42.379532,-94.670963,-35.981197,-76.526985,-26.682301,-58.501968,-15.15049,-60.861912,0.0,-15.818016,21.557007,0.744092,21.891509,-18.536702,18.202385,-30.248316,11.510987,-0.119858,0.0,36.608734,10.117893,32.444344,9.988289,37.351627,10.376472,38.024254,12.37484,31.946526,0.0,-61.240909,-14.084621,-40.856512,2.776453,-20.323296,20.913413,0.723468,38.221251,24.060369,29.497662,122.46933,-31.6432,67.579111
48,0.353394,16.785306,2.065029,3.576059,0.0,-58.205051,-43.60302,-62.09959,-36.907539,-36.603584,-27.351837,-32.226105,-16.468391,-42.559776,0.0,-11.942838,14.838253,-30.233928,12.382748,-53.599728,7.077153,-57.355543,0.815569,-36.387295,0.0,36.091061,12.2929,29.967384,13.232517,37.398891,14.460297,39.629345,16.776981,35.599766,0.0,-58.929437,-14.844799,-48.093938,0.298007,-25.318441,17.705727,-4.247873,35.84034,16.820967,29.944954,138.928609,-29.484272,70.829143
49,4.568024,-1.783908,7.949696,19.478118,0.0,-56.380577,-37.901344,-86.926632,-33.191814,-88.393536,-26.260529,-80.456829,-16.911736,-60.362949,0.0,-1.465152,13.004328,15.669846,13.645421,14.098175,13.947998,15.051601,13.636714,16.67292,0.0,30.609055,11.976471,25.318737,11.055679,29.731979,10.343456,30.637093,9.910755,28.830643,0.0,-42.537512,-27.802876,-68.448911,-22.859972,-58.773919,-15.362144,-45.589002,-5.486154,-27.720192,34.55369,137.024458,-21.493864,90.187017
50,4.150658,8.584481,8.661118,-22.924346,0.0,-57.173424,-35.181084,-92.208824,-30.063515,-96.589336,-23.096924,-85.912514,-14.117203,-61.77475,0.0,4.962695,11.183494,14.840168,12.02262,12.221086,12.51298,14.16258,12.298706,16.633091,0.0,21.262665,16.271381,18.208351,13.046379,17.408352,9.318924,20.859947,5.106812,16.757469,0.0,-56.760948,-19.750067,-64.413769,-12.958602,-60.21894,-5.623548,-53.026561,2.770278,-36.964939,38.622522,145.29963,-12.914572,66.953363
51,-1.614075,10.435573,23.564987,-33.405275,0.0,-59.356613,-37.349281,-96.698227,-31.471939,-101.088982,-22.298698,-86.874847,-10.297165,-58.1357,0.0,9.201429,5.641579,9.871853,5.714321,8.841918,6.202088,9.914893,6.674108,13.343832,0.0,-2.848778,0.219154,-2.667046,-5.964661,-11.491928,-11.809673,-15.811157,-16.054287,-19.454613,0.0,-57.142442,-50.636696,-89.015998,-44.375791,-82.772352,-34.492638,-58.662274,-22.896559,-42.755707,36.3626,154.780464,10.004568,32.593349
52,-3.242455,5.342584,-4.402042,-44.78664,0.0,-62.15435,-35.156765,-94.655514,-28.776112,-98.636341,-18.913193,-81.476669,-5.878372,-52.966118,0.0,12.313464,1.55858,6.980575,1.922661,8.073434,3.711447,10.916423,6.564872,15.073831,0.0,-11.701884,-0.241899,-4.562287,1.143766,-3.082537,1.977826,-1.281924,2.632599,1.046548,0.0,-37.81476,-22.841578,-44.736081,-19.921069,-42.611983,-15.74363,-29.537422,-11.355383,-22.718262,32.646446,161.26364,5.128827,-11.052699
53,-3.082123,2.214246,-4.402041,-44.78664,0.0,-63.499718,-32.380543,-92.87241,-25.130081,-92.751789,-14.306946,-74.05386,-0.307846,-44.641628,0.0,12.752757,2.70016,9.310604,4.035389,10.9636,6.342694,14.068843,9.268922,17.349211,0.0,-20.554991,-0.702953,-6.457529,8.252191,5.326853,15.765324,13.247309,21.319485,21.547708,0.0,-18.487077,4.953541,-0.456165,4.533654,-2.451614,3.005377,-0.41257,0.185792,-2.680817,29.153194,164.248068,0.315657,-55.069157
54,-1.778755,2.052028,-4.402042,-44.786639,0.0,-61.020069,-31.368141,-91.571503,-24.526234,-89.153652,-14.139633,-72.466335,-0.500679,-43.457279,0.0,12.459566,4.983196,10.68313,6.892766,13.788064,9.362536,16.870151,11.940986,20.442906,0.0,-29.408097,-1.164007,-8.35277,15.360618,13.736244,29.552823,27.776542,40.006371,42.04887,0.0,0.840604,32.748659,43.82375,28.988375,37.708753,21.754384,28.712282,11.726966,17.356628,27.240314,167.501358,-4.22051,-98.654534
55,-0.753708,5.714445,-4.402041,-44.78664,0.0,-60.779057,-31.208038,-91.296844,-24.367962,-88.846664,-14.076691,-72.201805,-0.676804,-43.100338,0.0,11.076665,3.201759,9.322645,5.143686,11.142738,7.600858,13.863091,10.220249,17.831605,0.0,-38.261204,-1.625061,-10.248013,22.469044,22.145634,43.340321,42.305775,58.693256,62.55003,0.0,20.168287,60.543778,88.103666,53.443098,77.869122,40.503392,57.837134,23.268142,37.394073,26.963625,173.429197,-8.145533,-143.22778
56,0.744438,4.3702,1.050911,3.869208,0.0,-55.245266,-32.46603,-91.822529,-26.864948,-92.535896,-17.944336,-76.141491,-5.944862,-47.397423,0.0,8.74602,2.922276,8.058738,4.252195,10.341897,6.158307,13.523834,8.909226,17.840188,0.0,-39.852467,-0.829773,-11.087685,22.042332,20.341511,41.965504,41.889248,56.774502,63.801365,0.0,13.247285,56.317477,83.19314,53.35318,78.692317,44.375874,62.370438,30.401251,45.972956,27.922783,177.574641,-6.879902,-139.583328
57,-0.721664,2.032885,1.050911,3.869209,0.0,-55.192108,-31.032887,-89.966297,-25.02388,-89.383907,-16.057777,-73.592663,-4.24736,-45.903969,0.0,8.091527,2.951299,10.555862,5.014813,13.176673,7.869349,15.823914,11.783214,20.399619,0.0,-41.443729,-0.034485,-11.927357,21.61562,18.537388,40.590687,41.472721,54.855747,65.0527,0.0,6.326284,52.091176,78.282613,53.263261,79.515512,48.248355,66.903741,37.53436,54.551837,26.899481,179.424791,-6.130629,-135.896854
58,-0.123711,3.445426,1.050911,3.869209,0.0,-49.9506,-32.394676,-89.345741,-27.015839,-90.18362,-18.61599,-75.515499,-7.212296,-47.897358,0.0,7.466736,3.335943,10.184681,5.852642,13.381438,9.078484,16.286856,13.262445,21.396765,0.0,-43.034992,0.760803,-12.767029,21.188908,16.733265,39.21587,41.056194,52.936993,66.304035,0.0,-0.594718,47.864875,73.372087,53.173342,80.338706,52.120837,71.437045,44.667469,63.130719,26.442175,182.506832,-5.413313,-132.391031
59,0.60585,1.36419,1.172676,-2.169282,0.0,-50.905895,-31.348686,-88.594036,-25.37281,-87.59182,-16.380157,-72.510967,-4.412956,-44.582691,0.0,7.304827,4.797451,13.293937,7.979141,16.038805,11.530346,18.421568,16.164838,24.201901,0.0,-35.052357,-2.803516,-7.885075,18.035831,19.945545,37.01807,42.323933,51.950665,65.359516,0.0,21.69573,47.535015,77.343431,45.62562,76.692232,38.408551,64.444418,26.622924,50.127812,26.622047,182.935333,-4.666615,-135.496001
60,-0.459137,4.081023,1.172676,-2.169281,0.0,-53.102932,-30.56488,-87.694416,-24.268284,-86.277981,-15.063171,-70.508423,-2.941132,-41.972351,0.0,7.539478,4.458812,12.520637,7.069064,14.818185,9.787749,16.9248,13.516115,21.866068,0.0,-27.069721,-6.367836,-3.00312,14.882755,23.157826,34.820271,43.591671,50.964336,64.414997,0.0,43.986177,47.205154,81.314774,38.077897,73.045756,24.696264,57.45179,8.578377,37.124903,25.280571,185.627003,-4.376278,-139.054636
61,2.319145,3.824018,1.172676,-2.169282,0.0,-54.48658,-30.330906,-89.321194,-24.373741,-89.161148,-15.60173,-72.862129,-4.078102,-45.859509,0.0,8.482592,1.342639,10.641263,3.040282,12.849952,5.638307,15.281436,9.724825,19.482625,0.0,-19.087086,-9.932156,1.878834,11.729679,26.370106,32.622471,44.859409,49.978008,63.470478,0.0,66.276625,46.875293,85.286118,30.530176,69.399281,10.983978,50.459164,-9.466168,24.121996,27.056065,188.827465,-3.747253,-141.847473
62,2.421341,1.605572,-2.694912,-6.632303,0.0,-53.451862,-30.631886,-91.719189,-25.213966,-92.119789,-16.6856,-75.090866,-5.489502,-48.144093,0.0,9.209148,0.518518,9.503697,1.571239,11.345465,3.835627,14.098422,7.947896,18.886611,0.0,-26.433735,-9.09894,-0.457821,13.333168,24.312916,34.612198,43.597069,51.947708,63.634129,0.0,41.141436,48.177409,88.917459,36.274245,75.983079,20.779338,57.206863,3.237991,35.713768,28.845034,189.850932,-7.074537,-149.061882
63,-1.752205,-0.053785,-2.694912,-6.632303,0.0,-58.346043,-30.869408,-91.782532,-24.455338,-90.817966,-14.859924,-73.511066,-2.28653,-45.350418,0.0,9.593112,1.122005,8.449926,2.061044,10.497755,4.04706,12.933686,7.605119,17.111842,0.0,-33.780384,-8.265724,-2.794476,14.936657,22.255726,36.601925,42.334728,53.917408,63.797779,0.0,16.006247,49.479524,92.5488,42.018315,82.566877,30.574698,63.954562,15.94215,47.305539,26.527863,189.413152,-10.334415,-156.07818
64,3.427048,-1.90148,-1.829453,20.688997,0.0,-53.590794,-31.596966,-92.975349,-26.171837,-93.74794,-17.965851,-77.301922,-6.917839,-50.586433,0.0,9.466338,-0.812265,6.940129,0.694939,9.488013,3.799009,11.480328,8.542984,15.586113,0.0,-23.666039,-2.941589,-6.52319,18.058605,21.040249,37.783298,44.742336,53.54353,62.676487,0.0,-2.637468,31.208087,60.451137,31.287529,63.186588,29.450979,57.830172,24.183854,53.686009,29.137917,187.41338,-12.980862,-135.487474
65,-1.707573,-2.590059,-0.534191,11.32505,0.0,-58.170433,-30.256748,-93.120632,-24.06395,-92.521248,-14.95388,-75.120049,-3.06324,-46.842556,0.0,9.706177,-1.095144,6.936794,0.650726,9.251138,3.603384,11.894488,7.976856,15.565056,0.0,-19.986118,-0.394221,-2.706248,19.592558,23.342119,38.070755,45.283864,52.617022,61.391741,0.0,-4.26581,28.851826,56.747318,29.743607,60.440298,28.887413,56.045773,24.851918,52.849702,26.643448,184.780466,-14.301948,-124.205279
66,-0.23243,-3.592762,-0.534192,11.325051,0.0,-55.162868,-31.427536,-93.323021,-25.568733,-93.378353,-16.572762,-76.059494,-4.751472,-47.753563,0.0,9.518332,-0.121895,7.72862,2.147679,10.824044,5.460342,13.370446,9.875311,17.414728,0.0,-16.306196,2.153149,1.110694,21.126512,25.643991,38.358212,45.825393,51.690515,60.106996,0.0,-5.894153,26.495565,53.043497,28.199684,57.694007,28.323847,54.261373,25.51998,52.013394,25.749607,181.126895,-15.497551,-112.941037
67,-3.302078,-1.185546,-0.534191,11.32505,0.0,-57.70443,-29.705372,-90.802574,-23.125534,-89.487591,-13.311195,-70.393696,-0.755768,-41.945915,0.0,10.184681,-0.889885,6.768216,1.157573,10.145099,4.476102,12.690759,8.78696,15.76698,0.0,-12.626276,4.700518,4.927636,22.660466,27.945862,38.645668,46.366921,50.764008,58.822251,0.0,-7.522494,24.139304,49.339678,26.655762,54.947717,27.760281,52.476975,26.188044,51.177087,22.067556,179.913237,-16.411715,-101.644099
68,-2.561188,-1.862331,-0.534191,11.325051,0.0,-57.189789,-29.961948,-87.196712,-23.541527,-86.014423,-14.0942,-68.55463,-1.694298,-40.566216,0.0,9.643191,0.949783,5.777369,2.75129,8.943374,4.944726,12.230225,7.458647,15.569564,0.0,-8.946355,7.247887,8.744577,24.194419,30.247733,38.933125,46.908449,49.8375,57.537505,0.0,-9.150837,21.783042,45.635858,25.111839,52.201426,27.196715,50.692575,26.856106,50.340779,19.137497,178.071886,-17.314778,-90.298068
69,-1.830826,-3.452219,-0.534191,11.32505,0.0,-57.553539,-26.697922,-85.525532,-18.405418,-80.001183,-7.137451,-60.695229,6.621208,-30.800972,0.0,10.044013,0.234466,7.702314,2.892204,10.457988,5.849617,14.41267,8.76121,15.547642,0.0,-5.266434,9.795256,12.561518,25.728372,32.549604,39.220581,47.449977,48.910993,56.252759,0.0,-10.779178,19.426782,41.932038,23.567917,49.455136,26.633149,48.908176,27.52417,49.504473,17.189341,174.402985,-17.966299,-79.1897
70,30.509834,-0.652825,-0.534191,11.325051,0.0,-64.073238,-51.769981,-103.887062,-53.194656,-110.299759,-54.252949,-112.68465,-53.34486,-104.201374,0.0,8.140742,10.403956,7.650073,10.062847,7.230788,9.057242,4.133449,5.842639,4.812271,0.0,-1.586514,12.342625,16.37846,27.262325,34.851475,39.508038,47.991505,47.984486,54.968014,0.0,-12.407521,17.07052,38.228218,22.023994,46.708845,26.069583,47.123777,28.192232,48.668165,47.69311,174.01774,-18.506556,-67.597069
71,2.035332,-0.406503,-0.534191,11.32505,0.0,-59.443016,-50.00988,-110.670319,-47.870865,-117.817726,-44.053688,-111.221523,-38.028831,-89.777527,0.0,9.583479,1.935814,5.7707,2.472919,6.761053,4.191988,6.568083,5.728586,9.14536,0.0,2.093407,14.889993,20.195401,28.796278,37.153346,39.795494,48.533033,47.057978,53.683268,0.0,-14.035863,14.714259,34.524399,20.480072,43.962555,25.506017,45.339378,28.860296,47.831858,49.847374,174.126343,-18.921814,-55.756913
72,-2.866287,2.253643,-0.534191,11.32505,0.0,-58.322239,-46.222,-109.02689,-43.261414,-115.082302,-37.435455,-103.584824,-28.402061,-76.035347,0.0,8.735152,-0.459176,3.599555,-1.490346,3.66217,-0.922119,3.713299,-0.149498,7.058813,0.0,5.773328,17.437362,24.012343,30.330232,39.455216,40.08295,49.07456,46.131471,52.398522,0.0,-15.664204,12.357999,30.82058,18.93615,41.216265,24.942451,43.554979,29.52836,46.995551,46.971931,176.66552,-19.46516,-44.146329
73,-2.545052,-3.612523,-0.534191,11.325051,0.0,-56.740036,-44.103584,-106.798897,-40.241776,-112.898827,-33.304482,-99.920654,-23.253365,-71.531925,0.0,9.763481,0.01871,6.625202,0.35525,6.61631,2.105133,7.956973,4.363469,11.762836,0.0,9.453249,19.984731,27.829284,31.864185,41.757087,40.370407,49.616088,45.204963,51.113777,0.0,-17.292547,10.001737,27.116759,17.392227,38.469974,24.378885,41.77058,30.196422,46.159243,44.389744,172.997855,-20.036487,-32.876421
74,-1.768799,1.703879,-0.534192,11.32505,0.0,-58.242645,-41.488495,-105.404778,-37.262535,-109.780998,-29.609985,-95.256042,-18.636017,-65.346794,0.0,7.769128,-0.890997,4.250281,-1.712833,5.78552,-1.070011,6.888505,0.736003,11.235364,0.0,13.13317,22.532101,31.646227,33.398139,44.058959,40.657864,50.157617,44.278457,49.829032,0.0,-18.920889,7.645477,23.41294,15.848305,35.723684,23.815319,39.986181,30.864486,45.322936,42.415209,174.102106,-20.776415,-22.150998
75,-2.001801,-0.159563,-0.534191,11.325051,0.0,-58.954124,-39.733543,-103.539848,-35.188866,-107.557812,-27.219887,-92.524166,-16.174164,-62.523022,0.0,7.836436,-1.926551,4.084975,-1.950016,7.393315,-0.397858,8.856862,2.139467,12.504891,0.0,16.813091,25.07947,35.463168,34.932092,46.36083,40.94532,50.699145,43.351949,48.544286,0.0,-20.549231,5.289215,19.70912,14.304382,32.977393,23.251753,38.201781,31.532548,44.486629,40.088511,173.130309,-21.635504,-11.638181
76,-1.984634,0.576811,-0.534191,11.32505,0.0,-60.050011,-37.454224,-102.653618,-32.246819,-105.78661,-23.776016,-89.294701,-12.404938,-59.071941,0.0,7.297417,-2.376712,4.227248,-1.815092,8.271159,0.175001,10.015979,3.475437,12.837664,0.0,20.493012,27.626839,39.28011,36.466046,48.662701,41.232777,51.240673,42.425442,47.259541,0.0,-22.177573,2.932954,16.0053,12.76046,30.231103,22.688187,36.417383,32.200612,43.650322,37.494078,172.863486,-22.779493,-1.156765
77,-2.977982,-3.339339,-0.534191,11.325051,0.0,-63.459949,-34.472122,-100.066795,-28.359489,-100.567818,-19.305153,-84.153957,-7.248688,-55.440388,0.0,9.163391,0.592125,8.685998,2.077593,13.135918,4.930585,15.905548,9.216002,18.689874,0.0,24.172932,30.174208,43.097051,37.999999,50.964572,41.520233,51.782201,41.498934,45.974795,0.0,-23.805916,0.576693,12.30148,11.216537,27.484812,22.124621,34.632983,32.868674,42.814014,33.329058,168.332194,-24.500723,8.976333
78,1.769142,-0.490854,-0.534191,11.32505,0.0,-55.531254,-34.407692,-100.638199,-29.350204,-104.19199,-21.74984,-89.033203,-11.499481,-61.095543,0.0,10.941556,0.32598,13.783371,3.150136,17.517419,7.717134,20.486502,14.186601,25.009967,0.0,27.852853,32.721577,46.913992,39.533952,53.266443,41.80769,52.323729,40.572427,44.690049,0.0,-25.434257,-1.779568,8.597661,9.672615,24.738522,21.561055,32.848584,33.536738,41.977707,34.130716,166.585599,-26.002397,19.045642
79,-0.7584,4.934599,-0.534191,11.32505,0.0,-57.0294,-33.017921,-99.809074,-26.791763,-101.482315,-17.199554,-84.98909,-5.163002,-57.793579,0.0,18.6887,-3.104934,17.029529,0.982202,22.34698,7.33811,25.133714,16.162676,30.274745,0.0,31.532774,35.268945,50.730934,41.067905,55.568313,42.095146,52.865257,39.64592,43.405304,0.0,-27.062599,-4.135829,4.893841,8.128693,21.992232,20.99749,31.064186,34.204801,41.1414,32.681093,168.702388,-27.227812,27.552882
80,-2.791672,0.613676,-0.534191,11.325051,0.0,-53.849716,-33.984489,-97.083263,-26.411247,-100.081272,-16.547356,-86.749935,-4.48494,-59.126987,0.0,29.568691,-1.528755,32.533699,4.945096,41.306209,14.421809,45.121397,25.940792,46.880728,0.0,35.212694,37.816314,54.547875,42.601858,57.870184,42.382602,53.406785,38.719412,42.120558,0.0,-28.690941,-6.49209,1.190021,6.58477,19.245941,20.433923,29.279786,34.872864,40.305092,29.616966,165.750301,-28.034458,35.312171
81,-4.750099,0.752861,-0.534192,11.32505,0.0,-66.36097,-32.148743,-90.527344,-23.399849,-92.659378,-11.987114,-80.983372,2.156868,-53.084049,0.0,12.009776,6.136138,45.36,15.230801,59.255448,25.612033,65.667364,36.548155,68.099713,0.0,38.892616,40.363684,58.364818,44.135813,60.172056,42.67006,53.948314,37.792906,40.835813,0.0,-30.319283,-8.848351,-2.513798,5.040848,16.499651,19.870357,27.495387,35.540928,39.468786,24.671288,162.600583,-28.764229,42.734641
82,1.203003,8.764421,-0.534191,11.325051,0.0,-66.132431,-33.97728,-93.894711,-26.868324,-95.642338,-17.148056,-84.901314,-4.583473,-57.915058,0.0,13.312154,11.194547,50.031975,22.803871,66.062382,34.375528,72.145538,45.444289,75.266527,0.0,42.572536,42.911053,62.181759,45.669765,62.473927,42.957516,54.489841,36.866398,39.551067,0.0,-31.947625,-11.204612,-6.217618,3.496926,13.753361,19.306791,25.710988,36.20899,38.632478,26.137075,168.722364,-29.035635,51.417052
83,-1.254959,14.751494,6.268444,19.819937,0.0,-63.698502,-35.923977,-95.112419,-29.743538,-97.485867,-20.772858,-87.850571,-9.343643,-61.973248,0.0,12.428567,13.066449,50.571426,25.904174,65.510086,37.961375,73.790322,48.806599,76.080645,0.0,42.700081,29.959488,65.27504,26.834793,58.964653,18.716927,53.437042,9.377804,27.908478,0.0,-28.019002,-0.651559,13.410028,13.832895,34.772892,27.382911,45.902508,39.498713,55.68436,24.784384,180.641876,-22.864923,68.405007
84,-0.062256,12.56448,-17.441139,55.233335,0.0,-63.715382,-32.850838,-94.796333,-26.843605,-96.124821,-18.232384,-86.732826,-7.796631,-62.278118,0.0,13.554277,13.498887,51.690652,28.471695,68.098416,42.226846,77.233957,53.899156,80.717051,0.0,59.203148,60.57621,72.525558,57.064934,64.93618,47.176666,50.846558,34.578552,37.010078,0.0,-39.030614,-2.492926,25.055971,14.234211,38.271362,30.85452,45.743655,46.581917,54.798304,24.905176,190.877146,-40.123014,121.309132
85,12.292099,18.210443,4.007378,36.680825,0.0,-33.492622,-44.232388,-102.138176,-41.456223,-108.131618,-34.664955,-96.509857,-24.644623,-73.015652,0.0,-20.81557,13.995546,39.288761,28.907344,57.950415,41.972064,69.291619,54.447376,80.389959,0.0,54.552383,54.76244,50.740871,45.429439,35.139656,29.819097,16.855917,11.52091,0.378828,0.0,-2.234299,0.888095,53.581327,10.734846,64.50726,22.853612,72.640406,34.491311,71.457732,37.386732,207.91972,-35.92618,156.822087
86,-10.525703,2.22178,4.007377,36.680826,0.0,-42.276134,-37.10535,-91.81572,-31.220741,-100.136204,-24.004898,-85.959949,-14.452057,-64.691219,0.0,-7.594498,13.993817,48.050589,31.572677,66.196195,47.237954,75.120117,60.093216,91.844846,0.0,49.901619,48.948669,28.956184,33.793945,5.343132,12.461529,-17.134724,-11.536732,-36.252422,0.0,34.562014,4.269115,82.106682,7.235481,90.743157,14.852703,99.537156,22.400703,88.117159,27.115202,209.390445,-31.664629,192.751858
87,-21.742258,32.176595,-18.527756,10.22735,0.0,-34.966135,-20.487184,-39.871072,-17.299633,-43.032131,-15.523996,-38.557405,-13.466406,-34.49192,0.0,20.255093,15.533594,32.61206,19.02768,40.058635,20.050668,37.455948,19.055684,37.483705,0.0,64.032211,32.431183,89.001389,22.546234,85.01976,11.104603,73.555984,-1.162949,48.108673,0.0,-9.797691,14.426255,49.637204,31.571627,65.906523,47.668478,74.874536,60.706521,81.871537,5.135736,240.276966,-50.429592,201.689134
88,-21.742258,32.176596,-4.609165,17.453877,0.0,-27.656136,-3.869019,12.073574,-3.378525,14.071941,-7.043095,8.845139,-12.480755,-4.292622,0.0,48.104682,17.073371,17.173531,6.482682,13.921075,-7.136619,-0.208222,-21.98185,-16.877437,0.0,63.494396,24.765587,82.37772,14.670467,82.433567,4.781456,69.626484,-5.079861,45.189743,0.0,-4.481227,19.655218,57.196937,31.637268,76.276394,42.917277,85.252063,52.869591,86.390123,-17.179899,271.138294,-55.612135,217.827743
89,16.205578,-26.23775,-7.068443,16.833965,0.0,-25.483418,-18.324909,-17.302208,-17.216892,-17.937584,-17.877159,-24.678154,-20.604229,-40.693417,0.0,17.260475,26.097577,28.973973,46.468297,43.285866,61.166809,58.225637,71.120173,74.48841,0.0,64.476185,26.377258,84.206257,16.746655,82.938824,7.871647,69.898281,-0.464001,48.872166,0.0,-2.389185,23.098977,60.237156,36.622008,79.56732,47.555536,87.025658,55.018876,85.246505,-0.848064,243.872122,-62.554321,233.633286
90,-2.041855,51.319409,-3.972988,14.534627,0.0,-49.083309,-48.607407,-0.255547,-48.099518,15.331421,-43.194695,14.431,-34.963531,2.327843,0.0,42.478479,11.50015,41.222414,-0.026182,30.95826,-12.915222,18.82239,-25.725469,3.4558,0.0,62.519073,24.340496,86.219559,15.12949,82.546577,6.453438,70.346832,-2.1171,49.906082,0.0,1.321706,26.087388,58.811586,39.980551,78.597653,50.829728,88.000203,58.035322,88.281415,-2.655888,294.812707,-66.293278,247.789089
91,1.559372,-27.811459,-3.804302,12.1355,0.0,-25.334358,-43.408871,14.643517,-52.104549,18.578224,-53.760338,5.973358,-50.893307,-15.653973,0.0,16.032445,14.950145,48.606158,30.060409,61.755414,43.089252,73.079081,53.399163,78.606545,0.0,66.05135,23.404655,88.392162,14.805508,85.85043,6.493549,73.787899,-2.079906,54.170895,0.0,-1.318063,24.437849,55.112243,40.681542,73.358563,53.065958,84.063182,61.442833,88.415907,-0.428839,266.864177,-69.429903,259.787518
92,22.967262,8.832594,-2.712822,7.927888,0.0,-60.087547,-60.411758,-19.144592,-66.699028,-9.772339,-66.604443,-14.415665,-62.891064,-30.774593,0.0,-0.126403,13.451154,47.650879,32.645714,63.62886,49.440282,68.75155,64.529551,71.365939,0.0,66.653538,24.23315,86.305332,15.158443,86.338978,6.633511,73.868465,-1.69075,53.956432,0.0,0.088921,27.285284,56.029545,43.642659,73.808785,55.655893,82.755,63.496961,87.714669,22.933617,275.770239,-71.747532,267.788874
93,1.838951,5.896053,-2.740631,6.953405,0.0,-63.102093,-59.217968,-21.347694,-64.233456,-13.994751,-63.444843,-18.013687,-58.747673,-31.77412,0.0,4.577558,14.934028,53.01279,29.974947,64.824965,44.000009,71.425961,57.022183,75.36397,0.0,67.563972,24.645309,88.076878,15.563908,87.513371,7.362328,73.076649,0.292912,53.490314,0.0,0.785959,26.568177,55.960385,44.740705,73.35597,57.343162,82.358624,65.115624,85.313505,25.377131,281.793389,-73.8836,274.869377
94,0.327415,1.375243,-0.222874,3.921645,0.0,-63.011169,-53.690701,-19.42131,-56.313972,-12.233505,-53.70369,-15.702667,-47.931862,-27.126732,0.0,5.333445,20.254197,55.185849,35.410712,66.136358,48.852665,72.36327,60.8349,77.740434,0.0,66.487713,26.580677,90.535126,17.282581,89.685287,8.494205,75.243073,0.802631,55.145416,0.0,1.716167,29.95494,57.343409,47.648656,74.178732,59.407231,83.523793,66.310309,86.338438,26.505661,283.243567,-73.305359,278.865957
95,-1.597481,0.844931,1.086845,2.572275,0.0,-55.870342,-40.860443,-24.562454,-40.905647,-14.864616,-37.150269,-16.24958,-30.790329,-34.762516,0.0,7.044363,24.148054,49.742242,38.725474,65.017071,51.615008,72.450091,62.400953,80.728351,0.0,66.498013,26.897507,90.892639,17.22456,90.044632,8.138809,75.826721,0.241814,56.065636,0.0,3.306673,30.278388,60.371217,48.404975,75.23559,60.629951,85.755638,68.12713,87.164041,25.872002,284.118138,-71.254692,281.467872
96,-3.361358,8.628045,0.566883,3.160016,0.0,-52.357607,-47.416678,-16.625233,-51.533432,-10.126133,-50.358925,-12.268525,-45.924769,-32.129431,0.0,11.085527,19.44221,51.88143,31.973561,64.007945,42.393912,67.53377,51.168676,69.228758,0.0,65.359039,26.004181,88.542652,16.856174,88.500309,8.134575,74.961147,0.608482,54.666367,0.0,6.113229,30.845319,62.939663,48.941092,77.624343,61.037812,86.609893,68.120276,88.275548,23.406115,292.818539,-69.792337,284.700244
97,-3.361359,8.628046,0.795593,1.997935,0.0,-48.844872,-53.972912,-8.688011,-62.161217,-5.38765,-63.567581,-8.287468,-61.059208,-29.496346,0.0,15.12669,14.736365,54.020619,25.221647,62.99882,33.172815,62.61745,39.9364,57.729163,0.0,62.914982,26.091728,89.829998,16.196022,89.042759,6.853638,75.919819,-1.358929,56.292858,0.0,7.161381,34.317977,62.936699,51.308109,75.718726,62.204957,85.27349,68.411244,87.209736,20.574417,301.524112,-68.467083,286.775706
98,4.309959,-6.497255,-0.829582,-0.075027,0.0,-53.813667,-46.356812,-14.947701,-50.623283,-10.353699,-50.439377,-18.985634,-48.21682,-71.678696,0.0,2.42006,21.666058,55.453475,37.761303,64.651508,50.684985,71.423861,61.400905,72.020247,0.0,63.490391,27.673874,89.493427,18.009796,89.172421,8.58839,75.52763,0.35923,56.884403,0.0,8.450544,33.816316,61.755229,51.061045,75.77745,62.250837,84.748056,68.618355,86.717524,25.697765,295.068616,-68.483276,286.742438
99,-3.155823,1.216915,0.329075,0.51259,0.0,-44.091225,-44.900951,-9.596558,-51.630821,-5.59433,-53.308697,-15.723953,-51.972542,-52.823582,0.0,5.389885,18.25231,51.162501,35.455852,63.707838,49.327402,70.565963,60.697073,71.173031,0.0,64.282951,26.732025,88.533096,17.267246,88.933411,8.167934,74.80751,0.20977,56.32473,0.0,9.528212,34.187189,62.235708,51.209493,75.670622,62.1952,83.224735,68.513935,85.936628,23.445454,296.334932,-67.25069,287.304428
100,-4.738884,7.759001,-0.322151,-0.262192,0.0,-40.255737,-41.524315,-2.953377,-50.537567,0.429268,-53.868484,-10.193138,-54.283676,-50.495739,0.0,-3.183913,13.626834,44.61035,30.675505,57.345323,43.615119,63.1632,53.951026,62.935711,0.0,64.729214,26.6502,89.454002,16.732063,88.730507,7.395687,73.949776,-0.591717,55.00597,0.0,9.185991,34.338046,62.700936,51.289151,76.236071,62.11369,83.841498,68.125895,85.552232,19.611597,304.129223,-66.667814,287.077526
101,-15.276031,8.289375,-0.542336,-0.043843,0.0,-20.162487,-35.526581,12.58461,-44.349461,17.521591,-46.564751,4.777107,-45.627079,-45.753193,0.0,-9.744092,9.34574,36.391556,25.310382,49.14987,36.931501,55.64237,46.190049,53.757871,0.0,64.676399,27.701855,88.496819,18.12933,88.680611,8.653507,73.863373,0.179501,55.228443,0.0,11.553934,34.728308,62.546066,51.628099,76.410516,62.48518,84.271096,68.712586,86.324235,5.454483,312.424125,-66.091232,287.03921
102,23.893661,-11.276922,-0.829067,0.301774,0.0,-50.973186,-59.173336,-14.775925,-67.043095,-10.115662,-67.682304,-16.131592,-65.119686,-36.164646,0.0,6.734376,15.136076,53.075838,29.037267,63.723399,40.873894,65.607528,50.395993,64.126815,0.0,64.843998,27.668896,88.416195,18.236103,88.437138,8.792038,73.732738,0.265789,54.931641,0.0,13.275598,34.792282,63.289788,51.419198,77.456568,61.972528,84.875818,68.018635,86.33461,30.634718,301.086441,-65.633726,287.280222
103,0.484314,-3.723735,-0.171261,-0.19544,0.0,-48.486214,-55.497952,-14.561691,-62.63998,-9.57653,-63.250523,-16.624947,-60.257664,-50.649719,0.0,6.640578,16.247954,54.20976,33.297798,63.804231,47.474952,69.018065,59.156833,71.678952,0.0,64.776649,27.177372,88.281212,17.646332,88.505287,8.33662,73.774452,0.175323,55.002594,0.0,13.715878,34.685083,63.577421,51.689356,77.884251,62.348959,85.009322,68.190301,86.2221,32.486887,297.388039,-64.437132,287.110115
104,0.72773,0.675982,0.112267,-0.793802,0.0,-52.423382,-53.091145,-15.168228,-60.088062,-12.174339,-60.834446,-21.620522,-58.083172,-49.530315,0.0,2.005036,14.529872,52.783388,31.691114,63.370743,45.639977,69.120509,57.357488,70.620118,0.0,63.968468,27.161179,88.496246,17.313538,88.284531,7.883778,73.624306,-0.252914,54.480515,0.0,12.925349,34.907508,63.318625,52.261844,77.950571,63.24224,85.161228,69.092351,86.504238,34.24015,298.134046,-63.299332,286.386339
105,-2.867432,0.226007,-1.001587,-0.606142,0.0,-51.352272,-50.082893,-13.668365,-55.526333,-9.851303,-54.848442,-17.274055,-50.925465,-44.894829,0.0,2.607843,13.755028,48.504208,30.419056,60.23765,44.396076,66.984439,55.98422,68.624838,0.0,64.013329,26.684647,89.300766,16.387081,87.900696,6.765862,73.318863,-1.356812,53.131256,0.0,12.960115,34.661186,62.712545,52.173479,78.009728,62.830365,85.078297,68.098107,85.051436,32.397137,298.428858,-63.276501,285.849002
106,-2.091751,3.083569,-1.088619,-0.945152,0.0,-46.436806,-40.873146,-16.408539,-44.563751,-12.908592,-43.751564,-17.349014,-40.270901,-32.728844,0.0,4.20156,15.057035,44.346861,28.437238,55.797796,40.09516,61.566952,49.84555,65.285685,0.0,64.239922,27.048054,89.455433,16.719017,87.439556,7.068386,73.455448,-1.126671,54.091358,0.0,12.999635,35.205577,62.452452,52.399856,76.614354,63.080639,84.903358,68.524,85.726306,31.12112,301.507795,-63.549385,284.899219
107,-0.96405,-0.021057,-0.483398,-0.03668,0.0,-48.821983,-60.426865,-11.457825,-68.572655,-6.92894,-69.161453,-12.748604,-66.400852,-32.024403,0.0,8.153524,13.626834,52.42647,25.852366,61.726268,36.232857,62.70285,44.229412,60.243825,0.0,63.937511,26.279411,88.791218,16.025906,86.849728,6.460991,72.826366,-1.559715,53.9641,0.0,12.804936,34.457347,61.822969,51.491569,76.251693,62.210823,84.667595,67.800594,86.005233,31.028395,301.496031,-63.161459,284.871833
108,1.376495,-7.737265,-0.16674,-0.172901,0.0,-49.214516,-53.923187,-13.342323,-60.305614,-8.746147,-60.541821,-16.307831,-57.408772,-45.383949,0.0,6.606183,16.370219,55.639282,33.861085,64.729931,48.558918,70.501063,60.593889,73.553941,0.0,63.572674,25.589848,88.463688,15.386066,86.475048,5.937366,72.323685,-2.135296,53.050861,0.0,12.89645,33.302676,61.850015,50.302071,76.535437,61.014038,84.425472,66.66735,85.664679,33.181086,293.773247,-62.552004,284.713412
109,0.946198,1.543328,-0.233917,-0.615837,0.0,-55.942211,-54.524117,-16.052055,-59.004822,-11.368217,-57.747974,-17.964363,-53.777161,-74.921207,0.0,1.286199,17.786712,52.745967,34.273022,61.334646,47.496132,67.060515,58.515308,71.603616,0.0,65.003872,23.931484,87.681599,13.575382,86.398602,4.302464,72.374382,-3.244801,53.023796,0.0,14.294418,33.589384,61.989263,50.661644,76.985227,61.23387,84.89002,66.558176,86.416738,34.887114,295.321978,-62.026091,284.102978
110,-1.698418,-0.182102,-0.792389,-0.114979,0.0,-52.869301,-52.176361,-13.044777,-58.969688,-9.835968,-59.530849,-17.822113,-56.725273,-52.350597,0.0,-1.106012,16.31415,50.872583,33.982919,61.465125,48.155503,67.844313,59.901913,71.003341,0.0,65.752258,24.65189,88.453388,14.315987,86.24651,5.114479,72.470684,-2.37648,53.152885,0.0,12.324888,33.369058,62.184826,50.302503,76.993995,60.882386,85.376799,66.256154,87.082716,33.706741,295.140787,-62.300434,283.98891
111,-2.480507,4.276834,-0.284557,-0.632633,0.0,-49.942932,-52.248402,-10.684319,-59.766598,-7.517967,-60.374393,-15.519562,-57.278824,-43.620815,0.0,-3.207069,13.365074,44.156114,30.677358,56.91202,44.795416,64.093161,56.447163,68.020672,0.0,65.727997,24.105606,88.387184,13.962307,86.090355,5.088329,72.556915,-2.084255,53.687439,0.0,13.692783,33.727396,62.250961,50.727655,77.770507,61.330941,85.744708,66.691927,87.27618,31.586151,299.407339,-62.225075,283.345995
112,-7.260704,6.723941,-0.569229,-0.052858,0.0,-41.358662,-44.160519,-2.158813,-50.856686,0.637894,-51.466885,-6.409721,-48.945179,-29.429512,0.0,-10.646636,9.748846,33.617357,26.526927,47.384426,39.887555,55.843615,50.673561,58.024454,0.0,65.433426,23.639717,88.0933,13.560677,86.390648,4.901276,73.081913,-1.996593,53.889256,0.0,13.332902,33.160959,62.570828,50.496399,77.688811,61.461111,85.797134,67.069654,87.298039,24.433079,306.103616,-62.686672,283.265473
113,0.906258,-4.215207,0.689106,-0.401007,0.0,-48.231926,-54.31881,-7.00264,-62.128716,-1.34388,-62.988911,-5.280418,-60.606022,-25.534859,0.0,11.407895,14.511038,48.620545,27.447811,57.514704,37.890794,58.343642,46.13398,57.275051,0.0,64.793072,23.947678,87.659855,13.518162,85.488796,4.352989,71.808014,-3.116741,52.229404,0.0,14.199322,34.154338,63.509866,51.081608,78.754932,61.430668,86.321704,66.588248,86.875667,25.342741,301.930168,-61.994162,282.906224
114,3.071709,-1.677203,0.072041,-0.497647,0.0,-43.024006,-53.977146,-9.959564,-60.997696,-4.888344,-60.961704,-12.042046,-56.68808,-51.339569,0.0,14.32838,12.891881,48.786098,27.752796,56.409495,40.248054,61.891759,51.047398,62.794179,0.0,64.747181,24.648514,87.576027,14.351635,85.449486,5.032196,71.835823,-2.787609,52.330341,0.0,14.041179,34.136369,63.733526,50.968234,78.970749,61.401522,87.111615,66.771647,87.863426,28.376684,300.323623,-61.959887,282.479236
115,-3.316727,0.789973,0.119648,0.145978,0.0,-37.239418,-48.108673,-2.328987,-56.355915,0.858421,-58.300037,-9.0905,-56.333084,-47.941303,0.0,-2.458654,14.357527,45.355986,31.297332,56.104757,44.583859,62.058794,54.960028,65.551088,0.0,64.022255,24.44521,87.547588,14.404106,86.037197,5.328312,72.020931,-2.329903,53.050404,0.0,14.632131,33.966123,63.458675,50.824788,78.373623,61.246776,85.945705,66.672476,87.420799,24.772854,301.265517,-62.127342,282.777135
116,-14.054432,6.617606,1.33976,-0.376245,0.0,-19.464569,-37.519627,13.164768,-46.589184,16.366367,-48.816662,3.000126,-47.540874,-35.168724,0.0,-11.355963,9.118498,36.44429,25.825875,49.481717,38.225172,56.721952,47.772095,53.715325,0.0,62.9072,23.835354,86.640759,13.771191,85.074635,4.682407,71.701813,-2.979584,53.207474,0.0,14.747233,33.549061,63.468185,50.6848,77.649846,61.605793,86.077604,67.433241,88.252639,10.358076,307.995231,-61.147928,282.512998
117,14.933681,-12.039725,1.305199,-0.045387,0.0,-38.910885,-55.014668,-6.516609,-64.942131,-2.836761,-67.206745,-8.169708,-65.535851,-26.313286,0.0,-2.103528,13.704578,47.04696,30.622894,62.0696,44.71372,66.421831,56.199173,67.870187,0.0,62.9492,23.863964,85.803738,13.575439,83.835468,4.142132,70.21677,-3.913765,51.627045,0.0,14.252674,33.188191,63.383031,49.973991,78.090374,60.799147,86.060314,66.774426,87.895289,24.796743,296.050402,-60.337744,282.562506
118,-7.310143,5.617497,1.541634,0.457818,0.0,-29.430542,-41.260128,5.576706,-50.824127,7.691689,-53.768806,-5.146294,-53.361511,-30.014591,0.0,-4.751818,12.549907,42.064751,30.70953,55.849851,44.617945,62.803689,55.695537,61.933687,0.0,63.164349,23.029804,84.702816,13.216553,83.977489,4.324265,70.833607,-3.230038,53.090115,0.0,14.138498,32.491153,63.462442,49.481778,76.66079,60.80668,84.648762,67.265959,86.936491,17.111664,301.721806,-59.171047,283.074232
119,-8.719769,9.346048,1.007137,-0.251695,0.0,-17.687416,-35.418491,17.22971,-44.911423,18.210239,-47.332592,5.033855,-46.602859,-37.959251,0.0,-16.779933,6.949577,35.756823,21.105673,47.804761,32.570625,55.041847,41.532771,49.699202,0.0,62.795734,23.218746,84.899597,13.135128,83.587303,3.883553,69.997215,-4.075127,51.498299,0.0,14.545927,32.277496,63.378647,49.006609,77.058524,60.103837,84.849018,66.415779,87.589563,7.875652,311.06858,-58.680153,282.823263
120,22.864208,-12.970859,1.452198,0.428918,0.0,-45.797939,-57.168331,-8.955574,-66.037674,-4.675484,-67.575302,-12.541122,-65.857372,-32.961788,0.0,-1.810275,12.902996,46.910985,30.175574,59.066924,44.949422,63.166287,57.031075,64.818728,0.0,62.822056,22.909584,84.721699,12.894058,83.331127,3.685341,69.836712,-4.27351,51.912918,0.0,13.454118,32.033026,63.154431,48.751148,76.671843,59.844671,84.108878,66.216202,86.781188,30.02861,298.064932,-57.939205,283.219392
