takenoko1/special-research/HandMotion_SimilarSearch_自分用/NewProject/handData/test_key/d4_feature_d2/22.csv
frame,vel_0x_L,vel_0y_L,vel_0x_R,vel_0y_R,posFromWrist_0x_L,posFromWrist_1x_L,posFromWrist_2x_L,posFromWrist_3x_L,posFromWrist_4x_L,posFromWrist_5x_L,posFromWrist_6x_L,posFromWrist_7x_L,posFromWrist_8x_L,posFromWrist_9x_L,posFromWrist_0y_L,posFromWrist_1y_L,posFromWrist_2y_L,posFromWrist_3y_L,posFromWrist_4y_L,posFromWrist_5y_L,posFromWrist_6y_L,posFromWrist_7y_L,posFromWrist_8y_L,posFromWrist_9y_L,posFromWrist_0x_R,posFromWrist_1x_R,posFromWrist_2x_R,posFromWrist_3x_R,posFromWrist_4x_R,posFromWrist_5x_R,posFromWrist_6x_R,posFromWrist_7x_R,posFromWrist_8x_R,posFromWrist_9x_R,posFromWrist_0y_R,posFromWrist_1y_R,posFromWrist_2y_R,posFromWrist_3y_R,posFromWrist_4y_R,posFromWrist_5y_R,posFromWrist_6y_R,posFromWrist_7y_R,posFromWrist_8y_R,posFromWrist_9y_R,posFromBody_0x_L,posFromBody_0y_L,posFromBody_0x_R,posFromBody_0y_R
2,-3.716927,-11.912704,0.304356,0.324622,0.0,-3.78582,-29.999313,19.630051,-37.538452,24.092789,-39.374313,12.815323,-37.719784,-15.102654,0.0,-17.660865,6.434269,30.724535,20.959942,40.841352,33.354794,49.15376,43.361201,54.840479,0.0,66.250477,25.740967,86.785526,16.600971,86.564312,7.028904,73.182392,-2.102108,52.437286,0.0,12.036205,29.398198,58.974175,46.844604,73.866213,59.239023,82.583951,67.11467,87.849779,6.454926,309.108684,-56.87891,279.586059
3,2.06234,-19.062043,-0.598354,0.519444,0.0,-28.618698,-34.150772,14.263344,-46.066647,16.690521,-53.338223,5.722961,-56.892929,-53.233967,0.0,20.60037,13.714643,48.393304,30.942329,61.093943,43.966355,67.069531,54.987692,76.168269,0.0,65.855942,24.206715,88.089638,15.178013,88.06778,6.192513,74.584465,-2.029266,53.357277,0.0,11.745484,28.124102,57.676799,46.004489,72.834117,58.881611,82.185414,67.152029,87.047889,8.128452,290.003076,-57.866077,280.061939
4,-20.878716,9.299859,0.771618,0.488014,0.0,-15.438595,-19.261951,41.197586,-28.557301,44.084244,-32.915726,32.040253,-34.469776,-22.842178,0.0,13.982702,12.682238,48.677726,29.302855,57.928061,41.896173,60.185348,51.479342,57.308334,0.0,65.562344,24.250488,87.353268,15.068264,86.894131,5.734692,73.092785,-2.968254,51.561012,0.0,10.840223,27.862218,57.973078,45.181788,72.85326,57.87014,82.101125,66.179213,86.948038,-12.986469,299.291125,-57.330666,280.538142
5,27.367172,-8.16606,0.471382,0.887786,0.0,-32.981243,-44.281197,9.449043,-57.150192,11.262016,-63.310604,2.517586,-65.461235,-57.152023,0.0,17.612638,13.19631,50.283916,29.17886,60.871333,40.922677,66.154513,51.25772,74.590113,0.0,65.24477,23.105392,86.75806,13.875732,85.463734,4.78632,71.763096,-3.460922,50.421524,0.0,10.086127,27.934281,57.533353,45.271388,72.131274,57.971719,81.524438,66.223921,85.943791,14.232073,291.137323,-57.007914,281.438185
6,-25.746861,5.548645,-0.510578,-0.672771,0.0,-13.747673,-19.866199,37.693005,-30.705528,41.769733,-35.829449,29.390659,-37.635155,-30.016537,0.0,4.951333,15.183747,47.561835,32.974597,58.634363,45.756314,62.486539,54.791141,62.886496,0.0,65.913162,24.284477,87.516403,15.012817,86.348534,5.445442,72.282257,-3.537598,50.530186,0.0,10.370735,29.081542,58.321659,45.804294,72.93687,57.843031,82.585371,65.576962,86.97916,-11.652145,296.694752,-57.655849,280.774199
7,34.482594,-2.808223,0.16571,0.048351,0.0,-39.602394,-51.261978,1.94458,-63.802471,2.469978,-68.248501,-6.242294,-68.999405,-68.896122,0.0,7.460747,12.56096,46.896042,29.674593,59.313864,42.134282,65.156812,52.448515,72.515794,0.0,65.730972,24.105091,86.631775,14.6731,85.277252,5.152473,71.464462,-3.703594,50.22789,0.0,11.051595,29.035352,58.713403,46.259148,72.946441,58.745143,82.881218,66.843771,87.437225,22.797031,293.916647,-57.523556,280.852668
8,-31.435604,1.036975,-0.123253,-0.017661,0.0,2.138386,-22.703247,34.871807,-34.696369,38.630047,-40.480442,24.360409,-43.177586,-16.767025,0.0,-2.509907,15.265443,43.457964,34.11982,59.122932,48.034472,63.978367,57.823086,64.197951,0.0,66.729355,24.512386,87.330437,15.0,85.612793,5.367966,71.625023,-3.591671,50.510445,0.0,10.739385,29.735787,58.408171,46.714866,72.613977,58.813192,82.58179,66.434119,87.483291,-8.647242,294.98513,-57.655478,280.866516
9,-8.733273,10.246802,-0.792217,-0.099603,0.0,20.025673,-15.428925,47.253342,-24.537506,47.461967,-29.605465,31.237793,-31.098404,-11.22139,0.0,-7.836189,10.991573,46.082974,27.69259,51.752959,40.295478,56.776725,49.27195,57.730707,0.0,66.184559,25.587044,87.470798,16.256275,86.204967,6.606674,72.175884,-2.494984,51.172256,0.0,11.425864,29.841257,58.319003,47.023124,72.739948,59.145533,82.676824,66.836608,87.888497,-17.363863,305.283925,-58.431044,280.818906
10,-2.138844,3.106478,-0.187569,0.160675,0.0,15.471096,-13.934498,49.222698,-21.293564,52.228603,-24.287453,39.052219,-23.905792,-3.53754,0.0,6.81953,10.954523,41.736424,24.814527,47.707442,35.922314,53.901688,45.081568,58.269109,0.0,66.21088,25.276737,87.078609,16.282196,86.625538,6.83836,72.273159,-2.202358,50.973473,0.0,11.149654,29.821188,58.074348,46.935006,72.42502,59.18635,81.89846,67.067369,87.354726,-19.469175,308.453744,-58.585081,281.042921
11,37.213383,0.081943,-0.140991,0.291709,0.0,-55.209389,-51.75539,1.201744,-58.974724,7.146606,-58.611889,2.203102,-55.242863,-51.240349,0.0,21.190333,6.714678,42.102419,14.427799,48.180944,19.559443,48.148525,23.718395,48.769858,0.0,65.899487,25.591908,87.273617,16.424904,86.585369,6.693249,72.043819,-2.664585,50.761299,0.0,11.090436,29.574248,57.884342,46.743642,72.391428,58.937989,81.654237,66.771461,86.996203,17.894125,308.559754,-58.576155,281.358697
12,-11.376457,-10.540363,-0.444775,-0.543836,0.0,-15.063801,-34.328556,16.096458,-44.056034,20.679474,-47.660465,8.411522,-47.79562,-19.795876,0.0,-7.6891,15.548939,43.429744,32.489115,56.334222,44.674262,62.856794,53.246948,66.731385,0.0,65.760841,26.051617,87.28775,16.975193,87.049141,7.186031,72.719421,-2.351818,51.221981,0.0,11.51003,30.462034,58.49141,47.522006,72.719385,59.583528,81.810095,67.313939,87.473102,6.627674,298.036233,-58.910923,280.831704
13,16.056747,-1.5642,-0.976868,-0.162774,0.0,-46.377354,-52.106094,0.024719,-62.152748,2.582245,-63.847332,-6.002197,-62.843513,-78.495026,0.0,7.874598,15.007079,46.821509,30.580163,57.316794,41.739635,61.556022,50.948289,70.906454,0.0,67.275581,27.680111,88.626137,18.924065,88.214378,8.73539,73.761406,-1.661797,52.109299,0.0,11.601544,30.326862,58.323202,47.016023,72.987505,58.825604,82.588212,66.506676,87.670394,22.912846,296.532055,-59.659367,280.728951
14,-29.055519,-1.118917,-0.28616,0.162095,0.0,-23.440819,-28.096275,28.035049,-36.781082,34.222298,-39.788589,23.625984,-39.908581,-13.89719,0.0,18.248049,19.006036,47.218008,34.237825,60.849967,45.450032,63.593106,53.288197,65.489152,0.0,66.721058,26.844292,88.726788,18.326111,88.384838,8.595142,74.003277,-1.179085,52.407188,0.0,11.206218,29.321998,58.290228,46.59612,73.114217,58.962381,82.776242,67.024515,87.789943,-5.925093,295.477728,-59.727945,280.955637
15,34.40197,3.416156,-0.337429,-0.427313,0.0,-53.111858,-57.239285,-7.585602,-65.809021,-3.749199,-65.968208,-10.121155,-64.054356,-93.245373,0.0,9.110347,14.209326,48.103015,27.206058,55.121567,36.696356,57.635179,45.465285,68.237972,0.0,66.435242,27.283058,88.681297,18.680019,88.142853,8.827629,73.487549,-1.133194,51.899128,0.0,11.221347,30.574543,58.867409,47.564181,73.469776,59.586678,83.146744,67.245519,88.016999,28.88257,298.937928,-59.659681,280.572367
16,-18.867416,-2.628715,0.142708,0.15944,0.0,-32.178383,-40.587502,15.38372,-49.777851,17.101479,-52.650604,7.486954,-52.388363,-43.378773,0.0,7.515334,17.246026,41.894567,34.436414,57.295923,46.528009,61.347676,55.356774,66.887799,0.0,66.646271,27.212791,88.997498,18.413143,88.433304,8.507938,73.681755,-1.400585,52.136307,0.0,11.372635,30.159333,58.171543,47.280376,73.231172,59.332575,82.99348,66.961715,87.530962,10.369492,296.35639,-59.162636,280.778984
17,-20.172272,13.964485,-0.320034,0.149189,0.0,4.878216,-18.895683,38.199692,-27.915001,36.14994,-32.08849,24.681816,-32.097988,-39.845753,0.0,-20.694663,4.910887,36.566618,20.838479,47.517868,32.773475,52.920597,41.722222,59.229513,0.0,66.953945,26.646481,88.935986,18.295269,88.774967,8.896523,74.271069,-0.55315,52.713146,0.0,11.091733,29.365347,57.263195,46.613657,72.88043,58.878647,82.62483,66.818392,87.492924,-9.490643,310.377531,-59.170532,280.984829
18,-14.857407,6.095136,0.326271,0.100777,0.0,18.40662,-2.458992,51.573601,-11.380978,47.070351,-17.656918,35.195732,-20.509815,-29.5891,0.0,-27.823315,2.085311,31.993629,15.28792,42.902025,25.700954,48.395095,33.111065,50.363821,0.0,66.762142,27.198715,88.55547,18.741875,88.311481,9.130898,73.742352,-0.555553,51.93718,0.0,10.809286,29.605926,58.381865,46.726475,73.133977,58.964666,83.053007,66.806659,87.848668,-23.993311,316.471201,-58.489523,281.084139
19,50.167465,2.828539,-0.804806,-0.008336,0.0,-57.638283,-58.256607,-10.159607,-59.41515,0.504456,-54.301071,0.686989,-46.258392,-47.904625,0.0,25.697804,5.959224,38.483536,3.719227,36.669247,0.209334,30.596032,-3.358543,27.66721,0.0,67.314949,26.829929,89.100494,18.512478,89.144554,9.130611,74.758072,-0.300865,53.133888,0.0,10.709189,29.13193,57.852911,46.324109,72.933535,58.622013,82.493734,66.603439,87.196151,26.447783,319.245755,-59.0207,281.021818
20,-3.083611,15.107732,0.468922,0.889082,0.0,-48.025761,-51.092033,-9.612694,-49.998207,4.969254,-43.2514,5.417175,-33.720188,-8.263435,0.0,33.871398,1.901974,32.024813,-9.939038,22.767994,-22.760337,8.627335,-35.441772,-13.022174,0.0,67.598476,27.52882,88.655949,19.34309,88.494358,9.851074,73.64542,0.1684,52.123489,0.0,9.507587,28.94989,57.163283,45.802565,71.992644,57.982278,81.305903,66.142225,86.632123,23.58161,334.301139,-58.334341,281.858551
21,-3.937454,1.537832,-0.318775,-0.413049,0.0,-42.740135,-46.666317,-4.937439,-45.734367,9.460602,-39.341755,10.466766,-30.320663,-7.758865,0.0,34.5622,3.187495,26.448875,-7.033619,18.846411,-18.325608,8.497474,-29.350835,-7.80871,0.0,67.396202,27.217655,89.179573,19.05447,89.039841,9.742527,74.62532,0.387096,53.197174,0.0,10.640275,29.172068,58.086513,46.353132,72.604467,58.66709,81.612062,66.636413,86.67998,19.838018,335.771138,-58.459253,281.37767
22,-10.827141,-5.235076,0.391731,-0.13301,0.0,-12.8829,-34.886627,11.039658,-35.985661,21.787033,-32.212372,20.78968,-25.806828,3.635216,0.0,31.660301,2.921474,25.683664,-0.883216,22.982948,-4.954174,18.348332,-8.826913,13.583794,0.0,66.897583,27.055149,89.569817,18.736439,88.897247,9.274006,74.350319,-0.309677,52.649288,0.0,10.230067,29.291617,56.743318,46.401236,72.076995,58.515123,81.82084,66.388856,87.150579,9.292517,330.509277,-57.785883,281.217875
23,11.001663,-2.29446,0.443401,0.006916,0.0,-66.907368,-56.433792,-7.2472,-53.643322,7.419777,-45.070438,12.267609,-34.481277,-36.019821,0.0,30.639443,3.575781,34.453704,-4.70464,28.463791,-14.045069,17.813574,-23.138188,7.078635,0.0,66.924992,27.021904,89.594936,18.679733,89.107304,9.288712,74.414349,-0.124397,52.481232,0.0,10.649785,29.242525,56.360836,46.371225,71.843085,58.415951,81.773415,66.170506,86.832565,20.463123,328.205833,-57.173538,281.215807
24,-1.100693,4.068488,0.175323,0.014758,0.0,-52.195702,-50.866756,-7.323189,-48.936939,10.189476,-41.450615,12.18029,-31.341419,-7.304306,0.0,33.715848,4.063486,32.353017,-6.494538,24.782663,-18.118806,11.502064,-29.603209,-7.087774,0.0,66.69817,27.088795,89.618053,18.697701,88.90646,9.094734,74.079723,-0.679951,52.226543,0.0,10.324669,29.315699,56.123282,46.47478,71.567554,58.615405,81.538393,66.589483,87.052767,19.439564,332.268948,-56.921082,281.225193
25,-2.267532,4.872725,-0.959759,-0.56409,0.0,-43.992748,-47.423058,-1.508102,-46.461525,13.624992,-39.36367,16.158142,-29.77026,1.594963,0.0,33.090873,3.814879,26.562681,-7.870955,17.713106,-20.507621,5.419834,-32.566982,-10.78298,0.0,67.505035,26.525288,90.568771,18.102264,89.971733,8.680916,75.007782,-0.776539,53.080101,0.0,9.629112,29.304337,56.05548,46.410066,71.471965,58.675303,81.778417,66.760532,87.426727,17.182589,337.125571,-57.870283,280.645001
26,-8.715134,-9.413665,0.71743,0.022724,0.0,-26.43774,-37.62886,11.049614,-38.505077,20.683365,-34.151974,20.743103,-27.467766,0.535583,0.0,29.373806,4.385082,27.312639,2.95309,23.876538,0.967258,22.251514,-1.067973,21.696687,0.0,67.248573,26.543884,90.029182,17.892036,89.194336,8.12479,74.52713,-1.655502,52.154675,0.0,9.578168,29.228323,55.194556,46.174982,70.907072,58.345309,81.913712,66.262885,87.677187,8.484049,327.711366,-57.136259,280.667185
27,6.891518,-13.19489,-0.192146,-0.578787,0.0,-58.277493,-51.07069,4.700203,-53.415985,13.816681,-49.298973,13.201675,-43.100224,-34.057159,0.0,27.994673,7.773759,36.319863,10.320964,37.635518,10.372896,33.817366,9.973618,36.931933,0.0,67.454681,27.44133,91.112938,18.575821,89.251328,8.584385,74.369774,-1.424732,52.163658,0.0,10.118237,29.804207,55.91401,46.890916,71.492898,59.025737,82.294033,66.843215,88.118455,15.389185,314.514562,-57.314787,280.086484
28,-7.090874,21.033919,0.168743,0.254473,0.0,-37.280388,-40.766544,5.809593,-40.0177,21.876183,-33.682766,24.585686,-25.514946,12.041817,0.0,29.879542,5.605641,26.696247,-4.542546,17.895702,-15.474777,8.386076,-25.487791,-1.693196,0.0,66.991482,27.58358,91.18372,18.734894,89.096889,8.694134,74.282627,-1.367168,52.269402,0.0,10.09539,29.851384,56.027013,46.885112,71.694081,58.955156,82.199555,66.74954,87.920792,8.31233,335.531454,-57.132025,280.32393
29,14.421272,-36.912914,0.246735,-0.069222,0.0,-45.815506,-49.639721,2.174721,-58.783951,5.333633,-59.874229,-1.023903,-58.44017,-72.006798,0.0,13.564528,12.908121,43.477662,26.999256,53.08757,36.66511,57.522485,44.442451,69.052151,0.0,66.931858,27.385597,91.065044,18.504925,89.087963,8.468513,74.610615,-1.562462,52.522717,0.0,10.03543,29.461739,55.715421,46.55413,71.475361,58.755332,81.557289,66.706191,87.694415,22.738724,298.615097,-56.880169,280.251265
30,-24.146461,0.355374,0.371704,0.203282,0.0,-14.999084,-25.371094,27.152023,-35.227947,30.981216,-39.084263,17.93232,-39.531441,-20.350399,0.0,6.291008,13.927558,39.767451,29.759623,55.252972,41.602796,60.478539,50.204382,66.417385,0.0,66.558781,27.362537,90.91959,18.438549,88.831387,8.364658,74.065533,-1.656303,52.215099,0.0,9.812758,28.956868,55.760993,46.270757,71.450846,58.740388,81.894755,66.936582,87.426357,-1.423559,298.945539,-56.524286,280.429616
31,26.672974,-5.636454,0.690308,-0.142149,0.0,-39.461575,-47.735138,0.115929,-60.018024,2.014618,-64.785805,-6.545906,-66.400852,-83.206387,0.0,10.11799,14.356539,46.446252,31.404592,58.444418,43.887191,64.44063,54.334496,77.608474,0.0,66.896839,26.542454,90.037022,17.553406,88.212261,7.531757,73.383579,-2.220898,51.590881,0.0,10.035306,29.131004,56.030657,46.520784,71.781519,58.94577,82.321759,66.923676,87.315762,25.199232,293.272173,-55.884161,280.250555
32,-38.921471,1.704991,0.265732,-0.452384,0.0,-15.636406,-18.132362,37.150612,-25.836582,44.830055,-29.124584,35.656471,-30.198498,2.032928,0.0,23.384264,20.856943,44.195449,33.980202,58.603179,43.452839,61.307785,49.963679,66.234109,0.0,66.625729,27.307777,89.724369,18.288689,88.121166,7.971954,73.099537,-2.263699,51.399593,0.0,10.559382,29.875158,56.974697,47.176327,72.438606,59.402847,82.351523,67.191982,87.667801,-13.815165,294.924383,-55.711355,279.745391
33,34.555779,7.312175,-0.904942,-0.561743,0.0,-48.12212,-46.951618,3.823929,-55.374012,8.803596,-57.165985,3.422699,-56.242847,-56.18288,0.0,22.874699,12.577818,43.21689,22.658511,49.521546,29.04548,51.543192,34.236713,58.160922,0.0,67.025414,27.268524,90.696716,18.244457,88.773766,7.840633,74.083328,-2.6548,51.465569,0.0,10.649353,29.288035,57.256896,46.46348,73.285451,58.798619,82.833546,66.898235,88.231088,20.663595,302.211595,-56.693316,279.158684
34,-24.72805,24.64885,-0.021858,-0.83925,0.0,-52.93705,-38.547764,13.239212,-33.399982,33.432655,-24.508839,39.869041,-13.70636,22.288971,0.0,38.109267,12.853719,38.386773,1.735434,32.382781,-11.238204,22.908415,-23.44552,5.905809,0.0,66.67923,27.057438,89.391632,18.173275,88.724785,7.766476,73.866463,-3.03463,51.113834,0.0,10.312442,29.235177,59.406305,46.089149,75.384903,58.362846,84.759048,66.711811,88.178662,-4.176865,326.86906,-56.827583,278.328049
35,-8.808918,-16.666189,1.451969,-3.393741,0.0,5.733833,-9.853821,39.183025,-17.252769,45.215435,-21.677341,27.87775,-23.654823,-31.037979,0.0,11.720352,7.773018,42.73851,18.451332,52.765233,27.486529,59.087858,36.057918,57.671365,0.0,65.695667,23.446255,85.152569,14.629555,85.780735,5.271664,70.781994,-4.173031,49.233799,0.0,10.263474,29.555291,63.819854,46.306819,82.363255,58.450408,90.456944,67.020995,91.985575,-13.187428,310.136875,-55.577259,274.868312
36,28.501911,4.196929,3.244286,-7.855579,0.0,-73.156471,-48.040524,-8.839588,-46.190414,1.6959,-38.3321,6.237259,-29.841499,-44.076576,0.0,37.3054,4.507039,51.809398,-0.574341,47.559982,-6.348066,40.722235,-10.659541,24.136507,0.0,62.956181,23.878899,76.839237,13.846722,75.112782,2.334652,60.156326,-9.626656,38.258858,0.0,13.59707,29.865772,73.097915,45.482451,92.879597,56.531823,98.160431,64.23389,95.475708,14.675474,314.23508,-52.971983,266.91401
37,-0.692368,-16.398717,2.618637,-12.913061,0.0,-61.030082,-41.656208,-48.466529,-37.297468,-42.333297,-28.737802,-34.320859,-19.079017,-47.443142,0.0,3.830193,16.561368,53.904497,21.358943,60.55196,23.460309,61.491956,25.013579,55.895794,0.0,56.64917,17.885227,63.964062,6.329269,55.19783,-5.040436,36.851578,-15.778198,9.165344,0.0,11.465508,20.093584,67.602375,37.181282,89.484251,51.23654,100.199985,61.256656,99.76588,13.592319,297.687142,-50.744133,253.851729
38,-0.692367,-16.398717,2.903595,-8.359709,0.0,-48.903694,-35.271893,-88.093472,-28.404522,-86.362495,-19.143505,-74.878979,-8.316536,-50.809708,0.0,-29.645014,28.615697,55.999596,43.292226,73.543938,53.268684,82.261676,60.686699,87.65508,0.0,39.422035,24.049759,30.608997,16.535053,11.684647,5.160656,-1.58226,-7.435455,-13.546028,0.0,28.821943,17.995676,68.468054,30.349092,98.445409,42.165404,106.553362,52.818585,101.37559,12.478895,281.140163,-48.261595,245.343757
39,6.51947,-6.68689,-23.892231,-48.834078,0.0,-61.843243,-34.150658,-93.561001,-27.480125,-94.427719,-17.875843,-80.331459,-6.686554,-57.339821,0.0,21.124569,29.469767,57.381941,47.071845,77.878755,59.892774,88.567937,68.459656,91.002076,0.0,58.882771,32.5173,35.513706,25.126305,26.919422,14.90593,15.353222,3.682251,5.634613,0.0,-3.83328,11.419565,22.752248,27.990227,38.347685,43.271478,49.246262,56.238755,59.863999,18.264542,274.569703,-72.88765,196.62611
40,-0.488663,1.571486,0.940819,-16.428635,0.0,-61.35458,-32.510948,-92.22393,-26.341724,-93.909931,-16.959972,-79.763947,-5.59433,-56.85648,0.0,19.542832,28.791747,55.205609,46.437607,74.713429,59.119844,85.751253,67.295784,89.711801,0.0,41.301327,14.99691,26.948605,0.176811,11.383839,-13.662415,-5.148239,-25.706806,-21.947708,0.0,-28.728885,-20.206711,-20.31323,-15.904374,-10.01425,-9.19334,-0.228044,0.167591,9.698581,15.91361,276.839185,-73.809099,180.89547
41,1.898232,-0.079288,-9.363384,-21.011998,0.0,-63.17379,-33.436203,-93.685284,-27.175426,-95.45557,-17.839851,-81.182785,-6.641579,-58.181133,0.0,19.153619,28.438967,54.679064,46.019433,74.33354,58.83005,85.587368,67.280285,89.3103,0.0,36.954575,-0.288219,0.589142,-14.548302,-17.509747,-26.359463,-28.184681,-36.540756,-39.18354,0.0,-49.670241,-42.831136,-73.928643,-40.632759,-67.348303,-33.331823,-55.313271,-21.798513,-27.511785,16.385164,276.77234,-84.599161,159.895915
42,-0.098534,-1.092982,-4.753933,-26.65895,0.0,-64.418564,-33.917542,-93.952274,-27.515888,-95.406532,-18.400326,-81.184673,-7.886925,-58.338947,0.0,19.69974,29.504717,56.229555,47.470012,75.444554,60.401598,85.877718,68.598224,89.770094,0.0,27.187386,-9.407787,-17.742348,-23.192539,-36.728096,-34.70192,-47.574749,-45.037365,-55.901756,0.0,-57.204223,-47.765333,-95.232412,-42.665397,-91.94201,-33.193594,-81.211919,-19.411427,-52.322483,15.984821,276.356713,-89.654903,133.914321
43,0.13607,-0.884081,-6.817188,-16.238691,0.0,-65.038433,-33.83297,-94.317799,-27.511997,-95.5826,-18.314838,-82.111301,-7.533646,-59.314213,0.0,20.493541,28.852571,55.633848,46.525601,75.315989,59.415135,86.337265,67.880375,89.925396,0.0,22.768192,-11.892014,-25.662518,-25.611362,-40.027714,-37.620678,-53.322773,-47.900047,-63.767166,0.0,-60.378935,-46.364618,-98.73755,-43.327269,-98.406815,-35.23673,-85.491902,-22.756293,-62.412284,14.939718,275.43816,-97.653265,117.641158
44,0.200958,-0.625964,-7.026215,-19.833862,0.0,-64.565563,-33.517742,-94.245129,-27.367916,-95.578423,-18.217564,-81.991367,-7.212296,-58.752422,0.0,19.869986,28.368201,55.640394,46.036661,75.00452,58.910449,86.334671,67.310913,90.311151,0.0,24.126263,-13.397484,-27.099781,-29.225063,-44.718075,-42.271099,-58.026752,-52.999935,-66.190109,0.0,-66.455485,-52.666865,-108.810092,-48.604984,-110.192499,-40.112728,-97.010885,-27.185372,-70.196325,12.91214,274.614425,-106.908016,97.609525
45,0.44426,-0.12523,-3.664856,-10.170879,0.0,-64.05962,-33.937626,-94.269333,-27.875004,-96.059418,-18.953075,-82.428818,-8.212509,-59.218712,0.0,18.728653,28.147876,55.969585,46.050678,74.687185,59.065504,85.620589,67.583294,89.464244,0.0,21.714649,-14.459953,-30.485802,-29.591846,-46.94006,-42.173367,-60.31929,-52.970695,-68.289757,0.0,-66.077232,-54.443208,-112.235418,-51.6013,-112.894944,-43.013484,-101.2306,-29.765026,-72.838347,11.535759,273.06662,-112.393513,86.01607
46,1.074486,-0.331414,-0.685329,-7.703765,0.0,-64.285927,-34.076786,-95.024185,-28.181019,-97.259789,-19.373188,-83.434525,-8.670044,-60.226479,0.0,19.230807,28.191965,55.714062,45.853633,74.581962,58.661533,85.972073,67.044522,89.517781,0.0,21.118526,-15.323124,-33.438148,-30.589714,-49.454155,-43.41013,-62.971344,-54.614124,-70.271587,0.0,-66.05846,-56.732759,-115.187984,-53.944975,-116.75595,-45.613733,-106.586089,-32.521534,-78.13153,11.239014,271.984105,-114.450073,77.561204
47,0.892639,0.398352,-0.15873,-5.167398,0.0,-64.775677,-34.376507,-95.696697,-28.368073,-97.73695,-19.751873,-83.774014,-9.463463,-60.666103,0.0,18.112754,27.998069,55.347574,45.45102,74.532747,58.168641,85.71198,66.512974,89.040451,0.0,23.668842,-15.271626,-31.061554,-30.392418,-47.839565,-43.140678,-61.446705,-54.500084,-71.432247,0.0,-65.819425,-56.938295,-116.442752,-54.486032,-120.379402,-46.204931,-108.304819,-32.79444,-79.808116,10.946989,271.866347,-115.793467,71.877696
48,0.36747,-0.648997,0.833244,0.379642,0.0,-64.813557,-34.446831,-95.540028,-28.416195,-97.211266,-19.703751,-83.735962,-9.209862,-60.552521,0.0,18.481775,28.189989,55.687818,45.733899,74.370838,58.52031,85.38884,66.994319,89.724398,0.0,24.578762,-14.2729,-29.079952,-29.735756,-46.389256,-42.993164,-60.348473,-54.695148,-72.3353,0.0,-67.165553,-56.271854,-116.967044,-54.293525,-122.801068,-46.45113,-110.219453,-33.222864,-82.218451,10.285463,270.806586,-115.989218,71.846573
49,-0.125542,-0.60361,0.169258,4.121562,0.0,-64.066315,-34.859505,-95.390797,-28.715286,-97.558651,-19.71096,-83.706551,-8.502045,-59.596539,0.0,18.21242,28.224446,54.860548,45.446018,74.348793,57.893667,85.699321,66.139508,89.551744,0.0,26.371651,-12.682972,-27.359276,-27.994938,-43.701954,-41.204281,-57.529678,-53.263378,-70.784397,0.0,-67.097226,-56.33345,-118.968189,-54.940422,-124.522176,-47.535622,-112.259254,-34.668071,-84.069666,9.150324,270.005174,-116.829557,75.770334
50,0.095901,-1.25588,2.738056,7.399768,0.0,-64.205647,-34.650478,-95.246601,-28.633232,-97.585659,-19.76429,-84.242363,-8.904991,-60.601959,0.0,18.434597,27.912545,54.786015,45.475535,73.577592,58.449235,85.170058,67.209087,89.99857,0.0,25.402908,-13.636379,-27.576256,-29.434032,-45.360889,-42.863445,-58.392105,-54.881229,-71.046181,0.0,-65.777496,-55.325806,-118.609913,-53.452824,-123.658843,-45.82532,-110.607863,-33.093065,-81.673812,8.585443,268.510413,-114.752283,82.93122
51,0.402946,-0.197169,0.360489,12.617585,0.0,-64.414616,-35.341187,-95.33329,-29.690666,-97.194099,-21.230278,-84.048386,-10.595627,-60.76149,0.0,17.728111,27.850856,54.93471,45.312144,73.629586,58.148634,85.506783,66.839016,90.356784,0.0,26.690197,-13.976612,-28.141136,-30.334454,-45.837708,-43.985653,-59.234905,-55.743542,-70.950909,0.0,-63.933937,-55.401852,-116.888528,-53.205977,-122.601584,-45.571156,-108.9155,-33.023163,-81.397077,7.446928,268.152708,-115.933256,95.38827
52,0.108833,-0.510552,-0.618324,14.400011,0.0,-64.738369,-35.245457,-95.850334,-29.410915,-97.548523,-20.942516,-83.997974,-10.519867,-61.142521,0.0,17.996293,27.709633,54.8398,45.443363,73.990517,58.428116,85.435894,67.232737,89.863399,0.0,27.608242,-13.952923,-31.043186,-30.277748,-47.740631,-43.970318,-61.025677,-55.962238,-73.367672,0.0,-59.499393,-54.842023,-113.766427,-51.550325,-117.407448,-43.435302,-104.672598,-30.703725,-77.420999,6.716681,267.974234,-117.390661,110.120359
53,-0.45948,-0.052611,-1.977425,12.598875,0.0,-64.192257,-35.547581,-95.379925,-29.637852,-97.481804,-21.161156,-84.50449,-10.677681,-61.578083,0.0,17.968876,27.561061,55.350105,45.106576,74.141003,58.090527,85.49536,67.067678,89.826966,0.0,27.047424,-13.424892,-32.414246,-29.758987,-50.452194,-43.438683,-63.265686,-55.644722,-75.796337,0.0,-55.487129,-51.303477,-107.381651,-47.546273,-111.635575,-39.201508,-98.871981,-26.545267,-72.218805,5.538883,268.36973,-120.086403,123.167341
54,0.560532,0.291338,-1.442871,8.320004,0.0,-65.004845,-35.059261,-95.121002,-29.352493,-97.401295,-21.052036,-84.561539,-10.884476,-61.717129,0.0,17.978509,27.553837,54.78336,45.052607,73.49639,57.996172,84.81345,66.939484,89.737119,0.0,26.094704,-13.678322,-33.263512,-30.145111,-51.616173,-43.765297,-63.639851,-55.678596,-75.578556,0.0,-53.505126,-48.841859,-102.302093,-46.086772,-109.146385,-38.599719,-96.09207,-26.690813,-70.70274,5.943518,269.246894,-121.685171,132.073171
55,0.583649,0.220696,-2.270622,5.192036,0.0,-64.615345,-34.624443,-95.120373,-29.010658,-97.451191,-20.618134,-84.129238,-10.312271,-60.978127,0.0,17.747007,26.974,54.428974,44.24911,73.456314,57.018663,84.702978,65.786789,89.290231,0.0,27.954483,-12.341022,-32.466373,-29.019184,-49.622726,-42.919407,-62.588139,-55.243149,-74.734955,0.0,-52.736334,-48.086651,-100.391906,-46.306109,-108.157421,-39.06859,-96.246508,-26.916634,-69.770586,6.180582,270.338966,-124.302378,138.136582
56,0.834732,0.420644,0.646648,0.463313,0.0,-64.570885,-33.676758,-94.800568,-28.275661,-96.930714,-20.181656,-83.723259,-10.184784,-60.442657,0.0,17.949672,27.103306,53.844198,44.363781,73.159727,57.059542,84.796345,65.529228,89.018159,0.0,26.775055,-12.859325,-33.677959,-29.90696,-51.507854,-44.1152,-64.105053,-56.372852,-74.679737,0.0,-52.914484,-47.329591,-100.918143,-45.389023,-106.268507,-38.371181,-94.927488,-26.809003,-70.14958,6.967878,271.400641,-123.703165,139.240927
57,0.590515,0.307826,-0.301495,-0.404095,0.0,-64.046688,-33.702106,-94.690533,-28.427925,-97.187576,-20.331001,-83.760853,-10.201035,-60.166626,0.0,17.307961,27.245332,54.542595,44.552675,73.415003,57.344088,84.628631,65.932582,88.677605,0.0,25.889568,-13.001976,-33.033257,-30.065403,-50.839405,-44.337444,-64.510574,-56.512814,-73.839283,0.0,-52.052973,-47.134861,-99.520762,-45.136062,-105.4484,-38.188678,-94.645134,-27.065669,-70.5073,7.493963,272.171533,-124.06909,139.299898
58,0.472984,0.169381,-0.721321,-0.920575,0.0,-63.721848,-33.697014,-94.206047,-28.37431,-96.737309,-20.267773,-83.393898,-10.059929,-59.91806,0.0,17.541748,27.180741,54.324184,44.452887,73.344422,57.334949,84.779487,66.166431,88.817285,0.0,26.48489,-12.750092,-32.901077,-29.827538,-50.649776,-44.096661,-64.533577,-56.205883,-73.494015,0.0,-52.556949,-46.965727,-99.304326,-44.744596,-105.345616,-37.607946,-94.44565,-26.394411,-69.849102,7.899485,272.616167,-124.857874,138.654576
59,0.521049,-0.247249,-0.251598,-1.130959,0.0,-63.550529,-34.140873,-94.275513,-28.505802,-97.187862,-20.120831,-83.907738,-9.74144,-60.616093,0.0,18.049337,27.782992,54.433235,45.078974,73.451745,57.907066,84.97431,66.623507,89.034955,0.0,25.859642,-12.988472,-33.345566,-30.193348,-51.422596,-44.52055,-64.591885,-56.672745,-73.629742,0.0,-52.382072,-46.858189,-98.119151,-44.349146,-104.413556,-36.927456,-93.445633,-25.480103,-68.993488,8.374243,272.641654,-125.155764,137.796353
60,0.270882,-0.038718,-0.878277,-0.592619,0.0,-63.927841,-34.671192,-94.152775,-28.879509,-97.164688,-20.237732,-83.829861,-9.616699,-60.67606,0.0,17.768249,27.671039,54.719695,45.160608,73.536713,58.126651,85.260955,66.94708,89.806773,0.0,25.603752,-13.128891,-34.229164,-30.336571,-52.203884,-44.790688,-64.588509,-57.111397,-74.539204,0.0,-51.99536,-46.163002,-97.835655,-43.363671,-103.614474,-35.71931,-92.222264,-24.226323,-68.020086,8.624268,272.914236,-126.054897,137.515034
61,0.084229,0.653011,-2.29517,-0.266947,0.0,-64.780941,-33.932476,-95.580139,-28.101997,-97.829876,-19.496613,-83.085537,-9.130669,-59.576569,0.0,17.987092,27.218902,55.313179,44.394718,74.353918,57.070719,86.14343,65.583075,89.145488,0.0,26.422691,-13.157158,-34.356995,-30.202847,-51.685066,-44.470768,-63.926983,-56.657753,-74.754066,0.0,-52.192313,-46.866062,-97.849116,-44.479038,-103.707038,-37.148616,-92.628026,-25.851162,-68.465244,8.723688,273.739036,-128.334875,137.419876
62,0.073013,-0.535006,-1.079922,-0.326598,0.0,-64.672508,-34.265614,-95.400009,-28.363094,-98.044853,-19.678574,-83.842621,-9.275894,-60.891037,0.0,18.293745,27.795528,55.690782,45.225384,74.435737,58.169135,86.314726,66.876993,89.89483,0.0,27.083988,-13.351078,-34.406147,-30.284271,-51.399651,-44.299393,-63.775291,-56.229286,-74.294243,0.0,-52.841495,-47.111211,-98.440099,-44.738544,-103.972874,-37.226514,-92.441077,-25.431568,-67.941107,8.950024,273.22271,-129.261475,137.111958
63,0.063171,0.428177,0.059338,-0.923045,0.0,-64.336567,-34.45364,-95.251408,-28.555241,-97.423096,-19.956207,-83.217087,-9.72805,-60.314026,0.0,17.876991,27.509376,55.436865,44.732245,74.352436,57.597759,86.347824,66.277705,89.735266,0.0,27.018471,-13.70739,-34.630108,-30.651569,-51.630192,-44.845791,-64.700489,-56.823406,-74.296875,0.0,-53.54477,-46.383266,-97.998398,-43.999886,-103.118495,-36.663628,-92.212539,-25.214052,-68.404235,9.18251,273.692523,-129.032822,136.230548
64,-0.14843,0.220696,-0.063972,-0.755331,0.0,-64.315853,-34.021511,-94.76675,-28.158989,-97.308483,-19.664841,-82.868557,-9.618645,-60.225391,0.0,17.842349,27.296584,55.185602,44.434485,74.284264,57.337419,86.254951,66.146547,89.706306,0.0,26.76384,-13.315487,-33.833027,-30.344353,-50.992413,-44.639683,-64.704552,-56.761379,-73.839798,0.0,-53.511456,-46.843986,-98.011767,-44.552675,-103.567019,-37.28811,-92.352434,-25.894294,-68.324917,9.077597,273.915241,-129.053278,135.477239
65,0.542564,0.173827,0.207138,-0.587864,0.0,-64.495468,-34.28215,-95.239735,-28.52932,-97.448845,-20.117455,-83.789635,-9.987373,-60.613976,0.0,17.703226,26.984683,55.205054,44.251827,74.050291,57.239977,85.875742,66.267084,89.679012,0.0,27.48682,-13.160706,-33.674126,-29.950047,-50.706253,-43.930035,-64.093609,-55.658112,-73.140793,0.0,-53.786708,-47.050232,-98.015132,-44.733944,-102.976469,-37.397779,-92.032382,-25.791912,-67.391621,9.629688,274.07502,-128.836613,134.875327
66,-0.415993,-0.4953,0.538845,-0.841411,0.0,-64.280205,-33.51757,-95.074997,-27.636452,-96.989651,-19.163933,-83.44883,-9.054565,-60.21698,0.0,18.095958,26.578365,55.56617,44.11894,74.330453,57.435108,86.429088,66.647652,90.425945,0.0,27.6297,-12.563896,-33.840408,-29.390774,-50.623055,-43.342667,-63.914337,-55.075321,-72.728233,0.0,-52.825965,-47.009662,-98.518645,-44.507659,-103.353795,-37.100018,-91.707575,-25.580602,-66.894684,9.229403,273.531153,-128.282061,133.985349
67,-0.6213,-0.01235,1.300335,-0.785465,0.0,-63.567066,-32.66058,-94.39539,-26.703815,-95.911846,-18.166809,-82.601738,-8.01075,-59.470196,0.0,18.577179,26.399474,55.575618,43.780425,74.566586,57.028667,86.435263,66.191069,90.144301,0.0,27.738762,-12.286377,-33.367596,-29.321651,-49.594173,-43.457336,-63.236446,-55.200062,-71.720352,0.0,-55.558081,-47.073605,-98.739804,-44.719926,-103.000428,-37.469008,-91.601796,-25.988278,-67.486037,8.758736,273.415742,-126.831093,133.096823
68,0.735283,0.098554,3.494854,-1.704003,0.0,-64.022484,-32.696056,-94.181671,-26.658096,-95.925121,-18.002701,-81.992512,-7.807159,-59.192963,0.0,18.453308,26.340997,54.656648,43.545279,73.804092,56.682864,86.346713,65.834646,90.231802,0.0,26.217384,-13.466721,-33.336525,-30.15152,-49.759312,-43.926086,-63.358898,-55.34935,-71.82478,0.0,-55.538598,-46.79403,-97.199625,-44.007388,-101.004346,-36.233413,-89.600033,-24.111498,-64.836945,9.494505,273.372486,-123.335752,131.25101
69,1.009827,0.328142,1.775951,-0.32314,0.0,-64.223785,-33.008137,-94.313507,-26.859741,-95.830994,-18.206062,-82.52346,-7.913704,-59.403076,0.0,18.29109,26.466288,54.088421,43.870395,72.923408,57.044598,85.364696,66.278878,89.863769,0.0,28.430386,-12.681599,-32.1064,-28.901653,-48.848934,-42.408829,-60.485458,-53.884621,-70.039902,0.0,-56.655602,-46.549931,-96.528368,-43.700983,-99.11784,-35.772755,-88.515078,-23.494673,-63.827541,10.711813,273.203212,-121.35232,130.430455
70,0.473442,0.272813,4.488029,0.933851,0.0,-63.575878,-32.079163,-93.634415,-25.930138,-95.167065,-17.408295,-82.137451,-7.50721,-59.508934,0.0,17.398179,25.725469,52.486739,43.14316,71.396814,56.411471,84.336613,65.777589,89.219157,0.0,27.084732,-13.842773,-32.745438,-30.153236,-49.513779,-43.528233,-61.64732,-54.848843,-71.515045,0.0,-56.961204,-46.403582,-94.715746,-43.245018,-96.971921,-34.933814,-85.977785,-22.286743,-61.318622,11.48489,273.22288,-116.564655,131.111161
71,2.032814,-0.262625,3.459778,3.741828,0.0,-65.861435,-33.797321,-94.332218,-27.220402,-96.626759,-18.118057,-84.163456,-7.605286,-61.848221,0.0,17.178594,25.995935,51.497744,43.665816,68.419209,57.183846,81.945699,66.545702,88.821731,0.0,27.732811,-12.195911,-29.514828,-28.164196,-45.103912,-41.45153,-58.514614,-52.612553,-68.525162,0.0,-58.317923,-45.289574,-93.332135,-42.067159,-94.933972,-33.80974,-84.273782,-20.97044,-59.212408,14.060183,272.625259,-112.562399,134.517993
72,3.122177,-0.321411,4.653225,4.643446,0.0,-67.696438,-34.810696,-97.064838,-28.775368,-98.205414,-20.231895,-86.605682,-10.337219,-64.000282,0.0,17.464684,25.870891,50.333193,43.949065,66.989008,57.619124,81.253786,66.962332,88.561762,0.0,27.930222,-11.653175,-26.807842,-26.910038,-41.258583,-39.778404,-54.921284,-50.501575,-65.446186,0.0,-58.209983,-45.433329,-91.796495,-41.711045,-93.077724,-32.917786,-81.643523,-19.705236,-56.586657,17.719803,272.167581,-107.371731,139.025171
73,1.307373,-0.519815,5.066643,6.425501,0.0,-66.900558,-33.222256,-96.775589,-27.436981,-97.575073,-19.362717,-85.552883,-10.184097,-63.296242,0.0,17.388484,25.714168,49.809797,43.985189,65.16663,57.629498,78.855523,66.718788,87.678175,0.0,28.149948,-10.548592,-21.578693,-25.138206,-36.382942,-37.562199,-49.001255,-48.137398,-60.745125,0.0,-57.397378,-43.124357,-89.241294,-39.014435,-89.070338,-30.328406,-78.914587,-17.283693,-55.166521,19.389324,271.67296,-101.94294,145.475866
74,2.52903,-0.671968,4.192486,8.581455,0.0,-67.559853,-32.938328,-97.25172,-27.278252,-97.678413,-19.480133,-85.868969,-10.698395,-63.833141,0.0,16.500513,24.856208,48.738859,43.367376,63.994731,57.238989,77.5939,66.52446,86.396545,0.0,29.729519,-6.754417,-11.261559,-21.486511,-26.234379,-34.357681,-40.365314,-45.465889,-55.218773,0.0,-53.899866,-41.81142,-82.737432,-37.24192,-79.562257,-27.770148,-70.826364,-14.228592,-47.714482,21.917009,271.045344,-97.751799,154.101673
75,2.582588,-2.041345,3.310032,10.184681,0.0,-68.233681,-33.408279,-98.090515,-27.844963,-99.380722,-20.18898,-88.012619,-11.80687,-66.126022,0.0,16.301368,25.315508,48.516064,44.176986,62.932006,58.203715,75.920526,67.350557,85.405636,0.0,30.4953,-3.903122,3.152618,-18.866272,-13.557301,-31.661282,-26.790104,-42.934227,-38.649845,0.0,-47.822051,-42.249755,-61.801572,-39.450671,-51.55156,-31.513891,-43.7732,-21.104624,-29.715904,24.429073,268.933912,-94.512291,164.216267
76,1.319504,-1.735557,4.052639,3.662046,0.0,-68.218861,-33.60363,-97.738037,-28.325386,-99.235611,-20.768509,-87.968788,-12.132683,-65.51033,0.0,16.021391,25.310259,47.410608,44.097513,62.093868,57.957578,76.025996,66.925591,85.460903,0.0,28.423004,-2.179642,9.152012,-15.721436,-3.921661,-28.037224,-15.742092,-37.484894,-26.402664,0.0,-38.786484,-36.250394,-27.254656,-30.768254,-17.552369,-21.039168,-6.16405,-9.204702,3.063685,25.675192,267.171046,-90.533037,167.851004
77,1.525955,-1.560062,-1.109733,7.951107,0.0,-67.935963,-32.982101,-97.887211,-27.720451,-99.549465,-20.28019,-87.943611,-12.002907,-66.088428,0.0,15.364552,25.149152,47.273337,43.787958,62.149999,57.623261,76.269972,66.47154,84.800668,0.0,41.287994,8.280172,27.13686,-4.953118,14.447965,-18.339787,2.111463,-29.640713,-13.111124,0.0,-24.329508,-20.945987,-0.9345,-13.17303,9.376553,-2.068454,18.407304,10.559289,26.457921,27.196341,265.519886,-91.647577,175.711014
78,0.177612,-0.440095,-1.109734,7.951106,0.0,-68.305092,-33.21064,-98.326321,-27.965584,-100.671902,-20.838089,-88.958187,-12.976456,-67.049446,0.0,14.080082,25.378864,46.402903,43.805248,61.614808,57.565463,76.378158,66.396328,84.81203,0.0,54.152985,18.739986,45.121708,5.815201,32.817593,-8.642349,19.965019,-21.796532,0.180416,0.0,-9.872532,-5.641579,25.385656,4.422194,36.305475,16.902261,42.978657,30.323281,49.852157,27.207813,264.772706,-92.92345,183.355035
79,1.000443,-1.795949,1.12793,17.402748,0.0,-68.483677,-34.269447,-98.431892,-29.49955,-101.269913,-22.384644,-90.294399,-14.056778,-68.479214,0.0,14.554943,26.559593,47.42481,44.712115,61.484576,58.131591,76.659493,66.659384,84.999566,0.0,60.013905,10.365429,61.705513,-3.153477,54.014854,-15.950489,40.350952,-26.061401,16.938801,0.0,-8.40244,-9.209889,28.78057,-0.224339,42.847932,10.646265,50.42341,23.978673,53.147777,28.045549,262.785455,-91.958227,200.566481
80,0.543251,-0.038965,8.011093,15.836881,0.0,-51.71957,-36.133232,-97.259903,-32.329102,-103.528004,-25.619087,-91.763706,-16.770287,-69.180565,0.0,7.748565,27.557356,44.139812,43.775176,62.034649,56.086417,75.466352,64.760621,84.914103,0.0,60.569859,44.122353,57.847881,32.664299,46.116371,16.758671,32.921162,-1.298904,18.962746,0.0,-0.936383,17.3686,52.506067,32.06032,64.630698,44.773556,67.072433,54.828438,64.163001,29.197855,262.523,-83.338079,216.179871
81,1.228409,25.262155,3.917999,11.418886,0.0,-60.312138,-36.298141,-103.734341,-33.988953,-108.503036,-28.836365,-90.555153,-22.693748,-66.754417,0.0,24.228453,17.552246,28.47046,17.494941,4.723351,16.74523,16.343358,14.879565,32.81596,0.0,64.11272,17.890491,72.50267,5.68079,67.320499,-5.057774,54.676208,-14.573936,35.382786,0.0,0.824986,6.053393,51.10495,20.464025,67.436143,35.235094,74.555533,49.135235,76.099787,30.698318,287.740139,-79.148026,227.553742
82,-9.059258,-24.587532,8.781223,12.078998,0.0,-59.410801,-25.220833,-80.064812,-24.154015,-92.679062,-20.021553,-90.055962,-13.474617,-67.299328,0.0,-2.011087,32.21871,-1.43403,44.992709,15.638168,54.658748,46.765687,60.466621,78.407709,0.0,62.072697,35.597591,74.856091,23.879871,69.664135,9.90406,56.66256,-4.608192,41.355114,0.0,7.632351,23.133125,59.535486,40.744651,75.094861,55.428899,83.630929,66.680565,87.462234,22.214041,263.019149,-69.791822,239.499282
83,0.2742,0.504069,1.307716,9.934653,0.0,-62.822456,-20.877914,-87.62455,-20.102005,-92.33717,-18.706398,-87.268524,-16.699905,-72.804451,0.0,-7.929309,36.23718,18.737422,51.386902,35.05151,60.75339,56.13767,65.037263,83.927208,0.0,71.198902,20.482922,78.768711,8.499527,75.140018,-1.291065,60.804005,-9.604454,39.495506,0.0,11.597901,20.215479,58.655975,38.097349,77.65843,52.94116,84.107519,63.732847,85.46399,22.948923,263.678505,-68.023424,249.589222
84,0.70507,3.278515,-0.1367,9.773793,0.0,-55.278797,-41.528492,-42.59903,-35.572243,-26.447182,-27.640572,-19.490204,-18.40519,-19.913864,0.0,2.541153,24.771363,58.380569,35.81104,69.358186,44.126968,67.98424,49.862284,67.410331,0.0,69.164658,25.471973,82.955933,13.326359,80.284653,2.053356,65.555763,-8.834782,44.279137,0.0,2.663542,23.437184,59.458113,38.618955,78.094326,50.904261,86.308057,59.653738,88.329765,23.910942,267.182887,-67.903175,259.588883
85,3.362045,3.389665,0.069408,8.668708,0.0,-52.52821,-43.106976,-27.150764,-38.888969,-14.512711,-31.709518,-12.325287,-22.445526,-15.411758,0.0,7.828655,22.999991,59.255201,32.591435,72.726424,40.456462,75.950969,45.563282,73.070374,0.0,70.448513,28.470154,87.78677,17.83556,86.210117,7.635498,72.209415,-2.545853,51.100674,0.0,-2.464088,25.814266,55.751236,41.767238,78.084384,54.18506,86.595134,63.097003,88.856805,27.692585,270.385248,-67.414169,268.070286
86,3.576851,1.780326,2.142849,6.010353,0.0,-52.955704,-39.643421,-26.059685,-37.081833,-15.488205,-31.249352,-12.347832,-23.065453,-15.038109,0.0,6.30799,23.197654,52.267031,35.382183,67.266762,45.437497,72.307633,52.226275,75.062072,0.0,67.639046,28.20694,89.539948,18.510075,88.544884,9.429245,74.612274,1.014805,56.041088,0.0,-3.411896,29.908627,57.322413,46.020297,73.521276,57.792272,83.089564,65.593881,86.1593,31.404991,272.336839,-65.135765,274.251904
87,-16.927872,5.973457,-0.255432,2.526271,0.0,-31.933994,-29.842586,-2.088032,-32.534208,4.542103,-33.588581,1.848106,-32.791815,-9.477425,0.0,1.756182,16.577361,43.793269,31.921011,60.692103,45.098271,67.559891,55.947479,71.760679,0.0,66.677399,28.826351,92.205048,20.262852,91.064301,11.997528,77.944221,4.713707,60.571518,0.0,0.888897,33.96143,59.576983,50.783292,69.672311,61.916397,78.18689,68.482195,83.450618,14.683914,278.442719,-65.184402,276.910599
88,-16.927872,5.973457,-0.442543,0.243852,0.0,-10.912285,-20.041752,21.883621,-27.986584,24.572411,-35.927811,16.044044,-42.518177,-3.91674,0.0,-2.795626,9.957069,35.319507,28.459839,54.117444,44.759045,62.812149,59.668682,68.459285,0.0,66.772728,28.027439,93.598824,19.556351,91.956596,11.50486,78.266487,4.462051,59.567757,0.0,0.203591,32.465217,55.287429,49.460536,66.94004,60.72128,77.325286,67.67382,83.324462,-1.798925,284.299113,-65.181913,277.037388
89,-6.892834,14.28003,-0.39711,-0.90841,0.0,-0.027351,-20.619907,27.773037,-30.196152,30.981274,-33.649349,18.895741,-33.746223,-5.817318,0.0,-14.894014,8.842165,30.781716,24.990206,43.048682,37.608224,49.44516,46.980207,50.306517,0.0,67.196732,28.613377,93.229294,20.235672,92.528114,11.982193,78.292923,4.776821,60.397224,0.0,1.485777,32.326341,55.685287,49.439912,67.477824,60.892081,76.3006,67.741622,82.284956,-8.377676,298.667724,-65.26494,276.217559
90,-13.5355,13.529083,-0.185108,-0.340924,0.0,15.552921,-4.437847,44.024906,-12.438698,43.156185,-17.372189,27.097721,-20.182743,-19.818478,0.0,-29.935179,1.715735,13.91175,15.863866,26.339206,27.247308,32.95848,36.132266,35.836481,0.0,68.622723,27.114773,94.21114,18.43792,92.148457,10.727921,78.525181,4.742718,61.688976,0.0,1.916115,31.743232,55.407904,50.060318,66.490744,62.112208,75.203171,68.801074,79.474139,-21.530027,312.353267,-65.0669,276.033095
91,9.70459,-36.102749,-1.025791,-0.802879,0.0,2.608166,-9.826927,35.16798,-18.691292,35.195446,-27.624035,26.633778,-35.72113,9.218731,0.0,4.823139,11.848052,40.027482,31.25318,57.178164,48.310558,65.944747,62.798502,70.974009,0.0,68.623581,28.089924,94.643669,19.496212,92.659035,11.824722,79.93309,5.757465,62.489204,0.0,3.80963,32.874129,55.314599,51.154968,66.148153,63.004316,75.646478,69.281924,80.016431,-11.424294,276.390166,-65.691547,275.369864
92,-1.470337,13.985172,-0.40575,0.46566,0.0,14.192677,-11.929207,28.983936,-19.453869,34.284496,-23.281059,16.817951,-25.331841,-9.379063,0.0,12.299571,9.945954,25.239061,28.455763,42.433772,43.836741,48.118268,56.222268,52.862366,0.0,68.80022,27.613506,95.552502,19.105053,93.485012,11.808071,80.417233,6.185818,63.182201,0.0,3.443203,32.100149,53.940035,50.532153,64.778405,62.50809,74.785615,68.852821,80.022544,-12.619658,290.3126,-65.822325,275.772786
93,-8.440018,18.602991,1.178856,0.326968,0.0,12.763767,-3.302765,40.134945,-10.357933,45.73328,-14.62841,29.999485,-17.803516,2.808552,0.0,-16.424189,-0.247681,9.28226,15.665771,26.791157,29.440744,33.977114,40.647209,34.032258,0.0,68.513317,27.017212,93.149586,18.376808,91.235676,10.579262,78.176136,4.237003,60.754223,0.0,4.698589,32.465094,54.761624,50.647256,65.644825,62.517537,75.318768,69.054683,80.536493,-20.823612,308.795656,-64.407406,275.97982
94,2.901478,-31.339816,0.860081,0.294488,0.0,9.145088,-3.800354,40.831718,-12.152653,38.886223,-21.099415,30.910492,-29.410343,13.848152,0.0,-1.927724,11.29378,38.161693,30.858039,55.637368,48.027618,65.727077,62.600406,69.909309,0.0,68.889427,25.126991,92.972717,16.208382,90.445862,9.000835,77.882767,3.663254,61.137543,0.0,4.985234,31.697536,54.663194,50.232602,64.640331,62.334262,73.690163,68.841953,77.607918,-17.706442,277.42447,-63.331633,276.242938
95,-3.525124,-1.26187,-0.321121,-0.194823,0.0,18.043213,1.702309,45.086288,-7.051735,41.650085,-16.930676,31.89846,-26.039772,13.720894,0.0,-2.638348,11.301746,38.437408,31.2454,56.407149,48.739724,66.230651,63.440706,70.79481,0.0,68.812637,26.312542,93.177681,16.846962,90.322609,8.756161,76.893425,2.512093,59.161148,0.0,5.654485,31.995852,54.490107,50.238283,64.480336,61.976665,73.771982,68.218088,78.027512,-20.927353,276.123513,-63.348541,276.009027
96,2.300549,-0.566931,0.616665,0.061009,0.0,14.356499,-0.549088,41.412678,-9.869099,38.439045,-19.351902,29.704571,-27.894745,12.501011,0.0,-0.812018,12.259803,37.975454,33.09254,55.153739,50.992687,65.504652,65.468651,70.148777,0.0,68.983212,26.387558,92.500019,17.052898,89.818897,8.886395,76.226406,2.421055,58.702641,0.0,6.202088,31.901621,54.431444,50.198268,65.240916,62.018224,74.361699,68.289781,78.549488,-18.289661,275.465994,-62.394733,275.979449
97,13.81422,2.155213,0.783348,0.693828,0.0,-6.271534,-14.579029,26.133957,-23.097095,25.406113,-31.682339,16.486473,-39.144745,0.837135,0.0,4.523218,14.867338,43.383678,33.27106,58.292945,48.933867,65.947526,61.830626,70.567877,0.0,69.2383,25.969391,91.400127,17.241096,90.031414,9.457111,76.847935,3.235188,60.006351,0.0,5.299729,31.18686,53.52464,49.576751,64.370729,61.773692,73.515471,68.551108,78.677558,-4.17841,277.39446,-61.314354,276.446529
98,-4.83284,18.938604,-0.325069,-0.124118,0.0,11.668053,-18.622856,27.688637,-25.661087,35.163689,-28.748474,21.108627,-29.882298,-2.05164,0.0,12.429926,8.533042,27.336722,23.93693,37.839479,37.030055,43.238688,48.134878,47.44383,0.0,69.144859,26.466751,91.732635,17.736511,89.920006,9.805984,76.828995,3.299904,59.817238,0.0,5.730129,31.347782,53.183592,49.392055,63.615398,61.401028,73.834227,68.120461,80.411016,-8.848715,296.151966,-61.476889,276.141312
99,0.74192,-19.795391,0.196781,0.192847,0.0,2.784119,-11.098881,31.540947,-20.191727,31.901207,-29.694157,22.790565,-38.126678,5.218849,0.0,1.682513,10.901294,41.655655,30.412387,58.468501,48.207929,67.573044,63.533208,72.677765,0.0,69.244251,26.595383,91.52338,18.121834,90.117817,10.141869,76.653042,3.396664,59.414806,0.0,5.805465,31.917306,53.129746,49.638069,63.693512,61.424617,74.111486,68.173319,81.14424,-7.781696,276.194696,-60.955009,276.17228
100,-6.041565,19.619464,-0.357742,0.271455,0.0,15.113983,-15.981216,35.271034,-24.612694,41.61438,-27.4506,31.088905,-26.990948,12.005653,0.0,-7.957652,4.660921,25.362438,22.214402,39.965422,37.672444,48.635427,50.54617,51.273714,0.0,69.903545,27.165127,91.78648,18.835602,90.485973,10.849628,76.774578,3.980141,59.779758,0.0,5.338632,30.935598,52.7803,48.750839,63.227482,60.810756,73.215117,67.827394,80.827276,-13.457251,295.765037,-60.946741,276.394612
101,-7.045326,11.72912,1.26955,0.365748,0.0,15.898476,-7.622166,45.457878,-13.852959,47.700806,-16.043701,39.698982,-15.383034,20.788994,0.0,-28.668864,3.27623,20.770801,18.50172,32.957059,30.960298,39.694153,40.418732,44.59059,0.0,69.574127,26.065693,90.913925,17.921791,90.199127,9.945774,76.402931,3.120689,59.305229,0.0,5.539135,30.933498,52.870517,48.677541,63.723276,60.601052,73.294219,67.527781,79.949864,-20.244541,307.475432,-59.419155,276.741634
102,-1.058807,-6.976006,0.004349,0.046622,0.0,15.797825,-9.041519,47.604218,-13.605709,50.671577,-13.867836,41.719322,-11.388302,24.345131,0.0,-20.25185,9.655294,22.306657,26.014028,38.283465,38.224678,44.149816,47.028188,50.42903,0.0,69.98188,25.865936,91.619797,17.44915,89.914513,9.56646,76.296844,3.023129,59.609756,0.0,6.196963,31.290169,52.409551,49.154378,63.084838,61.055905,72.927854,67.795963,80.229779,-20.923147,300.487539,-59.034605,276.776369
103,3.676643,8.790418,0.072613,0.054032,0.0,28.983192,-6.858444,36.692505,-13.950577,51.294022,-17.028809,37.611923,-17.819023,20.017662,0.0,6.478483,-2.576536,13.346364,13.080158,27.704261,28.432607,35.080286,41.699868,38.561836,0.0,69.282246,25.937862,91.875515,17.471237,89.809742,9.600506,76.206036,3.176365,59.655018,0.0,5.92242,31.194826,52.79123,49.215325,63.020371,61.23387,72.847949,67.974421,80.237312,-16.75169,309.264465,-58.467178,276.816908
104,17.416534,-33.887947,0.082512,-0.407614,0.0,-11.851158,-19.133606,22.163658,-26.71772,26.673546,-33.165321,19.401054,-38.287983,2.707672,0.0,10.272552,13.851297,40.859507,32.949279,59.528941,50.021106,67.175124,63.78268,73.428465,0.0,69.386501,26.219788,91.746082,17.603989,89.532566,9.576588,75.58176,2.922764,58.870754,0.0,6.749011,31.127024,52.555405,49.127393,63.493379,61.101724,73.577901,67.866729,80.473631,1.150188,275.38595,-57.899323,276.418726
105,-16.542435,23.251006,0.366211,0.407059,0.0,21.557465,-9.707623,39.784927,-17.32687,46.373177,-20.805016,35.725822,-21.974773,12.573051,0.0,-13.644495,1.045126,19.154237,18.888957,37.781125,34.64513,46.720794,47.360775,49.284362,0.0,69.354229,25.54945,91.053829,17.053585,90.035191,8.998318,76.042614,2.308388,59.566441,0.0,6.480582,30.555586,52.577821,48.649259,63.365618,60.787229,73.25754,67.707845,80.007909,-15.03273,298.680583,-57.173595,276.869411
106,19.802856,-24.716714,-0.135612,0.031184,0.0,-14.701538,-23.424625,17.560501,-30.939217,22.253838,-36.433582,16.639023,-40.28532,0.686646,0.0,11.506572,16.167616,44.092511,34.980929,62.250652,51.441922,68.981262,64.421611,74.979017,0.0,69.354115,26.036167,91.938572,17.349014,89.835606,9.248314,75.982304,2.493553,59.355869,0.0,6.49145,30.264124,52.368734,48.391143,63.149923,60.534917,73.105819,67.497276,79.930042,5.145063,273.999021,-56.934271,276.935747
107,-8.955002,22.402185,0.08709,-0.109669,0.0,8.834953,-20.603943,29.286804,-28.941479,35.669403,-31.084042,26.033478,-30.114212,4.53804,0.0,-12.673778,4.953433,22.006427,22.121221,38.773269,37.148492,47.987171,49.213905,50.886786,0.0,69.42358,26.741638,91.289921,18.363705,89.648037,10.234394,75.688419,3.133278,59.178486,0.0,6.263715,31.234779,52.790427,49.046314,63.790337,60.970628,73.841081,67.906805,80.204646,-3.347712,296.471107,-56.384954,276.89598
108,-14.121494,7.761656,0.415592,0.4819,0.0,13.366814,-5.75901,45.009899,-11.199703,51.299114,-13.917675,43.255749,-14.606266,23.139095,0.0,-21.64531,5.896609,22.168583,21.175266,33.983104,33.293846,40.645727,42.481319,46.280514,0.0,68.940468,26.17487,90.643272,17.846832,89.465561,9.858513,75.200157,2.918301,58.717918,0.0,5.748963,31.14382,52.511007,48.874772,63.123432,60.625999,73.125764,67.561929,79.833341,-17.188826,304.259069,-55.688982,277.404185
109,7.566948,-26.094119,0.190315,0.360746,0.0,9.179764,-5.870132,38.992481,-13.25037,41.448956,-21.637573,33.373432,-30.087318,15.333881,0.0,-5.20062,9.893095,33.082227,30.106352,52.173788,48.310929,62.762131,64.184428,68.366289,0.0,71.098824,25.937519,90.985565,17.489777,89.435005,9.685993,75.424118,3.217506,59.150162,0.0,5.66628,30.61005,51.848425,48.603873,62.252381,60.608091,72.286885,67.497955,79.523416,-9.229231,278.164055,-55.10602,277.764036
110,0.573406,0.92181,0.220585,-0.157464,0.0,8.904018,-5.004673,38.569794,-12.18441,40.800705,-20.508041,32.125969,-28.954239,14.287834,0.0,-5.941563,9.104357,30.35113,29.535901,51.706954,47.717693,62.300052,63.588042,67.584097,0.0,70.608387,26.222363,91.248722,17.558327,89.288578,9.499855,74.856319,2.786922,58.582935,0.0,5.900499,31.186922,51.951363,49.013155,62.592194,60.770309,72.688201,67.551925,80.083307,-8.36483,279.091438,-54.59444,277.612145
111,-0.91032,0.890379,-0.232658,-0.316409,0.0,8.935833,-5.854397,39.106464,-12.846165,42.20232,-21.058216,33.107128,-29.322281,14.945354,0.0,-5.735502,7.733375,30.375892,27.958611,51.147372,46.255072,61.943691,62.488391,67.38841,0.0,69.673634,26.795025,91.617222,18.020039,88.841572,9.811993,74.446621,2.913895,58.465176,0.0,6.06,31.303075,53.211318,49.143324,63.138747,60.902085,73.164482,67.762679,80.681483,-9.107895,279.985908,-54.659843,277.299827
112,-5.263138,19.660528,-0.259895,-0.0113,0.0,23.42165,-7.626457,41.21664,-14.506416,50.159512,-17.320518,39.885464,-18.053913,19.998951,0.0,-11.275687,-1.049819,8.631658,17.728667,32.192775,35.033293,42.264637,49.702042,47.433455,0.0,70.199032,26.76693,91.884556,18.001614,89.495029,9.891129,74.905186,3.175163,58.807125,0.0,5.976699,31.279424,52.692368,49.166234,62.762131,60.944075,72.963731,67.740387,80.358343,-14.182234,299.597253,-54.73094,277.239343
113,6.849003,-18.48196,-0.278549,-0.1256,0.0,6.985989,-6.44371,37.45079,-13.150406,40.05043,-21.110916,30.176353,-29.357986,13.049355,0.0,-7.455251,7.560473,27.49505,27.965341,49.482025,46.019309,60.184298,61.735468,65.967656,0.0,70.016499,26.960621,91.723881,18.325768,89.834461,10.223637,75.202274,3.446445,59.068394,0.0,6.448534,31.315363,52.689589,49.267319,63.255393,61.086657,73.296566,67.902606,80.345622,-7.03866,281.08292,-54.714918,277.08137
114,-17.234058,14.725127,-0.644188,0.096454,0.0,30.592861,0.554352,52.877598,-6.20676,62.074871,-9.746819,52.853451,-11.6292,34.909,0.0,-10.979903,2.157436,17.656048,20.927832,36.680053,37.630084,46.053643,51.420741,52.517552,0.0,69.973927,27.161179,92.341976,18.707314,90.3895,10.79195,75.759602,4.254742,59.792805,0.0,6.279276,30.958013,52.905653,49.075028,62.721005,61.029105,72.702836,67.777684,79.8058,-23.994913,295.779888,-55.081301,277.149666
115,15.680065,-15.319227,0.092354,0.015252,0.0,7.655697,-6.700573,40.158806,-14.111595,41.052017,-22.49588,30.788498,-31.009426,13.221016,0.0,-4.827832,6.619397,27.742114,26.791589,49.784417,45.236746,60.923142,61.873419,66.619679,0.0,69.579563,27.708549,91.527042,19.283581,89.137859,11.22076,74.702053,4.345837,59.103527,0.0,5.846714,31.025939,53.393543,49.098247,62.310488,61.053373,72.640468,67.937927,79.75288,-8.21969,280.452386,-54.893789,277.156643
116,-27.432461,5.756806,-0.281811,-0.01445,0.0,44.887905,9.24036,67.421207,2.393246,74.801388,-1.953392,65.242481,-4.35482,47.371502,0.0,0.334378,7.867558,28.184,27.69154,46.989964,45.374635,55.509421,59.755256,60.603645,0.0,70.054665,27.114716,91.491852,18.806019,90.030899,10.947018,75.161934,4.331188,59.531593,0.0,5.603232,31.095223,52.972097,49.188587,62.856918,61.100365,72.399271,67.896739,79.547622,-35.604115,286.185032,-55.127563,277.118034
117,28.889923,-8.026874,-1.071568,-0.130602,0.0,7.122574,-6.258545,34.891834,-13.157215,38.278027,-20.609608,30.922794,-28.473759,14.350491,0.0,-8.437947,10.029131,29.126373,30.904846,50.143928,49.494499,61.538176,65.377261,67.623123,0.0,69.967747,27.801876,92.778339,19.39064,90.526714,11.453648,75.817852,4.614601,59.790287,0.0,4.939724,30.976044,52.838963,48.848157,62.920088,60.645759,73.225182,67.540625,80.330308,-6.637373,278.102938,-56.122313,276.932212
118,-2.643929,5.312697,0.720634,0.465166,0.0,22.719555,-10.181522,38.064022,-18.450336,44.733753,-22.166748,29.66383,-24.009991,8.587189,0.0,8.561324,12.127904,30.373052,33.062344,48.911946,50.788355,57.196566,64.395306,63.031857,0.0,70.478954,25.776844,91.602001,17.412415,89.729176,9.715061,75.415707,3.432255,59.661312,0.0,4.884211,30.479818,52.127228,48.676985,62.716003,60.651872,72.713086,67.420829,79.036761,-9.209547,283.376469,-55.329924,277.358212
119,-5.136108,12.927016,-0.971603,-0.358399,0.0,24.669514,-8.271332,43.862057,-15.023861,51.310215,-17.219067,39.519596,-17.175865,20.819378,0.0,-6.804957,3.554848,18.462138,23.320537,38.532628,40.212733,46.205363,54.133437,50.03815,0.0,70.372753,27.588501,92.542477,18.918629,89.858837,10.762196,75.663357,3.729801,59.36285,0.0,4.654005,30.981664,52.86848,48.715394,63.278549,60.479095,73.54542,67.347963,80.298939,-14.317617,296.279619,-56.273489,276.975946
120,-2.330647,1.278048,0.493698,0.803496,0.0,17.549686,-8.406658,50.913849,-14.025078,53.824768,-15.548801,46.623344,-14.721165,28.931007,0.0,-13.876306,8.883476,25.472477,25.433883,41.688012,38.532998,48.297652,48.92022,54.922731,0.0,70.661488,26.156044,91.988583,17.705212,90.531635,9.846153,76.5275,3.27507,59.929218,0.0,4.4196,30.429306,51.672004,48.345447,62.462147,60.254261,72.482572,67.028096,78.965809,-16.64134,297.514859,-55.772867,277.736634
