takenoko1/special-research/HandMotion_SimilarSearch_自分用/NewProject/handData/test_key/d4_feature_d2/25.csv
frame,vel_0x_L,vel_0y_L,vel_0x_R,vel_0y_R,posFromWrist_0x_L,posFromWrist_1x_L,posFromWrist_2x_L,posFromWrist_3x_L,posFromWrist_4x_L,posFromWrist_5x_L,posFromWrist_6x_L,posFromWrist_7x_L,posFromWrist_8x_L,posFromWrist_9x_L,posFromWrist_0y_L,posFromWrist_1y_L,posFromWrist_2y_L,posFromWrist_3y_L,posFromWrist_4y_L,posFromWrist_5y_L,posFromWrist_6y_L,posFromWrist_7y_L,posFromWrist_8y_L,posFromWrist_9y_L,posFromWrist_0x_R,posFromWrist_1x_R,posFromWrist_2x_R,posFromWrist_3x_R,posFromWrist_4x_R,posFromWrist_5x_R,posFromWrist_6x_R,posFromWrist_7x_R,posFromWrist_8x_R,posFromWrist_9x_R,posFromWrist_0y_R,posFromWrist_1y_R,posFromWrist_2y_R,posFromWrist_3y_R,posFromWrist_4y_R,posFromWrist_5y_R,posFromWrist_6y_R,posFromWrist_7y_R,posFromWrist_8y_R,posFromWrist_9y_R,posFromBody_0x_L,posFromBody_0y_L,posFromBody_0x_R,posFromBody_0y_R
2,6.981583,2.913199,-0.360546,0.930826,0.0,13.253403,3.403816,54.555073,-1.263256,57.412663,-8.916607,40.95377,-16.843357,-7.785473,0.0,-5.659178,22.172597,36.234895,41.304048,53.180752,53.189767,57.706316,61.024412,65.405295,0.0,71.931839,34.704208,98.604584,27.373295,98.817215,18.647175,84.940796,10.048599,64.122391,0.0,5.536418,31.675183,51.572215,49.191737,63.15511,60.25704,71.310426,66.649751,71.236078,-7.05019,263.758857,-47.356796,261.492555
3,-6.91824,-1.266377,0.328846,-0.3831,0.0,23.947334,9.362011,61.443672,5.574989,64.386063,-1.143837,49.581642,-8.278427,18.524208,0.0,-4.358776,20.629886,36.901861,40.228541,54.619289,52.953263,58.740635,61.132537,62.925152,0.0,71.825466,34.014072,98.139439,26.70496,98.553944,18.04842,84.682446,9.554214,63.933048,0.0,6.239076,31.542913,51.90752,49.126281,63.450524,60.417468,71.406633,66.973015,71.467025,-13.919134,262.478941,-46.978655,261.095917
4,-0.036049,1.191906,-0.14637,0.095651,0.0,25.953598,9.008503,62.785606,4.247131,65.340958,-3.552589,48.860092,-11.649799,9.095306,0.0,-6.378015,16.833471,34.852303,37.031228,53.364521,50.731854,58.867841,60.259201,64.516028,0.0,71.840229,34.061165,98.577518,26.592522,98.554173,17.851639,84.331226,9.248886,62.968884,0.0,5.851099,31.515311,51.238331,49.052304,63.55408,60.208442,71.376992,66.648393,71.523588,-13.935556,263.662141,-47.105398,261.182862
5,1.663742,0.849624,-0.166855,0.148077,0.0,18.361874,6.849689,59.654846,3.873196,63.300476,-2.128944,49.110031,-8.599491,12.541122,0.0,-6.265444,20.949321,33.818786,40.256946,50.866161,52.782647,56.344287,60.812176,61.361817,0.0,71.539593,34.545422,98.657284,27.117176,98.412151,18.291206,84.221363,9.430332,62.268734,0.0,5.790954,31.613247,50.933778,48.987899,63.280834,60.020042,71.186369,66.41158,71.168461,-12.247066,264.538147,-47.247505,261.357322
6,-1.32185,0.342221,0.623074,0.248545,0.0,25.144787,7.358723,60.834789,4.002457,65.196705,-1.455917,51.388149,-7.62331,14.829998,0.0,-6.415312,17.714402,31.593734,37.535358,49.690001,51.091982,56.643838,60.041284,61.226274,0.0,71.97464,33.714809,97.909584,26.187801,97.475967,17.368755,83.580551,8.627129,61.82785,0.0,5.704503,31.335185,51.171887,48.799251,63.603912,60.054313,71.469742,66.634005,71.115232,-13.563967,264.904513,-46.619482,261.630012
7,1.889763,-0.539143,-0.245991,-0.034642,0.0,22.903461,4.256687,60.491123,0.544968,65.070019,-4.848804,51.118984,-10.424538,15.970058,0.0,-6.200976,17.720639,33.038693,37.388145,50.40186,50.936062,57.469071,60.123968,61.343353,0.0,71.740093,33.370228,98.252506,25.799389,98.072948,17.144451,84.179478,8.596687,62.384548,0.0,5.650904,30.72614,50.922848,48.311361,63.647076,59.661087,71.400766,66.307531,71.057805,-11.646824,264.38672,-46.838093,261.61672
8,7.061806,-0.069346,0.18671,0.039953,0.0,12.534313,-0.359173,52.507153,-3.874626,57.465992,-9.370708,42.458324,-15.74192,-26.24691,0.0,-6.31083,18.985782,34.393621,38.282724,50.148559,50.689678,56.838846,59.291572,68.857699,0.0,71.396255,33.344364,97.989807,25.747948,98.15403,16.978798,83.979721,8.265209,61.545181,0.0,5.512706,30.547188,51.31311,48.028297,64.081552,59.290708,71.69087,65.81575,71.25695,-4.583788,264.316602,-46.650152,261.655901
9,-3.455601,0.214212,-0.218182,-0.036988,0.0,17.065544,4.044628,57.37896,-0.632629,61.327515,-7.325878,45.60482,-14.2519,-8.340626,0.0,-7.475752,17.650985,33.524546,37.282984,50.245878,50.481888,57.463637,59.813734,65.064557,0.0,71.081371,33.850193,98.194141,26.305218,97.876682,17.352104,83.46777,8.241978,60.85722,0.0,5.507828,30.673714,50.964221,47.798647,64.07865,58.851909,72.291146,65.331318,71.864635,-8.017473,264.532636,-46.846418,261.620734
10,1.351147,-0.614972,-0.107632,-0.039273,0.0,16.278133,3.402786,55.306721,-1.727829,58.635578,-9.267254,43.931293,-16.847363,1.475201,0.0,-6.567836,17.289127,34.74813,37.050185,51.564311,50.500845,57.650308,59.999047,65.103336,0.0,70.630875,34.369297,98.262634,27.014523,98.270531,18.029537,83.949509,8.758621,61.636162,0.0,5.489241,31.007661,50.487878,48.0919,63.408472,58.920638,72.064645,65.102163,72.067671,-6.667786,263.915395,-46.955509,261.579191
11,2.655773,0.725444,0.721951,0.363525,0.0,13.208771,-2.420311,53.191223,-6.775475,56.611862,-12.525902,41.440086,-18.60918,-23.049374,0.0,-7.977289,17.557495,33.842807,36.810409,49.563968,49.710131,56.297357,58.917303,68.998552,0.0,70.700397,34.083939,97.509098,26.781864,97.996273,17.879333,83.842106,8.723488,61.856632,0.0,5.094903,30.919234,50.389324,48.178104,63.299483,59.102122,71.818014,65.303531,71.776085,-4.019966,264.637519,-46.241512,261.939397
12,-0.175495,0.76342,-0.348015,0.35173,0.0,11.176929,-2.226391,54.387074,-6.992111,57.093716,-13.058681,42.045879,-19.07896,-16.336956,0.0,-8.546813,17.120919,33.578948,36.877346,49.613986,50.063344,56.570849,59.287188,66.139323,0.0,70.981579,34.085655,98.172398,26.926575,98.253078,18.366165,84.23418,9.774799,62.971516,0.0,4.704455,31.106091,50.079399,48.352857,63.300347,59.090636,71.506174,65.106238,71.076762,-4.206076,265.400615,-46.600142,262.290803
13,-0.295086,-0.925639,0.277348,-0.690431,0.0,8.633938,-0.672054,53.788834,-3.577251,56.74118,-8.721657,43.274803,-14.073715,-8.357391,0.0,-7.797595,20.854905,34.020525,40.372605,51.262784,52.748746,56.660017,60.776237,65.127604,0.0,71.547432,33.783245,98.355217,26.788044,99.412193,18.260651,85.416641,9.733429,64.908371,0.0,5.754459,31.594907,50.644106,48.863039,64.240559,59.837075,72.066436,66.256772,72.055876,-4.526453,264.478558,-46.348085,261.603953
14,5.552845,-0.191612,0.166454,-0.032789,0.0,3.54229,-2.373562,46.196308,-5.284996,49.861736,-10.682659,35.493908,-17.250996,-31.734753,0.0,-8.650492,19.744879,34.975248,39.361997,51.458347,51.661815,57.494512,60.327559,70.053125,0.0,71.428471,34.351273,98.757534,27.061157,98.299885,18.30534,83.927135,9.461918,62.834759,0.0,5.159679,31.656225,50.955884,48.665747,64.029743,59.403835,71.994126,65.510642,72.142574,0.988827,264.285758,-46.219196,261.569975
15,-1.237679,0.655357,0.175953,-0.006484,0.0,4.831581,-1.083527,50.669804,-4.14917,54.157162,-9.649372,39.662876,-16.062927,-22.7215,0.0,-9.709697,18.682896,33.128417,38.757214,51.260931,51.478046,57.351745,60.236354,69.226349,0.0,71.51104,33.978138,98.687782,26.698093,98.435211,18.104038,84.115105,9.610863,63.103638,0.0,5.056309,32.142324,51.178803,49.398909,64.558574,60.0976,72.628488,65.995259,72.219206,-0.280294,264.95294,-46.074686,261.575316
16,0.396023,-0.414222,-0.009327,-0.045572,0.0,5.591927,-0.74461,50.272179,-3.798809,53.274422,-9.462662,38.440018,-16.348171,-25.124187,0.0,-11.270129,17.411393,32.872523,37.822621,51.166268,50.992749,57.866435,60.250618,70.431285,0.0,71.734829,34.222126,98.62524,26.947746,98.747234,18.278046,84.58643,9.685135,63.754063,0.0,5.055012,32.059702,51.045855,49.280719,64.117923,60.022882,72.327208,65.962902,72.391922,0.075016,264.558263,-46.124725,261.549289
17,-0.397339,0.100221,0.393448,-0.343209,0.0,8.86013,1.283741,50.096054,-1.603889,52.958565,-7.250576,38.366203,-14.220486,-20.431938,0.0,-12.973947,17.553604,32.76551,38.223196,51.30428,51.588579,58.724148,60.728566,70.00496,0.0,71.322041,34.163761,98.390408,26.702099,98.640003,17.77462,84.408588,8.955574,63.260021,0.0,5.105401,32.072423,51.46409,49.375382,64.332258,60.263586,72.42996,66.443999,72.530737,-0.356913,264.70174,-45.765867,261.249336
18,-0.619354,-0.569586,-0.21944,0.310234,0.0,12.116547,2.425976,51.001625,-0.690594,53.148994,-6.577892,39.247169,-13.754139,-21.048717,0.0,-12.7204,16.248695,30.96919,37.042096,49.495734,50.782304,58.114177,60.372637,70.963326,0.0,71.871986,33.897457,99.02298,26.617413,100.136719,18.151131,85.96447,9.869556,64.855156,0.0,5.21087,32.098482,50.68974,49.642885,64.182143,60.591419,72.173882,66.590162,72.604158,-0.99678,264.149568,-46.005821,261.576984
19,2.805862,-0.263674,0.507717,0.083487,0.0,4.686928,-2.235317,47.167511,-4.771271,51.177292,-9.790878,37.168121,-16.177082,-26.707993,0.0,-8.864333,18.728159,34.061836,38.643037,51.271491,51.534486,58.655605,60.432658,70.624255,0.0,71.587315,33.860722,98.617916,26.560135,99.211063,18.098545,85.304432,9.817085,64.333363,0.0,4.71026,31.797263,50.396055,49.208965,63.949776,60.208936,72.006661,66.490003,72.407669,1.77907,263.874084,-45.528116,261.64866
20,3.279247,-0.975039,-0.163994,-0.212977,0.0,4.837704,-6.153145,42.967358,-9.828701,46.198139,-14.947872,31.602917,-20.973473,-40.453148,0.0,-9.704262,16.85601,34.130935,37.315712,51.187016,50.775264,59.62027,60.355841,74.760174,0.0,72.101955,33.61496,98.839703,26.268597,99.423237,17.810555,84.955044,9.526577,63.920803,0.0,4.800292,31.992024,50.432982,49.361921,64.011218,60.321754,71.793561,66.595226,71.967018,5.036001,262.88867,-45.714426,261.425309
21,3.450794,0.03211,0.216408,-0.034518,0.0,-0.915184,-9.287453,38.643379,-12.8615,42.17308,-17.766037,28.255234,-23.572712,-45.38578,0.0,-8.558237,18.318939,35.409909,38.304398,52.149643,51.121314,60.046224,60.161821,74.759618,0.0,71.777287,33.18243,98.611393,25.904903,99.131298,17.466087,84.703045,9.104862,63.478374,0.0,4.961152,31.797448,49.977634,49.403911,64.182761,60.424507,71.98085,66.647837,72.247797,8.456411,262.941081,-45.528402,261.411091
22,-5.90086,1.962984,-0.13567,-0.027417,0.0,8.034954,-2.001801,47.751904,-6.067085,49.764462,-12.2299,35.649776,-19.384975,-25.328979,0.0,-13.355688,16.094689,31.92132,36.371301,50.27348,49.758358,58.703338,59.460274,71.074909,0.0,71.772766,33.37801,98.23288,26.309967,99.530525,17.982616,85.265923,9.729252,64.556808,0.0,4.949357,32.093233,49.72279,49.631955,64.216415,60.690528,72.001968,67.017537,72.684928,2.502279,264.922914,-45.717344,261.402523
23,0.847034,-0.310913,0.388126,-0.348211,0.0,4.879189,-3.036861,46.588326,-6.726837,49.196663,-12.586784,34.64035,-19.804688,-32.570171,0.0,-11.034922,17.183287,32.566303,37.460579,50.764952,50.658247,58.62473,60.100441,71.330927,0.0,71.710911,33.010998,97.803097,25.806656,98.946934,17.500534,84.919109,9.209175,63.884411,0.0,5.075081,31.716555,49.736128,49.447754,64.179488,60.740175,72.264099,67.227056,72.68252,3.235588,264.636655,-45.442944,261.078967
24,4.535179,-0.72143,-0.025005,0.481715,0.0,-1.438293,-8.035755,41.940994,-12.208843,44.150276,-18.020725,29.81266,-24.901485,-39.576874,0.0,-8.814377,18.684934,35.007235,38.612039,53.251147,51.330153,60.210912,60.171392,71.568974,0.0,72.217598,32.808952,98.196144,25.683861,99.061203,17.506599,85.138206,9.485149,64.709473,0.0,4.257876,31.26868,49.536798,49.063111,63.741122,60.589628,71.653634,67.290782,72.187652,7.643852,263.936575,-45.594864,261.582032
25,-4.818077,0.385261,-0.158043,0.01377,0.0,3.336868,-2.397194,45.140762,-5.569382,50.26268,-11.071529,39.2799,-17.416763,-0.731564,0.0,-9.593421,20.573879,34.665693,40.228479,53.7102,52.63426,58.959726,60.900356,65.457907,0.0,71.408157,33.489933,99.213181,26.208858,100.149422,17.706242,85.584297,9.230404,64.352074,0.0,3.807963,31.234593,50.343505,48.574974,64.101991,59.797185,71.920952,66.416767,72.72593,2.676144,264.352973,-45.902538,261.62694
26,5.536652,0.604043,0.198898,-0.463869,0.0,-3.523693,-5.985146,39.984856,-9.974442,40.870514,-15.509262,28.140907,-21.693592,-19.78363,0.0,-10.306638,22.48246,33.956366,42.32225,52.678103,54.264163,57.875882,61.726885,65.165951,0.0,71.722527,33.467789,99.134903,26.1133,99.681931,17.576351,85.477409,9.242535,64.791641,0.0,3.902503,32.17357,51.028935,49.438738,64.24587,60.545785,72.437926,66.991169,73.071794,8.126078,264.917218,-45.790358,261.123272
27,-3.371372,-0.037853,-0.457478,0.065208,0.0,0.695801,-3.906155,42.604694,-7.200279,45.339947,-12.063217,34.159641,-17.813873,-1.303082,0.0,-9.677339,21.324455,33.155587,41.694866,52.080606,54.124854,57.044907,61.782152,63.638616,0.0,71.174297,33.896313,99.353542,26.364956,100.648441,17.585964,86.253033,8.911915,64.794331,0.0,3.780792,31.587559,49.698461,49.080215,63.97213,60.275565,71.730514,66.911882,72.377596,4.647932,264.78078,-46.354609,261.089896
28,6.392612,-0.904705,0.581875,-0.595336,0.0,-3.07972,-11.454449,35.200882,-15.363979,37.170868,-19.60453,25.885506,-24.084091,-13.520107,0.0,-8.226884,20.677372,33.861826,41.295032,52.172367,53.877728,58.258858,61.688909,65.329342,0.0,71.710281,33.32428,99.080429,25.896206,99.651375,17.2966,85.657654,8.849087,64.903107,0.0,4.292209,32.381546,51.171208,49.843512,64.189306,61.024289,72.764648,67.505365,73.120207,10.875349,263.822862,-45.937929,260.441347
29,16.609955,0.526052,-0.037422,-0.052611,0.0,-29.832287,-30.744839,18.325653,-35.772629,20.961342,-38.37307,10.61554,-39.538879,-30.977612,0.0,-4.991533,24.444148,39.580038,43.206084,54.635591,54.043096,59.498066,60.314159,67.077003,0.0,71.044464,33.854198,98.635368,26.285992,99.353256,17.388153,85.067711,8.524017,63.383789,0.0,4.251207,32.207656,50.022156,49.721802,64.040364,60.874482,72.254034,67.432129,72.804971,27.318478,264.336563,-46.142178,260.376386
30,-23.918209,21.521562,0.246735,0.19013,0.0,-2.5597,-7.137852,40.061703,-12.58564,51.677456,-15.093498,42.819157,-16.61768,22.747021,0.0,-26.679327,-3.42159,10.098909,13.553042,31.484065,28.621995,40.59293,41.520113,42.715106,0.0,70.919037,33.681221,98.819962,26.169662,98.942528,17.45224,84.803238,8.806801,63.708916,0.0,3.087706,31.886369,50.106878,49.430093,63.187344,60.718995,72.07329,67.322275,72.385253,3.156424,285.858342,-46.139288,260.566731
31,-8.067627,-21.064486,-0.26207,-1.161587,0.0,5.975304,-2.656403,55.257397,-6.725464,57.300167,-11.572495,46.027966,-15.783577,21.590824,0.0,-9.44065,20.550846,32.73976,39.478026,52.51712,52.395348,59.655468,61.241156,63.207722,0.0,69.60125,32.892952,97.187691,25.099297,96.982613,16.234245,83.544846,7.647858,62.82074,0.0,3.555712,30.694833,49.918724,48.904165,63.777431,60.924624,72.689312,68.008013,73.601613,-5.211153,264.833808,-46.701307,259.445097
32,9.056911,-0.46603,-1.398468,-1.235811,0.0,-3.166809,-12.471828,42.210503,-17.874756,41.1763,-23.611679,29.275017,-28.819599,3.063698,0.0,-8.791653,21.833896,33.390794,40.425525,50.330353,52.496989,57.122898,60.21011,62.768676,0.0,69.503288,30.481853,97.895279,23.303661,98.025398,16.079865,84.92981,9.459686,65.200768,0.0,3.562937,28.914754,48.524956,47.909366,63.416253,60.627172,72.692153,68.117188,75.676859,3.518915,264.471426,-48.426619,258.312934
33,-15.335026,-7.779873,1.416779,-2.809273,0.0,12.126274,-2.733822,57.077694,-8.429718,55.58012,-14.361706,39.843235,-18.524952,-23.921413,0.0,-10.499299,18.346047,39.374162,39.701686,57.582506,54.171599,68.855353,64.816505,88.017617,0.0,67.74353,27.316761,93.484268,19.765549,94.073639,11.992149,81.659889,4.460964,54.351654,0.0,4.021866,25.560286,49.234715,44.495556,65.169532,58.0783,76.232242,66.469687,80.826164,-12.273245,256.821198,-47.466974,255.633306
34,14.379215,2.437289,-0.357113,-3.459196,0.0,-4.759026,-23.658829,31.628494,-30.785351,35.150871,-35.281734,22.91748,-37.265911,-31.205349,0.0,7.143658,15.961123,43.787279,32.17993,56.092839,43.47371,64.446558,52.557505,81.21797,0.0,67.088642,20.383072,86.344814,13.25695,89.926929,6.313419,77.120419,-0.184422,48.28371,0.0,5.036302,17.692234,49.022911,36.960956,69.109147,52.717129,78.71183,64.432603,84.709894,1.379528,259.423392,-48.550529,252.339014
35,7.818489,19.878199,4.165192,-6.927779,0.0,-23.869858,-27.503357,-28.980904,-30.467834,-45.149059,-29.819469,-54.578819,-25.301743,-52.143631,0.0,-15.938275,0.733904,6.574258,17.868223,27.172157,32.850231,42.650639,45.141589,59.427732,0.0,61.952763,12.752838,69.64262,0.813732,60.610256,-8.918839,43.152065,-16.610355,17.192917,0.0,11.809766,9.970098,52.820191,29.013431,73.320463,45.621451,80.693092,58.278372,85.767555,8.36194,279.35133,-45.221415,245.460975
36,-1.938057,12.271721,1.330147,-6.299283,0.0,-60.801487,-38.905106,-49.362545,-38.685493,-44.327774,-34.903221,-39.568291,-28.339119,-34.855442,0.0,39.537183,-13.616707,9.080275,-26.807892,-0.386743,-37.686276,-12.848099,-46.439521,-23.183019,0.0,36.475582,12.951622,33.241596,4.719315,15.356483,-3.666115,0.71743,-11.613693,-11.608086,0.0,39.220651,20.85472,64.259702,33.844289,77.67467,44.316912,80.927929,51.136072,84.957143,5.656013,291.850262,-44.659138,239.388903
37,14.090309,-58.495424,-15.699119,-26.339268,0.0,-42.034664,-39.64777,-78.603916,-31.511364,-86.606026,-20.462036,-66.996803,-8.694191,-38.293304,0.0,43.336686,27.149865,53.282022,42.070123,79.604247,53.544955,76.495916,60.805692,71.855435,0.0,36.768293,11.233749,27.522497,5.1408,15.332651,-1.506987,7.168264,-7.211237,1.550989,0.0,2.358032,8.614615,27.73492,22.027885,44.70702,34.177927,53.742094,44.151699,62.628904,19.340057,233.387226,-60.764522,213.082023
38,1.051369,-13.524452,-15.69912,-26.339268,0.0,-33.483295,-43.888493,-87.99757,-37.852879,-91.511765,-28.09845,-29.793091,-17.20459,-19.203529,0.0,44.308638,23.249154,61.037009,40.010994,74.093455,53.359396,52.332548,63.437433,55.861954,0.0,37.061005,9.515877,21.803398,5.562286,15.308819,0.652142,13.619099,-2.808781,14.710064,0.0,-34.504586,-3.62549,-8.789862,10.21148,11.739371,24.038941,26.556259,37.167326,40.300665,19.881563,219.972011,-76.973505,186.851992
39,-1.742592,-12.919915,-7.914276,-5.493502,0.0,-61.749115,-36.199093,-89.869137,-27.894058,-67.622967,-17.800198,-29.872971,-7.294121,-18.04224,0.0,44.696986,21.789436,53.088682,33.7621,45.121644,42.421545,39.862731,46.994101,42.640203,0.0,28.30719,9.219589,20.449162,-5.925808,-4.320717,-17.258263,11.060772,-24.014454,2.952003,0.0,-12.299385,-38.552202,-98.52976,-36.43793,-66.100235,-26.833395,2.343366,-11.4208,3.74189,17.053757,207.22742,-85.972996,181.533815
40,1.472683,-45.173113,-0.181389,-29.902514,0.0,-69.254121,-42.998914,-91.639738,-35.802097,-75.09859,-25.556373,-32.695684,-14.132652,-19.96396,0.0,37.035119,12.001255,44.077599,27.084596,43.151775,40.33503,41.006473,49.86213,45.372073,0.0,7.69249,0.422459,12.543011,-19.76429,-37.966118,-35.180626,3.118057,-45.510979,-6.9837,0.0,-22.72656,-45.692773,-107.452942,-43.465559,-95.558824,-33.469958,-2.598457,-19.476018,0.493695,17.101507,162.568302,-87.579317,152.145296
41,1.472683,-45.173112,-9.276352,-18.484307,0.0,-76.759129,-49.798737,-93.410339,-43.710136,-82.574215,-33.31255,-35.518398,-20.971184,-21.885681,0.0,29.373251,2.213073,35.066515,20.407091,41.181906,38.248514,42.150214,52.730159,48.103941,0.0,4.193859,-0.248337,12.424049,-15.920792,-25.137978,-29.61565,-0.744839,-41.443005,-10.407887,0.0,-39.272583,-45.886268,-101.363332,-46.138549,-102.273132,-39.846337,-19.064946,-30.222195,-13.588734,17.710619,119.392307,-97.71924,135.658106
42,1.338387,-1.454531,-3.299961,-32.618142,0.0,-65.557308,-45.33783,-110.178165,-40.759735,-103.02206,-34.011955,-65.073681,-25.486851,-49.895554,0.0,4.018346,8.219783,-5.87089,13.796956,-8.605476,16.157304,-7.387943,15.476135,0.246014,0.0,-3.78233,-1.404076,12.27499,-21.236916,-40.404797,-36.58287,-10.080814,-48.243542,-17.753563,0.0,-43.326683,-57.636414,-122.052406,-54.745106,-122.560334,-43.455,-20.657983,-29.885563,-12.333873,18.667288,118.800475,-101.400919,103.902663
43,6.538696,-70.796755,-3.723507,-16.85672,0.0,-55.633793,-52.23896,-115.631447,-53.924046,-119.210014,-49.972057,-48.230495,-43.133526,-40.097923,0.0,15.114278,-4.581664,-0.376986,13.608463,21.939644,31.671107,26.382894,47.883153,37.532703,0.0,3.195362,-1.281166,13.742638,-19.728813,-38.283577,-34.240551,-5.133991,-45.440884,-14.853287,0.0,-40.945247,-58.661718,-123.754927,-57.220958,-128.373178,-46.758585,-27.995229,-32.541757,-18.31474,23.925905,51.947071,-106.404505,90.989294
44,-3.137741,-15.449366,3.349342,-22.707541,0.0,-55.727234,-51.102047,-108.296356,-53.426685,-111.180496,-49.614258,-47.525311,-42.081928,-38.490829,0.0,11.672557,-1.489019,-19.389475,11.951854,-1.521808,24.633814,15.856425,36.551304,24.265967,0.0,-11.856308,-5.308628,13.199902,-22.7635,-45.001259,-36.590137,-16.183434,-46.720562,-19.119473,0.0,-48.865911,-58.155674,-122.209839,-56.481496,-129.500062,-45.695891,-27.012903,-31.976308,-16.091571,21.253395,41.157591,-102.589931,72.94164
45,-14.552422,-42.182077,-0.045605,-8.081307,0.0,-43.829327,-48.495083,-102.486248,-50.232697,-102.114315,-45.802631,-52.440548,-38.370895,-41.905289,0.0,-24.234968,-7.699474,-31.287699,11.789883,-9.786267,29.584746,17.975668,44.6047,32.791074,0.0,-10.298653,-4.179955,14.097404,-23.09967,-45.367012,-37.753029,-13.165169,-49.144592,-18.619022,0.0,-51.428398,-62.559034,-126.868877,-61.321154,-136.138787,-50.244859,-32.795675,-35.495557,-23.379416,6.222496,1.229065,-103.114014,67.113883
46,3.038063,-13.634769,-0.157127,-9.507186,0.0,-51.371899,-46.586952,-110.380039,-48.465042,-117.088623,-46.076374,-46.512966,-41.425323,-38.658886,0.0,9.881733,-9.8608,-9.210537,9.708338,12.761371,28.677787,23.117039,44.282301,35.907926,0.0,-12.874317,-4.42131,15.807896,-22.959423,-44.530163,-37.099342,-14.124126,-48.211784,-19.31345,0.0,-55.629866,-63.105679,-125.603024,-61.178572,-136.416077,-49.450162,-33.69544,-34.303033,-24.168216,8.112001,-9.694984,-104.419699,60.317416
47,-2.449837,-8.405559,-0.621014,-4.76284,0.0,-49.290733,-47.946568,-97.111759,-49.424686,-113.381424,-46.442471,-43.339691,-41.201591,-37.86993,0.0,12.896697,-10.77026,-27.874815,7.749059,4.000531,25.570413,18.805162,40.447106,32.720123,0.0,-11.741982,-3.017292,17.733364,-20.774574,-43.030987,-34.722004,-13.499851,-45.856247,-18.402901,0.0,-52.830812,-62.786954,-124.016872,-60.458192,-135.972586,-48.433102,-37.262854,-33.304282,-24.01844,4.933548,-15.99189,-105.769329,57.663229
48,-1.196594,-9.934468,0.832958,-1.740868,0.0,-49.986591,-49.414158,-102.221375,-51.923733,-121.57156,-48.545494,-48.606834,-43.062458,-41.356659,0.0,11.338487,-8.108385,-31.208041,10.291849,6.370358,27.409618,19.854456,41.786874,32.532865,0.0,-10.283546,-2.70504,12.265663,-19.315338,-39.928894,-33.462868,-7.176304,-45.510349,-16.066532,0.0,-54.891979,-61.931835,-117.004156,-59.82065,-135.581582,-48.301049,-36.230912,-33.166332,-24.622174,3.342819,-24.094918,-105.330505,57.753802
49,-3.934479,-6.392156,2.410641,-0.118808,0.0,-51.054153,-49.220753,-101.420574,-52.190895,-121.990585,-48.895969,-48.398094,-42.989559,-39.410706,0.0,8.466198,-7.02485,-28.047716,11.676879,11.652426,29.266423,24.498858,44.395304,37.703505,0.0,-12.153339,-3.695297,16.896858,-20.25816,-43.438339,-33.566837,-7.036285,-44.685974,-16.070938,0.0,-54.404737,-63.432092,-116.865526,-60.292145,-135.323558,-47.770088,-37.171649,-32.17144,-24.265442,-1.268606,-29.32297,-103.596811,58.799097
50,-3.468018,-0.796827,5.984631,1.441008,0.0,-50.065842,-49.227276,-106.444359,-52.819977,-128.901215,-49.831123,-50.921173,-43.694229,-41.130581,0.0,9.130663,-7.221772,-17.601924,10.7505,16.813773,28.175077,27.209516,43.794812,39.394355,0.0,-18.483982,-7.49176,1.551991,-24.964771,-34.335995,-39.173641,-8.510399,-49.319,-16.77412,0.0,-62.981252,-61.538886,-122.905118,-56.327583,-110.218835,-43.864343,-31.376743,-28.348781,-18.679006,-5.497313,-27.908871,-98.372869,62.451032
51,-5.336494,1.678037,4.741859,8.26063,0.0,-53.233624,-48.949013,-119.980717,-52.231922,-132.69516,-49.348354,-48.65942,-42.689209,-37.871075,0.0,6.430781,-8.123112,-19.72163,9.030782,13.287639,26.573209,28.432236,43.078693,41.476301,0.0,-14.986324,-8.031464,-32.399025,-24.406815,-27.343597,-39.059086,-12.306004,-50.949039,-20.82819,0.0,-60.59957,-61.969317,-126.625457,-56.164223,-84.635856,-44.224564,-27.582828,-29.79374,-17.632058,-11.487207,-25.186573,-94.28441,71.755924
52,-6.489487,2.653508,-0.138016,14.542901,0.0,-54.374371,-47.308044,-117.098122,-51.072693,-130.820847,-48.560085,-44.727116,-42.54982,-34.512119,0.0,6.361774,-7.6355,-16.965432,9.680149,16.015556,27.229832,28.402812,43.253848,40.797447,0.0,-11.695004,-9.239845,-35.98011,-23.874378,-41.752224,-37.185459,-13.821774,-49.407234,-20.900517,0.0,-50.236708,-57.806907,-99.290278,-53.977178,-100.040515,-44.10727,-28.698473,-31.681759,-20.109763,-18.744564,-22.393231,-95.190296,86.438659
53,-3.984089,4.399439,-2.362576,6.559499,0.0,-48.964806,-47.351418,-115.290127,-50.053539,-127.254467,-46.377239,-43.842258,-39.565258,-32.859879,0.0,10.308089,-7.744768,-15.521769,9.166046,16.370713,26.454093,27.208621,42.269979,39.045774,0.0,-11.616611,-6.643353,-39.445496,-22.543545,-18.057003,-36.137867,-14.449482,-48.612041,-24.58231,0.0,-51.355656,-58.168363,-114.416134,-52.350239,-58.728594,-42.378104,-27.484306,-29.853762,-23.188793,-22.777748,-17.592183,-97.601967,93.399767
54,-4.228477,2.67935,-2.93478,2.513798,0.0,-48.704681,-44.704113,-110.540485,-47.76392,-121.838779,-44.428539,-41.446323,-38.040104,-31.247234,0.0,9.165583,-7.384639,-17.915462,10.613568,16.174471,28.509826,25.557415,44.190262,38.53235,0.0,-12.093201,-2.326527,-22.723904,-19.158955,-41.463776,-33.886929,-14.605064,-47.42712,-23.279629,0.0,-50.62941,-59.070228,-107.956794,-55.695321,-112.364724,-45.533272,-31.203965,-32.578529,-23.443297,-27.152081,-14.7757,-100.682602,96.050697
55,0.107231,2.663172,4.382801,0.101919,0.0,-50.783272,-40.592823,-110.650177,-43.056049,-121.257362,-40.569706,-40.089455,-35.313721,-30.359802,0.0,0.989489,-8.904379,-20.46208,8.48358,12.56414,26.358843,26.150373,42.05447,37.563486,0.0,-16.900177,-5.127983,-18.783016,-22.488728,-43.274689,-37.308311,-15.359688,-50.033455,-24.4697,0.0,-51.472951,-58.798032,-100.300608,-55.093254,-108.0191,-44.598371,-29.930425,-31.265005,-20.837615,-27.710037,-11.986434,-96.964989,96.278711
56,-0.138416,0.370008,0.394077,1.005019,0.0,-52.690029,-38.674736,-111.277771,-40.646954,-120.082912,-37.627029,-38.942413,-31.99894,-28.243904,0.0,7.292168,-8.700664,-18.775089,8.574137,13.508428,26.366407,25.213311,41.574329,34.718613,0.0,-11.653175,-4.920273,-25.547218,-21.623268,-41.285648,-35.84444,-16.025791,-48.217335,-24.11974,0.0,-50.880425,-58.239037,-95.512264,-54.332613,-93.660987,-44.514143,-29.80785,-31.99224,-22.749963,-28.305302,-11.726697,-97.02776,97.173459
57,2.099705,-0.31891,-0.402832,0.632201,0.0,-51.645241,-40.327492,-112.420578,-42.209015,-121.929188,-39.108696,-39.435825,-33.390083,-30.215836,0.0,2.59148,-7.759063,-18.577704,9.886457,13.722516,27.636706,24.811439,42.802452,35.7278,0.0,-9.792194,-4.143906,-24.840889,-20.329857,-39.696808,-34.778252,-16.383648,-47.84935,-23.718224,0.0,-49.46526,-58.043442,-89.965842,-54.930542,-95.672723,-45.41502,-32.434219,-32.907752,-23.199445,-26.387186,-12.13621,-97.612181,97.715056
58,-1.06493,0.787472,1.428108,-0.331198,0.0,-50.918255,-38.991108,-112.178478,-41.090183,-120.000801,-38.363171,-37.735462,-32.946167,-27.734127,0.0,0.079504,-8.871589,-21.558921,8.485278,13.409905,26.178593,24.414785,41.380896,35.117459,0.0,-10.819588,-5.196133,-28.968029,-20.942574,-38.473721,-35.28717,-17.068348,-48.498001,-23.837185,0.0,-52.749301,-56.579247,-92.086877,-53.564839,-91.39731,-44.382862,-32.708823,-31.860218,-23.512735,-27.491741,-11.506371,-96.223698,97.226224
59,-0.163078,-0.141933,0.073643,0.985506,0.0,-49.343147,-39.026756,-110.053997,-40.28492,-119.806767,-36.310444,-36.220894,-29.753151,-26.072102,0.0,9.559303,-7.927888,-17.658457,10.386882,15.878408,28.71987,24.15389,44.244572,35.708071,0.0,-9.804726,-4.621468,-28.415794,-20.24683,-35.51651,-34.467945,-18.517227,-47.693596,-23.967819,0.0,-51.291806,-56.139368,-92.892627,-53.00078,-87.793062,-44.007759,-32.970953,-31.634643,-24.049285,-27.670298,-11.663974,-96.165533,98.196061
60,-1.432629,0.618924,0.227337,-0.310111,0.0,-50.917568,-37.845097,-110.740585,-39.590034,-117.439384,-36.380711,-36.862564,-30.662098,-26.193581,0.0,-3.279379,-8.585438,-21.441657,9.3433,13.456341,27.187471,24.017637,42.444948,34.62148,0.0,-11.187744,-4.673138,-24.764557,-20.994701,-32.257748,-35.147266,-19.145508,-47.497673,-24.54855,0.0,-48.571083,-56.63439,-91.8249,-53.11048,-78.603551,-43.769093,-32.349003,-30.898362,-23.176813,-29.093943,-11.04491,-95.929213,97.886089
61,0.697117,0.033839,0.250969,0.867593,0.0,-48.957996,-40.30592,-109.639492,-41.982307,-117.719479,-37.897797,-36.746178,-31.030712,-26.260815,0.0,2.458315,-6.137559,-18.622597,12.542929,14.221954,30.539191,23.779219,45.21501,35.499633,0.0,-11.603622,-6.315594,-34.646988,-21.623096,-29.243431,-35.475712,-18.334808,-48.30986,-24.914932,0.0,-50.805028,-55.747284,-94.09571,-52.095272,-75.584666,-42.971741,-32.043277,-30.113607,-24.12919,-28.376284,-10.979177,-95.657701,98.785577
62,-2.004547,1.369501,1.036091,-1.266995,0.0,-49.313335,-38.723602,-109.029751,-40.645638,-117.097549,-37.385273,-35.033054,-31.227436,-24.439602,0.0,-1.622122,-7.109325,-21.441812,10.68137,13.505093,28.158497,23.97188,42.917617,34.868543,0.0,-12.326202,-8.172569,-36.691475,-23.347034,-20.922203,-37.182541,-17.880192,-49.954662,-25.112858,0.0,-52.701414,-55.002481,-92.055446,-50.725154,-62.471564,-41.446475,-29.171543,-28.359618,-22.09967,-30.414705,-9.681446,-94.655485,97.446812
63,0.91404,0.947467,-0.35202,0.280192,0.0,-48.060379,-39.120369,-108.948727,-40.918636,-116.538219,-37.263794,-34.988594,-30.622044,-24.39806,0.0,4.345376,-7.551458,-20.326445,10.001992,11.493759,27.844434,23.357309,42.7579,35.108197,0.0,-10.84219,-7.749367,-35.174503,-22.934589,-29.507046,-36.432667,-18.152046,-48.508129,-24.312286,0.0,-52.587824,-53.94587,-93.799524,-50.18385,-73.306415,-41.221457,-29.88229,-28.059789,-22.703836,-29.534454,-8.764128,-95.041294,97.696855
64,0.375652,-0.071816,-1.226292,1.541383,0.0,-51.446457,-38.984642,-110.577106,-40.352039,-117.828712,-36.787205,-36.326694,-30.532093,-25.836468,0.0,-5.09549,-7.06153,-20.493356,10.300432,14.137263,27.745664,25.136864,42.744778,36.377754,0.0,-9.93639,-4.899273,-16.791344,-20.965462,-37.289658,-34.98848,-18.125896,-47.441883,-23.535748,0.0,-47.964633,-54.949901,-89.743572,-51.817796,-87.652796,-42.646872,-32.178109,-29.473194,-22.619083,-29.171362,-8.850795,-96.280146,99.223387
65,1.100979,1.764117,0.479908,-0.13369,0.0,-50.134792,-39.228115,-111.091862,-41.505775,-119.715843,-38.389778,-37.441349,-32.445545,-26.87994,0.0,-1.762974,-7.944808,-18.626827,9.862591,13.705226,27.605676,24.113412,42.542668,35.240312,0.0,-12.537861,-7.088585,-29.59322,-22.529354,-14.340477,-36.189423,-17.714882,-48.485413,-25.020561,0.0,-47.16302,-54.628891,-90.497297,-49.96374,-45.978832,-40.612968,-28.456195,-27.928631,-22.019456,-28.060284,-7.150343,-95.790138,99.026033
66,-1.913452,0.144743,-1.740646,0.362907,0.0,-49.865913,-38.921185,-110.955048,-40.329094,-117.151108,-36.480103,-35.750027,-30.038166,-25.53503,0.0,3.477042,-7.617716,-19.881039,10.31414,13.597873,28.09653,23.080729,42.74487,34.674956,0.0,-8.600407,-3.813515,-6.099758,-20.012226,-41.570091,-33.82164,-17.624187,-45.758915,-22.398491,0.0,-45.504187,-54.994855,-88.245847,-52.212135,-94.218068,-42.422008,-32.843037,-28.73398,-21.275302,-29.896345,-7.086894,-97.453394,99.307645
67,1.002731,-0.665052,0.485344,1.681711,0.0,-52.640705,-38.667183,-111.286812,-40.092316,-118.118706,-36.67345,-36.805916,-30.814648,-26.802063,0.0,-8.131757,-6.969738,-19.968756,11.110134,13.607907,28.987218,25.257339,43.985868,37.26517,0.0,-10.130997,-5.89016,-35.024529,-20.995789,-18.486156,-34.492207,-16.100979,-46.875629,-24.583912,0.0,-46.509824,-54.53077,-93.584911,-49.954601,-57.822067,-40.793434,-29.988038,-28.266961,-23.4956,-28.671656,-7.904006,-96.746092,100.837296
68,-0.646076,1.293671,0.42841,-0.061843,0.0,-52.021923,-39.131413,-110.229549,-41.137333,-117.331009,-37.632008,-37.186661,-31.509304,-26.563339,0.0,-2.662894,-7.335177,-18.416227,11.111369,15.9635,29.03773,23.073041,43.538456,34.249434,0.0,-9.18251,-5.934963,-25.567417,-21.583958,-32.578068,-35.168495,-17.312851,-47.129745,-23.043823,0.0,-47.307392,-54.555995,-91.65697,-51.082102,-79.798205,-41.996301,-31.648568,-28.774395,-22.313635,-29.089222,-6.666976,-96.089172,100.718812
69,0.115242,0.272165,1.295185,-0.81174,0.0,-51.901073,-39.159679,-110.232983,-40.768604,-116.734715,-37.117596,-36.700516,-30.795364,-25.999947,0.0,-2.945371,-7.679158,-19.393087,10.145006,14.345146,27.78114,23.737939,42.34871,34.635775,0.0,-11.742096,-7.900372,-35.7304,-22.812023,-11.812534,-36.260147,-16.642513,-48.57914,-24.61504,0.0,-50.844085,-53.223699,-91.478975,-48.871808,-48.329948,-39.831918,-28.925128,-26.930404,-21.794777,-28.84306,-6.574196,-94.663067,99.727687
70,0.014992,0.056378,-0.298634,-0.031585,0.0,-51.437817,-40.299282,-109.916039,-41.995239,-116.589661,-37.947578,-36.860962,-31.139145,-26.42395,0.0,5.835507,-7.075671,-18.777436,10.85035,15.355753,28.513654,22.736656,42.781735,33.238456,0.0,-11.230602,-8.936405,-36.60965,-23.271732,-9.077911,-36.324234,-16.564922,-48.225174,-24.785156,0.0,-46.766489,-51.524945,-95.157045,-47.213964,-42.155802,-38.692438,-26.992772,-26.674171,-22.736563,-28.709135,-6.84934,-94.842768,99.364579
71,-0.465946,-0.409745,-0.073872,1.494514,0.0,-51.779194,-38.806744,-108.806419,-40.017357,-115.710011,-36.122417,-35.57682,-29.513054,-25.283947,0.0,-7.981055,-6.615383,-19.678745,11.163301,14.812504,28.649783,24.155804,43.204787,35.097823,0.0,-10.060158,-8.800678,-38.261089,-22.944202,-9.007702,-35.903549,-16.454544,-47.78801,-24.58374,0.0,-46.248311,-52.196141,-96.578293,-47.697655,-43.624783,-39.129507,-29.020594,-27.203743,-23.990066,-29.175854,-7.747824,-94.917412,100.370355
72,1.271725,0.587246,-0.37714,1.094588,0.0,-50.490646,-39.648743,-109.636002,-41.291027,-117.091656,-37.516823,-36.952457,-30.88789,-26.724701,0.0,2.192973,-7.220661,-19.047841,10.054634,15.02968,27.387666,24.117704,42.011553,35.16547,0.0,-9.80547,-7.692719,-35.265999,-22.050362,-7.955704,-35.162201,-16.044331,-47.239552,-24.78756,0.0,-46.153215,-52.499675,-96.926411,-48.168625,-42.673271,-39.926736,-29.228323,-28.35511,-25.042046,-27.896605,-7.480368,-95.287027,101.145153
73,-0.620899,0.583912,-0.546055,0.542755,0.0,-49.875069,-38.051033,-110.022125,-40.054607,-116.766129,-36.930771,-37.174988,-31.025105,-27.096519,0.0,7.510332,-7.719975,-20.125509,9.498325,13.276771,26.949825,23.050966,41.753282,34.164743,0.0,-10.942211,-4.521332,-14.611416,-20.043182,-11.174984,-33.738098,-16.824932,-46.280422,-25.15131,0.0,-45.199449,-52.911829,-93.726319,-49.335584,-49.788616,-41.199319,-31.362942,-29.502741,-26.245561,-28.518248,-7.060496,-95.833826,101.523868
74,-0.433559,0.030752,-0.322437,0.405268,0.0,-50.595531,-38.038216,-109.762402,-39.61441,-115.948277,-36.179867,-35.738125,-30.022717,-25.622635,0.0,7.948359,-7.749677,-20.348119,9.492706,12.267615,27.033342,23.364905,41.946067,34.444195,0.0,-8.963871,-6.325951,-29.023075,-20.481205,-8.503475,-33.632641,-16.012859,-46.096916,-24.712658,0.0,-45.230726,-52.211548,-92.458027,-48.384504,-47.136498,-40.416293,-32.328749,-28.631814,-26.407595,-28.904915,-7.231915,-96.109371,101.726965
75,0.304356,0.59796,-0.037308,-1.014652,0.0,-50.457687,-37.929211,-109.618835,-39.268341,-116.053619,-35.634899,-35.532761,-29.349918,-25.534115,0.0,1.774892,-7.529691,-20.768207,9.967288,11.780774,27.440432,22.736625,42.028751,34.050906,0.0,-9.0798,-4.822483,-11.416111,-19.691334,-9.984226,-33.237877,-16.035805,-46.280079,-25.570621,0.0,-47.029021,-50.652659,-86.244238,-47.850919,-51.174048,-40.324594,-31.364949,-28.836238,-26.124562,-28.574324,-6.806532,-96.120443,100.539736
76,0.131493,-0.147028,0.516129,-0.615652,0.0,-51.386089,-37.866554,-110.015602,-39.220848,-116.734085,-35.788822,-36.028919,-29.781647,-26.304474,0.0,-3.239859,-7.323846,-21.342857,10.351592,11.327835,27.827823,23.756649,42.537018,34.665415,0.0,-8.646641,-6.202869,-21.240406,-20.621281,-14.804993,-33.989582,-16.243572,-46.802845,-25.986958,0.0,-48.57201,-50.32779,-85.038901,-47.282815,-58.367107,-39.784216,-30.332759,-28.068835,-25.026454,-28.400002,-7.089657,-95.561485,99.787987
77,0.608196,0.572426,-0.648708,0.693303,0.0,-51.13924,-38.467541,-110.847645,-40.010891,-117.679653,-36.383629,-36.704407,-30.071812,-26.764755,0.0,0.549579,-7.367195,-20.003336,10.416986,12.673191,28.044227,23.38377,42.703497,34.099195,0.0,-7.918282,-4.655514,-11.020489,-19.285698,-12.826653,-32.844315,-16.028538,-46.208611,-25.978146,0.0,-46.347852,-49.78698,-82.607046,-47.32919,-56.877656,-40.112049,-31.95201,-28.76998,-26.544125,-27.706118,-6.559901,-96.124506,100.43862
78,-0.585423,0.057428,1.90361,-1.478058,0.0,-51.189194,-38.586044,-110.037975,-40.112,-116.278896,-36.6366,-35.931187,-30.769787,-25.939522,0.0,-2.251204,-7.909116,-19.97774,9.838292,12.419644,27.513791,24.526461,42.446245,35.232531,0.0,-8.306179,-8.662663,-25.875607,-22.167721,-8.611736,-35.042725,-17.060852,-47.680149,-26.695576,0.0,-52.134947,-49.204951,-85.530866,-45.623397,-44.693559,-37.772264,-29.196212,-25.776258,-24.53526,-28.156929,-6.598417,-94.086285,98.864617
79,-1.077862,0.210692,-0.894699,1.032837,0.0,-50.303192,-38.566532,-108.289433,-40.258884,-115.058556,-36.15303,-35.461864,-29.467392,-24.263306,0.0,4.768212,-6.71792,-18.723682,11.387054,15.031069,29.172531,24.791741,43.426409,35.026532,0.0,-8.974686,-6.815414,-22.860661,-20.728283,-8.950253,-33.775177,-17.347698,-46.724854,-26.896133,0.0,-45.822572,-49.05709,-87.028036,-45.72831,-44.380083,-38.306498,-30.343566,-26.907186,-24.948247,-29.21196,-6.5103,-94.958153,99.77488
80,2.853298,2.042024,0.056534,0.939749,0.0,-52.05162,-38.909283,-109.539299,-40.643177,-116.722126,-37.212296,-37.951641,-31.41386,-27.349148,0.0,5.298216,-7.99109,-20.245614,10.16103,14.16221,28.017644,23.944371,42.427627,34.812351,0.0,-8.680859,-7.336864,-28.104801,-20.748196,-7.321815,-33.79612,-15.8535,-46.70557,-25.564327,0.0,-49.692471,-49.112017,-87.921996,-45.950488,-44.03215,-38.390324,-28.924233,-26.602201,-23.721112,-26.371794,-4.616955,-94.914751,100.565949
81,3.253727,3.832261,-0.463943,0.600523,0.0,-49.252167,-38.851891,-109.495468,-41.321297,-119.320164,-38.576603,-39.936447,-32.983589,-29.570503,0.0,-1.465739,-7.909857,-20.697966,9.869939,9.692715,27.369481,21.856713,41.680633,33.260408,0.0,-8.546162,-7.154732,-20.375862,-20.944176,-7.078056,-34.126396,-15.27586,-46.902752,-24.931927,0.0,-48.303241,-48.557653,-78.743755,-45.635098,-43.837822,-38.471093,-29.352842,-27.320729,-24.715386,-23.068171,-0.935858,-95.328798,101.015307
82,0.185337,0.772714,-0.389099,0.956082,0.0,-48.320847,-39.11768,-109.152317,-42.933998,-120.711594,-41.132584,-39.87957,-36.381969,-30.507317,0.0,-0.125755,-7.948266,-21.720553,9.452537,11.850151,26.760251,25.213125,41.83504,37.443103,0.0,-8.053493,-7.84996,-20.441093,-21.272221,-6.976433,-34.108772,-15.655804,-46.740189,-24.724789,0.0,-46.877115,-47.339379,-82.181092,-44.272946,-42.31941,-37.225433,-29.412524,-26.416517,-24.818973,-22.837372,-0.381448,-95.672436,101.753085
83,1.057205,5.064707,-2.882538,3.814014,0.0,-46.264,-39.442005,-106.072998,-41.812134,-117.591248,-38.984814,-40.77261,-33.2547,-30.862141,0.0,1.273139,-9.203498,-22.798777,7.791543,8.894653,24.991287,23.113673,40.237556,35.55456,0.0,-0.993233,-4.848919,-11.012421,-18.601856,-5.145092,-31.672897,-11.115932,-44.484158,-20.615387,0.0,-43.774311,-48.580562,-71.704393,-45.84471,-43.928101,-39.146458,-31.257657,-29.057058,-27.11723,-21.924763,4.353389,-98.69957,105.237229
84,6.980209,4.200263,-0.457478,1.997441,0.0,-43.548717,-40.306778,-107.392387,-44.079494,-119.299049,-42.04937,-43.316231,-36.70332,-33.334179,0.0,5.470407,-10.049663,-22.084603,7.348855,7.259872,24.850033,21.578651,40.414502,35.039716,0.0,2.935524,-7.578163,-17.060795,-19.839649,-3.135681,-32.013016,-10.946045,-44.487247,-19.320946,0.0,-43.997292,-46.854978,-83.822912,-43.810127,-41.157792,-37.47756,-29.937248,-28.109652,-26.647032,-15.29274,8.138303,-99.505234,106.819321
85,7.629089,4.258154,-2.151604,3.363144,0.0,-46.316299,-41.402035,-97.360096,-45.606651,-118.56823,-43.416138,-49.856243,-38.142471,-39.52755,0.0,0.748569,-8.015389,-20.37532,10.375397,12.222352,27.741126,20.007103,42.117702,33.714058,0.0,5.312576,-4.185333,-17.262955,-17.71677,-7.088757,-31.170731,-6.710415,-44.343624,-14.109421,0.0,-47.987789,-50.231243,-87.383224,-48.306298,-77.026445,-41.860882,-33.093837,-31.230765,-28.0408,-7.316294,10.866235,-101.309481,108.652243
86,2.908058,11.427439,2.432728,1.354526,0.0,-50.659218,-36.733246,-86.502514,-41.121998,-106.202888,-39.649544,-46.595993,-35.783215,-36.052895,0.0,-7.077801,-9.516294,-25.684528,9.096453,7.709662,26.959612,16.664213,41.459443,30.640122,0.0,4.697857,-11.190834,-9.647141,-23.568363,-0.103912,-35.345535,-5.944748,-46.324139,-15.04303,0.0,-48.088566,-49.698214,-90.956381,-46.474719,-60.101398,-39.095668,-31.775373,-28.24047,-26.291102,-3.57748,20.63441,-98.045998,108.347504
87,3.337669,6.699827,-2.014961,2.744127,0.0,-51.797447,-33.80476,-90.126858,-36.397133,-110.741615,-34.644585,-48.744049,-31.06041,-37.478313,0.0,-7.80976,-11.15586,-21.259154,7.845946,9.257776,25.977596,18.921283,41.19475,32.582358,0.0,5.209064,-7.740612,-4.240322,-20.427647,11.346073,-32.949944,-1.220684,-43.829269,-10.23674,0.0,-48.611437,-50.838558,-95.146856,-49.926999,-84.451222,-43.051307,-33.68414,-32.100334,-25.833841,0.608654,25.913885,-99.212494,109.671279
88,-1.69075,17.035426,0.653172,6.481323,0.0,-33.734894,-29.132023,-86.902771,-28.94949,-94.790611,-26.078053,-44.648552,-23.186474,-35.408878,0.0,-6.383294,-5.565534,1.857082,13.776918,17.831821,30.529959,28.975763,42.423953,36.969941,0.0,5.528183,2.031956,40.924759,-12.670097,16.830254,-29.236279,-2.31102,-43.691196,-8.867397,0.0,-50.663434,-49.090528,-89.079261,-50.813179,-127.36924,-45.087681,-29.374517,-34.74495,-25.505421,0.236378,40.832522,-97.240849,114.035813
89,14.87526,22.840536,2.493382,2.230456,0.0,-50.859204,-45.449009,-99.401179,-42.515202,-97.592268,-36.61048,-64.523278,-29.037524,-53.48259,0.0,7.155885,-2.831133,10.773779,16.298049,25.876248,34.427645,37.919878,49.250369,47.579016,0.0,25.22604,-2.238922,24.008045,-17.423573,-2.060852,-31.962833,2.173691,-43.493385,-5.083294,0.0,-40.866515,-50.545244,-107.396872,-49.450564,-112.646367,-41.600635,-20.475757,-29.827456,-17.679946,15.850125,61.676821,-94.00898,114.270033
90,14.875259,22.840536,-0.030499,9.183768,0.0,-67.983513,-61.765995,-111.899586,-56.080914,-100.393925,-47.142906,-84.398003,-34.888573,-71.556301,0.0,20.695064,-0.096732,19.690477,18.819179,33.920675,38.325331,46.863993,56.076784,58.188092,0.0,25.149021,-0.174065,31.482582,-15.796509,16.819153,-30.286961,13.726158,-41.883545,1.028137,0.0,-33.663144,-50.40646,-98.570299,-48.886196,-94.674589,-40.732517,-15.677287,-27.8323,-11.221748,31.260338,82.264362,-93.504524,121.200806
91,7.98912,17.85297,5.974903,8.79261,0.0,-65.243626,-47.20499,-106.766624,-42.714958,-100.517406,-35.097542,-93.710747,-24.693604,-75.888977,0.0,5.487728,9.489217,39.311115,28.099895,57.175386,44.419541,67.808868,58.437996,78.903688,0.0,19.68092,-5.082207,30.273457,-20.046673,31.461525,-32.054043,17.576523,-41.231461,3.35146,0.0,-42.801032,-51.072932,-84.323491,-47.584312,-62.95896,-36.22026,-12.045066,-19.70505,-6.098347,39.584913,98.612614,-87.194166,128.488698
92,10.591049,17.748674,-0.336342,4.780285,0.0,-61.450481,-48.300705,-111.471519,-42.320824,-109.183273,-33.813744,-100.954285,-23.507195,-77.865887,0.0,11.042147,16.211212,53.80616,34.421409,71.725759,51.24432,82.054565,66.071521,89.959606,0.0,31.814289,-7.960396,39.312916,-19.20187,37.07531,-27.259426,24.997044,-33.273811,9.136505,0.0,-51.670676,-45.382663,-39.853191,-37.715917,-26.082293,-23.892161,-3.899106,-6.637737,0.802817,49.977894,115.351514,-87.728577,132.259209
93,6.809235,21.894041,-2.002144,15.98712,0.0,-64.015675,-45.350304,-110.478115,-39.817657,-111.39782,-32.064056,-100.194225,-22.579193,-75.20874,0.0,19.295213,19.624343,58.862901,37.595936,79.991237,53.144257,89.479002,66.134382,94.91273,0.0,41.555557,7.003727,44.223633,-7.487926,38.03112,-16.935825,23.751755,-23.11758,13.403549,0.0,-28.180789,-44.072751,-20.576472,-35.497996,-10.176715,-21.742999,-1.546539,-4.185196,7.548432,56.635265,135.784185,-89.882584,146.784959
94,0.942993,20.211589,-2.510204,12.536816,0.0,-61.475029,-45.081825,-108.18243,-39.425697,-109.409237,-31.026077,-97.311859,-20.137367,-70.791607,0.0,25.401896,23.956999,63.221986,41.389078,82.988602,55.988172,93.186126,67.370811,99.925319,0.0,49.900188,9.429417,60.007839,-3.643112,58.214207,-12.059498,51.078129,-17.716885,30.572147,0.0,-23.796571,-41.087674,-9.915202,-32.76588,4.013283,-17.727555,11.494098,0.670548,17.597077,57.426682,154.312412,-92.544365,157.638412
95,-0.800743,21.052815,1.760273,4.486476,0.0,-64.175663,-41.813622,-104.268608,-36.445999,-107.685356,-28.274002,-95.373116,-17.67025,-67.875309,0.0,23.786876,24.115574,64.367827,41.821763,85.437067,56.973462,94.487331,68.15325,101.13606,0.0,47.775307,10.450974,70.665722,-2.478104,72.190018,-11.016998,65.827103,-14.999714,47.481709,0.0,-15.60223,-27.6866,6.511149,-17.812647,20.717695,-3.572755,25.115189,12.694156,31.745825,56.395254,173.953396,-91.014776,160.713058
96,-3.472824,20.359173,5.004501,5.788175,0.0,-62.345467,-39.963913,-102.280598,-32.98027,-104.309006,-23.738594,-91.243057,-13.013763,-65.079803,0.0,25.065418,23.456141,65.792285,41.6128,84.601646,56.958333,93.627642,68.513996,98.339569,0.0,56.002579,10.723972,59.838524,-0.212288,53.387833,-9.831848,45.001659,-16.426105,30.294399,0.0,-10.446749,-14.54568,20.649091,-4.668516,33.091861,6.435875,36.050199,18.261758,39.265296,52.710085,193.311826,-86.22262,165.50049
97,-3.095512,18.164316,17.263699,18.827207,0.0,-52.863922,-38.320656,-97.191525,-31.385307,-100.100441,-21.800423,-86.214466,-10.435982,-60.1894,0.0,27.088424,27.790896,64.900856,44.425716,81.990159,57.544468,91.460388,66.230898,96.128719,0.0,56.315575,54.879742,48.14764,55.60112,40.527077,49.99609,35.097198,41.092873,37.724075,0.0,-7.910598,18.41953,60.457976,34.741523,84.335008,49.604476,95.345477,60.776978,102.376193,49.539642,211.025889,-69.033852,183.877444
98,0.071297,14.163754,-0.730934,21.079985,0.0,-41.713142,-36.078415,-96.536636,-29.802132,-101.992836,-21.206017,-88.493099,-11.085892,-62.467117,0.0,31.063977,31.183094,66.267763,45.927116,82.290328,57.274866,92.714724,65.039671,98.416942,0.0,60.700378,38.319855,71.766586,29.103584,68.887939,16.44865,56.441002,1.756554,35.882492,0.0,-6.214191,9.261636,41.423844,21.133276,51.182199,31.625721,57.028111,41.108423,55.079577,49.466887,224.64999,-69.908838,204.417777
99,-0.895386,16.217511,-5.371571,14.160296,0.0,-39.907036,-35.324135,-98.825569,-30.368614,-102.133427,-23.494034,-89.609299,-14.497948,-66.171455,0.0,29.050667,34.002062,63.365062,46.303052,75.304566,55.636071,85.808311,62.287826,93.908792,0.0,69.721699,24.401722,81.152058,13.570919,79.077816,2.283497,69.360867,-8.562412,44.967613,0.0,-7.238013,-3.137353,40.162159,7.539355,55.210055,20.385355,62.036502,34.977039,61.025771,48.296299,240.290876,-75.555611,218.001447
100,-9.264336,12.675445,2.133179,10.246863,0.0,-52.052021,-26.596985,-90.710335,-20.078659,-89.496918,-11.830215,-77.288074,-2.270737,-51.993141,0.0,23.252735,43.584861,64.830029,51.008372,56.582891,54.133313,72.824607,52.631235,83.980005,0.0,71.306705,22.982826,81.609707,12.019157,80.032597,0.726871,63.124866,-10.047455,38.80228,0.0,-5.741615,3.529407,52.256348,16.001693,66.159947,29.481993,72.497639,43.297722,73.448101,38.847198,252.630831,-73.607197,227.91282
101,12.62352,53.93176,12.378788,11.933885,0.0,-73.662071,-36.708641,-104.67556,-37.688141,-97.700901,-36.516151,-78.899746,-35.052795,-64.827404,0.0,40.856728,17.958996,17.216138,2.608708,-21.549597,-16.164961,-39.753804,-36.101823,-48.336185,0.0,58.099823,45.58485,76.281395,39.315205,70.464821,28.710709,61.909676,15.451298,53.980694,0.0,-0.289733,23.104719,53.098377,40.175065,68.647007,54.200745,79.124508,65.558004,82.690038,51.300945,306.367599,-61.398182,239.651713
102,-15.290108,-41.43076,-1.806278,8.646848,0.0,-52.294121,-31.385422,-80.375404,-25.745316,-85.611305,-18.836975,-76.765766,-10.466194,-58.319893,0.0,40.395205,35.153954,26.503771,44.402004,25.534351,51.39246,43.79895,55.698069,73.20851,0.0,69.100742,24.738579,84.477596,14.243317,83.595257,4.305325,73.127346,-5.09697,52.55476,0.0,-3.034909,9.231995,50.481024,26.133886,65.09395,42.522198,72.213278,57.031693,75.783564,35.979967,264.897195,-63.235331,248.258917
103,1.06945,2.822982,-0.472183,5.173203,0.0,-54.931068,-23.511429,-88.185024,-20.028419,-93.956108,-16.677589,-86.979103,-12.654991,-68.57666,0.0,17.707239,37.527022,22.634675,49.464241,35.433251,56.623152,52.007123,59.887649,75.05108,0.0,67.381611,25.439129,85.722942,14.102783,84.715519,4.025002,70.072575,-5.121288,50.522003,0.0,-2.895971,13.829869,56.155763,30.612705,72.561921,45.954471,77.917102,57.985983,79.751336,37.026415,267.737328,-63.730516,253.449271
104,-0.748215,1.505475,2.278633,3.975986,0.0,-62.914696,-24.764557,-90.156727,-19.936981,-91.58392,-15.220528,-82.846241,-11.027527,-65.5826,0.0,-1.532151,48.535392,43.719292,55.598404,42.426547,56.635564,49.357104,52.320692,57.845501,0.0,66.772671,26.672058,87.595768,16.429253,85.161953,6.303978,72.294674,-3.641739,50.796947,0.0,0.772374,19.658676,59.392226,36.92687,75.043917,51.087104,81.413534,61.207688,84.632151,36.31402,269.305372,-61.416063,257.487825
105,-0.559273,-1.523753,2.902737,2.628345,0.0,-60.399971,-31.817322,-64.405575,-27.505989,-54.721069,-21.456184,-44.190731,-14.626007,-37.415543,0.0,-3.089805,31.426205,42.995515,44.108196,51.980632,52.961476,58.627261,58.357721,62.922311,0.0,65.798607,26.497593,88.633575,16.767883,86.586342,6.959095,74.178886,-2.883511,54.303589,0.0,2.748387,22.029645,59.332204,39.202743,75.77708,52.753377,82.992739,62.864204,84.065961,35.768566,267.801549,-58.499508,260.1361
106,1.891022,3.441906,1.810741,3.314639,0.0,-58.949318,-41.612892,-19.879417,-37.907867,-6.582756,-32.070465,-5.455055,-25.046082,-10.073318,0.0,-5.938846,22.960285,56.417214,31.81585,67.109236,38.701638,66.204654,43.23665,63.421502,0.0,64.052753,28.445892,87.992306,19.187279,86.821346,9.403896,74.190159,-0.601501,54.707279,0.0,1.19308,25.286361,57.090294,42.173926,74.957158,54.98479,82.732708,64.134225,85.194203,37.749281,271.109426,-56.599073,263.316709
107,-13.90686,3.297781,2.455273,2.576042,0.0,-37.700444,-33.764105,-1.284485,-35.816832,5.845985,-36.497727,3.297443,-35.425301,-12.320824,0.0,-3.406739,19.007394,50.418347,30.83232,62.059998,39.742936,64.390489,46.729501,64.936764,0.0,65.909958,28.076591,86.296349,18.951073,86.338348,9.296494,73.47393,-0.244961,54.81823,0.0,1.854303,29.149776,60.566965,45.924831,75.353657,58.026862,83.560719,65.928321,85.923537,24.006043,274.335344,-53.980179,265.820889
108,-13.906861,3.297781,-0.3158,1.632372,0.0,-16.451569,-25.915318,17.310448,-33.725796,18.274727,-40.924988,12.049942,-45.80452,-14.568329,0.0,-0.874633,15.054503,44.41948,29.848791,57.010759,40.784233,62.576324,50.222351,66.452027,0.0,66.89352,27.953053,87.591305,19.227734,87.886562,9.684849,74.848309,0.468807,54.608974,0.0,2.812176,29.858732,60.134095,46.044874,72.507396,57.754605,80.240832,65.628338,84.771213,10.458241,277.474519,-53.93692,267.294655
109,-15.288162,12.866501,0.184708,-0.017105,0.0,11.843262,-13.448524,36.396904,-20.29707,40.245209,-23.779392,26.63269,-25.181065,-7.128811,0.0,-23.263788,7.406097,31.992765,23.490042,47.263518,36.426074,54.781631,46.310709,53.604359,0.0,68.124561,26.591034,87.842274,17.757454,86.756344,8.908482,74.074345,0.984135,55.46751,0.0,5.375126,28.864674,60.674843,45.95126,73.197518,58.096949,80.229779,65.922579,83.371886,-4.422512,290.153006,-53.344803,267.089536
110,0.971489,4.002044,0.057621,-0.14252,0.0,10.279655,-16.728973,35.299873,-24.625454,35.946236,-28.151321,24.325104,-28.392849,-34.484596,0.0,-24.365107,5.499924,31.884208,20.48292,43.746956,32.410321,50.369441,41.405318,51.307862,0.0,67.965775,26.297436,86.972809,17.513466,85.655708,8.919582,73.558617,1.276703,55.397186,0.0,7.962716,28.760316,60.416294,46.192519,72.646581,58.395018,79.543114,66.069977,82.185105,-2.952719,294.031904,-52.788877,266.82387
111,30.531921,-14.286699,0.24765,-0.101641,0.0,-41.318092,-42.313957,-1.990356,-51.043854,-0.100594,-54.743671,-7.841606,-55.395813,-31.94252,0.0,-5.390502,18.255151,38.151319,35.979372,50.052167,49.23101,56.818468,58.976336,61.355395,0.0,68.346519,25.347805,86.881714,16.506157,85.918121,8.064022,74.437294,0.7057,55.830231,0.0,9.877534,28.047099,60.007321,45.800157,72.365493,58.347223,79.593688,66.201135,82.218636,28.002748,279.653429,-52.117682,266.630452
112,-15.000687,7.117044,-0.655975,-0.16086,0.0,-15.551834,-32.310905,18.275299,-39.529324,21.990395,-41.216755,9.350853,-40.1754,-17.110977,0.0,-19.184803,13.084295,33.229873,29.31218,45.926437,41.488929,53.917496,50.854861,55.458971,0.0,67.986145,26.010361,87.478523,17.401028,86.916733,8.8797,75.327072,1.307945,57.083588,0.0,10.709744,29.169845,59.136332,46.877764,71.118443,59.129539,78.801677,66.628386,81.968114,13.523111,286.599918,-52.252607,266.299038
113,-6.057472,4.868217,-0.038567,0.105531,0.0,-3.739815,-27.551193,23.21846,-35.170555,26.79863,-36.744747,17.77462,-34.863281,-22.694092,0.0,-19.241737,5.895065,29.229372,20.865649,42.257042,33.511887,49.152093,43.704039,49.291402,0.0,68.19706,25.914345,87.641258,17.16671,87.101669,8.485336,74.8629,0.818539,56.278381,0.0,11.445377,28.548697,58.896617,46.250194,71.074786,58.539885,78.613585,66.118574,82.257909,7.833481,291.316275,-51.923332,266.252709
114,-7.638245,4.498147,-0.951405,0.511911,0.0,0.257607,-21.358681,28.858566,-27.892399,30.563507,-29.785824,23.315048,-28.476048,-4.72126,0.0,-25.247026,3.814508,25.218745,17.291597,37.262854,28.872331,44.856858,38.309276,47.812973,0.0,68.537807,27.744656,88.48177,19.365177,88.160534,10.606613,75.163021,2.493038,56.241817,0.0,10.427298,27.959413,56.805377,45.394766,69.432904,57.637217,76.810164,65.469639,81.932484,0.779057,295.628893,-52.290916,266.579091
115,-8.987846,0.306529,0.052414,-0.473687,0.0,14.119263,-12.066936,37.445869,-19.009209,40.405884,-21.621723,32.34272,-21.052494,-13.183308,0.0,-25.179718,4.147837,25.79043,19.098476,40.052984,30.800303,45.609719,39.749172,49.736993,0.0,68.131428,26.921825,87.691669,18.64769,87.595882,10.112343,74.832859,2.312679,56.313572,0.0,11.382021,27.97201,57.873351,45.614659,69.938887,58.050142,76.744153,65.946538,81.228838,-7.679157,295.793149,-51.70887,265.963131
116,-1.933193,-3.816731,-0.301266,-0.633497,0.0,15.169315,-9.71838,39.368992,-16.422215,41.540737,-19.4767,33.640652,-19.688816,-9.754658,0.0,-20.265806,5.268977,25.191142,21.061213,41.495165,33.729619,48.306359,43.548181,53.101896,0.0,68.059158,27.180462,87.998085,18.872223,88.00724,10.299625,74.91497,2.461796,56.024323,0.0,12.183048,28.797552,57.663276,46.22006,69.875346,58.387608,77.015731,65.92721,81.573529,-9.156218,291.939044,-51.554003,265.292259
117,6.156349,1.824231,-0.805721,0.387546,0.0,2.473927,-18.804016,30.873241,-25.058327,33.597736,-26.755943,26.836567,-25.54985,5.150471,0.0,-24.941547,5.316896,26.102887,20.46174,40.626152,32.617247,46.272733,41.783849,49.856356,0.0,67.710972,27.618084,88.966885,19.400311,88.943424,10.720139,75.46114,2.683411,56.614094,0.0,11.710039,28.477623,56.628524,45.911061,69.078086,58.082499,76.271145,65.69756,81.237854,-2.437906,293.786153,-51.797762,265.702683
118,-2.461338,-0.706178,-0.315399,0.184695,0.0,8.076668,-16.391258,31.452484,-22.688541,34.862137,-24.46352,29.204178,-23.341656,8.75061,0.0,-22.337594,5.607308,26.116534,20.866576,39.793386,32.906856,46.238029,41.948043,50.503995,0.0,67.771626,27.831573,89.35564,19.734135,89.205952,11.14912,75.470524,3.100204,56.524715,0.0,11.486997,28.818238,55.798599,46.116875,68.032096,58.04866,75.15692,65.54411,80.559649,-4.416361,293.11491,-51.630278,265.922314
119,3.354034,2.057153,0.277805,-0.254103,0.0,1.551704,-20.247231,27.983665,-26.864433,30.64888,-28.504887,25.095863,-27.137833,7.122459,0.0,-26.2007,4.389281,23.397046,19.21926,37.462308,31.416016,44.068429,41.092676,48.344768,0.0,67.895622,27.434292,89.019928,19.308186,88.696861,10.767632,75.092583,2.889977,56.54892,0.0,12.032932,28.819844,56.400665,46.214441,68.6743,58.214522,75.493707,65.678294,80.494873,-0.317516,295.211013,-50.607662,265.70716
120,-5.779438,-2.776052,-0.219841,0.4078,0.0,6.542187,-15.024376,34.230022,-20.473995,37.092075,-21.819992,31.624889,-20.089874,10.138493,0.0,-22.428305,6.169607,24.979771,21.656302,39.552868,33.807363,46.201349,42.746105,51.733754,0.0,68.054123,27.746029,89.688835,19.668732,89.367828,11.077309,75.276146,3.006477,56.391678,0.0,11.44229,28.629097,55.003624,45.905195,67.629854,57.794619,74.762582,65.281115,80.415771,-5.726137,292.524376,-50.456686,266.204374
121,5.824871,0.643933,0.053959,0.014758,0.0,3.079147,-21.057014,28.937073,-27.629356,32.47261,-29.35524,27.059669,-27.799644,9.068756,0.0,-22.468134,6.296504,23.902843,21.133337,38.568072,33.026961,44.377922,42.393325,48.777515,0.0,68.273678,26.625195,89.78056,18.262539,89.056377,9.77829,75.615749,2.144222,57.152767,0.0,11.238822,28.131944,55.82194,45.457689,68.646574,57.572626,75.44054,65.27562,80.174821,0.473156,293.209821,-50.028305,266.260644
122,-4.589539,1.222411,0.144711,-0.328142,0.0,7.632408,-16.493397,34.807091,-21.958351,39.42009,-23.17503,34.420738,-21.263752,15.296402,0.0,-23.506468,5.348882,21.876133,20.757648,37.636629,32.973423,44.067379,42.323671,49.93867,0.0,68.245583,26.600761,89.854317,18.054199,89.048996,9.398518,75.487289,1.637821,56.555443,0.0,11.784634,27.828688,55.8304,45.268363,69.26729,57.504577,75.872546,65.262652,80.596391,-3.524094,294.590637,-49.291306,266.090908
123,1.32019,-3.293026,-0.072784,0.320176,0.0,5.777321,-16.109905,34.580269,-22.638016,36.331215,-24.65023,29.564323,-23.302231,7.403526,0.0,-19.84967,7.963457,25.889292,23.699438,40.274668,35.639497,45.916433,44.503398,50.498128,0.0,67.919083,26.288166,90.023003,17.890892,89.141579,9.468384,75.526772,1.941605,56.802635,0.0,11.644707,27.617501,55.319354,45.072799,68.876101,57.34699,75.71181,65.185773,80.459305,-1.750145,291.477166,-48.910332,266.590639
124,6.949539,0.574958,-0.435219,-0.241815,0.0,-3.440094,-25.693874,25.370636,-31.662827,28.965225,-32.510548,23.95237,-30.129948,7.410507,0.0,-20.982728,7.681628,25.494275,22.213043,38.90029,34.06622,45.816212,43.267217,50.246866,0.0,67.923775,26.534386,90.478592,18.177738,89.617538,9.758434,75.950661,2.246075,57.370033,0.0,11.997117,28.111752,55.766982,45.463864,69.127981,57.595906,76.063602,65.301678,80.649187,5.526037,292.191526,-49.018908,266.488225
125,-2.732506,2.627295,0.029297,-0.40959,0.0,1.039696,-21.572742,31.057663,-28.244648,35.034027,-29.677849,29.185524,-27.809944,9.496651,0.0,-23.529377,4.057558,23.642195,19.479785,37.791684,32.05186,45.122693,41.893703,49.99443,0.0,67.886238,26.374283,90.4636,17.96751,89.738274,9.539623,76.023903,2.127857,57.742195,0.0,12.293149,28.940566,56.105436,46.415315,69.522504,58.464981,76.52568,65.886022,81.202348,3.17359,295.24195,-48.609552,266.501764
126,-7.991924,-4.690191,0.251827,0.322399,0.0,9.24448,-13.904057,40.500584,-20.105896,42.746716,-21.644154,35.202312,-19.737682,16.323452,0.0,-16.931592,6.273533,25.409307,22.868771,42.841695,35.891995,49.623002,45.479055,54.782434,0.0,68.570538,25.722198,90.167255,17.576008,89.815006,9.592152,76.421871,2.721977,58.147259,0.0,12.314144,28.961437,55.486203,46.525601,69.0172,58.5891,76.179446,65.85385,81.051368,-4.505796,290.84407,-48.045187,267.116474
127,6.802197,2.476192,-0.254803,0.08361,0.0,-2.412872,-21.139011,27.387772,-25.915718,32.134552,-26.290398,27.997971,-24.003868,11.829414,0.0,-19.530544,9.226006,26.429856,24.009733,41.214201,35.354334,46.268843,43.61376,49.91576,0.0,68.647156,26.311283,90.3368,18.312893,89.577141,10.275307,76.304741,3.237705,58.19355,0.0,12.101166,29.461122,55.311264,46.849852,68.700421,58.807696,76.188214,66.10536,80.656659,2.601614,293.485521,-47.994776,267.365344
128,2.123451,-0.349569,0.471153,0.048165,0.0,-3.448563,-23.369808,27.028198,-29.812374,30.339203,-31.130562,24.834824,-29.298191,8.329811,0.0,-21.852606,7.211831,25.185955,22.433492,39.070721,35.067071,46.473669,44.845496,51.778708,0.0,68.523903,25.679684,90.0634,17.628651,89.265289,9.657955,76.32328,2.825375,58.16288,0.0,12.197806,29.700404,55.550979,47.187565,68.700791,59.216237,76.296092,66.447025,80.36353,5.033541,293.386952,-47.215147,267.664509
129,-3.903408,1.118362,-0.442829,-0.051376,0.0,1.003189,-19.157295,32.568684,-25.494919,35.728397,-27.088852,30.623302,-25.456352,12.771664,0.0,-20.571779,6.646382,24.949822,22.267631,40.094543,34.476552,46.438965,43.713672,50.847574,0.0,68.82906,25.821991,90.131435,17.638206,89.590702,9.676094,76.935368,2.779427,58.324871,0.0,12.379105,29.198065,55.000968,46.845159,68.879806,59.02197,76.596323,66.306604,80.689016,1.412716,294.698284,-47.375393,267.806103
130,0.660324,0.83536,0.521221,-0.235207,0.0,-4.980354,-20.545063,30.469952,-26.008015,33.734493,-27.129421,28.437252,-25.116405,12.186527,0.0,-22.341052,7.568069,24.383385,22.277758,39.443817,33.641007,44.42584,42.150275,48.990307,0.0,68.309212,25.484276,89.713783,17.194862,89.120636,9.079685,76.303711,2.150631,57.782135,0.0,12.573866,29.193928,55.43001,46.901229,69.108035,59.129416,76.875681,66.461166,81.046428,2.285872,295.776662,-46.64134,267.813914
131,0.77528,0.379456,-0.536213,-0.009263,0.0,-1.021729,-20.925236,29.781647,-26.742325,33.423729,-27.981262,29.249954,-25.980492,11.313515,0.0,-21.26042,5.744826,24.614332,20.635876,38.67558,32.492141,44.88835,41.698015,49.722914,0.0,68.673992,26.297894,90.381145,17.969284,89.763279,9.667912,76.59296,2.425232,57.959003,0.0,12.842295,29.397642,55.05852,47.116491,69.170033,59.271318,76.668571,66.561634,81.207843,3.231983,296.403398,-47.006721,268.051931
132,0.074158,-1.467128,0.175152,0.551555,0.0,-2.945652,-20.970211,31.413116,-26.685104,35.591354,-27.659855,30.857849,-25.195541,11.636238,0.0,-19.860106,6.754939,23.690916,22.336668,39.450239,34.627285,46.504606,43.918931,51.685465,0.0,67.916679,25.478439,89.994278,17.30135,89.281082,9.286938,76.246147,2.462883,58.034019,0.0,12.412883,30.014282,54.686535,47.702626,68.547095,59.639845,76.22545,66.651851,80.451771,3.466501,295.102826,-46.671209,268.770042
133,-1.224861,0.977077,-1.743965,0.3563,0.0,-2.74704,-22.24823,29.312096,-26.012306,34.108887,-25.336704,31.610298,-21.729183,14.783821,0.0,-17.384593,8.365884,27.747054,22.206313,40.328762,32.54574,45.277749,40.25392,48.689088,0.0,69.332771,26.454105,91.35498,18.238907,91.295128,10.244465,77.81353,3.333435,59.169617,0.0,12.135376,28.710051,55.111563,46.48466,68.461694,58.549518,75.948005,65.599377,80.280908,2.290306,296.124857,-48.366508,269.171296
134,1.905899,2.224373,0.073872,-0.022107,0.0,-3.571644,-21.744518,28.676262,-27.724628,32.390785,-28.559532,27.636337,-26.567745,10.440102,0.0,-23.037041,4.11196,26.159759,18.260153,37.505162,29.763513,43.155881,38.631737,46.61551,0.0,68.541241,27.031517,90.9902,18.899803,90.063,10.722256,76.549015,3.48587,58.284016,0.0,11.841877,29.888373,55.464776,47.210907,68.32998,58.741623,76.035691,65.434071,79.656426,4.308443,298.410224,-48.180399,269.210184
135,-5.59227,-3.832045,0.286903,-0.290721,0.0,1.12318,-16.296387,36.79985,-21.268501,40.045166,-22.067757,35.188065,-19.634171,16.297874,0.0,-17.565831,6.361527,25.772955,22.163581,40.556744,34.518542,48.10814,44.108813,52.536386,0.0,68.670902,27.577,91.135883,19.370327,89.948788,10.919094,76.592045,3.387852,58.307362,0.0,12.319825,30.369841,55.649039,47.712876,68.983423,59.329858,76.763049,66.117895,80.262383,-1.161861,294.581637,-47.77153,268.922921
136,7.828674,1.529187,-0.138474,0.004076,0.0,-8.547592,-24.52589,26.540337,-29.812775,29.972191,-30.154552,24.789848,-27.601032,-0.464973,0.0,-21.030276,7.053317,27.539881,21.433259,40.013711,32.571922,44.909469,40.815726,47.509594,0.0,68.904247,26.982136,91.305828,18.677959,90.132694,10.377331,76.827106,3.151875,58.241787,0.0,12.595787,29.928202,55.328801,47.367815,68.752909,59.003074,76.721305,65.68064,80.073241,6.706181,296.104541,-47.870636,268.920713
137,-2.778969,1.825466,-0.273972,0.142458,0.0,-5.880833,-19.809151,30.525398,-25.538406,33.977737,-26.394253,30.083084,-23.981667,6.937065,0.0,-21.678594,5.164434,24.360229,20.158175,37.566048,31.807267,44.49074,40.407741,49.826716,0.0,68.558521,27.983894,91.27573,19.655571,90.059795,10.972366,76.669979,3.197994,57.973194,0.0,12.504891,29.877072,55.903821,47.140388,69.17664,58.725877,77.004369,65.565105,80.404841,4.045029,297.923431,-48.026791,269.056595
138,-4.654713,-1.470957,0.793247,-0.339874,0.0,2.080364,-15.033875,34.363461,-20.047073,37.184086,-20.693722,33.771915,-18.427563,15.912151,0.0,-20.107231,6.370852,24.808784,21.457095,38.565911,33.327747,45.210749,42.204245,49.981463,0.0,68.412323,27.367058,90.295258,19.142017,89.273186,10.648899,76.083641,3.119202,57.705917,0.0,12.922817,30.394479,56.376212,47.596168,69.459704,59.15708,77.201291,65.961111,80.622141,-0.568428,296.455947,-47.192287,268.720194
139,2.694569,0.172345,-0.315113,0.129861,0.0,1.754723,-17.50145,31.109734,-23.394241,34.634857,-24.999504,30.479851,-23.541641,4.763374,0.0,-19.721106,6.307002,27.159375,21.071772,40.21792,32.796694,45.250023,41.577417,48.283882,0.0,68.813267,27.087364,91.025562,18.696785,89.741535,10.163097,76.346569,2.694168,57.710094,0.0,13.112021,30.360763,56.012934,47.634515,69.056041,59.078286,77.080878,65.610245,80.869266,2.154064,296.622411,-47.479477,268.844173
140,-0.425262,0.2533,-0.057621,-0.152832,0.0,-0.386066,-17.101421,31.37146,-22.693005,34.308472,-23.927307,31.243744,-21.956863,11.285362,0.0,-18.468992,5.793732,25.969939,20.21727,39.101225,31.737303,45.11553,40.505553,49.717356,0.0,68.91758,27.324314,90.806122,19.148712,90.165939,10.681801,76.605492,3.162518,57.903442,0.0,13.155802,30.200027,55.210302,47.54862,69.022202,59.194686,77.147383,65.992171,81.183205,1.750488,296.855581,-47.515411,268.671211
141,-0.996208,2.23271,0.02409,0.207049,0.0,0.041428,-15.517044,32.246704,-20.804901,35.440178,-21.935806,32.132607,-20.246887,11.232376,0.0,-22.45597,5.300223,24.977424,19.463359,37.607298,30.739232,43.667668,39.150255,47.626796,0.0,68.626957,27.390976,90.56551,19.210052,89.68317,10.689297,75.725613,3.04081,57.285862,0.0,12.767392,29.910541,55.554561,47.141129,68.949522,58.732978,76.893404,65.65347,80.647273,0.786581,299.080463,-47.459021,268.870433
142,-0.626163,-1.700545,0.410442,0.159995,0.0,1.884041,-14.627552,33.493938,-20.295181,36.619434,-21.613026,33.200169,-20.104065,13.662014,0.0,-18.7783,6.359428,25.88639,20.929808,38.01096,32.43181,45.165054,40.984366,49.961517,0.0,68.332214,27.263317,90.165596,19.172688,89.519806,10.771866,75.727386,3.367596,57.709923,0.0,12.566332,30.018296,55.607913,47.442718,68.953721,59.197218,76.785094,66.178658,80.427627,0.178385,297.363323,-47.030611,269.013833
143,2.788811,3.150321,-0.528374,-0.104914,0.0,-1.115799,-17.013359,31.926556,-22.969723,34.443798,-24.695148,28.565426,-23.622665,2.746181,0.0,-25.774498,4.200881,25.484889,18.65801,36.903652,29.874664,41.800459,38.266113,44.382738,0.0,68.845482,27.576656,90.761604,19.038677,90.219727,10.257397,76.143494,2.432098,57.35321,0.0,12.855077,28.945691,55.427479,46.524798,69.275626,58.384891,76.916807,65.487423,80.956149,2.997036,300.493483,-47.529144,268.888757
144,0.967541,-6.128296,0.023289,-0.164318,0.0,-3.293037,-19.33794,33.844757,-25.552769,34.988251,-26.722927,30.597839,-24.759979,10.087738,0.0,-17.370947,6.118354,24.714491,22.007168,40.034398,34.888551,47.552757,44.808754,51.944632,0.0,68.375759,27.920036,90.238781,19.56007,89.69038,10.710697,75.778141,2.64061,56.75211,0.0,13.165373,29.584746,55.772169,46.910368,69.678115,58.552729,77.542092,65.505331,81.665229,3.981371,294.321112,-47.489061,268.680365
145,-0.157127,2.454208,0.455532,-0.113683,0.0,1.645775,-19.580498,27.578201,-25.51609,31.309204,-26.551666,26.378059,-24.455051,0.348587,0.0,-23.610023,4.350996,25.397512,19.221421,40.291279,31.671107,46.757474,41.57822,47.428207,0.0,68.746834,26.726189,89.168587,18.197079,88.722496,9.51582,75.256805,1.809597,56.659927,0.0,13.289615,28.390863,55.578273,46.25569,69.735914,58.435959,77.598902,65.863977,81.568589,3.839521,296.712134,-47.018251,268.503496
146,-13.329048,-5.313067,-0.324669,0.437872,0.0,20.111275,-6.540585,43.789444,-12.944412,46.840782,-15.591946,43.09536,-15.238094,22.655754,0.0,-15.048267,6.92642,28.57031,23.37426,44.213604,36.28022,51.846387,46.145404,55.403211,0.0,68.352127,27.165127,89.226379,19.049606,88.986626,10.536461,75.278549,2.772331,56.89476,0.0,13.104117,28.531037,55.505469,46.040922,69.236044,58.090774,76.858947,65.517743,81.261196,-9.478312,291.286867,-47.331705,268.829168
147,5.270004,0.623556,-0.128059,-0.058045,0.0,24.922028,-8.456669,30.856819,-15.560989,43.233719,-18.348198,32.319145,-19.014244,13.37883,0.0,3.357308,0.141347,20.503175,19.404882,41.908029,36.224212,48.57837,49.941757,51.973408,0.0,68.183327,27.603722,89.693871,19.198723,89.08905,10.347462,74.982262,2.200699,56.325645,0.0,13.125976,28.331027,55.385982,45.946506,69.404623,58.002471,77.012767,65.352622,81.268544,-4.196348,291.807623,-47.447805,268.668324
148,30.603447,-3.113209,0.109692,-0.167529,0.0,-44.716759,-46.80748,7.158737,-54.449959,11.733284,-55.333099,4.896126,-52.625942,-39.820004,0.0,15.24136,13.543039,36.074899,25.021946,44.516613,33.179114,46.826572,39.64747,52.075913,0.0,68.435955,27.59903,89.606037,19.163017,88.993893,10.28017,75.041142,2.111492,56.278896,0.0,13.385637,28.04821,55.547213,45.723401,69.435189,57.883848,77.050744,65.338975,81.358391,26.437311,288.614077,-47.307901,268.420458
149,-15.141449,1.590073,0.131435,0.51611,0.0,-11.173553,-30.977955,20.878716,-35.841179,28.814278,-35.159111,22.174301,-31.889648,4.986076,0.0,-12.800366,14.251872,32.449347,28.498494,46.681582,39.335506,52.314949,47.188121,54.691167,0.0,67.788277,27.767773,89.505959,19.392128,88.921967,10.476837,74.560204,2.246761,56.008644,0.0,12.947518,27.998254,55.540605,45.598912,69.025907,57.726385,76.512712,65.195529,80.802699,11.328821,290.134697,-47.143507,268.867114
150,16.948471,-8.368478,0.032558,-0.300478,0.0,-38.886223,-47.034874,7.742157,-57.708607,10.467453,-61.301823,1.996536,-60.85556,-31.174507,0.0,8.552617,12.717497,40.485484,29.088334,52.08814,41.817194,56.661314,52.231895,60.76716,0.0,68.27631,27.793579,89.48164,19.473724,88.899593,10.713902,74.753094,2.746181,56.495991,0.0,12.934859,28.607978,56.317364,46.149417,69.407278,58.232306,76.752428,65.67922,81.013021,28.29689,281.749315,-47.091351,268.549732
