takenoko1/special-research/HandMotion_SimilarSearch_自分用/NewProject/handData/test_key/d4_feature_d2/26.csv
frame,vel_0x_L,vel_0y_L,vel_0x_R,vel_0y_R,posFromWrist_0x_L,posFromWrist_1x_L,posFromWrist_2x_L,posFromWrist_3x_L,posFromWrist_4x_L,posFromWrist_5x_L,posFromWrist_6x_L,posFromWrist_7x_L,posFromWrist_8x_L,posFromWrist_9x_L,posFromWrist_0y_L,posFromWrist_1y_L,posFromWrist_2y_L,posFromWrist_3y_L,posFromWrist_4y_L,posFromWrist_5y_L,posFromWrist_6y_L,posFromWrist_7y_L,posFromWrist_8y_L,posFromWrist_9y_L,posFromWrist_0x_R,posFromWrist_1x_R,posFromWrist_2x_R,posFromWrist_3x_R,posFromWrist_4x_R,posFromWrist_5x_R,posFromWrist_6x_R,posFromWrist_7x_R,posFromWrist_8x_R,posFromWrist_9x_R,posFromWrist_0y_R,posFromWrist_1y_R,posFromWrist_2y_R,posFromWrist_3y_R,posFromWrist_4y_R,posFromWrist_5y_R,posFromWrist_6y_R,posFromWrist_7y_R,posFromWrist_8y_R,posFromWrist_9y_R,posFromBody_0x_L,posFromBody_0y_L,posFromBody_0x_R,posFromBody_0y_R
2,14.478264,-33.777228,0.20113,-0.428733,0.0,-28.12088,-32.391071,17.921448,-41.419487,20.230179,-46.520348,11.538506,-48.665428,-13.59169,0.0,12.216516,14.8519,39.8602,32.21309,52.895403,45.436138,58.219832,55.713198,61.759983,0.0,67.421093,26.302471,88.543568,17.716827,87.313557,8.760452,74.117832,0.563164,54.782467,0.0,12.420725,27.464113,56.794941,44.356,69.252655,56.479335,77.099033,64.291874,81.43422,14.893599,277.288558,-49.965849,266.83835
3,-11.006241,14.466393,0.177956,0.223907,0.0,-4.380913,-22.832851,28.729591,-30.019855,33.602257,-31.965351,23.495522,-30.707474,-0.049782,0.0,-21.763871,5.748469,26.326794,21.662971,40.574281,35.540264,48.439184,46.96619,51.891835,0.0,67.736378,26.53347,87.74889,18.008995,86.700611,9.024811,73.3251,0.776653,54.483318,0.0,11.678917,27.325978,56.717383,44.37082,69.362879,56.612778,76.901123,64.503554,81.247858,3.686028,291.561517,-49.989223,266.868824
4,-4.970169,5.979786,-0.233688,0.107322,0.0,-0.832672,-18.320732,30.638809,-24.975815,32.633629,-26.702785,28.326988,-25.000648,5.169525,0.0,-22.578791,1.761369,21.761771,17.308826,36.421381,30.055037,42.93432,39.898176,49.569834,0.0,67.835484,26.747017,88.40086,18.299389,87.359333,9.279785,73.873043,0.978642,54.705791,0.0,11.834528,27.504004,56.495081,44.447761,68.678685,56.638589,76.190622,64.553448,80.981899,-1.440353,297.39213,-50.379124,266.826973
5,-1.654301,-0.999183,-0.178814,-0.313322,0.0,-4.96542,-18.118458,32.832355,-24.322128,32.561131,-25.536346,27.779675,-23.489857,6.293278,0.0,-24.631622,3.746336,24.265442,19.829601,36.281146,32.781812,43.30507,42.437538,51.626432,0.0,68.284264,27.565155,88.617096,19.202442,87.805939,10.069885,74.071884,1.434746,54.77932,0.0,12.350947,27.845669,56.443273,44.784733,68.698074,56.973338,76.498633,64.956555,81.079279,-3.231096,296.27119,-50.69438,266.391895
6,-4.262066,-1.802433,-0.224762,-0.20674,0.0,8.994884,-13.526459,36.973686,-19.887085,37.80098,-22.287312,31.270638,-22.097912,9.918938,0.0,-21.231521,4.211563,23.882898,20.526454,40.498514,33.340221,45.237179,43.103455,49.708464,0.0,68.17234,27.677536,88.649139,19.493122,88.142853,10.504074,74.638596,1.998711,55.36869,0.0,12.229978,27.79985,56.683914,44.78955,68.879621,57.038115,76.699507,65.044426,81.357835,-7.569294,294.39353,-50.995274,266.109927
7,0.199585,-0.322708,-0.054646,0.438551,0.0,5.768337,-14.600658,37.158165,-20.517483,38.803253,-22.544804,34.574547,-21.661263,15.43808,0.0,-19.954028,3.63432,23.338445,19.958536,39.086652,32.995283,45.284665,42.961367,51.24784,0.0,67.514591,27.800961,88.476963,19.817677,88.366299,10.944328,74.850483,2.370987,55.48708,0.0,11.725724,27.205626,55.831326,44.224225,68.327819,56.555288,76.132577,64.796992,80.810294,-7.412167,294.049488,-51.092377,266.527144
8,0.988426,0.024885,0.690022,0.455409,0.0,5.856457,-15.413418,36.176262,-21.128483,37.320213,-22.928123,32.410469,-21.80603,11.759949,0.0,-20.032513,4.058916,23.029384,20.335337,38.101486,33.295884,44.169329,43.324213,51.861269,0.0,67.362442,26.725159,87.290611,18.699131,87.194366,10.134373,74.010887,2.159042,55.22541,0.0,10.940938,26.432449,55.059137,43.673288,67.579651,56.129334,75.035519,64.368938,79.938872,-6.477528,294.1069,-50.456142,267.01508
9,2.272282,1.41322,0.369072,-0.22261,0.0,2.348614,-18.638077,31.815662,-23.148308,35.028019,-23.641148,30.969143,-21.019993,12.176113,0.0,-21.808887,4.066079,22.916381,19.759885,38.421786,32.045191,43.435919,41.332453,49.611022,0.0,67.348251,26.224709,86.765442,18.140717,86.664848,9.610348,73.60096,1.772232,54.917336,0.0,11.480513,26.60183,55.423588,44.008469,67.938544,56.562636,75.482901,64.818296,80.085221,-4.24736,295.498461,-50.129185,266.770811
10,-0.9482,-0.261389,-0.017738,-0.491286,0.0,3.239651,-14.922924,35.209923,-20.414028,35.896797,-21.937866,31.655045,-20.246544,4.77253,0.0,-22.085467,2.869356,23.529686,18.744091,37.190174,31.337223,44.351739,40.879143,53.529703,0.0,67.184029,26.267624,87.062759,18.402843,87.210159,10.121727,74.24675,2.542248,55.883789,0.0,11.774445,26.150373,54.875368,43.955981,68.061119,56.836005,75.68853,65.312361,80.519264,-5.223484,295.20138,-50.174847,266.243833
11,0.280952,-0.366921,0.573692,0.538402,0.0,5.612068,-13.502083,34.104767,-19.231281,37.513504,-21.371269,32.740059,-20.931644,7.088642,0.0,-23.930446,3.442585,21.631602,19.373204,36.319925,32.537218,42.737337,42.714859,50.452124,0.0,66.406174,25.768547,86.44249,18.054714,87.325058,9.849586,73.964996,2.157784,55.444336,0.0,11.541831,26.273874,54.251071,43.938073,67.696606,56.725719,75.28919,65.290069,79.950049,-4.947596,294.814436,-49.606218,266.762212
12,3.26746,-2.179172,-0.07267,-0.973186,0.0,-4.821739,-20.146351,32.527714,-24.358063,33.954105,-23.872204,31.319904,-20.316811,6.150684,0.0,-18.291151,6.936609,24.556286,23.09064,36.975591,35.612636,43.404179,44.770901,53.889523,0.0,66.943474,27.260971,87.059326,19.272537,86.836166,10.501614,73.475418,2.240639,55.482216,0.0,12.219233,27.236872,55.261493,44.724527,68.621442,57.329762,76.092933,65.684778,80.57978,-1.693096,292.615705,-49.691849,265.769466
13,-1.599827,1.595631,0.527172,0.599349,0.0,1.561604,-16.70969,33.228035,-22.458115,36.368523,-24.205513,31.379471,-23.169937,4.793472,0.0,-24.263095,4.575459,21.033364,20.520279,36.344378,33.510405,42.401106,43.353729,47.212698,0.0,67.407475,26.415539,87.500439,18.209553,86.887608,9.677238,73.768444,1.798725,55.786915,0.0,11.834034,27.684747,54.408288,45.440399,67.487272,58.007287,75.1802,66.129566,79.558428,-3.34528,294.185863,-49.217033,266.343344
14,-6.987305,-8.130491,-0.398312,-0.349137,0.0,16.817322,-10.199375,42.057381,-16.781559,43.220329,-18.995247,37.9842,-18.274326,18.897285,0.0,-8.660681,9.109112,26.881683,26.37076,43.610117,39.473025,51.519233,49.172841,56.999829,0.0,67.840004,27.604065,88.372993,19.588165,87.63279,10.83704,73.952065,2.575722,56.26545,0.0,12.123211,28.188816,54.723339,45.648375,67.441268,58.023589,75.196379,66.020823,79.723302,-10.328321,286.046356,-49.611082,265.985191
15,-6.588306,-13.098003,-0.038166,0.281644,0.0,18.295784,3.631897,56.789532,-7.638531,51.863079,-18.063126,39.947033,-27.653675,21.43095,0.0,-7.36244,10.864306,32.589027,32.146647,49.858271,49.137643,61.231091,62.66932,66.468452,0.0,67.660961,26.739407,87.82259,18.691921,87.305088,10.095978,73.839626,2.109375,55.723858,0.0,11.867132,27.277503,55.121258,44.982829,68.057476,57.689396,75.417013,65.936225,79.622957,-16.916056,272.94897,-49.648676,266.267452
16,5.293808,0.65369,0.897846,-0.29634,0.0,10.651817,-2.176781,51.521244,-13.470554,47.535954,-23.54599,35.39938,-32.447834,15.521564,0.0,-6.13762,11.563629,33.720603,32.006227,50.016043,48.158776,61.126054,61.064056,65.511568,0.0,67.217445,28.110008,87.674217,19.995518,86.959877,10.925846,73.016853,2.326984,55.443192,0.0,11.833108,28.029191,54.723339,45.508572,67.902914,57.973633,75.099493,66.13111,79.919668,-11.593094,273.593784,-48.721676,265.962235
17,-0.315456,1.221114,0.069923,-0.551678,0.0,16.204948,1.310406,51.471634,-9.451675,46.099892,-19.521847,33.481407,-29.239597,15.481453,0.0,-12.411092,10.506277,29.513424,31.5749,47.247957,48.390155,59.146829,61.885707,64.565984,0.0,67.698326,27.99305,87.8405,20.047703,87.355042,11.206284,74.652672,2.701721,56.25721,0.0,12.424183,28.420318,55.261123,46.087296,68.487258,58.716305,76.378652,66.800175,80.649681,-11.824007,274.818186,-48.567209,265.413845
18,-0.348473,-0.566066,1.402874,-0.421632,0.0,15.890007,4.815617,52.081146,-6.232109,46.195908,-17.146969,33.285141,-27.597084,13.586769,0.0,-11.990448,9.783118,28.913457,31.289922,47.172313,48.44678,59.09533,61.945543,63.78021,0.0,67.885151,29.065762,87.903385,20.830479,87.091885,11.502171,74.726887,2.555008,56.889324,0.0,12.609619,28.79996,54.899513,46.593897,68.187337,59.191969,76.259412,67.229279,80.958866,-12.122211,274.248832,-47.114067,264.988925
19,-0.564651,-0.122019,0.440655,-0.379456,0.0,20.058174,5.611153,53.614197,-5.682621,49.435844,-17.189541,37.72934,-28.210602,16.667976,0.0,-11.268833,9.380443,29.168672,30.999818,48.343039,48.681123,59.98046,63.079096,65.486127,0.0,68.008347,30.18259,87.746887,21.902332,87.202606,12.155743,74.411659,2.445431,56.128464,0.0,12.558243,28.815336,55.382833,46.302188,68.802741,58.722851,76.793183,66.83772,81.649112,-12.519264,274.17044,-46.505814,264.653096
20,29.540176,0.528151,1.404819,0.470847,0.0,-23.537693,-30.917301,19.185677,-41.321125,19.226074,-47.248135,9.492073,-50.545292,-14.564724,0.0,1.386914,12.862302,35.535386,32.987935,51.75123,48.772575,59.970271,60.837,64.128544,0.0,68.445454,30.235519,87.080784,22.087212,87.168446,12.6091,74.772663,3.330402,56.77145,0.0,11.430619,28.627429,54.705122,46.443226,67.903532,59.066307,76.305972,67.145669,81.321402,17.145052,274.687491,-44.976854,265.112843
21,-21.880245,17.501178,1.926956,-0.128688,0.0,11.419086,-6.76157,39.625111,-14.112511,44.896259,-18.35083,35.584202,-20.114651,18.362675,0.0,-16.426906,4.824189,27.16098,19.226794,41.63645,32.132136,45.51629,41.940571,48.503961,0.0,68.057041,30.521278,87.806568,22.236385,87.800732,12.466221,75.170116,2.716255,56.70908,0.0,12.238685,28.329484,53.889955,46.141205,67.188524,58.810413,76.22792,67.07972,81.766067,-4.445143,292.223049,-42.759848,265.018535
22,-5.317955,-4.953248,1.81509,0.241753,0.0,32.231884,3.598137,54.66917,-3.857803,54.368763,-9.204369,44.418354,-11.563683,20.817089,0.0,-10.181346,7.85033,30.050035,23.545617,43.766098,36.07669,51.040359,45.588724,56.591597,0.0,68.453522,31.058006,88.060913,22.747021,87.771378,12.939091,75.126686,3.221626,57.186012,0.0,11.202019,28.429828,52.875581,46.352515,66.711564,59.097553,75.65432,67.459052,80.871365,-9.294119,287.329854,-40.475779,265.32034
23,-4.304752,-15.307186,2.373905,0.031431,0.0,34.745064,14.365597,61.179543,3.602028,55.621719,-7.602425,42.244377,-17.887402,24.252548,0.0,-8.411518,10.056178,28.337264,32.308495,47.91869,50.189685,59.439094,63.54068,65.315016,0.0,68.049145,30.818367,88.631687,22.565117,88.462887,12.864933,75.886974,3.16658,57.309895,0.0,11.401534,27.654613,52.488406,45.624045,66.618259,58.466278,75.642587,66.945906,80.342288,-13.114929,271.963773,-37.617931,265.292876
24,0.829811,-1.802433,2.464085,0.0021,0.0,39.208832,14.898834,63.733406,4.751015,58.772736,-5.994701,45.658379,-15.560589,26.966286,0.0,-6.915737,11.422221,29.748817,33.624334,48.856494,51.345776,60.885721,64.741787,67.306652,0.0,67.411766,32.208481,89.31015,24.068642,88.645935,14.215279,75.730705,4.309959,57.466164,0.0,11.037145,27.317024,52.284568,45.40693,66.154513,58.362537,75.14278,67.060515,79.955915,-11.590118,269.976784,-34.458847,265.110419
25,3.878403,1.095946,2.912178,0.461646,0.0,27.125473,13.952637,63.104095,4.093094,61.138344,-6.722546,48.090706,-16.688461,26.252403,0.0,0.380074,13.550325,33.308049,33.141384,50.960701,48.733734,61.552749,60.631865,67.622382,0.0,68.534203,30.92308,88.014336,23.344345,88.008041,14.183807,75.083199,5.210209,57.865906,0.0,10.24217,26.783438,53.079913,44.53273,65.831064,57.451595,74.005584,66.204901,79.132906,-6.922846,271.019378,-30.757799,265.518713
26,4.495239,0.525805,3.039894,0.061812,0.0,36.690903,16.514168,60.334167,6.422939,48.65799,-4.899445,33.724594,-14.924469,14.539032,0.0,-6.884986,10.612796,30.985492,32.553644,47.220911,49.307642,57.976412,61.158349,63.881048,0.0,68.20118,31.12381,87.020073,23.285007,86.029472,13.810959,73.475075,4.445,56.580849,0.0,9.97794,26.348963,52.461112,44.076703,65.631672,56.990381,73.653668,65.860581,78.741532,-1.896515,271.619438,-27.186813,265.65478
27,16.664429,2.922709,3.062725,0.085463,0.0,13.372421,4.996719,46.665573,-5.61573,40.588074,-17.108917,25.997429,-28.153152,4.003601,0.0,-9.76027,8.898296,28.066427,28.117247,44.272946,44.117211,55.103906,56.717692,61.818337,0.0,68.41238,32.199497,86.270771,24.323959,85.825939,14.61731,73.083057,4.777908,56.061687,0.0,9.672029,25.791603,52.150137,43.2779,65.347682,56.23999,73.220798,65.412644,78.69065,15.479107,274.719756,-23.412895,265.917852
28,-3.132591,0.365624,3.01466,0.516295,0.0,21.645813,9.789619,49.589653,1.133194,44.277763,-9.009705,31.25267,-19.078159,12.710495,0.0,-10.688873,10.759824,26.33513,29.256604,44.778805,44.342539,55.105141,55.477249,60.981002,0.0,68.23391,32.50351,85.374641,24.59856,84.783211,14.704571,72.432976,4.431496,54.861717,0.0,8.863716,24.881464,50.874682,42.300946,63.8088,55.448597,72.108735,65.017812,77.703137,12.851486,275.131863,-19.893265,266.48063
29,-2.071152,-3.401645,2.860794,0.140853,0.0,32.65274,12.367516,54.089928,3.613586,49.095497,-6.213741,35.983315,-15.482998,13.973122,0.0,-9.450407,13.624673,29.844653,32.425018,47.856384,47.482609,58.476096,58.454731,64.317932,0.0,68.609848,33.32531,85.27462,25.281258,83.112488,15.177269,71.199188,4.696198,54.651833,0.0,8.637709,24.827803,51.307985,42.296809,63.744024,55.573148,71.221258,65.456363,76.371922,11.960735,271.998184,-15.85207,266.889449
30,0.55687,1.972864,2.412472,0.204147,0.0,30.29274,12.938919,52.727509,5.138741,47.494812,-3.977737,34.725151,-12.891083,16.252899,0.0,-10.786253,12.149826,26.541686,31.312337,45.214331,47.121678,55.362332,58.529078,61.260793,0.0,67.83617,33.860035,85.142841,25.988445,82.232838,16.00359,71.040516,5.551872,54.651432,0.0,7.519286,24.196158,50.881907,42.056785,62.510004,55.743332,70.022435,65.780923,74.858419,14.171877,273.994899,-11.785326,267.117447
31,-2.598038,0.05996,1.616135,0.305788,0.0,38.166389,14.332352,59.502182,5.937309,53.4589,-3.464127,39.699669,-12.302113,18.768768,0.0,-11.285567,10.131884,25.031147,30.245969,43.756712,46.813914,55.310276,58.936013,61.302351,0.0,68.27734,33.810482,85.029545,26.245022,82.623081,16.514683,70.646152,6.296997,53.561497,0.0,7.342186,24.396415,49.872967,42.12045,61.267339,55.665341,69.318728,65.649086,74.854467,13.310509,274.255609,-8.432522,267.623985
32,2.697258,-2.114334,0.710621,-0.555754,0.0,33.418465,13.465233,55.978432,5.933189,49.103165,-2.503281,37.254066,-10.078125,20.242424,0.0,-9.271083,10.410625,25.425917,31.243362,44.722612,48.582137,56.039981,61.097278,62.65592,0.0,68.849144,34.788551,85.815582,27.343712,82.743988,17.562618,71.549492,7.077312,54.477768,0.0,7.218623,24.896284,49.907362,42.466252,60.842496,55.934696,69.381157,65.883923,74.918687,17.976294,272.306612,-5.753374,267.233568
33,3.975677,-1.101813,1.64629,0.131961,0.0,26.965027,11.092758,52.27993,3.526039,48.974648,-5.026245,37.174416,-13.09885,16.299019,0.0,-8.82117,13.225209,28.926919,32.787308,47.201891,48.848404,58.12875,60.529483,64.843367,0.0,68.96925,36.241093,85.46648,28.990688,81.939754,19.073238,71.384525,8.240032,55.022907,0.0,6.75284,25.089995,49.540935,42.394869,60.893625,55.83676,69.04011,66.04009,74.712811,24.183855,271.182569,-1.8752,267.343299
34,2.952919,-0.204085,3.029938,-0.427004,0.0,32.37648,9.837341,57.375526,1.068077,52.682304,-8.551941,37.98317,-17.637177,12.694588,0.0,-10.225683,14.062113,30.661056,33.138112,48.353907,48.248005,60.776176,59.308862,65.029791,0.0,67.766018,34.174862,84.804096,27.122784,82.119999,17.831898,70.596256,7.730656,54.085865,0.0,7.137545,24.653111,49.998321,42.244754,63.312697,55.737095,70.38948,66.077202,75.93584,29.198599,270.944212,3.216562,266.882023
35,-1.921692,-6.483361,5.728512,-5.574951,0.0,35.688629,18.863297,65.730171,6.207275,63.326225,-7.858887,41.758003,-19.794788,-13.346786,0.0,14.037536,15.54721,42.235306,33.963529,59.673746,49.190934,70.857919,61.50304,85.052794,0.0,67.143517,34.77047,86.464005,28.312912,84.545288,18.935165,71.238213,7.811394,52.997475,0.0,8.37243,21.848654,51.683428,39.235594,67.949906,53.129128,77.004863,64.223948,81.269964,28.858166,264.599172,10.526333,261.445394
36,20.923462,-3.404053,5.869904,12.247885,0.0,-77.222729,-37.509613,-66.694279,-24.87545,-65.617847,-14.144325,-54.322071,-3.556938,-45.240612,0.0,24.547641,27.867961,39.162852,44.583242,55.797055,57.086836,61.517922,66.299874,71.176859,0.0,37.107468,26.474762,75.685501,21.880531,58.694115,14.558487,25.975914,6.225128,17.380257,0.0,44.96875,19.474289,44.658824,12.565159,42.555852,4.666602,36.980037,-4.991656,23.632809,51.042795,261.425155,17.657404,273.923315
37,13.915672,-0.133875,-0.930862,-0.995664,0.0,-57.045822,-30.643158,-83.754387,-24.786072,-85.591393,-18.279762,-76.64423,-10.522156,-57.551308,0.0,14.219947,24.666202,48.284994,40.318326,66.544405,52.427458,73.01097,61.500693,78.535779,0.0,16.939774,34.350471,27.015953,34.073753,8.257713,27.729263,2.801285,17.129059,2.241669,0.0,59.943286,14.665229,56.098953,1.494483,47.163791,-10.207281,34.782031,-21.698663,13.002476,65.830393,261.502652,17.598467,273.139023
38,7.788849,-4.220332,17.764435,-107.447137,0.0,-61.831741,-28.002434,-93.890991,-21.593285,-97.088242,-14.330292,-83.803539,-6.801109,-60.830097,0.0,28.186284,29.743753,57.548235,46.53758,70.498963,58.001421,80.626401,64.825459,85.80689,0.0,83.639259,41.134872,78.989296,36.204529,65.348969,29.745026,54.691086,23.143044,44.74411,0.0,-7.039362,-10.705298,5.916677,8.797766,26.342849,29.710346,45.095214,51.260067,56.216772,75.083742,258.077233,36.827402,166.486799
39,-0.199928,-0.853638,12.286606,-57.321086,0.0,-61.571102,-26.630974,-94.589195,-20.467644,-96.661091,-13.948975,-84.311371,-7.298698,-61.380959,0.0,30.063188,30.051764,56.485881,46.626069,70.423072,58.108126,82.116254,64.965818,86.68492,0.0,62.244301,40.811348,62.596207,39.063034,51.329384,35.754776,41.431046,31.499519,31.574249,0.0,-17.533875,-28.030272,-10.859304,-10.316549,14.229302,12.244767,33.963931,36.918009,49.347379,77.113781,257.844542,51.343975,109.78666
40,-3.326454,0.103308,-4.142761,-56.692961,0.0,-61.854858,-26.124344,-92.658062,-19.942245,-95.063725,-13.529778,-82.286797,-6.983757,-60.0214,0.0,30.398369,30.118022,56.445496,46.695353,68.789094,58.075213,82.152254,64.447608,87.331323,0.0,48.798637,27.061958,54.832649,37.168922,47.536354,44.11171,44.441872,48.869133,43.295059,0.0,-45.412828,-22.811004,-41.208119,-6.92219,-5.704071,11.536799,15.251117,30.909971,32.643769,76.451254,258.082559,49.865141,53.228407
41,-1.206551,-0.286892,-5.13176,-45.801608,0.0,-61.983318,-26.8293,-93.152962,-20.088959,-94.762173,-13.250084,-81.867599,-6.549683,-59.860497,0.0,30.900585,30.646668,58.218906,47.283402,69.584008,58.687221,82.531525,64.968226,86.903331,0.0,28.678551,11.918106,39.417114,20.985031,37.977219,29.496346,38.068314,37.455482,37.55024,0.0,-35.791156,-21.185023,-40.480606,-8.99722,-8.622395,5.557197,9.404186,20.464272,22.981249,76.462526,258.89365,45.951204,8.524783
42,-2.054901,-0.64733,-12.106533,-37.812895,0.0,-62.36578,-26.605339,-92.509747,-20.03746,-94.16153,-13.215408,-81.650219,-6.470261,-59.86393,0.0,31.334073,31.774354,58.839806,48.148031,69.888561,59.343937,81.684865,65.807723,87.590428,0.0,31.326809,6.249123,34.40218,10.04242,34.159603,14.565525,33.563748,19.323864,31.053791,0.0,1.619024,-1.938891,-3.424781,-2.854536,0.675395,-4.575418,3.426582,-5.75961,1.754787,74.747944,258.405621,34.18499,-29.128812
43,-0.848808,-0.014264,-12.106533,-37.812896,0.0,-62.611485,-25.625153,-92.626019,-19.106598,-94.50325,-12.315559,-81.590481,-5.935593,-59.749088,0.0,32.19895,31.14697,58.538897,47.825756,70.29599,59.110582,82.273717,65.431478,87.307981,0.0,33.975067,0.580139,29.387245,-0.900192,30.341988,-0.365295,29.059181,1.192246,24.557343,0.0,39.029204,17.307241,33.631045,3.288148,9.973186,-14.708032,-2.551023,-31.983492,-19.471675,74.084702,259.51205,22.264023,-65.821015
44,0.222244,-0.867038,-12.106533,-37.812895,0.0,-61.889763,-26.389503,-92.589283,-19.684525,-94.187222,-12.456322,-81.57217,-5.518799,-59.969215,0.0,32.804906,31.642949,58.709698,48.169706,71.726438,59.334427,83.210224,65.77765,87.031895,0.0,36.623325,-5.088844,24.372311,-11.842804,26.524372,-15.296116,24.554615,-16.939373,18.060894,0.0,76.439384,36.553373,70.68687,9.430832,19.270976,-24.840647,-8.528627,-58.207374,-40.698137,74.46373,260.675242,10.314274,-101.60368
45,0.644531,-0.755702,6.804142,38.378791,0.0,-62.512264,-26.428185,-92.718086,-19.557381,-94.668617,-12.268295,-82.033825,-5.562401,-60.379372,0.0,33.540848,31.130914,59.171777,47.817605,71.621092,59.265514,82.932532,66.034347,87.06629,0.0,28.719235,-3.156996,20.968209,-4.67062,29.93145,-2.974605,32.472096,0.98402,27.560349,0.0,17.070747,-6.45636,-12.7901,-18.040552,-37.868193,-30.718174,-12.114936,-40.785815,-24.954692,75.386124,260.683409,17.396278,-62.461021
46,0.656776,-0.402613,6.804142,38.378792,0.0,-62.209396,-27.028084,-92.472954,-19.859161,-94.20187,-12.427368,-81.349411,-5.691605,-59.500465,0.0,33.080684,31.798004,58.597312,48.361996,71.727056,59.391484,83.354967,65.653964,87.333361,0.0,20.815144,-1.225147,17.564106,2.501564,33.338528,9.346905,40.389576,18.907413,37.059803,0.0,-42.29789,-49.466094,-96.267071,-45.511937,-95.007362,-36.595702,-15.701246,-23.364256,-9.211247,76.484613,261.110969,24.642134,-23.252056
47,0.628166,-0.650417,31.717587,12.004033,0.0,-61.935539,-27.065964,-92.772846,-19.851608,-94.15987,-12.408943,-80.986748,-5.53196,-58.90995,0.0,33.228267,32.097432,58.476343,48.526129,72.098299,59.432857,83.517062,65.612098,86.905986,0.0,27.492485,-11.286621,6.459732,-12.750435,25.343399,-5.991211,25.403481,5.165291,29.309006,0.0,-45.029018,-52.908494,-120.126596,-47.083732,-35.60183,-38.16722,-25.695242,-26.661451,-17.022304,77.288933,261.399729,56.535873,-10.308845
48,1.520691,-0.894022,14.999084,1.623696,0.0,-61.722221,-27.158661,-93.17379,-20.335121,-95.096283,-12.96833,-81.622009,-5.997849,-59.044876,0.0,33.228946,31.139621,58.454669,47.515337,72.940081,58.54501,84.879152,64.935498,87.530838,0.0,41.224251,1.864586,26.23867,1.872826,38.537521,7.607002,33.888359,16.178284,34.020309,0.0,-45.279941,-48.436529,-115.088071,-42.037921,-32.00212,-30.665996,-18.950059,-16.355801,-5.774003,80.412769,260.982991,73.138103,-8.207865
49,-1.053772,-0.865,18.462067,5.200373,0.0,-61.825504,-27.127533,-91.908989,-20.263824,-94.29039,-12.97966,-81.699944,-5.888901,-59.634418,0.0,33.273098,31.747739,58.113313,48.002239,72.166965,58.923663,83.576713,65.110314,87.357814,0.0,53.656311,11.002121,45.616951,11.70639,48.208122,15.6744,37.009048,20.622826,34.337654,0.0,-34.975588,-40.739927,-95.968137,-32.144702,-24.671513,-18.275714,-11.143171,-2.16253,3.431594,81.708698,259.535716,93.949871,-3.589768
50,0.38681,-0.843758,19.317513,6.367733,0.0,-61.940231,-27.747803,-91.607895,-20.635185,-93.12664,-13.091927,-80.054226,-5.737953,-58.009243,0.0,33.360043,32.38099,58.658816,48.550026,72.71074,59.326091,83.966172,65.48236,86.780941,0.0,52.716637,8.258171,43.902626,7.135735,33.911247,9.050331,29.288063,13.167915,27.277565,0.0,-33.650053,-41.270486,-94.809915,-31.942593,-18.910415,-17.864518,-6.923518,-1.493773,7.493042,82.767248,259.204641,113.939123,3.290649
51,0.957298,-1.077112,8.105507,2.754779,0.0,-61.88942,-26.446037,-91.361389,-19.353218,-93.04882,-11.918907,-80.184631,-4.704094,-57.57225,0.0,32.608417,31.70507,58.326043,48.043241,72.892162,58.972755,84.220522,65.185155,86.891351,0.0,50.711403,3.490105,38.219032,0.062256,25.898438,1.282082,22.737694,4.797363,20.729713,0.0,-33.155463,-38.242956,-91.283874,-26.940531,-14.557876,-12.035217,-4.060954,3.927944,9.250119,84.597044,257.026287,122.917128,4.944186
52,1.067276,1.246803,-3.140259,-0.879233,0.0,-62.00243,-26.262932,-91.211929,-19.216461,-93.743076,-12.209358,-80.223541,-5.860748,-59.154739,0.0,31.855556,31.36217,58.00667,47.835018,72.072981,58.663509,83.227761,64.686397,86.175355,0.0,44.922066,2.50351,32.49424,-2.037277,27.313385,-1.548157,22.874107,1.328659,20.295296,0.0,-41.521039,-40.671816,-95.651728,-29.363896,-16.31202,-14.078816,-5.36503,2.323575,8.066487,85.663004,258.202771,119.775553,3.994634
53,0.88623,0.753973,-1.343536,-7.80482,0.0,-62.071552,-26.172981,-90.491753,-18.863525,-92.707672,-11.550522,-79.772358,-5.119514,-58.669224,0.0,30.901882,30.071463,57.838523,46.686831,72.022346,58.010931,83.456855,64.589758,85.98856,0.0,44.840126,-0.226936,29.407425,-4.487,25.706749,-3.319588,21.622124,-0.000458,18.89328,0.0,-35.681426,-38.573537,-93.005383,-26.852012,-15.34612,-11.311718,-4.692136,4.69547,9.215817,86.570749,259.412585,118.453531,-3.354344
54,1.323624,0.152956,-3.119774,-2.430342,0.0,-62.005806,-26.345558,-91.156311,-19.08268,-93.257446,-11.718178,-79.926682,-5.181084,-59.246979,0.0,31.001115,30.543174,57.842043,47.08012,72.108858,58.242865,83.230478,64.569318,85.429225,0.0,48.501892,0.594292,30.351105,-3.254013,25.622063,-1.435776,21.355019,2.416878,20.098457,0.0,-34.531139,-39.571671,-93.936147,-28.022553,-14.602614,-12.510047,-4.688184,3.487849,8.49414,87.974453,259.624235,115.413837,-5.725992
55,0.999756,-0.311963,0.667992,-3.254308,0.0,-63.2547,-26.32885,-93.083153,-18.982201,-94.960957,-11.813622,-82.290401,-5.645256,-61.487617,0.0,31.53964,30.411831,57.939547,47.393812,71.967635,58.766632,83.859715,65.121923,86.436683,0.0,48.111992,-0.125084,31.16375,-4.5187,26.412849,-2.972145,21.602325,0.978813,20.450592,0.0,-32.778971,-37.498864,-91.082166,-25.322763,-9.51438,-9.506785,-0.56798,6.398053,12.046857,88.97604,259.560817,116.08366,-8.731755
56,-0.603905,-0.006299,-1.059151,-1.282371,0.0,-62.220039,-26.38607,-92.947311,-18.939056,-94.571686,-11.527748,-81.468773,-4.972,-60.247536,0.0,31.609974,30.496861,58.018217,47.429689,72.0066,58.747736,84.10474,64.974648,86.765998,0.0,48.91571,0.95787,33.896027,-2.755165,27.004852,-0.917244,22.354431,3.4869,22.264938,0.0,-33.620691,-35.49988,-88.56099,-23.375711,-9.89751,-7.718956,0.636925,7.851503,12.778136,88.30739,260.580317,114.959764,-8.988328
57,0.246849,0.484988,2.236977,-0.686726,0.0,-63.037605,-27.43206,-92.561817,-20.306854,-94.760971,-12.985382,-81.487942,-6.194801,-60.371075,0.0,31.089789,30.109007,57.497476,47.100929,72.119109,58.626335,84.22997,65.19275,87.099759,0.0,48.01609,0.415077,32.701149,-3.726654,25.316277,-2.253456,20.527039,1.789627,20.406189,0.0,-32.390901,-34.441755,-86.255353,-22.031096,-9.21489,-6.1743,1.427237,9.339842,13.392892,88.420486,261.525314,117.062988,-9.215045
58,-0.513039,0.266391,1.951332,1.275609,0.0,-62.735939,-26.653061,-91.795979,-19.577522,-94.140015,-12.36351,-81.039047,-5.853195,-59.676876,0.0,30.630119,30.449066,57.357982,47.622597,71.944602,59.178199,84.199774,65.581099,87.240673,0.0,47.020226,0.414505,33.032684,-3.764191,24.387245,-2.259979,19.626961,1.683083,19.694481,0.0,-30.733551,-34.076502,-87.837738,-21.983332,-9.73486,-6.482497,0.392455,8.415315,12.049914,87.69845,261.937961,118.805323,-7.79318
59,0.188255,0.203715,1.165695,-1.586399,0.0,-63.023357,-26.588287,-92.360001,-19.303894,-94.394073,-11.920509,-80.829048,-5.334091,-59.111481,0.0,31.128568,30.158716,57.56466,47.045416,72.478002,58.496968,83.890034,65.058443,86.330534,0.0,47.095642,0.461655,32.441139,-3.823128,23.89286,-2.480965,18.902206,1.286659,19.55555,0.0,-26.068369,-33.144595,-85.983188,-20.841104,-8.35517,-5.030806,1.997317,10.169737,13.941792,87.625179,262.276971,119.709492,-9.244284
60,-0.04921,0.016364,0.350189,2.163179,0.0,-62.839279,-26.241188,-92.509804,-19.095612,-94.022141,-11.924171,-81.169682,-5.495796,-60.198154,0.0,30.759424,31.039462,57.92096,48.058555,72.533392,59.438785,84.092452,65.833349,86.711966,0.0,51.235085,1.023903,33.936081,-2.735939,24.590149,-1.048279,20.514908,3.192215,21.52153,0.0,-27.561463,-32.694311,-85.17398,-20.770122,-9.016764,-5.628581,2.317369,9.199237,13.109612,87.41787,262.822459,119.901581,-6.551981
61,-0.189171,0.174815,2.242012,-0.598114,0.0,-62.205849,-25.943871,-92.987366,-18.984032,-94.676399,-11.726074,-82.047157,-5.016518,-59.857635,0.0,30.747321,29.813222,58.460968,46.7944,72.677827,58.437194,83.666559,65.304272,86.079889,0.0,48.912964,-0.907631,32.269707,-5.019035,22.272606,-3.425674,19.504623,0.453072,20.31601,0.0,-25.282255,-32.192157,-83.211088,-20.63813,-7.015742,-5.440427,3.079864,9.470815,14.329924,86.930265,263.162503,121.84516,-6.984867
62,0.296974,0.475231,-0.999527,1.752755,0.0,-62.074699,-26.563568,-93.055,-19.857101,-94.97366,-12.59388,-82.178993,-5.657959,-60.117245,0.0,30.162112,30.022001,57.227318,46.948591,71.350378,58.55773,82.911722,65.340087,86.193078,0.0,52.711029,1.57917,36.196747,-2.22702,25.608788,-0.738487,21.749954,3.374405,22.742271,0.0,-25.87685,-31.197142,-83.026918,-19.518935,-8.190544,-4.576447,3.418503,10.019992,13.914869,86.225424,264.386705,119.843817,-4.483142
63,0.146484,0.425152,3.836975,0.947714,0.0,-61.770916,-26.929092,-92.821884,-20.484352,-94.813213,-13.437195,-81.775417,-6.668587,-60.482483,0.0,30.019531,29.964696,56.901029,46.986691,70.928005,58.618308,82.773834,65.345212,85.679993,0.0,49.780312,0.073929,33.582802,-4.818878,22.748222,-3.801155,18.593216,-0.063629,19.237175,0.0,-22.612414,-31.459674,-82.394933,-19.567656,-5.781197,-4.331668,4.319688,10.322755,14.93727,85.480242,264.815669,122.789125,-3.531614
64,-0.526428,0.178582,1.296501,-0.220325,0.0,-61.943836,-27.011948,-92.286472,-20.623169,-94.371758,-13.609543,-81.060047,-6.732674,-59.701653,0.0,29.812667,30.365703,56.752025,47.19726,70.650252,58.640167,82.828853,65.248511,86.092857,0.0,50.10807,-0.094299,34.026375,-4.544563,22.291946,-3.513107,19.274139,-0.031357,20.722389,0.0,-21.099992,-29.381618,-80.217768,-17.231175,-4.452266,-1.927817,7.019077,12.891695,16.951383,84.414167,264.643849,123.54598,-4.102342
65,0.572548,0.771201,0.405922,0.444109,0.0,-62.473984,-27.469597,-93.154106,-21.078529,-95.027161,-14.251785,-81.706524,-7.672691,-60.294514,0.0,29.329037,30.091964,56.538801,47.095434,70.014593,58.606205,82.543566,65.117847,85.915201,0.0,50.052795,0.113411,34.023056,-4.64756,22.538452,-3.844986,19.093323,-0.464859,20.389824,0.0,-17.57392,-28.35792,-79.573032,-15.467892,-3.905683,0.269788,7.153631,15.39092,17.648947,84.086695,265.214685,123.051882,-3.858598
66,-0.067635,0.616825,0.350075,2.229282,0.0,-62.547569,-28.063774,-93.130989,-21.765175,-95.200768,-14.845963,-81.670876,-7.992325,-60.122795,0.0,28.541905,29.92672,55.934079,46.839046,69.71955,58.288128,82.296133,64.766487,85.820414,0.0,47.8862,0.186424,34.33239,-5.098572,22.283821,-4.675255,18.554535,-1.493225,18.771286,0.0,-18.655602,-29.068636,-78.41515,-16.269227,-3.125281,-0.823133,7.595949,14.036486,17.918858,83.051033,265.808045,122.433929,-1.652781
67,0.341148,0.879202,-2.929688,0.819027,0.0,-63.3498,-27.902641,-93.146782,-21.163216,-94.91621,-14.096947,-81.98204,-7.466469,-60.815105,0.0,28.923522,29.731835,55.56018,46.827499,69.69275,58.348582,81.593722,64.891038,85.003147,0.0,51.251793,0.563164,37.055283,-4.214287,23.391953,-3.378067,19.660263,0.174065,19.900589,0.0,-17.671918,-27.913378,-76.450993,-14.46596,-2.459334,1.24847,8.328556,16.251226,18.828225,82.628374,266.688883,118.740435,-0.832118
68,-0.653458,0.673141,-2.167053,2.567737,0.0,-63.902321,-28.501511,-93.157768,-21.616631,-95.330658,-14.470024,-82.578106,-7.699127,-61.39492,0.0,29.05289,29.722573,56.317117,46.917469,69.539053,58.580949,81.036918,65.329095,84.401081,0.0,50.808105,1.097946,38.250389,-2.986794,24.724846,-1.717186,22.857285,1.863327,23.151283,0.0,-18.472667,-27.807847,-77.654725,-14.426687,-2.472301,1.258226,7.858944,16.274414,18.521635,81.038961,267.14048,115.637426,1.514074
69,-0.315399,0.453248,-0.854645,4.252102,0.0,-63.925209,-26.81385,-92.429066,-19.957352,-94.643841,-13.004036,-82.209892,-6.734276,-61.160603,0.0,28.799219,29.360345,55.792917,46.75451,69.015718,58.64486,81.15869,65.638712,85.017041,0.0,46.969643,-0.708847,36.494293,-6.17878,21.147881,-5.543404,18.21888,-2.347412,16.406364,0.0,-16.905935,-28.734504,-77.343163,-15.355938,-2.879977,0.45226,6.815177,15.29391,18.221713,79.976149,267.307237,114.035368,5.479685
70,0.01133,0.260031,-3.711662,1.865634,0.0,-62.922821,-26.501656,-92.267132,-19.867973,-94.383202,-13.027954,-81.590023,-6.730957,-60.740089,0.0,28.097672,29.08537,55.24408,46.212279,68.956006,58.081511,81.089159,65.285994,85.497459,0.0,49.756393,0.894012,37.018433,-3.714638,22.922745,-2.733192,19.420624,0.781288,17.625389,0.0,-19.994042,-28.509949,-76.746592,-15.130487,-3.552162,0.700929,7.023893,15.628165,18.497058,79.622011,267.139059,109.958239,6.917111
71,0.782547,1.266316,-6.857414,9.472174,0.0,-63.582344,-26.509209,-92.169399,-20.316124,-94.10717,-13.77079,-81.738682,-6.92585,-58.662987,0.0,26.350136,28.504299,55.411917,45.797934,67.979547,58.070334,82.185044,65.309335,89.973376,0.0,46.383018,-1.972618,37.807617,-6.156807,25.30117,-5.024872,20.200996,-1.375008,15.913811,0.0,-13.0926,-25.919365,-72.54389,-11.95843,-3.572076,4.308511,6.995612,19.609214,18.326658,78.621683,267.83054,101.317949,15.81445
72,-0.149918,1.010298,-7.087898,5.610797,0.0,-63.437977,-26.282387,-92.083912,-19.98127,-94.052067,-13.522911,-81.442108,-6.67202,-57.367058,0.0,26.108198,28.632369,55.299099,45.389764,68.252669,57.244731,82.620137,64.206535,91.637611,0.0,51.356163,0.692253,41.887436,-2.701492,25.494118,-0.978127,21.761055,2.840767,18.805046,0.0,-12.88904,-24.307772,-70.986514,-9.805996,-2.145024,6.599514,7.456702,21.205616,19.820709,77.192831,268.42407,92.951117,21.008478
73,1.650581,1.720613,6.22982,3.89781,0.0,-63.805218,-26.588173,-93.131218,-20.206604,-94.692078,-13.595238,-83.071461,-6.551285,-57.959747,0.0,25.79994,28.976998,54.036365,45.952866,67.576069,57.867176,83.04782,64.834722,95.576176,0.0,32.152519,-4.44809,21.015244,-0.799942,11.122284,3.908844,11.753426,10.159492,12.679825,0.0,-14.985713,-2.730325,-23.560746,6.345472,6.790816,17.053611,20.911901,24.99984,30.187276,75.671425,269.23246,96.008949,23.994064
74,1.2537,0.935951,-22.067757,31.941697,0.0,-63.580685,-26.735573,-93.998966,-20.671234,-96.863594,-14.559517,-85.546417,-7.955132,-59.612961,0.0,24.172199,29.222456,53.258372,46.038575,66.388671,57.88885,81.436443,64.836636,94.099168,0.0,46.952934,7.692719,38.222694,11.485977,31.258049,16.078606,31.162834,21.245499,30.319405,0.0,-46.957576,-12.067111,-26.034221,5.97673,5.88395,24.099735,20.451428,40.787537,31.566625,74.960003,267.94606,71.97607,53.713411
75,-0.183792,-0.168455,-10.427113,33.059365,0.0,-64.431839,-27.714272,-95.363102,-21.201897,-97.478142,-14.681969,-85.882072,-8.390808,-63.289661,0.0,23.7468,29.837182,53.399039,47.106178,66.504576,58.880623,80.386872,65.470627,89.95516,0.0,60.860996,18.061237,50.120487,19.513607,39.651604,21.210136,35.494022,23.25594,32.401428,0.0,-31.381776,-14.366265,-16.336041,5.254882,7.74171,25.014489,23.905437,43.577281,36.938509,72.03598,266.738608,58.808727,85.733778
76,1.414833,0.04057,-10.427113,33.059364,0.0,-65.055885,-28.328247,-96.427174,-22.656555,-98.795013,-16.723938,-87.760048,-11.015625,-65.570011,0.0,21.548053,29.746655,51.742337,47.174968,63.1858,59.215064,76.864443,66.232319,86.084767,0.0,74.769058,28.429756,62.01828,27.541237,48.045158,26.341667,39.825211,25.26638,34.483452,0.0,-15.805975,-16.665417,-6.637861,4.533036,9.599472,25.929245,27.359446,46.367026,42.310394,70.350952,267.541008,45.281754,119.554973
77,1.048737,0.159069,-8.575744,33.545047,0.0,-67.098656,-29.773979,-99.02441,-24.264793,-101.450558,-18.38562,-90.442657,-12.412376,-68.276596,0.0,18.068294,29.578262,47.075982,46.934018,59.585751,58.923787,73.581791,65.937028,84.846733,0.0,70.60009,35.76004,60.938015,29.925213,48.248405,22.671947,35.911445,15.267734,24.61916,0.0,3.505432,-8.603793,9.312703,10.503035,22.719952,30.555524,39.98441,50.188481,52.788297,69.5224,267.932892,34.82872,153.332834
78,-0.493011,1.66263,-8.575745,33.545047,0.0,-65.940285,-28.320465,-99.730511,-24.634552,-102.763138,-20.31601,-92.525768,-15.439453,-69.627628,0.0,14.328195,28.76081,39.72052,45.922361,53.943863,57.533909,69.94568,63.925323,81.973734,0.0,66.431122,43.090324,59.85775,32.309189,48.451653,19.002228,31.997681,5.269089,14.754868,0.0,22.816839,-0.542169,25.263267,16.473034,35.840433,35.181803,52.609375,54.009936,63.266199,68.767633,269.44289,25.99122,186.725249
79,-2.171402,3.228991,-7.701187,14.735933,0.0,-65.16798,-28.197899,-97.672405,-24.569664,-101.715717,-19.544907,-91.766109,-13.692169,-68.252335,0.0,10.925747,25.077213,35.889525,41.152512,50.7497,52.692862,64.856149,59.389261,77.195796,0.0,63.773346,38.974113,63.332062,25.93895,44.382935,11.441574,25.40863,-3.12252,9.239159,0.0,10.946063,5.77002,27.882534,22.391749,40.473752,39.380584,50.961565,55.783037,59.011472,66.420851,272.171919,18.114653,200.96122
80,0.045776,41.604155,-13.756714,28.035582,0.0,-71.051731,-28.88855,-97.728596,-26.386871,-85.978832,-21.994972,-43.612404,-16.234474,-28.135071,0.0,32.574145,11.060796,9.596446,-6.924074,-8.975608,-25.332366,-30.903241,-43.362807,-46.342387,0.0,76.933537,34.678459,76.454601,20.969324,52.939568,7.052536,35.320931,-6.187935,20.030995,0.0,14.103856,16.397729,32.306766,35.113353,44.509944,51.483202,54.310105,65.494154,62.327902,65.694094,313.073354,3.585405,228.294083
81,-2.109375,-44.051756,-13.756714,28.035582,0.0,-59.543095,-15.003548,-73.027439,-13.537445,-73.090496,-13.161621,-70.049973,-13.165512,-57.990589,0.0,17.756948,40.135977,34.193056,50.764581,33.060738,53.971589,37.242106,51.596174,42.30459,0.0,90.093727,30.382805,89.577141,15.999699,61.496201,2.663498,45.233231,-9.253349,30.82283,0.0,17.261648,27.025438,36.730998,47.834957,48.546136,63.585819,57.658644,75.205271,65.644331,62.572174,268.372987,-11.183853,255.681054
82,-0.357742,-4.226816,-21.070518,8.889713,0.0,-62.446918,-23.876724,-63.102894,-19.107857,-59.942322,-14.354782,-48.979797,-9.446068,-35.278816,0.0,10.838371,24.831384,43.995193,41.082179,60.13144,52.679029,70.376327,59.790948,72.287194,0.0,73.525772,34.231968,84.896736,21.918526,81.389465,10.401077,68.121872,0.703869,52.959366,0.0,5.226246,34.825812,55.162816,52.988337,66.245039,64.733574,75.09727,71.050456,79.503161,60.898104,264.010259,-33.5707,264.434854
83,0.611343,0.095157,-13.514328,5.240016,0.0,-57.165012,-29.23027,-56.337833,-23.69648,-48.05191,-16.673813,-33.830681,-8.812408,-25.613708,0.0,11.285073,19.190114,16.437527,35.32704,25.449197,46.831821,42.672499,54.690611,53.296534,0.0,78.029823,37.951813,95.241051,27.230072,92.165451,16.501465,78.157883,6.377506,60.836678,0.0,-1.017029,35.168527,61.94437,52.41764,72.260579,63.400877,81.832016,69.097661,86.470769,60.586109,264.11207,-48.008366,269.681525
84,-0.301323,-0.018772,-6.891289,0.826715,0.0,-51.671104,-35.109558,-63.437176,-31.024818,-51.287956,-23.675537,-35.920143,-14.519119,-27.971306,0.0,4.753176,19.363571,17.702485,33.821503,26.896009,43.941037,38.662118,51.438834,47.924309,0.0,77.635002,34.640465,97.480087,25.126591,95.874367,16.446648,80.218163,8.661804,63.538399,0.0,1.518937,35.975296,63.123,53.38107,75.501055,64.128359,84.045645,70.293087,87.229682,59.62615,264.100291,-55.55829,270.515232
85,-2.315369,1.731914,-1.198082,0.148077,0.0,-50.968723,-35.491676,-68.723602,-31.567612,-52.219391,-24.133987,-35.245628,-14.917259,-26.927948,0.0,0.016981,16.639575,15.58673,30.735959,29.486995,41.260143,42.206345,49.446519,51.823663,0.0,76.952019,34.372559,99.942055,25.372982,98.814583,17.135067,82.951584,10.359936,64.725266,0.0,2.610437,37.247787,62.172723,54.931067,74.0259,65.654891,82.173373,71.486908,85.714388,56.81056,265.692309,-57.256594,270.523414
86,-1.692581,1.650959,-0.233002,-0.212545,0.0,-50.993156,-36.409607,-67.986832,-32.246017,-44.112282,-24.481316,-30.29171,-14.852943,-23.68515,0.0,-0.076015,14.4977,11.334103,27.573597,25.641303,38.149775,41.437861,47.301618,53.024338,0.0,75.349274,34.661522,101.549606,25.977459,99.987259,17.402687,81.684608,9.614124,64.863167,0.0,3.035403,34.992723,59.765445,52.639571,69.88961,63.689437,78.764503,70.184036,84.646106,54.351826,267.133147,-58.255749,270.100748
87,-2.133179,-0.592742,0.610886,0.227859,0.0,-50.944405,-35.176849,-68.096008,-30.290451,-40.556602,-21.830978,-25.359077,-11.520653,-18.973274,0.0,3.79271,15.161579,16.356881,28.055065,36.973862,38.952345,51.483047,48.105732,60.993167,0.0,74.316101,34.621296,101.483688,26.117821,99.083748,17.788696,81.585159,10.317249,65.239449,0.0,3.309637,35.186867,59.996639,52.743559,68.908211,64.029496,77.445823,70.903737,84.289127,51.769238,266.325899,-58.094273,270.114102
88,0.132294,1.954092,-0.706902,-1.121264,0.0,-50.322704,-34.787979,-68.339367,-31.017265,-43.049927,-23.498955,-28.772278,-13.632317,-23.723373,0.0,3.699344,12.322912,14.085886,24.823727,31.939907,35.820488,47.389551,45.619475,58.553346,0.0,72.498779,33.328514,99.495392,25.071602,98.521156,16.819382,82.037544,9.285164,65.758781,0.0,5.577297,33.777784,60.041037,51.747277,68.725739,63.337645,77.217593,70.436287,83.27889,50.698099,268.252913,-60.004606,268.96576
89,-3.815575,0.528213,-0.52557,-0.829123,0.0,-52.360611,-31.139603,-56.443062,-27.462845,-38.390808,-20.016632,-25.527878,-10.341225,-22.201424,0.0,3.207502,12.172859,15.529179,24.215362,30.185824,35.050522,45.467384,44.915891,56.878675,0.0,72.482929,31.372719,98.81258,23.195457,97.346478,15.401802,81.056271,8.551998,65.123863,0.0,7.170087,33.253276,59.806818,51.341269,68.743708,63.215749,76.875743,70.380217,83.272407,46.424732,268.570249,-60.987968,267.92576
90,-3.499832,0.394956,0.559444,-0.017599,0.0,-50.030451,-44.338617,-39.6282,-44.79538,-25.34523,-40.675907,-20.203171,-33.692722,-24.381638,0.0,8.636598,15.672748,31.731962,31.019825,47.740633,44.577591,58.250522,56.453616,65.994332,0.0,70.289268,30.751419,96.511116,22.275066,95.118484,14.128647,78.314781,6.886654,62.389984,0.0,8.515073,34.396029,60.444885,51.959946,69.25883,63.433481,77.107492,70.294878,83.8352,42.542696,268.803063,-60.810728,267.74602
91,-3.499832,0.394955,-1.006851,1.20438,0.0,-47.700291,-57.537632,-22.813339,-62.127914,-12.299652,-61.335182,-14.878464,-57.04422,-26.561852,0.0,14.065694,19.172638,47.934745,37.824289,65.295441,54.104661,71.03366,67.991341,75.10999,0.0,70.366173,28.407555,95.70179,20.223713,94.505539,12.874031,78.423843,6.6786,62.281036,0.0,8.013598,33.002261,59.026416,50.843128,67.821218,62.506299,75.499265,69.22357,82.085564,38.605299,269.075475,-62.255144,268.827856
92,1.086388,4.549523,-1.447506,0.215756,0.0,-54.916477,-45.198441,-28.118706,-46.834602,-16.984177,-45.253944,-17.124939,-41.232891,-36.378307,0.0,9.520679,17.635547,42.694729,35.335068,58.779785,50.651393,66.748799,63.942552,77.150162,0.0,70.134602,29.216366,95.071735,20.818348,93.303165,13.12254,76.373806,6.529083,60.771847,0.0,9.680736,33.970137,60.352691,51.455383,69.13959,62.624798,76.562051,68.884622,82.229072,39.531555,273.288196,-63.862782,268.70681
93,-3.878746,-2.223879,-0.457191,0.823565,0.0,-52.18626,-34.121017,-36.146507,-33.367825,-24.783554,-30.335884,-18.174362,-25.167618,-28.960762,0.0,12.401459,20.80217,33.752837,37.253653,55.658425,50.949833,64.396973,62.67778,75.149881,0.0,70.145473,26.705933,93.41795,18.45171,93.13242,11.284504,77.859592,5.299473,60.333252,0.0,7.602031,33.676884,59.144051,51.476502,69.283715,62.92861,77.29015,69.356395,83.121303,35.470161,270.768023,-64.502621,269.234081
94,-11.560478,0.816896,-0.342865,0.526978,0.0,-29.678936,-49.962387,-11.744614,-56.131783,-4.128113,-58.501453,-6.418419,-57.835751,-22.904205,0.0,8.141854,16.20831,40.522226,35.422321,60.800197,52.346133,70.463086,66.92732,76.54896,0.0,68.916264,25.880642,92.717686,17.504311,92.969685,10.230389,77.559414,4.169426,59.602261,0.0,8.580899,33.38394,60.736038,51.259758,70.87243,62.878283,78.086051,69.338364,83.579677,23.744888,271.38579,-65.010281,269.561929
95,-12.698479,9.253793,-1.001759,0.366242,0.0,-16.252613,-38.689499,7.925262,-46.886101,14.017982,-47.910233,7.843666,-45.549774,-7.242966,0.0,4.743605,8.148276,36.075208,27.582242,57.831237,43.73862,64.660832,57.716566,70.784189,0.0,68.913231,24.61132,93.61496,16.41798,93.339043,9.58231,77.519417,3.879776,59.870052,0.0,9.667706,32.410506,60.988782,50.609958,71.496788,62.451217,77.057104,69.048817,83.604994,10.70549,280.312923,-66.352959,269.601511
96,-13.284302,6.507752,0.025692,0.677032,0.0,-0.725727,-31.673927,19.636116,-39.796143,25.919952,-39.689312,20.436745,-36.018047,5.857201,0.0,-1.329425,6.397096,31.782381,24.019614,49.899582,38.439631,56.020344,50.491459,60.353926,0.0,67.636242,23.142757,92.456074,15.04137,92.754307,8.490543,76.915112,3.148098,59.105816,0.0,10.253594,32.077054,61.470806,50.401489,71.569468,62.354331,77.225312,68.904444,82.90036,-2.797766,286.574415,-66.546221,270.032282
97,23.666267,-13.652769,-0.862827,-0.247681,0.0,-30.645962,-50.609837,-10.968246,-58.020058,-3.22094,-60.403919,-5.073509,-59.352493,-20.960827,0.0,4.863586,13.456403,38.613521,33.659347,59.483493,51.274393,69.204489,66.896568,73.958839,0.0,67.578392,23.542042,93.219681,15.20731,92.439995,8.409405,78.434486,2.859707,59.327888,0.0,8.533845,32.141336,59.917351,50.180423,70.636358,61.887251,77.729998,68.256559,83.921712,20.708685,272.719367,-67.568865,269.582322
98,-6.886368,6.019554,0.798912,0.124365,0.0,-23.683147,-45.057449,3.771744,-52.778091,9.423637,-52.926979,3.777008,-49.631939,-11.607513,0.0,6.658732,10.696468,41.061245,29.43389,60.387272,44.85939,66.766707,58.009943,71.931511,0.0,67.49176,22.923603,91.10733,14.501667,91.213303,7.6581,77.681007,2.227993,58.766842,0.0,7.88633,31.362664,60.022882,49.696608,70.589304,61.993091,78.494036,68.733149,83.307543,13.695087,278.619078,-66.897182,269.586846
99,-12.115288,7.297293,-0.353851,0.203468,0.0,-12.425308,-33.740616,12.735329,-40.236225,21.24424,-39.504719,15.577469,-35.949497,2.994232,0.0,-1.053339,9.881795,32.345051,27.395138,48.665253,40.964791,55.970697,51.853735,61.090424,0.0,67.337036,21.621895,91.015778,13.739605,91.921921,7.575703,78.333549,2.773361,59.276562,0.0,9.620714,31.516546,59.913337,49.9341,70.816669,62.071514,77.462557,68.744881,83.674155,1.417923,285.764111,-67.41291,269.638052
100,24.711227,-14.219823,-0.480595,-0.600214,0.0,-40.706177,-54.14423,-21.613083,-59.241314,-11.640587,-59.438152,-12.239914,-55.954056,-23.852692,0.0,9.930948,17.132343,42.72653,36.613363,60.980446,53.532914,69.165031,67.955402,74.093084,0.0,67.57513,23.202267,92.925854,14.93082,91.862011,8.155231,78.771229,2.787952,59.350662,0.0,10.531286,32.353387,60.497681,50.560929,71.233361,62.426702,78.434447,68.803421,84.645303,25.931683,271.328532,-68.090973,268.822082
101,5.839005,5.958668,0.694656,0.391004,0.0,-53.41444,-53.457012,-23.197975,-58.609314,-13.528061,-57.596397,-13.583107,-53.231392,-27.03804,0.0,8.824751,9.728036,40.051255,29.513548,58.864259,46.453229,66.860876,61.687241,73.897027,0.0,67.611237,22.507896,92.687016,14.041901,91.172848,7.167778,77.631969,1.81572,58.550262,0.0,9.926564,31.877292,59.87851,49.991775,70.216455,61.880026,77.575808,68.272491,83.971606,31.51989,277.088687,-67.647114,269.014574
102,1.931763,-1.786625,0.111866,-0.068975,0.0,-56.931839,-48.349171,-30.482597,-49.599152,-18.046417,-47.017879,-15.599213,-41.953297,-32.067604,0.0,11.388567,16.680083,44.748548,33.04246,61.083322,47.632045,67.912856,60.285322,78.157435,0.0,67.280445,24.097767,91.977654,15.778141,91.186066,8.610935,78.207779,2.793617,59.345741,0.0,10.192461,32.052478,60.334907,50.240691,70.854831,62.219715,78.62927,68.780882,83.924182,33.268175,275.1829,-67.718725,268.826436
103,-0.19455,-2.360656,1.392918,0.762309,0.0,-53.321571,-38.407402,-31.477203,-38.296738,-18.598938,-35.770111,-14.629555,-31.404305,-33.219166,0.0,10.678005,20.903008,39.190393,37.530604,57.076709,51.414999,65.631549,63.326344,79.155692,0.0,67.013798,21.931171,90.881252,13.889236,90.659351,7.425671,77.481709,2.406521,59.090023,0.0,9.89748,31.587867,59.872829,49.937682,69.727701,62.076948,76.725566,68.743461,83.105557,32.886086,272.641299,-66.513348,269.4078
104,-1.809425,-0.716428,0.055275,-0.018834,0.0,-46.500893,-27.336731,-46.813316,-25.778389,-28.880882,-21.714592,-18.634071,-15.688477,-22.522202,0.0,9.435031,19.145221,29.494282,34.443577,51.785131,47.012318,61.188421,57.688593,72.389082,0.0,67.062836,21.723747,91.498547,13.935871,91.19276,7.769852,78.395977,3.116226,59.83778,0.0,10.160166,31.208102,59.313617,49.634425,69.91499,61.779435,77.124165,68.382715,83.395722,30.984049,271.719396,-66.550684,269.183492
105,-1.144867,0.27905,0.21143,0.184448,0.0,-45.429325,-57.002678,-23.656654,-61.743622,-13.59684,-61.338387,-15.36541,-57.137489,-27.246323,0.0,11.917768,17.844943,45.989422,36.006974,62.888843,51.719243,68.748648,65.197814,73.232531,0.0,68.247871,22.165432,91.858635,14.344425,91.585464,8.05275,78.660049,3.188496,60.243874,0.0,9.802754,31.16463,59.315655,49.521175,69.927216,61.655625,76.821897,68.336217,82.984958,29.700565,271.97478,-66.477871,269.344275
106,5.302048,3.644448,0.830212,0.174815,0.0,-52.154675,-55.328808,-21.981125,-61.347027,-13.748703,-61.306915,-16.473427,-57.710037,-30.812416,0.0,12.417637,10.883016,45.792068,30.260666,61.685759,47.08506,68.832073,62.1056,74.418756,0.0,68.313046,21.821423,92.380886,14.095287,91.908932,7.899399,78.878117,3.112965,60.028439,0.0,10.453295,31.849627,59.011287,49.958121,69.316319,61.879594,76.430646,68.428719,83.329217,34.882851,275.603945,-65.767422,269.503807
107,-0.826721,0.642575,0.584908,-0.005805,0.0,-48.773003,-43.059769,-31.384392,-44.841614,-17.827721,-43.260612,-13.893127,-39.615498,-27.786484,0.0,13.404285,14.943044,36.553527,32.262923,55.699304,47.050479,63.061373,59.619591,73.987615,0.0,68.057957,21.628361,92.286472,13.829384,91.329403,7.578907,78.482723,2.790241,59.657364,0.0,11.102971,31.637083,58.119488,49.698152,69.124276,61.587885,77.12503,67.998195,83.824332,33.899603,276.216216,-65.339041,269.467698
108,-4.912605,-1.754885,0.281296,-0.170987,0.0,-41.78278,-48.041554,-22.172184,-52.084751,-10.409317,-51.960125,-9.132786,-48.984232,-23.755589,0.0,9.754311,15.080438,38.860676,33.50565,57.921917,49.209984,66.078652,62.750583,73.853245,0.0,67.884464,22.704391,92.67683,14.371548,91.617794,7.486954,78.825817,2.182617,59.959431,0.0,11.067835,32.240693,58.868459,49.88717,69.151816,61.425173,77.177579,67.459979,83.789134,28.836708,274.450463,-65.208035,269.285843
109,-4.912606,-1.754885,1.215134,1.242171,0.0,-34.792557,-53.023338,-12.959976,-59.327888,-2.990913,-60.659637,-4.372444,-58.352966,-19.724693,0.0,6.104337,15.217833,41.167826,34.748377,60.144531,51.369488,69.095932,65.881576,73.718877,0.0,68.302746,23.195572,91.8643,14.961605,90.295544,8.129826,76.600056,2.662811,58.528805,0.0,8.096961,31.516546,58.799113,49.500427,69.255125,61.207379,76.393658,67.495856,82.735301,23.847828,272.718765,-64.069176,270.551202
110,-9.92569,9.630471,0.102997,-0.355559,0.0,-28.345356,-41.891785,4.527969,-48.537712,12.164955,-48.854828,7.165947,-46.543465,-8.721657,0.0,1.599089,7.800868,39.775478,26.730827,57.912192,42.048573,63.154431,55.750186,68.809719,0.0,68.459644,23.157749,92.243214,14.877319,90.924854,7.980995,77.056675,2.583103,58.961506,0.0,8.77424,32.130654,60.02597,50.146522,69.962538,61.92708,76.959662,68.083411,83.131739,13.899994,282.377764,-63.988323,270.224172
111,-14.805737,7.787406,0.387669,-0.437687,0.0,-14.508762,-33.443012,21.607533,-39.457912,29.393749,-38.098297,23.545475,-33.947353,5.738354,0.0,-8.027307,7.716208,30.44777,24.73456,46.529121,37.884125,52.268636,48.458759,56.939499,0.0,68.68412,23.938007,93.061066,15.494785,90.716057,8.470688,76.876717,2.963963,59.100895,0.0,8.947264,31.992518,59.235379,50.262551,69.613277,62.149011,76.767124,68.302378,83.381767,-0.99412,290.189793,-63.689032,269.811108
112,-8.523102,9.227364,0.108147,0.059898,0.0,3.056831,-27.284832,24.966602,-33.204918,33.818722,-32.423515,29.045162,-28.825493,11.685162,0.0,-23.730869,1.639535,17.517913,17.603375,35.580834,30.700576,43.898553,41.819355,49.213226,0.0,69.250832,23.918953,91.349258,15.736771,90.698662,8.888912,77.624817,3.584805,60.175724,0.0,8.101037,32.431563,60.028996,50.537402,69.361397,62.592317,76.509995,68.89901,83.297415,-9.538765,299.381775,-63.602428,269.835623
113,-12.351265,-0.364883,-0.031528,0.2286,0.0,19.063225,-15.976467,39.837399,-20.970039,47.190914,-20.640965,41.095333,-17.178612,24.702129,0.0,-21.824139,4.511794,20.719363,20.420182,35.998946,33.274642,44.042432,43.960365,52.244121,0.0,69.266453,24.457912,90.896931,16.410542,90.915813,9.557762,77.676029,4.225216,60.154953,0.0,7.033495,31.828385,59.77267,50.158192,69.483663,62.412376,76.549145,68.906976,83.147609,-21.876154,299.010469,-63.620081,270.057801
114,1.745911,-1.357398,-0.097332,-0.995293,0.0,19.26899,-17.585049,37.02776,-23.58078,46.974621,-23.173084,40.848598,-19.710732,24.126835,0.0,-21.700577,4.075712,22.027236,20.715349,37.906293,34.214236,46.117554,45.155359,54.612435,0.0,68.590164,25.069885,91.396866,16.799011,90.719032,9.534531,76.896744,3.549271,59.426823,0.0,9.306034,32.925505,60.284087,50.779155,70.336498,62.512597,77.915003,68.734384,83.852922,-20.10767,297.650324,-63.694839,269.05976
115,-2.730331,-2.269389,0.826721,0.597682,0.0,20.272694,-16.652985,39.206944,-21.426487,49.525509,-20.474567,43.468494,-16.801643,27.369518,0.0,-16.919551,5.665724,24.709674,22.841663,40.211374,36.545499,47.618707,47.5204,55.952789,0.0,68.725319,25.115891,90.84034,16.824188,89.996452,9.47628,76.236877,3.433914,59.480209,0.0,8.782205,32.398403,59.881659,50.367835,69.622355,62.295977,77.072727,68.804656,83.468094,-22.828016,295.331997,-62.858133,269.608505
116,0.172577,-0.902791,-0.206051,-0.237554,0.0,20.637989,-15.685329,39.044895,-21.134033,49.5191,-20.724449,43.849697,-17.678032,27.466793,0.0,-17.228427,6.021468,27.578784,23.59829,40.795224,37.395926,48.430292,48.522486,57.895828,0.0,68.805943,25.529766,91.584835,17.102337,90.070324,9.609489,75.762234,3.280907,58.622761,0.0,8.066703,32.153625,59.932789,49.964481,69.721526,61.815929,77.195672,68.345912,83.829642,-22.633696,294.418076,-63.04244,269.35982
117,4.004459,-0.377913,0.499821,0.100715,0.0,18.242512,-19.760742,34.517441,-25.555,45.029411,-24.754086,40.360794,-21.243782,24.15081,0.0,-16.660199,5.520302,26.191869,23.639787,40.257255,37.781125,48.697857,49.252129,56.933695,0.0,68.62587,25.357075,91.709633,16.747856,90.038452,9.192238,76.097374,2.918873,58.754768,0.0,8.132838,32.19401,60.154658,50.008818,69.456246,61.921893,77.189559,68.541969,83.767027,-18.621998,294.03087,-62.535381,269.451242
118,-1.403046,-1.390681,-0.115585,-0.204579,0.0,20.205345,-19.360085,37.597275,-25.055752,47.55867,-24.227657,41.779976,-20.781384,25.318794,0.0,-14.385129,5.991519,27.394335,24.051971,42.612724,38.380783,50.854428,49.837584,58.388658,0.0,69.22966,25.694904,92.556038,16.880779,89.7995,9.10841,75.542908,2.627335,58.228111,0.0,7.881205,32.500724,59.738892,50.250324,69.627356,61.988522,77.408587,68.263969,83.991922,-19.988394,292.62066,-62.614317,269.227134
119,2.864456,0.39829,-0.148659,-0.286584,0.0,17.677689,-21.504993,33.903008,-27.782249,43.316231,-27.103615,38.641663,-23.807373,21.656914,0.0,-15.492314,4.994373,26.275788,23.242114,41.018884,37.723574,50.13942,49.391808,57.904782,0.0,69.424896,25.699825,92.741318,16.798496,90.302353,9.019604,75.872154,2.622757,58.421173,0.0,8.272332,32.967557,60.277356,50.593718,70.123459,62.209156,78.080432,68.418901,84.417136,-17.103767,292.945205,-62.742805,268.866805
120,0.458908,0.665422,0.075188,0.113744,0.0,16.419811,-22.238903,34.85939,-28.402004,44.635849,-27.841988,38.183899,-24.368019,20.857201,0.0,-15.130889,4.962448,26.54502,22.891742,41.810772,37.176033,50.351224,48.623509,58.758358,0.0,69.484634,25.618,92.840767,16.562119,89.941292,8.756847,75.722694,2.495384,58.568974,0.0,8.6508,32.749207,60.484158,50.598411,70.229423,62.359703,78.002503,68.662012,84.502537,-16.641626,293.566491,-62.664385,268.936413
121,-0.439739,1.68239,-1.080208,-0.351298,0.0,11.35128,-21.497898,31.661396,-27.041016,43.947887,-25.903816,37.690716,-22.284451,22.62434,0.0,-20.646065,4.401755,24.75926,21.98679,38.379548,35.774607,46.598899,47.126679,54.838194,0.0,69.44149,26.610088,92.755051,18.056374,90.046463,10.367146,76.277046,3.749142,58.692455,0.0,6.783159,33.621741,59.494299,51.295141,70.025523,62.745767,78.838542,68.908026,84.253929,-17.015505,295.159281,-63.678732,268.495515
