takenoko1/special-research/HandMotion_SimilarSearch_自分用/NewProject/handData/test_key/d4_feature_d2/28.csv
frame,vel_0x_L,vel_0y_L,vel_0x_R,vel_0y_R,posFromWrist_0x_L,posFromWrist_1x_L,posFromWrist_2x_L,posFromWrist_3x_L,posFromWrist_4x_L,posFromWrist_5x_L,posFromWrist_6x_L,posFromWrist_7x_L,posFromWrist_8x_L,posFromWrist_9x_L,posFromWrist_0y_L,posFromWrist_1y_L,posFromWrist_2y_L,posFromWrist_3y_L,posFromWrist_4y_L,posFromWrist_5y_L,posFromWrist_6y_L,posFromWrist_7y_L,posFromWrist_8y_L,posFromWrist_9y_L,posFromWrist_0x_R,posFromWrist_1x_R,posFromWrist_2x_R,posFromWrist_3x_R,posFromWrist_4x_R,posFromWrist_5x_R,posFromWrist_6x_R,posFromWrist_7x_R,posFromWrist_8x_R,posFromWrist_9x_R,posFromWrist_0y_R,posFromWrist_1y_R,posFromWrist_2y_R,posFromWrist_3y_R,posFromWrist_4y_R,posFromWrist_5y_R,posFromWrist_6y_R,posFromWrist_7y_R,posFromWrist_8y_R,posFromWrist_9y_R,posFromBody_0x_L,posFromBody_0y_L,posFromBody_0x_R,posFromBody_0y_R
2,1.355095,8.822714,0.054474,0.421323,0.0,-30.983334,-20.438747,-7.910843,-23.412952,-6.20018,-24.56852,-9.708138,-23.81916,-19.860363,0.0,-14.988986,6.209498,4.247193,19.136761,20.195657,30.019469,32.215807,38.987728,38.858732,0.0,67.664795,22.664738,91.198483,14.256878,91.540203,7.256126,79.851322,1.93222,60.012245,0.0,9.787934,31.164815,51.855711,49.339258,65.874166,61.113395,74.972781,66.886873,77.10601,25.307722,296.552417,-58.128576,268.739476
3,0.211029,-23.698758,0.162163,-0.189574,0.0,-32.030354,-42.741394,-7.964172,-50.265884,2.577209,-53.745918,-1.673584,-53.953056,-19.379311,0.0,-0.675735,8.152845,27.691293,29.701454,49.527597,49.030198,60.67577,65.189292,68.786871,0.0,67.882633,23.582497,91.2747,14.656448,89.99548,7.268429,77.739429,1.788826,58.347702,0.0,8.546628,31.850183,52.113272,49.865804,66.86347,61.611227,75.082882,67.602622,76.911003,27.322226,272.830657,-56.162939,268.5269
4,-1.545296,16.157675,-0.290966,0.056316,0.0,-33.376236,-43.387928,2.184563,-51.076069,7.793999,-52.259789,1.12381,-50.756721,-12.304573,0.0,-10.65102,2.555479,21.571951,20.010098,39.210524,34.54281,46.072106,46.1488,49.463377,0.0,67.390709,23.646927,91.433945,14.838581,89.959602,7.414341,78.022728,1.776752,58.815365,0.0,9.060638,31.822643,52.079495,49.662769,66.774673,61.298399,75.289622,67.251015,76.936073,26.840029,288.968092,-55.390806,268.562978
5,-17.406807,6.214932,-0.18362,0.211557,0.0,-7.075596,-26.095734,20.380211,-32.854385,22.85614,-33.855858,15.293884,-32.578297,0.673542,0.0,-17.149077,4.125113,16.909486,18.349011,33.169419,30.114009,38.816618,39.054542,41.458609,0.0,68.52911,23.748436,91.735668,15.059853,90.135784,7.721272,78.273411,2.196579,59.030571,0.0,8.994009,32.175484,51.083708,49.819121,66.359895,61.225842,74.833101,66.965605,76.830418,10.179892,295.157305,-54.827757,268.748815
6,23.222008,-21.746951,-0.682068,0.02964,0.0,-34.598637,-45.446377,-10.454865,-54.452019,-3.194275,-58.642559,-9.333801,-59.425163,-25.286922,0.0,-1.432301,8.131233,26.393485,30.046824,48.499144,49.747799,60.364486,65.851133,69.841507,0.0,68.737793,24.060459,92.421169,15.299664,90.740604,7.974186,78.951817,2.522907,59.710808,0.0,8.735275,32.070817,51.394374,49.783491,66.2112,61.236155,74.682616,67.015005,76.939964,34.085512,273.386704,-54.826212,268.754805
7,-3.921089,15.072843,0.236835,0.13369,0.0,-34.013214,-43.239613,1.83506,-51.382599,5.347939,-53.066196,-0.935211,-51.740742,-15.848351,0.0,-8.847537,4.174143,22.198779,21.604308,39.25733,35.41627,46.063584,46.306757,48.753309,0.0,68.733215,23.05275,91.12278,14.494686,90.15049,7.448788,78.496857,2.239952,59.354324,0.0,9.19371,32.0836,51.344541,49.987329,66.377062,61.569792,74.516198,67.521667,76.462262,30.525055,288.455888,-54.228745,268.884836
8,-1.797981,-15.160776,-0.115013,-0.211186,0.0,-23.313217,-35.704308,-3.914566,-45.031013,2.783318,-50.855598,-3.798065,-54.33609,-20.689487,0.0,-5.935511,6.447484,22.277202,29.074996,45.485292,49.390573,58.827271,65.984514,69.158485,0.0,68.63039,23.215771,91.53511,14.442959,90.368156,7.155418,78.400383,1.800613,58.646679,0.0,8.771646,32.022096,50.830901,49.776637,66.564906,61.284505,74.877438,67.171789,77.288977,29.041128,273.284337,-54.029703,268.662874
9,1.521034,12.235906,-0.388355,0.146842,0.0,-35.245171,-46.625977,-0.052185,-54.284019,7.109642,-54.913273,0.515099,-52.760868,-12.558174,0.0,-7.431724,4.896067,23.955455,23.261504,42.261241,38.610804,49.358957,50.867396,53.599111,0.0,68.520641,23.415871,91.645489,14.860497,90.533581,7.676411,78.960514,2.368069,59.46476,0.0,9.268922,31.843144,51.092167,49.655853,66.434736,61.248752,74.890282,67.172901,77.327571,30.883512,285.520799,-54.096708,268.810273
10,-19.289188,6.181957,0.112438,-0.062924,0.0,-12.693157,-31.770058,20.983143,-37.056198,23.501987,-36.404228,16.268635,-33.054771,-9.23172,0.0,-16.108212,3.527554,17.377801,19.244639,34.11914,32.038954,41.540861,41.64102,45.67184,0.0,68.179379,23.562355,91.822128,15.020599,90.701523,7.783356,79.170227,2.399883,59.656849,0.0,9.243234,32.073781,50.605512,49.862655,66.277273,61.394483,74.71454,67.242185,77.251371,11.822348,291.700224,-53.756247,268.744817
11,19.42194,-7.496685,0.01379,0.102073,0.0,-34.610939,-47.01622,-7.850761,-52.731686,1.711922,-54.020061,-2.91481,-51.884136,-18.555737,0.0,4.391566,10.084892,28.889251,24.111869,41.820714,35.434856,44.961895,43.955796,49.055454,0.0,67.738495,23.742428,91.490078,15.156326,90.415478,7.871704,79.13435,2.459278,59.690552,0.0,9.026243,31.213784,50.529251,49.35976,66.09937,61.296485,74.719666,67.454545,77.250815,31.411629,284.194369,-53.575115,268.837721
12,-16.71381,6.068275,0.236378,0.097133,0.0,-14.041157,-26.358833,15.622044,-32.077904,19.544163,-32.948341,13.717861,-31.478004,-1.588154,0.0,-13.453192,5.008761,18.909705,21.95468,37.392221,35.464805,45.373215,45.910073,49.142583,0.0,68.503704,23.209133,91.099777,14.751205,90.521164,7.656898,79.336395,2.401543,60.17086,0.0,9.222362,31.361243,51.037765,49.588545,66.056453,61.560159,74.480939,67.714082,76.931936,14.89171,290.276105,-53.144846,268.948316
13,4.445629,-16.574366,0.269451,-0.561435,0.0,-12.943554,-29.202347,10.30323,-37.975845,16.836891,-43.361549,10.730667,-47.190628,-5.829449,0.0,-12.202931,7.417521,19.361039,30.640307,43.574672,50.833618,57.546197,66.824196,66.916081,0.0,69.278011,22.193184,91.352749,13.349361,90.142422,6.320744,79.335194,1.424561,59.630299,0.0,10.22346,31.387796,51.840335,49.754406,66.565833,61.708545,75.077448,67.681786,77.886659,19.482622,273.698358,-52.730112,268.3835
14,-10.148392,7.18219,0.112152,0.185436,0.0,-5.790997,-34.091549,24.837799,-41.570606,33.351746,-40.895748,27.288551,-37.575474,14.496574,0.0,-3.608077,6.850035,23.020801,26.768186,44.020695,43.524037,54.813803,56.707935,58.954353,0.0,68.575115,22.278271,91.144695,13.694572,90.647335,6.823997,79.679432,2.087746,60.183048,0.0,9.54297,31.161357,50.845289,49.640971,66.140866,61.756649,74.852182,67.96769,77.809224,9.487638,280.877121,-52.464552,268.565509
15,-26.287022,6.366097,-0.039425,-0.081511,0.0,25.397243,-9.558735,49.344006,-14.432545,57.983837,-14.705486,53.244953,-13.153038,36.374531,0.0,-9.002654,6.177264,20.035786,24.332379,39.850381,39.143833,49.878463,50.920748,53.474066,0.0,68.428345,22.474537,91.112022,13.765869,90.467033,6.791611,79.477501,1.90115,59.756985,0.0,9.769409,30.847418,51.272726,49.295045,66.371134,61.374846,75.222191,67.507526,77.906852,-16.696558,287.247973,-52.401152,268.488754
16,3.443527,11.266733,-0.129662,0.267071,0.0,14.959373,-9.573956,45.998211,-16.593819,54.411221,-18.80373,45.275745,-18.768024,25.605297,0.0,-33.214435,-0.590704,14.744208,15.71585,32.157083,29.703554,39.950108,41.531351,42.496819,0.0,68.977547,22.511559,91.282082,13.891697,90.188484,6.986103,79.256287,2.177925,59.935455,0.0,9.096824,31.24225,50.961442,49.657273,65.98859,61.621168,74.789752,67.619727,77.528569,-13.1882,298.500349,-52.465982,268.741467
17,37.185688,-20.427036,-0.018539,-0.249904,0.0,-18.456345,-39.040203,6.702919,-46.703453,12.729263,-49.654427,5.608292,-49.515724,-10.27422,0.0,-4.021928,9.963058,25.663533,29.999091,44.308329,46.845468,53.555577,59.68696,61.480316,0.0,68.318138,22.434826,91.421928,13.96946,90.605164,7.157536,79.731674,2.423687,60.155125,0.0,9.568535,31.675121,50.897468,50.027529,66.191008,61.85372,75.075101,67.664681,77.797183,24.091187,278.056085,-52.390823,268.474335
18,-23.369064,13.651658,0.367298,-0.387422,0.0,4.125824,-20.742588,32.904396,-27.453976,38.065338,-28.185654,31.700478,-26.181335,14.707146,0.0,-20.018557,2.679721,16.012005,18.934838,35.210394,32.982809,43.432523,44.390148,46.313426,0.0,68.611736,23.02494,91.151791,14.437237,90.34029,7.313633,79.317455,2.168541,59.628239,0.0,9.926564,31.738724,50.579948,50.086809,66.31315,62.000316,75.389905,67.93027,78.466743,0.75182,291.713408,-51.993828,268.092578
19,-23.025856,2.301994,-1.045647,0.122636,0.0,22.199306,1.437664,57.278137,-4.333305,62.227478,-8.204842,54.483032,-10.405655,34.373302,0.0,-21.414425,2.490024,16.054304,19.026166,36.266943,32.66782,44.605534,43.498843,49.892727,0.0,68.618088,24.452648,92.474155,15.723267,90.830669,8.342113,79.347553,2.7915,59.92012,0.0,9.148447,31.991098,51.30286,50.082054,66.59856,61.817102,75.623445,67.742919,78.652179,-22.232065,294.014089,-52.997503,268.213902
20,40.545616,-17.909781,0.48151,0.276086,0.0,-13.129463,-36.655483,11.394882,-42.86974,18.295097,-44.714012,13.539619,-43.930664,-0.913811,0.0,-6.94192,12.189964,27.000429,32.474295,46.042095,49.365194,55.195174,62.332471,62.773863,0.0,68.952599,23.160553,91.389885,14.579716,90.229797,7.325478,78.975334,1.816463,59.435349,0.0,9.299859,30.731266,51.406292,48.905091,66.423621,60.869234,75.64549,67.100159,78.586847,18.349514,276.016268,-52.48003,268.401948
21,-14.531994,14.876107,-0.354824,0.266515,0.0,-1.194363,-23.970108,27.887936,-32.215977,36.318913,-33.625603,28.613262,-31.973476,13.733196,0.0,-11.819276,2.979025,20.971984,20.196831,39.535454,34.503228,47.736279,46.204128,48.425599,0.0,69.301128,23.307495,91.741619,14.709549,91.270237,7.493362,79.767551,2.037163,60.409927,0.0,8.874275,29.748817,51.622171,47.879911,66.938496,60.035541,75.26239,66.720826,77.649105,3.781271,290.656534,-52.871103,268.432622
22,23.616772,21.979503,0.034561,-1.479787,0.0,-60.262871,-53.42205,-8.718338,-53.024426,6.900673,-47.590885,7.646828,-39.211407,-14.38036,0.0,24.575923,4.830982,26.771644,-1.052351,23.038338,-8.703227,11.846446,-17.32025,-5.534566,0.0,67.797375,24.546604,92.137814,15.765839,91.637592,7.770882,79.318256,1.056175,59.243145,0.0,9.222115,29.84947,53.37471,47.603763,70.039787,59.526347,78.785683,66.278323,82.412285,27.368774,312.435472,-52.86581,266.75227
23,10.14164,-33.517383,0.078449,-4.407868,0.0,-52.17556,-48.397865,-6.605759,-51.330757,-2.002945,-48.503551,-8.459702,-42.151966,-40.286407,0.0,1.170541,19.334177,52.790983,31.905079,62.604791,41.987007,67.650108,50.512331,69.439265,0.0,65.325165,23.514233,88.748817,13.798256,89.032402,4.826317,74.221115,-2.967739,49.248676,0.0,8.364217,27.735753,59.898826,46.494726,79.630738,59.520234,89.400888,67.304985,90.599834,37.387218,278.61244,-52.910557,262.038753
24,11.626567,4.795846,-3.455658,-10.306453,0.0,-56.246509,-45.159072,-41.641702,-49.513664,-36.579637,-49.410238,-36.693277,-46.636304,-52.74559,0.0,25.736584,23.815652,50.918649,23.532279,45.087248,20.315206,36.420856,14.91081,31.072251,0.0,62.580872,25.968533,83.807831,16.74139,84.629173,7.257271,70.674133,-2.113609,50.691776,0.0,3.923004,24.411049,64.675467,41.266442,81.815653,54.48702,91.795507,64.184984,91.7374,48.782529,283.244771,-56.597471,251.568786
25,11.626568,4.795846,-3.739414,-14.314054,0.0,-60.317459,-41.92028,-76.677647,-47.696571,-71.15633,-50.316925,-64.926853,-51.120644,-65.204773,0.0,50.302627,28.297126,49.046314,15.159479,27.569706,-1.356595,5.191604,-20.690711,-7.294761,0.0,59.786739,19.948883,70.071487,15.73431,68.319283,11.505489,57.10659,6.163101,46.218224,0.0,-2.168119,14.096878,47.938142,34.508106,70.920286,52.791477,83.095924,68.834358,88.277216,60.284758,287.987681,-60.461226,237.201796
26,-11.798859,-58.881611,-9.798889,-35.177079,0.0,-48.407135,-32.418709,-68.012753,-22.837715,-63.40559,-12.337189,-52.291832,-1.454315,-35.083523,0.0,47.582027,29.441732,70.991299,42.479652,86.218086,52.470992,90.035188,58.779661,88.422514,0.0,58.895216,37.141686,61.175795,31.302967,54.160967,23.036213,41.776629,13.075247,31.116715,0.0,-14.233254,7.004627,38.615898,26.146081,56.503263,44.225552,66.753307,61.175763,74.148351,48.486328,229.02689,-70.259686,201.945537
27,-2.563248,-9.11893,-9.798889,-35.177079,0.0,-34.465427,-42.584553,-47.976036,-36.878986,-33.966007,-25.681,-20.834427,-10.938606,-8.071747,0.0,33.341332,25.722813,38.643346,37.420132,44.549526,45.566432,46.851211,51.36424,50.243284,0.0,58.003693,54.334488,52.280102,46.871624,40.002651,34.566936,26.446667,19.987392,16.015205,0.0,-26.298389,-0.087624,29.293654,17.784057,42.08624,35.659628,50.41069,53.517168,60.019486,44.610929,220.565201,-81.370726,167.425698
28,33.315125,-75.737066,-18.011055,-34.899295,0.0,-59.743996,-50.764046,-74.800129,-43.983192,-63.801842,-33.389626,-48.909531,-20.086899,-35.572586,0.0,28.180418,8.732805,45.166783,22.201187,51.092476,35.821661,55.407224,47.895472,63.143501,0.0,61.876945,41.841946,57.403965,35.582829,47.52634,25.787258,32.454815,14.856377,20.632896,0.0,-35.650334,-9.581317,-6.541098,3.73238,9.217916,18.199884,25.719355,34.739485,34.82186,75.538874,147.975662,-101.768961,135.67393
29,14.710693,-42.11409,-7.049217,-38.785218,0.0,-65.754433,-49.739113,-72.66861,-43.737144,-62.930489,-35.203514,-49.18499,-24.496078,-38.992195,0.0,-1.030429,2.912211,12.510078,14.680296,19.782547,26.14321,26.642709,36.052422,35.675004,0.0,57.635078,38.57832,57.686577,32.62785,49.749928,25.177631,38.215542,17.329559,25.940151,0.0,-39.545242,-25.270275,-24.402837,-10.455549,-10.349709,3.746058,3.645127,17.886285,16.856844,89.007826,107.589827,-110.059919,98.616967
30,1.302567,-32.311829,12.194653,-37.569445,0.0,-60.468521,-42.297707,-75.744896,-37.349281,-71.421661,-30.573921,-60.43705,-20.902634,-51.52359,0.0,-18.634422,-8.504514,-28.764484,-3.258507,-22.460107,2.50154,-13.963158,8.4063,-4.245094,0.0,42.939491,30.145569,55.214539,26.34573,47.838306,21.462364,42.610931,16.479435,35.932217,0.0,-41.085482,-39.358385,-57.835899,-34.226123,-50.410443,-28.039658,-40.851139,-20.715442,-31.842279,88.718204,75.757073,-99.457455,61.526598
31,-1.256218,-38.794264,-1.790285,-34.607107,0.0,-50.714264,-45.807266,-65.814972,-42.933998,-62.340431,-36.977234,-56.065063,-28.202934,-46.030426,0.0,-34.439008,-16.015587,-47.168639,-15.012451,-46.49769,-14.112964,-41.265824,-12.999573,-34.733742,0.0,40.195713,31.503983,55.733328,28.679695,50.538883,23.70595,45.976238,18.013744,36.70887,0.0,-43.841064,-39.17088,-69.916858,-35.67627,-66.960989,-30.321398,-58.00048,-23.164926,-44.155389,87.123928,37.925312,-101.585798,27.881994
32,-4.801597,-31.655052,-1.790285,-34.607108,0.0,-41.506519,-41.017742,-59.024849,-37.288113,-57.598286,-30.429039,-52.623425,-21.129341,-43.197613,0.0,-36.667472,-18.44545,-56.093858,-17.808093,-57.716443,-17.460068,-54.318348,-17.093795,-46.530016,0.0,37.451935,32.862396,56.252117,31.01366,53.23946,25.949535,49.341545,19.548054,37.485523,0.0,-46.596645,-38.983375,-81.997816,-37.126416,-83.511535,-32.603137,-75.149819,-25.614411,-56.468498,82.599878,4.823062,-103.098536,-8.172312
33,-4.801598,-31.655052,-7.523289,-2.786673,0.0,-32.298775,-36.228218,-52.234726,-31.642227,-52.85614,-23.880844,-49.181786,-14.055748,-40.364799,0.0,-38.895936,-20.875313,-65.019077,-20.603735,-68.935196,-20.807172,-67.370873,-21.188017,-58.32629,0.0,39.656525,25.777187,56.20966,20.068302,54.570065,12.204494,48.411713,3.346024,33.443699,0.0,-42.975631,-38.693024,-91.156545,-39.229543,-93.407316,-36.772494,-86.375951,-30.716353,-66.665498,77.432785,-27.941938,-110.98732,-12.068933
34,11.839027,3.459999,15.973492,-48.569046,0.0,-37.590408,-31.850967,-64.781113,-26.794052,-61.600571,-18.227348,-54.663963,-5.650978,-39.291916,0.0,-38.291677,-24.378816,-79.973175,-24.089453,-88.905434,-23.624689,-84.238399,-23.381052,-65.847552,0.0,33.409939,29.048023,46.883297,28.354568,49.533291,25.436268,47.764721,21.285496,41.023121,0.0,-40.657027,-40.467144,-87.818873,-38.797599,-92.469389,-34.559884,-85.826172,-28.365546,-72.060446,89.114313,-23.658435,-95.171328,-59.814475
35,-11.828384,-31.712758,-4.596348,13.847067,0.0,-37.177849,-35.141602,-59.15966,-32.871895,-61.440468,-26.663704,-53.25737,-16.36734,-44.670639,0.0,-39.081496,-32.67097,-88.000883,-31.440408,-99.40112,-28.965266,-99.107651,-26.08393,-81.912879,0.0,34.421711,24.802265,50.881062,19.031296,49.858818,11.667995,45.844917,3.390427,32.526455,0.0,-43.705151,-43.867369,-97.08971,-43.643586,-102.683,-39.434523,-93.706621,-30.457495,-73.291904,77.228336,-55.201379,-99.825268,-45.797594
36,9.082947,8.23908,16.36425,-33.048697,0.0,-43.489952,-35.667801,-66.287384,-29.638824,-63.630981,-19.827461,-56.117134,-6.395988,-44.049683,0.0,-44.359798,-30.334952,-93.171183,-29.290937,-102.691491,-27.081662,-94.041617,-24.545264,-71.275969,0.0,34.760456,22.932816,60.116329,21.353474,64.114552,19.430466,58.887806,16.708317,43.561707,0.0,-35.714864,-40.502219,-74.382848,-38.990692,-77.476791,-34.355212,-72.245497,-26.594235,-63.301737,85.366459,-46.276392,-84.405842,-78.160383
37,-0.668596,1.997111,-1.130104,13.882728,0.0,-44.308283,-35.447806,-66.922258,-29.303827,-64.075751,-19.495482,-56.411517,-6.15465,-44.313122,0.0,-43.382097,-30.253254,-91.005688,-28.967709,-99.523205,-26.441688,-90.910506,-23.520489,-68.490948,0.0,30.146885,19.952831,48.137627,17.223015,51.520672,14.275417,50.455627,11.239071,38.505764,0.0,-34.670973,-41.971477,-83.924151,-41.913494,-90.237575,-38.611051,-85.733315,-30.936432,-71.295389,84.560448,-44.548559,-85.673361,-64.546934
38,-0.668596,1.99711,0.20364,2.111246,0.0,-45.126615,-35.227811,-67.557131,-28.96883,-64.52052,-19.163504,-56.7059,-5.913312,-44.576561,0.0,-42.404395,-30.171556,-88.840192,-28.64448,-96.354918,-25.801713,-87.779395,-22.495713,-65.705927,0.0,30.773106,20.286063,48.713922,17.452567,51.853217,14.333006,50.594873,11.126384,38.650935,0.0,-34.603458,-41.644823,-81.968488,-41.423453,-87.371919,-37.9684,-82.682654,-30.235591,-68.908082,83.969586,-42.524063,-85.391987,-62.408302
39,-0.668596,1.997111,0.203641,2.111245,0.0,-45.944946,-35.007817,-68.192005,-28.633833,-64.965289,-18.831525,-57.000284,-5.671974,-44.840001,0.0,-41.426695,-30.089858,-86.674697,-28.321251,-93.186632,-25.161738,-84.648285,-21.470939,-62.920906,0.0,31.399326,20.619294,49.290216,17.682118,52.185762,14.390593,50.734117,11.013696,38.796104,0.0,-34.535942,-41.318167,-80.012824,-40.933412,-84.506262,-37.325749,-79.631993,-29.53475,-66.520773,83.511418,-39.412511,-84.977918,-59.182616
40,-0.668596,1.997111,0.20364,2.111246,0.0,-46.763277,-34.787822,-68.826878,-28.298836,-65.410059,-18.499546,-57.294667,-5.430636,-45.10344,0.0,-40.448994,-30.008161,-84.509202,-27.998023,-90.018346,-24.521764,-81.517175,-20.446164,-60.135886,0.0,32.025547,20.952526,49.866511,17.91167,52.518307,14.448181,50.873363,10.901009,38.941274,0.0,-34.468428,-40.991513,-78.057161,-40.443373,-81.640606,-36.683099,-76.581333,-28.833911,-64.133466,84.752011,-37.518477,-82.865089,-57.174447
41,-0.668596,1.99711,0.20364,2.111246,0.0,-47.581608,-34.567827,-69.461752,-27.963839,-65.854828,-18.167567,-57.58905,-5.189299,-45.36688,0.0,-39.471292,-29.926463,-82.343706,-27.674794,-86.850059,-23.881789,-78.386063,-19.421388,-57.350865,0.0,32.651768,21.285758,50.442807,18.141222,52.850852,14.505769,51.012608,10.788322,39.086445,0.0,-34.400913,-40.664859,-76.101498,-39.953333,-78.77495,-36.040449,-73.530673,-28.133071,-61.746159,85.597011,-35.728339,-81.147853,-55.270173
42,-0.668596,1.997111,0.20364,2.111245,0.0,-48.39994,-34.347832,-70.096625,-27.628842,-66.299597,-17.835589,-57.883433,-4.947961,-45.630319,0.0,-38.493592,-29.844765,-80.178211,-27.351566,-83.681773,-23.241815,-75.254953,-18.396613,-54.565844,0.0,33.277989,21.61899,51.019102,18.370775,53.183397,14.563357,51.151853,10.675634,39.231615,0.0,-34.333397,-40.338203,-74.145834,-39.463292,-75.909293,-35.397798,-70.480012,-27.43223,-59.35885,86.417263,-34.148213,-79.455365,-53.575913
43,-0.668596,1.99711,0.203641,2.111246,0.0,-49.218271,-34.127838,-70.731499,-27.293844,-66.744366,-17.50361,-58.177816,-4.706623,-45.893759,0.0,-37.51589,-29.763067,-78.012715,-27.028336,-80.513486,-22.60184,-72.123842,-17.371838,-51.780823,0.0,33.904209,21.952221,51.595396,18.600326,53.515941,14.620944,51.291097,10.562946,39.376785,0.0,-34.265882,-40.011549,-72.190171,-38.973252,-73.043637,-34.755148,-67.429352,-26.73139,-56.971543,86.656641,-32.501166,-78.34375,-51.81473
44,-0.668596,1.997111,0.20364,2.111245,0.0,-50.036602,-33.907843,-71.366372,-26.958847,-67.189136,-17.171631,-58.4722,-4.465285,-46.157198,0.0,-36.53819,-29.68137,-75.847221,-26.705108,-77.345201,-21.961866,-68.992732,-16.347063,-48.995803,0.0,34.53043,22.285453,52.171691,18.829878,53.848487,14.678532,51.430343,10.450259,39.521955,0.0,-34.198367,-39.684894,-70.234507,-38.483211,-70.17798,-34.112497,-64.37869,-26.030549,-54.584234,86.439915,-30.948612,-77.68824,-50.148042
45,-0.668596,1.997111,0.20364,2.111246,0.0,-50.854933,-33.687848,-72.001246,-26.62385,-67.633905,-16.839652,-58.766583,-4.223947,-46.420638,0.0,-35.560489,-29.599672,-73.681726,-26.38188,-74.176915,-21.321892,-65.861622,-15.322288,-46.210782,0.0,35.156651,22.618685,52.747986,19.05943,54.181032,14.73612,51.569588,10.337572,39.667125,0.0,-34.130852,-39.35824,-68.278844,-37.993171,-67.312324,-33.469847,-61.32803,-25.329709,-52.196927,85.760361,-29.22135,-77.495558,-48.306645
46,-0.668596,1.99711,0.20364,2.111246,0.0,-51.673265,-33.467853,-72.636119,-26.288853,-68.078674,-16.507674,-59.060966,-3.982609,-46.684077,0.0,-34.582787,-29.517974,-71.51623,-26.05865,-71.008628,-20.681917,-62.73051,-14.297513,-43.425761,0.0,35.782872,22.951916,53.324281,19.288982,54.513577,14.793708,51.708833,10.224885,39.812296,0.0,-34.063337,-39.031585,-66.323181,-37.503131,-64.446668,-32.827197,-58.27737,-24.628869,-49.80962,84.587996,-27.179703,-77.795687,-46.150862
47,-0.668596,1.997111,0.203641,2.111245,0.0,-52.491596,-33.247859,-73.270993,-25.953856,-68.523444,-16.175695,-59.355349,-3.741271,-46.947516,0.0,-33.605087,-29.436277,-69.350735,-25.735422,-67.840342,-20.041943,-59.5994,-13.272738,-40.640741,0.0,36.409091,23.285147,53.900575,19.518533,54.846121,14.851295,51.848078,10.112197,39.957465,0.0,-33.995822,-38.70493,-64.367517,-37.01309,-61.581012,-32.184546,-55.226709,-23.928028,-47.422311,83.231639,-25.117954,-78.279807,-43.974979
48,-0.668596,1.99711,0.20364,2.111246,0.0,-53.309927,-33.027864,-73.905866,-25.618859,-68.968213,-15.843716,-59.649732,-3.499933,-47.210956,0.0,-32.627385,-29.354579,-67.185239,-25.412193,-64.672055,-19.401967,-56.468289,-12.247962,-37.855719,0.0,37.035312,23.618379,54.476871,19.748085,55.178667,14.908883,51.987323,9.999509,40.102635,0.0,-33.928307,-38.378276,-62.411854,-36.52305,-58.715356,-31.541896,-52.176049,-23.227189,-45.035004,82.235055,-23.598993,-78.404155,-42.341882
49,-0.668596,1.997111,0.20364,2.111245,0.0,-54.128259,-32.807869,-74.54074,-25.283862,-69.412982,-15.511737,-59.944116,-3.258595,-47.474395,0.0,-31.649684,-29.272881,-65.019744,-25.088965,-61.503769,-18.761993,-53.337179,-11.223188,-35.070699,0.0,37.661533,23.951611,55.053166,19.977637,55.511212,14.966471,52.126568,9.886822,40.247806,0.0,-33.860791,-38.05162,-60.45619,-36.033009,-55.849699,-30.899244,-49.125388,-22.526348,-42.647696,81.443664,-21.753958,-78.32331,-40.382713
50,-0.668596,1.997111,0.20364,2.111246,0.0,-54.94659,-32.587874,-75.175614,-24.948864,-69.857752,-15.179758,-60.238499,-3.017257,-47.737835,0.0,-30.671984,-29.191184,-62.854249,-24.765736,-58.335483,-18.122019,-50.206069,-10.198413,-32.285678,0.0,38.287754,24.284843,55.629461,20.207189,55.843757,15.024059,52.265814,9.774135,40.392976,0.0,-33.793277,-37.724966,-58.500527,-35.542969,-52.984043,-30.256594,-46.074727,-21.825508,-40.260388,80.574539,-19.833865,-78.320199,-38.348485
51,-0.668596,1.99711,0.20364,2.111246,0.0,-55.764921,-32.36788,-75.810487,-24.613867,-70.302521,-14.84778,-60.532882,-2.775919,-48.001274,0.0,-29.694282,-29.109486,-60.688753,-24.442507,-55.167196,-17.482044,-47.074957,-9.173637,-29.500657,0.0,38.913975,24.618075,56.205756,20.436741,56.176302,15.081647,52.405059,9.661448,40.538147,0.0,-33.725762,-37.398312,-56.544864,-35.05293,-50.118387,-29.613944,-43.024067,-21.124668,-37.873081,79.777741,-17.852918,-78.244761,-36.253402
52,-0.668596,1.997111,0.203641,2.111245,0.0,-56.583252,-32.147885,-76.445361,-24.27887,-70.74729,-14.515801,-60.827265,-2.534581,-48.264714,0.0,-28.716582,-29.027788,-58.523258,-24.119279,-51.998911,-16.84207,-43.943847,-8.148862,-26.715637,0.0,39.540195,24.951306,56.78205,20.666293,56.508847,15.139234,52.544303,9.54876,40.683316,0.0,-33.658246,-37.071657,-54.5892,-34.562889,-47.25273,-28.971293,-39.973406,-20.423827,-35.485772,78.9606,-15.800834,-78.189665,-34.087184
53,-0.668596,1.99711,0.20364,2.111246,0.0,-57.401584,-31.92789,-77.080234,-23.943873,-71.192059,-14.183822,-61.121648,-2.293243,-48.528153,0.0,-27.73888,-28.94609,-56.357763,-23.79605,-48.830624,-16.202095,-40.812736,-7.124087,-23.930615,0.0,40.166416,25.284538,57.358345,20.895845,56.841392,15.196822,52.683548,9.436073,40.828486,0.0,-33.590731,-36.745002,-52.633537,-34.072849,-44.387074,-28.328643,-36.922746,-19.722987,-33.098465,78.116938,-13.644408,-78.161091,-31.816622
54,-0.668597,1.997111,0.20364,2.111245,0.0,-58.219914,-31.707894,-77.715107,-23.608875,-71.636828,-13.851842,-61.416031,-2.051904,-48.791592,0.0,-26.761179,-28.864393,-54.192268,-23.472821,-45.662338,-15.562121,-37.681626,-6.099312,-21.145595,0.0,40.792637,25.617769,57.934641,21.125397,57.173937,15.25441,52.822794,9.323385,40.973657,0.0,-33.523216,-36.418347,-50.677873,-33.582808,-41.521417,-27.685992,-33.872085,-19.022146,-30.711157,77.171909,-11.634685,-78.233883,-29.692765
55,-0.668596,1.997111,0.20364,2.111246,0.0,-59.038245,-31.4879,-78.34998,-23.273878,-72.081597,-13.519864,-61.710414,-1.810566,-49.055031,0.0,-25.783479,-28.782695,-52.026773,-23.149593,-42.494052,-14.922147,-34.550516,-5.074537,-18.360575,0.0,41.418858,25.951001,58.510936,21.354949,57.506482,15.311998,52.962039,9.210698,41.118827,0.0,-33.455701,-36.091693,-48.72221,-33.092768,-38.655761,-27.043342,-30.821424,-18.321307,-28.323849,76.334999,-9.653629,-78.198557,-27.597574
56,-0.668596,1.99711,0.203641,2.111245,0.0,-59.856576,-31.267905,-78.984854,-22.93888,-72.526366,-13.187885,-62.004797,-1.569228,-49.318471,0.0,-24.805777,-28.700997,-49.861277,-22.826364,-39.325765,-14.282172,-31.419404,-4.049762,-15.575553,0.0,42.045078,26.284232,59.08723,21.5845,57.839027,15.369585,53.101283,9.09801,41.263996,0.0,-33.388185,-35.765037,-46.766546,-32.602727,-35.790104,-26.400691,-27.770763,-17.620466,-25.936541,75.413374,-7.776083,-78.247945,-25.605893
57,-0.668596,1.997111,0.20364,2.111246,0.0,-60.674908,-31.04791,-79.619727,-22.603883,-72.971136,-12.855906,-62.29918,-1.32789,-49.58191,0.0,-23.828076,-28.6193,-47.695782,-22.503135,-36.157479,-13.642197,-28.288294,-3.024987,-12.790533,0.0,42.671299,26.617464,59.663525,21.814052,58.171572,15.427173,53.240529,8.985323,41.409167,0.0,-33.320671,-35.438383,-44.810883,-32.112687,-32.924448,-25.758041,-24.720103,-16.919626,-23.549234,74.500304,-5.889551,-78.288779,-23.605226
58,-0.668596,1.99711,0.20364,2.111246,0.0,-61.493239,-30.827915,-80.254601,-22.268886,-73.415905,-12.523927,-62.593563,-1.086552,-49.845349,0.0,-22.850375,-28.537601,-45.530286,-22.179906,-32.989192,-13.002222,-25.157183,-2.000211,-10.005511,0.0,43.29752,26.950696,60.23982,22.043604,58.504117,15.484761,53.379774,8.872636,41.554337,0.0,-33.253156,-35.111729,-42.855219,-31.622647,-30.058792,-25.115391,-21.669443,-16.218786,-21.161926,73.652837,-4.188874,-78.26401,-21.790413
59,-0.668596,1.997111,0.20364,2.111245,0.0,-62.31157,-30.607921,-80.889474,-21.933889,-73.860674,-12.191949,-62.887947,-0.845214,-50.108789,0.0,-21.872674,-28.455904,-43.364791,-21.856678,-29.820906,-12.362248,-22.026073,-0.975437,-7.220491,0.0,43.923741,27.283928,60.816115,22.273156,58.836662,15.542349,53.519019,8.759949,41.699508,0.0,-33.18564,-34.785074,-40.899555,-31.132606,-27.193135,-24.47274,-18.618782,-15.517945,-18.774618,72.801593,-2.627907,-78.243018,-20.115312
60,-0.668596,1.997111,0.203641,2.111246,0.0,-63.129902,-30.387926,-81.524348,-21.598892,-74.305443,-11.85997,-63.18233,-0.603876,-50.372228,0.0,-20.894974,-28.374207,-41.199296,-21.53345,-26.652621,-11.722274,-18.894963,0.049338,-4.435471,0.0,44.549961,27.617159,61.39241,22.502707,59.169206,15.599936,53.658263,8.647261,41.844677,0.0,-33.118126,-34.458419,-38.943892,-30.642566,-24.327479,-23.83009,-15.568122,-14.817105,-16.387311,71.906032,-0.715162,-78.266342,-18.088432
61,-0.668596,1.99711,0.20364,2.111245,0.0,-63.948233,-30.167931,-82.159221,-21.263895,-74.750213,-11.527991,-63.476713,-0.362538,-50.635668,0.0,-19.917272,-28.292508,-39.0338,-21.21022,-23.484334,-11.082299,-15.763851,1.074114,-1.650449,0.0,45.176182,27.950391,61.968705,22.732259,59.501752,15.657524,53.797509,8.534573,41.989847,0.0,-33.05061,-34.131764,-36.988228,-30.152526,-21.461822,-23.187439,-12.51746,-14.116264,-14.000002,71.151405,1.281562,-78.148733,-15.977573
62,-0.668596,1.997111,0.20364,2.111246,0.0,-64.766564,-29.947936,-82.794095,-20.928898,-75.194982,-11.196012,-63.771096,-0.1212,-50.899107,0.0,-18.939571,-28.210811,-36.868306,-20.886992,-20.316048,-10.442325,-12.632741,2.098889,1.134571,0.0,45.802402,28.283622,62.545,22.961812,59.834297,15.715112,53.936754,8.421886,42.135018,0.0,-32.983095,-33.80511,-35.032565,-29.662486,-18.596166,-22.544789,-9.4668,-13.415424,-11.612695,70.304081,3.278086,-78.123821,-13.866914
63,-0.668596,1.99711,0.20364,2.111246,0.0,-65.584895,-29.727942,-83.428969,-20.5939,-75.639751,-10.864033,-64.065479,0.120138,-51.162547,0.0,-17.96187,-28.129113,-34.70281,-20.563763,-17.147761,-9.80235,-9.50163,3.123664,3.919592,0.0,46.428623,28.616854,63.121295,23.191364,60.166842,15.7727,54.075999,8.309199,42.280188,0.0,-32.91558,-33.478455,-33.076902,-29.172446,-15.73051,-21.902138,-6.41614,-12.714585,-9.225387,69.038762,5.420804,-78.516904,-11.61006
64,-0.668596,1.997111,0.20364,2.111245,0.0,-66.403227,-29.507947,-84.063842,-20.258903,-76.084521,-10.532055,-64.359863,0.361476,-51.425986,0.0,-16.984169,-28.047415,-32.537315,-20.240535,-13.979475,-9.162376,-6.37052,4.148439,6.704613,0.0,47.054844,28.950086,63.69759,23.420916,60.499387,15.830288,54.215245,8.196512,42.425359,0.0,-32.848065,-33.1518,-31.121238,-28.682405,-12.864854,-21.259487,-3.365479,-12.013744,-6.838079,67.933917,7.642393,-78.749513,-9.274337
65,-0.668596,1.997111,0.203641,2.111246,0.0,-67.221558,-29.287952,-84.698716,-19.923906,-76.52929,-10.200076,-64.654246,0.602814,-51.689426,0.0,-16.006468,-27.965718,-30.37182,-19.917306,-10.811189,-8.522402,-3.23941,5.173214,9.489633,0.0,47.681064,29.283317,64.273884,23.650467,60.831932,15.887875,54.354489,8.083824,42.570528,0.0,-32.78055,-32.825146,-29.165575,-28.192365,-9.999198,-20.616837,-0.314819,-11.312904,-4.450772,66.964828,10.268571,-78.846365,-6.534024
66,-0.668596,1.99711,0.20364,2.111245,0.0,-68.039889,-29.067957,-85.333589,-19.588909,-76.974059,-9.868097,-64.948629,0.844152,-51.952865,0.0,-15.028767,-27.88402,-28.206324,-19.594077,-7.642902,-7.882426,-0.108298,6.197989,12.274654,0.0,48.307285,29.616549,64.85018,23.880019,61.164477,15.945463,54.493734,7.971137,42.715698,0.0,-32.713034,-32.49849,-27.209911,-27.702324,-7.133541,-19.974186,2.735842,-10.612063,-2.063463,65.800989,12.273647,-79.137968,-4.414813
67,-0.668596,1.997111,0.20364,2.111246,0.0,-68.85822,-28.847962,-85.968463,-19.253912,-77.418828,-9.536118,-65.243012,1.08549,-52.216304,0.0,-14.051066,-27.802322,-26.040829,-19.270849,-4.474616,-7.242452,3.022812,7.222764,15.059675,0.0,48.933506,29.949781,65.426475,24.109571,61.497022,16.003051,54.63298,7.858449,42.860869,0.0,-32.64552,-32.171836,-25.254248,-27.212284,-4.267885,-19.331536,5.786503,-9.911223,0.323844,63.840927,14.854268,-80.225794,-1.720057
68,-0.668596,1.99711,0.20364,2.111246,0.0,-69.676552,-28.627968,-86.603336,-18.918915,-77.863598,-9.20414,-65.537395,1.326828,-52.479744,0.0,-13.073365,-27.720624,-23.875334,-18.94762,-1.30633,-6.602478,6.153923,8.247539,17.844696,0.0,49.559727,30.283012,66.002769,24.339123,61.829567,16.060638,54.772224,7.745762,43.006039,0.0,-32.578004,-31.845181,-23.298585,-26.722244,-1.402228,-18.688886,8.837163,-9.210383,2.711152,61.364222,17.802551,-81.830263,1.342361
69,4.970627,27.579525,10.95314,24.764293,0.0,-69.354343,-31.814461,-90.362835,-23.978405,-84.509411,-14.69799,-74.511108,-3.768482,-58.338776,0.0,-1.582262,-18.319618,1.997996,-9.28862,19.080353,2.939212,24.491109,17.577131,32.543826,0.0,33.533649,24.521656,47.4963,14.487476,37.525578,3.381271,21.695766,-7.82959,5.207577,0.0,-33.212768,-37.735368,-45.713274,-38.649336,-36.605737,-36.097809,-27.881453,-31.247746,-24.246485,65.511217,45.945131,-71.700754,26.66971
70,4.970627,27.579525,-11.619015,22.201064,0.0,-69.032135,-35.000954,-94.122334,-29.037895,-91.155224,-20.191841,-83.484821,-8.863792,-64.197807,0.0,9.908842,-8.918612,27.871326,0.370379,39.467035,12.480901,42.828295,26.906723,47.242955,0.0,44.108963,34.70521,64.56645,27.690239,56.248741,18.162231,43.165026,7.091675,27.798071,0.0,-35.290715,-26.37127,-22.463688,-21.535996,-11.754808,-13.727611,-3.519434,-3.615132,0.712986,70.308666,73.802734,-83.492947,49.148851
71,6.001396,16.388775,-11.619015,22.201064,0.0,-63.455429,-39.666939,-106.325855,-32.96505,-105.455475,-23.406487,-95.683479,-13.833961,-72.911396,0.0,-7.165425,-2.780992,33.438435,9.478132,47.248914,23.840383,57.03055,38.792072,66.924016,0.0,54.684277,44.888763,81.6366,40.893002,74.971905,32.943192,64.634285,22.012939,50.388565,0.0,-37.368663,-15.007172,0.785897,-4.422657,13.09612,8.642588,20.842586,24.017483,25.672456,75.583191,90.37108,-95.838833,71.529485
72,3.349342,24.480457,2.247734,19.610017,0.0,-65.401726,-49.00898,-107.716942,-41.362839,-108.906326,-30.803833,-97.193012,-19.136925,-74.670296,0.0,-9.843633,3.285276,41.745656,14.217322,58.211094,24.353405,63.562385,32.927574,67.5514,0.0,56.995296,38.684292,88.357029,30.615406,84.400291,20.50787,76.716442,9.571667,54.578247,0.0,-36.901182,-17.141667,13.717329,-3.459629,25.940144,13.213971,31.100008,32.652599,36.271605,78.40373,115.096809,-94.119902,91.384774
73,-19.833526,41.424539,6.52914,21.130435,0.0,-67.918682,-43.399544,-91.651383,-34.516068,-88.188229,-23.218117,-78.359499,-11.107407,-60.042172,0.0,14.59119,3.244721,20.167761,12.037424,32.436704,20.904197,40.35076,27.697823,50.193343,0.0,58.254604,32.453728,90.643387,21.854553,85.284805,10.248127,74.670639,-1.88839,48.107128,0.0,-27.8076,-4.614917,28.012611,8.548634,40.964822,22.46057,45.383373,36.572268,49.829464,58.49905,156.431763,-87.661915,112.425625
74,-19.833527,41.424538,5.767593,25.473311,0.0,-70.435638,-37.790108,-75.585823,-27.669296,-67.470131,-15.632401,-59.525986,-3.077888,-45.414047,0.0,39.026013,3.204167,-1.410132,9.857527,6.662314,17.454989,17.139136,22.468073,32.835288,0.0,59.221458,28.001404,82.490902,14.179115,71.084003,-2.441025,51.965904,-19.219322,12.293415,0.0,-22.910236,-2.238946,28.415687,7.585791,41.802065,17.064232,48.683469,25.692926,50.417606,38.703175,197.837483,-81.85667,137.880118
75,7.879143,38.403199,5.677528,31.303198,0.0,-73.378029,-53.610163,-77.184792,-52.795029,-69.359122,-47.15744,-64.15535,-38.94187,-60.925684,0.0,39.695326,4.247841,7.293372,-2.591665,0.212575,-8.739598,-6.860502,-15.824748,-12.685665,0.0,56.785956,39.668198,73.973294,31.881609,64.415846,19.896813,51.856642,5.289689,29.232445,0.0,-18.177948,6.462829,44.368412,20.189976,63.580138,33.821719,74.539601,46.654844,77.004801,46.712637,236.3041,-76.048823,169.246734
76,7.879143,38.403198,5.677529,31.303198,0.0,-76.320419,-69.430218,-78.78376,-77.920761,-71.248112,-78.68248,-68.784714,-74.805851,-76.437321,0.0,40.364639,5.291516,15.996876,-15.040857,-6.237162,-34.934184,-30.860139,-54.117567,-58.206618,0.0,54.350452,51.334991,65.455685,49.584103,57.747688,42.23465,51.747379,29.798698,46.171474,0.0,-13.445658,15.164604,60.321137,32.794162,85.358212,50.579207,100.395734,67.616763,103.591997,54.955959,274.65887,-70.007114,200.501504
77,-2.120361,14.637997,-2.989025,14.902968,0.0,-79.393101,-69.126892,-72.744141,-77.967968,-52.33469,-79.56522,-52.854595,-77.557468,-63.710861,0.0,44.587502,-0.307764,17.224536,-17.720824,-2.824279,-34.584059,-25.927454,-50.640648,-48.198111,0.0,65.957394,33.440094,89.748173,23.162842,87.036953,11.860485,75.139217,0.344925,52.724075,0.0,-6.928767,14.942179,52.844768,30.748432,69.045729,45.769776,78.578943,58.258179,82.819591,52.854338,289.080663,-72.9774,215.188268
78,-4.19569,16.206118,0.502167,16.029234,0.0,-77.372045,-64.265127,-70.384054,-70.654793,-49.61091,-71.19504,-48.965635,-67.876854,-57.048998,0.0,43.800493,4.79563,20.29699,-12.30062,0.319589,-29.785157,-20.42682,-46.75664,-40.17806,0.0,65.38456,29.485359,83.834896,19.555893,84.699497,9.770107,72.217999,-0.598812,51.346493,0.0,-5.727351,21.719719,55.124716,35.92571,74.731954,48.326119,84.133393,58.904397,89.091271,48.6866,305.012625,-72.447281,230.943345
79,-4.19569,16.206118,0.334969,14.975278,0.0,-75.35099,-59.403362,-68.023968,-63.341618,-46.887131,-62.82486,-45.076675,-58.196239,-50.387135,0.0,43.013484,9.899023,23.369443,-6.880416,3.463457,-24.986254,-14.926186,-42.872632,-32.158009,0.0,67.472591,29.036465,91.767483,18.929157,88.557072,8.722115,76.393032,-1.822071,54.341526,0.0,-2.504041,23.144425,61.309638,38.350402,80.326541,51.171393,91.853676,60.572152,91.735795,44.393864,321.130501,-72.209358,245.830382
80,-11.228371,-47.006328,3.412056,10.963415,0.0,-70.816269,-34.872551,-80.329399,-28.773193,-89.485416,-20.413284,-86.924114,-9.09256,-61.479607,0.0,26.134689,39.301976,31.882479,53.684079,41.379136,63.940761,64.982923,69.261979,92.07536,0.0,66.198978,47.527828,78.948498,40.213108,69.087811,30.091381,58.286991,18.249607,51.318512,0.0,7.498044,38.664403,64.976933,56.266605,75.126354,68.264648,91.222031,76.168269,98.904647,33.048105,273.897133,-68.91469,256.566756
81,7.444267,4.761636,-4.981213,7.047698,0.0,-72.085934,-38.472061,-90.624733,-35.219879,-99.124317,-29.772263,-92.541447,-20.728912,-73.945084,0.0,-6.62619,37.493368,48.001498,52.364658,60.51139,63.63312,76.887661,71.294123,95.120273,0.0,78.40107,38.225555,98.112144,28.493042,97.504578,17.898502,78.717155,7.298126,53.229847,0.0,8.447827,34.00941,67.571315,53.575892,82.404813,66.95838,90.490597,75.65185,94.699444,40.033035,278.541026,-74.35524,263.496711
82,-1.838837,5.026607,4.418507,6.400862,0.0,-70.357304,-46.543293,-25.022392,-41.991749,-24.256783,-35.64497,-33.003159,-27.449455,-68.390465,0.0,-8.240901,24.39555,59.844239,39.749543,69.656811,52.649019,74.870584,63.597243,91.386472,0.0,79.654598,34.263325,96.959667,23.966045,96.292477,13.701038,77.198238,3.945522,49.722404,0.0,11.472486,33.010967,66.289376,50.634782,85.881423,63.143995,92.321127,71.801774,93.056945,37.746449,283.553261,-70.384483,269.883201
83,-3.271408,8.135432,2.455616,3.31291,0.0,-63.164749,-44.814606,-23.2901,-42.242947,-13.090897,-37.247086,-17.436104,-30.517159,-71.918564,0.0,12.070538,22.025384,56.991863,30.679272,65.525894,37.62218,68.458174,44.730455,73.221045,0.0,76.623001,35.446873,97.267342,24.998703,98.318481,14.470711,81.430435,4.796734,54.761009,0.0,11.117915,30.740467,65.696449,48.493772,83.152055,61.07937,91.028938,69.329658,88.483524,33.902807,291.723041,-68.501101,273.23046
84,2.259064,28.666888,4.547997,3.902873,0.0,-64.758224,-46.334381,-24.312515,-44.791374,-8.659515,-40.429401,-4.655342,-33.958397,-45.306244,0.0,34.634324,5.783358,39.687052,1.846708,36.395137,-2.862996,30.120678,-6.697079,22.032794,0.0,73.831444,35.082722,97.359467,25.063877,98.067741,14.617767,81.113319,4.356079,51.195831,0.0,6.725978,29.079628,61.847792,46.466074,79.894597,59.247606,89.061261,67.828999,87.031463,35.729942,320.389018,-64.385033,277.132422
85,-2.102051,14.781258,4.475727,2.935553,0.0,-61.035461,-51.567478,-18.499489,-49.782257,-2.140045,-43.914871,5.306396,-35.092735,-25.123901,0.0,38.628464,1.158129,32.474356,-8.358783,24.280015,-17.717243,15.092171,-26.387248,-1.807435,0.0,72.327747,35.293922,98.754559,25.531368,98.287411,14.948616,80.460148,3.860664,53.093433,0.0,6.355723,29.135697,59.950202,46.049814,76.317519,58.021737,86.53746,65.619569,85.183644,33.288288,335.159639,-60.248909,280.057338
86,-1.654358,2.421481,1.683483,2.623713,0.0,-60.683556,-53.906422,-17.602386,-51.884136,0.809097,-44.59774,8.768578,-34.101906,-15.163765,0.0,41.562597,3.093819,33.429635,-8.213669,23.774032,-20.030907,13.952506,-30.954,-5.698019,0.0,73.418427,34.287987,97.722931,25.136375,98.367348,15.492897,81.881104,5.779209,59.168015,0.0,6.848368,29.68472,58.651406,46.668553,73.7345,58.714144,84.206382,66.62147,85.999367,31.425819,337.570977,-58.773537,282.670909
87,-4.59549,0.054896,0.307789,0.434846,0.0,-55.886021,-50.286713,-11.655693,-46.993561,6.332817,-38.436527,14.800529,-27.06562,-16.366196,0.0,38.461615,4.312711,32.687828,-6.183501,25.075113,-17.104802,14.755199,-27.685797,-2.902887,0.0,71.914387,33.439064,97.157078,24.297752,97.433453,14.546528,80.195103,4.714565,57.059841,0.0,9.076755,29.500827,58.289795,46.864981,73.237903,59.040433,83.223253,67.035877,86.197091,26.691971,337.669948,-58.604107,283.14983
88,-1.700363,-12.580967,-0.609226,-0.164627,0.0,-47.268562,-49.194946,2.12471,-48.970528,12.373123,-42.300167,14.746742,-32.225132,-22.882004,0.0,30.663464,9.00531,35.323644,9.168207,32.865607,7.32681,32.146462,5.013825,28.311329,0.0,72.008514,33.901234,96.940727,25.193653,97.713318,15.46051,80.890617,5.389938,57.281342,0.0,10.078161,29.055545,55.682508,46.555735,73.195357,58.68611,82.375544,66.782885,85.667396,24.902515,325.080166,-59.302425,282.976388
89,-11.657753,-1.092303,0.824375,-0.94509,0.0,-54.611607,-38.051777,9.876595,-40.978603,19.740829,-39.219074,18.451653,-35.819778,-41.551781,0.0,39.190949,9.527595,36.065699,5.887531,30.083936,-0.624852,23.504924,-6.30552,23.150538,0.0,71.000576,33.221054,96.542873,24.325962,97.334919,14.386654,80.230579,4.168682,56.619587,0.0,10.753834,30.393615,57.159763,47.809268,73.4163,59.548886,83.109385,67.078917,85.972382,13.163223,323.927579,-58.559589,281.971014
90,4.384804,-11.712633,0.54863,0.056316,0.0,-34.002399,-41.213779,10.695877,-43.853703,17.335625,-40.677052,15.909576,-35.232868,-38.458958,0.0,8.108076,12.215714,37.818855,19.238217,39.063064,24.562832,45.296335,28.929574,59.103728,0.0,70.716877,32.309246,96.500874,23.155746,96.690273,13.162708,79.25806,3.044529,55.772781,0.0,10.737409,30.356935,56.54053,47.705528,73.318364,59.24773,83.166072,66.397377,85.496471,17.441483,312.130054,-58.117504,281.942439
91,7.822838,-14.072054,0.432529,0.03211,0.0,-49.955349,-43.290367,6.847115,-51.558552,11.549835,-53.3951,0.986824,-52.959824,-83.784599,0.0,7.721827,20.025103,49.60849,36.372722,54.344376,46.895856,58.343827,56.620126,76.171047,0.0,70.875549,31.498547,95.969582,22.704906,96.766434,13.15052,79.901276,3.551903,57.043362,0.0,9.920451,29.649954,56.426538,47.254194,72.753162,59.220374,82.761298,66.818762,85.529878,25.239773,298.022725,-57.709522,281.939275
92,-21.813011,4.060769,0.568027,0.136468,0.0,-14.975967,-23.526134,30.705872,-35.120144,32.60376,-40.600548,19.287529,-42.531166,-60.978127,0.0,-7.224181,14.190677,44.636841,32.909388,54.31875,45.506472,58.99974,55.588524,71.31024,0.0,70.926189,30.944595,96.557064,22.446842,96.938267,13.276978,81.016445,4.299488,58.825665,0.0,10.225374,29.729304,57.026258,47.576963,72.456822,59.63898,81.917109,67.190562,85.109296,3.414516,301.991316,-57.15374,281.983565
93,-20.641308,13.583485,0.969143,-0.134616,0.0,-1.684628,-5.358925,56.384869,-12.278881,49.651737,-16.263828,37.785473,-17.427349,-32.561817,0.0,-21.046022,4.858461,36.558405,18.174567,47.012132,29.233448,51.133972,37.753399,56.71164,0.0,70.915947,29.950218,96.18988,21.327324,96.278114,12.200031,80.684738,3.38768,58.391304,0.0,10.344923,29.894115,57.306729,48.016688,72.912787,60.240429,82.430872,67.68864,85.310541,-17.245445,315.509824,-56.203251,281.783972
94,42.443104,-15.433033,1.120663,-0.273925,0.0,-51.765003,-44.39003,6.69239,-48.877087,10.695763,-47.918129,0.594978,-45.010471,-77.2015,0.0,11.86775,20.700467,44.328583,35.584231,50.689863,44.996043,53.690192,53.663269,74.014167,0.0,70.55666,29.55574,95.250607,20.83746,95.397892,11.57198,80.121975,2.783947,57.958202,0.0,10.111136,29.814643,57.358537,47.661314,73.216105,59.753218,82.747158,67.139803,85.629976,25.148478,299.988997,-55.131769,281.422254
95,-14.123726,2.361645,0.280838,0.34994,0.0,-15.61512,-28.113785,24.418488,-38.291702,27.441559,-42.95414,11.338806,-43.777885,-69.891815,0.0,-18.815659,12.475374,43.056833,31.211622,52.234488,43.80321,60.296128,53.554156,72.9591,0.0,70.573483,28.743553,95.107098,20.300732,95.349941,11.271858,80.20895,2.496986,57.919865,0.0,9.853451,28.809099,56.959321,46.386724,72.461268,58.61911,81.852579,66.421892,85.015497,10.955458,302.227264,-54.920225,281.648816
96,-24.558792,12.944183,0.47287,-0.309123,0.0,20.058403,-5.056858,51.409149,-12.975597,44.346657,-18.938484,30.451012,-21.557579,-39.567719,0.0,-33.584629,3.355517,34.54071,18.556987,45.308809,30.435111,53.133018,39.393305,62.586266,0.0,69.641476,29.24881,94.304409,20.73103,94.684925,11.416454,79.176006,2.251797,56.800175,0.0,10.685168,29.107847,56.70318,46.65787,72.747852,58.799545,82.565364,66.611466,85.360065,-13.630714,315.062782,-54.474735,281.231028
97,-0.105515,1.577847,-0.803776,0.68228,0.0,-4.278088,-13.010616,47.391815,-16.617165,50.337067,-17.473068,44.558372,-14.505959,-14.612103,0.0,-2.771544,5.293616,33.355782,15.515779,44.023721,22.513644,44.267203,27.39767,53.843951,0.0,69.862633,29.631271,96.116638,21.439476,96.481934,12.42857,81.600494,3.565807,59.815979,0.0,8.771029,27.91909,55.306324,45.621328,71.130794,58.194576,79.965549,66.412692,84.045028,-13.815908,316.433827,-55.358191,281.706506
98,44.822159,-20.445932,0.066605,-0.038718,0.0,-47.057018,-48.490906,4.396706,-56.360836,6.996918,-57.463417,-3.534508,-56.227512,-83.260574,0.0,-5.449536,19.496149,46.898573,36.281022,52.744053,47.11964,57.58405,56.834894,80.768736,0.0,69.698753,29.540062,95.787048,21.370697,96.203499,12.217026,81.298599,3.19582,59.356041,0.0,9.113126,27.714141,54.539137,45.092806,70.891264,57.426401,80.177661,65.639576,84.257573,30.904112,295.896458,-55.393724,281.576352
99,-30.307503,0.566992,0.310936,0.034333,0.0,-16.518402,-25.231133,29.67041,-32.492409,36.978836,-34.394531,28.407669,-33.759212,-45.557785,0.0,9.086944,20.764379,45.215751,36.701296,56.6418,46.189432,60.281802,53.818078,79.90034,0.0,69.092102,29.892082,95.839233,21.738338,95.932617,12.526188,80.899429,3.330173,59.211044,0.0,9.470908,27.970652,54.283182,45.260952,70.742075,57.533168,80.098929,65.702994,83.828284,0.550175,296.294455,-55.129223,281.44169
100,-8.853607,16.030345,0.295143,-0.164565,0.0,4.894352,-10.701084,44.118233,-17.73571,44.964752,-21.578751,34.017105,-22.419434,-32.907658,0.0,6.012514,8.627521,34.83773,19.195054,44.884151,28.924387,51.429016,37.952853,59.832568,0.0,69.29306,29.788685,96.079102,21.083851,95.628662,11.491127,80.053253,2.134209,57.836494,0.0,9.730383,27.555627,54.969352,45.120347,71.44677,57.490128,80.339447,65.479334,83.169777,-8.403282,312.161485,-54.933929,281.113811
101,32.472954,-10.989227,-0.399685,-0.115165,0.0,-50.738754,-48.576736,5.902634,-51.401939,13.033676,-48.891106,7.693405,-45.000973,-74.126587,0.0,29.744803,15.001398,42.030109,27.740879,46.42149,36.323383,48.711936,44.859513,70.320875,0.0,69.577274,29.635563,95.806217,21.133575,96.14233,11.949406,81.299801,3.096199,59.253445,0.0,10.047101,27.984546,55.314846,45.7791,71.727241,58.227551,80.627142,66.064234,83.379235,23.963842,301.042567,-55.439444,280.868955
102,-11.484375,0.991773,0.214748,-0.249657,0.0,-11.861115,-29.510937,22.48558,-39.543743,27.302284,-43.722553,14.140091,-43.846436,-62.510033,0.0,-9.626951,11.572645,37.098968,29.021212,48.090665,41.182832,55.142253,50.372775,74.282102,0.0,69.679985,30.844173,96.419678,22.377148,95.918541,12.826023,80.42244,3.332176,58.852043,0.0,9.721923,28.096067,55.273288,45.838504,71.813753,58.281583,80.142216,66.328526,83.714663,12.338448,301.95337,-55.365715,280.538328
103,-17.402458,14.3834,0.692368,-0.212915,0.0,10.124817,-14.123783,42.950706,-21.6465,40.119095,-25.874519,32.342949,-26.608372,-33.688374,0.0,-24.882205,0.256264,31.046872,12.713051,37.827747,22.882294,45.925325,30.932819,56.011452,0.0,69.768791,29.660797,94.859734,21.246872,94.861908,11.90649,79.628677,2.619267,58.184624,0.0,9.534325,28.363137,55.084826,46.069512,71.816594,58.368342,80.591821,66.322536,83.767892,-5.187006,316.254488,-54.796343,280.24313
104,29.901695,-10.801444,-0.328445,-0.19155,0.0,-54.396229,-46.877918,5.088844,-50.025215,13.071098,-48.024502,8.507652,-44.675961,-74.084759,0.0,31.84691,14.810095,40.272569,23.965397,43.568188,29.381093,43.719168,35.066206,60.94179,0.0,69.191551,30.514927,96.04557,21.778851,95.52784,12.043362,79.694366,2.29866,57.70443,0.0,10.00931,27.948298,55.205795,45.756561,71.992521,58.140421,80.910206,66.054601,83.959812,24.583139,305.426538,-55.256338,280.025074
105,-3.822784,-1.135158,0.507374,0.235146,0.0,-30.21389,-42.283802,11.103287,-49.664955,18.180428,-50.699387,9.00753,-48.045273,-68.380795,0.0,7.734918,14.856346,39.792892,27.158202,45.468063,35.237255,50.106137,41.949587,70.177985,0.0,69.042034,30.256977,95.285282,22.012825,95.571156,12.6721,80.174389,3.234215,58.573895,0.0,9.854192,27.751253,55.231483,45.388961,71.480733,57.814379,80.573481,66.046326,83.970433,20.615387,304.250563,-54.893932,280.219402
106,-16.909904,20.752461,0.547943,0.101085,0.0,-21.029263,-26.672859,24.176903,-32.300949,31.201286,-32.260323,27.630844,-28.242702,-29.271698,0.0,3.480068,-1.236181,26.717551,3.753622,30.987715,7.807907,34.166256,11.649277,37.901724,0.0,69.012051,30.197124,95.066586,21.980095,95.429592,12.517776,80.121288,2.876644,58.434734,0.0,9.668015,27.232426,54.575632,44.856055,71.03471,57.456041,79.974811,66.050896,83.951229,3.65304,324.925049,-54.398432,280.242512
107,20.515823,-29.406596,0.211945,0.175927,0.0,-42.324772,-44.747314,7.031021,-50.667801,13.861198,-51.108112,6.678658,-49.430408,-69.632435,0.0,17.178841,19.543203,45.084779,33.898938,51.890847,43.096292,54.73328,51.604881,77.081866,0.0,69.321499,29.844704,95.168209,21.609936,95.503063,12.217426,80.32465,2.69537,58.260441,0.0,9.402426,27.096637,54.920137,44.584477,70.163659,57.177423,79.632467,65.705526,83.897012,24.08721,295.43228,-54.268141,280.332266
108,-18.598137,3.386269,0.730019,-0.107693,0.0,-6.552315,-23.688526,30.432129,-34.359169,34.802742,-39.717464,23.938408,-40.492172,-55.50396,0.0,-7.902694,11.6494,43.266476,29.621981,54.179564,42.298291,61.525023,52.486059,77.136639,0.0,68.920841,29.019012,94.352016,20.712776,95.000324,11.478252,79.981213,2.254543,57.837353,0.0,9.614601,27.184199,55.304904,44.877544,70.460122,57.588187,79.775172,66.070533,83.894727,5.335693,298.783274,-53.691502,280.189299
109,-11.7453,16.369108,0.320835,0.318941,0.0,13.432961,-10.989017,45.790558,-19.356594,40.492973,-24.586887,29.443703,-26.333485,-43.859825,0.0,-36.88914,0.089476,28.809902,15.176646,41.444468,28.014618,49.770956,38.574556,60.457791,0.0,68.971939,28.630543,94.941673,20.499058,94.636917,11.40461,80.320587,2.335224,58.643646,0.0,8.371565,27.269908,54.428295,44.538287,69.469893,57.159207,79.029227,65.74023,83.17447,-6.559038,315.112121,-53.520098,280.467978
110,-8.363171,5.074093,0.185165,0.287325,0.0,-16.60778,-16.449165,42.917347,-15.432587,48.824444,-10.255737,49.45055,-2.22702,14.545155,0.0,19.440512,7.614505,32.102989,6.849664,34.935728,5.357095,33.086118,5.123123,33.39981,0.0,68.669128,28.090324,94.235229,20.001469,94.392357,10.891857,79.827576,1.732807,57.94281,0.0,8.189093,26.54996,54.569889,43.827787,69.304772,56.480323,78.961919,65.035966,82.639341,-15.036707,320.158982,-53.44943,280.728071
111,43.163967,-18.515182,0.241871,0.148942,0.0,-46.656704,-49.918041,3.172989,-55.27359,9.742355,-54.523544,3.276672,-51.746979,-76.828079,0.0,25.558681,14.381609,42.787293,26.615971,47.68904,34.587764,49.689198,42.183559,68.609401,0.0,68.251934,28.295002,93.859692,20.101662,94.066143,10.865822,79.564533,1.523895,57.596684,0.0,7.98334,26.900085,54.340671,43.954252,69.18547,56.446669,79.192495,64.877082,82.946117,27.918978,301.615333,-53.415842,280.848546
112,-11.908035,0.303997,0.350246,-0.294673,0.0,-17.596207,-32.090263,18.018379,-42.123928,23.120041,-46.515827,11.515617,-47.15086,-66.945877,0.0,-2.794638,12.428258,38.341634,28.171835,48.380336,39.573493,55.229445,48.631846,74.566525,0.0,68.661461,27.686691,94.107285,19.374332,94.002914,10.198288,79.490776,1.080379,57.699394,0.0,7.718431,27.094475,54.746248,44.196931,69.360162,56.721273,79.411833,65.10877,82.98891,15.901022,301.831043,-53.175516,280.465586
113,-17.402802,13.414289,-0.182533,0.247372,0.0,6.24733,-18.098946,38.460274,-27.028141,35.529556,-31.181717,29.286919,-31.1903,-48.178997,0.0,-28.61971,0.587864,27.813744,14.839612,39.360701,26.325744,46.922162,35.685254,62.304128,0.0,69.003296,27.539577,94.905281,18.943748,94.128799,9.601078,79.343262,0.541134,57.600288,0.0,7.449199,26.835556,54.774715,44.085904,69.181642,56.733809,78.847928,65.135878,82.530599,-1.527786,315.206213,-53.384056,280.673839
114,-14.534969,9.370502,-0.17664,-0.137456,0.0,-6.673279,-15.674973,38.984013,-15.530949,48.30019,-11.36198,52.203083,-4.212856,21.959896,0.0,7.145449,2.308539,30.399481,2.728627,31.135237,2.941543,30.9272,3.660935,29.804948,0.0,69.367046,28.356285,95.547466,19.972,94.495983,10.595913,79.712849,1.241798,57.885876,0.0,7.66761,26.694888,54.539261,43.908557,69.540597,56.575851,78.959449,65.108091,82.812181,-16.213818,324.519858,-53.711758,280.479526
115,42.826252,-22.026001,0.054874,-0.145854,0.0,-49.297028,-48.038979,2.659149,-52.621422,10.043564,-51.730442,4.981155,-49.108372,-72.468281,0.0,22.869018,15.738451,41.4851,26.827158,46.488612,33.431611,47.56097,39.498713,65.607898,0.0,68.583527,28.142509,94.551888,19.913578,94.366722,10.579548,79.437332,1.252785,57.540779,0.0,8.360203,26.662408,54.875677,43.762455,69.7545,56.379485,79.55602,64.95495,82.919935,26.462345,302.426842,-53.806973,280.266657
116,-9.717064,1.47849,-0.703926,-0.210198,0.0,-25.375614,-37.357464,14.290695,-44.739246,21.535492,-46.433144,12.029457,-44.577827,-58.293514,0.0,4.85809,12.088446,38.301187,25.282286,46.477868,34.814388,51.80168,42.338923,69.11489,0.0,68.66066,28.537045,94.922104,20.138397,94.42749,10.702972,79.548798,1.315098,57.860413,0.0,8.566635,27.315356,55.408027,44.514143,70.228126,57.001435,79.888731,65.282721,82.984773,16.588411,303.873206,-54.667768,280.024333
117,7.202454,17.66247,0.283813,-0.299057,0.0,-60.280609,-51.179924,0.847664,-51.686954,12.10453,-46.662884,12.444878,-40.25156,-60.940819,0.0,36.470411,7.186204,32.073534,5.162334,27.80195,1.060255,21.816174,-1.820093,28.265819,0.0,68.995628,28.646679,94.816818,20.173817,94.112663,10.720596,78.956795,1.251469,57.431602,0.0,8.267763,27.435832,55.64589,44.767999,70.070971,57.314015,79.394419,65.600612,83.313779,23.579664,321.504863,-54.595156,279.694462
118,-5.558624,0.755825,-0.402718,-0.192538,0.0,-44.235134,-41.408272,4.502907,-40.127392,17.840881,-33.809967,21.6259,-25.370979,-3.739243,0.0,22.573234,8.293636,31.7252,8.947264,27.754834,6.9631,27.009321,4.5494,26.032059,0.0,69.298897,28.547573,94.286842,19.956551,93.859863,10.414867,78.930473,0.965424,57.361794,0.0,8.622395,27.570633,56.421845,45.096635,70.77153,57.736882,79.925102,65.926407,83.268949,17.758627,322.243954,-55.260286,279.48519
119,6.981812,-7.167617,-0.31683,-0.323819,0.0,-60.446835,-49.465599,-0.50251,-51.296196,9.116592,-47.796879,7.877541,-43.154011,-73.761921,0.0,32.926493,9.104728,35.941519,11.538064,34.149769,11.368621,30.794313,12.371572,42.506637,0.0,69.638729,28.341064,94.284954,19.859734,94.400997,10.558147,79.644184,1.446018,58.115788,0.0,8.973385,27.733283,56.452288,45.346971,70.69712,57.953441,80.031868,65.903436,83.679465,24.562998,315.044072,-55.754557,279.129106
120,-6.200867,12.698849,-0.147057,0.054649,0.0,-50.211353,-45.766354,0.474472,-45.044918,15.736542,-38.814182,18.406219,-29.487534,-16.028824,0.0,32.434404,4.464123,30.721941,0.835977,24.682381,-4.229533,20.248639,-9.064281,15.734067,0.0,68.715992,27.863731,93.896427,19.499016,94.115925,10.308952,79.158955,1.193562,57.629642,0.0,10.030243,27.118126,55.313796,45.00475,70.035218,57.966717,79.056088,66.490991,83.209668,18.21928,327.689337,-56.044464,279.130171
