takenoko1/special-research/HandMotion_SimilarSearch_自分用/NewProject/handData/test_key/d4_feature_d2/29.csv
frame,vel_0x_L,vel_0y_L,vel_0x_R,vel_0y_R,posFromWrist_0x_L,posFromWrist_1x_L,posFromWrist_2x_L,posFromWrist_3x_L,posFromWrist_4x_L,posFromWrist_5x_L,posFromWrist_6x_L,posFromWrist_7x_L,posFromWrist_8x_L,posFromWrist_9x_L,posFromWrist_0y_L,posFromWrist_1y_L,posFromWrist_2y_L,posFromWrist_3y_L,posFromWrist_4y_L,posFromWrist_5y_L,posFromWrist_6y_L,posFromWrist_7y_L,posFromWrist_8y_L,posFromWrist_9y_L,posFromWrist_0x_R,posFromWrist_1x_R,posFromWrist_2x_R,posFromWrist_3x_R,posFromWrist_4x_R,posFromWrist_5x_R,posFromWrist_6x_R,posFromWrist_7x_R,posFromWrist_8x_R,posFromWrist_9x_R,posFromWrist_0y_R,posFromWrist_1y_R,posFromWrist_2y_R,posFromWrist_3y_R,posFromWrist_4y_R,posFromWrist_5y_R,posFromWrist_6y_R,posFromWrist_7y_R,posFromWrist_8y_R,posFromWrist_9y_R,posFromBody_0x_L,posFromBody_0y_L,posFromBody_0x_R,posFromBody_0y_R
2,-11.900482,0.187721,-0.293255,1.366722,0.0,-33.222542,-35.752258,17.031097,-42.458553,22.611122,-43.479824,11.450958,-41.445408,-71.907635,0.0,6.806624,10.021351,42.933703,25.705276,49.296218,37.410437,54.443239,47.523982,67.567918,0.0,68.844109,29.359188,92.145309,21.361942,93.398552,11.978302,79.794159,2.569427,58.142967,0.0,8.817341,25.787775,53.586822,43.111421,68.72086,55.873811,78.037392,64.739194,82.476135,11.896133,297.967443,-56.682358,276.181713
3,-15.899563,16.555779,0.279064,-0.013832,0.0,5.899487,-21.244354,30.613461,-28.782921,31.274014,-31.33255,25.827656,-29.9263,-41.63435,0.0,-22.616644,-1.475156,26.523222,10.5332,35.565829,19.998303,41.944214,27.98751,54.909084,0.0,68.236713,28.876076,91.059551,20.901489,92.378483,11.509037,78.88567,1.890678,57.077579,0.0,8.491855,26.077755,54.371423,43.377503,69.402091,56.136806,79.108576,65.081538,83.510331,-3.287373,314.369325,-55.687237,276.013983
4,31.582546,-19.536472,0.324783,0.075768,0.0,-51.383343,-47.979298,-0.676346,-53.509598,1.436691,-53.551254,-8.075294,-51.574059,-87.878494,0.0,2.859662,17.239542,43.264685,32.51048,49.352905,42.867074,54.467507,52.054609,73.074264,0.0,67.904148,28.390274,91.02808,20.20998,91.648006,10.66967,77.75259,1.008968,56.251545,0.0,8.203604,25.803212,53.792451,43.200094,69.724551,56.115563,78.889795,65.110561,82.764262,28.658667,294.78529,-54.99896,276.042187
5,-23.122787,4.176921,0.045891,0.442009,0.0,-26.761665,-32.658749,20.135307,-39.767704,26.311684,-40.892715,16.188698,-38.757648,-56.064949,0.0,15.285697,11.335955,38.765797,25.022625,48.148525,34.817723,51.876953,43.203243,68.282124,0.0,67.477055,28.243904,91.386967,20.079002,91.409855,10.565815,77.473698,0.863972,55.987988,0.0,7.877562,25.182683,53.250715,42.494102,69.188434,55.460577,78.506139,64.682198,82.516952,5.850906,298.836179,-54.638042,276.358164
6,15.748215,-0.187536,-0.376053,-0.073606,0.0,-49.553089,-43.469925,4.543762,-47.559471,7.799149,-47.578411,-0.414848,-46.443615,-73.301811,0.0,22.981095,15.708502,39.274003,29.252776,46.143675,38.261173,49.627077,45.681905,65.915416,0.0,67.830906,28.229141,91.762676,20.192928,91.750889,10.794125,77.883282,1.178226,56.562939,0.0,7.713861,25.411097,53.546685,42.663915,69.188681,55.555487,78.537817,64.705972,82.788716,21.781025,298.551386,-54.832191,276.187301
7,-19.167023,12.142045,-0.062885,0.257746,0.0,-37.34436,-32.008839,21.960869,-35.002098,29.870224,-33.018208,23.60939,-28.202705,-47.479019,0.0,21.556081,6.114464,32.639354,13.759659,36.621205,19.457617,39.405593,24.411605,51.220546,0.0,67.920341,27.942638,91.503067,20.041466,91.758499,10.834351,78.33149,1.349773,57.033348,0.0,7.313101,25.362438,53.436151,42.498548,68.55611,55.384377,78.025659,64.657251,82.552088,2.958469,310.617216,-54.55061,276.368832
8,16.38073,-9.549948,-0.180702,0.251818,0.0,-49.53867,-42.543011,5.798149,-45.566425,11.572609,-45.093613,6.169853,-43.520565,-59.449253,0.0,29.278896,15.911167,38.412276,26.308948,44.201686,32.733461,47.195284,37.771739,60.391038,0.0,67.524605,28.325615,91.511192,20.454025,91.727028,11.125088,78.45211,1.305771,56.897392,0.0,6.827928,25.053068,53.103255,42.007509,67.891737,54.767305,77.506771,63.951011,82.348559,19.655485,300.986992,-54.415026,276.540374
9,-7.65461,-1.859181,-0.00555,0.002902,0.0,-15.450611,-31.028481,20.748024,-39.740353,23.711128,-42.92141,11.644249,-42.738991,-58.670425,0.0,-1.850104,9.819427,39.014343,25.07604,47.190468,36.898279,54.660909,47.19621,71.317774,0.0,67.217388,28.60754,91.812229,20.874252,91.858692,11.607056,78.683453,1.839352,57.27499,0.0,7.042511,25.161008,52.924796,42.00405,67.752243,54.695057,77.269526,63.867834,82.067471,12.312069,299.028979,-54.109383,276.444445
10,4.341888,1.67603,-0.309448,-0.092873,0.0,-50.990868,-40.875263,7.341385,-44.196625,13.268394,-43.576756,7.14592,-41.676579,-60.187168,0.0,34.381518,14.562106,39.389415,24.913945,43.982781,31.460847,46.841825,36.727663,61.068132,0.0,67.279186,29.348602,92.003574,21.62796,92.369785,12.267723,79.055386,2.36515,58.060284,0.0,7.238383,25.293957,53.1253,42.371651,67.693951,55.175907,77.206787,64.301816,82.352572,16.974049,300.627867,-54.09874,276.274431
11,-4.191742,-1.899072,-0.481052,0.218473,0.0,-17.020569,-32.04237,20.175133,-41.051331,24.420433,-44.028168,13.323898,-43.475819,-60.051956,0.0,-3.703296,9.633929,38.783149,24.796125,46.418896,36.674681,54.396864,46.854916,70.703048,0.0,67.97802,29.354267,92.607651,21.726837,93.003616,12.551308,79.876213,2.890778,58.610229,0.0,6.518126,24.604452,52.447157,41.698942,67.226315,54.657327,76.643068,64.062965,81.89599,13.084145,298.558549,-54.277954,276.322658
12,5.019379,-4.004946,0.500336,-0.15981,0.0,-49.592113,-40.702286,7.665596,-44.457207,12.87426,-44.114799,6.452866,-42.641029,-63.82021,0.0,24.202518,18.893835,42.191092,32.517088,49.80146,41.45688,53.414847,48.548112,69.627727,0.0,68.109169,28.789158,91.588097,21.036243,92.117615,11.888008,78.929214,2.443085,57.595367,0.0,7.042881,24.959764,53.431582,42.226661,67.98813,55.212155,76.93101,64.384376,82.230801,18.336639,294.539739,-53.544502,276.148985
13,-13.266106,1.653614,-0.525341,0.105346,0.0,-7.140999,-26.844807,29.277191,-35.690746,33.289604,-38.401508,24.388504,-36.788177,-60.182362,0.0,-5.54846,9.504253,41.097246,26.6579,49.876425,39.82951,56.551583,50.648244,71.170746,0.0,68.506222,28.826351,92.387409,21.184902,93.291492,12.118378,79.961414,2.579441,58.880024,0.0,6.698067,24.739438,52.939925,41.868817,67.703522,54.933661,77.094834,64.402716,81.811207,5.16758,296.026674,-53.972797,276.087651
14,15.386467,-1.740621,-0.482883,-0.082437,0.0,-48.580627,-42.041817,4.517212,-47.928772,10.703659,-49.401627,2.858963,-49.15226,-65.719872,0.0,27.633742,17.141297,43.229487,30.038982,49.786764,38.580299,53.565765,45.665294,70.592947,0.0,69.145546,29.756756,92.347298,22.12492,93.443413,12.789574,79.909744,2.917099,58.693428,0.0,6.673923,24.788653,54.00549,41.904941,68.267118,54.969537,77.524802,64.41346,82.577282,20.6248,294.136015,-54.384928,275.855176
15,-17.234688,3.052508,0.669479,0.014944,0.0,-17.776909,-26.638298,29.598999,-34.984989,34.994202,-37.515163,25.486679,-36.147823,-57.111511,0.0,0.809301,8.252078,40.15512,24.868311,48.61011,37.784521,55.026286,48.323896,68.559074,0.0,68.954315,28.834648,91.099892,21.244469,92.51564,12.116833,79.050064,2.478504,57.91111,0.0,7.110992,24.678737,54.304671,41.841029,68.583342,55.011157,77.601619,64.557215,82.753765,3.407106,297.099618,-53.698454,275.781215
16,7.584915,11.3446,-0.035763,-0.018155,0.0,-45.958385,-35.287113,6.853638,-38.143444,20.462952,-38.40683,17.143707,-37.067814,-25.039902,0.0,35.539276,14.765141,39.308151,12.755721,36.473992,7.295564,29.227767,2.303661,28.143059,0.0,68.551083,28.63575,90.940189,21.162758,92.934208,12.129307,79.607563,2.507401,58.148975,0.0,7.167741,24.629028,54.143132,41.883822,68.354804,55.0684,77.852017,64.580063,83.081474,11.013279,308.37583,-53.712959,275.694672
17,0.524597,6.570429,-0.022087,0.160551,0.0,-52.690144,-39.578533,5.850449,-41.419258,20.419579,-39.05674,19.759369,-34.781971,-24.6908,0.0,37.650399,10.533015,36.385072,5.009008,31.197914,-3.318591,22.441767,-10.98015,17.414419,0.0,68.542042,28.519249,90.912724,20.851135,92.483654,11.646252,78.816319,2.049809,57.559834,0.0,6.733512,24.218388,54.026176,41.55846,68.557716,54.81794,77.81966,64.351278,82.860346,11.569748,314.937367,-53.703175,275.846331
18,4.428291,-3.227324,-0.743523,-1.788786,0.0,-58.62442,-40.830288,2.784119,-41.410732,12.505417,-38.155289,11.02375,-33.893051,-50.403728,0.0,36.089658,8.357363,36.092128,9.004383,34.635497,7.011204,30.969067,5.106203,33.194181,0.0,68.49638,29.308891,91.083012,21.507053,92.357311,11.834164,78.698101,1.708775,57.703686,0.0,7.801732,25.029356,55.80922,42.346086,70.423319,55.478114,79.121667,64.993605,83.650134,15.931005,311.725095,-54.513731,274.072596
19,-0.277748,13.154258,-0.354023,-3.759921,0.0,-44.411488,-44.198856,0.734253,-42.193508,13.065491,-35.339069,18.405876,-26.366959,3.595734,0.0,37.554995,3.043863,34.86842,-5.789348,26.460916,-15.104583,18.679561,-23.258416,4.194644,0.0,67.253265,30.064545,88.92334,22.108669,89.336472,11.831932,75.888634,0.63446,53.996258,0.0,10.52616,26.634126,60.317185,43.738681,76.838569,56.608887,84.275048,66.159947,88.331618,15.517502,324.968984,-55.00351,270.402306
20,3.976364,-2.303723,-0.591259,-7.941659,0.0,-64.209194,-46.779041,-27.850456,-38.574715,-7.486839,-26.365471,0.482025,-12.06974,-11.512985,0.0,39.304878,-0.879511,35.825428,-10.766123,33.816563,-20.483044,21.166003,-29.938143,-0.198095,0.0,65.273838,29.809399,80.148869,19.595375,77.932949,6.773586,62.519588,-7.256069,38.584099,0.0,16.967778,29.006639,73.401294,44.552181,91.573267,56.13063,97.229543,64.509729,95.912469,18.833399,322.901395,-56.255236,262.696781
21,-3.232613,-41.658804,9.320412,-1.155535,0.0,-60.906372,-24.876537,-82.328053,-16.699734,-75.999699,-7.578735,-63.416061,1.90361,-47.57309,0.0,24.291871,49.785837,54.245082,57.278385,36.40687,58.850366,32.832632,55.003438,49.646961,0.0,57.700138,16.967525,61.063557,1.76096,48.378696,-13.043175,30.417595,-25.963554,8.541355,0.0,29.671505,15.505528,68.662136,27.539696,86.007579,38.755855,93.947015,48.129753,89.184206,13.522196,282.175686,-49.013414,262.474341
22,7.117195,23.618051,-22.764988,-35.081335,0.0,-62.213116,-37.61816,-98.583984,-35.095596,-99.577904,-26.739235,-80.287457,-14.639969,-52.727451,0.0,6.202582,20.552575,32.960147,18.626703,7.213992,14.120899,1.73037,8.280483,7.808401,0.0,42.896004,32.75219,47.601871,17.963505,31.288433,0.914097,18.290462,-18.653927,9.715061,0.0,66.828766,36.053781,112.824425,43.042322,127.696641,49.515062,125.793617,56.279943,110.899047,18.609152,306.853852,-73.808641,228.453121
23,-4.712563,-31.120849,-20.89468,-51.296438,0.0,-61.256218,-35.144577,-95.198307,-28.48217,-95.581741,-19.226246,-80.829792,-8.64727,-58.786583,0.0,23.540863,28.196411,59.336403,45.377105,76.548034,58.215016,86.47892,66.694767,90.633735,0.0,35.322418,26.487808,64.359112,10.913143,48.405647,-6.84803,34.460621,-24.207859,16.686172,0.0,56.832053,30.615854,93.299438,40.981896,106.822038,49.570575,105.241474,56.13872,98.011242,11.882544,277.642033,-96.717367,179.065713
24,-1.731606,0.458373,-13.127346,-50.759888,0.0,-62.60273,-35.706539,-94.235687,-29.601688,-95.517826,-20.487156,-81.579323,-9.815483,-59.171677,0.0,24.315707,28.104589,59.263661,45.453923,76.398906,58.281212,85.705743,66.853713,89.124555,0.0,33.640022,25.02491,65.476456,9.509239,40.648327,-8.055954,23.708382,-24.593754,6.293163,0.0,54.58582,30.048244,94.114112,42.109335,102.380454,51.125019,99.096691,57.176065,88.10345,8.391409,279.040664,-111.604242,129.246082
25,-2.188683,0.834557,-9.914703,-52.266598,0.0,-60.07061,-34.342976,-93.247547,-28.314056,-94.967308,-19.506283,-81.794586,-9.108238,-59.505615,0.0,23.405197,26.995983,55.891039,44.542054,74.260304,57.444803,83.801793,66.097517,87.584438,0.0,34.764404,27.656765,69.01886,13.134212,23.969479,-4.302349,6.412697,-21.880188,-7.130871,0.0,52.113951,22.524019,85.035937,32.926709,70.500384,42.332624,68.80268,50.417112,67.634362,3.45789,280.54299,-124.263783,77.647253
26,-1.164093,-0.364389,-14.209614,-51.114861,0.0,-60.751305,-34.365005,-93.505726,-28.446293,-94.933548,-19.614887,-81.848145,-9.065895,-59.691353,0.0,23.565069,27.256261,56.425612,44.809433,74.421103,57.662411,84.006866,66.331799,87.360469,0.0,49.932861,32.196007,82.382183,20.582886,27.869053,5.756378,10.892086,-9.718781,-1.228065,0.0,53.702419,12.370553,71.527046,24.603371,53.253494,37.345785,55.459311,50.0664,59.10947,0.378027,281.328656,-140.389166,27.682447
27,-1.00502,-0.014203,0.06855,-39.161432,0.0,-60.195408,-34.321804,-93.718929,-28.309364,-94.295597,-19.489174,-81.027374,-9.093018,-59.129219,0.0,23.597982,26.885203,55.751545,44.479501,74.031519,57.392191,83.599375,66.091836,87.504533,0.0,62.858448,34.492207,82.747936,23.795872,33.989754,10.9342,16.017208,-2.90657,3.643913,0.0,44.971868,9.535838,58.633097,24.693959,42.276802,39.730956,49.123225,54.159897,55.748056,-3.504524,281.75586,-143.198147,-11.037577
28,-0.292511,0.013338,-0.13567,-17.29135,0.0,-60.436249,-34.254684,-93.694267,-28.568859,-94.749012,-20.044842,-82.099571,-9.713631,-59.881382,0.0,22.677777,26.329326,55.21234,43.821118,73.554188,56.848726,82.803968,65.856876,87.469273,0.0,55.179405,33.366165,79.698257,24.872246,29.59053,13.197556,12.076893,0.729275,1.290607,0.0,38.067246,11.959604,48.336957,25.727939,34.000734,38.79025,40.504936,51.525161,50.130806,-6.564674,281.564372,-146.101456,-28.533754
29,-0.249367,-0.857837,2.570629,-12.461233,0.0,-60.688019,-35.576248,-93.82988,-29.69965,-94.734135,-20.824699,-82.276554,-10.053291,-60.106316,0.0,22.922062,26.867666,56.45976,44.479254,73.556412,57.572379,83.092651,66.570773,87.880037,0.0,49.148197,32.976894,72.079525,23.5849,26.710453,10.775928,10.516777,-3.091965,-0.475559,0.0,43.334587,16.449754,58.07231,31.680802,38.151226,45.197257,44.189243,56.926285,54.720158,-9.4384,280.41918,-146.155186,-41.282343
30,0.695915,-0.479183,0.36272,-1.696716,0.0,-61.917973,-35.938854,-95.204086,-30.017624,-96.131172,-21.051235,-83.125076,-10.321312,-61.064472,0.0,23.45293,26.710943,55.709678,44.504325,73.267358,57.681122,82.831385,66.614986,88.293394,0.0,36.471634,33.306828,66.084194,22.093105,23.01733,7.548466,6.049862,-8.070488,-7.218533,0.0,49.311069,24.513648,76.07413,38.504562,48.516897,49.740729,51.583299,59.231952,57.82148,-12.959518,280.110845,-150.009499,-42.808211
31,-0.563507,-0.126094,3.875656,6.389994,0.0,-61.126728,-35.21616,-94.849091,-29.524612,-95.870533,-20.874138,-83.167877,-10.486908,-61.096687,0.0,22.909588,26.043977,54.385379,44.092449,72.804477,57.602266,82.381842,66.997036,87.890041,0.0,25.799847,23.838844,47.795448,8.372669,12.136974,-9.16832,-4.529228,-27.341537,-19.858532,0.0,62.810759,33.565116,98.639985,43.597767,56.385042,50.714286,57.970391,55.436247,59.559785,-16.61788,280.708589,-149.228697,-35.694378
32,0.304184,-0.744401,-2.988224,5.863696,0.0,-60.643559,-36.536121,-95.133648,-31.208782,-97.11216,-22.721043,-84.662704,-12.100925,-62.071838,0.0,22.417623,25.853045,54.00265,43.454444,71.907243,56.919616,81.786012,66.695261,87.743013,0.0,7.781467,10.598774,19.739742,-9.566574,-0.102482,-28.494129,-15.478764,-45.103397,-24.303646,0.0,70.449069,36.888399,117.226272,43.381949,66.419978,46.534555,63.286206,46.528812,59.571672,-17.824316,283.082861,-153.727541,-26.712009
33,-0.371361,-0.308999,-13.282036,-0.166176,0.0,-61.424103,-36.364517,-93.932762,-31.151447,-96.641979,-22.800007,-83.968735,-12.379189,-62.141876,0.0,22.143018,25.862987,54.590575,43.567324,72.100769,56.76598,81.474976,65.94592,86.829971,0.0,0.611137,7.102077,9.407181,-8.19524,-5.560501,-22.748909,-16.653717,-35.623593,-22.497734,0.0,59.992414,29.37798,96.174661,32.746867,54.768348,33.705462,51.428744,32.523701,47.043785,-19.469204,282.171641,-168.283104,-27.480406
34,-0.346298,-0.959231,-13.282036,-0.166177,0.0,-61.614704,-35.90332,-94.214859,-30.87965,-96.707096,-22.627201,-84.72456,-12.235451,-62.861309,0.0,22.445719,26.044163,55.353378,43.86669,72.369198,57.202556,81.680604,66.492967,86.799343,0.0,-6.559193,3.605381,-0.925381,-6.823906,-11.01852,-17.003689,-17.828671,-26.143787,-20.691822,0.0,49.535761,21.867562,75.12305,22.111785,43.116719,20.876369,39.571282,18.51859,34.515899,-22.346449,280.67106,-184.096086,-28.187933
35,-0.075874,-0.321658,-13.282036,-0.166176,0.0,-62.484684,-36.362457,-94.557953,-31.174107,-96.976089,-22.856712,-84.433308,-12.720051,-62.741489,0.0,22.94386,26.191067,56.149217,43.979323,72.912046,57.368294,82.548445,66.688654,87.545288,0.0,-13.729523,0.108685,-11.257942,-5.452572,-16.476539,-11.258468,-19.003624,-16.663982,-18.88591,0.0,39.079106,14.357143,54.071439,11.476703,31.465089,8.047276,27.713819,4.513479,21.988012,-25.049257,280.058172,-200.005057,-28.645339
36,0.37159,0.173951,-13.282036,-0.166177,0.0,-62.306385,-36.531944,-94.697857,-31.412029,-96.738853,-23.295135,-84.333344,-13.411388,-62.933235,0.0,23.138497,26.339453,56.042883,44.09387,72.994668,57.359093,82.335221,66.589113,87.99125,0.0,-20.899852,-3.388012,-21.590503,-4.081237,-21.934559,-5.513248,-20.178577,-7.184177,-17.079998,0.0,28.622452,6.846725,33.019829,0.841621,19.813459,-4.781816,15.856357,-9.491631,9.460126,-24.963856,279.814011,-213.573281,-29.229629
37,0.899048,0.809733,-13.282036,-0.166177,0.0,-61.78997,-37.26162,-94.135323,-32.008038,-96.898899,-23.554058,-84.189491,-12.938576,-62.182846,0.0,23.477754,26.294499,55.211414,43.590172,72.766438,56.455993,82.414385,65.381583,87.383193,0.0,-28.070183,-6.884708,-31.923065,-2.709904,-27.392578,0.231972,-21.353531,2.295628,-15.274086,0.0,18.165798,-0.663693,11.968218,-9.793461,8.16183,-17.610909,3.998895,-23.496742,-3.06776,-23.827314,279.917473,-226.617823,-30.102075
38,1.146469,0.057366,14.918289,11.814151,0.0,-62.178955,-36.553974,-94.439564,-31.361103,-96.980095,-22.996445,-84.109383,-12.649899,-62.905769,0.0,24.057405,26.043298,55.723942,43.225041,73.391723,56.798646,83.281669,66.793445,88.453451,0.0,-15.962448,17.345982,-18.188267,2.87075,-26.862946,-14.062901,-33.600311,-31.188068,-40.877895,0.0,17.714866,-16.510887,18.019696,-32.622094,3.470867,-40.835547,-5.320477,-42.626556,-14.867554,-21.882076,278.671628,-210.900764,-19.591136
39,0.635834,0.202974,-2.036419,4.176427,0.0,-62.863998,-35.198135,-93.961658,-29.749947,-95.652466,-21.363659,-82.716751,-11.113243,-61.879692,0.0,23.776626,25.897999,55.991198,43.215038,74.176447,56.916281,84.377615,66.878043,89.222676,0.0,-10.07143,21.904449,-9.052105,6.516552,-17.082825,-11.086407,-26.155815,-28.656693,-36.399708,0.0,13.496077,-21.176007,8.939144,-37.451162,-5.467721,-45.484859,-12.085605,-47.549454,-22.318822,-20.730658,278.511077,-212.421598,-15.778234
40,0.459938,0.929961,9.853992,-3.555249,0.0,-61.622543,-36.194458,-93.946095,-30.775452,-95.864182,-22.158337,-82.25235,-11.620903,-60.372162,0.0,23.369382,26.401883,56.696017,43.761035,74.655878,57.098877,84.820922,66.668091,89.009637,0.0,-19.558296,11.036339,-20.924492,-4.817104,-27.461243,-21.744518,-34.44397,-37.835884,-42.742138,0.0,18.542908,-16.052606,14.554171,-32.48473,-0.316625,-41.143126,-8.212897,-43.91186,-19.369221,-19.112778,278.925129,-201.409664,-19.849392
41,-0.544853,-0.307641,-4.545078,3.212411,0.0,-60.993805,-35.416088,-93.821526,-29.911423,-95.359268,-21.236572,-81.63208,-10.714645,-59.857693,0.0,23.736611,26.653454,57.198913,44.109987,75.367119,57.411952,85.377663,66.776896,89.734896,0.0,-16.12009,16.990871,-17.078705,3.054943,-23.865452,-12.891483,-32.248249,-28.592091,-42.629242,0.0,17.821231,-17.654443,8.318027,-33.642396,-2.655515,-42.072563,-10.524092,-45.335331,-18.868641,-17.767267,278.441098,-204.064379,-16.813371
42,0.511665,-0.39051,1.865902,0.497863,0.0,-61.903324,-35.913677,-94.812069,-30.154724,-95.978222,-21.355591,-81.836414,-11.042404,-60.366383,0.0,24.896593,27.74057,58.356115,45.596936,76.212729,58.872472,86.202896,67.874262,90.503195,0.0,-14.910164,18.937168,-21.138039,3.765965,-28.299294,-13.41568,-35.480747,-30.644588,-44.162922,0.0,20.446827,-17.678217,17.544404,-33.428833,3.17993,-42.113071,-4.787201,-44.915737,-16.344346,-16.216679,278.020285,-201.159554,-16.345813
43,0.24765,-0.060454,4.250393,0.661995,0.0,-62.500019,-35.11631,-95.090961,-29.4734,-96.186905,-20.882607,-82.224255,-10.770721,-60.863686,0.0,24.649344,27.121831,57.536687,45.230633,75.400588,58.84876,85.625283,68.205491,90.416188,0.0,-17.921276,13.428555,-21.74612,-1.527615,-28.035393,-18.146439,-37.173901,-34.795475,-47.210426,0.0,21.707802,-14.605609,15.155928,-30.955265,0.881364,-40.059407,-6.410496,-43.235539,-16.840881,-15.905914,278.158544,-196.846046,-15.485105
44,-0.113754,0.205444,-26.663361,-11.883527,0.0,-62.190342,-35.099201,-94.969254,-29.527874,-96.629276,-20.714836,-83.273048,-10.097008,-60.76973,0.0,24.020663,27.020931,57.549037,44.834998,75.084858,58.22718,85.40082,67.402798,90.21729,0.0,-0.285301,1.878605,-8.626442,-1.605721,-17.905483,-5.11528,-14.506588,-9.5117,-12.241745,0.0,25.077676,-3.245633,14.932145,-12.266688,7.185216,-19.502324,1.755502,-25.426319,-6.671669,-15.818739,278.515091,-223.308477,-27.217528
45,-0.3265,-0.28751,-4.234943,-9.094848,0.0,-63.066444,-35.461178,-94.729843,-29.644718,-97.011223,-20.596046,-83.785858,-9.72908,-61.236706,0.0,24.157626,27.680919,58.151351,45.295162,75.17631,58.574341,85.396559,67.823133,90.841031,0.0,-10.04179,-7.989464,-17.861938,0.821342,-10.762196,9.818344,-3.258877,17.233372,7.525177,0.0,20.400329,-9.572765,13.588796,-11.188125,16.828716,-9.903068,15.966681,-7.28519,13.991594,-15.714912,278.173102,-227.113094,-36.366855
46,-0.081367,0.627014,15.437565,6.080934,0.0,-62.683811,-34.906197,-94.074383,-29.070797,-96.516151,-20.287113,-83.470116,-9.925232,-61.224861,0.0,24.000347,27.211307,57.54453,44.930032,75.069297,58.202974,84.87236,67.314371,89.963249,0.0,-14.339561,-4.966736,-23.342743,-4.133949,-20.893822,-1.675816,-18.178253,0.658379,-14.30048,0.0,31.33503,-8.920156,20.526732,-11.290353,19.597481,-9.04307,20.899087,-4.490089,24.75574,-15.169516,278.631691,-211.048765,-30.454346
47,-0.037537,0.020439,16.547241,11.030229,0.0,-62.182674,-34.755535,-93.970413,-28.83934,-96.450462,-19.827747,-83.296452,-8.999062,-60.635376,0.0,24.333923,27.331473,57.289562,44.866985,74.930111,57.940165,84.88718,66.967951,90.369073,0.0,-24.796886,1.54335,-30.399628,-9.629917,-39.829559,-20.376663,-46.014633,-30.667191,-47.869949,0.0,29.893868,-9.273121,26.932751,-22.232958,14.265271,-29.5602,5.256905,-32.576615,-0.11288,-14.37315,278.156166,-193.667622,-19.920081
48,0.406609,0.189574,-2.623386,2.461001,0.0,-62.563477,-34.618149,-94.437847,-28.658981,-96.657257,-19.732246,-83.588619,-9.108696,-61.045074,0.0,24.282917,27.400943,57.87755,45.051125,75.124934,58.096578,85.65659,66.991478,90.135594,0.0,-17.207336,8.802109,-23.568306,-4.848175,-35.494537,-18.537998,-43.22628,-32.071838,-47.008953,0.0,29.344722,-11.368313,28.696898,-25.723616,15.899774,-34.241777,4.470298,-37.5675,-4.773523,-13.328705,278.030582,-195.653172,-17.774239
49,0.00515,0.856663,-1.933308,6.436122,0.0,-62.466545,-35.435371,-93.87846,-29.483013,-96.730042,-20.665455,-83.531513,-10.041962,-60.720463,0.0,24.475517,28.066118,57.784368,45.681967,75.185326,58.630349,85.830726,67.323942,90.978673,0.0,-11.58411,16.704998,-15.340176,1.995506,-22.0788,-14.384422,-30.56282,-30.817566,-38.599892,0.0,24.425962,-15.29215,15.930896,-30.596063,0.593051,-39.269588,-6.16195,-42.574346,-17.17705,-12.649326,278.759375,-196.912251,-11.465986
50,-0.328102,-0.312951,-5.551758,1.560989,0.0,-62.165565,-34.306469,-93.919945,-28.572693,-96.37619,-20.045071,-82.836342,-9.801521,-60.108719,0.0,25.481061,27.881855,57.877056,45.722846,75.447086,58.780958,85.985781,67.501166,91.352016,0.0,-5.793743,25.264778,-8.583584,10.320339,-17.004547,-7.125664,-24.158077,-24.529552,-32.552433,0.0,19.778997,-17.754787,16.15644,-32.640064,0.990693,-40.501941,-6.709275,-42.545416,-16.653222,-11.854076,277.909921,-201.340656,-10.441501
51,0.528831,0.67592,0.927372,2.955807,0.0,-62.141418,-34.994888,-93.680878,-29.227409,-96.343918,-20.617504,-82.007961,-10.238571,-59.117832,0.0,25.686319,28.321579,57.765781,46.007947,75.425288,58.70093,85.718526,66.916513,91.133358,0.0,0.380173,27.692928,-3.663368,13.433819,-11.949863,-3.454971,-20.16592,-21.42952,-28.727875,0.0,22.402278,-15.174855,14.202811,-30.59523,-2.633007,-39.696098,-9.521944,-43.284075,-19.658275,-9.510527,277.765024,-198.598566,-8.306511
52,-0.509033,0.963368,8.654938,-0.598454,0.0,-61.645145,-34.842625,-92.363949,-28.978157,-94.84869,-20.362587,-80.604744,-10.046425,-58.309193,0.0,25.375529,27.98399,57.935595,45.549265,75.253745,58.282571,85.625221,66.583864,91.143546,0.0,-10.009975,20.749912,-6.826687,4.489689,-12.753582,-13.467922,-25.146446,-31.751518,-34.78323,0.0,25.235942,-16.713459,16.620463,-31.366739,0.340183,-37.990675,-5.266878,-38.704201,-14.054054,-9.237185,278.698196,-189.161253,-8.935161
53,1.071854,1.280518,-2.755165,11.182351,0.0,-61.957226,-35.305595,-93.368969,-29.555054,-94.691162,-21.066456,-79.720001,-10.942497,-58.062859,0.0,24.116068,27.804235,57.20058,45.384824,74.772339,58.065147,85.852339,66.229602,90.716419,0.0,-0.815048,29.003391,-2.94817,14.727974,-11.227455,-3.242626,-20.399494,-23.013039,-30.112381,0.0,21.077824,-16.605519,12.386639,-33.697292,-5.114015,-43.279073,-8.713323,-46.44903,-18.97408,-7.198019,280.107557,-190.949106,2.376032
54,2.056389,0.425831,-0.766983,4.820299,0.0,-63.582115,-35.210209,-95.36396,-29.348087,-96.207333,-20.863094,-81.797104,-10.93689,-60.247135,0.0,23.910686,27.111457,55.678556,45.018767,73.178252,58.158329,84.600164,66.87619,90.917108,0.0,1.918373,30.734253,0.771103,17.42094,-7.419834,1.549931,-15.386467,-15.922966,-23.811665,0.0,24.282578,-18.696388,15.111098,-33.436829,4.193223,-39.147353,2.015595,-39.464812,-8.549375,-2.793989,280.770525,-189.368448,7.433468
55,2.267418,0.393906,-4.522591,6.884893,0.0,-64.283695,-34.377193,-95.82962,-28.326073,-96.707382,-19.775162,-82.646198,-10.039215,-60.241814,0.0,24.005349,27.647203,55.456995,45.338449,72.734884,58.390263,84.318026,66.937879,91.307185,0.0,26.695004,31.417065,26.061687,16.253986,6.172485,-0.81562,-7.187576,-17.52943,-14.624176,0.0,16.881142,-20.281213,28.584667,-28.207526,15.452547,-29.568228,8.472187,-26.658733,3.785794,1.100893,281.44294,-192.263575,14.596871
56,2.42775,-0.897666,3.640308,-4.080683,0.0,-65.742416,-35.413456,-96.908226,-29.298706,-98.237286,-20.582199,-84.458828,-10.592079,-61.495743,0.0,23.448113,27.669125,55.479164,45.683202,72.322947,59.150473,83.426103,68.225622,91.515407,0.0,35.152016,23.422279,34.913063,8.605671,12.786255,-7.670975,-1.666775,-23.005943,-12.786827,0.0,20.97819,-9.758942,34.619998,-13.695068,41.245941,-12.887681,41.727779,-8.511924,36.249746,4.556179,281.77735,-187.59573,11.748263
57,2.357941,-0.067184,-0.069065,3.295836,0.0,-65.70116,-35.566235,-97.462578,-29.346886,-99.452877,-20.512161,-85.438271,-10.533943,-62.70607,0.0,21.401149,27.193646,53.349268,45.395074,70.013667,58.91755,81.929582,67.885068,89.917739,0.0,33.366623,17.949429,42.843304,6.268215,25.116348,-6.397419,8.559494,-17.651711,-6.658459,0.0,18.536239,-1.030244,33.773678,-0.472607,42.182818,0.802663,44.682845,3.353294,42.424972,8.324804,282.713779,-186.25411,16.047713
58,4.235115,-1.014436,15.457363,37.356776,0.0,-68.063965,-35.887356,-99.853249,-29.760818,-101.099968,-21.237831,-87.545242,-11.957474,-64.51807,0.0,20.6988,26.518961,51.153486,45.124299,68.590011,59.047288,81.133125,68.28342,89.793374,0.0,46.714554,28.611889,54.081001,11.565857,14.192963,-7.659702,1.510448,-26.668053,-10.534229,0.0,64.381165,-0.979856,73.440135,-5.194383,51.093372,-4.070803,46.492132,1.116139,45.102871,14.624577,282.60743,-168.73209,54.312575
59,2.975464,-2.322433,12.525673,14.981854,0.0,-67.895794,-35.858173,-100.228729,-30.140247,-101.951752,-21.894493,-89.030685,-12.550964,-65.791969,0.0,19.377403,26.830369,50.595262,45.592923,66.244977,59.62805,80.181675,68.837075,89.181551,0.0,38.206844,25.427055,57.733955,7.81414,24.466896,-10.684433,5.796032,-27.443619,-6.838245,0.0,65.597432,15.860809,82.544277,21.083196,78.880192,27.567453,66.212528,34.274103,64.565212,20.361729,279.486826,-153.444729,68.496259
60,2.757912,-1.464596,-1.50919,14.844552,0.0,-67.784157,-36.65411,-101.223965,-31.458778,-102.130451,-23.653107,-89.753838,-14.438438,-66.901131,0.0,15.784702,26.571388,48.950725,45.23051,63.97954,59.233527,79.764119,68.183817,88.054791,0.0,34.74329,27.659569,59.313927,13.579273,38.687267,-1.511135,19.493408,-17.825031,3.947353,0.0,53.269888,23.764214,79.936557,32.380033,92.781507,40.513241,87.173334,47.332833,81.256472,23.684149,277.996341,-154.38941,83.314922
61,2.334023,-1.992748,13.522396,37.832779,0.0,-68.954144,-36.667385,-102.397385,-32.049866,-103.816051,-24.973526,-91.829224,-16.341248,-69.038944,0.0,14.143191,27.163327,47.02899,45.45806,62.240649,59.235009,78.038195,68.236552,87.920978,0.0,37.604885,28.679466,72.365456,12.131023,43.538132,-5.724106,26.923599,-22.407818,8.309498,0.0,52.207689,23.182525,85.673757,33.657927,88.184775,42.523618,84.787453,49.322092,76.960094,26.605997,276.86126,-140.279188,122.005368
62,-0.309219,-1.965022,0.154324,17.809251,0.0,-68.045654,-36.836872,-101.112213,-32.304611,-102.737961,-25.135345,-91.893654,-16.128159,-69.782753,0.0,14.653126,28.386541,47.86577,46.655771,62.607816,59.966751,78.315207,68.392472,87.82829,0.0,39.479141,30.991745,78.779354,16.770515,56.306705,1.304626,37.842064,-13.998642,20.005875,0.0,52.968639,27.555627,83.319769,40.938671,94.10275,52.020276,93.306355,60.81125,88.416463,27.126331,275.084732,-139.295311,140.003112
63,0.81562,-0.690308,1.581917,23.378274,0.0,-69.259071,-37.504807,-102.627296,-33.081779,-104.094086,-26.033592,-92.754707,-17.253571,-70.522785,0.0,13.860374,27.658689,46.60458,45.876542,61.780361,59.125093,78.064994,67.449049,87.379735,0.0,71.17487,29.292126,76.994019,18.316727,72.299309,5.306225,55.7337,-10.182724,28.65881,0.0,39.951096,24.716282,68.609771,37.530851,85.22619,48.542369,91.595683,57.671797,85.668323,28.797598,274.300239,-136.857748,163.287201
64,-0.892181,-0.915079,21.553917,35.205268,0.0,-67.716866,-37.22414,-101.181221,-32.762833,-103.407497,-25.711098,-91.196423,-16.977425,-68.563499,0.0,16.500328,27.132699,46.910244,45.330854,62.517723,58.644305,78.479093,66.894098,88.036883,0.0,66.894093,29.313812,81.631565,16.48716,68.889427,2.472439,48.342819,-11.762924,27.354069,0.0,28.418528,26.560396,72.077242,43.04825,74.89022,55.867944,71.643384,64.846763,73.065804,29.190388,272.626355,-114.01886,197.733665
65,1.538544,-0.244346,17.188396,22.638133,0.0,-51.536922,-37.96257,-102.542553,-34.398422,-106.428566,-27.736816,-93.926353,-19.129143,-71.513557,0.0,13.696303,28.943344,48.233062,45.924708,63.139796,58.318695,77.306267,66.388238,88.163224,0.0,64.558411,38.632278,65.86813,25.953083,52.789993,11.556072,39.566002,-2.387867,26.865005,0.0,30.674826,37.103106,84.075903,54.732848,104.832748,67.286213,105.706208,75.38904,93.590221,32.150116,271.995405,-95.409279,219.985194
66,-0.403061,-0.421385,-5.834827,11.480081,0.0,-55.222034,-38.958149,-102.002277,-36.583099,-106.668034,-30.854073,-95.511818,-22.064781,-71.314316,0.0,15.092912,28.019126,24.599944,44.17007,51.728135,56.102287,76.103554,63.965955,89.963002,0.0,77.305641,34.060993,94.993229,23.358421,91.230927,11.985512,75.483685,0.373821,48.959656,0.0,23.290835,35.130303,70.956472,52.618267,82.216969,63.980466,88.999819,70.071651,85.345368,33.664455,271.230256,-99.326706,231.121511
67,0.740204,2.034244,3.181343,14.908278,0.0,-75.403576,-32.270393,-99.66156,-30.984879,-107.435532,-26.861687,-100.683975,-20.138054,-75.889664,0.0,-3.43746,31.959914,9.938914,48.034534,34.267156,58.801027,65.297047,64.460205,88.727438,0.0,82.701645,36.040764,99.790936,25.023422,94.829121,14.040356,76.485043,3.612499,49.161873,0.0,17.029343,36.812879,68.873507,54.449908,84.607759,65.498724,92.568437,71.003279,89.803377,36.869173,272.843964,-93.680849,245.609253
68,-6.630821,-0.918105,17.510319,15.182574,0.0,-73.01857,-32.617435,-93.791485,-26.236954,-92.158642,-17.410698,-83.222179,-6.891632,-58.369961,0.0,0.297575,39.16137,44.847719,50.543391,53.555391,57.567748,64.772477,59.458854,80.102758,0.0,82.062492,36.303463,98.695335,23.774414,89.268837,12.624149,72.639256,3.66354,55.782337,0.0,16.140137,42.521889,56.872809,62.274982,67.446208,73.292305,77.944952,77.00511,81.744022,31.169586,271.705024,-75.239296,260.570992
69,1.414948,2.522875,-1.426449,4.087877,0.0,-68.092346,-41.285419,-54.533844,-34.741058,-44.479237,-26.232719,-36.758652,-16.11454,-35.284081,0.0,5.850852,30.63722,67.430585,40.095716,74.86021,46.285515,77.423778,49.671043,74.616913,0.0,80.766735,36.556091,100.619831,25.550022,96.162815,14.700737,79.285297,4.397678,57.331181,0.0,12.690142,40.557918,68.213519,57.615913,82.952786,67.152029,92.764803,71.779173,93.209345,33.819695,274.320324,-75.430584,264.751294
70,4.420395,1.18073,13.422432,7.025715,0.0,-62.970715,-41.300583,-33.002014,-37.219105,-23.987389,-31.180344,-23.776817,-23.566933,-34.162674,0.0,9.381617,28.119903,62.763736,38.315822,74.20016,45.509251,75.377678,50.368329,73.107486,0.0,71.61581,36.637917,93.252354,24.749565,86.907291,12.649326,70.874348,1.060982,53.503361,0.0,8.97147,41.316336,63.063287,59.172888,77.821265,69.415861,84.792455,73.798967,87.130387,39.044666,275.929586,-61.203575,272.205542
71,4.336395,2.304525,-4.32621,5.621325,0.0,-63.125896,-41.792736,-22.932014,-39.695663,-11.393166,-35.23407,-12.739677,-29.123955,-22.717552,0.0,6.320525,23.368702,57.985242,36.975961,70.811853,47.878367,75.006373,55.658363,74.905843,0.0,75.279408,36.168194,100.874348,27.472687,100.396557,18.498573,85.237484,10.301857,65.711975,0.0,-0.060948,33.494288,58.597498,51.49194,73.117243,62.691982,83.545776,69.269636,88.607395,43.954668,278.573615,-64.956179,278.166371
72,-1.679306,-1.024192,5.344334,0.395882,0.0,-54.92094,-31.999283,-26.076965,-29.174423,-16.151962,-24.604454,-11.55407,-18.645287,-14.127846,0.0,6.037029,24.216721,49.483754,38.429319,63.931004,49.214461,69.885905,55.912652,74.132049,0.0,74.767685,34.109917,99.902916,25.755501,100.008316,17.163334,84.537964,9.518738,65.23922,0.0,0.522964,35.912619,59.940878,53.108442,73.053454,64.072536,81.58662,70.57152,85.697839,42.881298,277.450761,-59.005909,278.463591
73,-24.63255,3.697923,4.435444,1.131885,0.0,-18.184347,-14.049453,12.129765,-15.606794,16.539231,-17.506227,14.569016,-18.817663,2.163163,0.0,-3.713824,19.119595,39.527242,36.612406,57.133303,50.010208,64.906569,59.829388,70.007678,0.0,71.551495,34.588108,100.80534,26.0606,100.847797,17.029667,85.093632,8.664322,63.039379,0.0,1.119164,34.490446,53.568112,52.015583,68.216792,62.921076,76.617503,68.758651,78.177257,18.495769,280.909262,-54.323444,279.356054
74,-24.632549,3.697924,1.334438,0.816217,0.0,18.552246,3.900375,50.336494,-2.039165,49.230423,-10.408001,40.692101,-18.99004,18.45417,0.0,-13.464677,14.022469,29.570729,34.795493,50.335601,50.805954,59.927231,63.746124,65.883305,0.0,72.820816,34.875641,102.159462,26.569061,99.22863,17.680721,84.847527,9.235954,62.979584,0.0,2.690033,34.771533,52.275861,52.254248,66.001372,63.105216,75.289684,68.838618,77.164241,-5.682535,284.236405,-52.534761,279.801491
75,-1.844387,-0.164194,0.606594,1.72191,0.0,24.567776,2.687759,53.467197,-3.949127,53.565845,-12.245636,45.59927,-21.292763,26.607456,0.0,-9.011793,12.691377,32.465403,33.24247,53.33309,49.45078,61.861069,62.263558,67.490854,0.0,73.114872,34.003658,100.771351,26.239643,99.944515,17.9496,86.173382,10.356045,66.065769,0.0,4.588797,33.454706,51.955747,51.124031,65.129024,62.582375,74.054984,69.071232,75.57355,-7.285309,283.692894,-51.686554,281.144084
76,7.740669,1.154609,-0.503826,0.186116,0.0,9.406414,-3.539429,39.972439,-7.735519,40.353985,-13.8727,33.18449,-21.004658,15.279865,0.0,-2.368622,15.895235,35.561568,34.953018,52.257768,49.118995,58.411258,59.438538,63.15474,0.0,72.122383,34.245529,101.096992,26.310024,98.806229,17.645588,84.750137,9.356346,64.431038,0.0,5.251811,32.857826,50.367094,50.458176,63.585264,61.736395,73.540418,68.093723,76.020747,0.723209,284.768416,-51.922531,281.251113
77,12.028484,4.858646,1.664085,0.046807,0.0,-10.960236,-21.803513,24.955788,-26.279068,29.402046,-30.18013,23.973541,-33.189182,5.451736,0.0,12.531937,17.82685,38.171635,31.35865,50.714687,40.424228,51.693863,46.631812,54.897784,0.0,72.710266,33.510647,98.289413,25.500641,96.431465,16.670837,82.789421,8.279915,62.84935,0.0,6.024432,33.952414,50.546911,51.592407,63.651151,62.905639,73.06951,69.266302,74.826494,12.955914,289.585458,-50.054226,281.256315
78,3.431625,-5.148132,-0.00206,0.116523,0.0,-5.660706,-22.868443,20.694809,-27.669182,25.582466,-31.486816,19.077187,-34.608135,1.731262,0.0,-3.835936,19.429644,35.817709,38.862684,52.206577,52.913125,58.478072,62.594108,64.354736,0.0,71.092758,33.02187,98.096008,25.029945,95.282707,16.437321,82.023811,8.228989,61.887589,0.0,6.728201,34.27117,50.472008,52.003789,63.697032,62.93497,73.576666,68.71981,75.441899,16.503611,284.336827,-49.940214,281.272339
79,-8.967247,16.404738,0.778713,0.834866,0.0,5.476341,-16.257019,28.931465,-22.53067,33.93734,-24.47382,26.525917,-24.085121,2.123337,0.0,-12.520328,6.317808,20.174786,23.3411,36.740754,37.345167,45.836158,48.048057,49.678762,0.0,71.925488,32.003345,97.027416,24.122887,94.507198,15.870209,81.656742,8.221035,62.043056,0.0,7.455806,33.403268,49.549827,51.237713,62.423121,62.374029,72.004994,68.30071,73.831571,7.606659,300.646269,-49.091206,282.011909
80,-15.909405,7.911154,0.332623,0.031801,0.0,25.525303,2.747555,46.030254,-1.829567,53.79427,-4.902649,46.501408,-7.312489,29.707775,0.0,-21.332236,4.315551,14.315845,19.56673,29.597652,31.756817,36.888832,40.787197,43.269625,0.0,71.715317,31.462841,96.896896,23.700943,94.693222,15.524654,81.977921,7.904663,61.956024,0.0,7.671501,32.811328,49.395266,50.448111,62.716744,61.61487,72.603417,67.594347,74.946475,-8.276567,308.437627,-48.732405,281.923914
81,43.552723,-19.370734,0.33926,0.158143,0.0,-26.352539,-40.571537,0.414963,-46.188641,4.752159,-47.438908,-2.814331,-45.862827,-24.214554,0.0,0.051747,13.893349,33.169481,31.347597,48.855753,44.258311,52.72244,53.586205,59.243716,0.0,71.134129,31.216221,96.901646,23.61969,95.647488,15.609341,82.407932,8.187447,62.20293,0.0,7.648591,32.099408,49.474924,50.045807,62.326976,61.643028,71.910269,67.921625,74.99464,35.291405,288.734923,-48.377895,281.750087
82,-22.441177,17.604054,0.661182,0.294302,0.0,14.547615,-15.676746,24.293747,-22.194672,26.623878,-24.627228,21.343117,-24.146461,2.674255,0.0,-9.355558,3.831551,19.130772,16.702004,32.459166,27.566187,39.36774,36.201858,41.51579,0.0,70.139351,31.055431,96.08036,23.513832,95.562973,15.587769,82.112503,8.276138,61.598511,0.0,7.376766,31.543654,49.060023,49.646652,61.43709,61.562999,70.709347,68.262116,74.149524,12.851372,306.164332,-47.715569,281.869744
83,19.900589,-21.280365,-0.003777,0.337713,0.0,-26.684074,-40.12001,2.899017,-45.819454,8.095551,-46.871281,1.842041,-45.362434,-17.098389,0.0,-0.78633,17.043793,37.80601,36.644979,55.269644,50.891664,60.573449,60.954573,66.514827,0.0,70.068855,30.992546,96.166534,23.371925,95.59021,15.31826,81.420593,7.748508,60.637436,0.0,7.659212,31.248549,48.246894,49.355005,61.186939,61.337734,70.513598,68.17758,74.724544,32.755365,284.587534,-47.71594,281.911024
84,-16.058578,16.260551,0.341434,0.310049,0.0,11.868782,-23.3535,21.298027,-30.266018,22.582626,-31.821499,16.081352,-29.68935,-1.299706,0.0,-1.185361,7.746527,21.792585,21.666923,37.330656,32.952058,42.954266,41.595633,48.999075,0.0,69.990177,30.140934,96.151028,22.667713,95.873165,14.924698,81.786289,7.68259,61.087017,0.0,7.568501,31.628746,47.50558,49.663448,60.587343,61.482106,69.789636,68.111569,74.117105,16.668034,300.604649,-47.403259,281.977637
85,11.731682,-10.905679,-0.682411,-0.057798,0.0,-27.590389,-40.892487,7.373886,-45.626736,13.265648,-45.650539,7.028046,-42.603321,-9.905319,0.0,11.419071,16.00793,33.606427,32.645837,47.888494,44.769419,51.293659,53.384775,56.62272,0.0,68.989735,31.127014,98.202496,23.241692,97.074108,15.04137,82.728939,7.312889,60.81007,0.0,6.75142,30.934178,47.091729,48.666179,61.557627,60.414195,70.739172,67.075891,74.765793,28.31583,289.557747,-48.169556,281.778615
86,-13.539047,16.076288,-0.454502,0.091576,0.0,6.81839,-19.918098,28.372765,-28.006439,31.00708,-30.449409,23.740654,-29.768887,2.749786,0.0,-15.682999,1.090574,16.473775,15.849169,31.208041,28.916359,40.92558,39.669329,43.790366,0.0,69.815712,30.640469,98.134804,22.937336,97.607689,14.89769,82.746277,7.369194,60.787239,0.0,7.31483,30.586029,46.905119,48.712801,60.889796,60.73647,70.144578,67.428486,74.673476,14.720678,305.496625,-48.680162,281.732781
87,-12.349777,1.348567,-1.169014,0.36513,0.0,11.484947,-9.939823,38.021164,-16.218739,41.977158,-18.853397,35.043182,-19.222698,16.970901,0.0,-16.192255,2.99261,16.680021,16.767336,30.077946,28.395803,37.640643,37.454712,43.401524,0.0,69.496193,31.245403,98.791351,23.679314,98.063049,15.837021,83.411293,8.609047,62.176323,0.0,6.86362,31.883961,47.079564,49.78028,61.37639,61.398373,70.489516,67.723591,74.440863,2.210941,306.717785,-50.009136,281.970505
88,-4.657288,6.318858,-0.404491,-0.496967,0.0,19.278488,-5.951328,43.861313,-12.629642,46.382675,-15.600872,36.671677,-16.758442,17.025375,0.0,-24.315213,-0.784786,12.241155,13.805663,27.002158,26.206751,34.502487,35.974185,40.783924,0.0,69.306164,31.438866,99.022808,23.663864,98.016415,15.661869,83.506451,8.414955,62.173176,0.0,6.865226,32.16474,48.147599,50.084092,61.818461,61.737691,71.16099,68.117559,75.187116,-2.579298,312.89417,-50.546579,281.331064
89,34.759712,-18.59132,-0.159359,0.131281,0.0,-38.959236,-45.350933,-1.296387,-47.428379,6.828346,-44.881897,2.309189,-39.500542,-15.009727,0.0,15.337938,12.347242,34.501499,25.545281,44.748795,35.546933,46.025052,42.656876,49.793865,0.0,69.155731,30.781002,98.929939,22.916565,97.81723,14.991875,83.505478,7.882118,62.148857,0.0,7.296923,31.557486,48.17304,49.605156,61.923992,61.443821,71.498826,67.970099,75.557619,31.924868,294.074249,-50.961485,281.233745
90,-8.792725,8.903421,0.598469,-0.295352,0.0,-0.993462,-26.806469,16.463699,-32.58894,18.694611,-33.099689,11.744843,-29.771175,-10.497437,0.0,-2.033318,6.436492,19.855474,19.460025,32.563339,30.014282,41.221302,38.439261,46.750496,0.0,69.132557,29.720879,98.199863,21.709499,97.077312,13.856106,83.042164,6.981983,61.905499,0.0,8.021687,32.1443,48.584236,50.230934,62.799181,61.945852,72.159061,68.138924,75.985302,22.863464,302.822585,-50.631695,280.783307
91,4.751015,5.238226,-0.384235,-0.32666,0.0,-51.356049,-46.43961,0.113869,-45.496101,11.218071,-40.901756,10.229988,-33.577766,-6.870918,0.0,25.953142,9.305849,31.59429,11.576844,32.265023,11.261423,26.144816,9.277197,21.992286,0.0,68.882103,29.816265,98.291473,21.668758,96.578636,13.823891,82.299042,6.960011,60.869865,0.0,7.838165,31.330492,48.659572,49.723469,63.142884,61.872987,71.802082,68.524679,75.443936,27.257853,307.853808,-51.372557,280.249644
92,-4.457817,-5.913281,0.331993,0.370194,0.0,-2.798996,-30.65403,14.997482,-36.05072,17.125397,-35.779095,11.052017,-31.743279,-3.185692,0.0,10.489913,8.62715,21.978577,19.95057,33.250991,28.525418,39.317475,35.093006,42.702139,0.0,68.826256,29.785538,97.7742,21.638031,96.512947,13.590832,82.110558,6.385918,60.335999,0.0,8.18193,31.400517,48.619804,49.495857,63.158445,61.403498,71.685004,67.891367,75.47864,22.405214,301.807995,-51.435385,280.487306
93,2.545509,0.88229,-0.050697,-0.14499,0.0,-47.578926,-47.016163,4.067116,-48.112278,14.520378,-44.674587,12.22538,-38.543701,-4.860764,0.0,26.903049,7.714108,33.063394,14.925692,38.035228,19.946309,34.7146,23.342088,35.151237,0.0,68.607903,29.647865,97.878914,21.452522,96.514549,13.304844,81.773529,5.986061,59.623375,0.0,7.808093,31.47048,48.785234,49.445407,63.348266,61.363113,71.604234,67.898036,75.679699,24.68256,302.528313,-51.754246,280.180345
94,-5.555992,0.692778,0.262241,-0.13548,0.0,1.81057,-30.234318,17.134094,-36.136665,19.752045,-36.28624,11.599731,-32.907143,-11.107292,0.0,10.694924,7.762397,19.834726,19.240008,32.282807,28.214628,38.727821,35.137158,45.531728,0.0,68.714504,29.532566,97.680531,21.315937,96.194515,13.170261,81.352558,5.818348,59.213963,0.0,8.094985,31.776577,48.935966,49.651036,63.252861,61.450799,71.807393,67.943855,75.834137,18.988581,303.138469,-51.629992,279.962243
95,1.027336,-15.619087,0.000572,-0.314495,0.0,-26.840286,-40.769005,10.850487,-45.447693,18.908844,-45.422859,13.88546,-42.773552,-3.46035,0.0,13.240523,14.44762,34.503907,32.712837,49.466032,46.477868,53.219901,56.392884,58.673636,0.0,68.823338,29.481068,97.583256,21.273708,96.14336,13.040028,81.362057,5.616474,59.147701,0.0,8.681923,32.176658,49.406134,49.956269,63.723338,61.63006,72.398777,67.950215,76.307639,19.883909,287.423684,-51.761427,279.55205
96,-13.835449,16.859159,0.426922,-0.228353,0.0,11.955757,-18.224716,32.542992,-25.138035,34.132805,-26.76281,27.007027,-25.324402,4.558983,0.0,-12.254061,4.901871,22.9467,17.229723,34.379974,28.235685,42.564312,37.47719,46.467494,0.0,69.476967,28.985367,97.096825,20.482464,95.267029,12.272415,80.539742,5.035973,58.148117,0.0,8.582813,32.043647,49.346113,50.082054,63.849432,61.88441,72.823805,68.1677,76.446948,5.845156,304.207384,-51.537809,279.248238
97,17.938271,-5.632008,-0.293369,-0.026182,0.0,-48.491135,-46.438808,4.009552,-48.917027,12.676048,-46.562347,9.705963,-41.616497,-7.156677,0.0,24.724,11.130944,31.840797,21.861992,39.218181,29.321072,38.175648,34.478404,39.097335,0.0,69.802837,29.008312,97.389393,20.586834,94.922276,12.333241,80.114765,4.959869,58.2728,0.0,8.543231,32.249894,49.30616,50.034074,63.936624,61.499273,72.849802,67.523582,76.762493,23.582182,298.402799,-52.032423,279.049479
98,-3.833885,2.320333,0.544624,0.416383,0.0,3.794632,-31.329975,18.801384,-38.167706,20.28511,-39.052963,10.571823,-35.861664,-21.237946,0.0,-1.328128,8.973323,22.652274,22.568355,34.640808,33.146386,42.936914,41.350052,51.309467,0.0,69.961452,28.937302,96.932201,20.481892,93.668575,12.377815,79.07095,5.312462,58.156414,0.0,8.200146,32.197221,48.70854,50.261933,64.134595,61.865824,72.432739,67.973495,75.382803,19.521446,300.513196,-51.714649,279.255926
99,1.241455,-12.400903,0.275288,-0.259846,0.0,-31.343994,-41.169376,9.015884,-46.456547,13.830528,-46.749916,10.253105,-44.274387,-5.968781,0.0,13.49086,14.745751,33.491077,31.691423,47.84249,44.206688,51.08451,53.171118,56.007068,0.0,70.025368,28.692226,96.930885,20.201454,93.969498,12.078438,79.488716,5.019321,58.028297,0.0,7.616913,32.412791,48.788198,50.404515,63.750755,61.931279,72.229642,68.021105,75.789121,20.497999,287.981769,-51.704264,278.865555
100,-17.92757,17.184337,-0.579014,-0.362537,0.0,18.540516,-14.746513,34.940128,-21.224098,37.658787,-23.026657,30.092754,-22.055626,9.943829,0.0,-11.37387,1.390434,19.573028,13.847839,32.018083,25.47822,40.581939,35.300488,43.461731,0.0,69.810505,29.530334,97.374287,21.203785,94.58971,13.059082,80.009708,5.859432,58.763294,0.0,7.953083,32.761805,49.136532,50.684491,64.154788,62.142404,72.649051,68.248037,75.739227,2.325497,305.077169,-52.52821,278.414083
101,15.080624,-16.452286,0.630913,0.18062,0.0,-27.40551,-38.796272,12.434464,-42.724743,17.208252,-42.466908,14.177284,-39.530582,-0.934181,0.0,18.28195,15.365602,33.629707,30.816049,46.93019,42.02307,48.313584,49.757185,52.590356,0.0,69.932613,29.413662,97.364101,21.178322,94.826145,13.001804,80.123806,5.791397,58.67403,0.0,8.025825,32.675601,49.00735,50.758098,64.144043,62.302337,72.132694,68.41816,75.261834,17.14365,288.535963,-52.159767,278.505782
102,-7.544518,-3.678102,0.828438,-0.299736,0.0,-15.53524,-28.638153,21.920471,-33.229809,25.308037,-34.548454,21.272049,-34.268875,6.055756,0.0,9.336354,15.166457,32.197776,33.33454,49.496907,47.308843,54.494245,57.360019,59.422668,0.0,69.824009,29.408913,96.5518,21.030693,93.993244,12.545929,79.127598,4.902706,57.189045,0.0,8.289561,32.527153,49.083179,50.502821,63.785953,62.041442,72.30399,68.202219,76.285965,9.331598,284.791125,-51.598864,278.139309
103,-17.145653,18.538338,0.506802,0.115165,0.0,21.234398,-5.357208,48.012657,-13.472443,50.259132,-17.421627,39.137535,-19.766064,15.325699,0.0,-18.95046,2.153669,20.779569,18.345862,33.405861,31.955344,42.060923,42.217151,48.786592,0.0,69.74968,29.273758,96.353531,21.203499,94.518929,13.01199,79.481277,5.610638,57.766342,0.0,7.377754,32.728151,48.652841,50.786441,63.317884,62.41392,71.209958,68.707893,75.182609,-8.267813,303.230492,-51.54582,278.155503
104,9.700871,-18.820352,-0.190086,-0.578293,0.0,7.276554,-16.699276,33.361759,-22.775059,34.452038,-27.03186,27.702885,-30.141678,10.627956,0.0,-0.383717,14.838686,29.693427,33.333119,48.168038,48.252142,55.373756,59.522704,60.935368,0.0,69.096336,29.254761,96.889,21.193428,95.693436,13.049355,80.661392,5.65258,58.625565,0.0,7.90325,32.553273,49.329193,50.65306,63.79997,62.365323,71.809122,68.589949,75.706623,0.85722,284.382383,-52.311745,277.549453
105,-17.768898,20.829772,0.32999,0.474305,0.0,25.831318,4.903336,57.51543,-2.59449,59.028339,-8.626614,43.773708,-13.605366,11.675892,0.0,-22.762252,-0.220634,18.768667,15.760558,33.003928,29.853916,40.579221,41.109225,45.819547,0.0,69.888096,29.667263,96.830006,21.633968,95.399151,13.467579,80.696468,6.089802,59.177341,0.0,8.047005,32.577727,49.170742,50.521841,63.456329,62.12851,71.495492,68.417789,75.276469,-17.322378,305.216494,-52.392454,278.028096
106,23.798847,-19.310404,-0.138988,-0.346235,0.0,-2.3909,-23.769207,24.063606,-29.258881,26.565514,-32.539101,20.926666,-34.244442,5.499916,0.0,5.625277,15.102298,32.973794,31.746443,49.501847,44.946211,53.799676,55.124778,59.203393,0.0,69.952698,30.008583,97.041092,21.717281,95.360756,13.19315,80.360069,5.41563,58.217697,0.0,8.063492,32.806697,49.564462,50.560743,63.980281,62.014704,72.190863,68.083472,76.306713,6.088257,285.906584,-52.919655,277.682356
107,-14.263744,-1.128674,0.121078,0.058416,0.0,22.503147,-5.291519,44.598141,-12.989616,43.283443,-20.299358,34.222355,-27.03867,14.722767,0.0,-4.213786,10.961192,25.880524,30.648767,46.451068,47.434196,55.518993,60.739558,61.84631,0.0,70.147247,29.788055,96.978264,21.525364,95.251236,13.154869,80.462723,5.621281,58.6409,0.0,7.688791,32.861778,49.253858,50.755751,63.648064,62.346736,71.704331,68.518504,75.927504,-8.441648,284.769327,-53.064737,277.732188
108,3.302307,-2.026093,-0.196266,-0.15944,0.0,16.112423,-10.98753,41.525631,-20.138912,39.436054,-27.776356,29.320278,-33.907871,6.932087,0.0,1.298117,12.547128,29.281057,32.852145,49.395698,49.883897,59.440947,63.112811,65.01071,0.0,70.529823,30.238094,96.914062,21.799049,94.984474,13.1674,80.468903,5.327911,58.439598,0.0,7.966174,32.714072,49.505614,50.529621,63.52444,62.161361,72.29905,68.431807,76.711302,-5.372,282.753269,-53.493662,277.582783
109,-4.350758,8.556508,-0.072727,0.928973,0.0,10.725632,-10.669785,44.40937,-18.21476,53.796158,-20.85268,40.06794,-21.018505,11.880913,0.0,18.496286,11.15373,29.168919,28.40661,44.820734,42.971062,49.81628,55.339175,53.098932,0.0,71.216297,29.311638,96.150684,21.130428,94.617405,13.003693,79.603214,5.700245,58.449955,0.0,6.714246,31.252748,48.591523,49.315732,62.733355,61.105676,71.390207,67.557606,75.432142,-9.860001,291.293675,-53.703632,278.495655
110,11.957588,-7.041214,-0.224762,0.044646,0.0,-0.815048,-20.496483,31.903267,-27.530365,32.12059,-31.904869,24.490585,-35.076599,6.07933,0.0,-0.830049,14.05038,29.654092,34.292412,49.077807,50.226735,57.168099,62.065277,61.854832,0.0,71.159649,29.236336,96.491261,21.187763,95.069447,13.146,80.200253,5.876198,59.031544,0.0,7.019602,31.293812,48.126851,49.327464,62.622575,61.086719,71.371064,67.433117,75.532054,1.993961,284.247011,-54.032021,278.534851
111,-15.543938,20.087347,0.042973,-0.006731,0.0,23.458099,-4.684181,48.235359,-12.398071,53.452492,-16.495228,43.810387,-18.902836,22.077713,0.0,-22.402308,-0.34432,16.334589,16.619444,33.5829,31.282944,40.681295,42.773893,45.877716,0.0,70.957031,28.754597,96.452065,20.712719,95.003357,12.707977,80.264282,5.351143,58.596611,0.0,7.423017,30.732686,47.697562,48.721075,62.157471,60.477921,71.563232,66.767818,76.276455,-13.607483,304.326655,-54.046555,278.520417
112,17.268562,-20.968217,0.418282,0.073112,0.0,3.659477,-20.930271,31.642342,-29.170589,30.924911,-34.407291,21.882591,-38.241463,3.273354,0.0,-2.795071,13.87927,30.191752,34.271911,49.446272,50.850476,58.353275,63.39569,63.717904,0.0,70.826111,28.5359,96.168251,20.501633,94.764061,12.496719,79.896126,5.20792,58.393593,0.0,7.477049,30.957149,48.404234,49.166172,62.813198,60.954511,71.913789,67.070704,75.920526,3.578367,283.352695,-53.710985,278.587786
113,-18.903351,18.283556,0.089436,0.370008,0.0,28.276749,-2.843056,47.624931,-10.709667,53.871231,-15.037365,45.784492,-17.62064,25.479927,0.0,-16.734917,1.059699,14.004561,18.494681,32.703265,33.954514,42.064134,46.062164,48.010081,0.0,70.56673,28.873501,95.576305,20.962257,94.551945,13.057594,79.585018,5.852623,58.178616,0.0,7.27741,31.60948,48.087886,49.668697,62.780162,61.217444,70.91405,67.411196,74.774685,-15.417023,301.644263,-53.713589,278.965807
114,20.976334,-18.738039,0.064888,0.141594,0.0,-2.289734,-25.139866,27.404823,-33.17728,28.645363,-37.611237,19.565506,-40.145645,0.448608,0.0,-0.715873,16.08907,33.461004,35.944297,51.294647,51.713562,59.37228,63.495787,65.148105,0.0,70.857754,28.478622,95.95396,20.360413,94.359455,12.465706,79.457417,5.405788,58.047009,0.0,7.177065,31.380324,47.361084,49.49808,62.127831,61.147666,70.646732,67.314803,74.993899,5.48707,282.925182,-53.720942,279.126358
115,-17.523766,19.225806,0.525799,0.218411,0.0,24.160652,-5.953503,45.940704,-13.975983,50.290146,-18.315525,41.058884,-20.840263,18.614731,0.0,-18.30733,2.007691,17.680131,19.368572,35.144012,34.087648,42.896467,45.664491,48.953257,0.0,70.095177,28.541279,95.496712,20.579281,93.85128,12.767601,79.1819,5.85783,58.028984,0.0,7.692372,31.482213,47.895472,49.709082,62.098252,61.421035,69.955313,67.693766,74.15113,-12.060041,302.156591,-53.218489,279.350373
116,6.89724,-17.952944,-0.562592,-0.098739,0.0,7.710342,-12.897949,38.956833,-19.662838,41.930237,-25.139408,32.358856,-30.073185,12.529221,0.0,-0.460288,13.350069,31.356365,32.730003,49.547419,48.864213,57.711132,61.430977,64.31855,0.0,69.679642,29.173794,96.684036,20.922947,94.625587,12.925816,79.781227,5.87059,58.528061,0.0,7.590422,31.24472,48.011069,49.426018,62.61146,61.125251,70.504336,67.373281,74.86021,-5.185575,284.207275,-53.803854,279.255262
117,-12.956142,22.100596,0.210571,-0.154067,0.0,33.803844,2.439079,57.629528,-6.858215,56.22488,-13.578014,39.446926,-18.695354,17.463741,0.0,-10.060254,0.531054,22.850493,14.881849,33.966679,28.427358,40.973868,39.753063,44.889462,0.0,70.749779,28.240128,96.208763,20.074596,94.368668,12.166843,79.722061,5.172844,58.472328,0.0,8.39009,30.884469,48.25134,49.003398,62.211811,60.781733,70.839579,66.967087,75.34458,-18.156452,306.320143,-53.608017,279.113468
118,20.391941,-22.602503,-0.059452,0.293747,0.0,3.154106,-25.16613,28.423805,-31.041355,32.72438,-33.84201,26.624336,-35.053596,9.565887,0.0,0.00846,13.938118,31.933793,32.69462,50.29781,48.148155,57.384905,60.254879,63.834118,0.0,70.876064,28.122482,96.04208,20.10664,94.162159,12.413177,79.506512,5.699844,58.778057,0.0,8.031814,31.275534,47.719422,49.40317,62.158644,61.185519,70.439621,67.498079,74.371393,2.221498,283.718057,-53.681459,279.407631
119,-20.326538,18.502399,-0.073528,-0.096639,0.0,26.575127,-1.342793,53.737907,-8.650589,56.852646,-13.128719,47.652168,-15.980644,26.683731,0.0,-17.823021,3.214603,20.152247,20.707692,35.356989,34.935851,43.914114,45.896117,49.292513,0.0,69.885292,28.793049,96.116982,20.526066,93.173447,12.522125,78.545494,5.533333,57.996025,0.0,7.28729,31.45461,48.025889,49.485051,63.131151,61.202439,71.026374,67.512405,74.569983,-18.121748,302.224995,-53.771696,279.31553
120,2.886372,-19.928216,-0.4632,-0.264292,0.0,19.022198,-0.026379,52.749195,-8.84697,53.484821,-18.121891,40.143642,-26.835995,17.303753,0.0,-3.25647,12.724352,34.215162,32.450521,51.248705,48.651297,61.408994,62.181924,67.857528,0.0,69.637585,28.624077,96.138897,20.504036,95.128269,12.621288,80.370426,5.68325,59.331837,0.0,8.290178,32.478926,48.676862,50.668498,63.168881,62.127892,71.38712,68.027341,75.040891,-15.248766,282.293583,-54.248285,279.048043
