takenoko1/special-research/HandMotion_SimilarSearch_自分用/NewProject/handData/test_key/d4_feature_d2/31.csv
frame,vel_0x_L,vel_0y_L,vel_0x_R,vel_0y_R,posFromWrist_0x_L,posFromWrist_1x_L,posFromWrist_2x_L,posFromWrist_3x_L,posFromWrist_4x_L,posFromWrist_5x_L,posFromWrist_6x_L,posFromWrist_7x_L,posFromWrist_8x_L,posFromWrist_9x_L,posFromWrist_0y_L,posFromWrist_1y_L,posFromWrist_2y_L,posFromWrist_3y_L,posFromWrist_4y_L,posFromWrist_5y_L,posFromWrist_6y_L,posFromWrist_7y_L,posFromWrist_8y_L,posFromWrist_9y_L,posFromWrist_0x_R,posFromWrist_1x_R,posFromWrist_2x_R,posFromWrist_3x_R,posFromWrist_4x_R,posFromWrist_5x_R,posFromWrist_6x_R,posFromWrist_7x_R,posFromWrist_8x_R,posFromWrist_9x_R,posFromWrist_0y_R,posFromWrist_1y_R,posFromWrist_2y_R,posFromWrist_3y_R,posFromWrist_4y_R,posFromWrist_5y_R,posFromWrist_6y_R,posFromWrist_7y_R,posFromWrist_8y_R,posFromWrist_9y_R,posFromBody_0x_L,posFromBody_0y_L,posFromBody_0x_R,posFromBody_0y_R
2,0.111923,-13.833945,-0.22213,0.227921,0.0,-32.558556,-36.09621,8.740768,-44.337158,11.544113,-49.346066,-0.729904,-52.185745,-68.747463,0.0,-10.795392,14.604219,31.740823,33.407343,41.749762,47.089506,49.950217,56.974697,59.748772,0.0,68.480301,25.996799,92.080765,17.3592,90.264702,8.820877,77.739029,1.213932,57.209816,0.0,13.627945,28.65886,49.08707,46.380117,62.821596,58.61769,72.062175,65.581716,75.657469,27.661371,279.684304,-45.703382,268.842969
3,-14.435234,9.216125,0.47081,0.079782,0.0,-15.655003,-26.604481,25.88356,-36.436615,27.582092,-39.293118,16.742249,-38.804913,-39.685421,0.0,-6.47169,11.193744,25.352249,26.759665,37.599949,38.432468,44.294991,47.424069,47.131928,0.0,67.732315,25.822392,91.670723,17.281265,90.328217,8.556576,77.805405,0.659809,57.359505,0.0,13.377733,28.037836,48.673095,45.619228,62.632208,57.899224,71.873528,65.095185,75.697916,13.258667,288.903996,-45.200043,268.926317
4,5.136795,-10.088782,0.210915,0.304924,0.0,-17.679577,-27.815495,19.131432,-36.462135,22.365189,-42.280598,11.090126,-46.14006,-47.186852,0.0,-12.284318,12.866563,29.790066,32.500909,42.169603,46.976996,51.025477,57.763867,61.77505,0.0,67.372398,25.814953,91.572876,17.245731,89.975281,8.548336,77.768097,0.749989,57.676735,0.0,13.00686,28.013321,48.365022,45.595454,62.132894,57.959554,71.478263,65.31199,74.975189,18.414888,278.826498,-44.969702,269.242525
5,-10.177803,13.154505,-0.099392,-0.011486,0.0,1.239624,-21.804771,29.732094,-30.04818,35.859261,-32.100849,24.031677,-30.679264,-43.299751,0.0,-1.988919,7.015588,24.658792,22.203781,36.798182,34.342121,41.883884,43.697432,47.381523,0.0,67.062321,25.79258,91.905956,17.159214,90.257664,8.387375,77.809238,0.464115,57.39378,0.0,13.092508,28.3075,48.467466,45.885681,62.231942,58.066938,71.546683,65.205162,74.660262,8.29814,292.005395,-45.008039,269.255431
6,23.922157,-10.00369,0.478935,-0.037668,0.0,-30.616207,-41.560993,8.053093,-50.595989,10.835609,-55.017185,-1.244545,-56.879025,-63.735237,0.0,-12.309574,9.695556,26.837223,29.242278,38.573877,44.005505,47.940488,55.106376,58.676476,0.0,66.72266,25.771465,90.989056,17.083054,89.395008,8.182011,76.983433,0.077991,56.909008,0.0,13.508335,28.204562,48.581087,45.831032,62.27492,58.118006,71.516857,65.398318,74.593633,32.245646,282.037041,-44.503756,269.2531
7,-18.318672,7.738068,-0.234833,0.222981,0.0,-6.017876,-25.925446,24.544601,-34.279232,27.644119,-36.529312,17.146912,-36.080246,-49.314766,0.0,-10.964403,4.313205,20.525713,21.449129,34.171319,35.333586,41.804226,46.166955,46.100264,0.0,66.937466,25.675793,91.081753,17.180843,89.760418,8.523102,77.630253,0.684128,57.726345,0.0,13.379832,28.390493,48.001498,46.051049,61.911457,58.344815,71.190321,65.535959,74.522435,13.946514,289.807836,-44.719048,269.508809
8,-11.936646,4.018532,0.650597,-0.279482,0.0,5.45929,-14.813919,38.922844,-22.004414,43.234863,-25.475235,36.692276,-25.572166,-26.114788,0.0,-15.657928,5.80071,22.780036,20.851756,35.326299,32.273668,40.245646,40.739587,49.230331,0.0,67.06461,25.920467,90.587368,17.325668,89.138203,8.543415,76.860065,0.589199,56.759205,0.0,13.645544,28.523256,48.285364,46.322195,62.025263,58.685986,71.258926,65.90041,74.443147,2.026949,293.878099,-44.051371,269.281058
9,32.583046,-11.828971,-0.246506,0.178088,0.0,-35.914536,-42.903271,5.63736,-52.214184,8.42205,-57.019272,-4.135551,-59.305,-63.262653,0.0,-10.783598,10.868505,28.642558,30.084801,39.628389,44.44702,48.66445,55.069511,58.542231,0.0,68.086681,26.554012,91.333752,17.736282,89.544926,8.784256,77.458706,0.702724,57.126331,0.0,13.313698,27.883831,48.818579,45.906553,61.716449,58.612194,71.008343,66.247694,73.905919,34.648533,282.047554,-44.259338,269.457571
10,-19.059105,3.737073,0.355396,-0.337034,0.0,-13.908691,-30.264931,22.172127,-38.188992,25.5233,-39.244423,17.643814,-37.292004,-14.680252,0.0,-4.284861,13.150182,26.112397,28.691341,39.90713,40.461587,45.290407,49.447383,47.940735,0.0,66.992226,26.162853,90.587311,17.470322,89.046478,8.525677,77.005348,0.298405,56.433792,0.0,13.44467,27.98504,48.153589,45.971514,61.976789,58.48647,71.596453,65.917268,74.559115,15.608597,285.802612,-43.884773,269.138522
11,21.237946,-3.443388,-0.181847,-0.125353,0.0,-40.059757,-45.668221,2.206879,-55.428085,4.98642,-59.85569,-7.397919,-61.49271,-74.022045,0.0,-7.577702,10.668001,29.08148,29.048444,39.954307,43.16539,48.058308,53.825055,58.837707,0.0,66.972542,26.491756,91.687775,17.982788,90.330276,9.163399,78.488045,1.003246,58.338318,0.0,13.325862,28.006776,48.008784,46.016531,61.899848,58.586444,71.567925,66.079054,75.50334,36.860991,282.384356,-44.052172,269.038301
12,-35.447845,1.115336,0.113983,-0.160922,0.0,10.343056,-15.658894,36.229248,-23.374329,41.641273,-26.206455,33.727798,-26.948261,17.184677,0.0,-7.534415,9.489556,24.241359,26.60887,39.962767,40.496846,48.381942,51.078706,52.898429,0.0,67.109871,26.524029,91.692352,17.971859,90.262184,9.063835,78.609123,0.835247,58.338776,0.0,13.298075,28.226422,48.088566,46.133115,62.004268,58.536427,71.90502,65.82421,75.769917,1.444159,283.499275,-43.907175,268.876963
13,14.260368,-3.922139,-0.093155,0.314557,0.0,-16.398697,-19.626389,22.866096,-28.671055,25.750008,-36.14193,14.150734,-43.06366,-17.114925,0.0,-13.433987,12.373301,26.699334,31.613123,41.709748,46.31392,50.561484,57.216079,57.32723,0.0,67.345047,26.502743,90.760689,18.242512,89.890823,9.588547,78.448219,1.584206,58.927116,0.0,12.654018,27.738779,48.155627,45.501779,61.679584,57.87934,71.59244,65.276052,75.138395,15.726528,279.572659,-43.978329,269.187043
14,-11.519508,11.507869,0.299263,0.382791,0.0,7.771225,-18.615704,34.646301,-26.152039,43.33374,-28.592262,35.040894,-27.449512,-9.282131,0.0,-15.346583,2.632173,14.505789,19.963291,35.588924,34.451481,44.392927,44.963439,48.282091,0.0,66.62178,26.389618,90.919304,18.208466,89.755211,9.547405,77.88002,1.506844,58.501053,0.0,12.122594,27.307576,47.66749,44.898663,61.574856,57.246584,70.845074,64.785877,74.539972,4.207506,291.085807,-43.678579,269.575113
15,-14.092712,-1.785143,-0.113239,0.021119,0.0,13.238411,-6.659489,51.180496,-11.240444,56.668167,-12.608871,53.026886,-10.844822,18.75515,0.0,-10.556665,9.337465,27.296893,25.339529,42.453779,36.797071,46.543138,44.762194,53.057065,0.0,66.986446,26.413479,91.032085,18.312836,90.411701,9.892101,79.042912,2.206707,60.319118,0.0,11.912334,27.789106,47.601972,45.730935,61.537805,58.306098,70.536508,65.921344,73.948033,-9.883289,289.329502,-43.789902,269.625069
16,30.479393,-11.373932,-0.153351,-0.530374,0.0,-22.411652,-27.262688,18.478432,-36.796646,22.521172,-43.34301,11.200447,-47.94714,-25.263176,0.0,-10.702458,12.503223,27.391124,32.151834,42.971,47.084133,52.212876,57.863779,60.079631,0.0,67.438602,26.229172,91.259708,18.078861,90.58176,9.697609,79.186535,2.007465,59.761448,0.0,12.743433,28.584821,48.409791,46.356899,61.794131,58.602129,71.166424,65.81291,74.453274,20.596075,277.976643,-43.943281,269.115767
17,-14.956398,12.725093,-0.14185,-0.256511,0.0,6.244354,-20.785389,31.300507,-27.859612,40.636597,-29.75853,33.842239,-28.090897,0.670166,0.0,-15.035299,1.827627,13.449734,19.260509,35.483886,33.901964,44.401819,44.994129,49.234468,0.0,67.587204,25.516319,91.441383,17.491665,90.750961,9.510269,79.571342,2.29517,60.144081,0.0,13.117331,27.507709,47.810997,45.775272,61.849027,58.603611,71.641284,66.233801,75.301231,5.600224,290.734432,-44.124584,268.891953
18,-10.338936,-0.683701,0.418053,0.223475,0.0,5.497112,-12.635651,46.09623,-18.312321,50.860863,-19.738483,46.553192,-17.599812,25.631561,0.0,-11.355963,6.389624,24.939818,22.824558,40.354141,35.385703,46.128916,44.722798,49.834682,0.0,66.961212,24.999733,91.084442,16.968498,90.359344,8.914661,79.391212,1.73378,60.185738,0.0,12.610113,28.251678,47.823533,46.084641,61.947519,58.461832,71.458997,65.666623,75.043238,-4.739027,290.107094,-43.706846,269.17179
19,28.454018,-11.080617,0.121708,0.07373,0.0,-20.343018,-29.065418,17.147827,-39.502602,19.13372,-46.640167,7.451477,-51.777191,-23.705292,0.0,-12.198115,11.060178,26.479935,30.517239,42.36282,45.631949,51.996132,56.821062,58.750083,0.0,66.95097,25.303574,91.018581,17.021713,90.020885,8.851948,78.838978,1.549358,59.238911,0.0,12.916272,27.505486,47.954073,45.568099,61.768875,58.255771,71.370385,65.850639,74.823098,23.696194,279.077158,-43.603935,269.296202
20,-18.439522,13.265471,-0.082169,0.112448,0.0,8.113976,-20.179653,32.679405,-26.816711,42.318878,-28.564854,36.005287,-26.914845,-1.487846,0.0,-14.784222,0.890441,13.255837,18.210999,35.149384,32.596066,42.910114,43.595544,47.461799,0.0,67.065067,24.932442,90.601215,16.75684,90.254688,8.616199,79.23666,1.294842,59.847507,0.0,12.413685,27.268056,47.457291,45.359691,61.535768,58.059528,70.76591,65.694905,74.400169,5.253382,292.380667,-43.689394,269.446688
21,-9.499454,-3.914544,0.10294,-0.186301,0.0,5.403557,-12.801476,45.770588,-17.723465,49.592915,-18.853397,46.222744,-16.814861,16.039639,0.0,-8.351558,8.70298,26.193228,24.129961,40.812453,35.964304,45.963549,44.866367,52.271662,0.0,66.959953,24.641247,90.657463,16.445103,90.327301,8.41238,79.41227,1.318302,60.252457,0.0,12.970983,27.609844,47.870093,45.763045,61.690885,58.469613,70.862241,66.058491,74.704352,-4.251966,288.506817,-43.592348,269.30108
22,25.619373,-10.940691,-0.415478,-0.347099,0.0,-17.627907,-29.181633,18.958054,-39.231548,20.906868,-46.109734,10.708694,-51.097469,-16.224403,0.0,-9.86716,10.738582,28.745743,30.521623,45.417243,46.16257,54.675235,57.876562,59.647008,0.0,67.329998,24.949207,91.018009,16.899548,90.625134,9.046898,79.713192,2.154522,60.660725,0.0,13.243179,27.998501,48.199655,46.245501,61.660256,58.990971,70.943319,66.525324,74.643466,21.366177,277.684115,-44.009056,269.071971
23,-19.39579,13.514757,0.454903,0.364574,0.0,11.520081,-17.551174,33.243484,-23.314304,45.578957,-24.567375,40.86525,-22.474823,15.526886,0.0,-11.768949,2.297548,15.053268,19.818918,36.434904,33.956984,43.606659,44.931699,47.350895,0.0,66.503963,25.452003,91.033688,17.366753,90.339718,9.283791,79.277172,2.096558,60.226536,0.0,12.842789,27.666531,47.852,45.833379,61.408438,58.60324,70.488219,66.368046,73.999841,1.956196,291.273652,-43.568344,269.511325
24,-6.318569,-2.867133,-0.189171,-0.135851,0.0,10.599461,-9.869785,47.904224,-16.015434,51.18742,-18.595104,45.854702,-17.584591,10.155087,0.0,-9.730692,8.053736,28.675039,24.042955,42.8073,36.05835,47.811368,44.788624,52.877434,0.0,66.406803,25.167217,90.853443,17.145596,90.459766,9.152927,79.478245,2.015705,60.534954,0.0,12.711137,27.678449,47.580607,45.786572,61.117656,58.425276,70.427703,66.033729,74.207446,-4.412928,288.512683,-43.808069,269.481638
25,10.046825,-9.333019,-0.266533,-0.567425,0.0,3.747826,-7.614784,35.917397,-17.346325,36.525192,-26.887264,23.479156,-36.527824,-5.248604,0.0,-19.146333,10.723577,23.790334,29.895906,41.062171,45.053286,51.639832,56.834276,57.832287,0.0,67.404613,26.873016,91.407909,18.061695,90.01379,9.115562,78.093967,1.142979,58.19109,0.0,13.289924,28.387158,48.489079,46.400124,62.367175,58.602561,71.80412,65.665882,74.846872,5.640335,279.199393,-44.068165,268.933943
26,-6.61972,2.176208,-0.091724,-0.039212,0.0,24.285965,-10.706749,38.059273,-20.135422,47.944221,-24.015427,34.950142,-25.547619,13.29689,0.0,12.075849,8.54212,23.076252,26.325003,41.324425,42.059935,49.700992,55.587042,55.932473,0.0,67.369652,27.125072,91.398125,18.509388,89.971962,9.647484,77.840881,1.701679,58.175125,0.0,12.96524,28.470707,48.735339,46.363753,62.462579,58.503328,71.673086,65.515767,74.660879,-0.989628,281.402262,-44.170132,268.921392
27,29.321938,-1.310652,-0.689964,-0.081819,0.0,-35.941086,-34.123421,8.245926,-41.052704,11.569061,-44.442558,2.757225,-45.958214,-24.939308,0.0,-4.784545,13.142155,27.973431,31.643505,42.285818,45.294236,50.199195,54.800156,56.861385,0.0,67.733688,27.269211,91.889534,18.854942,90.495987,10.136261,78.549728,2.294712,58.900795,0.0,12.600295,28.54666,48.096717,46.502877,62.308389,58.776203,71.593366,65.862187,74.759865,28.335714,280.120509,-44.856691,268.868472
28,-6.492119,-2.16534,0.392761,-0.409837,0.0,-25.485535,-28.173237,16.738014,-35.74173,20.756607,-40.577145,11.498451,-43.706589,-12.848625,0.0,-5.031115,13.466777,28.97422,31.752988,44.480983,45.852521,52.927143,56.03183,59.759023,0.0,68.039474,27.11277,91.349602,18.670292,90.057106,9.908295,78.397522,2.089748,58.885117,0.0,12.909912,28.407536,48.102089,46.496208,62.012048,58.93447,71.553537,66.117772,74.866879,21.829662,277.977306,-44.477863,268.480772
29,-14.928932,1.382345,0.20422,0.484,0.0,-12.460041,-12.591934,30.304413,-18.334179,35.971985,-24.270172,27.285576,-30.037308,4.647102,0.0,-1.143124,12.878234,27.717969,29.033068,42.071976,41.780699,49.466897,51.515899,56.439383,0.0,67.81683,26.655865,91.34016,18.366394,90.134754,9.951954,78.715153,2.570286,59.586353,0.0,12.286665,27.980717,47.599935,46.212835,61.20812,58.76126,70.661676,66.032741,74.021454,6.834784,279.431467,-44.33959,269.036588
30,9.902687,-2.014669,-0.253258,-0.206432,0.0,-19.739399,-20.019035,22.771568,-28.620129,25.802879,-35.431538,15.543938,-41.119881,-7.710457,0.0,-4.632207,12.562689,26.594235,30.95542,43.258387,45.76922,52.729418,56.725349,60.568509,0.0,67.72871,26.914158,91.668491,18.448849,90.583363,9.819546,78.676472,2.186508,59.026966,0.0,12.310068,28.039071,47.77827,46.060312,61.901886,58.416878,71.036439,65.611295,74.24073,16.731205,277.507911,-44.599113,268.921269
31,-4.39476,1.598842,0.377254,-0.142149,0.0,-7.076797,-14.874516,28.222046,-24.088211,29.489822,-32.261009,18.29361,-39.808617,-8.365059,0.0,-12.478647,10.034504,24.031717,29.11606,41.952798,44.740026,52.737198,56.946786,59.958106,0.0,67.664909,26.985397,91.456718,18.513508,90.094185,9.742184,77.995491,1.86573,58.544998,0.0,12.341746,27.770581,48.081217,45.843321,62.320739,58.327957,71.121222,65.741773,74.257958,12.331924,279.14882,-44.226379,268.821187
32,-14.028454,14.439346,0.479221,-0.099171,0.0,18.398952,-11.5448,40.831318,-18.591042,51.044254,-20.947266,40.838528,-20.477772,18.392887,0.0,-14.238286,1.79175,16.412951,17.617331,32.123861,30.979132,39.947021,41.699436,45.188272,0.0,67.448101,27.086449,91.070538,18.598423,89.778728,9.860344,77.920017,1.984806,58.503971,0.0,12.400718,27.348455,48.062445,45.675421,62.002415,58.421818,71.005749,66.091528,74.310075,-1.709089,293.628628,-43.759718,268.762478
33,-3.501434,-5.426379,0.072441,0.072248,0.0,19.812069,-7.010822,50.589008,-12.631989,51.277943,-15.323296,43.293972,-14.449711,4.505939,0.0,-8.62678,6.371099,26.246704,22.44751,42.188684,35.271835,48.667476,45.226434,53.56947,0.0,67.904377,26.094532,91.03323,17.389069,89.847279,8.672218,78.00642,1.025677,58.574352,0.0,12.376635,26.833395,47.32953,45.444845,61.652599,58.379086,70.730157,66.050031,73.87844,-5.208693,288.229588,-43.685446,268.862066
34,8.335819,-9.841472,0.435562,-0.027294,0.0,4.768295,-5.499001,40.235939,-14.019184,40.663605,-22.715721,30.411644,-31.867561,9.856224,0.0,-14.178142,10.714623,23.981019,29.402397,40.936695,45.051001,51.519171,57.589175,58.233356,0.0,67.897739,25.530453,90.832844,17.05061,89.826908,8.602066,78.066502,1.175766,58.942738,0.0,12.227199,27.430459,47.281364,45.879198,61.79586,58.728594,70.782336,66.313088,74.084995,3.097544,278.415209,-43.279467,268.861865
35,5.985947,0.705128,-0.193806,-0.172839,0.0,-3.614616,-10.758877,32.037621,-19.313622,32.732162,-27.211475,20.356064,-35.031223,-1.42765,0.0,-13.045577,10.882275,23.690854,30.153838,39.378052,45.624909,49.792136,57.739908,56.53491,0.0,67.806473,25.99823,90.459137,17.773533,89.698677,9.472675,78.110733,1.97073,58.47702,0.0,11.365781,26.599484,46.04722,45.225261,60.801246,58.480913,70.965241,66.531129,74.43018,9.067554,279.129955,-43.489208,268.698643
36,-15.889435,11.349479,0.662327,0.705992,0.0,29.442101,-2.807121,47.398224,-10.020905,53.037987,-13.682213,37.705536,-15.297089,13.414879,0.0,-8.284806,6.668797,21.52113,23.813738,34.413999,37.751423,42.262476,49.251943,45.114789,0.0,67.760296,25.097408,90.577641,17.029667,89.424763,8.978977,77.752476,1.816864,59.304943,0.0,8.697484,26.654874,45.977381,45.04248,60.941605,58.099913,70.065722,65.997297,73.751419,-6.845026,290.53768,-42.850027,269.462882
37,44.034576,-9.51438,-1.483955,-0.714082,0.0,-38.610477,-43.333626,1.28231,-52.386818,3.904953,-57.146702,-6.120186,-58.87373,-55.587845,0.0,-10.760133,10.954338,30.837353,29.037267,43.125994,42.546096,50.966135,53.308945,59.956624,0.0,68.968678,26.143913,91.996136,17.653027,90.121593,9.177132,77.974606,1.646748,58.860455,0.0,6.359243,26.711005,47.852,44.859575,61.467225,57.474011,70.87632,64.929755,74.482297,37.129498,281.036731,-44.394035,268.762231
38,-20.105782,1.379257,-0.17458,0.424843,0.0,-10.942154,-30.291023,23.880844,-38.746319,26.520538,-40.287666,17.44194,-38.664837,1.661453,0.0,-12.343722,15.616926,31.281091,32.663745,44.867788,44.215147,50.53345,52.591344,53.211874,0.0,68.300629,26.628113,92.595291,18.237591,90.610886,9.763298,77.989311,2.337513,59.357071,0.0,0.696915,26.092451,47.311437,44.163524,61.085669,56.985688,70.619315,64.832005,73.854234,16.991558,282.45716,-44.600773,269.228246
39,-29.410343,-8.303948,0.047836,-3.01058,0.0,20.132618,5.624485,47.886028,-1.75106,40.494747,-8.436127,30.604534,-15.769901,18.372517,0.0,-12.320195,19.888696,32.679183,40.239594,45.118062,54.158446,52.282468,63.158198,56.883615,0.0,65.380325,27.838554,92.95063,20.060463,91.607437,11.772423,77.603188,4.205475,60.224876,0.0,0.991465,28.070749,51.282112,45.625156,62.813816,58.178212,72.361232,66.2761,78.136687,-12.472458,274.245636,-44.606609,266.310091
40,-21.6782,-9.138876,-1.177311,-4.052309,0.0,52.220821,17.979012,72.179089,11.067638,62.961102,3.853512,49.155521,-3.522778,21.953659,0.0,-19.66164,21.893917,42.032394,44.161795,59.830962,58.715997,66.039966,67.817575,69.407216,0.0,63.36668,25.90662,90.679607,19.374161,93.515339,12.240601,78.790112,5.287628,60.264301,0.0,-11.632049,26.368352,53.408055,43.821612,66.651851,56.404988,75.28777,64.959025,82.120947,-34.220867,265.178129,-45.85413,262.32915
41,20.673008,-0.357658,-1.737041,-12.096288,0.0,19.476357,-7.466812,26.41777,-8.61866,10.689526,-9.391422,-3.991928,-8.534775,-33.546066,0.0,-42.416049,17.931455,23.133989,41.510479,39.972585,58.045511,58.042608,70.059053,78.051533,0.0,56.054077,30.003605,87.307777,23.135834,83.074265,14.324398,53.940582,5.146008,26.727104,0.0,-20.032698,23.505727,57.448631,39.764672,75.043114,52.579056,84.135863,61.771963,84.750526,-13.559933,264.763135,-47.603245,250.175526
42,22.606316,-0.829555,7.338009,13.146354,0.0,-29.14444,-17.235146,-59.40897,-13.879395,-65.421638,-10.760937,-62.911034,-7.030792,-52.412167,0.0,-60.893625,14.976698,24.797977,37.992373,48.771155,55.294715,65.865645,67.474922,79.343228,0.0,25.482388,25.212078,-0.85556,25.317535,-13.809013,20.494423,-13.425007,12.474003,-3.479805,0.0,34.311802,15.821444,54.667763,12.454626,49.093677,9.027725,36.499495,5.597675,14.276325,9.089241,264.228253,-40.222378,263.616553
43,20.301247,-3.159583,-18.04184,-60.096304,0.0,-66.31176,-38.070602,-97.139225,-31.496429,-97.003784,-22.633781,-86.384182,-13.455849,-68.171253,0.0,23.093913,27.782251,48.547124,46.480647,62.47141,59.699249,75.364031,68.825342,83.284942,0.0,43.823891,20.638161,63.395748,22.903175,53.604927,25.061646,60.734539,27.515545,67.75034,0.0,-41.067544,12.039663,18.314061,15.04555,15.620322,15.596302,16.755233,15.375173,20.852373,28.648195,261.673376,-59.00651,204.124956
44,6.690903,4.349761,-9.209175,-58.679935,0.0,-66.340828,-38.441906,-99.694633,-33.525467,-102.481327,-26.403923,-90.897446,-18.644714,-70.468369,0.0,22.795597,27.739273,44.3581,45.932426,58.455657,58.74681,70.659761,66.84056,77.557282,0.0,23.756618,41.978416,50.222111,47.382717,67.841835,49.279747,73.767185,49.37748,78.697987,0.0,-54.018458,8.093194,14.247796,23.291144,28.992374,36.243416,44.36304,46.888879,55.409324,33.50421,267.556369,-70.050573,146.978253
45,-2.47776,-0.637203,13.989716,-2.215914,0.0,-66.87252,-36.102791,-98.667984,-30.924683,-100.976315,-23.892403,-89.556198,-16.522865,-69.94091,0.0,25.060972,28.892153,44.755834,46.999227,57.157416,59.648366,69.654959,67.610958,76.332772,0.0,49.268131,38.12027,38.610363,28.766212,29.212761,15.022087,16.91597,-1.011715,8.858242,0.0,-28.205303,-10.438166,-24.300269,-24.388572,-33.366773,-38.076601,-45.099568,-49.808901,-80.375849,28.703241,267.615217,-58.384066,145.458391
46,0.027008,-0.392547,-24.270143,-52.758656,0.0,-66.327896,-36.205215,-98.522758,-31.389084,-101.407642,-24.623108,-90.698547,-17.416878,-70.703259,0.0,25.056341,28.453725,43.596717,46.336706,56.210597,59.00363,69.25883,67.242926,76.391929,0.0,30.977525,23.704891,27.356615,23.730983,27.388544,22.365131,30.063715,20.697298,39.078426,0.0,-49.126544,-16.611911,-29.550537,-16.209329,-24.994252,-15.200081,-24.184503,-12.886709,-31.218292,28.674231,269.597729,-82.710228,95.074794
47,-1.947784,-0.093922,-24.270144,-52.758657,0.0,-65.412712,-35.608406,-97.136307,-30.61203,-99.365387,-23.608246,-89.498062,-16.174393,-70.77467,0.0,23.907845,27.629851,44.188286,45.386923,56.476371,58.059466,68.615205,66.400774,75.926763,0.0,12.68692,9.289513,16.102867,18.695755,25.564327,29.708176,43.21146,42.406311,69.298611,0.0,-70.047784,-22.785655,-34.800803,-8.030085,-16.621729,7.676441,-3.269437,24.035483,17.939267,27.396212,270.371925,-106.310606,43.184255
48,0.547371,-0.860554,12.494659,4.026466,0.0,-65.649834,-36.041794,-97.910099,-31.201687,-99.20826,-24.236069,-89.119034,-16.745796,-70.119953,0.0,23.799226,26.908668,43.904543,44.90632,56.486189,57.927444,69.542573,66.446778,76.10201,0.0,22.380581,3.697643,12.744884,0.422344,2.360287,-2.732964,0.227909,-3.987122,2.619038,0.0,-50.858164,-25.616294,-70.415569,-20.890381,-89.018529,-14.096477,-76.116398,-5.43169,-46.112799,27.175741,269.966966,-94.583788,47.666316
49,-0.168343,-0.000309,1.878262,-3.132815,0.0,-66.954918,-36.748753,-97.392197,-32.318401,-100.303802,-25.54493,-90.478935,-17.934608,-70.769978,0.0,23.035991,26.222127,43.948694,43.972221,55.44835,57.114315,67.861295,65.914181,76.016239,0.0,23.935261,-0.307102,4.545765,-13.230057,-6.602154,-24.716721,-16.887417,-33.20858,-26.958618,0.0,-46.801625,-31.840365,-80.894429,-33.840029,-90.937701,-32.988305,-84.924878,-28.956096,-68.590845,25.699911,269.791795,-94.013014,44.35864
50,0.107117,-0.393288,-32.675972,-34.564515,0.0,-66.668015,-36.919155,-96.823483,-32.44875,-99.514561,-25.798988,-88.758888,-18.472366,-69.359779,0.0,23.364565,26.445725,43.469017,44.293756,56.506073,57.350819,69.159597,65.979204,76.342837,0.0,26.97052,-0.049725,27.432632,7.74622,28.007984,19.404545,31.12524,34.365692,40.52536,0.0,-46.557896,-40.405271,-83.286887,-32.326619,-90.655934,-21.291048,-54.551425,-7.439906,-41.033612,24.339867,269.343827,-128.156147,9.739445
51,-0.377083,-0.167282,-8.819504,-9.018864,0.0,-65.217876,-35.305252,-96.615429,-30.558586,-99.44418,-23.681374,-88.08054,-16.242256,-68.330727,0.0,23.618421,26.072938,43.546329,44.146358,56.903066,57.364157,69.154719,65.775551,76.445713,0.0,36.048889,1.298504,34.198723,13.96883,33.765907,28.254604,33.943176,42.582092,37.239876,0.0,-49.744372,-35.413738,-96.487303,-27.370839,-95.931241,-17.053951,-51.318761,-5.737879,-40.1202,23.281746,269.12293,-137.656689,0.666966
52,0.273628,-0.186054,29.316273,2.837864,0.0,-64.990883,-35.364532,-97.323246,-30.67955,-100.359478,-23.837814,-89.162979,-16.41861,-69.564686,0.0,24.705228,26.532361,44.385949,44.50204,57.254056,57.685444,69.642917,66.370763,76.487889,0.0,22.609692,-20.616932,7.041492,-20.917854,6.221294,-16.36219,6.824112,-8.56287,5.616131,0.0,-53.206625,-43.318717,-108.003755,-39.930101,-114.211648,-32.414922,-97.955203,-21.645001,-67.331569,22.317123,269.273431,-109.578667,3.841385
53,0.538673,-0.125847,-30.964794,-5.305997,0.0,-64.492836,-35.509415,-97.344646,-30.960274,-100.506878,-24.142113,-88.720779,-16.79924,-69.244366,0.0,24.623224,26.418494,44.298264,44.303512,56.94975,57.569415,69.581414,66.366132,76.218842,0.0,36.798363,-2.677574,38.777905,10.358562,47.708645,25.928307,50.124149,42.48024,47.222099,0.0,-45.071039,-33.078553,-93.768556,-27.125042,-110.243628,-18.876514,-96.761537,-9.377047,-57.993826,21.932001,269.09559,-141.467257,-1.516606
54,-0.181389,-0.305665,1.44556,-1.104066,0.0,-63.323078,-35.186977,-96.408062,-30.569458,-99.59095,-23.702087,-87.997456,-16.499519,-69.394283,0.0,24.947228,26.642709,44.281591,44.722427,56.858977,58.017353,69.664036,66.68427,76.214705,0.0,47.039738,-1.195221,23.811779,12.622032,50.939713,28.520107,57.918034,43.957329,51.437702,0.0,-49.302146,-34.483715,-50.902223,-25.29513,-91.419046,-15.307804,-86.000602,-5.99683,-54.477109,19.680777,268.715331,-142.091532,-2.695267
55,1.083298,-0.132763,-0.276089,0.38841,0.0,-63.074341,-35.12495,-97.207603,-30.302582,-100.204983,-23.303375,-88.572407,-15.991287,-69.721813,0.0,25.364661,27.000615,43.804013,45.371053,57.58547,58.656408,70.342179,67.259537,76.116522,0.0,36.061077,-1.925812,26.272717,12.408142,41.162682,29.467049,64.010925,46.133137,63.563118,0.0,-64.87807,-27.319803,-48.097766,-16.599128,-52.816609,-6.945038,-66.259551,0.38912,-53.887547,19.861135,268.169519,-143.270559,-2.719905
56,-0.224533,-0.232614,2.210083,8.633603,0.0,-63.323364,-35.90395,-97.239761,-30.962906,-99.05508,-23.907852,-87.933826,-16.497574,-69.320068,0.0,26.11394,27.250704,45.277934,45.356913,58.029023,58.576997,70.263633,67.216188,76.032727,0.0,37.862492,-4.359169,19.792786,11.300697,31.588612,29.20269,47.182045,46.628323,67.699413,0.0,-62.509602,-25.424682,-43.55309,-14.754798,-37.198819,-6.838488,-31.640726,-2.041623,-59.560712,19.214716,266.526217,-141.482363,4.50301
57,0.197754,-0.384952,0.797882,5.952678,0.0,-65.155277,-35.786934,-96.465282,-30.596695,-99.53207,-23.455353,-87.865963,-16.169357,-69.299641,0.0,26.460731,28.144109,46.692636,46.276994,59.77798,59.373886,71.821719,67.794666,77.594024,0.0,27.281055,-4.053726,20.231323,12.409286,34.017162,30.173435,50.523262,47.01828,67.089043,0.0,-63.613515,-24.596795,-41.719937,-13.171363,-36.144091,-4.054686,-33.379803,2.019794,-47.327276,18.920689,264.412362,-141.176262,8.726784
58,-0.29686,0.048659,0.115185,7.489306,0.0,-64.471035,-36.034698,-96.710243,-31.035919,-99.743671,-23.883018,-88.093643,-16.481323,-69.03368,0.0,26.353903,27.860366,45.444351,45.745693,57.98728,58.883896,70.790302,67.665669,77.209134,0.0,23.958206,-2.699547,18.502693,14.631329,32.044773,32.577496,48.565578,49.36821,60.732708,0.0,-59.142538,-24.317312,-40.816868,-14.426965,-36.160609,-6.252322,-30.874774,-0.526391,-34.39464,18.812542,262.629612,-140.872364,14.384681
59,0.02758,-0.158019,0.155296,5.087215,0.0,-64.929829,-35.778809,-96.622181,-30.775108,-99.730167,-23.699913,-88.233547,-16.472511,-69.34124,0.0,26.139876,27.843384,46.147441,45.911431,58.338887,59.126513,71.340683,67.812203,77.536349,0.0,23.906593,-3.376064,19.250278,13.290939,33.373432,31.406536,49.315453,48.808708,60.588055,0.0,-56.436727,-25.496838,-42.462609,-15.690162,-37.502137,-7.34305,-31.990882,-1.472933,-33.771177,18.863811,261.55162,-140.693378,18.551923
60,0.135498,0.666596,-1.223717,2.102262,0.0,-64.582386,-36.097183,-96.492233,-30.778084,-99.021721,-23.564987,-87.608242,-16.210785,-67.99324,0.0,25.40838,27.72013,45.789351,45.761625,58.826777,58.806152,71.531554,67.244655,77.010112,0.0,24.847527,-1.23333,17.979012,16.559601,33.337097,35.086899,48.818836,52.247944,60.132465,0.0,-53.386936,-24.568791,-42.819835,-14.932021,-38.024823,-6.950873,-32.788481,-1.235749,-34.018302,19.234257,261.771575,-141.682148,20.207544
61,0.086632,0.26281,-1.415863,-0.19016,0.0,-64.039593,-35.270519,-95.225315,-29.583778,-96.326981,-22.089729,-85.57766,-14.65004,-65.793171,0.0,24.5624,27.668754,45.736245,45.794353,59.913214,58.669807,71.811592,66.73966,76.832394,0.0,19.585419,0.334282,20.240192,17.953777,34.880962,36.235714,50.204601,53.219833,60.635891,0.0,-58.138785,-23.598445,-43.568713,-14.714012,-38.175216,-6.842965,-33.107545,-0.864043,-33.859758,19.87258,261.94392,-142.54632,19.92692
62,-0.301781,0.281026,-0.513611,-0.626242,0.0,-64.611454,-34.494038,-94.842339,-28.878479,-95.751686,-21.682434,-86.279182,-14.652672,-67.536564,0.0,24.025233,27.535188,45.536792,45.816089,58.546554,58.886428,70.562072,67.115844,76.888649,0.0,20.383301,-0.42778,19.538441,17.037048,35.245113,35.408993,50.94183,52.761612,61.350632,0.0,-60.606578,-24.914284,-42.761265,-15.898199,-38.398104,-7.726273,-33.206037,-1.451783,-34.384142,20.107927,262.247902,-142.522802,19.323634
63,-0.608482,0.48048,-1.826992,-1.017863,0.0,-64.118385,-35.259304,-93.611183,-29.635849,-94.139442,-22.259331,-85.795727,-14.927444,-67.994556,0.0,24.064691,27.532533,45.834429,45.713768,58.754591,58.763174,70.796045,67.095713,77.521838,0.0,22.706451,0.116215,18.246975,18.045673,33.721218,36.538811,49.046974,53.754444,59.336643,0.0,-56.700741,-23.75844,-42.059626,-15.477154,-37.612083,-7.903806,-32.157731,-1.947793,-31.451399,19.754248,262.420788,-144.094992,17.998176
64,-0.334167,0.140853,-0.933495,1.603349,0.0,-63.578339,-34.913979,-92.996178,-29.50676,-93.070335,-22.330513,-85.105019,-15.190201,-67.799778,0.0,23.861965,27.247431,45.532778,45.434842,58.776512,58.53371,71.086951,66.990799,77.130031,0.0,23.220463,-0.466976,18.667717,17.550831,33.325081,36.321831,49.315624,53.863792,60.727959,0.0,-57.198202,-24.401787,-43.396646,-16.504866,-39.486301,-9.443521,-34.991025,-4.166671,-37.085939,19.665184,262.699375,-144.783382,19.73926
65,-0.117302,-0.633559,-0.638237,-0.381772,0.0,-63.721161,-34.771214,-92.423172,-29.287148,-92.859192,-21.893806,-85.015011,-14.513054,-67.779808,0.0,23.781133,27.78151,45.870429,46.01159,58.752862,59.129045,71.645483,67.593421,78.381465,0.0,23.081245,-0.983906,17.601757,16.970272,32.412529,35.768509,48.365936,53.442135,59.148045,0.0,-58.568475,-24.101772,-42.98968,-16.142175,-38.430986,-9.268644,-33.216071,-4.241821,-33.041874,19.657717,262.263463,-145.311785,19.555136
66,-0.22728,0.499314,-0.778141,1.331771,0.0,-63.921089,-33.918114,-91.884556,-28.465576,-92.431755,-21.194687,-84.807758,-13.983421,-67.238617,0.0,23.422919,27.466336,44.56095,45.803553,57.92553,58.829741,71.028288,67.167776,77.470214,0.0,21.865311,0.433216,18.173332,18.791599,32.538128,37.549152,48.267231,54.800835,60.890064,0.0,-57.897588,-25.087216,-43.783018,-16.962252,-39.379257,-9.868241,-35.111377,-4.556964,-38.539698,19.656258,263.039033,-145.864105,21.163163
67,-0.184135,-0.111274,0.025291,-0.293191,0.0,-63.458405,-33.483238,-91.663456,-28.298492,-92.034073,-21.166077,-85.128307,-13.797455,-67.378006,0.0,22.597008,26.91509,44.620477,45.256321,57.269555,58.42188,71.050271,66.874832,78.235672,0.0,23.294735,-0.039082,17.026062,18.427448,32.229538,37.292576,48.429279,54.678555,60.580044,0.0,-57.254056,-24.659471,-43.611846,-16.203771,-39.023636,-9.041341,-34.876756,-3.788419,-38.450747,19.711447,263.007571,-145.599489,20.949784
68,-1.012688,0.151227,-0.366039,-0.427992,0.0,-63.11142,-34.179955,-91.478062,-28.875504,-91.971359,-21.518555,-84.209003,-13.824921,-66.771412,0.0,22.886061,27.131896,44.531927,45.230633,57.621656,58.153636,70.818028,66.465797,78.094511,0.0,24.330139,-0.435905,17.143135,17.732964,32.082767,36.636429,47.993774,54.256096,59.259052,0.0,-57.224323,-23.765541,-42.361524,-15.235525,-38.450314,-8.172667,-34.138592,-3.206977,-36.611788,18.820381,263.255036,-145.843906,20.61803
69,-0.496216,0.102876,-1.177883,0.63183,0.0,-62.663727,-33.788109,-91.873684,-28.683243,-92.645588,-21.430092,-85.369263,-13.683929,-67.539139,0.0,22.742183,26.949485,44.343835,45.085273,57.402504,58.179756,70.578004,66.648269,77.791255,0.0,23.124504,1.06905,17.154865,19.463768,31.656647,38.050976,47.645931,54.979305,59.331264,0.0,-57.457709,-23.922881,-42.453408,-15.444766,-37.614862,-8.320899,-33.128355,-3.188236,-34.837977,18.43317,263.390902,-146.912785,21.282851
70,-0.904541,-0.282014,0.664101,0.613645,0.0,-62.695026,-33.749542,-92.361202,-28.460026,-93.345509,-21.000824,-85.476551,-13.040428,-67.125664,0.0,24.173557,27.330609,44.748239,45.753474,57.543665,58.887725,70.863847,67.222919,78.03239,0.0,24.354858,-0.835133,15.445118,17.389927,30.150604,36.176262,46.311951,53.683662,56.844521,0.0,-55.880202,-24.754567,-43.761652,-15.97761,-38.180897,-8.81589,-32.782738,-3.804505,-32.614036,17.696314,263.124727,-146.080999,21.912334
71,0.477676,0.09948,0.070953,-0.145947,0.0,-63.489819,-34.831524,-92.910175,-29.63625,-93.925266,-22.18071,-85.871887,-14.236221,-68.024254,0.0,24.239198,27.858081,44.181741,46.235559,56.666995,59.329364,70.759674,67.585394,78.672124,0.0,23.360023,-1.755238,16.507416,15.896816,30.889378,34.584217,46.679134,52.295895,57.621861,0.0,-55.549312,-24.47141,-43.084744,-16.157057,-37.743179,-9.153325,-33.396352,-4.067685,-34.897381,18.259563,263.235214,-145.924473,21.777394
72,-0.453758,0.0515,-0.131779,0.452075,0.0,-62.753963,-35.036888,-93.121204,-29.924927,-94.049435,-22.429733,-85.660973,-14.313812,-67.472191,0.0,23.14214,27.679499,43.933566,46.083591,57.058863,59.19907,71.122087,67.471464,78.643657,0.0,24.608288,-2.252941,16.407223,15.429783,30.691223,34.267445,46.939945,52.230835,57.767258,0.0,-55.854977,-24.778063,-43.573499,-16.297879,-38.56835,-9.370594,-34.327733,-4.437755,-35.480644,17.946053,263.281542,-145.916004,22.224297
73,0.839539,0.491101,-0.218525,0.160304,0.0,-62.299232,-36.001453,-94.87484,-31.210384,-96.506596,-23.909225,-87.077065,-15.771217,-68.661289,0.0,21.539532,27.035874,42.557952,45.407857,55.078033,58.665361,69.503176,67.132578,77.336772,0.0,21.953259,-1.917915,17.392044,15.353966,31.721134,33.846188,47.876816,51.531315,57.505131,0.0,-56.972783,-24.834966,-44.779886,-15.822308,-38.766322,-8.578923,-34.55692,-3.541016,-35.357421,18.968754,263.720541,-145.951366,22.3325
74,-0.434418,-0.297328,-0.007324,-0.33867,0.0,-61.85297,-35.624142,-95.857658,-30.781517,-97.753029,-23.46096,-88.19973,-15.14637,-68.641319,0.0,22.535504,26.67377,43.182248,45.022102,55.67553,58.378592,70.399977,66.898173,77.945507,0.0,23.462563,-1.807823,17.01622,15.636806,31.447277,34.159641,47.454472,51.860161,57.174797,0.0,-54.419063,-24.600314,-44.305704,-15.64811,-38.502987,-8.486483,-34.16076,-3.381113,-33.916476,18.57522,263.416791,-145.917807,21.987407
75,0.048637,0.438675,-0.005207,-0.09383,0.0,-60.971832,-35.964489,-96.075325,-31.428623,-98.651619,-24.291801,-88.4091,-16.17794,-68.956776,0.0,22.419043,26.504265,42.160341,44.760774,54.984975,58.045326,69.165278,66.590595,76.789663,0.0,24.190922,-1.764107,17.170372,15.508633,31.289978,33.985233,47.383747,51.767807,57.02076,0.0,-54.887224,-24.480148,-43.825966,-15.51615,-38.144187,-8.415501,-34.001629,-3.480068,-33.727612,18.688345,263.851946,-145.858526,21.890058
76,-0.224991,-0.20532,-0.53112,-0.081264,0.0,-60.816078,-35.89571,-95.671005,-31.369228,-98.308983,-24.119453,-87.598228,-15.928802,-67.724648,0.0,22.611272,26.214594,42.394498,44.578487,55.918209,57.991232,70.350145,66.64759,76.817883,0.0,25.642376,-0.410786,17.282352,17.093868,31.507416,35.45826,47.402401,52.894993,56.657124,0.0,-52.863447,-24.031408,-43.97639,-15.192269,-38.001173,-8.22639,-33.724216,-3.195028,-32.882743,18.484755,263.643477,-146.368246,21.805645
77,0.073242,0.058354,0.754051,-0.08077,0.0,-61.825047,-35.470333,-95.302105,-30.888176,-98.035583,-23.794785,-87.265949,-15.898132,-67.742157,0.0,22.92799,26.434734,42.275135,44.809557,55.932659,58.188401,70.365335,66.736449,76.806768,0.0,25.325661,-0.307503,17.557697,17.234116,32.194633,35.629864,47.874756,52.921658,57.283974,0.0,-53.782355,-23.622497,-44.558665,-14.56544,-39.260356,-7.473807,-34.735595,-2.350993,-34.944311,18.599911,263.703081,-145.572281,21.726126
78,0.843086,-0.043411,0.177898,-0.559675,0.0,-61.566238,-36.043854,-96.475754,-31.245861,-98.245125,-23.940811,-87.625923,-15.78804,-68.039474,0.0,23.442371,26.177296,42.374615,44.446403,56.306187,57.771462,70.454256,66.420904,76.824984,0.0,23.445854,0.17149,18.085384,17.945023,33.072681,36.379967,48.288975,53.634109,57.650414,0.0,-55.557988,-22.827676,-43.282284,-14.039234,-38.043719,-6.92466,-32.776069,-1.677975,-31.296653,19.655256,263.692506,-145.182123,21.199287
79,-0.033531,0.21662,1.226921,1.118393,0.0,-62.437363,-35.356064,-95.495682,-30.630341,-97.680016,-23.543816,-87.276421,-15.74192,-68.142986,0.0,22.846109,25.919241,42.495831,44.377428,55.912713,57.88922,70.184345,66.542861,77.197278,0.0,26.307049,0.515385,17.900848,18.509731,32.731533,36.974602,48.207836,54.224167,56.973896,0.0,-53.971496,-22.929811,-43.997138,-14.575382,-38.982541,-7.851997,-33.413549,-2.760213,-30.999849,19.663582,263.951812,-143.913345,22.360364
80,0.898933,-0.126835,0.991859,0.815754,0.0,-63.181458,-35.582943,-96.202927,-30.647335,-98.488541,-23.437958,-87.437439,-15.621071,-68.17194,0.0,24.164048,26.734717,42.893256,45.166042,56.433949,58.457942,70.967711,66.78412,77.71135,0.0,25.306206,1.276131,18.618107,19.169712,32.554836,37.498169,48.308029,54.713173,57.87117,0.0,-58.845302,-23.223527,-43.145846,-13.905359,-37.552185,-6.625418,-31.762837,-1.591154,-30.264093,20.61985,263.919393,-142.864151,23.270535
81,1.253242,0.138012,1.306572,1.605078,0.0,-63.49474,-35.908127,-97.775116,-31.111908,-99.481487,-24.061546,-88.326015,-16.480522,-69.316921,0.0,23.704192,26.471784,42.963714,45.09966,56.267037,58.623309,70.640557,67.323942,77.839173,0.0,27.836494,1.661968,17.759399,19.403915,31.662655,37.648544,47.182617,54.734802,57.582207,0.0,-56.724947,-23.460649,-41.979134,-13.793745,-37.397964,-6.114711,-30.575006,-0.789016,-29.284176,22.23218,264.798148,-141.198492,25.616356
82,0.344238,0.857837,0.856247,3.069582,0.0,-63.811626,-35.525265,-97.751827,-30.531235,-98.763828,-23.417931,-87.757244,-16.062698,-68.932514,0.0,24.530783,27.021239,41.97194,45.697466,54.719078,59.012337,69.44476,67.152462,76.857712,0.0,30.83971,1.340446,18.46796,18.657932,31.78196,36.858845,47.801914,54.208775,58.63821,0.0,-56.082126,-23.333072,-41.541972,-13.30885,-35.948465,-5.455958,-28.725026,0.109144,-27.42836,23.073063,266.137962,-139.8456,29.167915
83,1.389427,0.304924,1.026192,3.1083,0.0,-63.432426,-34.564247,-97.466812,-30.13401,-99.216614,-23.54908,-88.087349,-16.686172,-69.140568,0.0,24.240618,27.220076,40.445347,45.726365,53.39379,58.896925,68.693814,67.121339,77.492939,0.0,34.82254,2.434444,18.06673,19.914608,31.702423,38.047543,47.547112,54.840488,58.255291,0.0,-55.96375,-20.949939,-39.777207,-10.555646,-33.828512,-2.997334,-25.902754,1.890334,-24.843765,25.800076,266.786279,-137.481823,32.619609
84,0.606194,0.621333,2.443428,5.398746,0.0,-62.862797,-34.000969,-96.356907,-29.514084,-98.634167,-22.834053,-87.162094,-15.863686,-68.62833,0.0,23.648555,27.164747,40.568786,45.79392,53.701431,58.810166,68.777732,66.777945,77.803605,0.0,37.215157,2.712021,18.129101,19.177723,31.096745,36.945305,46.624088,53.836441,57.060642,0.0,-57.427852,-21.012986,-39.242912,-10.276349,-32.297997,-2.425556,-23.585786,2.810539,-22.345158,27.430115,267.828024,-134.014549,38.438767
85,0.735168,0.479924,1.190186,6.657188,0.0,-63.656216,-33.873711,-94.961987,-29.529762,-97.529182,-22.969208,-87.195168,-16.068306,-68.885307,0.0,22.839007,27.033095,40.008833,45.67221,53.431026,58.726186,68.495471,66.829569,77.734259,0.0,42.945957,5.88295,19.515266,22.423325,32.207108,39.364929,47.113495,54.907322,56.536846,0.0,-49.168333,-21.520451,-38.038316,-10.245073,-30.673375,-1.902839,-22.399406,3.803918,-20.004169,28.592463,268.828118,-132.397184,45.616125
86,-0.126801,0.312704,3.571472,6.453165,0.0,-63.157253,-32.694283,-94.216061,-28.359375,-97.324276,-21.819992,-86.616611,-14.93557,-67.770939,0.0,23.564883,26.737434,40.124677,45.380131,53.523096,58.537847,69.182383,66.695447,78.59611,0.0,58.821487,7.705135,21.237545,23.518639,34.335194,39.664192,48.564434,54.07259,54.350967,0.0,-47.256294,-20.908628,-37.717553,-7.137205,-29.774875,3.496864,-19.724718,11.254815,-15.379218,30.196524,270.072034,-127.094851,53.000502
87,1.554222,0.443306,4.158325,9.502277,0.0,-63.004475,-33.070335,-94.731388,-29.155197,-98.23019,-22.740097,-87.663689,-15.629082,-68.976059,0.0,21.912257,26.052499,39.047997,44.445724,52.64871,57.777267,68.792429,66.348903,78.663973,0.0,57.715302,8.692017,27.752151,24.867039,41.735802,41.042118,53.098755,55.052261,60.291595,0.0,-47.586041,-18.669805,-40.898471,-3.979197,-36.440678,7.304024,-24.624551,15.538349,-18.390415,32.327242,270.979858,-122.360029,62.967296
88,0.996666,-0.443059,7.248974,9.932955,0.0,-63.069592,-33.278847,-95.575333,-29.053688,-98.709812,-22.437973,-88.079853,-15.050354,-69.241905,0.0,21.622339,26.330067,39.632279,44.669384,53.144813,57.955787,69.20486,66.411395,78.986063,0.0,57.758789,9.751053,34.926567,24.343472,47.163277,39.125919,55.670528,52.026558,60.123825,0.0,-49.209644,-18.331814,-41.12667,-1.081589,-34.593723,12.787893,-18.897942,23.280646,-7.635315,33.81752,270.574466,-114.617443,72.937919
89,0.262642,0.081572,7.685051,8.431031,0.0,-62.783375,-34.022026,-96.644726,-29.507217,-98.776703,-22.674751,-87.81847,-15.270882,-69.226627,0.0,20.223322,26.287212,39.139819,45.086446,52.858167,58.510553,69.188187,66.862235,78.666752,0.0,52.594757,22.119827,42.730007,37.012253,52.723045,49.24324,55.950394,58.15464,58.137875,0.0,-47.41598,-11.778613,-41.239735,6.334512,-31.73752,19.614246,-18.345214,28.714559,-3.518261,34.277058,270.626043,-106.735497,81.338955
90,1.533051,-0.390263,6.50425,23.225149,0.0,-63.88195,-34.099159,-97.128754,-29.975853,-99.529781,-23.421135,-88.630772,-16.094971,-70.017014,0.0,19.117063,26.314444,39.16841,44.900021,52.888425,58.183338,68.784093,66.546072,78.001391,0.0,55.669898,26.138477,51.468086,36.657886,58.147802,44.876775,56.600904,50.407276,56.502027,0.0,-35.979758,-5.127801,-34.11769,14.099672,-22.517396,28.57508,-8.716395,39.279715,5.624767,34.937382,270.02586,-101.103973,104.354183
91,-0.655632,-0.633806,6.504249,23.225148,0.0,-63.078461,-33.696098,-96.140442,-29.495659,-98.627529,-22.956963,-87.906418,-15.678177,-69.330082,0.0,20.329224,26.510563,39.074734,45.381181,52.466979,58.575947,68.324731,66.623013,77.834851,0.0,58.745041,30.157127,60.206165,36.30352,63.572559,40.510311,57.251415,42.659912,54.86618,0.0,-24.543535,1.523012,-26.995644,21.864833,-13.297272,37.535914,0.912424,49.844871,14.767796,33.167725,269.054326,-95.713749,127.241602
92,1.38588,-0.247681,1.553364,20.741778,0.0,-63.942261,-33.925552,-97.372169,-29.944496,-99.621506,-23.67588,-88.872986,-16.667519,-69.906979,0.0,19.824723,26.485987,37.965203,45.14832,51.494286,58.454113,67.344629,66.711255,77.940197,0.0,47.799454,34.565907,87.760963,36.121845,96.081505,35.560627,93.990555,33.700733,77.138042,0.0,-24.606736,2.082965,-16.216523,14.838871,-6.627486,25.470131,5.608481,34.213001,17.82722,33.553991,268.620112,-95.159998,147.796848
93,0.964737,-0.173827,1.677532,33.554927,0.0,-64.134178,-34.728012,-97.827873,-30.570602,-99.453735,-24.081345,-89.100723,-16.683197,-70.13855,0.0,19.678436,26.216817,39.409916,44.379589,51.926539,57.558485,67.8001,65.969015,77.735494,0.0,66.949997,33.159542,95.973988,33.652153,97.969952,33.035431,92.485828,32.058163,81.660976,0.0,-11.07506,13.93009,-9.347777,34.843226,3.70311,49.64165,16.959133,57.959863,29.414129,33.24111,267.7561,-94.760084,180.66159
94,-0.237808,-0.244717,0.779572,17.246952,0.0,-65.025272,-34.054871,-96.423683,-29.92012,-98.569107,-23.596458,-88.914871,-16.254616,-70.668755,0.0,19.444711,26.431214,40.340309,44.225213,52.896514,57.285487,67.634053,65.817912,77.091993,0.0,68.35659,34.271679,106.584148,32.425575,108.265629,30.114498,102.155972,27.585182,85.578403,0.0,-9.375874,17.042558,14.812751,34.927762,23.258169,47.573135,35.619305,55.297556,43.312356,32.345982,267.190173,-94.637833,197.587332
95,-0.85762,2.914928,5.916538,20.897698,0.0,-54.417,-34.571915,-94.665413,-30.881882,-97.460175,-24.289284,-86.771679,-16.703224,-68.316536,0.0,-8.237505,25.021823,38.020593,41.020675,49.472084,53.263621,62.631035,61.913557,72.712592,0.0,67.611465,31.142635,99.684906,26.374283,102.463188,22.321873,92.058678,18.066044,73.100281,0.0,-5.65887,21.235905,28.563888,34.815809,38.525341,44.443192,48.954986,50.741672,53.883904,30.930777,270.0373,-89.278879,218.417228
96,1.962433,49.233789,5.074253,15.813386,0.0,-71.960335,-33.248405,-90.815792,-32.0755,-98.567619,-28.036537,-88.969975,-22.56752,-71.067924,0.0,25.596781,-1.597668,2.69028,-17.481109,-19.57593,-32.392043,-37.012147,-46.357702,-48.657904,0.0,73.865147,30.4214,106.644459,26.270113,106.362934,23.993025,97.640133,22.447615,82.300301,0.0,2.560542,31.616859,32.221642,49.764934,42.344665,61.04269,56.337463,66.658952,64.900177,31.880236,319.526967,-85.2176,234.486492
97,1.115685,-46.217652,5.074253,15.813385,0.0,-63.430023,-23.761711,-89.527302,-23.977776,-96.744175,-22.789879,-92.564678,-19.739342,-73.057594,0.0,-9.399709,19.945321,13.602875,37.709248,32.503626,51.041903,52.522369,59.417543,70.479512,0.0,80.118828,29.700165,113.604012,26.165943,110.26268,25.664177,103.221588,26.829185,91.50032,0.0,10.779955,41.997814,35.879398,64.714061,46.16399,77.642189,63.719941,82.576232,75.916451,32.139416,273.779884,-80.999851,250.770445
98,-5.737839,-2.700099,1.182289,6.610196,0.0,-60.051899,-19.488144,-76.33358,-17.981415,-82.863407,-16.55983,-77.906628,-14.049454,-63.562889,0.0,-1.618231,23.071683,31.33148,39.510939,44.475055,50.986018,56.138905,58.331045,66.553791,0.0,80.819664,34.701118,107.753906,27.030258,105.701408,20.641937,94.582787,15.945854,77.395134,0.0,14.716482,41.545801,53.490677,60.874668,64.747653,70.559973,74.621791,73.690039,79.599183,25.455208,271.214772,-80.763931,257.515628
99,-5.847988,1.244024,2.393646,8.589915,0.0,-44.080696,-32.633972,-36.931229,-34.880218,-35.565405,-34.401026,-35.555334,-31.954536,-35.609894,0.0,0.217948,20.299398,31.642578,39.59248,47.533738,54.526293,59.228741,65.462599,68.430046,0.0,79.253883,35.261307,105.430527,26.363583,105.298462,18.106213,89.846878,11.495132,66.190395,0.0,9.775893,38.646742,55.32664,55.742961,70.758315,65.285129,80.304064,69.787537,81.253786,18.407106,272.729201,-79.570398,266.375948
100,-5.847988,1.244023,6.317425,4.500802,0.0,-28.109493,-45.7798,2.471123,-51.779022,11.732597,-52.242222,6.795959,-49.859619,-7.656898,0.0,2.054127,17.527113,31.953677,39.674022,50.592421,58.066568,62.318578,72.594155,70.306302,0.0,76.69035,34.334736,103.7784,24.572697,101.718807,15.273972,86.025181,7.835484,63.997135,0.0,10.035924,37.488366,55.862325,54.788177,71.385699,64.677135,79.732811,69.419937,79.648213,11.633177,274.094194,-74.178915,270.997719
101,-42.53294,13.433926,5.999966,1.414887,0.0,37.225628,6.612396,52.958279,-0.614376,61.409397,-4.868832,58.380718,-8.498039,42.06007,0.0,-6.485708,2.788216,15.376285,22.997521,42.878436,41.109287,54.426566,55.754015,59.540488,0.0,75.426407,33.835545,101.403236,23.47086,97.302704,13.27137,80.945663,4.50943,58.062515,0.0,9.552974,36.710311,58.522841,54.18469,74.312175,64.345535,82.746293,69.132056,80.570579,-31.59605,287.528505,-68.875237,272.412992
102,-5.189095,-10.694122,4.210625,1.455148,0.0,34.819164,15.388355,62.113094,10.76025,69.978161,4.947968,65.6357,-1.946526,50.809879,0.0,-11.719858,6.480953,19.923585,29.737578,46.41902,49.437689,59.979966,64.879429,66.477777,0.0,72.735786,34.166908,100.502472,23.980694,97.913246,13.573208,80.820923,4.259949,57.309837,0.0,7.657051,35.969306,56.486313,53.246825,71.23651,63.33184,80.491971,68.002765,78.383935,-37.394171,276.864641,-65.273638,273.898398
103,5.094566,0.643995,-0.035076,0.703893,0.0,33.19376,12.451401,62.927113,5.906696,67.869816,-2.500763,58.759747,-11.539993,38.249073,0.0,-14.475902,6.40642,24.188563,28.817435,46.825646,47.596106,59.014189,62.802392,65.795867,0.0,74.124355,36.100788,102.969418,26.930008,99.764843,17.352962,83.755131,8.478527,61.420498,0.0,5.957,36.78435,53.774173,53.647152,64.822371,63.157642,74.392821,67.377357,74.872683,-32.772017,277.499636,-65.781126,274.593291
104,2.835674,1.293918,0.081024,1.2192,0.0,32.360802,13.128605,60.974007,6.817303,62.264328,-2.113724,50.618591,-12.052174,29.457207,0.0,-15.202951,6.599328,25.190587,29.516512,45.014754,48.317351,56.306063,62.880136,64.486449,0.0,74.324741,36.125736,103.19006,27.361164,100.453548,18.146496,84.487209,9.591637,62.471066,0.0,7.513111,36.951755,52.451973,53.987768,63.81621,63.561119,71.918852,67.646465,71.652646,-30.344954,278.849732,-66.108713,275.868669
105,5.703621,1.070505,0.867348,0.647577,0.0,26.713943,5.279274,55.426826,-1.658821,58.709908,-11.11805,47.853928,-21.610165,24.927292,0.0,-14.046922,6.739193,29.952284,28.020917,49.295107,45.469669,58.771263,59.847758,65.784752,0.0,73.29649,35.604286,101.109753,26.765385,99.224224,17.300091,82.897511,8.518181,61.401386,0.0,9.461151,34.872619,52.764122,52.43209,64.804834,62.636407,72.651274,67.424349,72.203954,-25.008631,280.014051,-65.608664,276.61006
106,3.442783,-0.637635,0.471096,0.38205,0.0,22.42979,4.658661,48.861408,-2.784004,54.82996,-13.087349,42.970448,-24.50592,18.811169,0.0,-12.418317,7.278274,31.398232,28.602606,50.548455,45.877592,58.619357,59.848808,64.713876,0.0,73.514214,34.733906,100.579376,25.996571,100.109825,16.754036,83.783569,8.216743,62.016335,0.0,9.701916,33.905607,51.956179,51.730481,63.856286,62.290481,71.780223,67.532721,71.582436,-21.906939,279.388967,-65.478659,277.00466
107,4.101677,1.340107,1.410484,0.200936,0.0,13.070011,-2.245102,41.814137,-8.975258,50.767994,-17.780228,37.893276,-27.838669,14.429455,0.0,-12.439065,7.580975,33.13416,27.693825,50.618789,44.267697,58.226748,58.304924,64.18239,0.0,72.422104,33.99004,99.188576,24.892101,97.505379,15.401115,81.096954,6.668587,59.188499,0.0,10.202774,34.061404,52.667976,51.894799,64.182575,62.45307,71.580151,67.659,71.087383,-17.993145,280.69806,-64.256058,277.174582
108,0.931377,-0.156846,0.814934,0.005743,0.0,10.107422,-5.035,39.763069,-11.555786,49.847832,-19.774418,39.069557,-29.119091,15.419083,0.0,-9.640783,8.566758,33.526769,28.486021,51.471994,44.758798,58.553902,58.386435,64.118355,0.0,71.971436,32.847576,98.061562,23.770065,96.632309,14.474545,80.584946,5.985603,58.586311,0.0,10.21957,34.473773,52.92529,52.047693,63.933783,62.299435,71.90817,67.164935,71.54588,-17.228851,280.520219,-63.608208,277.15933
109,-10.303917,-0.393721,-0.436764,-0.368218,0.0,30.59761,9.255524,56.143913,1.410084,60.08606,-8.921299,46.631584,-20.592041,23.316879,0.0,-11.64693,5.302878,26.41732,27.191856,47.588017,45.301522,57.777082,59.756923,63.885988,0.0,71.522427,32.816792,97.707081,24.094849,96.512432,15.181847,80.72279,6.812668,59.220371,0.0,9.337589,33.861147,52.556578,51.538685,63.616942,61.985496,71.605839,67.033468,71.505248,-27.705946,280.085018,-64.218149,276.749631
110,-3.916969,-1.154486,1.51165,0.33938,0.0,38.147507,12.699223,60.189171,5.174618,62.657776,-4.351044,49.306755,-15.642815,28.011131,0.0,-11.935243,5.265149,26.429485,28.022275,48.144079,46.735305,58.49246,61.177677,64.079391,0.0,72.356472,32.17535,96.678715,23.44099,96.71339,14.408112,80.835743,6.141415,60.005093,0.0,10.879126,33.268775,53.128819,51.203997,64.102979,62.254604,71.016432,67.820539,70.361198,-31.694698,278.917827,-62.778282,277.076306
111,2.640038,-0.4057,0.832043,-0.156537,0.0,32.238121,9.596043,58.738747,1.987953,62.853012,-7.365532,49.475098,-18.035889,27.770805,0.0,-11.752709,5.625216,28.52832,27.785092,50.31615,46.186035,60.854167,60.62322,66.303332,0.0,71.803665,31.672325,95.688858,22.836342,96.133003,13.751049,80.212555,5.332031,58.153954,0.0,11.459394,33.273098,52.173664,51.034122,63.107377,61.751956,70.684091,67.106581,70.615919,-29.112196,278.505257,-62.003775,276.912899
112,4.88863,0.434352,0.521221,0.257623,0.0,23.770351,5.195847,53.251705,-2.000313,58.253689,-11.315289,44.36388,-21.906624,21.917553,0.0,-12.434125,6.926729,31.902486,27.782869,51.438772,45.05026,60.327559,59.198823,65.120132,0.0,72.148304,32.145252,95.622997,23.318653,95.945148,14.209843,80.037403,5.760612,58.341236,0.0,10.94841,33.195354,52.239305,50.909633,63.405323,61.759675,70.675817,67.370502,70.176194,-24.282017,278.855227,-61.541004,277.08614
113,-2.874413,-0.578231,0.622272,-0.026059,0.0,28.922253,6.901989,54.468784,0.430756,59.902325,-8.057499,47.057018,-17.776279,25.719166,0.0,-12.725093,7.271976,30.983948,28.855659,51.128353,46.598466,60.43661,60.845213,65.717382,0.0,71.786041,32.121334,95.285683,23.326721,95.519142,14.171047,79.815674,5.602398,58.08197,0.0,11.189051,33.296625,52.2582,51.014979,63.575075,61.95777,70.862365,67.726246,70.392814,-27.166586,278.261806,-60.928888,277.044891
114,7.574902,0.385755,0.263271,-0.291709,0.0,17.761688,4.412613,47.013931,-3.416004,52.386131,-13.407383,37.344704,-24.686966,14.567642,0.0,-12.281478,6.603033,32.024381,27.454357,51.00405,44.898169,60.412898,59.523136,65.333294,0.0,71.282444,32.38163,95.38187,23.552856,95.266972,14.109936,79.431553,5.179996,57.277851,0.0,11.480945,33.113597,52.224979,50.911053,63.543767,61.992782,71.04564,67.904273,71.071019,-19.591398,278.611838,-60.665331,276.717459
115,-6.58247,-0.202665,0.733337,0.116091,0.0,25.866337,7.287884,55.026226,0.281696,59.689465,-8.802967,46.752148,-19.059505,25.085735,0.0,-10.616872,6.838055,30.269928,28.262793,50.467994,46.121259,60.151076,60.771668,65.897137,0.0,71.252232,31.927757,94.736423,22.984772,94.724064,13.524628,78.839321,4.545364,56.767559,0.0,12.021138,33.683491,52.420542,51.313172,63.700366,62.065154,70.92819,67.539019,70.9243,-26.173668,278.381216,-59.931793,276.805592
116,-3.785934,-0.749218,0.248852,-0.030505,0.0,32.075672,10.446625,60.551434,3.421612,64.808979,-5.759239,52.345448,-16.285114,30.088406,0.0,-11.890227,5.688201,28.876839,27.849374,50.611193,46.337447,61.318777,61.397941,66.737808,0.0,71.127777,31.736469,94.848747,22.813568,94.473381,13.529778,79.08577,4.817848,57.323456,0.0,12.480252,33.837312,52.278393,51.57555,63.393405,62.364458,70.702369,67.729272,71.033228,-29.954395,277.606819,-59.677734,276.749909
117,6.523018,2.27328,-0.355396,-0.008275,0.0,22.92429,4.134407,50.852108,-2.016163,58.906116,-10.115948,47.468433,-19.331932,24.736004,0.0,-14.308311,6.184427,27.095772,27.509191,47.922333,45.366669,58.264848,60.180717,64.353377,0.0,71.618671,32.172089,95.3829,23.124962,94.703579,13.709049,79.193401,4.965591,57.294445,0.0,12.535395,33.540477,52.63741,51.249013,63.618918,62.089298,70.73343,67.537908,71.058669,-23.413639,279.831424,-60.015392,276.69296
118,2.117214,0.786206,-0.009499,-0.109483,0.0,20.301819,3.335209,47.70195,-2.983646,55.591278,-11.219044,44.892311,-20.716553,22.673264,0.0,-13.51803,5.24014,24.472182,26.522975,46.22253,44.629308,57.07251,59.890366,63.263544,0.0,71.469784,32.366924,95.007992,23.304291,94.541531,13.727875,78.834171,4.707985,56.786098,0.0,12.576212,33.855157,52.745288,51.536585,63.455341,62.30172,70.543177,67.667275,70.732997,-21.25783,280.51088,-59.986296,276.476725
119,0.798512,-0.517345,0.013618,0.153388,0.0,17.666645,1.183834,46.675014,-4.868603,55.737591,-12.72892,44.192448,-21.746864,21.610966,0.0,-12.620364,6.676208,27.222113,27.434411,47.834216,45.077739,57.985675,59.922847,63.860547,0.0,70.8708,32.459564,94.857616,23.493576,94.102421,13.91407,78.532848,4.887657,56.470356,0.0,12.089125,33.786306,52.639447,51.366463,63.600825,62.091892,70.757759,67.429844,70.842234,-20.34997,279.927894,-59.863329,276.564472
120,-6.128368,-0.891305,-0.009727,-0.0134,0.0,27.605667,9.043293,53.900185,2.524052,56.389618,-6.336765,43.529778,-16.174507,22.079887,0.0,-11.799948,8.221141,29.047085,30.282402,48.343904,48.041388,56.845021,61.913618,63.135721,0.0,70.285664,32.317314,95.277042,23.356018,94.176464,13.852329,79.245472,4.967422,57.35693,0.0,11.435744,34.078447,52.860452,51.991747,62.939848,62.849878,70.516747,68.169861,70.638334,-26.306105,278.904489,-59.700823,276.418973
