takenoko1/special-research/HandMotion_SimilarSearch_自分用/NewProject/handData/test_key/d4_feature_d2/32.csv
frame,vel_0x_L,vel_0y_L,vel_0x_R,vel_0y_R,posFromWrist_0x_L,posFromWrist_1x_L,posFromWrist_2x_L,posFromWrist_3x_L,posFromWrist_4x_L,posFromWrist_5x_L,posFromWrist_6x_L,posFromWrist_7x_L,posFromWrist_8x_L,posFromWrist_9x_L,posFromWrist_0y_L,posFromWrist_1y_L,posFromWrist_2y_L,posFromWrist_3y_L,posFromWrist_4y_L,posFromWrist_5y_L,posFromWrist_6y_L,posFromWrist_7y_L,posFromWrist_8y_L,posFromWrist_9y_L,posFromWrist_0x_R,posFromWrist_1x_R,posFromWrist_2x_R,posFromWrist_3x_R,posFromWrist_4x_R,posFromWrist_5x_R,posFromWrist_6x_R,posFromWrist_7x_R,posFromWrist_8x_R,posFromWrist_9x_R,posFromWrist_0y_R,posFromWrist_1y_R,posFromWrist_2y_R,posFromWrist_3y_R,posFromWrist_4y_R,posFromWrist_5y_R,posFromWrist_6y_R,posFromWrist_7y_R,posFromWrist_8y_R,posFromWrist_9y_R,posFromBody_0x_L,posFromBody_0y_L,posFromBody_0x_R,posFromBody_0y_R
2,-0.509434,-1.065442,0.546112,0.637141,0.0,20.393085,1.033401,51.506138,-3.247719,58.699894,-9.140682,54.660473,-16.081524,36.037388,0.0,-11.842247,10.512328,27.590702,31.095284,46.502074,48.44184,56.923629,62.97449,65.422771,0.0,69.039688,31.507359,94.641609,22.716465,92.823715,13.502884,78.264885,5.029221,57.208672,0.0,9.564089,33.769818,50.170542,51.942656,60.038444,62.623933,67.939038,67.684627,68.173381,-23.677826,278.737439,-56.309338,278.904906
3,0.461369,2.645449,0.134068,0.17673,0.0,18.888245,-0.582962,50.198708,-4.898815,57.099724,-10.675907,51.357765,-17.887287,31.907043,0.0,-15.50948,10.360669,27.158881,31.538838,46.397716,48.6655,56.304767,62.545387,63.547534,0.0,68.655338,31.131821,94.924335,22.446384,93.610554,13.339062,79.086857,4.915123,57.516232,0.0,9.731433,33.223883,49.825358,51.481998,59.986388,62.377364,67.831469,67.657271,68.015485,-21.205673,280.777255,-54.164486,278.476003
4,-2.331333,-1.309973,-0.366325,-0.083919,0.0,23.829975,2.924881,53.160381,-2.18565,59.107647,-8.671875,54.05508,-16.369114,35.126324,0.0,-13.277388,9.867469,25.279754,31.437073,47.142982,49.072805,57.73645,63.487451,65.88769,0.0,68.929424,30.791531,95.309658,21.980724,94.035931,12.940865,79.453297,4.729958,57.871685,0.0,10.025612,33.497314,50.106013,51.65916,60.320581,62.490244,68.467004,67.647206,68.653429,-22.395172,279.025767,-53.388977,277.950568
5,0.93195,-0.399957,0.108776,-0.40817,0.0,22.96978,0.716114,52.178421,-4.336395,58.162308,-10.525188,52.968292,-17.961216,34.342346,0.0,-13.641531,10.270761,27.142641,31.945588,47.773824,49.794791,58.201616,64.309596,65.604317,0.0,68.740082,30.146141,94.085884,21.272163,93.584976,12.26635,79.578781,4.119701,57.924614,0.0,10.421061,33.229873,50.496399,51.466745,60.420432,62.503088,68.87925,67.815599,69.541214,-20.608521,278.2443,-52.425499,277.160889
6,-2.886314,-0.534018,-0.795593,0.204703,0.0,28.017197,2.897129,54.432449,-2.297001,61.602287,-8.692303,56.787643,-16.312351,37.201538,0.0,-15.518064,9.190931,23.358081,31.290725,46.704183,49.775031,58.20952,64.826077,66.835991,0.0,69.925804,30.713425,94.987335,21.996803,94.441109,13.109951,80.625687,5.134106,59.196625,0.0,10.584823,33.387954,50.254153,51.635201,60.295572,62.668641,68.205244,67.955958,69.195906,-22.956648,277.520214,-52.682905,277.175524
7,2.275372,0.667584,-0.348701,0.206308,0.0,23.031406,1.31012,52.27129,-4.053783,58.602505,-10.675793,53.489056,-18.378067,33.740902,0.0,-14.256256,9.908656,24.688988,31.692967,46.530109,49.793927,57.297466,64.62125,65.567328,0.0,69.757347,31.078262,95.265541,22.304306,94.222527,13.319836,80.244026,5.260849,58.627052,0.0,10.754514,33.466068,49.931074,51.674103,60.153361,62.597936,68.014312,67.75496,68.699433,-20.199251,278.007688,-52.549582,277.201721
8,-0.649509,-0.622753,-0.242214,-0.241382,0.0,23.954086,1.443901,52.507668,-3.799095,57.397156,-10.160294,52.726135,-17.496185,34.225731,0.0,-12.80086,10.28095,25.811549,31.845737,46.886656,49.763175,57.538663,64.124345,65.77271,0.0,70.583897,30.617867,94.882908,21.830921,94.244785,12.961521,80.277843,5.013142,58.560619,0.0,11.021893,33.57055,50.407849,51.82496,60.302241,62.871676,68.050868,68.238651,68.656084,-20.486984,277.316037,-52.430019,276.891441
9,-0.334969,0.124118,-0.428123,0.168887,0.0,21.054382,1.363049,53.136406,-4.395447,58.081856,-11.473217,52.008705,-19.642868,32.102394,0.0,-11.337684,10.536288,29.085185,31.531428,48.133273,49.055021,58.011363,63.439101,64.73024,0.0,70.121098,30.9688,95.158253,22.17659,94.255199,13.259239,80.426617,5.289116,58.985767,0.0,11.122978,33.332996,50.104778,51.645636,60.078643,62.722672,67.86642,68.153189,68.519801,-20.469904,277.361686,-52.506094,276.981859
10,-0.460567,0.713773,-0.284328,-0.210507,0.0,21.353016,1.650066,53.746204,-4.207134,58.359432,-11.22139,51.595287,-19.451351,31.407108,0.0,-12.588686,9.813005,27.199451,30.923865,46.953717,48.551076,57.371999,62.886187,64.831325,0.0,69.536819,31.143379,95.038147,22.066956,93.420181,12.898865,79.83902,4.65889,58.40023,0.0,10.866158,33.340097,50.473181,51.65107,59.945941,62.65203,68.360608,67.927491,68.885178,-20.732431,278.046606,-52.592382,276.742499
11,-3.431225,-1.796196,-0.016308,0.161786,0.0,25.500641,4.054928,55.435982,-1.509876,62.003288,-7.993011,56.821747,-15.644588,37.613297,0.0,-10.180605,9.854069,27.193585,31.737983,48.103818,49.980351,58.411073,64.842873,66.120921,0.0,69.564571,30.990944,94.652653,22.025356,92.992802,12.887192,79.621754,4.528027,58.299007,0.0,11.07648,33.628595,49.75206,51.779943,59.209259,62.546931,68.010978,67.607315,68.731667,-24.037399,276.397098,-52.482433,277.050973
12,-0.564594,-0.614478,-0.927315,-0.49635,0.0,27.463589,2.039738,54.835911,-3.327885,61.257877,-9.430676,56.820774,-16.187668,38.186474,0.0,-8.037063,12.560034,31.115292,34.307109,50.256623,51.543069,59.473983,65.245918,66.814069,0.0,69.141598,31.023273,94.525738,22.167034,93.282337,13.195782,79.943905,5.09119,58.545055,0.0,10.855846,33.528559,50.1359,51.815512,60.304588,62.837096,68.844423,68.121819,69.486133,-24.468527,275.826385,-53.276281,276.598389
13,-4.226189,-1.228092,-0.279522,0.734151,0.0,32.39748,4.482079,58.864689,0.581818,66.918697,-4.093037,64.784374,-9.867325,46.9174,0.0,-9.180372,14.197655,32.015057,36.173885,51.567337,53.054966,61.094623,66.103199,67.138629,0.0,70.681572,31.20306,95.442581,22.835827,95.200768,14.229984,80.802612,6.407318,59.963036,0.0,11.815571,34.181323,50.250509,52.267833,60.426792,63.034635,66.962147,68.153744,68.083349,-28.573923,274.632441,-53.435011,277.366687
14,0.827579,0.0649,0.062542,-0.82585,0.0,29.90181,8.428288,58.130836,3.392887,63.561745,-3.073997,59.202118,-10.928192,40.992851,0.0,-10.223522,12.57788,27.251754,34.96685,49.353461,52.989634,59.489668,67.107384,67.222857,0.0,70.361538,30.768986,94.713192,22.385216,94.433041,13.8311,81.08202,6.005974,60.29417,0.0,12.024349,34.175519,50.692766,52.44833,59.72154,63.552721,67.575328,68.937913,69.157189,-27.625551,274.738204,-53.251677,276.581701
15,2.061367,-0.286028,-0.431042,0.650108,0.0,27.595081,6.580467,55.135403,0.945911,60.66988,-6.367607,55.085278,-15.05373,35.154591,0.0,-11.802047,11.918571,28.684981,34.120499,49.730447,52.207133,59.844794,66.509146,67.411134,0.0,71.112328,31.393147,95.033112,23.095493,94.95472,14.554939,81.068115,6.800137,60.342522,0.0,10.892896,34.413319,50.082425,52.365646,59.786317,63.303064,67.003952,68.657134,68.616749,-25.437527,274.489628,-53.556061,277.269261
16,-0.449238,0.689073,0.409012,-0.280717,0.0,29.514427,7.252464,57.097321,0.856361,61.203003,-6.527824,55.963326,-15.124397,37.600136,0.0,-11.316628,9.355681,26.072444,31.608616,48.169335,50.192649,58.622013,65.058876,66.358969,0.0,70.990906,30.895329,94.289017,22.574043,93.896942,14.094086,80.322418,6.322746,59.731865,0.0,11.196955,34.847239,50.201665,52.787895,59.484172,63.53716,67.105531,68.694802,68.771434,-25.72217,275.23372,-52.982454,277.043563
17,0.542336,-0.30832,0.122166,0.047301,0.0,26.439171,5.324593,56.335716,-0.420055,61.519547,-7.529526,55.540352,-15.934525,36.465569,0.0,-10.514675,12.03886,29.916963,33.465265,50.176903,51.144346,59.699002,65.46754,66.964432,0.0,70.46854,30.234203,94.195805,21.703892,93.697987,13.191204,80.089588,5.575447,59.081326,0.0,10.898886,34.261105,49.888528,52.41554,59.806571,63.340732,67.326659,68.542772,68.668496,-24.817772,274.993187,-52.498226,277.15865
18,0.439339,-0.893837,-0.139446,-0.086759,0.0,25.056496,4.540215,56.089439,-1.90361,61.22509,-9.490471,55.19577,-18.145351,35.859947,0.0,-7.723001,11.991498,33.150894,33.099518,52.020647,50.75643,60.913694,65.274137,67.905446,0.0,70.62561,30.095272,94.028091,21.752758,93.910789,13.474789,80.37014,6.049747,59.264374,0.0,11.132056,34.312975,49.946388,52.438697,60.038197,63.438483,67.37149,68.747598,69.045606,-24.080458,274.138916,-52.339697,277.111458
19,-0.724525,1.053833,-0.254974,-0.023403,0.0,25.787544,4.529114,57.046394,-1.596851,62.088661,-9.017544,55.748291,-17.643871,36.310501,0.0,-9.862652,11.124892,31.263493,32.113981,50.141582,49.784726,59.412233,64.392465,66.525016,0.0,70.815125,30.63921,94.302521,22.257099,93.719559,13.895874,80.666084,6.415329,60.016708,0.0,11.132797,33.988415,49.913723,52.354284,59.473366,63.528021,67.002038,68.929515,68.822934,-24.500942,275.23971,-52.29063,277.135015
20,1.098347,1.193141,-0.188541,0.048227,0.0,23.267841,2.691765,55.597401,-3.156967,61.163807,-10.401764,54.507923,-18.90461,35.764675,0.0,-9.998133,10.468918,31.797572,31.099916,49.863458,48.364775,59.491458,62.759661,65.685333,0.0,70.603809,31.15345,94.692707,22.70422,93.742733,14.118462,80.255985,6.333046,59.386997,0.0,10.445453,33.81749,49.930148,52.183112,59.387285,63.321095,66.943807,68.721169,68.533139,-23.122301,276.538337,-52.198877,277.288728
21,-2.005291,-0.64523,0.196495,0.050759,0.0,26.690254,4.470806,58.196068,-1.408539,63.655014,-8.575916,57.022934,-17.054844,38.441505,0.0,-10.764332,10.347887,30.312227,31.064842,49.401379,48.588929,59.536598,63.156963,66.322598,0.0,70.28635,31.048565,94.527569,22.576962,93.78027,13.869381,79.940472,5.89674,58.606625,0.0,10.672077,33.694112,49.86179,52.088202,59.681341,63.206363,67.021859,68.598965,68.323743,-24.859915,275.953838,-51.734705,277.400218
22,-0.997982,-0.202233,-0.049267,-0.143693,0.0,28.353138,5.364246,58.143597,0.067291,64.367008,-6.479588,58.090153,-14.388256,40.281658,0.0,-9.74261,11.363867,30.059977,32.141954,50.07662,49.29628,59.631385,63.493009,66.495314,0.0,70.977516,30.873184,94.413071,22.410679,93.973732,13.756599,80.482979,5.871105,59.357071,0.0,10.700852,33.347878,49.399342,51.842435,59.098232,63.108674,66.930407,68.60514,68.691035,-25.702,275.795757,-51.628075,277.300676
23,-2.743721,0.150177,-0.381832,-0.093984,0.0,33.379383,9.849129,62.775364,3.631954,67.673321,-3.560886,60.78661,-12.150764,43.507404,0.0,-10.097551,9.118066,26.251335,30.831054,48.6006,49.10473,59.34017,64.097175,66.543664,0.0,71.210918,30.823517,95.009937,22.423725,93.932476,13.884315,80.385418,6.181583,59.734554,0.0,10.802802,33.766546,49.516853,52.129945,59.86369,63.140352,67.24447,68.427361,68.812313,-28.267794,276.019633,-51.83198,277.280391
24,-0.863113,-0.728593,-0.121651,-0.414098,0.0,35.111217,10.995255,61.152477,5.161171,67.048817,-1.648407,61.743679,-10.065479,44.923496,0.0,-12.013728,8.412567,23.392229,30.475125,46.671579,49.155242,58.71365,64.304471,66.462709,0.0,70.741711,30.573349,95.42078,22.242393,94.441967,13.766613,81.090488,6.189308,60.120106,0.0,10.331523,33.427598,49.092195,51.904432,60.019177,63.184442,67.272937,68.699124,68.958291,-28.936386,275.415282,-51.759109,276.990535
25,4.773388,0.280038,1.152134,-0.59021,0.0,24.717979,6.734104,49.954033,3.347282,56.191521,-0.65609,53.376617,-5.517654,39.13456,0.0,-11.081111,15.732214,24.331021,38.463714,42.85528,55.96057,54.242426,68.703385,62.909097,0.0,68.877182,29.613762,95.032082,21.53595,93.315926,13.538246,80.191612,6.10033,59.56089,0.0,7.655507,34.187251,48.82531,52.016262,59.751057,62.369151,68.04457,66.887305,68.903888,-24.037285,275.759834,-50.481262,276.464838
26,-2.348499,-3.667974,0.376396,-2.43309,0.0,29.779644,8.14064,61.227436,2.600842,66.681347,-3.233814,59.006367,-9.408588,41.210804,0.0,-9.041001,15.904251,31.62677,38.441793,48.163716,55.717644,58.055823,68.388026,64.752223,0.0,68.106194,29.122925,94.382629,21.749382,95.73761,14.127502,82.857513,7.220592,61.827393,0.0,7.507245,32.774216,47.959939,51.081238,59.802804,62.282021,68.113977,67.461214,70.225409,-26.295977,272.094422,-50.015059,274.034311
27,2.988052,-0.605648,-0.531406,-4.871305,0.0,28.837109,14.409828,64.581013,5.238419,67.383099,-5.500832,56.914158,-16.843758,35.915623,0.0,-11.026709,9.665174,26.977458,30.739417,44.435288,48.32933,56.878304,62.126472,65.428081,0.0,68.128109,29.863071,96.305408,22.304764,98.205471,14.602318,84.290829,7.828732,63.06982,0.0,6.397898,32.027839,50.259463,49.911747,62.457022,60.88041,69.13817,66.232072,70.296422,-22.953873,271.571921,-50.192413,269.246153
28,9.013424,-8.973014,-0.54697,-9.162156,0.0,18.130646,2.199154,51.03241,-3.58429,57.258224,-11.526947,49.281349,-20.503178,30.554581,0.0,-3.375463,17.998948,38.74968,36.2139,52.360706,49.75453,60.023623,59.889193,65.44074,0.0,68.77224,27.914886,95.696411,20.603027,97.221794,13.835106,84.19487,7.90575,64.377022,0.0,5.984171,34.205097,56.386092,51.571659,67.214212,62.036934,74.267159,66.880019,74.29297,-13.614836,262.590663,-50.413771,260.075754
29,6.886311,25.568746,0.26865,-12.552994,0.0,0.209084,-2.397938,37.534733,-7.498798,42.638569,-15.413132,35.018406,-23.444481,11.220875,0.0,34.851871,8.484013,26.346493,-1.414023,23.916243,-13.651349,7.88701,-26.628939,-11.6536,0.0,64.582729,32.002544,94.338512,24.48658,91.338558,15.084343,69.429302,5.169983,41.537476,0.0,5.973056,32.446136,62.254728,48.529896,74.775426,59.210803,76.644858,65.51095,71.682595,-6.355562,288.145299,-49.772158,247.50865
30,34.347582,-43.897102,-2.969284,-17.66457,0.0,-29.117317,-20.223913,-27.212448,-17.963533,-25.902958,-16.318588,-20.923862,-14.446335,-21.126051,0.0,35.416053,22.441026,34.008916,22.037703,39.538449,18.512218,38.425244,12.576274,33.484809,0.0,59.968128,30.985794,91.065502,25.33144,83.107281,17.833157,59.219227,8.945103,39.383698,0.0,0.721245,30.764302,66.188291,45.890189,77.079087,56.494402,80.31166,64.299469,80.141661,28.57707,244.232219,-52.156391,229.828102
31,34.347582,-43.897102,-3.280163,-11.437597,0.0,-58.443718,-38.049889,-91.959629,-28.428268,-94.444485,-17.224045,-76.866131,-5.448189,-53.472977,0.0,35.980236,36.398039,41.671339,45.489429,55.160655,50.675784,68.963478,51.781487,78.623218,0.0,51.861076,28.076134,84.921455,23.514919,77.121277,17.486973,62.276459,10.250931,45.974007,0.0,-6.353376,18.797196,51.237837,34.043373,63.600887,45.210255,69.050607,54.44293,68.035184,63.172903,200.394536,-55.188303,218.449925
32,0.573807,-15.251302,-17.802201,-32.286357,0.0,-41.010132,-38.807602,-60.25692,-30.186882,-53.470116,-20.452652,-45.47905,-9.477997,-38.547935,0.0,41.966815,35.588368,56.940611,44.291595,64.703811,50.746242,69.506325,54.008392,71.886372,0.0,42.093916,32.87922,91.542321,34.994975,93.634243,34.998494,86.430188,33.557168,74.796582,0.0,-20.905602,19.365238,41.925164,33.700565,51.588023,43.36574,57.844976,50.674642,58.016581,63.692636,186.097525,-73.044577,187.117858
33,3.340874,-14.02957,-17.8022,-32.286357,0.0,-40.469971,-39.42421,-51.674881,-31.111107,-40.331039,-19.584618,-29.337387,-6.00769,-16.508331,0.0,30.241585,26.012423,37.911665,34.302848,47.039117,40.358587,47.394059,44.456345,48.106473,0.0,32.326756,37.682304,98.163185,46.475029,110.147209,52.510014,110.583916,56.863403,103.619156,0.0,-35.457828,19.93328,32.612492,33.357758,39.57516,41.521224,46.639345,46.906354,47.997978,66.515522,174.278929,-91.364765,157.042475
34,39.033966,-61.962185,-10.607958,-27.377478,0.0,-66.509056,-44.961205,-73.74424,-37.225685,-60.482712,-25.714645,-50.45208,-11.776772,-39.998817,0.0,19.945723,21.087611,59.149763,34.412053,66.643978,46.01298,70.53166,54.796482,75.185295,0.0,13.834763,32.110663,67.919998,44.293413,84.44664,53.654137,91.350518,61.273613,93.541317,0.0,-41.740777,6.566971,16.545436,18.417199,20.499547,26.652559,26.507692,32.753345,29.02978,105.379972,113.610477,-102.142239,130.95873
35,4.957809,-10.406087,-10.607958,-27.377477,0.0,-52.551956,-42.076149,-56.516647,-33.951759,-45.116272,-23.074951,-28.267822,-10.853577,-15.683212,0.0,30.244981,14.567848,28.493122,22.74595,36.406684,31.215636,37.4465,39.045094,40.437504,0.0,-4.65723,26.539021,37.676811,42.111797,58.746071,54.79826,72.117119,65.683823,83.463478,0.0,-48.023728,-6.799338,0.47838,3.476641,1.423934,11.783893,6.376039,18.600336,10.061581,110.458031,105.796116,-112.629948,106.172979
36,8.168964,-24.613359,-9.585084,-15.752777,0.0,-62.987823,-32.808208,-61.745853,-23.836784,-53.84428,-13.221187,-39.716263,-1.130104,-23.194828,0.0,19.045602,6.988757,14.949574,15.297167,23.153795,24.345949,27.340257,33.319117,35.974416,0.0,-13.913613,23.637914,36.471548,40.062017,53.485736,53.150367,67.843952,63.924894,80.411253,0.0,-50.772409,-10.809302,-3.947457,-1.808932,-1.077422,5.609747,2.86772,11.686682,2.606315,118.825292,86.15436,-122.016735,95.391805
37,8.168965,-24.613359,-9.585085,-15.752777,0.0,-73.423691,-23.540268,-66.97506,-13.721809,-62.572289,-3.367424,-51.164703,8.593369,-30.706444,0.0,7.846223,-0.590334,1.406026,7.848385,9.900907,17.476262,17.234015,27.593141,31.511328,0.0,-23.169994,20.736809,35.266285,38.012238,48.225403,51.502476,63.570786,62.165966,77.359028,0.0,-53.521089,-14.819265,-8.373294,-7.094505,-3.578776,-0.564399,-0.640599,4.773029,-4.848951,127.288198,67.010081,-131.307878,85.108107
38,5.742416,-7.672396,-3.901634,-11.236753,0.0,-71.675262,-28.611946,-77.0327,-22.178879,-77.32235,-13.272171,-64.654541,-1.985664,-41.509209,0.0,4.95016,3.741241,-3.803856,9.245395,-0.340862,14.547471,2.317709,20.176268,12.453082,0.0,-23.757191,12.320137,48.933849,25.896778,64.541588,36.778679,71.336231,46.224575,77.217236,0.0,-51.555759,-9.885562,-17.889187,2.249815,-13.537172,10.823797,-4.878406,16.120069,2.836907,133.326273,59.229652,-134.913855,73.763322
39,0.751991,-15.372765,6.668358,-19.987034,0.0,-64.375076,-29.095802,-77.983017,-23.613167,-82.439919,-15.116959,-67.73838,-3.47065,-42.584496,0.0,4.679817,3.785424,-0.746562,10.453943,6.830923,17.652282,9.018956,24.877481,19.211387,0.0,-27.05183,17.194977,46.594334,34.187965,66.361885,46.525784,73.555241,54.438744,78.679218,0.0,-42.052741,-10.63657,-15.469898,-4.417285,-13.524266,1.230593,-12.150165,5.97497,-7.150451,134.095831,43.949713,-128.22793,53.869114
40,1.21685,-11.397582,3.15588,-1.083473,0.0,-58.714027,-34.349556,-82.501717,-30.385666,-86.892014,-23.253365,-73.417168,-11.856766,-49.857903,0.0,1.039877,3.623916,-0.943145,12.2096,11.583605,20.988193,11.79933,29.049308,21.354651,0.0,-24.326363,18.881893,63.744106,31.233501,78.981571,40.555916,86.934929,47.414074,85.871372,0.0,-50.063745,-14.827355,-28.326612,-2.799362,-20.614017,6.676424,-15.380885,13.259851,-6.594265,135.532837,32.737336,-124.851894,52.970846
41,-2.64061,-7.288401,10.078926,1.086529,0.0,-61.829453,-33.110619,-80.166206,-29.093285,-83.286095,-21.942787,-69.356003,-11.02581,-47.840652,0.0,-4.403638,2.851665,-1.766618,13.080837,11.766695,23.03877,14.256071,32.347583,27.019943,0.0,-24.759693,24.946804,74.640141,33.378754,81.651764,38.304005,79.459305,40.887966,74.527531,0.0,-56.703952,-22.730203,-36.29859,-8.765471,-27.616452,4.000346,-17.722553,14.288767,-4.965443,134.257078,26.10988,-113.408117,54.718321
42,-2.428665,-2.917491,22.852879,-16.513233,0.0,-62.012558,-30.227051,-80.895767,-25.94696,-81.760941,-18.773575,-70.262604,-8.195343,-46.801872,0.0,-4.596732,1.400005,-1.110427,12.083259,9.612563,22.888037,13.82391,33.406386,27.194542,0.0,-19.383945,26.511269,83.834782,42.106991,97.406502,53.150082,100.507965,60.318203,95.836716,0.0,-41.826148,-10.09576,-27.804605,-1.442613,-22.859169,4.525688,-19.913396,8.096405,-16.355307,132.871313,24.244709,-89.512339,39.257408
43,-0.595551,-0.247125,11.924515,-2.876149,0.0,-60.685387,-29.875145,-79.38755,-25.047569,-79.641609,-17.150917,-66.39679,-6.261864,-45.014534,0.0,-0.641896,0.972785,-1.426527,10.958753,8.367428,21.359715,12.867798,32.127473,29.766323,0.0,-13.17421,29.257164,96.11721,36.608105,104.859352,40.814495,100.201721,42.348232,84.094391,0.0,-40.939967,-9.532411,-20.194114,1.687793,-16.136803,11.856573,-9.641678,19.473733,1.424613,132.416639,25.649114,-77.446947,38.032789
44,0.413361,1.115892,8.94413,3.725402,0.0,-60.26001,-27.150192,-80.375748,-21.856041,-80.102577,-13.49659,-67.868271,-2.53006,-44.716644,0.0,0.518518,-0.586382,-0.773362,8.56963,5.593352,18.673942,11.011797,29.424905,27.76669,0.0,-5.005016,31.393318,97.453537,37.9006,104.361649,41.12606,102.249413,41.971664,85.485878,0.0,-35.259022,-8.127373,-17.922501,1.456229,-13.6126,10.104066,-7.067335,16.233689,1.475711,132.795267,27.455422,-68.53755,42.448607
45,5.403099,-0.396005,2.561874,6.052281,0.0,-59.790802,-25.38311,-76.364479,-21.413956,-74.623833,-15.061226,-66.362457,-6.625214,-48.62915,0.0,-5.663439,-0.285719,-3.914204,9.548621,2.691886,20.6138,13.6708,32.241743,28.442981,0.0,2.609711,33.327198,93.084183,40.33905,101.678238,44.329491,97.17041,46.142979,84.51107,0.0,-33.331082,-5.727999,-14.123956,1.743863,-12.036823,7.925449,-5.979107,12.155044,-1.336588,137.983675,28.877132,-66.190367,50.318605
46,2.388382,0.816618,-12.871356,8.434165,0.0,-61.933479,-25.744972,-75.35717,-21.258087,-73.744354,-13.878937,-63.541145,-3.723564,-43.245735,0.0,-6.204774,0.27022,-2.469275,10.431343,5.226802,21.38213,14.41869,32.880767,30.47917,0.0,6.123118,37.697511,100.845923,45.155997,108.616776,49.02739,103.663716,50.477986,90.585465,0.0,-32.023092,-6.018859,-12.862727,1.426597,-10.211164,6.988248,-5.035831,10.430316,-0.947398,139.685068,31.260837,-79.748712,60.319856
47,5.101433,0.007441,-12.871356,8.434165,0.0,-59.317703,-24.692917,-73.512383,-20.611725,-70.52227,-13.94783,-62.740517,-4.945335,-44.317131,0.0,-4.672191,1.261561,-2.722329,11.174138,4.17124,21.809011,14.900097,33.078924,30.19521,0.0,9.636526,42.067823,108.607664,49.972944,115.555315,53.72529,110.157022,54.812994,96.659861,0.0,-30.715103,-6.309719,-11.601498,1.10933,-8.385506,6.051046,-4.092555,8.705588,-0.558209,142.825384,31.968837,-94.581184,69.454579
48,3.886528,3.560097,-12.871356,8.434164,0.0,-60.333939,-21.026688,-72.046165,-15.838852,-68.325119,-8.096924,-58.986969,1.316872,-39.235954,0.0,-4.649868,-0.985845,-4.461375,7.580851,2.384307,17.268935,12.234764,27.858112,27.79173,0.0,13.149934,46.438136,116.369405,54.789891,122.493854,58.42319,116.650329,59.148002,102.734256,0.0,-29.407113,-6.600579,-10.340268,0.792065,-6.559846,5.113845,-3.149279,6.980861,-0.169018,145.719481,35.507953,-108.444972,77.867763
49,5.986977,-2.577833,-12.871356,8.434165,0.0,-56.561165,-22.067184,-72.864189,-17.753105,-70.963898,-11.390419,-62.457848,-3.099976,-44.296875,0.0,-3.219697,0.706456,-2.73613,10.039135,5.540741,20.476807,15.42445,31.757095,30.208209,0.0,16.663342,50.808449,124.131145,59.606838,129.432392,63.12109,123.143635,63.483009,108.808651,0.0,-28.099124,-6.891439,-9.07904,0.474799,-4.734188,4.176643,-2.206003,5.256133,0.220171,151.103067,34.403625,-121.919718,87.775432
50,2.809067,0.350619,-16.070862,1.377538,0.0,-59.246864,-20.629005,-72.805023,-15.787811,-70.047455,-8.876152,-61.032944,-0.325012,-42.65625,0.0,-5.39748,0.103432,-3.509986,10.141178,5.286453,21.162576,16.198924,32.507177,30.719996,0.0,3.954716,45.035496,106.095448,51.507397,104.809017,53.195496,100.424252,52.581539,88.785305,0.0,-30.864955,-8.98557,-8.381836,-2.434541,-4.852285,0.526917,-3.331959,1.174678,-1.118989,153.32737,35.111624,-138.575344,89.510351
51,6.051636,0.629885,-16.070862,1.377539,0.0,-53.253708,-21.368637,-76.317558,-17.944565,-75.366669,-12.645607,-66.805687,-5.41008,-48.307571,0.0,-2.051812,-1.088969,-5.479762,9.208191,3.668839,20.340153,14.123986,31.54458,28.23729,0.0,-8.75391,39.262543,88.05975,43.407955,80.185643,43.269902,77.704869,41.680069,68.761959,0.0,-33.630787,-11.079702,-7.684633,-5.343881,-4.970384,-3.122811,-4.457917,-2.906777,-2.45815,157.03414,35.87259,-156.991072,91.01897
52,4.50016,-0.479121,-16.070861,1.377538,0.0,-49.356308,-22.811165,-78.034401,-21.075897,-79.183617,-17.258492,-70.417099,-11.242332,-53.105507,0.0,2.461649,-1.464504,-6.040611,8.887305,2.348059,20.274019,12.795179,31.899522,26.975081,0.0,-21.462536,33.48959,70.024052,35.308514,55.562267,33.344307,54.985485,30.778599,48.738613,0.0,-36.396619,-13.173833,-6.98743,-8.25322,-5.088481,-6.772538,-5.583874,-6.988232,-3.797311,160.081072,35.665247,-174.515162,92.668288
53,1.607552,-1.299136,-9.416028,-11.173629,0.0,-48.454857,-24.478683,-81.711845,-22.619934,-81.980896,-18.795547,-73.226852,-12.791176,-55.550652,0.0,2.874852,-1.529002,-5.44827,9.750544,2.524974,21.698199,13.53887,33.66475,27.489554,0.0,-25.853576,25.505391,63.606606,31.138859,58.016825,33.443442,61.951189,34.86291,59.840985,0.0,-34.585248,-8.297974,-3.953863,-1.749898,1.504611,1.441471,2.689848,2.018606,2.124955,160.849543,34.364228,-184.77027,81.492775
54,-2.464828,-1.288484,-9.416027,-11.173629,0.0,-49.737625,-22.710228,-83.889999,-20.180511,-84.283676,-15.730476,-75.164909,-9.28299,-54.519653,0.0,3.513351,-0.365161,-5.440273,10.161802,2.233358,21.57791,13.888934,32.987657,28.380613,0.0,-30.244617,17.521191,57.189159,26.969204,60.471382,33.542576,68.916893,38.94722,70.943356,0.0,-32.773877,-3.422115,-0.920297,4.753423,8.097702,9.65548,10.96357,11.025443,8.047221,157.151699,32.965457,-195.419312,70.20886
55,-1.21582,-1.136022,1.064129,1.22553,0.0,-46.240425,-24.86824,-85.477753,-23.620949,-88.390846,-20.589752,-80.404243,-15.410614,-60.463715,0.0,6.467769,-0.172253,-5.556889,10.701161,1.2887,22.489963,12.817873,34.485444,27.481002,0.0,-26.80172,14.207439,63.554134,24.817085,68.551254,33.248863,76.316643,40.043964,74.828739,0.0,-38.034549,-9.646186,-13.42704,2.156108,-9.980349,10.344738,-7.112227,16.032043,-0.469427,154.327326,29.150625,-195.963736,68.755579
56,-4.144135,-0.914925,8.744431,-3.924455,0.0,-45.841599,-25.974884,-86.606827,-24.653091,-90.100021,-21.447716,-82.848129,-15.696259,-61.834145,0.0,6.652125,0.558255,-4.910794,11.443833,1.780604,23.20741,12.394635,35.121936,27.424161,0.0,-29.348774,5.569038,54.072304,13.335285,64.895554,20.588665,70.739021,26.906147,67.75938,0.0,-41.00002,-8.536655,-15.321667,6.820765,-11.973312,17.242598,-5.369322,23.255545,1.188387,149.766054,27.60475,-187.636442,64.200174
57,-4.721489,4.731625,12.064533,-1.631477,0.0,-48.562546,-23.835182,-87.992477,-21.635742,-90.351448,-18.005905,-82.323418,-12.246552,-61.149788,0.0,2.9471,-0.996281,-6.978568,7.285344,-1.234977,16.823931,7.973398,26.659536,22.458131,0.0,-25.572052,8.337307,57.468567,13.114815,59.55637,15.304241,43.010845,16.828365,35.766163,0.0,-48.760225,-14.032781,-21.830747,1.518165,-18.203188,14.468585,-3.037287,24.996073,6.68195,144.722986,29.254659,-175.893488,59.486982
58,-2.894554,-4.38641,11.196156,-3.21238,0.0,-46.418839,-26.229858,-88.527832,-24.939766,-92.050438,-21.834984,-85.16407,-16.144867,-64.289017,0.0,7.053626,1.885024,-5.11102,12.401273,2.794052,23.555096,14.056339,34.790491,28.586242,0.0,-23.285294,19.552602,71.501684,27.10679,77.21363,31.075372,67.619419,32.978525,62.563505,0.0,-45.188828,-14.891158,-22.456479,-2.813549,-18.414621,7.57074,-5.820331,15.948758,3.525532,141.525908,23.299943,-164.999857,54.706295
59,-3.551788,2.587157,11.196155,-3.21238,0.0,-48.261108,-26.732025,-88.928719,-25.175056,-92.246132,-21.508141,-84.046898,-15.448151,-63.706055,0.0,4.155278,0.912146,-5.069554,10.734753,1.482411,21.456107,13.16951,32.27518,28.452305,0.0,-20.998535,30.767899,85.534801,41.098766,94.870892,46.846504,92.227993,49.128685,89.360847,0.0,-41.617431,-15.749535,-23.082211,-7.145264,-18.626055,0.672894,-8.603376,6.901442,0.369113,137.482796,25.071717,-154.295025,50.678532
60,-2.37751,0.831037,9.631462,-1.641449,0.0,-49.209824,-25.804939,-90.299034,-24.327736,-93.305054,-20.814629,-84.736519,-15.22934,-63.355637,0.0,6.40784,-0.239993,-6.164976,9.387452,0.970747,20.283899,12.175668,31.819895,27.301247,0.0,-19.391155,20.635757,88.016453,31.689377,90.481682,40.377502,88.305187,47.009411,83.112087,0.0,-38.831994,-9.734891,-15.633753,1.948936,-12.898117,10.521961,-9.756411,15.232962,-4.65842,134.8843,25.371006,-144.884548,48.505335
61,-7.893448,-1.332018,1.031857,2.891278,0.0,-54.604797,-28.351364,-87.026939,-25.063934,-88.444748,-19.481621,-79.703293,-11.147575,-57.756729,0.0,5.232977,1.724689,-2.788062,12.530949,6.44134,23.814139,16.322209,34.885957,29.455595,0.0,-17.515526,22.448101,86.117535,34.092693,98.562584,42.754326,96.763287,49.082222,88.732224,0.0,-42.231786,-11.271642,-20.88544,-0.228106,-17.627983,8.308302,-14.834579,13.782383,-7.732664,126.9942,23.590695,-143.849344,50.94832
62,-1.911621,0.805905,-0.680923,1.201879,0.0,-52.658272,-28.292542,-86.56414,-25.073433,-86.835709,-19.295425,-77.137184,-10.744858,-55.849457,0.0,2.961581,-0.435804,-4.005224,10.217872,5.942767,21.682607,15.927747,33.425344,29.44272,0.0,-16.87151,24.453793,83.456497,36.596317,97.071476,45.540791,98.003483,51.817188,90.899105,0.0,-40.928852,-11.371431,-21.659204,-0.96238,-18.787069,7.013643,-15.306754,12.562905,-7.934897,125.028877,24.033585,-144.583969,51.787184
63,-1.082153,-0.576811,-0.90065,0.526268,0.0,-54.597244,-26.729279,-83.203926,-22.719727,-83.689728,-16.269836,-73.162193,-7.400665,-52.263222,0.0,1.936555,-0.604197,-1.41251,9.838107,10.595599,21.153283,18.810935,32.999698,31.194548,0.0,-17.145424,23.387089,80.979252,37.026672,95.092392,46.879292,96.70435,53.740025,91.498775,0.0,-40.451059,-11.951483,-21.533357,-2.286093,-19.766369,5.564237,-16.712656,11.537385,-8.82858,123.970156,23.441244,-145.461187,52.297921
64,0.187569,-0.533369,-0.650368,-0.511324,0.0,-55.541611,-26.463318,-82.491875,-22.150841,-82.227058,-15.437508,-71.492043,-6.350327,-51.032181,0.0,4.817767,-0.798248,-1.200799,9.712414,11.095715,21.298057,20.18868,33.499228,32.233931,0.0,-18.618622,21.735935,81.605244,36.086254,93.045788,46.580944,95.242825,54.050388,90.291023,0.0,-39.989845,-10.472839,-20.865279,-0.569215,-18.697623,7.069589,-16.314551,12.582048,-10.216544,124.189854,22.862087,-146.079426,51.740809
65,1.361618,1.363573,-1.476574,-0.283465,0.0,-54.132271,-26.769905,-83.297539,-22.710228,-83.413582,-16.47995,-72.912369,-8.049088,-52.769737,0.0,4.039156,-1.103665,-2.52587,9.177531,9.144711,20.493727,18.110809,32.619995,30.612273,0.0,-18.939457,21.452179,79.411297,35.697899,93.096714,46.45237,96.107655,54.265308,91.494827,0.0,-40.593918,-10.949521,-21.868167,-1.438939,-20.072836,6.355136,-17.087512,12.469508,-10.558549,125.570469,23.965999,-147.537003,51.197683
66,1.016464,-0.164318,-1.393089,-0.263489,0.0,-54.22966,-26.867638,-83.088455,-23.150253,-83.476868,-17.073212,-73.432274,-8.570251,-53.224411,0.0,4.302059,-0.751811,-2.749159,9.250737,9.192135,20.360716,18.155764,32.38877,31.420987,0.0,-19.06723,20.636673,81.01244,34.643154,93.378239,45.118904,95.540485,52.565002,90.187855,0.0,-39.764857,-9.54649,-21.245785,0.912548,-18.78852,8.88468,-15.471751,14.443915,-9.527996,126.598177,23.820499,-148.918848,50.953013
67,1.267204,-0.285071,-2.539501,0.747612,0.0,-53.590622,-25.765572,-85.67379,-22.536392,-88.586426,-16.843414,-78.361816,-8.888626,-55.856094,0.0,7.021855,-0.757122,-1.314543,9.235916,11.168704,20.42682,19.150439,32.69425,31.652798,0.0,-16.955338,22.27993,81.756077,34.357052,95.255184,43.594952,96.928196,50.481033,90.123882,0.0,-41.240507,-12.156989,-22.022605,-0.959262,-18.506568,8.304442,-14.277405,15.265103,-6.962482,127.974758,23.572386,-151.348972,51.737583
68,-1.882782,-0.858516,-0.71497,0.002594,0.0,-55.778046,-25.275764,-84.607658,-21.635742,-88.126717,-15.475388,-78.180428,-6.951714,-54.870529,0.0,3.721018,-0.4258,1.012028,10.390063,13.234101,22.132644,20.939534,34.533177,32.727934,0.0,-15.648479,22.253323,78.909931,33.794346,90.151234,43.193951,93.908558,50.580254,91.053829,0.0,-39.364529,-11.476777,-20.215665,-0.217485,-16.908251,8.751608,-13.464801,15.350905,-6.805698,126.295309,22.739821,-151.860609,51.766127
69,1.075401,1.327819,-0.400829,0.717879,0.0,-53.145561,-25.487137,-84.827499,-22.084465,-88.305588,-16.141548,-78.11348,-7.872963,-55.140953,0.0,4.476133,-0.028251,0.510614,10.603626,11.829434,22.145489,19.632247,34.337613,32.318653,0.0,-16.387024,21.419563,78.882294,32.737255,90.91301,42.105846,93.922405,49.460678,90.106144,0.0,-40.078642,-11.718345,-21.110428,-0.009139,-17.880573,9.218966,-13.977298,15.877389,-7.003299,127.703648,24.287765,-151.928501,52.704131
70,-1.035233,0.557946,0.010014,2.454085,0.0,-53.55835,-25.153084,-85.221519,-21.569824,-86.38504,-15.229111,-75.505829,-6.62693,-52.374115,0.0,5.052264,-0.525527,-0.607377,9.185374,10.898546,20.210508,19.233246,32.249554,33.245928,0.0,-16.547756,21.761169,76.427536,34.37336,89.793205,44.547329,95.125179,52.26757,92.876816,0.0,-41.592206,-12.332391,-22.890662,-1.904259,-19.912532,6.322779,-16.738993,12.147665,-9.513238,126.910028,24.878979,-151.676874,55.191484
71,-0.282211,-1.156369,0.287075,-0.325641,0.0,-54.650002,-25.936317,-86.097221,-21.989136,-87.810059,-15.232544,-76.326599,-6.096725,-52.613297,0.0,6.882207,0.426881,1.63018,10.506277,13.944787,21.667293,21.545182,33.71872,34.065912,0.0,-15.960217,21.353588,77.266273,34.512463,90.86071,45.17704,96.083164,53.319798,93.819466,0.0,-41.008541,-11.850583,-22.984924,-1.320903,-20.397118,6.649068,-16.925973,12.054082,-9.994366,126.978579,23.733169,-151.039038,54.876402
72,0.77774,-0.307116,0.351734,0.226871,0.0,-50.990295,-25.105476,-84.744873,-21.552887,-86.76281,-15.554924,-75.989227,-7.254524,-53.424454,0.0,7.982846,0.865772,1.615144,11.568013,13.760801,23.130377,23.114908,35.041445,34.629569,0.0,-16.113739,21.767921,78.172359,34.819107,91.338844,45.194321,96.431293,52.908955,93.611069,0.0,-41.537557,-11.6649,-23.704717,-0.783674,-20.553656,7.420979,-16.856103,12.91868,-9.8273,127.957621,23.475839,-150.486002,55.15306
73,-0.070152,0.708061,0.857277,0.297297,0.0,-53.880157,-25.540352,-85.395699,-22.025986,-86.147804,-15.785637,-74.710464,-7.176933,-52.069702,0.0,1.077051,0.225543,0.370441,10.82741,12.925936,22.193407,22.738416,33.910053,35.180877,0.0,-16.297531,20.75386,76.90527,33.623199,90.624046,43.943195,95.734806,51.639633,92.430611,0.0,-42.657709,-12.399174,-24.666696,-0.897326,-21.129231,7.938077,-16.904361,13.798377,-9.080954,127.951183,24.120174,-149.56501,55.386631
74,-0.540047,0.08324,0.222301,-0.018309,0.0,-54.13868,-26.149178,-84.2062,-22.301559,-85.48645,-15.995865,-74.871712,-7.358665,-52.883263,0.0,5.642938,-0.175587,1.401981,10.425507,13.652368,21.919667,23.072023,33.984308,34.044299,0.0,-16.461296,20.782185,78.357296,33.443356,91.07008,43.466663,95.023956,50.824928,90.919647,0.0,-42.264112,-12.252331,-23.585076,-1.109254,-21.332637,7.405634,-17.17282,13.083893,-9.186485,127.507925,24.245265,-149.24592,55.410173
75,0.532837,0.167961,0.53484,-0.040632,0.0,-52.454224,-25.132828,-83.389893,-21.519127,-84.706192,-15.471497,-73.915329,-7.086296,-52.265167,0.0,6.503646,0.294735,0.824214,10.66266,12.639013,21.908892,22.84793,33.621833,34.440767,0.0,-15.287476,21.110859,79.865742,33.692608,92.362003,43.69154,95.271549,51.091919,91.692581,0.0,-42.728105,-12.311519,-23.845971,-0.927522,-21.654604,7.688729,-16.780397,13.204955,-8.786343,128.153601,24.49926,-148.598242,55.455575
76,0.598183,1.302007,1.354809,-1.382777,0.0,-52.349167,-25.82119,-85.226097,-22.469559,-86.0606,-16.674843,-75.549202,-8.511314,-53.647614,0.0,5.702126,0.007781,1.141889,10.63268,12.936403,22.018777,22.701767,33.637117,33.636993,0.0,-15.382118,20.847816,79.111977,33.067818,92.713509,42.794094,94.385376,49.797077,89.646263,0.0,-42.001148,-10.815214,-24.180257,0.854873,-21.720337,9.70877,-16.277038,15.290514,-7.08481,128.826284,25.855978,-147.168932,54.127509
77,-1.422043,1.397319,0.397854,1.549163,0.0,-53.581009,-25.078011,-84.605141,-21.496353,-87.054062,-15.340691,-75.502968,-6.74366,-52.624397,0.0,3.012092,0.128811,1.409083,11.301283,13.660735,22.847992,24.117889,34.244586,35.32704,0.0,-13.424492,20.31229,79.44849,33.729057,95.098515,44.223232,96.212425,51.591682,90.652027,0.0,-46.22747,-11.026895,-27.935763,0.556649,-25.403625,9.164965,-20.327186,14.615798,-12.280428,127.736979,27.265123,-146.438341,55.688498
78,-2.961845,2.750826,0.854588,-0.324992,0.0,-55.291672,-25.139236,-84.930153,-20.465813,-84.444351,-12.987785,-72.012863,-3.138771,-49.189224,0.0,0.712415,-0.289393,2.2994,10.616779,13.823385,22.283501,25.477139,34.044299,39.306298,0.0,-5.88335,23.569279,79.102135,37.290802,98.647041,47.053585,100.311012,52.822266,91.951962,0.0,-51.93188,-8.033512,-31.517349,3.764984,-27.389272,12.185085,-20.097413,17.112984,-10.50674,125.174847,29.903332,-145.18404,55.250888
79,-3.376122,5.899912,2.967052,1.58609,0.0,-52.380867,-27.304001,-82.969322,-21.73439,-82.729683,-13.616524,-68.61866,-4.075584,-47.477646,0.0,6.320186,-0.928664,6.209004,10.634718,21.878943,23.312664,34.486648,35.795973,45.960646,0.0,2.986794,22.096882,79.245243,35.976334,98.029003,46.731148,101.164284,53.86591,95.255756,0.0,-55.109464,-6.023444,-33.727952,6.077568,-29.672864,14.596717,-22.237867,20.106583,-10.859644,122.083483,35.816906,-141.93223,56.85064
80,-3.065186,7.901552,3.350887,3.854769,0.0,-50.962257,-28.570976,-86.154442,-22.867012,-85.976028,-15.008926,-70.945702,-6.115265,-49.23317,0.0,13.590247,-1.529681,11.092597,10.520294,29.734799,24.260749,44.830459,37.673,57.757507,0.0,10.129051,23.122673,81.773987,37.145405,99.747334,48.038349,104.299564,55.063648,96.764145,0.0,-56.340458,-3.837387,-38.270343,9.504623,-32.923405,18.271268,-24.50457,23.36543,-12.306795,120.039282,45.041383,-137.560358,62.028335
81,-3.735008,10.213858,0.828781,8.276809,0.0,-49.927483,-32.82795,-89.133453,-27.675705,-89.188271,-19.339027,-73.620071,-9.537277,-51.699028,0.0,19.931119,-0.239993,18.026829,13.030418,39.608876,27.624603,55.748673,41.172396,66.589483,0.0,17.168369,22.255211,83.442936,34.319687,100.732727,44.416065,104.937572,51.993713,98.735733,0.0,-57.135248,-6.071208,-43.236959,9.021797,-35.898077,19.466879,-25.646428,26.197365,-12.197868,117.174768,55.648144,-135.861082,70.698047
82,-5.145493,12.500815,3.799553,7.698084,0.0,-50.886269,-33.921204,-91.539001,-27.009544,-91.621399,-17.686043,-77.526855,-7.323418,-55.183067,0.0,24.022794,2.792354,27.293713,15.898662,49.793741,30.511126,64.954764,44.323859,70.824326,0.0,22.697411,18.884239,84.807472,28.620071,100.438614,37.780495,104.60638,45.190029,96.972198,0.0,-57.165012,-6.581729,-40.870745,10.133767,-33.114832,22.614421,-21.80194,31.28387,-7.429069,112.727022,67.718852,-131.363783,77.966024
83,-5.407219,15.188872,3.931503,10.065996,0.0,-61.226692,-34.384804,-92.228737,-27.504501,-96.208992,-18.323021,-82.953415,-8.008118,-59.921494,0.0,17.178656,5.712253,35.09313,19.233679,58.965592,34.115837,74.68805,48.156368,76.506846,0.0,29.464531,19.948711,88.22216,25.973854,103.379803,32.896957,104.508762,38.885422,96.18021,0.0,-56.746097,-6.057036,-35.7592,11.6649,-24.113814,25.507521,-12.482722,35.574227,1.743461,107.995892,82.2643,-126.756191,87.388596
84,-7.340584,19.086651,1.553364,12.879222,0.0,-64.476814,-32.029495,-87.61837,-25.687637,-91.969528,-17.842026,-80.114708,-8.882103,-60.74295,0.0,16.896858,6.05753,38.468006,19.538942,58.943701,34.82998,73.21416,49.246231,75.412351,0.0,36.828461,24.290543,94.467831,28.864174,109.616604,33.32634,107.163105,36.538067,94.770699,0.0,-53.168525,-5.01188,-28.15297,12.072638,-14.499614,25.673073,-3.701659,35.244326,8.897061,100.862875,100.931126,-124.99526,99.847992
85,-8.106651,20.767343,4.052982,11.969422,0.0,-62.296371,-33.087616,-80.612869,-27.508163,-81.439705,-19.638062,-71.789818,-9.905891,-51.838646,0.0,14.658838,9.130045,40.610251,21.191414,57.494728,34.465715,67.037884,45.936718,70.5994,0.0,41.640358,25.331154,97.379494,27.010689,112.536793,28.823891,103.818455,29.786682,85.36726,0.0,-45.778174,-2.081606,-16.468773,14.197037,-1.552498,28.12969,6.346522,38.041434,17.132158,92.403574,119.793576,-121.294928,109.912522
86,-8.02969,25.567187,6.896896,7.738747,0.0,-62.370415,-37.857342,-88.117246,-31.807365,-90.406637,-22.605572,-80.127039,-11.449413,-58.495102,0.0,19.758881,10.978668,47.213331,24.993248,66.09037,39.02748,75.495328,50.986651,78.819353,0.0,43.91407,23.51984,91.800442,24.330082,102.597771,25.06834,90.356255,25.164814,69.989891,0.0,-33.86547,3.554138,-0.153295,18.001511,12.498716,29.203962,17.432296,36.880526,23.638274,83.986101,142.334715,-114.785814,114.625221
87,-8.02969,25.567187,5.61985,24.063472,0.0,-62.444458,-42.627068,-95.621624,-36.106567,-99.373569,-25.573082,-88.46426,-12.992935,-65.151558,0.0,24.858925,12.82729,53.81641,28.795082,74.686012,43.589245,83.952773,56.036585,87.039305,0.0,50.429363,26.274347,97.487841,28.749876,103.828354,31.078377,96.311989,32.758942,80.695496,0.0,-29.590921,6.537408,16.860132,26.224057,31.939845,41.188652,37.89578,50.61374,38.99256,75.667105,165.159057,-109.455271,135.945848
88,-5.544319,14.530983,5.61985,24.063472,0.0,-50.817146,-40.400963,-88.066406,-34.754105,-99.752426,-26.329193,-91.444302,-16.316528,-66.644096,0.0,29.247403,21.317354,45.223717,37.225186,71.216503,51.45773,82.30521,63.167831,91.053823,0.0,56.944656,29.028854,103.17524,33.16967,105.058937,37.088413,102.267723,40.353069,91.4011,0.0,-25.316372,9.520679,33.873559,34.446603,51.380974,53.173342,58.359265,64.346955,54.346846,70.181036,178.115899,-103.77717,158.435178
89,-4.167023,17.85791,5.032425,12.714348,0.0,-45.607109,-40.846596,-60.45433,-35.47039,-99.772339,-27.025681,-90.890007,-16.766853,-66.662979,0.0,27.684809,21.338349,33.954946,38.619263,70.773506,53.860253,85.596013,65.269136,94.233043,0.0,63.156223,31.031742,105.114441,26.427956,108.950615,23.135719,100.777817,20.235958,79.813442,0.0,-19.021967,16.818589,32.58878,34.980373,49.103681,48.935843,61.916397,58.46035,65.336567,66.313505,194.415414,-98.445253,169.591131
90,-38.306007,32.287685,17.943821,28.369127,0.0,-73.65406,-33.943977,-67.307053,-25.156403,-59.529247,-15.856705,-51.334305,-6.806717,-40.376129,0.0,38.801551,-0.354447,-7.864347,26.799802,26.399721,51.38752,51.912213,69.1985,72.053962,0.0,48.979397,32.857418,75.509663,41.51968,70.386486,47.135582,73.214264,50.036831,70.95686,0.0,-11.809025,17.868778,56.133965,39.242202,84.554345,57.495623,94.854005,72.134114,101.596903,28.269167,225.638306,-80.239763,196.895465
91,25.455551,53.581079,-2.166595,10.8267,0.0,-84.275265,-49.620667,-85.704803,-56.64608,-85.122871,-60.630684,-83.10791,-61.819782,-87.538548,0.0,41.062048,-1.494545,-3.260422,-10.955202,-16.886082,-19.653304,-30.42838,-28.317751,-41.214077,0.0,60.843487,25.685806,95.786648,20.702648,93.455029,15.925598,82.76659,11.876392,63.335953,0.0,-6.02789,24.33417,55.079885,44.303327,77.661579,58.877598,85.365869,68.01388,80.679075,53.803997,277.895317,-82.32708,206.398097
92,-1.629639,15.527265,2.950401,16.022194,0.0,-83.232136,-39.850044,-105.738831,-46.206894,-111.032295,-50.246773,-105.388069,-52.100143,-98.222866,0.0,40.861606,9.401809,-3.284257,-5.597737,-29.291308,-21.123149,-46.878937,-36.800405,-53.897242,0.0,64.554005,26.186714,88.738232,17.840939,87.856579,11.138878,74.474316,5.255356,54.407215,0.0,-2.794021,27.716302,55.441249,43.784809,69.485083,55.034437,79.023052,61.293212,80.799735,52.176218,292.799273,-79.374819,221.796982
93,-18.153191,-35.793071,1.929932,14.00345,0.0,-68.761082,-30.335312,-82.117424,-25.93174,-92.960529,-19.871063,-89.654446,-10.94799,-64.7188,0.0,16.710279,24.378198,1.637497,41.733831,29.446301,55.92389,61.289322,65.366887,89.08028,0.0,68.627071,26.199417,94.292965,18.700333,92.693424,12.336273,81.923733,6.920357,60.506973,0.0,-3.167117,30.593315,59.703695,47.058877,73.395552,58.001421,81.346843,63.497578,81.713023,34.030724,256.56302,-77.437191,235.357249
94,-1.954308,9.831345,4.683781,11.758822,0.0,-70.872402,-27.292786,-86.726418,-21.707153,-92.411671,-15.286102,-88.320694,-6.831894,-62.019482,0.0,15.399565,29.950864,23.14356,43.755169,39.751581,54.312204,64.588523,60.465509,86.69517,0.0,69.878941,25.269241,93.516312,16.513023,91.677246,8.917637,80.895996,2.88517,57.873173,0.0,-0.688455,28.36851,63.020865,46.22889,78.782905,58.456213,86.595752,65.048687,84.315001,32.236147,266.13049,-72.593679,246.852197
95,1.285057,2.538127,4.344578,8.135308,0.0,-65.091591,-24.255981,-92.887287,-18.645515,-94.339142,-13.001862,-89.548073,-7.615013,-66.882992,0.0,-3.601161,46.425071,35.571572,56.107104,36.512216,59.692147,52.142604,57.91108,78.260373,0.0,71.585598,26.343212,90.902996,16.693954,89.623432,8.071003,78.050251,0.737286,55.294819,0.0,2.641559,29.321813,62.102142,47.070795,80.717669,59.175914,87.024732,65.776601,86.888881,33.750629,268.527749,-68.019676,254.846636
96,2.021484,5.510854,4.993744,6.322439,0.0,-61.294785,-49.001598,-19.738998,-45.9902,-10.870972,-40.452919,-15.407867,-33.649864,-55.110397,0.0,-4.606642,18.927983,51.342936,31.849627,62.035822,42.880227,66.002854,52.051584,80.400889,0.0,69.492702,27.788372,89.746685,17.602043,89.290409,8.000107,75.107632,-0.634518,53.398705,0.0,3.710521,28.451935,60.515774,45.513512,79.567938,57.623447,88.393183,65.278522,88.755226,35.945606,273.978365,-62.85244,261.108838
97,0.679436,4.394221,3.627605,3.216641,0.0,-62.58482,-46.236877,-19.765205,-45.693226,-7.017059,-43.137646,-8.885651,-38.39304,-44.70583,0.0,-1.076742,19.214135,57.681307,27.377477,66.872547,33.785565,68.676956,39.870759,67.670609,0.0,68.426056,30.372105,90.629425,21.393528,91.041183,11.899567,77.354851,2.332249,55.94799,0.0,1.273232,30.819878,59.31936,46.686584,76.289917,58.086081,86.928525,66.295983,89.201311,36.850233,278.295707,-58.999643,264.2486
98,1.317902,0.836286,2.402115,3.779249,0.0,-55.376587,-49.681263,-11.748734,-52.495022,-3.930244,-50.645542,-10.010147,-45.392361,-31.931877,0.0,-6.245992,16.595917,51.065121,30.001993,62.007479,41.769646,69.778954,50.849365,72.871291,0.0,69.423637,31.704025,92.07653,23.508453,92.905655,14.420643,80.066643,5.192699,58.992233,0.0,0.326907,28.923708,57.428686,45.300534,73.57895,57.35687,84.114065,66.092207,87.494344,38.570309,278.948023,-56.195354,267.843879
99,-4.245529,-0.27306,0.238094,3.369102,0.0,-46.769371,-39.248142,-8.7006,-41.069298,-0.316429,-38.680344,-1.27739,-33.749199,-13.49556,0.0,-0.601202,21.030276,49.503206,33.241914,61.824451,43.294078,66.80987,50.350668,68.33455,0.0,69.869099,32.394276,92.615833,24.602165,93.870678,15.711651,81.00111,6.976032,60.612087,0.0,2.08315,29.900599,57.552063,46.473422,72.074649,58.267936,81.663191,65.879045,84.341677,34.650536,278.563426,-55.631504,271.101444
100,-27.189217,2.439821,-0.660725,4.683583,0.0,-20.756607,-24.756489,22.263222,-34.345951,25.386314,-42.04113,17.933121,-47.621384,-8.104477,0.0,0.649985,23.240138,48.76183,38.118591,59.31337,47.678666,63.585264,54.754029,65.011142,0.0,69.408302,31.767082,94.420967,23.447113,94.038391,14.521179,80.677528,6.373901,61.183777,0.0,5.000116,31.377607,58.771202,48.662536,71.029029,60.318605,79.222753,67.204702,81.64306,7.788048,280.719565,-55.9655,275.501346
101,-10.808887,11.589935,-0.411243,1.41958,0.0,2.722378,-13.467293,39.088268,-21.796646,39.380207,-25.888481,22.099743,-27.292328,-0.563221,0.0,-8.016624,13.679692,39.074549,31.6645,50.878387,45.468496,55.97644,56.735044,57.681492,0.0,68.035069,30.075302,94.163418,22.123032,94.380627,13.532181,81.071033,5.558567,61.327114,0.0,6.258343,30.763067,56.646308,47.704663,69.09587,59.266563,77.261621,66.500439,80.293258,-2.835932,291.965473,-56.191835,276.5769
102,28.340549,-8.009893,-0.039654,-0.403415,0.0,-37.237644,-43.519707,8.565216,-55.462418,6.895409,-61.279335,-2.570801,-62.87962,-30.788956,0.0,-5.794288,19.166587,39.643703,37.749632,52.097773,50.809844,59.267675,60.261548,64.566848,0.0,68.381195,29.620972,94.841766,21.517124,94.241409,13.12706,80.477715,5.628948,61.121178,0.0,6.118293,32.111264,56.45235,49.176361,69.72134,60.249321,78.02498,66.595288,80.624981,25.719709,283.568266,-56.016397,275.78617
103,-13.303413,8.57176,0.173721,-0.253732,0.0,-21.348152,-32.099133,21.247215,-39.387875,25.72998,-40.885048,13.25798,-39.176044,-28.80106,0.0,-13.075588,16.333478,37.160657,34.63735,46.731662,46.876281,54.458429,56.119948,59.582355,0.0,67.92263,28.138561,93.964233,20.275326,94.316025,12.426567,82.160339,5.313148,62.531548,0.0,7.678911,31.653261,54.143996,49.075893,68.521653,60.576475,77.860724,67.288992,80.912182,12.674646,291.906872,-55.584326,275.299284
104,15.42984,-7.7272,0.324841,0.888959,0.0,-39.582653,-43.665676,4.186478,-54.725876,5.565147,-60.437965,-2.517014,-62.831211,-25.559807,0.0,-5.162087,16.88423,39.423995,34.739794,52.217816,48.200951,57.801288,58.273926,62.928857,0.0,68.332272,27.865677,93.834743,19.915409,93.87743,12.053375,81.471119,5.009823,62.401371,0.0,6.50874,31.519572,53.656785,49.207915,68.395374,60.810447,77.638484,67.426757,80.300359,28.337088,283.859666,-55.026884,275.868237
105,-14.112053,8.259241,0.372963,0.933604,0.0,-25.564899,-32.713795,19.325752,-39.713745,23.798332,-40.739994,12.423477,-38.966045,-17.751846,0.0,-12.812037,17.466413,36.458863,35.0173,46.434766,46.535419,54.153691,54.687585,56.711825,0.0,69.584484,27.43166,93.229809,19.910202,93.790913,12.571392,82.080288,6.196918,63.93362,0.0,7.300875,30.968202,53.069169,48.849763,67.580207,60.666878,76.744462,67.376183,79.830624,14.417696,291.864912,-54.46126,276.547846
106,2.793503,-10.700914,-0.188713,-0.099974,0.0,-30.21452,-33.982658,16.75312,-44.286175,19.900017,-50.92947,10.021591,-53.927307,-31.852055,0.0,3.43956,20.474399,45.350058,36.660479,55.889372,47.26815,59.340973,55.536592,66.666733,0.0,69.652805,28.44429,93.164577,20.621052,93.871593,12.725487,81.221523,5.546379,62.404461,0.0,7.755234,30.834142,52.806421,48.430539,67.408417,60.046903,76.494434,66.814131,79.807159,17.430067,280.943518,-54.431105,276.227392
107,-16.293755,11.061722,0.444603,-0.299675,0.0,0.282097,-22.097511,31.944809,-29.652843,38.523674,-31.59256,25.89901,-30.922623,-0.853329,0.0,-13.519635,16.394487,32.918465,33.581171,45.241316,46.086926,53.800355,55.223517,56.087714,0.0,69.630947,28.642902,93.332348,20.641251,93.080463,12.345314,80.028019,4.73917,60.791645,0.0,7.937151,30.339768,53.779113,47.747086,67.543465,59.381975,76.603053,66.260168,80.133695,1.353693,291.885614,-53.769121,275.808092
108,19.410553,-8.193909,0.373192,0.231194,0.0,-34.917183,-36.775475,9.578705,-44.038239,13.027382,-47.63546,6.253967,-48.506699,-18.460922,0.0,5.715371,18.15635,40.897545,33.490892,52.240849,44.134007,57.001867,52.032688,61.476117,0.0,69.795284,28.408756,93.044071,20.67009,93.085957,12.659454,79.892406,5.406532,60.821171,0.0,8.132406,30.324825,54.056619,47.615063,67.100838,59.219016,75.820367,66.102211,79.9222,20.952101,283.687413,-53.208075,276.034994
109,-12.056122,13.594477,-1.578884,-0.168332,0.0,-16.052399,-26.247196,26.369133,-32.460022,31.823044,-33.606834,20.554047,-32.097874,-11.451073,0.0,-23.638984,9.313444,26.925279,25.775054,40.667833,38.665885,49.6427,48.319327,50.962121,0.0,70.718536,30.360603,94.590683,22.768307,94.271278,14.530621,81.149368,6.876011,62.570457,0.0,8.503649,30.738861,53.244046,48.090603,66.456843,59.727407,75.640117,66.681923,80.325862,9.084463,297.324776,-54.598475,275.909548
110,-6.814156,6.158369,0.024948,0.500425,0.0,-5.033855,-19.623356,31.419983,-26.6082,35.169983,-29.101067,27.472572,-28.632889,-15.870037,0.0,-26.489445,5.099473,21.418686,20.510152,36.366114,32.849428,44.10622,42.210914,50.705548,0.0,70.320053,30.952206,94.611511,23.38726,94.476013,14.940262,80.520287,7.139111,62.197838,0.0,8.764483,31.385017,53.629924,48.557807,66.980734,59.971568,75.811537,66.790975,79.872923,2.456732,303.468015,-54.387102,276.394844
111,-13.079166,-0.46109,0.559559,0.580454,0.0,11.386414,-5.405674,45.80801,-10.628643,49.25806,-13.42598,43.550892,-13.98674,21.115208,0.0,-22.733352,5.344375,20.641063,21.141674,36.586316,33.419817,44.234105,42.955069,50.411307,0.0,70.237942,30.384235,94.234715,22.617073,94.058819,14.153709,80.031223,6.359081,61.278019,0.0,8.435786,30.764055,52.547933,48.232259,66.71039,59.865789,75.456904,66.753739,79.711569,-10.492516,303.016342,-53.697624,276.984715
112,32.490635,-20.696453,-0.252342,0.010436,0.0,-22.915936,-32.637291,12.563324,-42.247009,10.907593,-48.776436,0.821686,-52.94838,-26.652832,0.0,-8.865383,15.125208,36.638125,34.936654,51.933023,49.574651,60.290879,60.132181,66.107151,0.0,70.748692,29.945011,94.136982,22.128696,94.080448,13.708248,80.211697,5.988464,61.420383,0.0,8.565647,29.802725,52.160079,47.577951,66.600475,59.484234,75.166553,66.615109,79.621043,22.074823,282.308172,-53.873262,276.983434
113,-16.366997,12.492355,-0.205879,-0.033963,0.0,-3.132706,-24.444008,29.05117,-31.530075,35.441208,-33.405247,24.488754,-32.015762,-5.732403,0.0,-14.50863,11.524171,32.471207,28.090262,48.01323,40.636835,56.552942,49.684443,58.251387,0.0,70.016613,30.539246,95.070248,22.778606,95.412655,14.220829,80.736294,6.343746,61.600742,0.0,8.362364,29.687993,52.670076,47.27945,67.122451,59.182583,75.653517,66.392993,79.984568,5.760498,294.758506,-54.02647,276.90745
114,15.343552,-11.45464,-0.128059,0.026738,0.0,-23.418446,-32.029324,13.128662,-42.604809,13.413277,-50.055828,1.314011,-54.636497,-36.836929,0.0,-1.956377,15.962049,39.878107,33.495708,53.569841,46.144354,60.241232,55.717026,65.464329,0.0,70.692158,30.759716,94.999638,23.058872,95.403156,14.453659,80.679188,6.538754,61.631641,0.0,8.728544,29.990755,53.372054,47.564552,67.507341,59.399142,76.006236,66.525201,79.900464,21.16436,283.303357,-54.094219,276.933678
115,-16.317787,9.3119,0.063,-0.030072,0.0,-0.485115,-25.490456,28.832245,-32.128887,35.244942,-33.57914,27.680969,-32.010155,2.024345,0.0,-9.281149,13.560823,34.282655,30.649817,49.12554,43.72454,56.802784,53.401386,58.434971,0.0,71.089897,30.878735,95.106583,22.970123,94.904594,14.267921,79.753761,6.323147,60.755081,0.0,8.799681,30.468827,54.655475,47.928323,67.980164,59.517579,76.195501,66.339517,80.11764,4.885855,292.597535,-53.991938,276.885883
116,16.739845,-9.740201,0.039482,-0.131837,0.0,-22.801552,-34.995632,14.735641,-47.414932,15.634918,-55.717907,3.328629,-60.668335,-34.613457,0.0,-0.857713,14.504987,41.867829,32.102063,55.155962,45.260829,61.372252,55.661636,65.500391,0.0,71.37085,30.6954,94.960899,22.800751,94.789124,14.257908,79.966278,6.621437,61.172104,0.0,9.057489,31.127333,54.94033,48.73219,68.547589,60.322372,76.716489,66.987217,80.427318,21.656771,282.791816,-53.921385,276.688529
117,-23.257942,10.300524,-0.315285,0.123686,0.0,9.840088,-22.572899,32.065773,-28.546257,41.261444,-29.535599,35.864525,-27.586384,17.611885,0.0,-10.287001,8.876066,29.346328,27.748474,45.759155,42.654097,54.455095,54.018272,56.350956,0.0,71.53347,30.65815,95.329285,22.812595,95.034256,14.420986,80.340729,6.925449,61.565437,0.0,8.943868,30.693907,54.471953,48.367245,68.648921,59.976817,76.716736,66.729409,81.059581,-1.565809,293.050335,-54.201307,276.770209
118,1.513424,9.70945,-0.218639,0.350557,0.0,1.313553,-18.0233,31.810513,-24.962769,37.744045,-27.65379,32.948399,-27.511597,10.731754,0.0,-23.886047,4.643878,25.096047,20.421726,40.169816,33.322375,47.952838,43.939555,51.295388,0.0,71.143627,30.687962,95.223713,22.605915,94.528942,14.038868,80.083637,6.471863,61.034145,0.0,8.750836,31.043105,54.959472,48.605725,68.630705,60.096798,76.991278,66.750281,80.823447,-0.035448,302.744548,-54.403009,277.10553
119,-6.256428,-3.866687,-0.499363,0.411381,0.0,4.452839,-12.676277,43.44944,-17.381401,47.13707,-19.129314,42.083817,-18.074169,23.523674,0.0,-14.918591,7.574059,25.961726,24.479592,42.98687,37.199621,50.847636,47.385228,55.54042,0.0,71.668968,31.728802,96.066856,23.419075,94.974174,14.41658,80.015717,6.371784,61.151962,0.0,8.444863,31.04749,55.865289,48.52792,69.437412,60.016275,77.175727,66.786343,80.55687,-6.275768,298.845148,-54.886265,277.484199
120,5.300732,-16.972842,-0.25034,-0.0875,0.0,-4.112892,-10.634766,38.93755,-22.052307,39.726048,-32.929287,27.65276,-42.795696,-0.643787,0.0,-4.107329,15.149723,41.02296,33.419014,55.882826,47.881578,61.976048,59.201417,65.276299,0.0,71.372051,31.346169,94.460392,23.243866,93.999996,14.46825,79.262753,6.259575,60.299435,0.0,8.140372,30.687361,55.185108,48.105053,68.773657,59.668065,76.966516,66.762075,80.941946,-0.959129,281.842203,-55.120697,277.366595
