takenoko1/special-research/HandMotion_SimilarSearch_自分用/NewProject/handData/test_key/d4_feature_d2/33.csv
frame,vel_0x_L,vel_0y_L,vel_0x_R,vel_0y_R,posFromWrist_0x_L,posFromWrist_1x_L,posFromWrist_2x_L,posFromWrist_3x_L,posFromWrist_4x_L,posFromWrist_5x_L,posFromWrist_6x_L,posFromWrist_7x_L,posFromWrist_8x_L,posFromWrist_9x_L,posFromWrist_0y_L,posFromWrist_1y_L,posFromWrist_2y_L,posFromWrist_3y_L,posFromWrist_4y_L,posFromWrist_5y_L,posFromWrist_6y_L,posFromWrist_7y_L,posFromWrist_8y_L,posFromWrist_9y_L,posFromWrist_0x_R,posFromWrist_1x_R,posFromWrist_2x_R,posFromWrist_3x_R,posFromWrist_4x_R,posFromWrist_5x_R,posFromWrist_6x_R,posFromWrist_7x_R,posFromWrist_8x_R,posFromWrist_9x_R,posFromWrist_0y_R,posFromWrist_1y_R,posFromWrist_2y_R,posFromWrist_3y_R,posFromWrist_4y_R,posFromWrist_5y_R,posFromWrist_6y_R,posFromWrist_7y_R,posFromWrist_8y_R,posFromWrist_9y_R,posFromBody_0x_L,posFromBody_0y_L,posFromBody_0x_R,posFromBody_0y_R
3,-19.891777,28.408709,0.635834,0.416383,0.0,-33.898888,-32.277145,20.297928,-32.817535,33.092422,-28.691311,33.594589,-22.117081,16.296272,0.0,46.102672,12.582326,35.985547,8.925899,34.725159,4.649189,29.002748,1.702027,24.627979,0.0,70.985355,24.354858,82.869129,14.572735,80.894909,5.158138,67.201824,-3.707142,46.909389,0.0,12.159829,32.647196,60.815758,48.854888,75.856491,59.571302,85.612191,66.026134,90.219328,2.614374,324.507816,-41.662874,282.509138
4,18.529015,-28.980518,0.573063,0.457818,0.0,-38.140354,-36.329327,10.051918,-45.049896,10.608101,-49.697227,2.04895,-52.060604,-68.615398,0.0,39.044477,18.857403,52.729788,33.66262,61.014038,44.942506,66.39429,55.421057,82.095135,0.0,69.98497,23.865795,81.857185,14.157143,80.504379,4.657917,66.844254,-4.299088,46.667747,0.0,11.982359,31.444668,60.439698,47.491933,74.796977,58.447382,84.442639,65.222823,89.788619,20.798264,295.162909,-41.434937,282.602567
5,-19.119644,33.401292,0.202904,0.245705,0.0,-42.911739,-35.727539,19.684868,-33.608665,35.975189,-26.874218,38.572311,-17.054844,16.689491,0.0,47.275251,11.194979,38.397024,2.087781,30.658709,-7.149648,22.91953,-14.398158,12.778383,0.0,70.120354,23.62215,81.42334,13.243446,79.535522,3.633041,66.470718,-4.995861,46.151962,0.0,12.2879,30.968449,60.669842,47.825818,75.053427,59.123426,84.211322,65.77833,89.055024,1.455717,328.249259,-41.454935,282.533329
6,22.446556,-37.505162,0.373592,0.488199,0.0,-26.709595,-39.547577,8.389206,-50.077801,6.907768,-55.769577,-3.385506,-58.275948,-74.85014,0.0,27.768666,22.383722,53.378044,38.441422,64.537949,50.171283,70.569976,60.985077,85.980903,0.0,69.322643,23.653793,81.704578,13.581104,79.863682,3.797665,66.077213,-5.300217,46.018009,0.0,11.339352,29.98495,59.344307,46.472804,73.496267,57.786283,83.432834,64.712579,88.472532,23.727865,290.373964,-41.255751,282.651396
7,-18.158798,33.177817,-0.242329,0.303812,0.0,-50.905094,-38.88588,12.292442,-36.480446,28.7463,-29.47134,32.034874,-20.350971,6.99749,0.0,44.642954,12.334954,36.997451,8.295983,35.326731,3.76023,30.627093,0.840238,26.420408,0.0,69.628372,24.109898,81.354218,13.763638,79.610481,3.923893,66.490974,-4.986076,46.526299,0.0,11.221408,30.24634,59.811511,47.226406,73.814652,58.730755,82.724804,65.626732,87.916964,5.392799,323.209807,-41.674347,282.613234
8,-0.994034,16.494523,0.244102,0.134431,0.0,-33.321362,-29.07011,3.280106,-28.655491,30.085945,-23.638115,32.514839,-16.30537,10.463905,0.0,35.703162,4.773801,25.918871,-5.791818,23.538516,-16.311124,15.580308,-25.011634,-0.947498,0.0,69.548264,23.73745,81.578064,13.608685,79.729843,3.927727,66.218491,-5.023613,46.333694,0.0,10.460088,29.954075,58.813686,46.735676,73.222527,58.120167,82.761916,65.060419,88.144452,4.251881,339.456495,-41.577129,282.499829
9,14.63871,-46.17844,0.390301,0.06632,0.0,-35.372772,-36.602669,8.840218,-44.508877,7.407303,-48.677387,-2.092438,-50.293636,-63.003387,0.0,34.204912,21.033549,50.224821,35.53835,61.639323,46.541841,67.532103,56.426353,81.094346,0.0,68.522129,24.198647,81.256084,13.997269,79.384747,3.989811,65.745678,-5.291862,45.720577,0.0,10.750438,29.768762,58.567425,46.667071,73.296319,58.213225,82.574071,65.230109,87.792413,18.803873,292.95192,-41.273546,282.240015
10,-19.197464,31.396565,0.515099,0.109298,0.0,-33.010998,-34.904137,22.314949,-34.446545,36.785088,-28.49493,38.999519,-19.32518,15.517502,0.0,48.602453,11.523059,41.289536,4.141106,35.064724,-3.99414,26.884709,-10.577352,19.859118,0.0,68.259716,23.742599,80.819836,13.671799,79.353848,3.790283,66.081905,-5.464382,46.281681,0.0,10.35011,29.111491,59.038396,46.09835,72.970277,57.896939,82.397959,65.28093,87.998783,-0.517359,324.127943,-40.882215,282.128771
11,24.583626,-31.921937,-0.005493,0.138321,0.0,-29.317303,-39.471703,6.597977,-50.54472,6.991196,-56.80212,-3.688202,-60.318775,-74.90078,0.0,35.849634,17.835248,54.456206,32.163752,64.237595,43.219607,69.649586,53.711126,81.287254,0.0,68.413067,23.947048,81.294537,13.679409,79.268703,3.534622,65.342274,-5.895138,45.125828,0.0,10.072171,29.65897,60.06444,46.43668,73.472801,57.979006,82.792915,65.094567,87.754437,23.992052,292.01617,-40.961924,282.077256
12,-21.538696,9.6548,0.045776,-0.082869,0.0,-21.830635,-24.738922,30.944366,-31.389256,35.135193,-33.633957,22.40078,-32.768211,-35.938282,0.0,38.186702,18.158017,47.55251,29.345401,54.17234,38.240672,61.129944,46.815951,73.609517,0.0,68.67857,23.863735,81.271534,13.558273,79.201984,3.414059,65.499287,-5.995903,45.440884,0.0,10.083781,29.509719,59.907965,46.406793,73.600872,58.065518,82.851825,65.199358,87.796304,2.393389,301.51925,-40.976114,281.842666
13,-16.914883,-18.087437,0.016537,-0.007225,0.0,16.433659,0.891323,49.611683,-10.837212,47.541676,-21.678314,28.997097,-30.789528,-28.256493,0.0,26.104616,19.786561,50.997998,39.20194,66.236765,54.014197,76.679933,66.233307,90.82547,0.0,69.343414,22.176075,81.926994,12.022305,80.134735,2.793961,66.14296,-5.114307,46.094971,0.0,11.38727,30.045404,60.145581,47.446608,74.009104,59.256313,83.16317,66.160812,88.214477,-14.554739,283.370279,-40.992823,281.773907
14,11.196957,1.419765,-0.121593,-0.457818,0.0,-3.003387,-14.834805,36.187935,-25.238056,34.489975,-32.926483,20.580254,-38.130398,-34.175148,0.0,39.307163,26.745153,55.123481,41.885551,68.215124,52.029539,74.865026,60.776855,86.89271,0.0,68.808231,23.037071,81.853809,12.700996,80.437717,3.106956,66.189823,-5.300732,46.457348,0.0,12.325753,30.961286,60.593889,48.168779,74.146128,59.759579,83.812476,66.523287,88.094558,-3.423586,284.734592,-41.18022,281.260638
15,5.146751,2.668174,0.24313,0.60466,0.0,-12.487736,-19.571514,30.311165,-29.942894,29.583206,-37.656555,17.334366,-42.636909,-31.591873,0.0,45.692588,21.869155,54.123063,36.831218,65.895779,47.434752,72.465714,56.460501,82.208879,0.0,68.924675,21.905022,81.853409,11.810875,80.885811,2.726212,66.789207,-5.051022,46.730461,0.0,11.776236,29.885038,58.922428,47.257343,73.303173,59.146459,82.73876,66.248806,87.356888,1.630096,287.338715,-41.030159,281.801247
16,-22.72356,23.538763,0.12846,0.483197,0.0,-3.353348,-9.592495,55.143185,-11.775627,62.091808,-9.963169,56.98122,-5.788136,39.588947,0.0,50.864,16.280064,47.530342,15.794953,45.284047,12.9716,38.685213,9.45899,31.018529,0.0,68.778706,22.876167,82.028675,12.820244,80.909672,3.545322,66.602268,-4.338741,46.962147,0.0,11.387702,30.697488,59.075446,48.115859,72.86246,59.867889,82.399935,66.68958,87.282602,-21.224298,310.798623,-41.032534,282.205589
17,-2.738171,-29.544238,-0.951862,-0.381371,0.0,32.050781,10.417385,61.068993,-0.264759,58.67466,-10.500755,39.635124,-18.897343,-15.880394,0.0,23.119848,20.004231,47.944872,41.017217,67.295352,57.066149,77.259337,70.06492,92.58301,0.0,69.513588,22.659073,83.550797,12.569389,82.522888,3.631554,67.688942,-3.899002,47.870865,0.0,11.839839,31.139621,59.034629,48.551261,73.547581,60.158425,83.383063,66.673093,87.143231,-24.266596,281.187201,-42.288523,281.757034
18,8.249645,2.531643,1.716785,0.875683,0.0,35.775089,0.588341,56.496792,-10.046539,58.558445,-19.578495,36.521587,-26.761436,-16.083241,0.0,8.272641,20.912703,47.670701,42.305207,66.515136,57.742193,77.656268,68.902283,88.486364,0.0,68.675594,21.448517,83.802052,11.76218,83.651562,2.99366,67.739582,-4.822712,46.924381,0.0,9.867531,29.57783,58.977695,46.365359,74.290686,58.097752,83.567944,65.434318,87.598702,-16.260481,283.726918,-40.815268,282.64079
19,29.029942,8.462894,-0.769787,-3.891387,0.0,-11.894875,-29.235191,28.287163,-41.154785,15.847893,-46.475029,-22.63052,-47.835503,-60.221443,0.0,-9.593297,20.728996,48.331924,39.6316,57.56676,52.292534,68.240195,62.105168,75.17736,0.0,69.585114,19.849777,82.25029,9.792023,84.193268,0.834332,64.910431,-6.227074,44.920692,0.0,12.466297,26.130984,65.354907,43.24616,79.804627,55.85121,82.184611,64.206473,84.129255,12.45389,292.225658,-41.900625,278.785249
20,-10.474091,2.437474,3.966751,-11.580919,0.0,-3.307686,-28.455734,-13.313427,-29.794922,-21.35828,-26.979446,-26.86655,-20.388737,-34.907284,0.0,11.39079,12.75393,36.459728,27.929341,59.682699,40.141658,67.719269,50.133245,75.11703,0.0,64.035988,13.458366,65.482864,4.284725,62.903481,-4.426746,33.907013,-12.601261,4.632225,0.0,19.694615,19.563642,62.095906,38.490576,84.191376,54.032413,98.199272,65.045229,95.930191,1.790657,294.778467,-38.123016,267.319664
21,6.942558,-10.687082,-0.165653,4.677532,0.0,-29.912453,-28.939018,-69.875393,-22.204056,-66.985874,-13.817024,-54.699268,-3.995247,-35.89325,0.0,-32.999791,32.766868,57.088812,50.300218,76.030936,61.261225,83.309951,66.714281,91.875042,0.0,34.053783,34.750443,21.499329,26.684303,-2.907257,13.477764,-14.962177,-2.080364,-13.277721,0.0,60.039185,15.442728,92.40554,16.149709,91.325216,19.530173,85.189016,22.861855,72.473495,8.662262,284.392603,-38.359623,272.298414
22,7.7742,-6.164667,-2.291451,-66.523966,0.0,-57.287464,-29.732323,-80.635757,-20.120716,-80.705452,-8.47332,-66.26112,3.403015,-41.804466,0.0,31.768796,31.56644,66.787887,47.780987,84.396943,58.89637,92.257092,65.66792,94.608362,0.0,53.371868,22.883377,37.122631,13.446465,28.94062,4.683495,20.595932,-3.774891,18.557911,0.0,25.74597,23.67202,35.710819,37.740185,47.109636,48.977463,56.185403,57.215832,65.830385,16.402702,278.239391,-40.684834,205.785903
23,5.117111,-0.095034,-9.54855,-5.438174,0.0,-60.33205,-29.527645,-85.500412,-20.85434,-84.149609,-10.282745,-69.47113,0.460052,-46.231155,0.0,31.969794,31.373779,66.578677,47.437346,84.534214,58.836163,92.808152,66.213423,96.026707,0.0,48.021069,33.675671,40.398674,29.803104,32.577209,22.73243,24.044895,13.71809,21.163158,0.0,-16.469823,-9.308628,-14.824113,-26.586084,-27.422555,-42.053821,-42.465203,-54.843134,-63.426689,20.81789,279.40547,-50.935307,201.608843
24,-0.209885,-1.720922,5.983543,-68.700915,0.0,-60.402374,-29.964466,-84.142742,-21.44371,-83.053493,-10.661888,-68.675995,1.144638,-45.657291,0.0,32.768906,32.814231,68.58291,48.947699,84.87026,60.15367,93.868654,66.968569,96.87028,0.0,23.74157,7.777061,17.884769,-1.505985,8.637199,-9.66465,7.103977,-16.155567,-1.274586,0.0,-30.426157,-34.343356,-61.856345,-35.149662,-65.030841,-33.315212,-57.954028,-28.166987,-52.091968,18.941889,278.470445,-46.61788,133.693826
25,-1.320534,0.638746,-7.516308,-47.264105,0.0,-59.483299,-28.521194,-82.654724,-19.820938,-81.795616,-9.364929,-67.394371,1.90361,-44.775524,0.0,31.762374,32.362094,67.398228,48.534218,84.076026,59.774522,93.237935,66.417632,96.054186,0.0,9.125576,-0.928288,-4.375134,-15.730762,-18.742046,-27.780991,-12.063103,-34.181271,-13.708591,0.0,-49.309896,-58.725414,-119.912075,-55.064571,-110.379016,-43.828775,-34.731674,-27.535836,-10.645184,17.602243,279.193326,-54.153299,86.513856
26,0.265274,-0.048845,-1.988525,-40.444204,0.0,-59.322166,-28.9781,-83.345718,-20.224342,-82.483349,-9.660873,-68.194256,1.604691,-45.766125,0.0,31.546186,31.854753,67.419964,47.886642,84.046324,58.980659,92.698977,65.577517,94.646771,0.0,0.059109,-7.20686,-20.176392,-24.658127,-29.347572,-38.257828,-8.585358,-47.804203,-21.29837,0.0,-52.115279,-60.400949,-125.556557,-56.612994,-124.54348,-46.883661,-25.792066,-33.646935,-17.960107,17.997351,279.563304,-56.011992,46.488473
27,-0.508804,-0.768237,-3.199081,-36.502706,0.0,-59.583721,-28.552094,-82.608433,-19.649162,-81.480503,-9.026756,-67.482777,2.264442,-45.056305,0.0,31.798498,31.516114,68.589023,47.546273,84.516369,58.845673,93.257448,65.813342,95.553514,0.0,-8.319569,-11.619072,-28.596096,-28.941822,-39.091759,-42.814579,-14.547844,-52.95639,-23.745117,0.0,-56.960741,-63.526076,-129.590279,-59.246186,-131.677628,-47.759776,-24.995918,-33.86053,-15.710818,17.796078,279.025304,-58.903542,10.216004
28,-0.614548,0.267441,-3.143291,-24.950254,0.0,-59.304657,-27.914829,-81.646957,-18.892937,-80.422783,-8.24604,-66.432552,2.976379,-43.876133,0.0,32.081439,31.229283,67.946572,47.260863,83.890343,58.561559,92.842238,65.511938,95.64052,0.0,-13.521423,-12.829456,-24.518509,-27.917118,-36.219635,-41.098709,-12.916317,-51.925449,-21.779251,0.0,-58.400545,-57.698998,-123.390908,-53.777631,-126.810152,-42.857503,-30.776158,-28.440603,-22.687657,16.953135,280.06833,-62.275229,-13.958665
29,1.373062,-0.073606,-1.02396,-21.542187,0.0,-58.732166,-28.424778,-82.288685,-19.677544,-80.792599,-9.067383,-66.717339,2.363205,-44.261284,0.0,32.336097,31.302334,67.635535,47.450684,84.005569,58.801645,93.127711,65.714665,95.27681,0.0,-9.442348,-11.804409,-24.250603,-27.066593,-37.806587,-39.944401,-12.274647,-50.618076,-17.185192,0.0,-54.372936,-60.490518,-126.437473,-56.850486,-132.423048,-45.480691,-35.512693,-31.535256,-22.414165,17.790928,280.849982,-63.834457,-34.645594
30,0.788612,0.061503,3.078117,-14.528884,0.0,-58.34095,-28.045292,-82.345505,-19.294624,-80.713749,-8.640175,-66.593571,2.872009,-44.157944,0.0,32.03352,30.81395,66.961715,46.76476,83.517556,58.017229,92.881326,64.983911,94.917114,0.0,-16.083641,-13.850555,-22.26059,-29.281025,-37.58955,-41.993752,-14.618568,-52.054024,-21.418247,0.0,-58.162219,-59.800149,-129.653434,-56.172127,-134.467605,-45.051927,-34.61373,-30.764889,-27.190219,16.514368,281.109766,-62.821512,-48.976197
31,1.716156,-0.048042,2.326927,-10.039042,0.0,-58.969402,-27.873287,-82.730141,-19.150543,-81.312447,-8.581581,-67.335434,2.828865,-44.518719,0.0,32.72284,31.202668,67.299922,47.278585,83.879228,58.537415,93.109865,65.484027,95.107491,0.0,-15.474529,-13.11636,-25.166931,-28.641243,-37.006245,-41.69157,-14.212589,-52.136879,-22.245083,0.0,-58.04724,-60.689571,-130.374571,-57.018941,-134.995787,-46.06695,-35.06985,-31.962229,-28.963074,17.012358,281.568371,-61.712751,-58.508593
32,0.82695,-0.047857,3.742962,-8.83105,0.0,-58.813305,-27.350178,-82.970867,-18.731232,-82.007046,-8.243523,-67.810307,3.16967,-44.430027,0.0,32.754456,31.509877,66.467464,47.825385,83.049302,59.142075,93.065343,65.966236,95.61335,0.0,-11.687336,-11.997814,-26.492729,-27.384453,-36.166649,-40.874977,-14.170761,-52.480145,-24.557705,0.0,-56.210165,-59.22834,-127.507716,-56.108555,-136.389138,-45.479086,-33.665182,-31.173306,-28.14414,16.555052,281.926878,-59.254045,-66.933278
33,0.752449,0.25682,6.822109,-1.297345,0.0,-58.854504,-27.585583,-82.911186,-19.03656,-82.289257,-8.698311,-68.260403,2.529602,-44.624577,0.0,32.07724,31.931323,67.317829,48.167915,83.238073,59.322509,92.688542,65.964137,95.034316,0.0,-12.846851,-10.470943,-21.524906,-26.081085,-34.255199,-40.115604,-14.348774,-52.398033,-24.339924,0.0,-52.860452,-60.295912,-126.576735,-56.97022,-134.100653,-45.719141,-33.965011,-30.417327,-22.337656,15.660181,282.586326,-54.079256,-67.827996
34,0.764923,-0.172345,6.200294,8.017519,0.0,-58.881054,-28.462658,-83.692017,-19.92897,-83.016415,-9.462891,-69.371567,2.022629,-45.553207,0.0,31.797325,32.047229,66.904101,48.275855,82.457548,59.405131,92.010584,66.065222,94.859871,0.0,-6.688442,-7.265339,-20.934906,-21.711903,-32.245502,-35.639362,-12.098637,-49.541931,-25.310669,0.0,-47.640906,-60.132026,-127.93086,-56.507802,-132.20402,-45.498445,-26.330407,-31.116218,-18.664463,16.530447,283.658005,-47.773619,-58.566453
35,0.488319,-0.772065,5.779018,41.246105,0.0,-59.535713,-28.445148,-83.513947,-19.870033,-83.600979,-9.338608,-69.444523,2.220268,-45.526428,0.0,31.679196,31.982885,67.118005,48.115612,82.657372,59.28972,91.908572,66.06374,94.746436,0.0,2.468567,1.93245,-5.321846,-12.988796,-20.135307,-27.740078,-11.437378,-42.011051,-24.035606,0.0,-29.025205,-52.462851,-95.946246,-52.517007,-90.715966,-44.747837,-18.735878,-33.211522,-15.031656,16.895027,283.091939,-42.11834,-17.114348
36,0.36335,-1.499794,5.779019,41.246106,0.0,-59.885159,-28.176956,-84.085636,-19.790497,-84.372311,-9.428558,-70.379791,1.9804,-46.44104,0.0,31.813689,32.473307,68.078532,48.498033,83.444258,59.69295,92.49341,66.543108,95.567716,0.0,11.625576,11.130237,10.291214,-4.26569,-8.025112,-19.840794,-10.776119,-34.480171,-22.760544,0.0,-10.409504,-44.793677,-63.961633,-48.526212,-49.227913,-43.997231,-11.141349,-35.306828,-11.398849,17.059593,281.717019,-36.538105,24.256633
37,-0.364037,-0.762926,5.779018,41.246105,0.0,-59.658508,-29.229984,-84.022808,-20.836945,-84.230804,-10.442848,-69.717751,1.091423,-46.734524,0.0,32.4491,33.092293,68.649353,49.047117,84.840929,60.349974,94.304612,67.329068,96.683917,0.0,20.782585,20.328026,25.904274,4.457417,4.085083,-11.941509,-10.114861,-26.949291,-21.485481,0.0,8.206198,-37.124502,-31.977019,-44.535416,-7.739858,-43.246623,-3.54682,-37.402132,-7.766041,15.348845,281.987177,-32.105799,66.535822
38,-0.219955,0.147336,-2.857475,10.426156,0.0,-59.915485,-29.015694,-84.395599,-20.8255,-83.817787,-10.663719,-68.891315,0.642929,-45.821857,0.0,32.551915,32.39618,68.114718,48.439617,84.576328,59.694803,93.963564,66.602636,96.12347,0.0,12.006683,28.260841,22.59201,8.40271,7.944717,-12.262115,-2.490692,-32.829494,-18.195362,0.0,60.852623,-10.912193,62.099672,-16.79957,61.828526,-13.765402,54.784163,-4.971402,42.895263,14.029427,282.825949,-36.062737,77.653412
39,-0.296516,0.147954,4.32332,13.537048,0.0,-60.219154,-29.59116,-84.483204,-21.06514,-83.905964,-10.65136,-68.915977,0.74192,-45.924454,0.0,32.698757,32.500415,68.088721,48.719655,84.168343,59.996453,93.608932,66.682911,96.020162,0.0,9.213238,24.936705,14.90387,4.100447,0.721264,-16.539516,-9.639873,-36.139755,-22.842378,0.0,64.476631,-2.117946,67.937557,-6.092511,65.938047,-2.789142,58.69105,4.974567,47.727064,13.230343,283.116855,-32.241984,91.333413
40,0.067406,0.624791,4.323321,13.537049,0.0,-59.41927,-29.622459,-84.599018,-21.418304,-83.783112,-11.253433,-68.905907,0.05722,-45.707989,0.0,32.215993,31.825113,67.212236,47.91974,83.81686,59.130033,93.086585,65.863483,95.053891,0.0,6.419792,21.612568,7.215729,-0.201817,-6.50219,-20.816917,-16.789055,-39.450016,-27.489395,0.0,68.100639,6.6763,73.77544,4.614547,70.047568,8.187117,62.597936,14.920536,52.558863,12.802134,283.597752,-28.414278,104.726568
41,1.459579,0.322708,0.750675,2.284673,0.0,-59.085388,-29.942207,-85.090199,-21.835785,-84.600163,-11.807327,-69.536476,-0.580444,-45.838337,0.0,32.112746,31.497465,67.215756,47.262592,83.711946,58.392425,92.810066,65.259626,94.737606,0.0,10.112228,19.19323,9.988861,-0.896187,-2.465172,-20.603371,-13.353996,-38.300171,-22.047729,0.0,64.804618,8.699892,70.98392,7.504466,75.294161,10.596772,67.075181,15.438931,58.737764,13.661213,283.895667,-28.264103,106.986448
42,1.169701,0.528028,6.913319,-0.772004,0.0,-59.75378,-30.024719,-85.550137,-21.832123,-84.826756,-11.752052,-69.755402,-0.558014,-46.402531,0.0,31.46449,31.203471,67.164318,47.185589,83.632411,58.664126,93.094674,65.842056,95.107676,0.0,5.616817,14.943638,5.361843,-4.160099,-9.560051,-23.268356,-19.253654,-40.638199,-27.270069,0.0,64.099799,11.983192,69.640478,10.432763,70.976448,12.015086,63.321497,14.957957,55.257511,14.353266,284.316758,-21.828432,106.107508
43,-0.115814,-0.279729,7.12904,-2.36254,0.0,-60.166168,-30.257835,-84.963169,-21.906395,-84.087696,-11.735573,-68.93137,-0.559273,-45.555153,0.0,32.004127,32.20284,68.135899,48.375767,84.014029,59.731359,93.43671,66.609737,95.653179,0.0,-2.368927,11.213951,-2.854328,-7.726479,-17.173805,-27.593822,-28.486691,-45.79319,-36.67408,0.0,67.005496,17.136449,66.389041,14.76582,61.536941,14.010088,49.732547,13.800229,47.41561,13.914299,284.180737,-15.022545,103.888677
44,-0.747185,0.470909,-13.556728,-6.398053,0.0,-59.928932,-29.556713,-84.40733,-21.029778,-83.835526,-10.740852,-69.011307,0.380173,-45.934925,0.0,31.805476,32.013081,68.179618,48.371012,83.760111,59.857391,93.015881,66.910153,95.223581,0.0,2.543793,27.065449,12.761421,4.69986,-1.458549,-17.050724,-15.753193,-37.526093,-29.937,0.0,69.792137,6.794213,69.745145,3.925041,71.406231,6.203446,64.064601,12.373887,51.425712,12.802277,284.715156,-28.944111,97.554134
45,-0.647163,0.112756,2.437248,-3.43391,0.0,-59.313526,-29.405479,-84.359379,-20.722504,-83.556519,-10.242805,-68.69173,1.076775,-45.855045,0.0,31.71532,32.123244,68.060316,48.547927,83.769189,60.029552,93.491482,67.036741,95.953286,0.0,6.664009,23.019848,6.249847,2.397423,-3.971043,-18.356953,-17.527142,-37.535362,-25.002537,0.0,64.952912,14.509865,72.176352,13.296469,75.182115,15.176121,60.886956,18.706917,52.678721,11.72965,284.802039,-26.932325,94.094352
46,-0.38578,0.052611,6.329613,-3.269252,0.0,-58.964653,-28.984337,-83.905449,-20.294838,-83.175144,-9.848671,-68.422909,1.357155,-45.67709,0.0,31.814986,31.771204,67.83431,48.321488,83.655136,60.048694,93.262388,67.27905,95.910925,0.0,5.168209,17.473354,3.179741,-2.194233,-10.699425,-22.506466,-23.93383,-41.828556,-31.112537,0.0,69.37597,21.108236,72.169559,21.063127,73.065496,22.055148,56.993037,23.111821,51.843361,10.831804,284.757486,-21.114779,90.727935
47,0.173264,0.107631,-9.276352,2.534824,0.0,-59.262314,-29.480839,-84.242363,-20.732803,-83.57935,-10.261002,-69.031849,0.985222,-46.445904,0.0,31.692164,31.671478,67.53939,48.324761,83.159959,60.094204,93.096774,67.349754,95.683066,0.0,6.663723,26.610889,14.280682,4.318886,-0.875187,-17.005348,-13.77388,-36.353588,-24.512043,0.0,67.034179,7.671902,68.427453,7.041708,67.797475,11.419504,58.969451,18.437037,50.560898,10.734415,284.825921,-30.661783,93.223563
48,0.718231,0.480789,1.810856,-1.662414,0.0,-59.502926,-29.526215,-84.958763,-20.944977,-83.999805,-10.473976,-69.509583,0.855789,-46.702251,0.0,30.969808,31.05527,67.307332,47.40011,83.089687,59.05161,92.385656,66.361624,94.628554,0.0,12.171364,23.605385,9.054451,3.226776,-1.283798,-17.233601,-14.983177,-35.898972,-22.257614,0.0,63.198644,15.335653,74.24215,15.062963,80.244413,17.582534,65.99637,21.535086,57.10147,11.116505,285.152658,-29.187069,91.407097
49,-0.532951,-0.835051,6.410923,-0.761475,0.0,-58.880882,-28.702984,-83.828545,-20.189667,-83.349323,-9.748535,-69.075737,1.612358,-45.743637,0.0,31.817394,30.815061,67.607686,47.054802,84.086339,58.699756,93.715142,66.120427,95.964648,0.0,8.433323,17.564793,6.598949,-2.972202,-6.456013,-23.187275,-19.486656,-41.712055,-26.883202,0.0,69.654928,22.134898,75.113788,23.417146,75.576051,25.144459,59.984505,26.946213,53.18634,10.294189,284.241484,-23.06551,90.569499
50,-0.680923,0.046251,-11.774998,4.099425,0.0,-58.763981,-27.594624,-82.9319,-19.173203,-82.737236,-8.91552,-68.288841,2.319374,-44.554596,0.0,31.251698,31.030817,67.214459,47.425366,83.781353,58.984179,93.729901,66.124317,96.417526,0.0,9.490013,28.959618,17.831841,7.853794,2.44812,-12.841187,-10.180435,-31.92627,-22.537766,0.0,68.767636,9.000123,69.779972,8.513313,71.703992,12.586154,63.85996,18.930546,53.314657,9.375772,284.186542,-35.078001,94.56773
51,0.516586,0.667645,4.122219,-1.039043,0.0,-58.918476,-28.601646,-83.336163,-20.176392,-82.751369,-9.875336,-68.142643,1.424446,-44.669495,0.0,30.698785,31.078921,67.099233,47.446361,83.832668,58.925763,93.497966,65.925975,95.706284,0.0,10.105762,23.288212,8.232536,3.238277,-2.312908,-16.89188,-14.638767,-35.764847,-21.766262,0.0,68.354742,14.749889,74.004596,13.831537,76.573845,15.953991,65.449817,19.732684,57.594671,9.694576,284.848213,-31.153564,93.522713
52,0.761833,-0.293561,-8.782196,10.186657,0.0,-59.595909,-28.70327,-84.064636,-20.229607,-83.222237,-9.881058,-68.377132,1.245918,-45.291996,0.0,31.407001,30.985245,67.767743,47.426663,84.534708,58.979239,93.938185,66.043609,96.019915,0.0,10.688152,33.381672,19.255314,14.116688,6.854839,-5.548267,-7.817516,-24.682903,-21.015015,0.0,65.069126,1.398801,65.562388,-1.697642,69.387085,0.682805,60.473352,7.016545,49.188711,10.342026,284.532514,-40.050144,103.687232
53,0.406952,-0.129614,6.352501,-6.719155,0.0,-60.011444,-28.555984,-84.326935,-20.007133,-83.490715,-9.661446,-68.697853,1.450195,-45.399055,0.0,32.032347,31.110166,68.161649,47.429071,84.478392,58.943732,93.992587,65.970682,96.282663,0.0,7.610779,23.139668,11.653805,2.151604,0.824718,-18.666744,-11.572037,-37.347279,-19.476929,0.0,64.987708,7.00049,73.266339,6.029279,74.61293,10.109685,63.954068,16.705648,55.511181,10.587873,284.370018,-33.858747,96.935195
54,-0.206223,0.28257,-10.275192,14.494983,0.0,-60.031414,-28.290939,-84.536991,-19.63932,-83.422565,-9.131927,-68.507309,2.16259,-44.835148,0.0,31.636836,31.089727,68.380615,47.126062,84.382679,58.453249,94.033589,65.366701,95.965636,0.0,16.847134,36.33379,20.406189,18.257961,9.676151,-0.92308,-4.770298,-20.527954,-20.302334,0.0,57.194312,-2.134094,52.218217,-6.447546,52.704749,-4.478974,48.547464,1.70181,43.107191,10.313673,284.642492,-44.201918,111.420081
55,-0.147514,0.114794,7.366047,-16.185308,0.0,-59.650326,-28.282127,-83.897095,-19.488716,-82.617702,-8.98304,-67.884636,2.284355,-44.619999,0.0,32.082797,31.330121,67.970099,47.682371,84.345443,59.109656,94.106208,66.006806,95.696836,0.0,11.345901,26.625824,14.350433,4.950542,3.338642,-15.648422,-11.148148,-34.291592,-20.380497,0.0,65.164098,10.31448,72.413535,9.937586,73.481323,13.755707,58.618802,20.616178,51.390237,10.061874,284.753596,-36.940155,95.231084
56,-0.067749,-0.108989,-6.28624,13.981065,0.0,-59.331779,-27.999573,-83.662376,-19.412613,-82.781925,-9.086266,-68.356991,1.970901,-44.957085,0.0,32.10441,31.232926,67.686294,47.53732,84.143273,59.053401,93.900208,66.103199,96.176514,0.0,12.705746,34.157066,18.170528,15.508862,6.395016,-3.613358,-7.526951,-22.806931,-23.531227,0.0,60.836599,-0.273709,51.400889,-3.691841,50.259247,-0.874849,44.907894,5.960551,40.051286,9.944115,284.574998,-43.276405,109.142541
57,-0.23838,0.262748,7.135391,-12.5232,0.0,-58.863888,-28.250885,-83.635197,-19.640121,-82.510242,-9.327621,-68.104477,1.651039,-44.840927,0.0,31.800412,31.23941,67.542415,47.564428,84.012362,59.031356,93.678524,66.031506,95.897896,0.0,10.115089,24.327736,12.558689,2.915955,1.135998,-17.318115,-12.530022,-35.601025,-21.070061,0.0,69.044309,11.122793,71.693031,10.601064,71.198163,14.189812,56.491562,20.652672,49.711305,9.696693,284.829055,-36.150055,96.61065
58,0.138931,0.038038,-8.030205,13.153795,0.0,-59.024448,-28.38501,-83.774929,-19.80526,-82.313862,-9.421463,-68.14888,1.780014,-44.873772,0.0,31.707293,30.903673,67.731433,47.086665,83.862185,58.552605,93.457149,65.700709,95.675347,0.0,11.232605,34.504166,20.004559,15.123024,9.366417,-4.963989,-6.172771,-24.876423,-22.978706,0.0,61.452312,-0.402088,55.214594,-4.001952,58.010961,-1.621813,51.775096,4.862474,43.144735,9.830046,284.854311,-44.185839,109.751662
59,0.31826,-0.094972,7.333374,-12.812099,0.0,-59.360504,-28.632317,-84.317551,-20.131073,-82.845554,-9.738922,-68.235741,1.484413,-44.673843,0.0,31.940277,30.98012,67.816031,47.144155,84.471044,58.562856,94.240453,65.512124,95.74352,0.0,9.821377,23.512573,12.602234,2.08849,2.905769,-18.645916,-9.819431,-36.965446,-18.555222,0.0,63.480319,9.705868,74.239896,8.477158,78.989491,12.159613,71.225982,18.835389,60.078736,10.144129,284.750385,-36.856642,96.93061
60,0.165138,-0.040076,3.307171,-0.291832,0.0,-59.310436,-28.688393,-84.387074,-20.328484,-83.079472,-10.00042,-68.486481,1.216278,-44.85569,0.0,31.92626,31.277572,67.990415,47.309708,84.511367,58.555013,94.392668,65.346077,95.846952,0.0,13.186741,19.989338,9.49934,-0.655289,-1.704597,-20.779152,-12.91111,-38.89246,-22.391682,0.0,64.31784,14.196636,75.296075,13.675308,78.574713,15.789796,67.838107,19.321086,59.760165,10.302458,284.700352,-33.55628,96.62882
61,0.201187,0.339627,-10.136776,4.918451,0.0,-59.432201,-29.164352,-84.142685,-20.868187,-83.103676,-10.681572,-68.758793,0.656433,-45.936985,0.0,31.625165,32.281942,67.437131,48.995123,83.930789,60.535596,93.540389,67.549702,95.726168,0.0,11.371307,31.303253,17.647419,11.560307,4.183846,-8.660374,-7.123318,-28.443432,-21.874752,0.0,65.066594,5.501499,66.196442,3.61666,70.63395,6.961124,68.149484,14.11917,56.28655,10.449657,285.016483,-43.747044,101.523775
62,0.314598,0.230823,3.419209,-3.518415,0.0,-59.517288,-29.293213,-84.414024,-21.22879,-83.503475,-11.215897,-69.064465,-0.021973,-45.967312,0.0,31.693152,32.2226,67.688023,48.80555,84.012362,60.334166,93.377861,67.39724,95.694984,0.0,16.782188,24.016285,15.030212,3.129158,4.548454,-17.237263,-7.772427,-35.51651,-17.044544,0.0,62.720202,9.337527,76.581688,8.144107,82.982303,11.705748,73.587595,17.980269,60.282111,10.725832,285.08924,-40.366259,97.847295
63,-0.041771,0.160798,1.636677,-0.863178,0.0,-59.670696,-29.877777,-84.614124,-21.537094,-83.324718,-11.288223,-69.325848,0.062485,-46.484814,0.0,32.071682,32.373703,67.737361,48.924543,83.612466,60.388136,93.04867,67.356485,96.186147,0.0,15.339146,22.410393,11.655521,2.635345,-0.265045,-17.520618,-10.495663,-35.972672,-18.968983,0.0,67.188184,13.230304,75.923891,12.519464,80.053944,15.107856,71.363315,19.259737,62.130702,10.681572,285.022411,-38.732071,96.756489
64,0.082741,0.199948,4.613857,-1.824509,0.0,-60.015621,-30.203876,-85.146904,-21.803627,-84.066868,-11.453705,-69.323959,-0.070381,-46.439896,0.0,32.428167,32.430884,67.699385,49.256019,84.232378,60.843298,93.664136,67.799421,96.263335,0.0,7.606087,18.369198,7.354603,-2.03373,-6.087341,-22.355976,-17.641869,-41.138592,-25.526562,0.0,72.111267,19.08628,70.146122,19.153835,75.087266,20.973311,64.300333,23.348634,55.873317,10.754242,285.114296,-34.128284,94.823917
65,-0.512123,-0.212607,-16.219311,3.737505,0.0,-60.62788,-30.13464,-85.527306,-21.525192,-83.516808,-11.017799,-69.179764,0.390816,-46.23848,0.0,32.793174,32.751369,68.309541,49.581197,84.614181,61.203612,94.085089,68.121758,96.683299,0.0,14.394779,33.334694,24.055767,14.450054,11.022263,-4.977036,-1.228065,-23.82328,-17.644329,0.0,65.836251,5.785705,69.616056,5.396461,74.748874,10.002949,71.103253,17.982214,57.942264,10.237684,284.857661,-50.35203,98.517395
66,0.094757,-0.103123,5.962658,-3.613974,0.0,-61.047993,-30.615406,-85.502415,-22.009964,-84.230804,-11.53553,-70.057697,0.012703,-47.025032,0.0,32.841463,32.963481,68.420321,49.595584,84.626037,61.114074,94.161351,68.049572,97.114317,0.0,14.408054,23.964729,13.973808,3.58984,3.485298,-16.024532,-10.837383,-33.840466,-18.144951,0.0,70.226984,11.662986,72.46698,12.365829,73.872296,16.611231,58.787226,23.069306,53.831941,10.449944,284.756406,-44.27187,94.905289
67,-0.793419,-0.160922,3.838806,-3.32492,0.0,-60.683384,-30.283298,-85.141125,-21.576347,-83.742199,-10.848541,-69.138222,0.908775,-45.993977,0.0,33.471749,33.262539,69.211159,49.825605,85.313072,61.24165,94.932058,67.943484,97.432641,0.0,7.878914,21.186848,12.390862,1.161289,-0.875015,-18.954334,-15.040169,-37.359409,-23.033237,0.0,76.55143,17.976162,75.564905,18.368031,73.497749,21.074644,55.513744,24.644867,52.780856,9.850616,284.700954,-40.238972,91.685838
68,-0.468292,0.055267,-5.339241,1.015825,0.0,-60.082054,-30.358372,-85.091,-21.71093,-83.799076,-11.169891,-68.963184,0.313225,-46.183205,0.0,33.617357,33.119586,68.79811,49.922923,84.772386,61.542498,94.489245,68.430695,97.363233,0.0,11.875591,26.476994,16.053257,4.631824,2.406521,-16.554394,-8.692188,-35.977821,-24.932327,0.0,67.472298,5.770298,75.611373,5.060076,79.383582,10.030922,75.453724,19.015175,59.711877,9.505835,284.841065,-45.454702,92.786509
69,0.346985,0.350928,2.832184,2.214771,0.0,-60.193062,-30.8638,-85.455322,-22.257729,-84.28196,-11.705704,-69.497681,-0.151634,-46.59874,0.0,33.231046,32.842883,68.391978,49.592559,84.260228,61.190583,93.715636,68.114286,96.804824,0.0,8.758335,20.770969,11.5555,0.680408,0.668621,-18.634472,-11.042061,-35.812969,-18.538055,0.0,61.557565,5.357774,74.197257,4.187203,78.386652,8.152228,66.392252,14.663068,57.822407,9.896507,285.227361,-42.578831,95.036647
70,-0.12085,-0.159378,1.894283,-2.039307,0.0,-60.514069,-30.285988,-85.493431,-21.460075,-84.125118,-10.757904,-69.426498,0.795708,-46.39143,0.0,33.352386,32.580135,68.606128,49.266516,84.659877,60.905419,94.239959,67.873089,96.749804,0.0,0.831928,19.482307,8.674278,0.350475,-2.859421,-19.541416,-13.752823,-37.740612,-21.257172,0.0,73.796559,7.212572,66.748737,5.711203,55.92389,9.470475,53.074603,15.746818,51.57944,9.862804,285.070283,-40.597401,92.99964
71,0.421829,0.277321,-13.685989,16.123619,0.0,-61.440182,-30.623245,-85.491829,-21.868744,-84.733143,-11.28582,-70.041161,0.181274,-47.003803,0.0,32.824852,31.790779,67.936074,48.351375,84.054599,60.080928,93.757997,67.27942,96.934932,0.0,16.076317,30.268879,23.773785,10.746918,11.037884,-9.899025,-1.748829,-29.382591,-15.443745,0.0,42.773986,-21.159859,45.145572,-25.31452,38.985536,-21.759271,33.441646,-12.940108,28.596708,10.368376,285.345582,-54.199648,109.121237
72,0.366325,-0.0268,4.751415,-3.689525,0.0,-62.291164,-30.436993,-85.606041,-21.800995,-84.412308,-11.444321,-70.139065,-0.218353,-46.68354,0.0,32.645035,31.494007,66.503403,48.146549,82.632919,60.009236,93.478021,67.277197,97.56985,0.0,14.718418,21.914806,23.577518,2.362633,15.180988,-16.836605,-0.045719,-33.872967,-13.141479,0.0,31.37807,-22.79643,27.718865,-24.469249,36.602649,-19.524678,30.176222,-10.635335,23.906703,10.788031,285.183055,-49.394903,105.295984
73,1.069679,0.515369,-5.756779,6.342447,0.0,-62.509518,-29.709778,-86.635838,-21.254539,-84.759407,-11.287994,-70.793839,-0.926056,-48.294468,0.0,29.916593,30.279562,64.995396,46.815025,79.273573,58.89427,90.432861,66.518223,96.236041,0.0,24.117451,16.876316,43.971634,-0.141735,19.050465,-16.098347,13.886662,-30.666733,-0.027294,0.0,22.066541,-28.003627,-21.629687,-32.723458,-10.363047,-28.901848,24.919163,-17.133208,22.299463,11.953783,285.39262,-55.055609,111.332627
74,1.916771,-0.776203,-1.662254,0.537723,0.0,-62.064342,-28.909264,-87.534943,-20.665855,-86.97916,-11.002808,-73.954868,-1.13903,-53.000507,0.0,26.090414,28.98799,61.122349,45.974664,74.628769,58.692038,87.453218,67.034209,93.134812,0.0,31.033802,17.076759,47.351532,-1.450939,27.695961,-18.553104,20.068359,-32.456303,5.264797,0.0,20.393228,-31.621336,-31.023469,-36.827822,-26.69918,-33.349391,27.771908,-19.90293,23.713115,14.014378,283.877126,-56.574039,111.131059
75,3.775978,-1.198761,-6.142788,0.850519,0.0,-63.239136,-29.483757,-89.910393,-22.053566,-90.286045,-13.215408,-78.065414,-4.17057,-56.163197,0.0,23.448113,28.099463,57.826173,45.62281,70.875764,58.626644,83.582949,67.054525,89.812701,0.0,45.554409,15.170002,54.636097,-1.467705,36.485939,-16.468449,27.46067,-27.723827,16.604862,0.0,14.126333,-31.136966,-35.384592,-33.640142,-24.175194,-27.844002,29.156013,-12.839177,27.332276,18.014917,281.888639,-62.492266,111.191852
76,2.953033,-2.276799,-2.590027,2.958925,0.0,-64.510002,-29.614449,-91.756554,-22.608032,-92.560387,-14.009628,-81.372414,-4.99855,-59.28463,0.0,21.85625,26.933924,55.375423,44.981285,67.444479,58.446888,80.904402,67.241259,88.639876,0.0,51.880932,15.183907,58.184795,-0.507202,41.78175,-14.364796,41.826267,-24.695606,22.908669,0.0,9.719237,-30.620393,-28.89274,-29.49774,-16.060202,-19.753123,28.75905,-2.563105,32.046148,21.317682,278.393165,-64.732561,112.932102
77,2.93335,-1.669299,-12.515717,-6.906382,0.0,-65.549297,-30.322609,-92.871666,-24.077682,-94.196377,-15.93956,-82.671432,-7.11422,-60.483513,0.0,20.577646,27.013397,52.831553,45.070699,65.088948,58.488817,79.353787,67.176112,87.52065,0.0,57.365055,21.243896,73.305073,7.433453,70.015812,-2.84729,61.694126,-8.948135,39.590435,0.0,22.891557,-18.164439,10.973727,-9.038346,20.52596,5.991581,42.456249,24.061542,48.731449,24.834566,275.692248,-76.664743,104.994102
78,1.617393,-2.541894,2.637806,2.924839,0.0,-66.060162,-31.631699,-94.490433,-25.309525,-95.442924,-17.137871,-83.573742,-8.195801,-62.357311,0.0,21.919111,28.424641,53.64283,46.576113,66.270172,59.878819,81.545742,68.322138,88.896819,0.0,58.238869,15.711021,72.268181,5.640507,69.743843,-2.883453,59.792404,-8.163872,41.447926,0.0,1.215433,-2.672311,21.703695,12.083043,42.100721,26.843614,52.791323,41.189099,60.503455,26.73214,272.1418,-73.746758,106.910387
79,0.763206,-0.507588,-1.495285,35.606754,0.0,-65.62746,-31.409225,-94.4664,-25.172653,-95.455341,-17.235031,-83.171024,-8.582611,-61.98143,0.0,20.920052,27.998687,53.136538,46.134659,66.149511,59.45484,81.455215,67.95355,88.779555,0.0,59.09606,26.574755,75.722637,18.030653,72.019443,8.981123,61.190071,0.648765,44.953823,0.0,2.684167,4.226044,27.251121,17.886609,42.206824,30.934132,50.72165,43.210175,55.788302,28.113613,270.751736,-74.623775,141.634666
80,-0.447121,-0.061627,-1.495285,35.606755,0.0,-64.419079,-31.94355,-93.857059,-25.942955,-94.979382,-18.061752,-82.399921,-9.04541,-61.575451,0.0,20.962845,28.428531,53.984742,46.423898,67.553777,59.435142,81.599217,67.72038,88.810431,0.0,59.953251,37.438488,79.177094,30.420799,74.295044,20.845699,62.587738,9.461403,48.459721,0.0,4.1529,11.124398,32.798546,23.690175,42.312926,35.024648,48.651976,45.231251,51.073148,28.723841,269.644304,-75.061712,176.195615
81,-0.458679,0.993008,12.126503,22.076822,0.0,-64.550686,-30.745811,-93.820152,-25.24292,-95.423698,-17.706871,-83.058243,-9.116364,-62.238808,0.0,19.372772,28.086187,51.253336,45.757673,66.01681,58.504625,80.341485,66.356252,87.885101,0.0,61.216965,14.243431,63.189011,-0.578957,57.499466,-14.295902,42.197113,-26.455994,14.948044,0.0,16.740475,2.579129,35.111902,9.001543,45.361976,17.958934,53.968008,28.171773,49.396563,28.995781,269.695588,-62.20459,197.330713
82,1.791458,1.303736,-6.825829,33.634276,0.0,-46.604004,-34.127884,-93.933392,-30.493126,-97.857571,-23.797989,-86.12051,-14.829941,-63.630524,0.0,-1.164736,28.191039,49.215202,42.501944,65.690521,53.887547,78.753573,62.57725,87.233757,0.0,49.733162,63.798752,30.010872,67.055626,11.970234,62.507515,10.706635,52.278557,26.637325,0.0,23.442926,26.845683,89.933794,44.706681,100.620691,60.219311,108.261996,72.240881,117.838373,31.46204,270.159766,-68.355618,230.12543
83,7.199135,47.114515,-8.899956,13.35717,0.0,-67.331257,-33.960571,-103.154469,-35.407562,-110.750256,-34.430122,-101.646881,-32.218437,-78.131561,0.0,37.343068,11.3982,17.077817,-6.238768,-17.651108,-24.299528,-39.003968,-41.33764,-46.614707,0.0,61.355782,17.815704,83.79879,14.147644,78.239708,12.103271,67.386017,11.618042,54.537392,0.0,15.652618,19.89308,46.724931,42.047893,68.592666,59.88203,79.742877,72.909082,89.971091,39.135761,316.775276,-76.780987,242.983595
84,-8.741684,-47.368803,-5.780525,11.273773,0.0,-60.81625,-23.932114,-97.783756,-21.838417,-103.291283,-18.373489,-94.153118,-13.53447,-69.992466,0.0,5.989481,24.918885,22.514262,43.359472,39.645247,56.686137,63.064152,65.121367,87.835268,0.0,67.901115,21.858387,91.294785,14.348316,92.580643,9.014053,81.592941,5.523376,62.483997,0.0,18.461212,23.859248,46.329914,43.108889,61.277095,56.740478,75.201195,64.917344,81.652632,31.288118,268.742702,-81.667471,253.593597
85,-3.735466,-3.17323,0.242615,8.704894,0.0,-47.913437,-31.871681,-85.928936,-27.370949,-89.522781,-21.838188,-82.504005,-13.978729,-63.193188,0.0,13.203597,32.837449,42.05166,46.448413,54.219455,57.722988,69.612907,67.63924,87.678237,0.0,67.888012,24.49894,94.735565,18.230953,96.295052,13.004723,86.699524,8.815155,67.94157,0.0,16.718862,28.122249,44.261584,46.542521,59.829665,59.458669,74.998222,66.990367,82.263158,28.496704,265.433667,-80.480804,262.162686
86,-3.125267,3.585661,4.284267,3.757142,0.0,-45.465317,-28.160019,-64.786205,-23.536148,-63.115253,-17.640038,-55.123558,-9.364357,-44.090538,0.0,17.089427,33.940682,49.512901,44.045581,55.093903,51.274887,60.096983,56.454511,68.812807,0.0,67.09013,24.667454,94.522076,17.29208,95.202885,11.15736,84.710255,5.939026,66.179638,0.0,17.649318,28.01116,48.222873,46.658303,62.684263,59.311703,76.074038,66.784306,84.123574,26.465607,268.929003,-75.102367,265.829503
87,3.162575,1.17758,4.592972,2.152558,0.0,-44.389801,-33.514366,-32.650108,-29.404793,-25.28904,-24.294434,-23.736534,-17.440109,-30.213089,0.0,11.324717,28.889374,49.700437,40.732424,61.027191,50.350298,66.15476,57.936645,73.061976,0.0,67.27541,26.263905,94.894695,18.125439,95.604916,10.798416,83.959064,4.402142,64.206333,0.0,13.784977,27.875433,50.716293,45.988249,66.807277,58.261884,77.397966,65.929803,85.162216,30.612431,270.04244,-69.525146,267.917917
88,0.707474,3.071774,4.601727,0.911868,0.0,-42.715588,-29.911308,-26.19278,-25.93895,-13.353653,-20.719872,-8.479843,-14.202232,-12.959976,0.0,6.257354,27.538522,48.212931,37.578954,63.345857,45.049087,64.854914,50.726852,68.052721,0.0,66.833153,28.656406,96.543274,20.106354,96.356049,11.629658,82.857971,3.827305,62.655029,0.0,13.085283,28.691958,52.991981,46.653301,68.864306,58.771819,78.487861,66.670994,84.825368,32.093611,273.06818,-64.149714,268.783751
89,-10.205955,2.638966,4.405346,0.694198,0.0,-32.278719,-32.659722,-4.431668,-35.661364,4.17881,-35.597248,3.206176,-33.438006,-10.261231,0.0,7.305135,22.170281,46.379221,36.357345,61.807438,47.203157,65.169902,55.644593,68.512236,0.0,66.291561,27.932224,95.753574,18.76545,94.721775,9.572926,80.615559,1.16272,60.301609,0.0,10.073406,27.984484,55.277981,46.047961,69.788216,58.351731,79.703542,66.335133,84.713291,22.540312,275.873517,-59.091711,269.64432
90,-10.205956,2.638965,1.906528,1.508563,0.0,-21.84185,-35.408134,17.329445,-45.383778,21.711273,-50.474625,14.892197,-52.673779,-7.562485,0.0,8.352916,16.80204,44.545512,35.135737,60.26902,49.357228,65.484892,60.562334,68.971752,0.0,65.507584,29.040585,93.612671,20.319958,93.517685,10.834751,79.01104,1.646461,58.214607,0.0,9.600831,27.386184,54.990039,45.246997,70.482476,57.723297,79.611904,65.823407,83.738252,12.792435,278.688887,-56.727104,271.329288
91,-11.465378,16.453212,0.626335,-0.522594,0.0,-1.366081,-23.20158,34.070091,-31.780014,36.825142,-34.815044,23.710785,-34.661751,-10.204525,0.0,-15.902831,10.256867,35.78319,26.645797,47.147736,39.305372,53.734282,49.417064,53.376809,0.0,65.279045,28.472672,91.379128,19.911919,91.905441,10.703487,79.104996,2.027264,59.610443,0.0,12.580905,30.373237,59.704744,48.224663,73.622855,60.398201,81.605948,67.790343,83.744488,1.754751,295.187378,-55.673075,270.851973
92,20.980225,-4.937748,0.384922,1.994415,0.0,-41.741695,-46.801586,6.986504,-55.796127,12.250786,-58.143311,6.271362,-56.981163,-17.778053,0.0,17.011312,12.191199,44.111901,24.905917,53.921695,34.337181,54.990286,41.800953,55.474965,0.0,65.18034,28.538876,91.129589,19.730072,91.561604,10.198288,77.436504,1.298733,57.827854,0.0,11.979703,28.928833,58.017106,46.577657,72.77496,58.870867,80.161668,66.560584,82.697448,23.026743,290.211236,-54.996386,272.807994
93,-11.830788,3.03176,-1.205635,0.141655,0.0,-13.675804,-30.626965,21.165161,-38.886623,25.581665,-41.438828,11.32576,-40.900726,-21.180954,0.0,-10.700297,11.385417,39.190084,28.392839,50.135098,40.926629,56.113773,50.944646,55.683619,0.0,66.289616,29.550476,91.407681,20.729256,91.32597,11.044922,77.779942,1.832714,58.366642,0.0,12.914543,29.809023,58.255833,47.319526,73.060247,59.357522,80.336483,66.81234,82.809711,11.633263,293.25547,-55.764713,272.962123
94,14.593277,-4.760525,-1.369572,-0.224524,0.0,-45.95541,-46.992645,0.342636,-55.889339,6.077156,-58.989429,-0.00618,-59.208412,-23.377991,0.0,13.972327,11.253272,44.168649,25.486618,54.437125,37.023262,56.809638,46.373695,57.044784,0.0,66.177177,28.743439,91.968155,19.895954,92.24968,10.480499,78.858147,1.710892,59.2939,0.0,13.849506,29.651189,57.321672,47.369914,73.071856,59.408898,80.3547,66.762755,82.926604,26.800833,288.553114,-56.559992,272.795768
95,-8.291016,0.630348,-1.033573,0.311407,0.0,-23.05378,-41.973953,12.20295,-49.940872,17.966537,-51.343918,7.460518,-49.012985,-26.74078,0.0,-5.151219,13.140426,41.9825,30.678593,54.238536,43.670941,59.650342,53.78819,62.682843,0.0,66.529942,28.793221,92.095356,20.044155,92.137585,10.804882,79.015102,2.326984,59.914227,0.0,14.703452,29.396901,56.840575,47.375904,72.28176,59.623851,79.74158,67.025935,82.752839,18.946438,289.24069,-57.156944,273.164402
96,5.867386,-2.75061,-1.093082,-0.14252,0.0,-40.84631,-47.423573,3.934708,-57.688122,8.560066,-61.42971,0.833359,-61.215706,-27.89875,0.0,12.284812,10.860909,44.36057,27.290471,56.40931,40.171237,59.378393,50.636882,61.647351,0.0,66.807861,29.117317,92.144737,20.096569,92.312393,10.604382,78.666229,1.924839,59.505844,0.0,14.778294,30.196631,57.309816,48.18749,72.533145,60.172936,80.376498,67.153079,82.696275,25.290899,286.46118,-57.772951,272.992983
97,-13.284531,9.759159,-0.783463,-1.196229,0.0,-17.87899,-34.240723,17.557411,-40.837269,23.983383,-41.717777,9.900284,-39.463234,-58.791161,0.0,-15.207212,12.300126,35.747375,28.114036,45.632628,39.314635,52.072764,48.522609,55.909811,0.0,67.719727,28.496761,93.082695,19.268303,92.975464,9.922256,78.703079,1.621857,59.217911,0.0,15.705538,30.488587,57.590348,48.249117,73.670773,59.834976,81.115218,66.525386,84.17952,12.921009,296.221141,-57.641773,271.797557
98,9.889641,1.818611,0.431156,0.108434,0.0,-49.980469,-47.435646,1.931076,-53.448601,8.865395,-53.556061,5.822754,-50.514908,-16.942177,0.0,19.091313,5.470654,37.033389,15.293786,43.948386,22.944909,44.221693,29.345525,43.897812,0.0,67.637157,28.107491,91.816578,18.422756,91.322994,8.564014,77.549343,-0.165768,57.842274,0.0,16.356696,30.414795,57.473949,48.278386,73.26427,59.980769,81.110833,66.7199,84.040273,23.498039,298.033562,-56.523228,271.8998
99,-4.037361,-4.917494,0.226822,0.054526,0.0,-26.035709,-37.98975,11.219902,-42.707233,17.311249,-42.17886,7.775574,-38.207703,-23.847198,0.0,-12.001378,11.544919,34.057328,27.618242,46.000969,39.812034,55.117121,49.42046,59.054883,0.0,67.816257,26.909981,91.502094,17.128029,91.119633,7.527294,77.427578,-0.836449,56.974239,0.0,15.408519,30.527613,57.446717,48.606528,74.112165,60.325274,81.67727,66.918798,84.16186,20.157337,293.160451,-55.599747,271.998709
100,1.987953,5.537653,-0.018482,0.090341,0.0,-47.450294,-44.030514,1.848564,-49.072437,8.093491,-48.968525,4.433556,-46.003418,-19.463196,0.0,22.517905,7.579307,36.008456,16.076349,42.709055,22.464553,42.939878,27.818684,43.6455,0.0,68.011436,26.172638,91.663628,16.094799,91.319275,6.551571,77.91275,-1.452427,57.275391,0.0,15.433219,30.260913,57.693472,48.491919,73.827496,60.434078,81.948231,67.042361,84.279124,22.755575,298.754329,-55.007944,272.145273
101,-5.521431,-3.656736,-0.03931,0.078547,0.0,-19.88102,-34.138641,15.517502,-39.500198,19.86248,-39.997902,8.743515,-37.196789,-32.239037,0.0,-13.588363,10.682821,29.99798,27.394397,42.119339,40.289242,51.934258,50.24773,56.610678,0.0,68.03793,26.857109,92.058048,16.944065,91.678448,7.438431,78.195705,-0.596352,58.127575,0.0,15.407963,30.693289,58.067062,48.862298,73.586546,60.815696,81.404457,67.482456,83.783515,17.745667,295.155237,-54.535732,272.281464
102,8.756905,0.037544,-0.248508,-0.284175,0.0,-44.333954,-44.311867,1.641426,-51.943817,5.391655,-54.104176,-1.083069,-53.023567,-29.686317,0.0,18.585701,7.058257,36.909889,18.640844,45.766935,27.753846,48.005017,35.688589,50.975706,0.0,67.811737,27.533798,92.145653,17.75877,92.033157,8.174858,78.370972,-0.193748,57.619057,0.0,15.914316,31.055023,58.309309,48.934299,73.840587,60.66484,81.480039,67.355312,83.942831,27.204037,295.266789,-54.082775,272.071296
103,-5.844269,-1.185855,-0.311852,-0.023403,0.0,-24.683132,-42.234535,11.046066,-49.335022,18.013458,-49.726181,6.914291,-46.383533,-45.8218,0.0,-6.145092,12.738554,36.287259,27.693763,46.431123,38.834464,52.501065,47.363554,61.23177,0.0,67.326164,28.10194,92.442627,18.437862,92.185478,8.724461,78.211098,0.133381,57.728806,0.0,15.898508,31.028162,57.633944,48.866374,73.352944,60.704916,81.486955,67.575761,84.192858,21.83507,294.158014,-53.919325,272.124973
104,5.716782,3.865946,0.115528,0.256017,0.0,-44.727459,-44.393406,3.06324,-51.469345,8.21331,-53.077068,1.041069,-51.628647,-39.010105,0.0,16.189291,8.641538,35.740891,18.38989,43.064552,25.437897,43.889538,31.40064,48.244918,0.0,67.38596,27.479668,91.663227,17.909946,92.067204,8.41713,78.149586,0.015163,57.543926,0.0,15.953651,30.498096,57.355018,48.582137,73.06778,60.611055,81.209078,67.596076,83.818465,27.980719,298.088489,-53.374929,272.445519
105,-7.226715,-4.108378,-0.587425,-0.204332,0.0,-21.467285,-40.446453,12.651901,-48.039951,17.634659,-49.170799,6.623726,-46.677132,-21.589108,0.0,-3.361013,12.57788,34.868049,28.302993,46.494479,40.647023,52.358607,50.264218,57.340568,0.0,67.304592,28.371506,92.007236,18.851166,92.182674,9.153786,78.108387,0.457706,57.631016,0.0,16.174409,30.856619,57.929605,48.805673,73.089949,60.76364,81.39365,67.734397,83.965123,21.080904,294.065527,-53.635454,272.326603
106,1.787796,1.645772,-0.220585,0.220572,0.0,-39.310513,-42.32357,6.841164,-50.110588,11.769104,-52.751083,5.95562,-52.292118,-19.642296,0.0,18.892909,4.684078,38.211525,16.640563,46.903946,26.180446,49.392858,34.721886,51.825392,0.0,67.689056,27.719307,92.267075,18.071995,92.428665,8.438072,78.236847,0.022202,57.697334,0.0,16.154464,31.175251,57.604242,49.283992,72.759522,61.228004,81.133496,67.996651,83.739734,23.323917,295.701079,-53.400822,272.536956
107,-9.522514,3.879717,-0.619469,0.661779,0.0,-15.161133,-31.102638,18.335724,-37.249374,22.683105,-38.093891,11.41674,-36.066799,-47.899189,0.0,-15.951613,9.950029,30.277586,25.389299,41.015735,36.780213,49.227058,45.671222,54.382044,0.0,68.219948,27.077465,92.781258,17.696743,92.909889,8.612022,79.008064,0.629597,58.572121,0.0,15.184859,30.376201,55.969647,48.44363,71.722671,60.393261,80.227432,67.258796,83.254128,14.366856,299.650234,-53.454838,273.268174
108,3.684769,-10.426989,-0.404377,0.253362,0.0,-26.343212,-35.943718,13.061829,-44.225464,17.613602,-48.252754,10.497437,-49.261436,-14.493256,0.0,12.404732,11.036219,40.339074,25.978892,52.194103,37.404756,55.764142,46.884,59.109409,0.0,68.152027,27.340107,92.85799,17.894096,92.909832,8.595486,78.493137,0.535183,58.146458,0.0,15.274458,30.62839,56.602898,48.493093,71.65629,60.35442,79.925596,67.144063,83.029666,18.383474,289.347518,-53.527365,273.645808
109,-5.127068,3.712929,-0.016479,0.212915,0.0,-25.696335,-32.916813,17.276001,-40.623837,23.146935,-44.422474,16.599197,-45.327702,-8.006172,0.0,16.582085,14.679308,39.89762,25.22245,47.866202,31.799795,48.41152,36.526604,48.35366,0.0,68.360882,27.844219,92.830296,18.179283,92.374249,8.586102,78.157139,0.209427,57.266178,0.0,15.707885,30.498096,57.814317,48.671181,72.371915,60.699296,80.288565,67.447381,83.06721,13.488379,293.122351,-53.311872,273.920629
110,-1.247749,-0.20001,0.104542,0.035753,0.0,-24.666023,-34.349213,18.68454,-43.289623,25.249329,-47.637405,18.278618,-48.635674,-9.430046,0.0,18.869938,12.678471,40.977697,23.37179,48.818023,30.098448,48.841735,35.351246,49.209768,0.0,67.462692,27.295532,91.769829,17.31617,91.171989,7.451363,76.892166,-1.100578,55.728607,0.0,15.97866,30.674394,58.23632,48.781899,72.924334,60.673176,80.635973,67.250274,82.888751,12.406197,292.933009,-53.041763,273.967049
111,5.843925,0.812141,-0.908489,-0.010683,0.0,-34.928856,-39.999104,12.390404,-48.083725,18.790741,-50.931129,12.009659,-50.722103,-15.715313,0.0,17.66846,11.376772,40.051441,23.139485,48.709157,31.079847,49.282572,37.418465,50.616504,0.0,67.892475,27.39275,92.757397,17.78492,92.520504,8.413696,78.057346,0.196552,56.51865,0.0,16.081166,30.602948,57.376507,48.924357,72.674183,60.868122,80.238115,67.391683,82.609825,18.431339,293.728879,-53.769035,273.940095
112,-15.107803,6.732215,-0.201817,0.13301,0.0,-3.634586,-21.241493,31.250839,-27.381878,36.081047,-29.010944,24.354172,-27.834435,-25.834751,0.0,-20.244317,8.315496,26.584602,24.159231,39.478829,36.563963,48.248376,46.289776,50.585567,0.0,68.204956,26.882401,92.799683,17.35096,92.505455,8.276768,78.508415,0.503883,57.551079,0.0,16.239,30.428504,57.109128,48.90503,72.789965,60.931725,80.355873,67.463869,82.833361,3.51903,300.449717,-53.775358,274.061728
113,16.496658,-2.58901,0.08234,0.170493,0.0,-40.884304,-41.77042,9.321213,-48.565292,16.416664,-50.415745,10.957031,-49.221325,-15.946999,0.0,19.944766,8.761519,38.351267,17.975607,45.728094,24.03184,45.195991,29.093521,46.103599,0.0,67.467785,27.204838,92.251911,17.656059,92.063427,8.434296,78.086872,0.431156,57.327061,0.0,16.128899,30.683409,57.179832,49.113869,72.597551,61.144455,80.334816,67.681539,82.626003,20.187178,297.857713,-53.521528,274.229226
114,-7.639618,0.678267,-0.397167,-0.070889,0.0,-21.147881,-30.478821,20.211868,-36.147251,27.779617,-36.604614,18.289833,-34.663181,-11.473331,0.0,-17.224845,10.746671,30.063991,26.530015,41.914018,38.632478,50.088291,48.069608,51.160649,0.0,67.009163,27.123241,92.410927,17.543221,92.480621,8.408833,78.687744,0.614834,57.581291,0.0,16.468588,31.056567,56.425797,49.702351,72.012775,61.714597,80.213229,68.042408,82.449212,12.758474,298.529573,-53.707781,274.15193
115,12.280655,-4.585462,-0.522137,-0.026985,0.0,-45.108604,-42.960377,4.437561,-50.943546,10.104103,-53.625584,4.053726,-53.879986,-24.293861,0.0,15.934941,10.23686,39.531626,23.160357,49.759161,32.947488,51.78124,40.981093,53.822771,0.0,67.768993,27.484474,93.102207,18.077488,92.824001,9.018574,79.011211,1.146297,57.728176,0.0,16.157242,30.882184,56.497984,49.462451,72.303496,61.445735,80.363283,67.787009,82.503552,25.122385,293.980914,-54.146662,274.161748
116,-7.591896,-0.098121,0.121193,0.413543,0.0,-20.423641,-42.853489,15.106659,-49.781742,22.571526,-50.163918,11.688309,-47.067947,-16.182747,0.0,-2.846385,15.500341,37.334855,30.686064,48.417757,42.000963,52.553491,50.731174,57.22423,0.0,67.137852,27.319164,92.712765,17.714481,92.572575,8.371067,78.545094,0.288849,57.355099,0.0,16.270122,30.587449,56.790989,49.032729,72.260826,60.936356,80.230705,67.262624,82.449335,17.598009,293.907909,-53.957949,274.600408
117,9.051018,0.214768,-0.190773,0.328821,0.0,-49.361458,-45.282555,3.149071,-52.352257,9.38118,-54.001751,2.550545,-53.421707,-37.043266,0.0,18.340119,8.241704,40.07787,22.464491,49.125232,33.808289,53.206501,43.339033,56.975438,0.0,66.381054,27.232533,92.765865,17.631798,92.395077,8.278599,78.332806,0.136871,56.912155,0.0,16.016637,30.519462,56.517373,48.953504,71.888718,60.799209,79.61777,67.125106,81.676158,26.733656,294.150573,-54.064093,274.957125
118,-7.092247,-1.80515,-0.023003,-0.152647,0.0,-24.387302,-44.851227,14.322166,-52.943001,18.892365,-53.907223,10.329437,-51.519985,-10.379906,0.0,5.143254,12.748064,36.283925,29.932586,48.965915,43.436475,53.425715,53.580647,56.252155,0.0,66.786861,27.111511,93.106556,17.383862,92.415791,7.978077,78.281422,-0.19146,56.52689,0.0,16.127849,29.956422,56.457661,48.301111,71.84222,60.216902,79.849705,66.641971,82.070003,19.695969,292.34601,-54.032536,274.805064
119,5.365562,15.476691,-0.128689,0.058354,0.0,-57.408485,-47.391815,1.036034,-51.185074,10.672417,-50.235329,7.862206,-47.071209,-29.833202,0.0,29.87664,5.492823,33.969087,9.990599,35.629432,12.819386,34.016511,15.028815,33.81996,0.0,66.966019,26.336174,93.219681,16.532364,92.455673,7.378578,78.347626,-0.306072,57.24884,0.0,15.9702,30.654572,56.864843,49.146227,72.085949,61.032502,79.722437,67.170801,81.963607,25.178003,307.829555,-54.044752,274.870273
120,4.460793,-16.776537,-0.491009,-0.376801,0.0,-28.902054,-46.372375,6.688042,-52.607346,11.540337,-52.872677,-2.545509,-49.699001,-61.486874,0.0,-2.898503,15.577591,36.079531,33.539057,47.056346,46.590995,55.032091,56.737514,62.110232,0.0,68.038044,26.200161,94.407406,16.552391,92.989826,7.840061,79.546909,0.656662,58.904972,0.0,16.951723,31.013897,56.049799,49.501045,71.183158,61.482477,79.793018,67.651405,82.621804,29.772034,291.050733,-54.402523,274.491187
